rsonawane2002/My_IMU/logs_2/traj_312/imu_312.csv
time,j1,j2,j3,j4,j5,j6,j7,gripper1,gripper2,imu_ax,imu_ay,imu_az,imu_gx,imu_gy,imu_gz
675.083333333048,0.00016700293,-0.785875,4.0107683e-05,-2.3551247,9.29385e-05,1.570997,0.786,0.04,0.04,-9.56286,0.043960314244031906,0.083179936,1.2840157e-07,-0.0011641274904832244,5.3534876e-07
675.0999999997147,0.00016700744,-0.78576016,4.0111652e-05,-2.3552213,9.2965245e-05,1.5709941,0.786,0.04,0.04,-9.834406,0.0006354248616844416,0.009074682,-3.3196343e-07,-0.002238714136183262,6.0520205e-07
675.1166666663813,0.00016702342,-0.7856543,4.009469e-05,-2.35531,9.292856e-05,1.5709913,0.786,0.04,0.04,-9.8324795,0.0005941803683526814,0.00757161,-1.7902642e-06,-0.0032298776786774397,-1.6257475e-06
675.133333333048,0.00016706923,-0.785557,4.002313e-05,-2.355391,9.2738665e-05,1.5709884,0.786,0.04,0.039999995,-9.830686,0.0005321587668731809,0.006222499,-5.616239e-06,-0.004145968705415726,-7.5065527e-06
675.1499999997146,0.00016717103,-0.7854675,3.9848983e-05,-2.3554652,9.2229784e-05,1.5709856,0.786,0.04,0.04,-9.829023,0.00042494572699069977,0.0049908794,-1.3294744e-05,-0.004993262235075235,-2.1870195e-05
675.1666666663813,0.00016736143,-0.78538525,3.9510833e-05,-2.355532,9.1235546e-05,1.5709827,0.786,0.04,0.04,-9.82749,0.0003156174789182842,0.0038703103,-2.577972e-05,-0.00577857531607151,-4.215887e-05
675.1833333330479,0.0001676794,-0.78530955,3.8935574e-05,-2.3555963,8.9537534e-05,1.5709832,0.786,0.04,0.04,-9.825968,0.0001616749505046755,0.0028346586,-4.4310025e-05,-0.006504430901259184,-7.259978e-05
675.1999999997146,0.00016816925,-0.78524035,3.8039416e-05,-2.3556545,8.688914e-05,1.5709838,0.7859981,0.04,0.04,-9.825089,-1.1157768312841654e-05,0.0018060212,-7.0145805e-05,-0.007183261681348085,-0.00011392229
675.2166666663812,0.00016888013,-0.785177,3.672936e-05,-2.3557062,8.301437e-05,1.5709846,0.7859962,0.04,0.04,-9.823765,-0.0002073486102744937,0.0009928304,-9.549994e-05,-0.007814796641469002,-0.00016736158
675.2333333330479,0.00016986563,-0.78511906,3.49038e-05,-2.3557563,7.761415e-05,1.5709854,0.7859943,0.04,0.04,-9.822546,-0.0004402901395224035,0.00019864878,-0.00013042182,-0.008400026708841324,-0.0002339928
675.2499999997145,0.00017118301,-0.78506607,3.245368e-05,-2.3558006,7.036661e-05,1.5709864,0.7859905,0.04,0.04,-9.821962,-0.0006876174593344331,-0.00049603195,-0.00017621332,-0.008966615423560143,-0.00031476057
675.2666666663812,0.00017289305,-0.78501815,2.926347e-05,-2.355843,6.093031e-05,1.5709904,0.78598666,0.04,0.04,-9.820921,-0.0009669787250459194,-0.0011451484,-0.00022510764,-0.009499328210949898,-0.0004105417
675.2833333330478,0.00017505954,-0.7849746,2.521198e-05,-2.3558822,4.893647e-05,1.5709951,0.78598094,0.039999995,0.04,-9.820262,-0.001276444992981851,-0.0017522016,-0.00028692355,-0.010001638904213905,-0.0005228719
675.2999999997145,0.00017774869,-0.78493524,2.0172876e-05,-2.3559175,3.4022298e-05,1.5709999,0.7859733,0.03999999,0.03999999,-9.819605,-0.0015976751456037164,-0.0022695162,-0.00035419548,-0.0104849673807621,-0.00064987707
675.3166666663811,0.000181029,-0.78490007,1.4015361e-05,-2.3559518,1.5800397e-05,1.5710068,0.78596467,0.039999988,0.039999988,-9.818866,-0.00196667923592031,-0.0027078134,-0.00042796996,-0.010949579067528248,-0.00079469674
675.3333333330478,0.00018497098,-0.7848688,6.605143e-06,-2.3559828,-6.125353e-06,1.5710152,0.78595454,0.039999984,0.03999998,-9.818475,-0.0023553890641778708,-0.0031209143,-0.0005134211,-0.01140127144753933,-0.0009560767
675.3499999997144,0.00018964663,-0.78484124,-2.1952092e-06,-2.3560107,-3.2161715e-05,1.5710238,0.78594244,0.039999977,0.039999973,-9.817847,-0.0027859013061970472,-0.0034626827,-0.00060941034,-0.011835042387247086,-0.0011361511
675.3666666663811,0.00019512943,-0.7848172,-1.2525859e-05,-2.3560379,-6.2721585e-05,1.5710361,0.785928,0.03999997,0.03999996,-9.817277,-0.003247625660151243,-0.0037056743,-0.00071453187,-0.012259531766176224,-0.0013335417
675.3833333330477,0.00020149379,-0.7847966,-2.4529245e-05,-2.3560646,-9.8226046e-05,1.5710498,0.78591114,0.039999966,0.039999958,-9.8169775,-0.003756382968276739,-0.0039768494,-0.0008284962,-0.012672416865825653,-0.0015502443
675.3999999997144,0.0002088152,-0.7847795,-3.8349044e-05,-2.356089,-0.00013909949,1.571066,0.78589207,0.039999966,0.039999958,-9.816814,-0.004298283718526363,-0.0041447543,-0.0009518267,-0.013088141568005085,-0.0017856153
675.416666666381,0.00021716964,-0.78476554,-5.4130596e-05,-2.3561115,-0.00018577099,1.5710859,0.7858702,0.03999997,0.03999996,-9.816306,-0.004882278852164745,-0.0042626075,-0.00108643,-0.0134908901527524,-0.0020398274
675.4333333330477,0.00022663348,-0.7847547,-7.202003e-05,-2.3561325,-0.00023867171,1.5711062,0.7858454,0.039999973,0.039999966,-9.81592,-0.005515846889466047,-0.004359034,-0.0012303732,-0.013881701044738293,-0.0023129983
675.4499999997144,0.00023728353,-0.78474706,-9.216409e-05,-2.3561525,-0.00029823408,1.57113,0.78581756,0.03999997,0.039999958,-9.815659,-0.006186983548104763,-0.0043015694,-0.0013847493,-0.01427933294326067,-0.002604342
675.466666666381,0.0002491968,-0.7847425,-0.00011470965,-2.3561726,-0.00036489312,1.5711577,0.7857863,0.03999997,0.039999958,-9.815357,-0.0069008879363536835,-0.004247358,-0.0015490084,-0.014670951291918755,-0.0029156283
675.4833333330477,0.0002624502,-0.78474087,-0.00013980367,-2.356192,-0.0004390821,1.5711884,0.7857514,0.039999973,0.03999996,-9.81528,-0.007702661678195,-0.0041593444,-0.0017231463,-0.015063248574733734,-0.0032459833
675.4999999997143,0.0002771203,-0.7847423,-0.0001675928,-2.3562114,-0.00052123395,1.5712222,0.78571296,0.039999973,0.03999996,-9.815123,-0.008537069894373417,-0.0039879475,-0.0019066234,-0.015458010137081146,-0.0035953827
675.516666666381,0.00029328355,-0.7847466,-0.00019822318,-2.3562305,-0.0006117793,1.5712593,0.7856706,0.039999973,0.039999958,-9.814976,-0.009425648488104343,-0.0037435195,-0.0021010896,-0.015856342390179634,-0.0039628963
675.5333333330476,0.00031101613,-0.784754,-0.00023184012,-2.3562496,-0.0007111481,1.5712999,0.7856241,0.039999977,0.03999996,-9.814904,-0.010387551039457321,-0.0034584287,-0.002305179,-0.016261138021945953,-0.0043501626
675.5499999997143,0.00033039346,-0.7847643,-0.00026858813,-2.3562686,-0.00081976684,1.5713444,0.78557324,0.039999977,0.03999996,-9.814787,-0.01140690315514803,-0.0031039305,-0.0025194387,-0.01666995696723461,-0.0047561964
675.5666666663809,0.00035149057,-0.78477764,-0.0003086105,-2.3562877,-0.0009380572,1.571393,0.785518,0.039999977,0.03999996,-9.814722,-0.012492126785218716,-0.0026975146,-0.002743116,-0.017084533348679543,-0.00518087
675.5833333330476,0.0003743818,-0.78479385,-0.00035204948,-2.3563068,-0.0010664392,1.5714457,0.785458,0.03999998,0.03999996,-9.814617,-0.01364505011588335,-0.0022274954,-0.0029772634,-0.01750287227332592,-0.005623169
675.5999999997142,0.00039914084,-0.7848131,-0.00039904553,-2.3563259,-0.0012053299,1.5715028,0.7853931,0.03999998,0.039999966,-9.814573,-0.014894651249051094,-0.0017031424,-0.0032207724,-0.017928631976246834,-0.006086423
675.6166666663809,0.00042584,-0.7848355,-0.0004497377,-2.356345,-0.0013551348,1.5715644,0.7853231,0.03999998,0.03999996,-9.814471,-0.016175931319594383,-0.0011023722,-0.0034737983,-0.018358172848820686,-0.006564245
675.6333333330475,0.00045455154,-0.7848606,-0.0005042634,-2.356364,-0.0015162628,1.5716305,0.78524774,0.039999984,0.039999966,-9.814413,-0.017575589939951897,-0.00041796174,-0.0037362862,-0.018794255331158638,-0.0070625544
675.6499999997142,0.0004853462,-0.784889,-0.00056275807,-2.356383,-0.0016891139,1.5717018,0.78516686,0.039999984,0.039999973,-9.814341,-0.01905105821788311,0.0002920244,-0.004007981,-0.01923690363764763,-0.0075803343
675.6666666663808,0.0005182936,-0.7849205,-0.00062535546,-2.3564022,-0.0018740806,1.5717777,0.7850804,0.039999984,0.039999973,-9.814237,-0.020588606595993042,0.0011148821,-0.0042883675,-0.01968250796198845,-0.0081128795
675.6833333330475,0.0005534629,-0.78495497,-0.00069218694,-2.3564212,-0.0020715527,1.5718588,0.7849881,0.039999988,0.039999984,-9.814194,-0.022230777889490128,0.002012677,-0.0045780893,-0.02013598382472992,-0.008664235
675.6999999997141,0.0005909219,-0.7849928,-0.00076338265,-2.3564408,-0.0022819068,1.5719457,0.78488976,0.039999984,0.039999995,-9.814109,-0.023952942341566086,0.0029594847,-0.004877101,-0.020594654604792595,-0.0092325555
675.7166666663808,0.00063073717,-0.78503376,-0.00083906954,-2.3564603,-0.002505532,1.5720375,0.7847852,0.03999999,0.039999984,-9.8140135,-0.025719542056322098,0.004018714,-0.005184548,-0.021056214347481728,-0.009813322
675.7333333330474,0.00067297404,-0.78507787,-0.0009193733,-2.3564804,-0.0027427864,1.5721353,0.78467435,0.039999995,0.039999977,-9.814009,-0.02766200341284275,0.005139841,-0.00550053,-0.02152741514146328,-0.010410495
675.7499999997141,0.0007176969,-0.7851253,-0.001004416,-2.3565004,-0.002994026,1.5722386,0.7845569,0.039999995,0.04,-9.813964,-0.029702626168727875,0.0063242232,-0.0058255303,-0.022002985700964928,-0.011029593
675.7666666663807,0.0007649689,-0.785176,-0.0010943192,-2.356522,-0.0032596122,1.5723482,0.7844328,0.039999995,0.04,-9.813865,-0.031796954572200775,0.0076290434,-0.006158494,-0.0224843081086874,-0.01166123
675.7833333330474,0.00081485143,-0.78523004,-0.0011892006,-2.3565445,-0.0035399103,1.5724639,0.7843018,0.039999995,0.04,-9.813999,-0.034003518521785736,0.008975911,-0.0064998264,-0.022976109758019447,-0.012308402
675.799999999714,0.00086740544,-0.78528744,-0.0012891755,-2.3565683,-0.003835241,1.5725857,0.7841638,0.04,0.04,-9.8139925,-0.03632520139217377,0.010425405,-0.006849058,-0.023475565016269684,-0.012970732
675.8166666663807,0.00092269015,-0.78534836,-0.0013943578,-2.356594,-0.00414593,1.5727139,0.78401864,0.04,0.039999995,-9.814078,-0.0387432686984539,0.01195119,-0.0072059236,-0.023985859006643295,-0.013647189
675.8333333330473,0.0009807633,-0.7854128,-0.0015048581,-2.3566208,-0.004472317,1.5728486,0.7838661,0.04,0.039999995,-9.814235,-0.04128669947385788,0.013564982,-0.007570992,-0.02450856938958168,-0.01433912
675.849999999714,0.0010416816,-0.785481,-0.001620785,-2.3566477,-0.0048147314,1.5729898,0.78370607,0.039999995,0.039999995,-9.814207,-0.043939895927906036,0.015242109,-0.007943516,-0.02503734640777111,-0.015046162
675.8666666663806,0.001105501,-0.7855527,-0.0017422441,-2.356675,-0.005173474,1.5731376,0.78353834,0.039999995,0.039999995,-9.814147,-0.04670485109090805,0.017040256,-0.00832324,-0.02557070553302765,-0.015766324
675.8833333330473,0.0011722744,-0.785628,-0.0018693383,-2.356703,-0.005548853,1.5732924,0.7833628,0.039999995,0.039999995,-9.814035,-0.04958488792181015,0.018902315,-0.008709973,-0.02610761858522892,-0.01650015
675.8999999997139,0.0012420551,-0.7857069,-0.0020021687,-2.356732,-0.005941169,1.5734545,0.7831794,0.03999999,0.039999995,-9.814035,-0.05259116366505623,0.020873038,-0.009103467,-0.026651863008737564,-0.017248131
675.9166666663806,0.0013148941,-0.7857895,-0.002140833,-2.3567622,-0.006350716,1.5736234,0.78298795,0.039999988,0.039999995,-9.814006,-0.055713802576065063,0.022909403,-0.009504309,-0.02720002457499504,-0.01800909
675.9333333330472,0.0013908413,-0.7858758,-0.0022854258,-2.3567948,-0.0067777727,1.5737996,0.78278834,0.039999984,0.039999995,-9.814067,-0.058966320008039474,0.025072169,-0.009911704,-0.02775816060602665,-0.018782709
675.9499999997139,0.0014699454,-0.785966,-0.00243604,-2.3568292,-0.007222629,1.5739831,0.7825804,0.039999984,0.04,-9.814256,-0.06234064698219299,0.02731267,-0.010325961,-0.028329838067293167,-0.019568602
675.9666666663805,0.0015522531,-0.78606,-0.002592767,-2.356864,-0.007685518,1.574174,0.7823641,0.03999998,0.039999995,-9.814273,-0.06579656153917313,0.029641382,-0.010746302,-0.028908569365739822,-0.020365724
675.9833333330472,0.0016378103,-0.7861579,-0.002755693,-2.3568997,-0.008166709,1.5743725,0.7821391,0.03999998,0.039999995,-9.814212,-0.0694732815027237,0.032052565,-0.011173081,-0.029491038993000984,-0.021174565
675.9999999997139,0.0017266612,-0.78625983,-0.0029249038,-2.3569357,-0.008666438,1.5745788,0.78190553,0.03999998,0.039999995,-9.814157,-0.07324425131082535,0.034578077,-0.0116058,-0.03007822297513485,-0.021994833
676.0166666663805,0.0018188497,-0.7863658,-0.0031004811,-2.3569727,-0.009184969,1.5747929,0.781663,0.039999984,0.04,-9.814025,-0.07714231312274933,0.037200797,-0.012044542,-0.030666233971714973,-0.022826156
676.0333333330472,0.0019144163,-0.78647584,-0.003282505,-2.3570123,-0.009722511,1.5750146,0.7814119,0.039999984,0.04,-9.813987,-0.08118835836648941,0.039940283,-0.012488207,-0.031258367002010345,-0.023668285
676.0499999997138,0.0020134018,-0.7865899,-0.0034710518,-2.3570545,-0.010279328,1.5752442,0.78115165,0.03999998,0.04,-9.814089,-0.08536876738071442,0.04278299,-0.012939021,-0.03186110779643059,-0.024521641
676.0666666663805,0.0021158457,-0.7867079,-0.0036661965,-2.3570971,-0.010855622,1.5754819,0.7808823,0.03999998,0.04,-9.814299,-0.08968396484851837,0.045701593,-0.013394779,-0.032477475702762604,-0.025384255
676.0833333330471,0.002221785,-0.7868301,-0.0038680097,-2.3571405,-0.011451601,1.5757278,0.78060377,0.039999977,0.04,-9.814138,-0.09415201842784882,0.04869103,-0.013855641,-0.033094532787799835,-0.026257487
676.0999999997138,0.0023312552,-0.78695655,-0.004076562,-2.3571844,-0.012067457,1.5759819,0.780316,0.039999977,0.039999995,-9.814021,-0.09874315559864044,0.05182746,-0.014321654,-0.03371262922883034,-0.027138524
676.1166666663804,0.0024442913,-0.78708714,-0.0042919186,-2.3572295,-0.012703399,1.5762442,0.78001875,0.039999977,0.039999995,-9.813865,-0.10350027680397034,0.055060484,-0.014792879,-0.034331511706113815,-0.028029535
676.1333333330471,0.0025609273,-0.78722197,-0.0045141457,-2.3572776,-0.013359615,1.5765147,0.779712,0.039999977,0.039999995,-9.813785,-0.10840069502592087,0.058393985,-0.01526878,-0.034953486174345016,-0.02892942
676.1499999997137,0.0026811943,-0.78736115,-0.0047433004,-2.357328,-0.014036289,1.576794,0.77939576,0.039999977,0.039999995,-9.813981,-0.11344583332538605,0.061849363,-0.015749045,-0.035588834434747696,-0.029837884
676.1666666663804,0.002805124,-0.7875045,-0.0049794465,-2.357379,-0.014733599,1.5770819,0.7790699,0.039999977,0.039999995,-9.813996,-0.11864786595106125,0.06537703,-0.016234057,-0.03622948378324509,-0.03075529
676.183333333047,0.0029327464,-0.78765225,-0.0052226363,-2.3574302,-0.015451711,1.5773782,0.77873427,0.03999997,0.039999995,-9.813844,-0.12399950623512268,0.06900695,-0.016723393,-0.036870718002319336,-0.031681415
676.1999999997137,0.0030640874,-0.7878044,-0.005472925,-2.357482,-0.01619076,1.5776832,0.77838874,0.039999966,0.039999988,-9.813592,-0.1294843554496765,0.07277027,-0.017216837,-0.037509623914957047,-0.032612566
676.2166666663803,0.003199175,-0.7879609,-0.0057303635,-2.3575373,-0.016950902,1.577997,0.77803355,0.03999997,0.03999999,-9.813354,-0.13509851694107056,0.076650545,-0.017714199,-0.03814632073044777,-0.033551857
676.233333333047,0.0033380345,-0.78812194,-0.0059950002,-2.3575952,-0.017732289,1.5783193,0.7776683,0.039999977,0.04,-9.813548,-0.14096584916114807,0.08060758,-0.01821586,-0.03879515826702118,-0.034498964
676.2499999997136,0.0034806898,-0.7882874,-0.006266881,-2.3576539,-0.018535059,1.5786504,0.7772932,0.039999977,0.04,-9.81362,-0.1469406932592392,0.08469697,-0.018720774,-0.03945346921682358,-0.035452817
676.2666666663803,0.003627164,-0.78845745,-0.00654605,-2.3577127,-0.019359339,1.5789905,0.7769079,0.039999973,0.04,-9.813366,-0.15306401252746582,0.088862486,-0.019230021,-0.04011005908250809,-0.036412977
676.2833333330469,0.0037774786,-0.7886319,-0.0068325466,-2.3577726,-0.02020526,1.5793393,0.7765125,0.03999997,0.04,-9.813092,-0.159348726272583,0.093157835,-0.019742014,-0.04076195880770683,-0.037379097
676.2999999997136,0.003931654,-0.78881085,-0.007126413,-2.3578348,-0.021072932,1.5796974,0.77610695,0.039999973,0.04,-9.812883,-0.16579140722751617,0.09755529,-0.020257538,-0.04141435772180557,-0.03835003
676.3166666663802,0.004089709,-0.7889943,-0.007427682,-2.3579004,-0.02196245,1.5800643,0.7756913,0.039999973,0.04,-9.81281,-0.1724070906639099,0.10206845,-0.020776104,-0.04206971451640129,-0.03932646
676.3333333330469,0.004251661,-0.7891823,-0.0077363914,-2.3579667,-0.022873914,1.5804402,0.7752653,0.039999973,0.04,-9.812922,-0.17918336391448975,0.10667709,-0.021297803,-0.042736850678920746,-0.0403081
676.3499999997135,0.0044175256,-0.78937477,-0.008052567,-2.3580334,-0.023807427,1.5808253,0.7748289,0.039999966,0.04,-9.81264,-0.18613004684448242,0.111388996,-0.021822425,-0.04340171813964844,-0.0412963
676.3666666663802,0.0045873187,-0.789572,-0.008376239,-2.3581014,-0.024763087,1.5812196,0.7743823,0.039999966,0.04,-9.812309,-0.19322659075260162,0.116203375,-0.022349237,-0.044061578810214996,-0.042288117
676.3833333330468,0.0047610532,-0.78977376,-0.008707438,-2.3581715,-0.025740935,1.581623,0.77392524,0.039999966,0.04,-9.812045,-0.20047852396965027,0.12115094,-0.02287931,-0.04471976310014725,-0.0432824
676.3999999997135,0.0049387445,-0.7899802,-0.009046186,-2.3582447,-0.026741063,1.5820355,0.77345777,0.039999966,0.04,-9.8119135,-0.2079310119152069,0.12620085,-0.023411535,-0.045381370931863785,-0.04428331
676.4166666663801,0.005120401,-0.7901913,-0.009392503,-2.3583188,-0.02776353,1.5824574,0.77298,0.039999966,0.04,-9.81187,-0.2155277132987976,0.13135757,-0.023945834,-0.04604901000857353,-0.045286253
676.4333333330468,0.0053060343,-0.79040694,-0.009746407,-2.3583932,-0.028808402,1.5828884,0.77249163,0.039999966,0.04,-9.811529,-0.22330310940742493,0.13661483,-0.024483006,-0.04671319201588631,-0.04629336
676.4499999997134,0.0054956535,-0.79062736,-0.010107919,-2.358469,-0.029875726,1.5833288,0.7719928,0.039999954,0.04,-9.8111,-0.2312471717596054,0.14197053,-0.025022058,-0.04737168177962303,-0.047304433
676.4666666663801,0.005689265,-0.79085237,-0.010477057,-2.358547,-0.030965546,1.5837784,0.77148354,0.039999958,0.04,-9.810769,-0.23928701877593994,0.14745228,-0.025562735,-0.04802711308002472,-0.048316486
676.4833333330467,0.005886878,-0.7910819,-0.010853828,-2.3586285,-0.032077912,1.5842375,0.77096367,0.039999958,0.04,-9.810595,-0.2476264089345932,0.15304461,-0.026105754,-0.04868599399924278,-0.049332034
676.4999999997134,0.0060884953,-0.7913163,-0.011238245,-2.3587103,-0.03321283,1.5847057,0.77043325,0.039999954,0.04,-9.810506,-0.2560793459415436,0.1587168,-0.026649881,-0.04935114458203316,-0.050349098
676.51666666638,0.0062941224,-0.7915552,-0.0116303135,-2.3587935,-0.03437032,1.5851833,0.7698922,0.039999947,0.04,-9.810007,-0.26470181345939636,0.16451319,-0.027195293,-0.050008974969387054,-0.051368967
676.5333333330467,0.006503762,-0.79179907,-0.01203004,-2.3588774,-0.035550438,1.5856702,0.76934075,0.039999943,0.04,-9.809613,-0.27350085973739624,0.17039618,-0.027742174,-0.050664179027080536,-0.05239134
676.5499999997134,0.0067174165,-0.79204726,-0.012437431,-2.358964,-0.036753148,1.5861664,0.7687787,0.039999947,0.04,-9.809118,-0.2824440598487854,0.17641962,-0.028291,-0.051312267780303955,-0.05341252
676.56666666638,0.0069350842,-0.7923003,-0.012852486,-2.3590534,-0.037978478,1.5866718,0.768206,0.03999994,0.04,-9.808885,-0.29160305857658386,0.18251866,-0.02884034,-0.05196503922343254,-0.05443767
676.5833333330467,0.0071567707,-0.7925581,-0.013275203,-2.3591435,-0.03922644,1.5871866,0.7676227,0.039999936,0.04,-9.80865,-0.3009156882762909,0.18873137,-0.029390533,-0.05262157693505287,-0.055462915
676.5999999997133,0.0073824706,-0.79282045,-0.013705581,-2.3592348,-0.04049701,1.5877107,0.76702887,0.039999932,0.04,-9.808043,-0.3103935718536377,0.19503804,-0.029941652,-0.05326955392956734,-0.05648863
676.61666666638,0.0076121814,-0.79308754,-0.014143617,-2.3593264,-0.041790172,1.5882442,0.76642454,0.039999932,0.04,-9.807563,-0.32005375623703003,0.2014374,-0.03049338,-0.053914010524749756,-0.057514746
676.6333333330466,0.007845898,-0.79335934,-0.014589302,-2.3594222,-0.04310592,1.5887871,0.7658096,0.03999993,0.04,-9.806876,-0.3298760652542114,0.20795433,-0.03104629,-0.05454752594232559,-0.058540866
676.6499999997133,0.008083619,-0.7936357,-0.01504263,-2.3595195,-0.044444215,1.5893391,0.765184,0.03999992,0.04,-9.806716,-0.339895635843277,0.21458131,-0.031599093,-0.05519010126590729,-0.059566915
676.6666666663799,0.0083253365,-0.79391676,-0.015503584,-2.359618,-0.045805044,1.5899005,0.764548,0.03999992,0.04,-9.806186,-0.35007739067077637,0.22128446,-0.03215146,-0.05582979694008827,-0.06059258
676.6833333330466,0.008571042,-0.79420257,-0.015972158,-2.359717,-0.04718834,1.590471,0.7639016,0.039999913,0.04,-9.805554,-0.3604332208633423,0.22808771,-0.03270494,-0.05646268650889397,-0.061618436
676.6999999997132,0.008820731,-0.794493,-0.016448332,-2.359816,-0.04859406,1.591051,0.76324457,0.03999991,0.04,-9.804806,-0.37093931436538696,0.23500215,-0.033259127,-0.057086486369371414,-0.06264075
676.7166666663799,0.009074394,-0.7947879,-0.016932087,-2.359921,-0.050022177,1.59164,0.76257706,0.039999902,0.04,-9.804016,-0.38160431385040283,0.24201411,-0.03381304,-0.057699576020240784,-0.06366517
676.7333333330465,0.009332021,-0.7950876,-0.017423408,-2.3600266,-0.051472627,1.5922384,0.76189923,0.039999902,0.04,-9.803963,-0.39254605770111084,0.24912113,-0.034365807,-0.05832933261990547,-0.06468679
676.7499999997132,0.009593597,-0.7953917,-0.01792227,-2.3601327,-0.05294534,1.592846,0.7612109,0.039999895,0.04,-9.803146,-0.40359193086624146,0.25629705,-0.03491905,-0.05894802510738373,-0.06570669
676.7666666663798,0.009859119,-0.79570067,-0.018428655,-2.3602393,-0.054440238,1.593463,0.76051235,0.039999895,0.04,-9.802298,-0.4148067235946655,0.2635713,-0.03547181,-0.05955708771944046,-0.06672435
676.7833333330465,0.010128565,-0.7960141,-0.018942535,-2.3603466,-0.05595725,1.5940888,0.7598033,0.039999887,0.04,-9.801408,-0.42620596289634705,0.270969,-0.036024697,-0.0601542629301548,-0.067740835
676.7999999997131,0.010401924,-0.7963319,-0.01946389,-2.3604596,-0.057496324,1.5947238,0.7590841,0.039999887,0.04,-9.800569,-0.4377659559249878,0.27844843,-0.036576528,-0.06074473634362221,-0.06875387
676.8166666663798,0.010679183,-0.7966544,-0.019992687,-2.3605728,-0.059057347,1.5953678,0.7583545,0.039999887,0.04,-9.80031,-0.4495393633842468,0.2860049,-0.0371276,-0.061348360031843185,-0.0697648
676.8333333330464,0.010960323,-0.7969813,-0.020528892,-2.360687,-0.06064027,1.5960207,0.7576151,0.039999887,0.04,-9.799305,-0.461455762386322,0.29365268,-0.03767722,-0.061939969658851624,-0.07077438
676.8499999997131,0.011245327,-0.79731286,-0.021072473,-2.3608015,-0.06224495,1.5966827,0.7568651,0.03999988,0.04,-9.798392,-0.4735370874404907,0.3013794,-0.038228344,-0.06252465397119522,-0.07177898
676.8666666663797,0.011534181,-0.7976488,-0.021623403,-2.3609166,-0.06387135,1.5973536,0.7561047,0.03999988,0.04,-9.797319,-0.4857989251613617,0.30920964,-0.038776457,-0.06309618800878525,-0.072781704
676.8833333330464,0.011826865,-0.7979891,-0.022181636,-2.3610356,-0.06551927,1.5980335,0.7553344,0.039999884,0.04,-9.7963,-0.4982081651687622,0.31711987,-0.0393224,-0.06365834921598434,-0.07377814
676.899999999713,0.012123355,-0.7983341,-0.02274714,-2.361157,-0.06718866,1.5987222,0.75455415,0.039999876,0.04,-9.79561,-0.5108519792556763,0.32511365,-0.039867274,-0.0642232820391655,-0.0747737
676.9166666663797,0.012423632,-0.79868335,-0.023319878,-2.361279,-0.06887936,1.5994197,0.753764,0.039999872,0.04,-9.794733,-0.5236247777938843,0.33321166,-0.0404111,-0.06478603184223175,-0.07576353
676.9333333330463,0.01272768,-0.79903686,-0.023899805,-2.3614013,-0.070591316,1.6001261,0.7529639,0.039999865,0.04,-9.793585,-0.5365757942199707,0.34132776,-0.04095365,-0.06533807516098022,-0.076750845
676.949999999713,0.013035472,-0.799395,-0.024486875,-2.3615243,-0.072324365,1.6008409,0.75215393,0.039999865,0.04,-9.792374,-0.5496643781661987,0.34955654,-0.04149495,-0.06587837636470795,-0.077730775
676.9666666663796,0.013346984,-0.7997574,-0.02508105,-2.3616495,-0.074078366,1.6015645,0.7513342,0.039999854,0.04,-9.791122,-0.5629076361656189,0.3579116,-0.04203457,-0.06640776246786118,-0.078708336
676.9833333330463,0.013662192,-0.800124,-0.025682284,-2.3617785,-0.07585324,1.6022968,0.7505047,0.039999854,0.04,-9.790079,-0.5764138102531433,0.3662864,-0.04257218,-0.06693313270807266,-0.07968014
676.9999999997129,0.013981073,-0.800495,-0.026290525,-2.3619084,-0.07764875,1.6030375,0.74966556,0.039999854,0.04,-9.789182,-0.5900465846061707,0.37474078,-0.0431071,-0.06746111810207367,-0.08064533
677.0166666663796,0.014303597,-0.8008703,-0.026905725,-2.3620384,-0.07946482,1.6037862,0.74881697,0.039999843,0.04,-9.787895,-0.6038496494293213,0.3832845,-0.04364041,-0.0679800808429718,-0.081608705
677.0333333330462,0.014629741,-0.80124974,-0.02752783,-2.362169,-0.08130129,1.6045444,0.74795866,0.03999984,0.04,-9.786429,-0.617769718170166,0.39188635,-0.04417249,-0.0684865340590477,-0.08256255
677.0499999997129,0.014959478,-0.80163324,-0.028156793,-2.3623013,-0.08315794,1.6053102,0.747091,0.039999835,0.04,-9.784983,-0.6318871974945068,0.40053377,-0.044701673,-0.06897640973329544,-0.0835113
677.0666666663795,0.015292777,-0.80202097,-0.028792549,-2.3624382,-0.08503471,1.6060845,0.74621385,0.039999824,0.04,-9.783694,-0.6461885571479797,0.4092885,-0.045228653,-0.0694638043642044,-0.084455974
677.0833333330462,0.015629612,-0.80241287,-0.029435055,-2.3625758,-0.08693138,1.6068666,0.7453274,0.039999817,0.04,-9.782698,-0.6606523990631104,0.41811508,-0.045751814,-0.06995709985494614,-0.08539212
677.0999999997128,0.01596995,-0.8028088,-0.030084247,-2.3627136,-0.08884778,1.6076574,0.7444318,0.03999981,0.04,-9.781143,-0.6752708554267883,0.426969,-0.04627247,-0.0704391673207283,-0.08632448
677.1166666663795,0.01631376,-0.8032087,-0.030740073,-2.3628519,-0.09078375,1.6084563,0.74352705,0.0399998,0.04,-9.7794895,-0.6900256872177124,0.43587583,-0.046791144,-0.07090555876493454,-0.08724888
677.1333333330462,0.016661013,-0.80361265,-0.03140247,-2.3629909,-0.09273911,1.6092628,0.74261326,0.039999798,0.04,-9.777859,-0.7049433588981628,0.44485703,-0.047307417,-0.0713607668876648,-0.08816534
677.1499999997128,0.01701168,-0.8040205,-0.032071378,-2.3631325,-0.09471367,1.6100771,0.74169046,0.03999979,0.04,-9.776147,-0.7200276255607605,0.45392403,-0.047821093,-0.07180386036634445,-0.08907551
677.1666666663795,0.01736572,-0.80443245,-0.03274673,-2.3632777,-0.09670727,1.6108996,0.7407587,0.039999783,0.04,-9.774728,-0.7353087663650513,0.46304128,-0.04833086,-0.07224695384502411,-0.08997967
677.1833333330461,0.017723102,-0.8048484,-0.03342845,-2.363423,-0.09871973,1.6117296,0.7398182,0.039999783,0.04,-9.773281,-0.7507371306419373,0.472204,-0.048836652,-0.07268810272216797,-0.09087647
677.1999999997128,0.018083788,-0.80526805,-0.034116488,-2.3635688,-0.1007508,1.6125673,0.738869,0.03999978,0.04,-9.771433,-0.7662867903709412,0.48141244,-0.049339533,-0.07311692088842392,-0.09176456
677.2166666663794,0.01844775,-0.8056914,-0.03481077,-2.3637152,-0.10280033,1.6134127,0.7379113,0.03999978,0.04,-9.769496,-0.7819463610649109,0.49066523,-0.049839646,-0.0735316053032875,-0.092644505
677.2333333330461,0.018814944,-0.8061186,-0.03551123,-2.3638625,-0.10486808,1.614266,0.736945,0.03999977,0.04,-9.767597,-0.7978577613830566,0.4999624,-0.050336808,-0.07393462210893631,-0.093516186
677.2499999997127,0.019185342,-0.8065495,-0.036217812,-2.364012,-0.10695389,1.6151267,0.73597026,0.03999976,0.04,-9.765653,-0.8138852119445801,0.50932026,-0.050830476,-0.07432496547698975,-0.094381034
677.2666666663794,0.019558907,-0.8069842,-0.036930416,-2.3641648,-0.10905748,1.6159946,0.7349872,0.039999753,0.04,-9.763841,-0.8300639986991882,0.5187428,-0.05132019,-0.07471074163913727,-0.09523606
677.283333333046,0.019935595,-0.8074224,-0.03764899,-2.3643184,-0.11117871,1.6168698,0.733996,0.039999746,0.04,-9.7621155,-0.8464147448539734,0.52821183,-0.051804952,-0.07509719580411911,-0.09608296
677.2999999997127,0.020315368,-0.8078643,-0.038373448,-2.364472,-0.11331734,1.6177518,0.73299646,0.039999746,0.04,-9.759984,-0.8628771901130676,0.53766876,-0.052286442,-0.07547043263912201,-0.09692065
677.3166666663793,0.02069819,-0.8083097,-0.039103728,-2.3646262,-0.11547312,1.6186409,0.73198915,0.039999742,0.04,-9.757737,-0.8794899582862854,0.54720116,-0.052763887,-0.07582999020814896,-0.0977499
677.333333333046,0.021084014,-0.80875874,-0.039839745,-2.3647811,-0.11764586,1.619537,0.73097384,0.03999973,0.04,-9.755548,-0.8962539434432983,0.5567587,-0.05323832,-0.07617950439453125,-0.09857083
677.3499999997126,0.021472804,-0.80921113,-0.040581416,-2.3649378,-0.119835295,1.6204401,0.7299506,0.039999727,0.04,-9.753256,-0.913140058517456,0.56637317,-0.053708445,-0.07651528716087341,-0.0993795
677.3666666663793,0.021864526,-0.80966693,-0.04132867,-2.3650973,-0.122041196,1.6213503,0.7289197,0.03999972,0.04,-9.751051,-0.9301989674568176,0.57599497,-0.05417376,-0.07684346288442612,-0.100179575
677.3833333330459,0.022259131,-0.81012607,-0.042081434,-2.3652585,-0.124263376,1.622267,0.72788125,0.03999971,0.04,-9.748979,-0.9474313259124756,0.58566636,-0.054633748,-0.07716958224773407,-0.10097222
677.3999999997126,0.022656575,-0.8105886,-0.042839617,-2.3654199,-0.12650156,1.6231904,0.72683537,0.0399997,0.04,-9.746635,-0.9647539854049683,0.5953469,-0.05508923,-0.07748721539974213,-0.101753086
677.4166666663792,0.023056814,-0.81105435,-0.04360314,-2.3655815,-0.12875551,1.6241201,0.7257821,0.039999694,0.04,-9.744114,-0.9822133779525757,0.6050565,-0.05554098,-0.0777914971113205,-0.10252455
677.4333333330459,0.023459814,-0.8115232,-0.044371918,-2.3657439,-0.13102494,1.6250564,0.72472143,0.03999968,0.04,-9.741479,-0.9998078346252441,0.61479163,-0.055988126,-0.07808145135641098,-0.10328728
677.4499999997125,0.023865527,-0.8119953,-0.045145873,-2.3659074,-0.13330965,1.625999,0.7236538,0.03999967,0.04,-9.738901,-1.017538070678711,0.6245522,-0.05643025,-0.0783599466085434,-0.10403938
677.4666666663792,0.024273904,-0.8124705,-0.04592491,-2.3660717,-0.13560942,1.6269476,0.722579,0.039999664,0.04,-9.736323,-1.0353617668151855,0.63435644,-0.05686806,-0.07862960547208786,-0.10477756
677.4833333330458,0.024684899,-0.81294864,-0.046708945,-2.3662384,-0.13792391,1.6279023,0.7214974,0.03999966,0.04,-9.733602,-1.0533950328826904,0.64415985,-0.057300586,-0.07888749241828918,-0.10550639
677.4999999997125,0.025098467,-0.81342995,-0.0474979,-2.3664072,-0.14025295,1.6288631,0.72040904,0.039999653,0.04,-9.73104,-1.0715426206588745,0.6539879,-0.057727452,-0.07914192229509354,-0.10622494
677.5166666663791,0.025514564,-0.81391406,-0.048291672,-2.3665767,-0.14259627,1.6298298,0.71931404,0.03999965,0.04,-9.7283945,-1.0898199081420898,0.6638276,-0.058148626,-0.07938995957374573,-0.106932536
677.5333333330458,0.025933145,-0.81440103,-0.049090177,-2.3667462,-0.1449535,1.6308019,0.71821254,0.03999964,0.04,-9.725532,-1.1081849336624146,0.67364496,-0.058564797,-0.07962740957736969,-0.1076278
677.5499999997124,0.026354153,-0.8148909,-0.049893327,-2.366916,-0.14732447,1.63178,0.7171045,0.039999623,0.04,-9.722475,-1.126684546470642,0.68348944,-0.0589763,-0.07985050231218338,-0.10831342
677.5666666663791,0.02677755,-0.81538355,-0.05070104,-2.3670866,-0.14970893,1.6327634,0.71599,0.039999627,0.04,-9.719401,-1.1452808380126953,0.69335085,-0.0593825,-0.08005854487419128,-0.10898599
677.5833333330457,0.027203288,-0.815879,-0.051513217,-2.3672585,-0.15210648,1.6337522,0.7148696,0.03999962,0.04,-9.716409,-1.1640175580978394,0.7032361,-0.059782088,-0.08025920391082764,-0.10964534
677.5999999997124,0.027631313,-0.81637704,-0.05232975,-2.3674312,-0.15451697,1.6347466,0.71374327,0.039999597,0.04,-9.713308,-1.1829012632369995,0.71311736,-0.060177144,-0.08044920861721039,-0.11029757
677.616666666379,0.028061572,-0.81687766,-0.053150557,-2.3676052,-0.15694009,1.6357461,0.71261096,0.039999586,0.04,-9.710144,-1.2018492221832275,0.7229896,-0.06056683,-0.08062775433063507,-0.11093389
677.6333333330457,0.028494032,-0.81738085,-0.053975552,-2.367781,-0.15937556,1.6367508,0.71147287,0.03999958,0.04,-9.706997,-1.2209471464157104,0.7328569,-0.060949884,-0.08079840242862701,-0.1115589
677.6499999997123,0.028928623,-0.81788653,-0.054804623,-2.367958,-0.1618231,1.6377603,0.7103291,0.03999957,0.04,-9.703799,-1.240158200263977,0.742736,-0.061326757,-0.08096165210008621,-0.11217305
677.666666666379,0.02936531,-0.8183947,-0.05563769,-2.3681352,-0.16428238,1.6387749,0.70918,0.039999556,0.04,-9.700523,-1.2594746351242065,0.75260246,-0.061696954,-0.08111792802810669,-0.112774946
677.6833333330457,0.029804034,-0.8189053,-0.056474652,-2.368313,-0.16675317,1.6397941,0.70802534,0.039999556,0.04,-9.69704,-1.2788540124893188,0.7624528,-0.062062018,-0.08126028627157211,-0.11336143
677.6999999997123,0.030244745,-0.81941813,-0.057315405,-2.3684916,-0.16923514,1.6408181,0.70686555,0.039999545,0.04,-9.693507,-1.2983651161193848,0.77229583,-0.062420562,-0.0813903957605362,-0.113936886
677.716666666379,0.030687394,-0.8199332,-0.058159836,-2.3686702,-0.17172803,1.6418465,0.70570064,0.03999953,0.04,-9.689992,-1.3179620504379272,0.78214556,-0.06277305,-0.08151043206453323,-0.11450053
677.7333333330456,0.031131927,-0.8204505,-0.059007872,-2.3688495,-0.17423154,1.6428794,0.7045308,0.039999515,0.04,-9.686277,-1.337674617767334,0.7919528,-0.06311976,-0.08161664754152298,-0.11504974
677.7499999997123,0.03157829,-0.8209699,-0.0598594,-2.3690295,-0.1767454,1.6439164,0.703356,0.039999504,0.04,-9.682626,-1.3574846982955933,0.8017882,-0.06345992,-0.08171293884515762,-0.115585126
677.7666666663789,0.032026432,-0.8214914,-0.060714323,-2.3692102,-0.17926924,1.6449573,0.7021765,0.039999496,0.04,-9.678882,-1.377395749092102,0.8115849,-0.06379349,-0.08179912716150284,-0.11610991
677.7833333330456,0.032476295,-0.8220149,-0.06157254,-2.3693922,-0.18180287,1.6460024,0.7009925,0.03999948,0.04,-9.675074,-1.3973883390426636,0.82137674,-0.064120054,-0.08187465369701385,-0.11662147
677.7999999997122,0.03292783,-0.8225404,-0.062433947,-2.369575,-0.18434592,1.6470517,0.69980425,0.039999485,0.04,-9.671307,-1.417476773262024,0.83114845,-0.06443956,-0.08194299042224884,-0.1171168
677.8166666663789,0.033380985,-0.8230677,-0.06329843,-2.369759,-0.1868981,1.6481045,0.6986116,0.039999478,0.04,-9.667406,-1.4376519918441772,0.8408789,-0.0647529,-0.08200102299451828,-0.11759884
677.8333333330455,0.03383572,-0.82359695,-0.06416589,-2.369944,-0.18945907,1.649161,0.69741493,0.03999946,0.04,-9.66349,-1.4579449892044067,0.8505929,-0.065057926,-0.08205209672451019,-0.11807099
677.8499999997122,0.034291953,-0.8241278,-0.06503624,-2.3701296,-0.19202857,1.6502206,0.69621426,0.039999448,0.04,-9.659482,-1.4782885313034058,0.860287,-0.06535621,-0.08209443837404251,-0.11852771
677.8666666663788,0.03474964,-0.8246604,-0.065909356,-2.3703153,-0.19460626,1.6512837,0.69500977,0.03999944,0.04,-9.655391,-1.4986944198608398,0.8699261,-0.06564738,-0.08212892711162567,-0.11896806
677.8833333330455,0.03520873,-0.82519466,-0.06678516,-2.3705015,-0.19719183,1.6523502,0.69380146,0.03999943,0.04,-9.651134,-1.5191986560821533,0.87954956,-0.065931775,-0.08215023577213287,-0.119396925
677.8999999997121,0.035669155,-0.8257304,-0.06766353,-2.370688,-0.19978498,1.6534197,0.6925897,0.039999418,0.04,-9.646893,-1.5397653579711914,0.88913053,-0.066208385,-0.08216141909360886,-0.11981174
677.9166666663788,0.03613088,-0.8262678,-0.06854436,-2.3708744,-0.2023854,1.6544924,0.6913746,0.039999403,0.04,-9.642526,-1.5604037046432495,0.8986851,-0.06647847,-0.08216093480587006,-0.12021233
677.9333333330454,0.03659384,-0.82680655,-0.06942752,-2.3710613,-0.20499279,1.6555678,0.69015616,0.03999939,0.04,-9.638097,-1.5811023712158203,0.9082231,-0.06674215,-0.08214759081602097,-0.12059722
677.9499999997121,0.037057966,-0.8273466,-0.07031293,-2.3712485,-0.20760675,1.6566459,0.68893474,0.039999377,0.04,-9.633669,-1.6018880605697632,0.9177099,-0.06699734,-0.08212526142597198,-0.12096779
677.9666666663787,0.037523225,-0.82788813,-0.07120048,-2.3714364,-0.21022712,1.6577268,0.6877103,0.039999366,0.04,-9.6291485,-1.622728705406189,0.92716783,-0.06724621,-0.08209250122308731,-0.12132596
677.9833333330454,0.037989546,-0.8284309,-0.07209006,-2.3716245,-0.2128534,1.65881,0.6864829,0.039999347,0.04,-9.624621,-1.643660545349121,0.93657994,-0.06748633,-0.08205027878284454,-0.12166926
677.999999999712,0.03845688,-0.82897466,-0.07298159,-2.3718128,-0.21548544,1.6598957,0.685253,0.039999343,0.04,-9.6199665,-1.6646116971969604,0.94595015,-0.06771878,-0.08199816942214966,-0.121995546
678.0166666663787,0.038925145,-0.8295197,-0.0738749,-2.372002,-0.21812284,1.6609834,0.6840206,0.039999332,0.04,-9.615255,-1.6856324672698975,0.955267,-0.06794418,-0.08193542063236237,-0.12230762
678.0333333330453,0.03939432,-0.8300658,-0.07476994,-2.3721917,-0.22076526,1.6620736,0.6827858,0.039999314,0.04,-9.61055,-1.706730604171753,0.96456903,-0.06816135,-0.08186471462249756,-0.12260685
678.049999999712,0.039864335,-0.83061284,-0.07566658,-2.3723817,-0.22341244,1.6631655,0.68154883,0.0399993,0.04,-9.605795,-1.7278848886489868,0.97379845,-0.06837036,-0.08178543299436569,-0.1228924
678.0666666663786,0.04033512,-0.8311608,-0.076564685,-2.3725722,-0.22606401,1.6642594,0.68030983,0.03999929,0.04,-9.600889,-1.7490408420562744,0.9829871,-0.068571515,-0.08169624209403992,-0.12316029
678.0833333330453,0.040806647,-0.8317096,-0.07746417,-2.372763,-0.22871958,1.6653546,0.6790689,0.03999928,0.04,-9.596011,-1.7702736854553223,0.9921105,-0.06876442,-0.08159896731376648,-0.123412214
678.0999999997119,0.04127883,-0.8322592,-0.07836493,-2.372954,-0.23137897,1.6664515,0.6778262,0.039999258,0.04,-9.590986,-1.7915581464767456,1.0012075,-0.068949476,-0.08149267733097076,-0.123653166
678.1166666663786,0.041751605,-0.8328094,-0.07926685,-2.373145,-0.2340418,1.6675496,0.67658204,0.039999243,0.04,-9.58593,-1.8128567934036255,1.0102221,-0.06912601,-0.0813770517706871,-0.12387695
678.1333333330452,0.042224925,-0.8333602,-0.08016981,-2.3733368,-0.23670772,1.6686493,0.67533636,0.039999228,0.04,-9.580851,-1.8342223167419434,1.0191927,-0.06929478,-0.08125343173742294,-0.12408729
678.1499999997119,0.04269876,-0.83391166,-0.0810737,-2.3735287,-0.23937641,1.6697501,0.67408955,0.03999922,0.04,-9.575708,-1.8555908203125,1.0280945,-0.06945459,-0.08112132549285889,-0.124277905
678.1666666663785,0.04317302,-0.83446366,-0.081978425,-2.3737211,-0.24204753,1.6708517,0.6728415,0.039999206,0.04,-9.570458,-1.8770290613174438,1.0369564,-0.06960668,-0.08097996562719345,-0.124457054
678.1833333330452,0.043647647,-0.83501625,-0.082883865,-2.3739135,-0.24472079,1.6719542,0.6715923,0.039999187,0.04,-9.565231,-1.8984774351119995,1.0457562,-0.06974979,-0.08083167672157288,-0.12462029
678.1999999997118,0.04412259,-0.83556896,-0.0837899,-2.374106,-0.24739578,1.6730577,0.6703423,0.03999917,0.04,-9.559875,-1.9199554920196533,1.0544946,-0.06988347,-0.0806746706366539,-0.12476894
678.2166666663785,0.044597793,-0.8361221,-0.08469643,-2.3742986,-0.2500723,1.6741616,0.6690917,0.039999157,0.04,-9.554461,-1.941437005996704,1.0631379,-0.07000919,-0.080507293343544,-0.124901116
678.2333333330452,0.045073185,-0.8366753,-0.08560333,-2.3744912,-0.25274992,1.6752661,0.66784054,0.039999146,0.04,-9.5490055,-1.9629528522491455,1.071758,-0.07012618,-0.08033212274312973,-0.125017
678.2499999997118,0.045548737,-0.83722866,-0.08651049,-2.374684,-0.25542843,1.6763709,0.66658914,0.03999913,0.04,-9.543509,-1.9844993352890015,1.080271,-0.07023466,-0.08014839887619019,-0.1251201
678.2666666663785,0.046024356,-0.8377822,-0.08741781,-2.3748772,-0.25810736,1.6774758,0.6653375,0.039999112,0.04,-9.537961,-2.006056785583496,1.0887496,-0.07033437,-0.07995756715536118,-0.12520656
678.2833333330451,0.046500016,-0.8383357,-0.08832518,-2.37507,-0.26078644,1.6785809,0.66408575,0.039999105,0.04,-9.532336,-2.0276031494140625,1.0971625,-0.07042534,-0.07975826412439346,-0.12527572
678.2999999997118,0.046975628,-0.8388893,-0.0892325,-2.375263,-0.26346534,1.6796858,0.6628341,0.039999094,0.04,-9.526694,-2.049198627471924,1.1054907,-0.07050683,-0.07955164462327957,-0.1253316
678.3166666663784,0.047451153,-0.8394428,-0.09013963,-2.3754556,-0.26614365,1.6807905,0.66158265,0.03999908,0.04,-9.520918,-2.07075572013855,1.113775,-0.07058051,-0.07933547347784042,-0.12537052
678.3333333330451,0.047926534,-0.8399962,-0.091046475,-2.3756483,-0.26882106,1.6818951,0.6603316,0.03999906,0.04,-9.515143,-2.092334508895874,1.1219624,-0.07064442,-0.07911110669374466,-0.1253942
678.3499999997117,0.048401687,-0.8405493,-0.09195293,-2.3758407,-0.27149737,1.6829988,0.6590811,0.039999045,0.04,-9.509291,-2.1139113903045654,1.1300946,-0.07070002,-0.07887687534093857,-0.12540236
678.3666666663784,0.048876595,-0.841102,-0.09285885,-2.3760326,-0.27417225,1.6841019,0.6578313,0.039999034,0.04,-9.503433,-2.1354939937591553,1.1381501,-0.07074647,-0.07863714545965195,-0.1253957
678.383333333045,0.049351178,-0.84165436,-0.09376417,-2.3762243,-0.27684522,1.6852043,0.6565823,0.03999902,0.04,-9.497473,-2.157057046890259,1.1461198,-0.07078375,-0.07838830351829529,-0.12537201
678.3999999997117,0.049825363,-0.8422064,-0.09466875,-2.3764157,-0.27951598,1.6863058,0.6553345,0.039999,0.04,-9.4914665,-2.1786153316497803,1.1540314,-0.07081223,-0.07813122123479843,-0.12533286
678.4166666663783,0.05029911,-0.84275794,-0.09557249,-2.376607,-0.2821844,1.6874063,0.65408766,0.039998982,0.04,-9.485455,-2.2001829147338867,1.1618699,-0.07083245,-0.07786627113819122,-0.12527919
678.433333333045,0.05077237,-0.8433087,-0.09647527,-2.376798,-0.28484997,1.6885056,0.65284216,0.039998975,0.04,-9.479358,-2.221703290939331,1.1696231,-0.07084284,-0.07759283483028412,-0.12520711
678.4499999997116,0.051245067,-0.843859,-0.09737699,-2.3769886,-0.28751236,1.6896038,0.6515982,0.039998945,0.04,-9.473254,-2.2432491779327393,1.1772928,-0.07084368,-0.07731234282255173,-0.12512338
678.4666666663783,0.05171713,-0.8444085,-0.09827751,-2.3771791,-0.29017136,1.6907003,0.6503558,0.039998945,0.04,-9.467117,-2.2647383213043213,1.1849135,-0.07083604,-0.07702495157718658,-0.12501757
678.4833333330449,0.052188523,-0.84495723,-0.099176764,-2.3773694,-0.2928265,1.6917952,0.6491153,0.039998915,0.04,-9.460919,-2.286255359649658,1.192429,-0.07081859,-0.07673104852437973,-0.1249036
678.4999999997116,0.052659176,-0.8455051,-0.100074604,-2.377559,-0.29547757,1.6928889,0.64787674,0.03999891,0.04,-9.454674,-2.3076987266540527,1.199875,-0.0707923,-0.0764305591583252,-0.124771155
678.5166666663782,0.05312905,-0.8460521,-0.100970924,-2.3777483,-0.2981242,1.6939805,0.6466402,0.03999889,0.04,-9.448319,-2.3291056156158447,1.2072241,-0.07075734,-0.0761188194155693,-0.124621645
678.5333333330449,0.053598087,-0.84659815,-0.10186566,-2.3779373,-0.30076605,1.6950703,0.6454058,0.039998874,0.04,-9.4420595,-2.3505396842956543,1.2145196,-0.07071229,-0.07580334693193436,-0.1244587
678.5499999997115,0.054066215,-0.8471431,-0.10275866,-2.3781261,-0.30340278,1.6961579,0.64417386,0.039998863,0.04,-9.43566,-2.3718783855438232,1.2217226,-0.070657946,-0.07547951489686966,-0.12427725
678.5666666663782,0.054533385,-0.8476868,-0.103649825,-2.378315,-0.3060342,1.6972427,0.64294446,0.039998844,0.04,-9.429326,-2.393254041671753,1.2288381,-0.07059371,-0.07515102624893188,-0.1240845
678.5833333330448,0.054999538,-0.84822947,-0.10453904,-2.3785036,-0.30865985,1.6983258,0.6417176,0.03999883,0.04,-9.422949,-2.4145472049713135,1.2358836,-0.070519626,-0.07482048124074936,-0.12387442
678.5999999997115,0.055464618,-0.84877074,-0.10542621,-2.378692,-0.31127948,1.6994061,0.64049375,0.03999881,0.04,-9.416515,-2.4358129501342773,1.2428243,-0.07043512,-0.07448272407054901,-0.123648375
678.6166666663781,0.055928554,-0.84931076,-0.10631124,-2.3788795,-0.3138927,1.7004836,0.63927275,0.0399988,0.04,-9.410027,-2.4570083618164062,1.2496843,-0.07034202,-0.07413984835147858,-0.123405874
678.6333333330448,0.056391306,-0.84984946,-0.107194,-2.379067,-0.31649926,1.7015587,0.63805485,0.039998773,0.04,-9.403502,-2.4781882762908936,1.2564683,-0.07023878,-0.07379185408353806,-0.12315315
678.6499999997114,0.05685282,-0.85038674,-0.10807438,-2.379254,-0.3190988,1.7026309,0.63684034,0.03999876,0.04,-9.396919,-2.4992618560791016,1.2631527,-0.070125885,-0.07343614101409912,-0.122878976
678.6666666663781,0.057313036,-0.85092247,-0.10895226,-2.379441,-0.32169104,1.7037,0.63562924,0.039998744,0.04,-9.390383,-2.520352840423584,1.2697664,-0.07000359,-0.07307647913694382,-0.12259303
678.6833333330447,0.057771903,-0.8514566,-0.10982757,-2.3796272,-0.32427564,1.7047658,0.63442177,0.039998725,0.04,-9.3838215,-2.541365146636963,1.2762805,-0.069870904,-0.07271308451890945,-0.12229102
678.6999999997114,0.058229357,-0.85198903,-0.11070018,-2.3798125,-0.32685235,1.7058283,0.63321793,0.039998706,0.04,-9.377131,-2.562298536300659,1.2827039,-0.06972973,-0.07234327495098114,-0.12197654
678.716666666378,0.05868534,-0.8525198,-0.11157001,-2.3799965,-0.32942072,1.7068876,0.6320179,0.03999869,0.04,-9.370463,-2.583178997039795,1.2890589,-0.06957861,-0.07196804136037827,-0.12164314
678.7333333330447,0.059139803,-0.8530488,-0.11243692,-2.3801796,-0.33198053,1.7079432,0.6308219,0.03999867,0.04,-9.363661,-2.6039469242095947,1.2953026,-0.069418915,-0.07158351689577103,-0.121296234
678.7499999997113,0.05959269,-0.85357594,-0.11330084,-2.380362,-0.3345316,1.7089952,0.62963,0.03999866,0.04,-9.356876,-2.6246752738952637,1.3014897,-0.06925009,-0.0711921751499176,-0.120933965
678.766666666378,0.06004395,-0.8541012,-0.11416165,-2.3805437,-0.33707345,1.7100435,0.6284426,0.039998647,0.04,-9.350166,-2.6453490257263184,1.3075851,-0.069071874,-0.07079693675041199,-0.12055444
678.7833333330447,0.060493525,-0.8546246,-0.11501926,-2.3807251,-0.3396058,1.711088,0.6272595,0.03999863,0.04,-9.343368,-2.665959119796753,1.3135879,-0.06888484,-0.07039543241262436,-0.120163195
678.7999999997113,0.060941365,-0.85514605,-0.115873545,-2.3809059,-0.34212852,1.7121282,0.62608093,0.039998606,0.04,-9.336656,-2.6865181922912598,1.3195287,-0.06868741,-0.06999082118272781,-0.11975759
678.816666666378,0.06138743,-0.8556652,-0.11672443,-2.3810859,-0.34464106,1.7131643,0.62490714,0.039998595,0.04,-9.329828,-2.7069480419158936,1.3253666,-0.06848025,-0.06958170980215073,-0.11933485
678.8333333330446,0.06183163,-0.8561823,-0.11757179,-2.3812659,-0.3471433,1.7141962,0.6237382,0.039998583,0.04,-9.323064,-2.727327585220337,1.3310951,-0.068263605,-0.0691695362329483,-0.118897304
678.8499999997113,0.062273957,-0.85669714,-0.11841555,-2.3814452,-0.3496348,1.7152238,0.6225742,0.039998557,0.04,-9.316308,-2.747668504714966,1.3367683,-0.068036646,-0.06875487416982651,-0.11844943
678.8666666663779,0.062714316,-0.85720986,-0.11925559,-2.3816242,-0.35211542,1.716247,0.6214152,0.03999854,0.04,-9.30947,-2.767854690551758,1.3423246,-0.067799844,-0.06833615899085999,-0.1179844
678.8833333330446,0.0631527,-0.8577203,-0.120091826,-2.3818018,-0.3545847,1.717265,0.62026167,0.03999853,0.04,-9.302685,-2.787994623184204,1.3478104,-0.06755197,-0.06791513413190842,-0.11750433
678.8999999997112,0.06358902,-0.85822827,-0.12092416,-2.3819778,-0.35704252,1.7182786,0.6191133,0.039998505,0.04,-9.295734,-2.8080027103424072,1.3532121,-0.06729681,-0.06748807430267334,-0.11701312
678.9166666663779,0.06402325,-0.8587338,-0.12175248,-2.3821526,-0.35948852,1.7192875,0.61797065,0.039998487,0.04,-9.288752,-2.8278775215148926,1.3585018,-0.06703281,-0.06705319136381149,-0.11650461
678.9333333330445,0.0644553,-0.85923684,-0.12257669,-2.3823266,-0.36192232,1.720291,0.6168335,0.039998464,0.04,-9.281827,-2.8476946353912354,1.3637207,-0.066760376,-0.06661182641983032,-0.11598051
678.9499999997112,0.064885154,-0.85973716,-0.123396695,-2.3825,-0.36434385,1.7212895,0.61570215,0.03999845,0.04,-9.274975,-2.8674509525299072,1.3688844,-0.06647781,-0.06616972386837006,-0.11544412
678.9666666663778,0.065312766,-0.86023504,-0.12421239,-2.3826723,-0.36675256,1.7222828,0.61457676,0.03999844,0.04,-9.268139,-2.8871285915374756,1.3739223,-0.06618523,-0.06572568416595459,-0.11489223
678.9833333330445,0.065738104,-0.8607302,-0.12502374,-2.3828444,-0.3691484,1.7232709,0.61345744,0.03999842,0.04,-9.26121,-2.906648874282837,1.3789037,-0.065883875,-0.06527679413557053,-0.11433083
678.9999999997111,0.06616106,-0.8612225,-0.12583058,-2.383016,-0.371531,1.7242533,0.6123444,0.039998397,0.04,-9.25438,-2.926093578338623,1.3837751,-0.06557262,-0.06482605636119843,-0.11375501
679.0166666663778,0.066581644,-0.8617121,-0.12663285,-2.3831875,-0.37390015,1.7252303,0.61123765,0.039998382,0.04,-9.247583,-2.9454498291015625,1.3885796,-0.065251194,-0.06437679380178452,-0.1131658
679.0333333330444,0.066999786,-0.8621989,-0.12743045,-2.3833563,-0.37625554,1.7262018,0.6101373,0.039998367,0.04,-9.240745,-2.964689254760742,1.3932774,-0.06491987,-0.06392491608858109,-0.11256553
679.0499999997111,0.06741542,-0.8626828,-0.12822327,-2.3835235,-0.37859693,1.7271672,0.6090434,0.03999835,0.04,-9.233663,-2.983717918395996,1.3978933,-0.064581625,-0.06346341222524643,-0.11195033
679.0666666663777,0.06782853,-0.8631638,-0.12901129,-2.3836896,-0.38092393,1.7281269,0.6079563,0.039998334,0.04,-9.22669,-3.0026562213897705,1.4024379,-0.06423507,-0.06299711018800735,-0.11131852
679.0833333330444,0.06823904,-0.8636418,-0.12979437,-2.383855,-0.38323638,1.7290808,0.60687596,0.03999832,0.04,-9.219803,-3.0215237140655518,1.4069065,-0.06388005,-0.06252747029066086,-0.11067511
679.099999999711,0.06864692,-0.86411667,-0.13057254,-2.3840196,-0.38553405,1.7300284,0.6058025,0.039998304,0.04,-9.212979,-3.040300130844116,1.4112899,-0.06351507,-0.06205567345023155,-0.11001927
679.1166666663777,0.06905214,-0.86458844,-0.13134553,-2.3841836,-0.38781664,1.7309697,0.6047361,0.039998285,0.04,-9.20614,-3.0589334964752197,1.4155917,-0.063141406,-0.06158316135406494,-0.10935318
679.1333333330443,0.069454625,-0.865057,-0.1321133,-2.3843474,-0.39008382,1.7319046,0.60367686,0.039998263,0.04,-9.199336,-3.0774600505828857,1.4198111,-0.062757835,-0.06111002340912819,-0.10867401
679.149999999711,0.06985433,-0.8655225,-0.13287579,-2.3845096,-0.3923355,1.7328333,0.6026249,0.03999825,0.04,-9.19262,-3.095884323120117,1.4239343,-0.062363945,-0.060638945549726486,-0.10798189
679.1666666663776,0.07025123,-0.86598444,-0.1336329,-2.384669,-0.39457127,1.7337554,0.6015802,0.03999823,0.04,-9.185719,-3.1141197681427,1.4279872,-0.06196228,-0.06016269698739052,-0.10727846
679.1833333330443,0.070645295,-0.86644316,-0.13438459,-2.3848274,-0.39679116,1.7346709,0.60054314,0.03999821,0.04,-9.17873,-3.1321592330932617,1.4319284,-0.061553873,-0.05967897176742554,-0.1065622
679.1999999997109,0.07103645,-0.86689866,-0.13513076,-2.3849845,-0.3989947,1.7355796,0.5995138,0.039998192,0.04,-9.17192,-3.1501402854919434,1.4358287,-0.061137326,-0.05919211730360985,-0.10583301
679.2166666663776,0.071424685,-0.8673508,-0.13587134,-2.3851414,-0.40118173,1.7364814,0.5984921,0.039998174,0.04,-9.165146,-3.1680350303649902,1.4396559,-0.060713127,-0.05870365723967552,-0.10509136
679.2333333330442,0.07180995,-0.86779946,-0.13660622,-2.3852975,-0.403352,1.7373765,0.5974783,0.039998155,0.04,-9.158491,-3.1857619285583496,1.4434143,-0.06027837,-0.05821766331791878,-0.10433827
679.2499999997109,0.0721922,-0.8682446,-0.13733536,-2.3854532,-0.40550524,1.7382646,0.59647244,0.039998148,0.04,-9.151787,-3.203366994857788,1.4470651,-0.059835102,-0.0577307865023613,-0.10357495
679.2666666663775,0.07257138,-0.8686861,-0.13805863,-2.3856065,-0.4076412,1.7391454,0.59547466,0.039998125,0.04,-9.145193,-3.220876693725586,1.4506375,-0.05938217,-0.05724534019827843,-0.10280468
679.2833333330442,0.072947465,-0.8691239,-0.13877599,-2.3857574,-0.4097597,1.740019,0.59448487,0.039998107,0.04,-9.1383705,-3.23810076713562,1.4541276,-0.058922887,-0.05675530061125755,-0.10201863
679.2999999997108,0.073320396,-0.8695581,-0.13948737,-2.385907,-0.41186056,1.7408853,0.59350353,0.039998088,0.04,-9.131539,-3.2551956176757812,1.4575504,-0.05845703,-0.05625830590724945,-0.10122297
679.3166666663775,0.07369014,-0.86998856,-0.1401927,-2.3860562,-0.41394356,1.741744,0.5925305,0.039998077,0.04,-9.124904,-3.2721896171569824,1.4609152,-0.05798436,-0.05576083064079285,-0.10041301
679.3333333330442,0.07405671,-0.87041545,-0.14089192,-2.3862047,-0.41600853,1.7425953,0.5915659,0.03999806,0.04,-9.11842,-3.2891347408294678,1.4642082,-0.05750204,-0.05526593327522278,-0.099598296
679.3499999997108,0.074420005,-0.87083846,-0.14158495,-2.3863525,-0.41805512,1.7434392,0.5906098,0.03999804,0.04,-9.111896,-3.3058669567108154,1.4674271,-0.057010897,-0.054772816598415375,-0.098772086
679.3666666663775,0.07478002,-0.8712577,-0.14227171,-2.3864985,-0.42008325,1.7442755,0.58966243,0.03999803,0.04,-9.1054125,-3.3224542140960693,1.4705391,-0.056510907,-0.05427999049425125,-0.09793459
679.3833333330441,0.07513672,-0.87167317,-0.14295217,-2.3866413,-0.42209265,1.7451041,0.58872366,0.03999801,0.04,-9.098843,-3.3388512134552,1.4735991,-0.056004614,-0.05378391221165657,-0.09708854
679.3999999997108,0.075490065,-0.8720848,-0.1436262,-2.386783,-0.42408323,1.7459251,0.5877939,0.039998,0.04,-9.09213,-3.354992389678955,1.4765872,-0.055493757,-0.0532793253660202,-0.0962297
679.4166666663774,0.075840004,-0.87249225,-0.14429374,-2.386924,-0.42605466,1.7467382,0.58687294,0.039997984,0.04,-9.085704,-3.3711142539978027,1.479525,-0.054975968,-0.05277476832270622,-0.09536028
679.4333333330441,0.07618655,-0.87289566,-0.14495477,-2.3870647,-0.4280068,1.7475432,0.5859611,0.039997965,0.04,-9.079408,-3.387127161026001,1.4823765,-0.054448776,-0.05227350443601608,-0.094483905
679.4499999997107,0.07652963,-0.8732951,-0.14560921,-2.3872046,-0.42993948,1.7483401,0.58505833,0.039997943,0.04,-9.073145,-3.402968168258667,1.4851612,-0.053913504,-0.05177551135420799,-0.09360145
679.4666666663774,0.07686921,-0.87369055,-0.14625701,-2.3873408,-0.43185252,1.749129,0.5841646,0.039997928,0.04,-9.066911,-3.418682336807251,1.4878825,-0.053369857,-0.051280319690704346,-0.092710026
679.483333333044,0.07720529,-0.87408197,-0.1468981,-2.387475,-0.43374574,1.7499098,0.58328027,0.039997913,0.04,-9.060298,-3.433954954147339,1.490518,-0.0528236,-0.050773754715919495,-0.09180613
679.4999999997107,0.07753781,-0.8744692,-0.14753245,-2.3876088,-0.43561915,1.7506822,0.58240515,0.039997898,0.04,-9.053997,-3.449230909347534,1.4931245,-0.052271966,-0.05026623606681824,-0.09089135
679.5166666663773,0.07786675,-0.8748523,-0.14815997,-2.387742,-0.43747234,1.7514467,0.58153945,0.03999789,0.04,-9.047914,-3.46443510055542,1.4956551,-0.05171133,-0.049762383103370667,-0.08996903
679.533333333044,0.07819209,-0.87523115,-0.14878061,-2.3878744,-0.4393053,1.7522024,0.58068323,0.03999787,0.04,-9.041849,-3.4794890880584717,1.4981178,-0.05114307,-0.04926007613539696,-0.08904457
679.5499999997106,0.07851381,-0.87560576,-0.14939433,-2.3880062,-0.44111776,1.7529496,0.57983667,0.039997846,0.04,-9.035824,-3.494326114654541,1.5005128,-0.05056692,-0.04876285791397095,-0.088111036
679.5666666663773,0.07883186,-0.87597615,-0.1500011,-2.388133,-0.44290966,1.7536885,0.57899964,0.03999784,0.04,-9.029884,-3.509021520614624,1.5028442,-0.04998323,-0.048269808292388916,-0.08716849
679.5833333330439,0.079146236,-0.87634224,-0.15060082,-2.3882592,-0.44468075,1.7544187,0.5781722,0.039997816,0.04,-9.023444,-3.523305654525757,1.5050924,-0.049399998,-0.04776238277554512,-0.086217254
679.5999999997106,0.079456896,-0.876704,-0.15119335,-2.3883843,-0.44643092,1.7551401,0.5773545,0.039997797,0.04,-9.017537,-3.5376436710357666,1.507321,-0.048809394,-0.047257497906684875,-0.0852589
679.6166666663772,0.07976383,-0.87706137,-0.15177882,-2.3885088,-0.4481602,1.7558535,0.5765473,0.03999779,0.04,-9.011705,-3.5518319606781006,1.5094807,-0.048210915,-0.046757422387599945,-0.084293455
679.6333333330439,0.080067,-0.8774144,-0.15235718,-2.388633,-0.4498682,1.7565576,0.57575,0.039997775,0.04,-9.005919,-3.565831184387207,1.5115703,-0.047609027,-0.04625735059380531,-0.08332123
679.6499999997105,0.08036642,-0.8777632,-0.1529283,-2.3887522,-0.45155495,1.7572533,0.5749624,0.039997753,0.04,-9.000293,-3.579712152481079,1.5136291,-0.046999387,-0.045766137540340424,-0.08234758
679.6666666663772,0.08066201,-0.87810737,-0.15349223,-2.3888705,-0.45322016,1.75794,0.5741844,0.039997738,0.04,-8.994062,-3.5931005477905273,1.5155883,-0.046390247,-0.04525815322995186,-0.081361346
679.6833333330438,0.080953784,-0.8784472,-0.15404885,-2.388988,-0.45486394,1.7586176,0.5734167,0.039997723,0.04,-8.988485,-3.6065990924835205,1.5175318,-0.045773428,-0.044755302369594574,-0.080371425
679.6999999997105,0.081241705,-0.8787825,-0.15459813,-2.3891048,-0.45648614,1.7592866,0.572659,0.039997716,0.04,-8.982914,-3.6199283599853516,1.5194261,-0.045151137,-0.04425704479217529,-0.079379134
679.7166666663771,0.081525765,-0.8791133,-0.15514003,-2.3892214,-0.45808652,1.7599466,0.5719114,0.03999771,0.04,-8.977428,-3.6330831050872803,1.521236,-0.044521764,-0.04376142844557762,-0.07837605
679.7333333330438,0.08180595,-0.8794397,-0.15567455,-2.389333,-0.4596651,1.7605975,0.5711741,0.039997708,0.04,-8.972067,-3.6460373401641846,1.523013,-0.04388501,-0.04327336326241493,-0.07737017
679.7499999997104,0.08208224,-0.87976146,-0.1562016,-2.3894434,-0.4612217,1.7612392,0.5704467,0.039997693,0.04,-8.96618,-3.6585748195648193,1.5247155,-0.0432513,-0.042771924287080765,-0.07635695
679.7666666663771,0.0823546,-0.88007873,-0.15672122,-2.389553,-0.46275613,1.7618718,0.56972986,0.039997667,0.04,-8.960855,-3.671194076538086,1.5263994,-0.042610396,-0.042275071144104004,-0.07534187
679.7833333330437,0.08262305,-0.88039136,-0.15723334,-2.3896623,-0.4642686,1.7624955,0.56902343,0.03999765,0.04,-8.955552,-3.683589220046997,1.5280321,-0.041966192,-0.04177989810705185,-0.07432317
679.7999999997104,0.08288756,-0.88069946,-0.15773793,-2.3897712,-0.46575886,1.7631102,0.5683273,0.039997634,0.04,-8.950441,-3.695873975753784,1.5295966,-0.041315354,-0.04129205271601677,-0.07329974
679.816666666377,0.08314812,-0.88100284,-0.158235,-2.3898747,-0.46722686,1.7637156,0.56764156,0.03999762,0.04,-8.945384,-3.7079827785491943,1.5311109,-0.040657677,-0.04080992564558983,-0.07227506
679.8333333330437,0.08340472,-0.88130164,-0.15872453,-2.3899772,-0.46867248,1.7643118,0.5669663,0.039997604,0.04,-8.939767,-3.7195827960968018,1.5325712,-0.040004555,-0.04031406342983246,-0.071241915
679.8499999997103,0.083657324,-0.88159585,-0.15920645,-2.390079,-0.4700958,1.7648987,0.5663015,0.039997596,0.04,-8.934772,-3.7312822341918945,1.5340248,-0.039346892,-0.03982323035597801,-0.07020576
679.866666666377,0.08390597,-0.88188547,-0.15968081,-2.3901806,-0.47149664,1.7654765,0.56564707,0.039997593,0.04,-8.929849,-3.742816686630249,1.5354226,-0.038684465,-0.03933750465512276,-0.06916739
679.8833333330437,0.084150605,-0.8821704,-0.16014755,-2.3902814,-0.47287497,1.7660449,0.5650033,0.03999758,0.04,-8.925024,-3.75418758392334,1.5367656,-0.038016424,-0.03885655477643013,-0.06812781
679.8999999997103,0.08439125,-0.88245064,-0.16060662,-2.3903766,-0.4742307,1.766604,0.5643699,0.039997566,0.04,-8.920291,-3.7653751373291016,1.5380569,-0.037343632,-0.03838293254375458,-0.06708734
679.916666666377,0.084627844,-0.8827264,-0.1610581,-2.390471,-0.47556388,1.7671536,0.5637471,0.039997555,0.04,-8.914952,-3.776034355163574,1.5393099,-0.03667698,-0.037894152104854584,-0.066039324
679.9333333330436,0.08486047,-0.88299733,-0.1615019,-2.390565,-0.47687447,1.7676941,0.56313497,0.039997537,0.04,-8.910335,-3.7868614196777344,1.5405496,-0.03600613,-0.03741150349378586,-0.06499174
679.9499999997103,0.08508907,-0.8832636,-0.16193798,-2.3906584,-0.47816235,1.7682252,0.56253356,0.039997526,0.04,-8.905776,-3.797485828399658,1.5417256,-0.035331022,-0.036934975534677505,-0.06394085
679.9666666663769,0.08531363,-0.883525,-0.16236643,-2.3907502,-0.47942755,1.7687469,0.56194246,0.039997507,0.04,-8.901314,-3.8080027103424072,1.5428528,-0.034652624,-0.036464814096689224,-0.06289121
679.9833333330436,0.08553414,-0.8837818,-0.16278718,-2.3908372,-0.48067006,1.7692591,0.5613621,0.039997496,0.04,-8.896821,-3.8181753158569336,1.5439545,-0.03397066,-0.035998959094285965,-0.061841555
679.9999999997102,0.085750625,-0.8840341,-0.16320026,-2.3909237,-0.4818899,1.7697619,0.5607924,0.039997485,0.04,-8.891925,-3.827972650527954,1.5450078,-0.03329521,-0.035520847886800766,-0.060787123
680.0166666663769,0.0859631,-0.8842817,-0.16360566,-2.3910098,-0.48308715,1.7702554,0.56023335,0.039997466,0.04,-8.887686,-3.8379013538360596,1.546073,-0.032616507,-0.03505031764507294,-0.059733342
680.0333333330435,0.08617156,-0.8845246,-0.16400336,-2.3910954,-0.4842617,1.7707396,0.5596847,0.039997455,0.04,-8.883518,-3.8476407527923584,1.5470675,-0.031934258,-0.03458702936768532,-0.058681447
680.0499999997102,0.086376,-0.88476264,-0.16439338,-2.3911777,-0.48541346,1.7712145,0.55914676,0.03999745,0.04,-8.879386,-3.8571722507476807,1.5480195,-0.031248411,-0.034130215644836426,-0.057629287
680.0666666663768,0.08657638,-0.88499606,-0.16477574,-2.391257,-0.48654258,1.7716799,0.55861944,0.03999744,0.04,-8.875031,-3.866373062133789,1.5489141,-0.030565543,-0.03366895020008087,-0.056577798
680.0833333330435,0.08677276,-0.88522476,-0.16515042,-2.3913357,-0.48764914,1.7721361,0.55810255,0.03999743,0.04,-8.870796,-3.8754053115844727,1.5498194,-0.02988527,-0.03320606052875519,-0.05552486
680.0999999997101,0.08696513,-0.8854489,-0.16551745,-2.391414,-0.48873314,1.7725832,0.5575963,0.03999741,0.04,-8.866894,-3.884422540664673,1.5506786,-0.02920202,-0.03274957835674286,-0.0544767
680.1166666663768,0.08715349,-0.8856683,-0.16587684,-2.391492,-0.4897945,1.7730206,0.5571008,0.039997406,0.04,-8.863047,-3.8932111263275146,1.5515121,-0.02851765,-0.03229827433824539,-0.053427014
680.1333333330434,0.08733787,-0.88588303,-0.16622864,-2.391565,-0.49083322,1.773449,0.55661553,0.0399974,0.04,-8.859373,-3.9018876552581787,1.5523052,-0.02783093,-0.03185797110199928,-0.052382126
680.1499999997101,0.08751825,-0.88609314,-0.16657275,-2.3916361,-0.49184954,1.7738681,0.55614084,0.039997388,0.04,-8.855181,-3.910071611404419,1.5530565,-0.027150948,-0.03140644356608391,-0.051337395
680.1666666663767,0.08769466,-0.88629854,-0.16690932,-2.391707,-0.49284342,1.7742779,0.5556766,0.03999738,0.04,-8.851407,-3.918262004852295,1.5538033,-0.02647269,-0.030955780297517776,-0.050293494
680.1833333330434,0.08786712,-0.88649946,-0.16723831,-2.3917775,-0.49381498,1.7746785,0.55522263,0.039997365,0.04,-8.847922,-3.9263792037963867,1.5545182,-0.025792914,-0.030513500794768333,-0.049254827
680.19999999971,0.08803559,-0.88669574,-0.16755976,-2.3918471,-0.4947643,1.7750701,0.55477923,0.039997354,0.04,-8.844521,-3.9343364238739014,1.5552115,-0.025110476,-0.03007974661886692,-0.048220962
680.2166666663767,0.0882001,-0.8868875,-0.1678737,-2.391912,-0.4956914,1.7754523,0.5543462,0.039997343,0.04,-8.841108,-3.9420883655548096,1.5558349,-0.024429364,-0.029651163145899773,-0.047190286
680.2333333330433,0.0883607,-0.88707453,-0.16818015,-2.3919754,-0.49659646,1.7758255,0.5539236,0.03999733,0.04,-8.83733,-3.9493443965911865,1.5564841,-0.023757042,-0.02921435423195362,-0.046160266
680.24999999971,0.08851738,-0.88725716,-0.1684792,-2.3920386,-0.49747947,1.7761894,0.55351126,0.03999732,0.04,-8.834012,-3.9566800594329834,1.5570803,-0.02308639,-0.02878222055733204,-0.045133345
680.2666666663766,0.0886702,-0.8874352,-0.16877079,-2.3921013,-0.49834064,1.7765448,0.5531092,0.039997313,0.04,-8.830897,-3.963919162750244,1.5576886,-0.022415943,-0.028357960283756256,-0.04411422
680.2833333330433,0.08881913,-0.8876086,-0.169055,-2.3921626,-0.49917984,1.7768906,0.55271727,0.03999731,0.04,-8.827832,-3.9709601402282715,1.5582204,-0.021745425,-0.0279401708394289,-0.043098316
680.2999999997099,0.08896421,-0.8877777,-0.1693319,-2.3922198,-0.4999974,1.7772279,0.55233556,0.039997306,0.04,-8.824802,-3.977806806564331,1.55875,-0.021076567,-0.027530254796147346,-0.042090666
680.3166666663766,0.089105465,-0.8879423,-0.16960144,-2.3922756,-0.50079346,1.777556,0.55196387,0.039997302,0.04,-8.821421,-3.9842374324798584,1.5592555,-0.020417823,-0.027110936120152473,-0.041084174
680.3333333330432,0.08924292,-0.8881025,-0.16986375,-2.3923311,-0.501568,1.7778751,0.5516022,0.0399973,0.04,-8.818507,-3.990734815597534,1.5597566,-0.019760892,-0.02669825404882431,-0.040082905
680.3499999997099,0.08937659,-0.8882581,-0.17011881,-2.392386,-0.50232124,1.7781857,0.55125034,0.039997295,0.04,-8.815764,-3.9971041679382324,1.5602255,-0.019105677,-0.02629423700273037,-0.03909
680.3666666663765,0.08950652,-0.8884095,-0.1703667,-2.3924394,-0.50305325,1.7784873,0.5509084,0.03999729,0.04,-8.81307,-4.003294467926025,1.5606483,-0.018451424,-0.025896139442920685,-0.038105562
680.3833333330432,0.08963272,-0.88855654,-0.17060752,-2.3924894,-0.5037642,1.7787803,0.5505765,0.039997276,0.04,-8.810362,-4.009280681610107,1.5610739,-0.017801464,-0.0255032479763031,-0.037131757
680.3999999997098,0.089755185,-0.8886993,-0.17084126,-2.3925376,-0.50445455,1.7790651,0.55025405,0.03999726,0.04,-8.807507,-4.014936923980713,1.5614752,-0.017161112,-0.02510816790163517,-0.036161147
680.4166666663765,0.08987398,-0.8888379,-0.171068,-2.3925855,-0.5051241,1.7793411,0.5499414,0.039997257,0.04,-8.804854,-4.020514965057373,1.5618519,-0.016524954,-0.024713663384318352,-0.035194173
680.4333333330432,0.08998917,-0.8889722,-0.17128788,-2.3926325,-0.5057732,1.7796087,0.54963833,0.039997254,0.04,-8.802506,-4.026076316833496,1.562245,-0.015892219,-0.024329541251063347,-0.034237996
680.4499999997098,0.09010075,-0.8891022,-0.1715008,-2.3926785,-0.50640196,1.7798679,0.5493447,0.03999725,0.04,-8.800163,-4.031421661376953,1.5625844,-0.015263103,-0.023951957002282143,-0.033291202
680.4666666663765,0.09020876,-0.889228,-0.17170691,-2.3927217,-0.5070107,1.7801186,0.5490605,0.039997242,0.04,-8.797882,-4.036651611328125,1.5628849,-0.014638106,-0.023581411689519882,-0.03235488
680.4833333330431,0.090313226,-0.88934976,-0.1719063,-2.392763,-0.50759953,1.7803613,0.54878557,0.03999723,0.04,-8.795431,-4.041507244110107,1.5631983,-0.014021933,-0.023210829123854637,-0.031426463
680.4999999997098,0.090414196,-0.8894675,-0.17209898,-2.392803,-0.50816846,1.7805955,0.5485199,0.039997224,0.04,-8.793147,-4.046279430389404,1.5635046,-0.013413066,-0.022841474041342735,-0.030504486
680.5166666663764,0.090511724,-0.88958114,-0.17228508,-2.3928423,-0.5087181,1.780822,0.5482634,0.039997216,0.04,-8.791041,-4.05099630355835,1.5637919,-0.012810615,-0.0224787387996912,-0.02959526
680.5333333330431,0.090605825,-0.88969094,-0.17246465,-2.392881,-0.5092484,1.7810407,0.54801583,0.039997216,0.04,-8.789091,-4.055571556091309,1.5640532,-0.012212695,-0.022124286741018295,-0.028694645
680.5499999997097,0.09069654,-0.88979673,-0.17263773,-2.3929183,-0.50975966,1.7812514,0.5477771,0.03999721,0.04,-8.787138,-4.0599799156188965,1.5643034,-0.011620825,-0.021775050088763237,-0.027807465
680.5666666663764,0.09078393,-0.8898986,-0.17280453,-2.3929532,-0.51025194,1.7814543,0.5475471,0.03999721,0.04,-8.785252,-4.064225673675537,1.5645231,-0.011035397,-0.02143263816833496,-0.026930444
680.583333333043,0.090868026,-0.8899965,-0.17296502,-2.392986,-0.510726,1.7816497,0.54732585,0.039997205,0.04,-8.7832775,-4.0682196617126465,1.5647355,-0.010459874,-0.02109154686331749,-0.026065268
680.5999999997097,0.090948895,-0.8900907,-0.17311937,-2.3930182,-0.51118153,1.7818376,0.547113,0.0399972,0.04,-8.781406,-4.072103500366211,1.5649397,-0.009893911,-0.0207529217004776,-0.02520921
680.6166666663763,0.09102658,-0.8901811,-0.1732676,-2.39305,-0.5116189,1.7820181,0.54690874,0.039997194,0.04,-8.779781,-4.075952529907227,1.565131,-0.009333722,-0.02042216807603836,-0.024367465
680.633333333043,0.09110108,-0.89026785,-0.17340979,-2.3930807,-0.5120387,1.7821912,0.5467127,0.039997187,0.04,-8.778225,-4.0796637535095215,1.5653011,-0.008781389,-0.020099112764000893,-0.023541434
680.6499999997096,0.09117248,-0.89035124,-0.17354609,-2.3931098,-0.51244104,1.7823569,0.54652476,0.03999718,0.04,-8.776712,-4.083212375640869,1.5654655,-0.008235854,-0.01978490874171257,-0.022728572
680.6666666663763,0.09124086,-0.890431,-0.17367658,-2.3931372,-0.51282626,1.7825155,0.5463449,0.039997175,0.04,-8.775126,-4.086549282073975,1.5656316,-0.0077009234,-0.01947452314198017,-0.021927008
680.6833333330429,0.09130622,-0.8905072,-0.17380135,-2.393163,-0.5131948,1.7826674,0.5461729,0.03999717,0.04,-8.773602,-4.089747905731201,1.5657636,-0.0071762493,-0.019167795777320862,-0.021139212
680.6999999997096,0.091368645,-0.89057994,-0.17392053,-2.3931875,-0.5135466,1.7828124,0.54600877,0.03999717,0.04,-8.772193,-4.092845916748047,1.5658889,-0.006661749,-0.01886623539030552,-0.02036374
680.7166666663762,0.09142819,-0.8906492,-0.17403421,-2.3932116,-0.5138822,1.7829505,0.54585207,0.039997168,0.04,-8.770865,-4.095871925354004,1.5659924,-0.006157928,-0.01857074908912182,-0.01960498
680.7333333330429,0.091484934,-0.8907153,-0.17414252,-2.393235,-0.5142023,1.7830825,0.5457028,0.03999717,0.04,-8.769703,-4.098763942718506,1.5661054,-0.0056616156,-0.01828543096780777,-0.018863522
680.7499999997095,0.09153889,-0.8907784,-0.17424557,-2.3932579,-0.51450646,1.7832079,0.54556096,0.039997168,0.04,-8.7685375,-4.101521968841553,1.566201,-0.005174818,-0.018006950616836548,-0.018134998
680.7666666663762,0.09159015,-0.8908382,-0.17434345,-2.3932784,-0.5147957,1.7833269,0.545426,0.039997164,0.04,-8.767452,-4.104192733764648,1.5662887,-0.0046986295,-0.017736002802848816,-0.01742633
680.7833333330428,0.091638796,-0.8908948,-0.17443626,-2.3932977,-0.51506984,1.78344,0.54529786,0.039997164,0.04,-8.766223,-4.106601238250732,1.5663519,-0.0042351745,-0.017468826845288277,-0.01673076
680.7999999997095,0.09168486,-0.8909486,-0.1745242,-2.393316,-0.51532924,1.7835469,0.5451767,0.03999716,0.04,-8.765191,-4.1090006828308105,1.566391,-0.0037820917,-0.017207305878400803,-0.01605287
680.8166666663761,0.09172842,-0.8909992,-0.17460741,-2.3933325,-0.5155749,1.7836483,0.54506195,0.039997157,0.04,-8.7642,-4.1112751960754395,1.5664791,-0.0033422743,-0.01695261150598526,-0.015392769
680.8333333330428,0.09176956,-0.8910473,-0.17468597,-2.3933487,-0.5158067,1.7837437,0.54495406,0.039997153,0.04,-8.763209,-4.113390922546387,1.566507,-0.0029151216,-0.016702575609087944,-0.01474902
680.8499999997094,0.091808334,-0.8910924,-0.17475995,-2.3933644,-0.5160252,1.7838337,0.5448522,0.039997146,0.04,-8.7623825,-4.115495204925537,1.5665758,-0.0025015587,-0.016461288556456566,-0.01412493
680.8666666663761,0.09184478,-0.8911351,-0.17482956,-2.3933797,-0.5162307,1.7839185,0.5447563,0.039997138,0.04,-8.76168,-4.11754035949707,1.566584,-0.0020969654,-0.016231533139944077,-0.013521642
680.8833333330427,0.09187903,-0.89117503,-0.17489493,-2.3933947,-0.5164236,1.783998,0.5446662,0.039997134,0.04,-8.760914,-4.119409084320068,1.5666116,-0.0017047545,-0.016008589416742325,-0.012936847
680.8999999997094,0.09191114,-0.8912124,-0.1749562,-2.3934076,-0.5166044,1.7840726,0.54458183,0.03999713,0.04,-8.760282,-4.121224403381348,1.5666106,-0.001324283,-0.015796666964888573,-0.01237244
680.916666666376,0.09194118,-0.8912476,-0.17501353,-2.3934195,-0.5167736,1.7841423,0.54450315,0.039997127,0.04,-8.759486,-4.122835636138916,1.5666015,-0.00095994526,-0.015588272362947464,-0.011827425
680.9333333330427,0.09196924,-0.8912804,-0.17506708,-2.3934305,-0.51693153,1.7842073,0.5444293,0.039997127,0.04,-8.75881,-4.124395370483398,1.566619,-0.00061142124,-0.015387092716991901,-0.011301702
680.9499999997093,0.091995366,-0.8913109,-0.17511694,-2.3934405,-0.51707876,1.7842683,0.5443604,0.039997127,0.04,-8.758242,-4.125913619995117,1.5666112,-0.0002746346,-0.015194213949143887,-0.0107970415
680.966666666376,0.09201969,-0.89133906,-0.17516333,-2.3934495,-0.51721567,1.7843249,0.54429644,0.039997123,0.04,-8.7576475,-4.127341270446777,1.5665584,4.7247417e-05,-0.01500681135803461,-0.010314293
680.9833333330427,0.09204225,-0.89136523,-0.17520638,-2.393458,-0.5173428,1.7843775,0.5442371,0.03999712,0.04,-8.757141,-4.128671646118164,1.5665423,0.0003539014,-0.014828462153673172,-0.009853169
680.9999999997093,0.092063144,-0.8913894,-0.17524621,-2.3934662,-0.51746047,1.7844262,0.5441822,0.039997116,0.04,-8.756665,-4.129946231842041,1.5665206,0.0006454171,-0.014658858068287373,-0.009413565
681.016666666376,0.09208246,-0.89141184,-0.17528312,-2.3934743,-0.5175695,1.7844714,0.5441314,0.039997116,0.04,-8.756314,-4.1312127113342285,1.5664879,0.0009227087,-0.014500266872346401,-0.0089989165
681.0333333330426,0.09210033,-0.89143264,-0.17531717,-2.393482,-0.51767004,1.7845131,0.5440845,0.039997112,0.04,-8.755969,-4.132372856140137,1.5664505,0.001185416,-0.01435227133333683,-0.008606864
681.0499999997093,0.09211678,-0.89145184,-0.17534862,-2.3934891,-0.5177628,1.7845513,0.54404134,0.039997112,0.04,-8.755595,-4.133466720581055,1.5663928,0.0014320584,-0.014212802983820438,-0.008238953
681.0666666663759,0.092131965,-0.8914696,-0.17537762,-2.3934963,-0.517848,1.7845862,0.54400164,0.03999711,0.04,-8.755299,-4.134504795074463,1.5663525,0.0016621442,-0.014084928669035435,-0.0078971265
681.0833333330426,0.09214591,-0.891486,-0.17540428,-2.393502,-0.51792634,1.784618,0.5439648,0.03999711,0.04,-8.755053,-4.135507106781006,1.5662905,0.0018763156,-0.013968723826110363,-0.007581006
681.0999999997092,0.092158765,-0.8915009,-0.17542873,-2.3935072,-0.5179987,1.784648,0.5439312,0.03999711,0.04,-8.754667,-4.136362075805664,1.5662296,0.0020729096,-0.01385943777859211,-0.0072890855
681.1166666663759,0.09217061,-0.8915147,-0.17545126,-2.393512,-0.5180652,1.7846752,0.54389995,0.03999711,0.04,-8.754403,-4.137218952178955,1.5661287,0.0022534272,-0.013757128268480301,-0.007018511
681.1333333330425,0.0921815,-0.8915274,-0.17547196,-2.3935163,-0.51812655,1.7847003,0.5438714,0.03999711,0.04,-8.754156,-4.137992858886719,1.5660887,0.0024205113,-0.013663058169186115,-0.006769939
681.1499999997092,0.09219152,-0.8915391,-0.17549108,-2.39352,-0.5181829,1.7847234,0.5438452,0.03999711,0.04,-8.753931,-4.138719081878662,1.5660372,0.0025734378,-0.013576861470937729,-0.00654166
681.1666666663758,0.09220076,-0.8915499,-0.17550862,-2.3935237,-0.5182347,1.7847443,0.543821,0.039997105,0.04,-8.753721,-4.1393585205078125,1.5659862,0.0027133224,-0.013496668078005314,-0.0063309376
681.1833333330425,0.092209265,-0.8915598,-0.17552477,-2.393527,-0.51828235,1.7847638,0.5437987,0.039997105,0.04,-8.753548,-4.139987468719482,1.5659524,0.0028427397,-0.013424651697278023,-0.0061374307
681.1999999997091,0.09221709,-0.8915688,-0.17553963,-2.39353,-0.51832616,1.784782,0.5437782,0.039997105,0.04,-8.753379,-4.140549182891846,1.5658985,0.002961871,-0.0133570721372962,-0.0059593157
681.2166666663758,0.092224285,-0.8915771,-0.17555332,-2.3935325,-0.5183664,1.7847986,0.54375935,0.039997105,0.04,-8.753204,-4.141066551208496,1.5658474,0.0030712718,-0.013293487951159477,-0.005795156
681.2333333330424,0.092230916,-0.8915848,-0.17556594,-2.393535,-0.5184035,1.784814,0.54374206,0.039997105,0.04,-8.75306,-4.141528129577637,1.5658321,0.0031714293,-0.013235460966825485,-0.0056445864
681.2499999997091,0.092237025,-0.89159185,-0.17557752,-2.3935368,-0.5184377,1.7848281,0.54372615,0.039997105,0.04,-8.752928,-4.141963481903076,1.5658005,0.0032633494,-0.013181522488594055,-0.005505704
681.2666666663757,0.092242666,-0.89159846,-0.17558818,-2.3935385,-0.51846904,1.7848411,0.5437114,0.039997105,0.04,-8.752776,-4.142353534698486,1.5657697,0.0033476523,-0.013131393119692802,-0.005377164
681.2833333330424,0.09224784,-0.8916045,-0.17559801,-2.3935401,-0.51849794,1.7848531,0.543698,0.039997105,0.04,-8.752641,-4.142721176147461,1.5657586,0.003425056,-0.013083805330097675,-0.0052590733
681.299999999709,0.0922526,-0.89160997,-0.17560703,-2.3935416,-0.51852447,1.7848641,0.54368544,0.039997105,0.04,-8.752565,-4.143073558807373,1.5657308,0.0034959575,-0.013040670193731785,-0.005150439
681.3166666663757,0.09225696,-0.89161503,-0.17561533,-2.3935428,-0.5185489,1.7848735,0.54367405,0.039997105,0.04,-8.752472,-4.143389701843262,1.5657108,0.0035622942,-0.013001271523535252,-0.005050753
681.3333333330423,0.09226099,-0.89161974,-0.17562297,-2.393544,-0.51857144,1.7848829,0.54366344,0.039997105,0.04,-8.752387,-4.143672943115234,1.5657088,0.003622001,-0.01296732947230339,-0.004959373
681.349999999709,0.092264704,-0.89162403,-0.17563,-2.3935447,-0.51859224,1.7848917,0.54365385,0.039997105,0.04,-8.752298,-4.14393949508667,1.565678,0.0036777956,-0.012933137826621532,-0.0048744055
681.3666666663756,0.09226811,-0.89162797,-0.17563647,-2.3935454,-0.5186114,1.7848996,0.5436449,0.0399971,0.04,-8.752184,-4.144166469573975,1.5656602,0.0037277376,-0.01289963535964489,-0.00479616
681.3833333330423,0.09227125,-0.89163154,-0.17564242,-2.393546,-0.51862895,1.7849067,0.54363674,0.0399971,0.04,-8.752135,-4.1444010734558105,1.5656561,0.003774245,-0.012870315462350845,-0.004723721
681.3999999997089,0.09227416,-0.8916348,-0.17564788,-2.3935468,-0.5186451,1.7849132,0.54362917,0.0399971,0.04,-8.7520895,-4.144615650177002,1.565644,0.0038170433,-0.012843940407037735,-0.0046573733
681.4166666663756,0.09227683,-0.8916379,-0.17565294,-2.3935475,-0.51865995,1.7849188,0.54362214,0.0399971,0.04,-8.752045,-4.1448211669921875,1.5656321,0.0038568792,-0.012820616364479065,-0.0045966576
681.4333333330422,0.09227928,-0.8916408,-0.17565757,-2.3935483,-0.5186737,1.7849244,0.5436158,0.0399971,0.04,-8.752007,-4.144998550415039,1.5656385,0.0038936655,-0.012800450436770916,-0.0045413505
681.4499999997089,0.09228153,-0.89164346,-0.17566186,-2.393549,-0.5186863,1.78493,0.54361004,0.0399971,0.04,-8.751951,-4.1451616287231445,1.5656166,0.0039271014,-0.012780213728547096,-0.004489452
681.4666666663755,0.09228362,-0.89164585,-0.17566578,-2.3935497,-0.51869786,1.784935,0.5436047,0.039997097,0.04,-8.751901,-4.145321369171143,1.565604,0.003957524,-0.012759435921907425,-0.004442705
681.4833333330422,0.09228553,-0.8916481,-0.17566943,-2.3935504,-0.5187085,1.7849395,0.54359967,0.039997097,0.04,-8.75188,-4.1454620361328125,1.5655943,0.003986203,-0.012741632759571075,-0.0043991474
681.4999999997088,0.09228729,-0.89165014,-0.17567275,-2.393551,-0.5187183,1.7849437,0.5435951,0.039997097,0.04,-8.423771,-4.0463337898254395,1.6284685,0.0,-0.0,0.0
681.5166666663755,0.09228729,-0.89165014,-0.17567275,-2.393551,-0.5187183,1.7849437,0.5435951,0.039997097,0.04,-8.751894,-4.1460652351379395,1.5654408,0.0,-0.0,0.0
681.5333333330422,0.09228729,-0.89165014,-0.17567275,-2.393551,-0.5187183,1.7849437,0.5435951,0.039997097,0.04,-8.751894,-4.1460652351379395,1.5654408,0.0,-0.0,0.0
681.5499999997088,0.09228729,-0.89165014,-0.17567275,-2.393551,-0.5187183,1.7849437,0.5435951,0.039997097,0.04,-8.751894,-4.1460652351379395,1.5654408,0.0,-0.0,0.0
681.5666666663755,0.09228729,-0.89165014,-0.17567275,-2.393551,-0.5187183,1.7849437,0.5435951,0.039997097,0.04,-8.751894,-4.1460652351379395,1.5654408,0.0,-0.0,0.0
681.5833333330421,0.09228729,-0.89165014,-0.17567275,-2.393551,-0.5187183,1.7849437,0.5435951,0.039997097,0.04,-8.751894,-4.1460652351379395,1.5654408,0.0,-0.0,0.0
681.5999999997088,0.09228729,-0.89165014,-0.17567275,-2.393551,-0.5187183,1.7849437,0.5435951,0.039997097,0.04,-8.751894,-4.1460652351379395,1.5654408,0.0,-0.0,0.0
681.6166666663754,0.09228729,-0.89165014,-0.17567275,-2.393551,-0.5187183,1.7849437,0.5435951,0.039997097,0.04,-8.751894,-4.1460652351379395,1.5654408,0.0,-0.0,0.0
681.6333333330421,0.09228729,-0.89165014,-0.17567275,-2.393551,-0.5187183,1.7849437,0.5435951,0.039997097,0.04,-8.751894,-4.1460652351379395,1.5654408,0.0,-0.0,0.0
681.6499999997087,0.09228729,-0.89165014,-0.17567275,-2.393551,-0.5187183,1.7849437,0.5435951,0.039997097,0.04,-8.751894,-4.1460652351379395,1.5654408,0.0,-0.0,0.0
681.6666666663754,0.09228729,-0.89165014,-0.17567275,-2.393551,-0.5187183,1.7849437,0.5435951,0.039997097,0.04,-8.751894,-4.1460652351379395,1.5654408,0.0,-0.0,0.0
681.683333333042,0.09228729,-0.89165014,-0.17567275,-2.393551,-0.5187183,1.7849437,0.5435951,0.039997097,0.04,-8.751894,-4.1460652351379395,1.5654408,0.0,-0.0,0.0
681.6999999997087,0.09228729,-0.89165014,-0.17567275,-2.393551,-0.5187183,1.7849437,0.5435951,0.039997097,0.04,-8.751894,-4.1460652351379395,1.5654408,0.0,-0.0,0.0
681.7166666663753,0.09228729,-0.89165014,-0.17567275,-2.393551,-0.5187183,1.7849437,0.5435951,0.039997097,0.04,-8.751894,-4.1460652351379395,1.5654408,0.0,-0.0,0.0
681.733333333042,0.09228729,-0.89165014,-0.17567275,-2.393551,-0.5187183,1.7849437,0.5435951,0.039997097,0.04,-8.751894,-4.1460652351379395,1.5654408,0.0,-0.0,0.0
681.7499999997086,0.09228729,-0.89165014,-0.17567275,-2.393551,-0.5187183,1.7849437,0.5435951,0.039997097,0.04,-8.751894,-4.1460652351379395,1.5654408,0.0,-0.0,0.0
681.7666666663753,0.09228729,-0.89165014,-0.17567275,-2.393551,-0.5187183,1.7849437,0.5435951,0.039997097,0.04,-8.751894,-4.1460652351379395,1.5654408,0.0,-0.0,0.0
681.7833333330419,0.09228729,-0.89165014,-0.17567275,-2.393551,-0.5187183,1.7849437,0.5435951,0.039997097,0.04,-8.751894,-4.1460652351379395,1.5654408,0.0,-0.0,0.0
681.7999999997086,0.09228729,-0.89165014,-0.17567275,-2.393551,-0.5187183,1.7849437,0.5435951,0.039997097,0.04,-8.751894,-4.1460652351379395,1.5654408,0.0,-0.0,0.0
681.8166666663752,0.09228729,-0.89165014,-0.17567275,-2.393551,-0.5187183,1.7849437,0.5435951,0.039997097,0.04,-8.751894,-4.1460652351379395,1.5654408,0.0,-0.0,0.0
681.8333333330419,0.09228729,-0.89165014,-0.17567275,-2.393551,-0.5187183,1.7849437,0.5435951,0.039997097,0.04,-8.751894,-4.1460652351379395,1.5654408,0.0,-0.0,0.0
681.8499999997085,0.09228729,-0.89165014,-0.17567275,-2.393551,-0.5187183,1.7849437,0.5435951,0.039997097,0.04,-8.751894,-4.1460652351379395,1.5654408,0.0,-0.0,0.0
681.8666666663752,0.09228729,-0.89165014,-0.17567275,-2.393551,-0.5187183,1.7849437,0.5435951,0.039997097,0.04,-8.751894,-4.1460652351379395,1.5654408,0.0,-0.0,0.0
681.8833333330418,0.09228729,-0.89165014,-0.17567275,-2.393551,-0.5187183,1.7849437,0.5435951,0.039997097,0.04,-8.751894,-4.1460652351379395,1.5654408,0.0,-0.0,0.0
681.8999999997085,0.09228729,-0.89165014,-0.17567275,-2.393551,-0.5187183,1.7849437,0.5435951,0.039997097,0.04,-8.751894,-4.1460652351379395,1.5654408,0.0,-0.0,0.0
681.9166666663751,0.09228729,-0.89165014,-0.17567275,-2.393551,-0.5187183,1.7849437,0.5435951,0.039997097,0.04,-8.751894,-4.1460652351379395,1.5654408,0.0,-0.0,0.0
681.9333333330418,0.09228729,-0.89165014,-0.17567275,-2.393551,-0.5187183,1.7849437,0.5435951,0.039997097,0.04,-8.751894,-4.1460652351379395,1.5654408,0.0,-0.0,0.0
681.9499999997084,0.09228729,-0.89165014,-0.17567275,-2.393551,-0.5187183,1.7849437,0.5435951,0.039997097,0.04,-8.751894,-4.1460652351379395,1.5654408,0.0,-0.0,0.0
681.9666666663751,0.09228729,-0.89165014,-0.17567275,-2.393551,-0.5187183,1.7849437,0.5435951,0.039997097,0.04,-8.751894,-4.1460652351379395,1.5654408,0.0,-0.0,0.0
681.9833333330417,0.09228729,-0.89165014,-0.17567275,-2.393551,-0.5187183,1.7849437,0.5435951,0.039997097,0.04,-8.751894,-4.1460652351379395,1.5654408,0.0,-0.0,0.0
681.9999999997084,0.09228729,-0.89165014,-0.17567275,-2.393551,-0.5187183,1.7849437,0.5435951,0.039997097,0.04,-8.751894,-4.1460652351379395,1.5654408,0.0,-0.0,0.0
682.016666666375,0.09228729,-0.89165014,-0.17567275,-2.393551,-0.5187183,1.7849437,0.5435951,0.039997097,0.04,-8.751894,-4.1460652351379395,1.5654408,0.0,-0.0,0.0
682.0333333330417,0.09228729,-0.89165014,-0.17567275,-2.393551,-0.5187183,1.7849437,0.5435951,0.039997097,0.04,-8.751894,-4.1460652351379395,1.5654408,0.0,-0.0,0.0
682.0499999997083,0.09228729,-0.89165014,-0.17567275,-2.393551,-0.5187183,1.7849437,0.5435951,0.039997097,0.04,-8.751894,-4.1460652351379395,1.5654408,0.0,-0.0,0.0
682.066666666375,0.09228729,-0.89165014,-0.17567275,-2.393551,-0.5187183,1.7849437,0.5435951,0.039997097,0.04,-8.751894,-4.1460652351379395,1.5654408,0.0,-0.0,0.0
682.0833333330417,0.09228729,-0.89165014,-0.17567275,-2.393551,-0.5187183,1.7849437,0.5435951,0.039997097,0.04,-8.751894,-4.1460652351379395,1.5654408,0.0,-0.0,0.0
682.0999999997083,0.09228729,-0.89165014,-0.17567275,-2.393551,-0.5187183,1.7849437,0.5435951,0.039997097,0.04,-8.751894,-4.1460652351379395,1.5654408,0.0,-0.0,0.0
682.116666666375,0.09228729,-0.89165014,-0.17567275,-2.393551,-0.5187183,1.7849437,0.5435951,0.039997097,0.04,-8.751894,-4.1460652351379395,1.5654408,0.0,-0.0,0.0
682.1333333330416,0.09228729,-0.89165014,-0.17567275,-2.393551,-0.5187183,1.7849437,0.5435951,0.039997097,0.04,-8.751894,-4.1460652351379395,1.5654408,0.0,-0.0,0.0
682.1499999997083,0.09228729,-0.89165014,-0.17567275,-2.393551,-0.5187183,1.7849437,0.5435951,0.039997097,0.04,-8.751894,-4.1460652351379395,1.5654408,0.0,-0.0,0.0
682.1666666663749,0.09228729,-0.89165014,-0.17567275,-2.393551,-0.5187183,1.7849437,0.5435951,0.039997097,0.04,-8.751894,-4.1460652351379395,1.5654408,0.0,-0.0,0.0
682.1833333330416,0.09228729,-0.89165014,-0.17567275,-2.393551,-0.5187183,1.7849437,0.5435951,0.039997097,0.04,-8.751894,-4.1460652351379395,1.5654408,0.0,-0.0,0.0
682.1999999997082,0.09228729,-0.89165014,-0.17567275,-2.393551,-0.5187183,1.7849437,0.5435951,0.039997097,0.04,-8.751894,-4.1460652351379395,1.5654408,0.0,-0.0,0.0
682.2166666663749,0.09228729,-0.89165014,-0.17567275,-2.393551,-0.5187183,1.7849437,0.5435951,0.039997097,0.04,-8.751894,-4.1460652351379395,1.5654408,0.0,-0.0,0.0
682.2333333330415,0.09228729,-0.89165014,-0.17567275,-2.393551,-0.5187183,1.7849437,0.5435951,0.039997097,0.04,-8.751894,-4.1460652351379395,1.5654408,0.0,-0.0,0.0
682.2499999997082,0.09228729,-0.89165014,-0.17567275,-2.393551,-0.5187183,1.7849437,0.5435951,0.039997097,0.04,-8.751894,-4.1460652351379395,1.5654408,0.0,-0.0,0.0
682.2666666663748,0.09228729,-0.89165014,-0.17567275,-2.393551,-0.5187183,1.7849437,0.5435951,0.039997097,0.04,-8.751894,-4.1460652351379395,1.5654408,0.0,-0.0,0.0
682.2833333330415,0.09228729,-0.89165014,-0.17567275,-2.393551,-0.5187183,1.7849437,0.5435951,0.039997097,0.04,-8.751894,-4.1460652351379395,1.5654408,0.0,-0.0,0.0
682.2999999997081,0.09228729,-0.89165014,-0.17567275,-2.393551,-0.5187183,1.7849437,0.5435951,0.039997097,0.04,-8.751894,-4.1460652351379395,1.5654408,0.0,-0.0,0.0
682.3166666663748,0.09228729,-0.89165014,-0.17567275,-2.393551,-0.5187183,1.7849437,0.5435951,0.039997097,0.04,-8.751894,-4.1460652351379395,1.5654408,0.0,-0.0,0.0
682.3333333330414,0.09228729,-0.89165014,-0.17567275,-2.393551,-0.5187183,1.7849437,0.5435951,0.039997097,0.04,-8.751894,-4.1460652351379395,1.5654408,0.0,-0.0,0.0
682.3499999997081,0.09228729,-0.89165014,-0.17567275,-2.393551,-0.5187183,1.7849437,0.5435951,0.039997097,0.04,-8.751894,-4.1460652351379395,1.5654408,0.0,-0.0,0.0
682.3666666663747,0.09228729,-0.89165014,-0.17567275,-2.393551,-0.5187183,1.7849437,0.5435951,0.039997097,0.04,-8.751894,-4.1460652351379395,1.5654408,0.0,-0.0,0.0
682.3833333330414,0.09228729,-0.89165014,-0.17567275,-2.393551,-0.5187183,1.7849437,0.5435951,0.039997097,0.04,-8.751894,-4.1460652351379395,1.5654408,0.0,-0.0,0.0
682.399999999708,0.09228729,-0.89165014,-0.17567275,-2.393551,-0.5187183,1.7849437,0.5435951,0.039997097,0.04,-8.751894,-4.1460652351379395,1.5654408,0.0,-0.0,0.0
682.4166666663747,0.09228729,-0.89165014,-0.17567275,-2.393551,-0.5187183,1.7849437,0.5435951,0.039997097,0.04,-8.751894,-4.1460652351379395,1.5654408,0.0,-0.0,0.0
682.4333333330413,0.09228729,-0.89165014,-0.17567275,-2.393551,-0.5187183,1.7849437,0.5435951,0.039997097,0.04,-8.751894,-4.1460652351379395,1.5654408,0.0,-0.0,0.0
682.449999999708,0.09228729,-0.89165014,-0.17567275,-2.393551,-0.5187183,1.7849437,0.5435951,0.039997097,0.04,-8.751894,-4.1460652351379395,1.5654408,0.0,-0.0,0.0
682.4666666663746,0.09228729,-0.89165014,-0.17567275,-2.393551,-0.5187183,1.7849437,0.5435951,0.039997097,0.04,-8.751894,-4.1460652351379395,1.5654408,0.0,-0.0,0.0
682.4833333330413,0.09228729,-0.89165014,-0.17567275,-2.393551,-0.5187183,1.7849437,0.5435951,0.039997097,0.04,-8.751894,-4.1460652351379395,1.5654408,0.0,-0.0,0.0
682.4999999997079,0.09228729,-0.89165014,-0.17567275,-2.393551,-0.5187183,1.7849437,0.5435951,0.039997097,0.04,-8.751894,-4.1460652351379395,1.5654408,0.0,-0.0,0.0
682.5166666663746,0.09228729,-0.89165014,-0.17567275,-2.393551,-0.5187183,1.7849437,0.5435951,0.039997097,0.04,-8.751894,-4.1460652351379395,1.5654408,0.0,-0.0,0.0
682.5333333330412,0.09228729,-0.89165014,-0.17567275,-2.393551,-0.5187183,1.7849437,0.5435951,0.039997097,0.04,-8.751894,-4.1460652351379395,1.5654408,0.0,-0.0,0.0
682.5499999997079,0.09228729,-0.89165014,-0.17567275,-2.393551,-0.5187183,1.7849437,0.5435951,0.039997097,0.04,-8.751894,-4.1460652351379395,1.5654408,0.0,-0.0,0.0
682.5666666663745,0.09228729,-0.89165014,-0.17567275,-2.393551,-0.5187183,1.7849437,0.5435951,0.039997097,0.04,-8.751894,-4.1460652351379395,1.5654408,0.0,-0.0,0.0
682.5833333330412,0.09228729,-0.89165014,-0.17567275,-2.393551,-0.5187183,1.7849437,0.5435951,0.039997097,0.04,-8.751894,-4.1460652351379395,1.5654408,0.0,-0.0,0.0
682.5999999997078,0.09228729,-0.89165014,-0.17567275,-2.393551,-0.5187183,1.7849437,0.5435951,0.039997097,0.04,-8.751894,-4.1460652351379395,1.5654408,0.0,-0.0,0.0
682.6166666663745,0.09228729,-0.89165014,-0.17567275,-2.393551,-0.5187183,1.7849437,0.5435951,0.039997097,0.04,-8.751894,-4.1460652351379395,1.5654408,0.0,-0.0,0.0
682.6333333330412,0.09228729,-0.89165014,-0.17567275,-2.393551,-0.5187183,1.7849437,0.5435951,0.039997097,0.04,-8.751894,-4.1460652351379395,1.5654408,0.0,-0.0,0.0
682.6499999997078,0.09228729,-0.89165014,-0.17567275,-2.393551,-0.5187183,1.7849437,0.5435951,0.039997097,0.04,-8.751894,-4.1460652351379395,1.5654408,0.0,-0.0,0.0
682.6666666663745,0.09228729,-0.89165014,-0.17567275,-2.393551,-0.5187183,1.7849437,0.5435951,0.039997097,0.04,-8.751894,-4.1460652351379395,1.5654408,0.0,-0.0,0.0
682.6833333330411,0.09228729,-0.89165014,-0.17567275,-2.393551,-0.5187183,1.7849437,0.5435951,0.039997097,0.04,-8.751894,-4.1460652351379395,1.5654408,0.0,-0.0,0.0
682.6999999997078,0.09228729,-0.89165014,-0.17567275,-2.393551,-0.5187183,1.7849437,0.5435951,0.039997097,0.04,-8.751894,-4.1460652351379395,1.5654408,0.0,-0.0,0.0
682.7166666663744,0.09228729,-0.89165014,-0.17567275,-2.393551,-0.5187183,1.7849437,0.5435951,0.039997097,0.04,-8.751894,-4.1460652351379395,1.5654408,0.0,-0.0,0.0
682.7333333330411,0.09228729,-0.89165014,-0.17567275,-2.393551,-0.5187183,1.7849437,0.5435951,0.039997097,0.04,-8.751894,-4.1460652351379395,1.5654408,0.0,-0.0,0.0
682.7499999997077,0.09228729,-0.89165014,-0.17567275,-2.393551,-0.5187183,1.7849437,0.5435951,0.039997097,0.04,-8.751894,-4.1460652351379395,1.5654408,0.0,-0.0,0.0
682.7666666663744,0.09228729,-0.89165014,-0.17567275,-2.393551,-0.5187183,1.7849437,0.5435951,0.039997097,0.04,-8.751894,-4.1460652351379395,1.5654408,0.0,-0.0,0.0
682.783333333041,0.09228729,-0.89165014,-0.17567275,-2.393551,-0.5187183,1.7849437,0.5435951,0.039997097,0.04,-8.751894,-4.1460652351379395,1.5654408,0.0,-0.0,0.0
682.7999999997077,0.09228729,-0.89165014,-0.17567275,-2.393551,-0.5187183,1.7849437,0.5435951,0.039997097,0.04,-8.751894,-4.1460652351379395,1.5654408,0.0,-0.0,0.0
682.8166666663743,0.09228729,-0.89165014,-0.17567275,-2.393551,-0.5187183,1.7849437,0.5435951,0.039997097,0.04,-8.751894,-4.1460652351379395,1.5654408,0.0,-0.0,0.0
682.833333333041,0.09228729,-0.89165014,-0.17567275,-2.393551,-0.5187183,1.7849437,0.5435951,0.039997097,0.04,-8.751894,-4.1460652351379395,1.5654408,0.0,-0.0,0.0
682.8499999997076,0.09228729,-0.89165014,-0.17567275,-2.393551,-0.5187183,1.7849437,0.5435951,0.039997097,0.04,-8.751894,-4.1460652351379395,1.5654408,0.0,-0.0,0.0
682.8666666663743,0.09228729,-0.89165014,-0.17567275,-2.393551,-0.5187183,1.7849437,0.5435951,0.039997097,0.04,-8.751894,-4.1460652351379395,1.5654408,0.0,-0.0,0.0
682.8833333330409,0.09228729,-0.89165014,-0.17567275,-2.393551,-0.5187183,1.7849437,0.5435951,0.039997097,0.04,-8.751894,-4.1460652351379395,1.5654408,0.0,-0.0,0.0
682.8999999997076,0.09228729,-0.89165014,-0.17567275,-2.393551,-0.5187183,1.7849437,0.5435951,0.039997097,0.04,-8.751894,-4.1460652351379395,1.5654408,0.0,-0.0,0.0
682.9166666663742,0.09228729,-0.89165014,-0.17567275,-2.393551,-0.5187183,1.7849437,0.5435951,0.039997097,0.04,-8.751894,-4.1460652351379395,1.5654408,0.0,-0.0,0.0
682.9333333330409,0.09228729,-0.89165014,-0.17567275,-2.393551,-0.5187183,1.7849437,0.5435951,0.039997097,0.04,-8.751894,-4.1460652351379395,1.5654408,0.0,-0.0,0.0
682.9499999997075,0.09228729,-0.89165014,-0.17567275,-2.393551,-0.5187183,1.7849437,0.5435951,0.039997097,0.04,-8.751894,-4.1460652351379395,1.5654408,0.0,-0.0,0.0
682.9666666663742,0.09228729,-0.89165014,-0.17567275,-2.393551,-0.5187183,1.7849437,0.5435951,0.039997097,0.04,-8.751894,-4.1460652351379395,1.5654408,0.0,-0.0,0.0
682.9833333330408,0.09228729,-0.89165014,-0.17567275,-2.393551,-0.5187183,1.7849437,0.5435951,0.039997097,0.04,-8.751894,-4.1460652351379395,1.5654408,0.0,-0.0,0.0
682.9999999997075,0.09228729,-0.89165014,-0.17567275,-2.393551,-0.5187183,1.7849437,0.5435951,0.039997097,0.04,-8.751894,-4.1460652351379395,1.5654408,0.0,-0.0,0.0
683.0166666663741,0.09228729,-0.89165014,-0.17567275,-2.393551,-0.5187183,1.7849437,0.5435951,0.039997097,0.04,-8.751894,-4.1460652351379395,1.5654408,0.0,-0.0,0.0
683.0333333330408,0.09228729,-0.89165014,-0.17567275,-2.393551,-0.5187183,1.7849437,0.5435951,0.039997097,0.04,-8.751894,-4.1460652351379395,1.5654408,0.0,-0.0,0.0
683.0499999997074,0.09228729,-0.89165014,-0.17567275,-2.393551,-0.5187183,1.7849437,0.5435951,0.039997097,0.04,-8.751894,-4.1460652351379395,1.5654408,0.0,-0.0,0.0
683.0666666663741,0.09228729,-0.89165014,-0.17567275,-2.393551,-0.5187183,1.7849437,0.5435951,0.039997097,0.04,-8.751894,-4.1460652351379395,1.5654408,0.0,-0.0,0.0
683.0833333330407,0.09228729,-0.89165014,-0.17567275,-2.393551,-0.5187183,1.7849437,0.5435951,0.039997097,0.04,-8.751894,-4.1460652351379395,1.5654408,0.0,-0.0,0.0
683.0999999997074,0.09228729,-0.89165014,-0.17567275,-2.393551,-0.5187183,1.7849437,0.5435951,0.039997097,0.04,-8.751894,-4.1460652351379395,1.5654408,0.0,-0.0,0.0
