rsonawane2002/My_IMU/logs_test/traj_259/clean_259.csv
time,j1,j2,j3,j4,j5,j6,j7,gripper1,gripper2,imu_ax,imu_ay,imu_az,imu_gx,imu_gy,imu_gz,quat_x,quat_y,quat_z,quat_w
89.43333333332954,0.00016700293,-0.785875,4.0107683e-05,-2.3551247,9.29385e-05,1.570997,0.786,0.04,0.04,0.0,-0.0,0.0,2.875329272945135e-08,-0.0011641195053377316,4.421952117202833e-08,0.9999995971961153,0.00020320632366974898,0.0008736418299892524,3.263050917662294e-05
89.44999999999621,0.00016699765,-0.78576016,4.010516e-05,-2.3552213,9.29714e-05,1.5709941,0.786,0.04,0.04,-0.2919984593702907,-1.3173376803656857e-05,0.02012841383769448,9.71043630997645e-07,-0.0022370341755645756,3.1676280384574e-07,0.9999996850572066,0.00020321460391033549,0.0007665025183146854,3.260677568639987e-05
89.46666666666287,0.00016693572,-0.7856542,4.0036695e-05,-2.35531,9.2992996e-05,1.5709913,0.786,0.04,0.039999995,0.023196979929318573,0.00014883434124462764,-0.001602679427370468,7.855396686712075e-06,-0.003220889218007177,2.7198526143654526e-06,0.9999997558714929,0.00020327415194136827,0.0006677376432661549,3.260388498865855e-05
89.48333333332954,0.00016672067,-0.7855566,3.9794537e-05,-2.355391,9.2950824e-05,1.5709884,0.786,0.04,0.04,0.02226312523374574,0.0004219729055384444,-0.0014233147174858019,2.5637430102620157e-05,-0.004117033081127536,6.193105650788519e-06,0.9999998123087289,0.00020347133805092676,0.0005769895789771687,3.2633532807041675e-05
89.4999999999962,0.00016621174,-0.78546655,3.9223738e-05,-2.3554652,9.28091e-05,1.5709856,0.786,0.04,0.04,0.020057827188968425,0.000787444770654252,-0.001222134054557067,5.932886085998704e-05,-0.004924529261963931,1.3649654576858133e-05,0.9999998569220296,0.0002039313826134709,0.0004934536559568056,3.2732260304067375e-05
89.51666666666287,0.00016522812,-0.78538316,3.8126636e-05,-2.355532,9.2518974e-05,1.5709826,0.786,0.04,0.04,0.019906954091153395,0.0012572756327600728,-0.0006132846370743295,0.00011349227128492531,-0.005645065831634164,2.7085873495752118e-05,0.9999998915835439,0.00020481460610671245,0.0004168914463771267,3.294540066514752e-05
89.53333333332954,0.0001635537,-0.78530586,3.6267735e-05,-2.3555944,9.200952e-05,1.5709794,0.786,0.04,0.04,0.013941465531819297,0.0018277209641131957,-0.001740394798077638,0.00019173348528761261,-0.006276971954735722,4.5607163188452117e-05,0.999999918513415,0.0002063124501565016,0.00034539559281175576,3.33199746709881e-05
89.5499999999962,0.00016093996,-0.78523386,3.3377313e-05,-2.355652,9.12044e-05,1.5709755,0.786,0.04,0.04,0.013781476433050166,0.0024780021022713047,-0.0013474080857056592,0.00029782449704254886,-0.006832420323486185,7.06353791283423e-05,0.9999999388390344,0.00020864456507127497,0.000278638258118161,3.391303505981457e-05
89.56666666666287,0.00015711022,-0.78516674,2.9155412e-05,-2.3557034,9.000313e-05,1.5709689,0.786,0.03999999,0.03999999,0.01543780711585896,0.0032131984112772956,-0.0020451947575494955,0.00043492479098147715,-0.007311117603107994,0.00010317475010836331,0.9999999535590742,0.0002120552947808742,0.00021611279319805015,3.478019426597613e-05
89.58333333332953,0.000151762,-0.7851035,2.327458e-05,-2.3557513,8.832387e-05,1.5709618,0.786,0.039999988,0.039999988,0.009844169742967424,0.003995444617206905,-0.000987831889287527,0.0006058451261620747,-0.007712575121085797,0.00014319820305965143,0.999999963521679,0.00021681182779993108,0.0001570145199841917,3.5996007984506494e-05
89.5999999999962,0.0001445706,-0.78504354,1.538369e-05,-2.3557942,8.606665e-05,1.5709513,0.7860019,0.03999998,0.039999977,0.011038699130372365,0.004843782699141412,-0.002208147137139349,0.000813143793820663,-0.008040238650986872,0.000192746086623915,0.9999999691361915,0.00022415427323274313,0.0001003301106831325,3.7634382274177515e-05
89.61666666666287,0.00013519148,-0.7849862,5.1102948e-06,-2.3558323,8.3123545e-05,1.5709399,0.7860038,0.039999973,0.03999997,0.01070220793046861,0.005744805095825984,-7.453492683051621e-05,0.0010505833653347714,-0.008298596959227137,0.00025039863985936296,0.9999999708654316,0.00023343301149206987,4.686424804915759e-05,3.9773198446632445e-05
89.63333333332953,0.0001232626,-0.7849309,-7.936804e-06,-2.3558671,7.938386e-05,1.5709252,0.78600574,0.039999966,0.039999958,0.006894562041881436,0.006689879325171235,-0.0020631733451681455,0.001328958913746455,-0.008475603710897917,0.00031831083411990057,0.999999969077298,0.0002449674170832028,-5.528846887384697e-06,4.249469779357572e-05
89.6499999999962,0.00010840699,-0.7848769,-2.4164541e-05,-2.355897,7.472973e-05,1.5709069,0.78600764,0.03999997,0.03999996,0.008788925683433924,0.007674916659241014,-0.0012633341948564691,0.0016500685697412873,-0.008587744153663444,0.00039515124609068857,0.9999999637811631,0.00025908984883260034,-5.661076420714676e-05,4.5884028845731525e-05
89.66666666666286,9.0234455e-05,-0.78482366,-4.399404e-05,-2.3559241,6.904097e-05,1.5708847,0.78600955,0.03999997,0.03999996,0.00410711132883268,0.008693163485614356,-0.002116568127563667,0.002015223073514154,-0.00862956450485511,0.00048210499741502114,0.9999999547992962,0.0002761443920486937,-0.00010790142715778978,5.002961500791193e-05
89.68333333332953,6.834378e-05,-0.78477067,-6.785862e-05,-2.3559468,6.219403e-05,1.5708586,0.78601146,0.039999973,0.03999996,0.006717379514831201,0.009740386562941924,-0.0010456709734096847,0.0024263689903366876,-0.008609147537612376,0.0005803134192179469,0.9999999419298243,0.00029648488792054955,-0.00015877498635349108,5.502329643521507e-05
89.6999999999962,4.2324195e-05,-0.7847174,-9.620137e-05,-2.3559663,5.406124e-05,1.5708278,0.7860153,0.039999977,0.039999966,0.003467427534298295,0.01081265277475506,-0.00191726047178431,0.0028841734773501636,-0.008517496297038872,0.0006882923511320979,0.9999999243139824,0.00032142711870962313,-0.00021057259615688435,6.095751303347746e-05
89.71666666666286,1.1757151e-05,-0.7846632,-0.00012947396,-2.3559825,4.451361e-05,1.5707912,0.7860191,0.039999973,0.039999958,0.0028365881459713194,0.011904447502477617,-0.0023626736617154975,0.0033812174098335336,-0.008362882839977727,0.0008079704307658619,0.999999901441363,0.0003503864024526152,-0.0002640690548267543,6.792766554881744e-05
89.73333333332953,-2.3782273e-05,-0.78460765,-0.0001681351,-2.355995,3.3419954e-05,1.5707493,0.7860229,0.039999977,0.03999996,0.003270688979650771,0.013013345324538926,-0.0015253016521832308,0.003927420338259093,-0.008150138115890446,0.0009377749668404648,0.9999998725936539,0.0003837374816755323,-0.00031902591840415596,7.603081473726119e-05
89.74999999999619,-6.472411e-05,-0.78455013,-0.00021264852,-2.3560052,2.064759e-05,1.5707009,0.7860286,0.039999977,0.039999958,-0.0005627760481630162,0.014134059907118971,-0.0027405420171211503,0.0045230666892570525,-0.007872187880112003,0.0010795623976673696,0.9999998358642376,0.00042281302184410494,-0.00037711215939616654,8.536431166656868e-05
89.76666666666286,-0.00011150215,-0.7844899,-0.00026348242,-2.3560104,6.06148e-06,1.570646,0.78603435,0.03999998,0.03999996,0.003507189929274901,0.01526734868234269,-0.0010545609281820134,0.005160572191323914,-0.007540103663235081,0.0012317099400047586,0.9999997907293876,0.0004670419766488283,-0.00043725477835645414,9.602724592297015e-05
89.78333333332952,-0.00016455306,-0.7844268,-0.0003211077,-2.356014,-1.04714845e-05,1.5705839,0.7860402,0.039999984,0.03999996,-0.002690482315736986,0.01640287748536311,-0.003047137641210007,0.00584895906478361,-0.007142715553175531,0.0013959399749900528,0.9999997347474572,0.000516868717555041,-0.0005016590840492012,0.00010811987457174116
89.79999999999619,-0.00022431498,-0.7843602,-0.00038599732,-2.356013,-2.9089484e-05,1.5705141,0.7860478,0.039999984,0.03999997,0.0013601945234142931,0.017548737375921858,-0.0017861513592176692,0.006587847171892983,-0.006693480907644207,0.001568065736896602,0.9999996660043887,0.0005735142446466133,-0.0005694310199035275,0.00012174085521842603
89.81666666666285,-0.00029122716,-0.78428954,-0.00045862515,-2.3560092,-4.9923998e-05,1.5704359,0.78605545,0.039999984,0.039999966,-0.002190143973779257,0.018689300645624556,-0.00271944562868498,0.007370159204886482,-0.006185143834635141,0.001755097382519924,0.999999582023918,0.0006364716810277668,-0.0006419412959442304,0.00013699328797032147
89.83333333332952,-0.0003657284,-0.7842147,-0.00053946447,-2.3560014,-7.3113006e-05,1.5703491,0.786065,0.039999988,0.03999997,-0.0005041733810440263,0.019835166879282346,-0.0022359765940782594,0.008204376934790125,-0.005623982125018293,0.0019517859214538658,0.999999479803357,0.0007070816818867198,-0.0007188322924301934,0.0001539761209181988
89.84999999999619,-0.00044825693,-0.7841347,-0.0006289881,-2.3559902,-9.879048e-05,1.570253,0.7860745,0.03999999,0.039999966,-0.0029331821095990307,0.020974890102718254,-0.002597406342208508,0.009081691211627841,-0.005003122511918353,0.002162432968610471,0.9999993561202856,0.0007847769776281276,-0.0008012660186319964,0.0001727914267698559
89.86666666666285,-0.0005392488,-0.7840494,-0.0007276672,-2.3559754,-0.00012709259,1.5701473,0.78608596,0.039999995,0.039999984,-0.00283886781742293,0.0221123596680834,-0.0026695048357838758,0.010011122950816242,-0.004332447891111661,0.002379358400023087,0.9999992065325186,0.0008708960589482125,-0.0008893914710437737,0.00019353862411391294
89.88333333332952,-0.0006391389,-0.7839583,-0.0008359704,-2.355957,-0.00015815214,1.5700309,0.7860979,0.04,0.039999966,-0.0036668825228236557,0.023241858989918405,-0.0031273125884911934,0.010983954077546204,-0.0036090653411563764,0.0026168754960122073,0.9999990268339226,0.0009651069771725113,-0.0009839235767749143,0.00021631949880217535
89.89999999999618,-0.000748358,-0.7838612,-0.0009543631,-2.3559356,-0.00019210442,1.5699041,0.78611124,0.04,0.039999988,-0.004702582699644964,0.024364311443089218,-0.003137111255369085,0.012006327582938727,-0.0028352745590337946,0.002853874615763412,0.9999988115195012,0.0010682666559867155,-0.0010851602163779296,0.00024123275378514002
89.91666666666285,-0.0008673345,-0.78375745,-0.0010833072,-2.35591,-0.00022907974,1.5697659,0.7861258,0.03999999,0.039999954,-0.004071103642799834,0.02547737114113359,-0.0029807566441109046,0.013074289271642186,-0.0020133526725672904,0.0031136929854623714,0.9999985549720337,0.001180633817749992,-0.0011933693153975769,0.00026837904118124544
89.93333333332951,-0.0009964926,-0.78364676,-0.001223261,-2.3558815,-0.00026920554,1.5696161,0.7861412,0.03999998,0.03999993,-0.006066687508754498,0.026575675673376122,-0.003566998660642362,0.0141880906950965,-0.001140868093408005,0.0033842008765402097,0.999998250305004,0.0013024336586416885,-0.0013093253728844955,0.00029785997248403935
89.94999999999618,-0.0011362518,-0.7835285,-0.0013746775,-2.3558486,-0.00031261746,1.5694541,0.7861584,0.039999984,0.03999993,-0.004917808646709432,0.02767256170342399,-0.0030424756893854266,0.015349398897147802,-0.00022359157895693836,0.003661282746441614,0.9999978900522266,0.0014344540308274367,-0.0014329983486012672,0.00032977031584380267
89.96666666666285,-0.0012870276,-0.7834023,-0.0015380048,-2.3558125,-0.00035944258,1.5692792,0.78617674,0.03999999,0.039999932,-0.007562010274564379,0.02874559069579877,-0.00394300241097767,0.0165539119395122,0.0007415831630452254,0.003948480684515154,0.9999974651080482,0.001576792724531787,-0.001565520243433168,0.00036420948543427903
89.98333333332951,-0.0014492295,-0.7832682,-0.0017136858,-2.355772,-0.00040980757,1.569091,0.7861964,0.04,0.039999943,-0.005284016554707449,0.029811979790577738,-0.003687774172234093,0.017803566912409058,0.0017487221928549155,0.004245536923438726,0.9999969673330862,0.0017298715291068686,-0.0017064137750151353,0.00040127440959474746
89.99999999999618,-0.0016232628,-0.7831254,-0.0019021573,-2.355728,-0.00046383703,1.5688895,0.78621745,0.04,0.039999943,-0.007721837440466395,0.03085920920761584,-0.003630689369749085,0.019097733154371153,0.0028019881279132686,0.004552593554638419,0.9999963856960516,0.001894077533101625,-0.001856483093764365,0.00044106196249773903
90.01666666666284,-0.0018095264,-0.7829737,-0.00210385,-2.3556798,-0.00052165065,1.5686737,0.7862401,0.039999995,0.03999993,-0.007447544145389173,0.031888852952106916,-0.0041579818794046375,0.020435919458080015,0.0038981101191844156,0.004877194311052615,0.999995708456431,0.002069882196513432,-0.0020161150994623157,0.0004836696379824124
90.03333333332951,-0.0020084118,-0.7828126,-0.0023191883,-2.3556278,-0.00058337476,1.5684434,0.78626424,0.04,0.039999932,-0.008519858410371839,0.03290643675160805,-0.00418861172246654,0.02181604388961855,0.0050366715302381584,0.005206663677458813,0.9999949227546157,0.0022575721710350175,-0.002185815763394927,0.000529190260154687
90.04999999999617,-0.0022203075,-0.7826419,-0.0025485905,-2.3555715,-0.0006491275,1.5681981,0.78628993,0.04,0.03999994,-0.008058272684130507,0.03390815101859068,-0.004280213664298316,0.023238387604390003,0.006213285966491227,0.0055454492819058,0.9999940151940488,0.0024575200378658666,-0.0023656737892083952,0.0005777186781009059
90.06666666666284,-0.0024455935,-0.78246135,-0.0027924664,-2.355511,-0.00071902224,1.5679375,0.7863173,0.04,0.039999917,-0.008396908560270866,0.034884902477430764,-0.004380700568495932,0.024702309432895267,0.007432412323499912,0.0059024697213965575,0.9999929707808201,0.002670120930904345,-0.0025559268357703713,0.0006293498029642141
90.0833333333295,-0.0026846423,-0.78227043,-0.003051219,-2.355446,-0.0007931803,1.5676609,0.78634644,0.04,0.039999913,-0.00921391113326564,0.03584880923864345,-0.004674848404584431,0.026207045757436747,0.008690984490717629,0.00626577339546039,0.9999917721200571,0.002895763790740635,-0.002757199928640685,0.0006841730846372957
90.09999999999617,-0.0029378207,-0.78206915,-0.0033252458,-2.3553767,-0.0008717113,1.5673683,0.7863772,0.04,0.0399999,-0.008847370857334447,0.03679237501180606,-0.004723526779515375,0.027750867388718892,0.00998695841871778,0.006639775649824373,0.9999904025763144,0.0031346838955481323,-0.002969432449971515,0.0007422823320421652
90.11666666666284,-0.0032054882,-0.78185683,-0.0036149346,-2.3553035,-0.00095472834,1.5670587,0.7864097,0.04,0.0399999,-0.011045332942871688,0.03770980131938828,-0.005375840291521605,0.029334383660478514,0.011322217575502374,0.007022342521868249,0.999988840215311,0.0033872577739152295,-0.003193726076043105,0.0008037682262896169
90.1333333333295,-0.0034879998,-0.7816333,-0.003920666,-2.3552248,-0.0010423379,1.566732,0.7864439,0.04,0.039999895,-0.008451011621302129,0.038625517333276335,-0.004686683670152014,0.030956630414391412,0.01268975574852651,0.007415446636751427,0.9999870670810009,0.0036537996896780257,-0.0034293942155638893,0.0008687196782927967
90.14999999999617,-0.003785698,-0.7813983,-0.0042428137,-2.3551416,-0.0011346496,1.566388,0.7864799,0.04,0.0399999,-0.010509036555972351,0.03950243659192627,-0.005304734388555943,0.032616608898242166,0.014097117086886123,0.007817462824600314,0.9999850589370295,0.003934642905688375,-0.0036772403131806646,0.000937225474262
90.16666666666283,-0.004098921,-0.7811514,-0.004581743,-2.355054,-0.0012317672,1.566026,0.7865178,0.04,0.039999902,-0.011089811167774855,0.04036274275141423,-0.005641799542943637,0.03431381973129003,0.015539166705318151,0.008229711744350117,0.9999827904682974,0.0042301459689612925,-0.003937739912463151,0.0010093744103678941
90.1833333333295,-0.0044279997,-0.7808925,-0.0049378113,-2.3549612,-0.0013337921,1.5656457,0.7865576,0.04,0.039999906,-0.010553751613828766,0.0412083480859823,-0.005602010560834536,0.03604669413457717,0.01701293113624505,0.008651324766592718,0.999980236705313,0.004540602020954427,-0.0042108617608696145,0.0010852535669220562
90.19999999999617,-0.004773258,-0.78062135,-0.005311366,-2.3548648,-0.0014408254,1.5652466,0.78659946,0.04,0.03999991,-0.01335928815611176,0.04201230047971485,-0.006705292152120457,0.03781496233502685,0.018520721186618995,0.009077469178916529,0.9999773658009208,0.004866354540888778,-0.004497707026477909,0.0011649510023129292
90.21666666666283,-0.0051350123,-0.7803376,-0.0057027508,-2.3547626,-0.0015529573,1.5648286,0.78664327,0.04,0.039999884,-0.009781881816750548,0.0428338749634315,-0.005498741043097333,0.03961749664559553,0.02005323084544986,0.009524728433211498,0.9999741533801813,0.005207657091053963,-0.004797290517496605,0.0012485523226937066
90.2333333333295,-0.005513567,-0.78004104,-0.0061122957,-2.354655,-0.0016702947,1.5643915,0.78668916,0.04,0.03999989,-0.011236497257649525,0.043606862134066005,-0.006145781418775975,0.04145356199629384,0.021623254360435357,0.009973494538111872,0.9999705661152342,0.005564838787663641,-0.005110206553818353,0.0013361367530608547
90.24999999999616,-0.005909223,-0.7797313,-0.0065403264,-2.3545437,-0.0017929213,1.5639343,0.7867371,0.04,0.039999876,-0.014441891233096804,0.04433564442327301,-0.007285196932116378,0.04332218766277152,0.023224082715536783,0.01043390835572686,0.9999665644559019,0.005938133886054704,-0.005437824002711302,0.001427797719328457
90.26666666666283,-0.006322274,-0.77940816,-0.006987156,-2.3544261,-0.001920931,1.5634573,0.7867871,0.04,0.03999987,-0.010501063834889024,0.04509958413606366,-0.006177169451548892,0.04522291007017526,0.024847283243428997,0.010902499681326738,0.9999621197206359,0.0063278344497243455,-0.00577894875894751,0.0015236096058644508
90.2833333333295,-0.0067530014,-0.77907145,-0.007453096,-2.3543026,-0.00205441,1.5629598,0.7868392,0.04,0.039999858,-0.01131571239829654,0.04580771391972452,-0.006653379258536596,0.04715486514593099,0.026503344140964273,0.011380366500577555,0.9999571929588928,0.006734192510324058,-0.006134055406650472,0.0016236579915765623
90.29999999999616,-0.007201686,-0.778721,-0.007938443,-2.3541753,-0.0021934458,1.5624413,0.7868936,0.04,0.039999854,-0.01532500755616617,0.04646221103546608,-0.00813609693457451,0.04911704124029814,0.028190269591647513,0.011867207101099918,0.9999517354730054,0.0071575690592661795,-0.006504602013700226,0.0017280284516635624
90.31666666666283,-0.007668591,-0.7783564,-0.008443487,-2.354042,-0.0023381207,1.5619022,0.78695023,0.04,0.03999986,-0.012016418722660127,0.04715650829429513,-0.006936603149076959,0.051108124240743534,0.029895699263465025,0.012362318355551183,0.9999457126104161,0.007598144551350251,-0.00688957270923121,0.0018367959353641572
90.33333333332949,-0.008153981,-0.7779779,-0.008968511,-2.353903,-0.0024885153,1.5613414,0.78700906,0.04,0.039999858,-0.012412425565577756,0.047790445444709576,-0.007974720929215806,0.05312750679879564,0.031630325143149354,0.012866846637184792,0.9999390784833599,0.008056150691138806,-0.0072893819894602,0.0019500431026881577
90.34999999999616,-0.008658105,-0.7775848,-0.009513789,-2.3537593,-0.0026447072,1.5607591,0.7870701,0.04,0.039999854,-0.014811581127194273,0.0483943951808348,-0.008193033771219937,0.05517466744027434,0.03339099120315596,0.01337965634220946,0.9999317813354627,0.008531809345811617,-0.007704861384421492,0.0020678529014157686
90.36666666666282,-0.009181213,-0.77717686,-0.010079582,-2.35361,-0.0028067708,1.5601549,0.78713334,0.04,0.03999987,-0.01393702265455321,0.0490003701714304,-0.008099377427739363,0.057249042176238656,0.03517190338792521,0.013902731920680556,0.9999237736595589,0.009025340247611998,-0.008135888602172679,0.002190301462149532
90.38333333332949,-0.009723542,-0.776754,-0.010666155,-2.353454,-0.0029747833,1.5595285,0.78719896,0.04,0.03999987,-0.012134139574127012,0.04960505419780298,-0.008072431255645718,0.05934991898220868,0.03697521897277212,0.014432426006912335,0.9999150069155558,0.009537048982071649,-0.008582132782460089,0.0023174638468993606
90.39999999999615,-0.010285321,-0.77631617,-0.011273751,-2.3532934,-0.003148814,1.5588795,0.787267,0.04,0.039999872,-0.015556395967797343,0.05010560363538294,-0.009271788182418916,0.06147555122184438,0.03880452928381599,0.014970530794602784,0.9999054183155357,0.01006716110633286,-0.009044722958950488,0.002449423827857653
90.41666666666282,-0.0108667705,-0.7758633,-0.011902609,-2.3531275,-0.0033289287,1.5582081,0.7873374,0.04,0.039999854,-0.01471225768931994,0.05064169571002142,-0.009180406769382365,0.06362504010177561,0.0406499124569342,0.015517782455168756,0.9998949551842986,0.010615815290121376,-0.009523357317343153,0.002586257551316451
90.43333333332949,-0.011468102,-0.77539504,-0.012552962,-2.3529556,-0.0035151972,1.557514,0.7874103,0.04,0.039999846,-0.01400583418842416,0.051159567178507906,-0.009145777134822453,0.06579818502019864,0.0425153977893241,0.016072917603807232,0.9998835586353613,0.011183291703746316,-0.010018032248429114,0.0027280372476290934
90.44999999999615,-0.012089526,-0.7749111,-0.013225031,-2.352777,-0.0037076813,1.5567963,0.78748554,0.04,0.039999846,-0.013342097702651046,0.05165190390703442,-0.0094216868413044,0.06799362718993814,0.044403179859508826,0.016636291650908776,0.9998711677898593,0.011769687596217512,-0.010528892430403352,0.0028748392336646646
90.46666666666282,-0.012731236,-0.77441144,-0.013919033,-2.3525922,-0.003906443,1.5560551,0.7875632,0.04,0.039999846,-0.014244888164238745,0.052095283793027886,-0.009944764669955752,0.07021105196578584,0.046312099926333984,0.017207861827384038,0.9998577156109617,0.01237523561314491,-0.011056261505284729,0.0030267405364905035
90.48333333332948,-0.013393428,-0.7738961,-0.014635175,-2.352402,-0.00411154,1.5552906,0.78764343,0.04,0.03999985,-0.015273453494546452,0.052523346630591744,-0.010297859656804853,0.07244972228597396,0.048237546857023646,0.01778683644299428,0.9998431339065486,0.0130001653558476,-0.011600284084886923,0.0031838168606443335
90.49999999999615,-0.0140762795,-0.7733647,-0.015373655,-2.3522067,-0.0043230294,1.5545021,0.7877261,0.04,0.03999985,-0.016679577556732994,0.05290397345427619,-0.011126663324700914,0.07470773890167973,0.05018262478897437,0.018374517448820897,0.9998273456839722,0.013644575036065405,-0.012161729954561207,0.003346149898024491
90.51666666666281,-0.014779967,-0.77281713,-0.01613465,-2.3520048,-0.0045409678,1.5536898,0.7878112,0.04,0.03999985,-0.014025932137529118,0.05333198354916108,-0.010436853053397144,0.07698551765799748,0.05213672279598692,0.018970096048646516,0.9998102891543716,0.01430862304389239,-0.012739789549829702,0.0035137970723471586
90.53333333332948,-0.015504657,-0.7722533,-0.016918357,-2.3517964,-0.004765404,1.5528532,0.7878989,0.04,0.039999854,-0.014631278111676416,0.05369833297338908,-0.011159933524296228,0.07928226523567879,0.054112432565544315,0.01957393029890485,0.9997918850453091,0.014992521572390857,-0.013334845107477594,0.0036868415220190766
90.54999999999615,-0.016250513,-0.77167326,-0.017724946,-2.3515816,-0.004996388,1.5519924,0.78798914,0.04,0.03999985,-0.014459953665246772,0.054041861343732955,-0.011431996810395972,0.0815963363535922,0.05610245295313852,0.020185379186871917,0.9997720586361337,0.015696412918086055,-0.01394677187563369,0.003865352017731226
90.56666666666281,-0.017017683,-0.7710765,-0.01855458,-2.3513603,-0.005233968,1.5511068,0.78808194,0.04,0.039999854,-0.015286936482872271,0.05434627729032082,-0.011857317743468876,0.08392722924108006,0.058110804975677915,0.020804916389946485,0.9997507226239604,0.01642042949332612,-0.014576159980958589,0.004049403453983275
90.58333333332948,-0.017806312,-0.77046305,-0.019407405,-2.3511338,-0.0054781865,1.5501963,0.7881774,0.04,0.039999843,-0.017251034346221772,0.05458256296169972,-0.012857444374181348,0.08627417956691667,0.06013197884079863,0.021431892883682885,0.9997277848143059,0.017164720880230272,-0.015223629082285882,0.00423907359567
90.59999999999614,-0.01861654,-0.7698329,-0.02028358,-2.3509011,-0.0057290876,1.5492612,0.7882754,0.04,0.03999984,-0.015535600481264566,0.054911588450291815,-0.012468796057651943,0.08863637370098902,0.06215999524969227,0.022067192470056105,0.9997031693611337,0.017929418451628605,-0.015888517227187395,0.004434427089499561
90.61666666666281,-0.0194485,-0.769186,-0.021183256,-2.3506618,-0.0059867105,1.5483009,0.78837615,0.04,0.03999987,-0.015003156264548068,0.05517451778740065,-0.013088451643894494,0.09101290318081087,0.06420166126047672,0.022710077855954615,0.9996767856910096,0.018714672928437693,-0.016570966767237367,0.004635539674277944
90.63333333332947,-0.020302307,-0.76852214,-0.02210655,-2.350416,-0.0062510944,1.5473155,0.7884795,0.04,0.039999872,-0.015586818196333674,0.05537574627282535,-0.013235778680065202,0.09340256587010139,0.06625572008496647,0.02336076358197106,0.9996485421683585,0.019520553997928083,-0.017271089754624686,0.0048424757074417455
90.64999999999614,-0.02117808,-0.76784116,-0.023053586,-2.3501637,-0.006522274,1.5463046,0.7885854,0.04,0.039999876,-0.015846983335965348,0.05556746211044933,-0.013887960346337103,0.09580546807594427,0.06832185027138031,0.024018168758052273,0.9996183409201677,0.020347134261920703,-0.017989176575451696,0.0050553090386226945
90.6666666666628,-0.02207593,-0.7671432,-0.024024505,-2.3499053,-0.0068002827,1.5452682,0.7886941,0.04,0.039999884,-0.016104773050740206,0.05576662764164783,-0.014435869884876773,0.09822076723640523,0.07039611335277877,0.024683494289284777,0.9995860824397421,0.02119460724588607,-0.018725279437131936,0.005274118548443328
90.68333333332947,-0.022995954,-0.7664279,-0.025019389,-2.3496413,-0.0070851515,1.5442061,0.78880537,0.04,0.03999987,-0.0177157215407453,0.05584872297507912,-0.015046911615090863,0.10064670193654258,0.07247856844806734,0.02535634671295236,0.9995516575555063,0.022062985452476824,-0.019479985850541125,0.005498972833736576
90.69999999999614,-0.023938237,-0.76569533,-0.026038343,-2.3493707,-0.0073769093,1.5431185,0.7889194,0.04,0.039999872,-0.015575863493388908,0.05603167543263149,-0.014934199000649073,0.10308356706359298,0.07456473757909908,0.026036788876591485,0.9995149750833968,0.02295241520918969,-0.020252632303443863,0.005729930617659553
90.7166666666628,-0.024902876,-0.7649454,-0.02708147,-2.3490932,-0.007675582,1.5420052,0.78903615,0.04,0.039999865,-0.015361287196857809,0.05617897146597689,-0.015120288472281196,0.10553004115152405,0.07666058874656771,0.026724004508902673,0.9994759310742566,0.023862983045412,-0.02104318020536004,0.005967060437686295
90.73333333332947,-0.025889954,-0.76417816,-0.028148843,-2.348809,-0.007981196,1.540866,0.78915554,0.04,0.039999872,-0.015683416406164774,0.05623604441134661,-0.01588543502220041,0.10798520935439763,0.07876460270156835,0.027418747158079654,0.9994344163671586,0.02479469317064314,-0.021851798793854616,0.00621043161816645
90.74999999999613,-0.026899535,-0.76339334,-0.02924056,-2.3485181,-0.00829377,1.5397009,0.78927773,0.04,0.03999987,-0.016029432215969308,0.05631158017556509,-0.01622971984405197,0.11044908768006605,0.08087636041828578,0.028120977916015387,0.9993903140758467,0.025747701462682734,-0.02267868754235445,0.006460118584452059
90.7666666666628,-0.027931679,-0.76259106,-0.030356674,-2.3482208,-0.008613328,1.5385097,0.78940266,0.04,0.039999876,-0.01627934366850159,0.05631228863107185,-0.016833683079675588,0.11291990209726534,0.08299548656235547,0.02883096990848147,0.9993435108597903,0.02672202264404665,-0.023523895975058776,0.0067161839160259276
90.78333333332947,-0.028986454,-0.76177114,-0.031497248,-2.3479176,-0.008939882,1.5372926,0.7895302,0.04,0.039999913,-0.017251603156420714,0.05630957440512785,-0.017402149280187906,0.11539743319546335,0.08511723653864017,0.029549193311314302,0.9992938845550067,0.027717648886743346,-0.02438774082550383,0.006978705365935763
90.79999999999613,-0.030063905,-0.76093334,-0.032662343,-2.347608,-0.009273455,1.5360494,0.7896606,0.04,0.039999913,-0.017128060307269877,0.0563202134661725,-0.01769457917628614,0.11788140130490019,0.08724099448234639,0.030273317466151518,0.9992413121040713,0.028734713456010627,-0.02527027158109838,0.007247744570027932
90.8166666666628,-0.03116408,-0.7600779,-0.03385201,-2.3472917,-0.009614061,1.5347797,0.78979367,0.04,0.039999913,-0.015753781131211397,0.056323329714744186,-0.018204656694709165,0.12037037710207071,0.08936667730924064,0.03100466701651496,0.9991856800169264,0.029773229943481246,-0.02617117895352909,0.007523364940453209
90.83333333332946,-0.032287013,-0.75920504,-0.035066288,-2.3469684,-0.009961707,1.5334837,0.7899295,0.04,0.039999925,-0.01540488729918632,0.0562675670877158,-0.018612839352383226,0.1228642016596442,0.09149341624079169,0.03174266196639727,0.9991268711641578,0.03083322584275278,-0.027090212968202715,0.00780563022362104
90.84999999999613,-0.033432737,-0.7583143,-0.03630522,-2.3466387,-0.0103164045,1.5321614,0.79006815,0.04,0.039999925,-0.01676271478483482,0.056176206799643524,-0.0192381980687939,0.12536161740328983,0.09362691617833634,0.03248914375338387,0.9990647421775549,0.03191475693022015,-0.028027957407946343,0.008094617428819369
90.8666666666628,-0.034601282,-0.757406,-0.03756882,-2.3463025,-0.010678162,1.5308127,0.79020953,0.04,0.039999932,-0.016344490452468996,0.05607681637324197,-0.019697091145332024,0.12786181620242482,0.09575818290364703,0.0332417401792023,0.9989991720673663,0.033017809839518485,-0.02898413139713298,0.00839038552581797
90.88333333332946,-0.035792667,-0.75647986,-0.03885712,-2.3459594,-0.01104698,1.5294378,0.79035366,0.04,0.039999936,-0.015820347571970927,0.05600487612700683,-0.019914403573983996,0.13036462305312704,0.09789045494015504,0.034001559361123215,0.9989300307503692,0.034142406730342995,-0.029958662292415162,0.008693001862156935
90.89999999999613,-0.03700689,-0.75553626,-0.04017012,-2.3456097,-0.011422863,1.5280364,0.7905006,0.04,0.039999936,-0.015828722889610347,0.05579560503917308,-0.02080497564427297,0.13286895109477612,0.10002378935027807,0.03476710291062828,0.9988571840334274,0.03528856449609147,-0.030951536919004256,0.009002526476961013
90.91666666666279,-0.03824397,-0.7545748,-0.04150782,-2.3452532,-0.011805818,1.5266088,0.7906503,0.04,0.039999958,-0.016159064014464875,0.055692805162611825,-0.020812465134101288,0.1353741804987953,0.10215794043669696,0.03554178907095172,0.9987804941248157,0.03645629862681745,-0.031962771110705404,0.0093190186793469
90.93333333332946,-0.039503902,-0.7535957,-0.04287024,-2.344891,-0.012195842,1.5251546,0.7908027,0.04,0.039999966,-0.017539732771987282,0.055382057267246154,-0.022404164944855864,0.13787967653536645,0.10429114837606394,0.036326457970233206,0.9986998041711364,0.03764552506642866,-0.03299297480319962,0.009642572511634901
90.94999999999612,-0.040786672,-0.7525988,-0.044257354,-2.3445227,-0.012592929,1.5236737,0.79095787,0.04,0.039999977,-0.016972638916112892,0.055200908093946954,-0.022560226149015428,0.14038534485704895,0.10641749935333036,0.03711733183850155,0.9986149740638112,0.03885626403264482,-0.03404201409967187,0.009973244055814318
90.96666666666279,-0.042092253,-0.75158423,-0.04566915,-2.3441472,-0.012997072,1.5221679,0.7911159,0.04,0.03999998,-0.01472650263814046,0.05514252690140414,-0.02121948372273419,0.1428891784138441,0.10853876383540856,0.03790406149075297,0.9985259086962872,0.04008856732648945,-0.03510838580918418,0.010311046398737206
90.98333333332945,-0.043420658,-0.7505519,-0.04710561,-2.343765,-0.013408275,1.5206355,0.7912766,0.04,0.039999984,-0.01605010774805571,0.054793144260510684,-0.023410947548940797,0.14539147673576733,0.11066507977545043,0.03870469194928054,0.9984324240850826,0.04134232659638219,-0.036193293405209694,0.010656081815949394
90.99999999999612,-0.044771843,-0.74950176,-0.048566706,-2.3433762,-0.013826523,1.5190763,0.79144007,0.04,0.039999984,-0.016008872097561522,0.05448992748352394,-0.023944166936784583,0.1478914024438031,0.11278701928799952,0.03951552115594838,0.9983343693059493,0.0426175609381319,-0.03729672080533012,0.011008414025024003
91.01666666666279,-0.046145782,-0.7484342,-0.05005242,-2.3429809,-0.014251803,1.5174913,0.7916063,0.04,0.039999988,-0.015818788445942644,0.05424285543702695,-0.024126848055416872,0.15038846511700468,0.11490118959187903,0.04033051345745832,0.9982316112783048,0.04391421318648727,-0.03841820382303505,0.011368101861916256
91.03333333332945,-0.04754241,-0.7473487,-0.051562678,-2.3425791,-0.014684084,1.51588,0.79177535,0.04,0.039999977,-0.016351774078771086,0.05382677305961203,-0.024809235885858705,0.15288244456168376,0.11701223507503168,0.04116334448905653,0.998123980108275,0.04523224687809015,-0.039558171471434506,0.011735213888630143
91.04999999999612,-0.04896171,-0.7462457,-0.053097446,-2.3421707,-0.015123372,1.5142423,0.791947,0.04,0.039999977,-0.015588900621565926,0.05355444203500592,-0.02540516825431105,0.1553706543067184,0.11911579831794968,0.041989300817894856,0.9980113346777816,0.04657154096200661,-0.04071633668023057,0.012109804062799562
91.06666666666278,-0.05040363,-0.74512523,-0.05465667,-2.3417559,-0.015569654,1.5125786,0.7921214,0.04,0.039999977,-0.01564714523749622,0.05319630250607277,-0.025901675710859884,0.15785469915437672,0.12121266364328362,0.0428238828233439,0.9978935219855612,0.047932100461218846,-0.04189253240908673,0.012491927512664938
91.08333333332945,-0.051868092,-0.74398726,-0.056240294,-2.3413343,-0.01602291,1.5108889,0.7922985,0.04,0.039999977,-0.015336191698978041,0.052825343603402075,-0.026277034169774893,0.1603329787931619,0.12330329834119147,0.043664694862410036,0.9977703880521419,0.04931383207914866,-0.04308667941921766,0.012881643861457086
91.09999999999611,-0.05335506,-0.74283165,-0.05784824,-2.3409061,-0.016483134,1.5091734,0.7924784,0.04,0.03999998,-0.01538427650751295,0.05245759214429213,-0.026689207518826308,0.16280503469430335,0.12538767067068812,0.044509767382302196,0.9976417697508698,0.050716737753611886,-0.04429875877137546,0.013278995869387767
91.11666666666278,-0.05486445,-0.7416587,-0.059480444,-2.3404715,-0.016950289,1.507432,0.792661,0.04,0.039999977,-0.01539686918941019,0.05197763595994609,-0.02753092128751078,0.16526989587047627,0.12746442423146823,0.04536452241975402,0.9975075082639498,0.05214070602360973,-0.045528719240523104,0.013684058488732413
91.13333333332945,-0.056396186,-0.7404683,-0.061136827,-2.3400311,-0.017424338,1.5056648,0.7928462,0.04,0.039999977,-0.016543768788102042,0.051446808749733286,-0.02833987602850474,0.167727692909975,0.129532134038503,0.04622969342171768,0.9973674296294222,0.05358555923087209,-0.0467768649662932,0.014096916692647007
91.14999999999611,-0.0579502,-0.7392608,-0.06281728,-2.3395839,-0.017905274,1.503872,0.79303414,0.04,0.03999998,-0.014245738756035742,0.051123574169431585,-0.028343963047827714,0.1701776942098079,0.13158693284675665,0.04709694429332288,0.9972213995412249,0.0550513197049897,-0.048042402668589945,0.014517576988219736
91.16666666666278,-0.0595264,-0.73803604,-0.06452176,-2.3391304,-0.018393066,1.5020536,0.7932248,0.04,0.03999998,-0.015419544585371092,0.05058686712237637,-0.029254030579961565,0.17261839707341,0.1336356196492177,0.047969928423901825,0.9970692327471513,0.056537898997476604,-0.04932569596217571,0.014946130061161007
91.18333333332944,-0.061124686,-0.7367941,-0.06625012,-2.3386705,-0.018887691,1.5002098,0.79341817,0.04,0.03999998,-0.01484149665305079,0.0500789655719841,-0.029552470473759307,0.175049566878031,0.13567346436022137,0.04884703662595394,0.996910776832643,0.05804516022889671,-0.05062645423015409,0.015382605144126331
91.19999999999611,-0.06274499,-0.7355352,-0.06800228,-2.3382041,-0.019389126,1.4983405,0.7936142,0.04,0.039999984,-0.014610350317778575,0.04958121546150551,-0.030321374715036598,0.17747124366040495,0.13770029843787995,0.04973177687314797,0.996745863081626,0.059573018738099205,-0.051944623776542104,0.015827063176975683
91.21666666666277,-0.06438719,-0.7342591,-0.06977813,-2.3377314,-0.01989733,1.496446,0.7938129,0.04,0.039999977,-0.014649293492663418,0.04903785101064706,-0.030528375406624342,0.17988184615613564,0.1397147245128733,0.05062213283515786,0.9965743278268137,0.06112133137556949,-0.053280090652839916,0.016279554890650964
91.23333333332944,-0.06605118,-0.73296607,-0.07157756,-2.3372526,-0.020412263,1.4945264,0.79401416,0.04,0.039999984,-0.015158103455426009,0.04841025648634756,-0.03144742875265116,0.1822817803592318,0.14171882731897661,0.05152082181120305,0.996395991015653,0.06268998368222899,-0.05463297779354398,0.016740154457664407
91.2499999999961,-0.06773682,-0.7316562,-0.07340043,-2.3367672,-0.020933894,1.4925816,0.79421806,0.04,0.039999984,-0.01372721949630673,0.04787128369075355,-0.03174598565665043,0.1846697815241589,0.14370807006409456,0.052422316480640135,0.9962107047386802,0.0642788515150185,-0.05600281437615369,0.01720888706227527
91.26666666666277,-0.06944406,-0.7303296,-0.07524661,-2.3362753,-0.021462187,1.4906123,0.7944246,0.04,0.03999998,-0.013834884244223744,0.047339443121369174,-0.032027083720675975,0.18704611356663053,0.14568585396817912,0.053330535809424776,0.9960183060383686,0.06588784035456373,-0.05738936561087946,0.01768579216916832
91.28333333332944,-0.07117274,-0.7289862,-0.07711599,-2.335777,-0.021997118,1.488618,0.7946337,0.04,0.03999998,-0.013839815544591794,0.04667590254058829,-0.0328786979358231,0.18940904083131166,0.14765151728379686,0.05424247426955732,0.9958186131993558,0.06751677915098936,-0.0587927828840395,0.018170933370041824
91.2999999999961,-0.07292271,-0.72762626,-0.07900842,-2.3352735,-0.022538647,1.4865993,0.7948454,0.04,0.03999998,-0.015379472455756549,0.0458603662608803,-0.03379290633720444,0.19175864755245642,0.14960385440869273,0.05516051643066046,0.9956114342455024,0.06916553207306926,-0.060213306015515014,0.018664376532444692
91.31666666666277,-0.074693866,-0.72625005,-0.080923796,-2.334764,-0.0230867,1.4845562,0.7950596,0.04,0.039999977,-0.013814962929226127,0.04532671240759789,-0.03415835354330099,0.19409508731008937,0.15153686783570225,0.056087231403759694,0.9953966239762552,0.0708339376491359,-0.061650399163697994,0.019166182111957725
91.33333333332943,-0.076486096,-0.72485745,-0.082861915,-2.3342478,-0.023641266,1.4824889,0.79527634,0.04,0.03999998,-0.012646627365930918,0.04477546741429583,-0.03411303242144559,0.19641660618622542,0.15345508624017698,0.057015142625157444,0.9951740320727871,0.07252186417509056,-0.06310361921269185,0.01967633977193575
91.3499999999961,-0.0782992,-0.72344863,-0.08482266,-2.3337262,-0.024202289,1.4803972,0.7954956,0.04,0.039999984,-0.014309510053278629,0.043835534265157516,-0.03548090563654238,0.1987233277391174,0.15536086937233942,0.05794777494600281,0.994943445750905,0.07422915028883369,-0.06457350043319526,0.02019495101548941
91.36666666666277,-0.08013306,-0.72202367,-0.08680587,-2.333198,-0.024769729,1.4782817,0.79571754,0.04,0.039999973,-0.012511381022006773,0.043339207292236726,-0.03521600322053953,0.20101469932953808,0.15724691748625402,0.05888658228092858,0.9947047309077371,0.07595570531559909,-0.06605927152332729,0.020722012102673538
91.38333333332943,-0.08198753,-0.72058266,-0.08881135,-2.3326645,-0.025343558,1.4761424,0.7959418,0.04,0.039999984,-0.013814300075254415,0.04243246851852178,-0.036337938740826914,0.2032893195041719,0.15911920748150868,0.059827587785526486,0.9944576929136,0.07770122729459715,-0.06756131480250113,0.021257587446148685
91.3999999999961,-0.08386245,-0.71912587,-0.09083895,-2.332125,-0.025923684,1.4739796,0.79616857,0.04,0.03999998,-0.012614328789117835,0.0417594256344217,-0.03648686137884827,0.2055483884561461,0.16097007835923335,0.06077793959597966,0.9942021863671765,0.07946559436805571,-0.06907906367045727,0.021801717750453788
91.41666666666276,-0.08575767,-0.7176532,-0.092888504,-2.331579,-0.026510064,1.4717934,0.7963978,0.04,0.03999998,-0.01178991438217647,0.04112462495964586,-0.03667282807848782,0.20779035404686017,0.16280474171026454,0.06173096161543333,0.9939380483621562,0.08124869158035943,-0.0706122198594705,0.02235443000896024
91.43333333332943,-0.08767299,-0.71616507,-0.094959825,-2.3310275,-0.027102662,1.4695839,0.7966295,0.04,0.039999973,-0.012822583269778143,0.040103428364185456,-0.03789322678617868,0.21001441746724145,0.16462444836738846,0.06268820386718249,0.9936650861068973,0.08305026723859955,-0.07216104674636038,0.022915782688774713
91.4499999999961,-0.089608274,-0.7146613,-0.0970527,-2.3304708,-0.02770144,1.4673511,0.79686344,0.04,0.03999998,-0.013189407522551377,0.03927325703555473,-0.03841340726227216,0.2122201243026748,0.1664241902498294,0.06364688521351246,0.993383119551411,0.08487005422735099,-0.07372562750480532,0.02348581560807079
91.46666666666276,-0.091563314,-0.7131423,-0.099166974,-2.3299081,-0.028306345,1.4650961,0.7970998,0.04,0.039999984,-0.011338331784060962,0.03871614503779541,-0.037921362955573024,0.21440845738429104,0.1681995830629474,0.06460983441064434,0.993092041456429,0.08670798337660937,-0.0753048631187565,0.024064505092127972
91.48333333332943,-0.09353795,-0.711608,-0.10130247,-2.3293395,-0.02891729,1.4628184,0.7973387,0.04,0.039999977,-0.011344857966255617,0.037804082047887544,-0.03891207269162145,0.21657769291701204,0.16995970943176944,0.06558015167307762,0.9927916495680952,0.08856390047988301,-0.0768990145229429,0.02465192984433774
91.49999999999609,-0.09553202,-0.71005875,-0.10345897,-2.3287652,-0.029534234,1.4605182,0.79757994,0.04,0.039999977,-0.011214939691517323,0.03696063189451704,-0.03943652419204913,0.2187261840975156,0.17170215576639264,0.06655237911693325,0.9924817910492312,0.09043752834571997,-0.07850783664246506,0.025248118507074646
91.51666666666276,-0.0975453,-0.7084943,-0.10563627,-2.3281865,-0.030157115,1.4581958,0.79782337,0.04,0.039999977,-0.013586583442304345,0.03575611546381974,-0.04048934042923946,0.22085493715820023,0.17342400025560084,0.06752780452198802,0.9921622379754643,0.09232854600199428,-0.08013206184431591,0.025853158283942895
91.53333333332942,-0.099577636,-0.7069154,-0.107834175,-2.3276017,-0.030785887,1.4558517,0.7980692,0.04,0.03999998,-0.009561721319717442,0.0353709287345072,-0.03988515210886501,0.22296457721464658,0.17511747817009102,0.06850559545618282,0.9918329294857791,0.09423691837313691,-0.08177005651574203,0.026466980572117008
91.54999999999609,-0.10162879,-0.7053216,-0.11005247,-2.3270109,-0.031420477,1.4534856,0.7983175,0.04,0.039999977,-0.010239511254894751,0.03434636226169463,-0.04050263337098681,0.2250520892249585,0.1767949092715517,0.06948721239969108,0.9914936550141346,0.09616246897394085,-0.0834222004025185,0.027089630996935392
91.56666666666275,-0.10369858,-0.70371366,-0.11229092,-2.326415,-0.03206082,1.4510983,0.7985678,0.04,0.03999998,-0.010781140621252128,0.033308370493806416,-0.04126987878099175,0.22711772875297795,0.17845225990347963,0.0704735226597546,0.9911442858904896,0.09810470303114106,-0.08508823945062839,0.02772117055601015
91.58333333332942,-0.10578679,-0.70209104,-0.114549294,-2.325814,-0.03270687,1.4486898,0.79882044,0.04,0.03999998,-0.010775278833996538,0.03241843927483945,-0.04137998984785618,0.22916261789182485,0.18008721230076818,0.07146003221941127,0.9907846203703596,0.10006360577977312,-0.0867682613480483,0.02836158772969999
91.59999999999609,-0.10789324,-0.70045424,-0.11682739,-2.3252075,-0.033358548,1.4462599,0.7990751,0.04,0.039999988,-0.009797688252710657,0.031501502256425784,-0.04214623325238254,0.23118483669811682,0.1816981193692723,0.07245123142011173,0.9904145222872255,0.10203880000560071,-0.08846198318909751,0.029010943904597162
91.61666666666275,-0.1100177,-0.6988033,-0.119125,-2.3245957,-0.034015786,1.4438096,0.799332,0.04,0.03999998,-0.00975811268568716,0.03067623556589072,-0.0418369506038907,0.2331848205255518,0.1832850079668188,0.07344286175872067,0.990033857866225,0.10403015591864621,-0.09016886528454561,0.02966922094290796
91.63333333332942,-0.11215995,-0.69713867,-0.12144186,-2.323979,-0.034678534,1.4413389,0.7995911,0.04,0.039999988,-0.0095859375941032,0.02956470758248564,-0.04279151870185682,0.2351617245452255,0.18485063985564967,0.07443800799178198,0.9896424589292516,0.10603741826591709,-0.09188889728812444,0.030336446185010815
91.64999999999608,-0.1143198,-0.69546074,-0.12377778,-2.3233569,-0.035346705,1.4388478,0.7998524,0.04,0.039999984,-0.008606056172899557,0.028679027751910002,-0.04321674400082909,0.23711470758149455,0.18639343763774333,0.07543474481173194,0.9892401942662846,0.10806035314734695,-0.09362165129056464,0.031012651213692212
91.66666666666275,-0.116496995,-0.6937693,-0.12613243,-2.32273,-0.036020227,1.4363368,0.80011576,0.04,0.03999997,-0.009364338750628143,0.02753973085573569,-0.0433829482208159,0.23904429856905277,0.18791172577667664,0.07643547777598352,0.9888268933836312,0.11009867543124659,-0.09536720567374887,0.03169783386199912
91.68333333332941,-0.118691325,-0.6920644,-0.12850562,-2.3220985,-0.03669904,1.4338062,0.8003811,0.04,0.039999977,-0.009029469880794672,0.026656011292058857,-0.04359043886248415,0.24094891045126635,0.18940700427176255,0.07743579957074913,0.9884024220346828,0.11215208256041441,-0.09712527927097293,0.03239201475472311
91.69999999999608,-0.12090257,-0.69034654,-0.13089712,-2.3214617,-0.037383076,1.4312558,0.8006485,0.04,0.039999973,-0.007731994548421106,0.025715146333515904,-0.04411803372907919,0.24282923331402445,0.19087532217073377,0.0784382919907682,0.9879666450319808,0.11422037743960661,-0.09889550496070565,0.03309520781582956
91.71666666666275,-0.123130426,-0.6886156,-0.13330665,-2.3208203,-0.03807226,1.428686,0.80091786,0.04,0.039999977,-0.008684304971140477,0.02446310780825911,-0.04455471504618558,0.244684262387595,0.19232015377870612,0.07944066668557194,0.987519392026902,0.11630321834118718,-0.10067804672069458,0.033807435318368995
91.73333333332941,-0.12537473,-0.686872,-0.13573393,-2.3201745,-0.03876651,1.4260974,0.8011891,0.04,0.03999997,-0.008045131220013602,0.023540204293948097,-0.044644472135746405,0.24651459721325814,0.19373621736917016,0.08044461657389804,0.987060553575019,0.11840035368677784,-0.10247238648912496,0.03452868127001442
91.74999999999608,-0.12763521,-0.685116,-0.13817877,-2.3195236,-0.03946579,1.4234903,0.8014625,0.04,0.039999977,-0.006783978491564646,0.022708027087503524,-0.04461134002449185,0.24831909450505543,0.1951271631805681,0.08144733639172905,0.9865900207003537,0.12051163659508979,-0.10427792490757903,0.03525891201693451
91.76666666666274,-0.12991166,-0.6833474,-0.14064088,-2.3188682,-0.04016996,1.4208648,0.8017377,0.04,0.039999966,-0.0075226696979679986,0.021551645938366892,-0.045037528085334344,0.2500968456360193,0.1964936522300162,0.08245310346345888,0.9861076213972593,0.12263672467070896,-0.10609487665687531,0.03599819344693161
91.78333333332941,-0.1322038,-0.6815668,-0.14311992,-2.3182085,-0.040878974,1.4182211,0.802015,0.04,0.039999966,-0.0071249859884048306,0.02026067835383394,-0.045611081443142076,0.25184762526985005,0.19783208009862058,0.0834586696318506,0.9856132288405947,0.12477534311541429,-0.10792299503272357,0.03674648320608418
91.79999999999607,-0.13451143,-0.6797742,-0.14561571,-2.3175442,-0.04159277,1.4155599,0.8022941,0.04,0.03999997,-0.006371773625324373,0.01956090202969718,-0.04534324567877501,0.253571224044275,0.19914419168750086,0.08446303540776172,0.9851067577461835,0.1269271891609682,-0.10976169958140891,0.03750378380241507
91.81666666666274,-0.13683417,-0.67796993,-0.14812797,-2.316875,-0.042311247,1.4128814,0.802575,0.04,0.03999997,-0.005244880660582041,0.018494206961672255,-0.04522550196219832,0.2552673529545617,0.20043030470138334,0.08546752603309475,0.9845881160883219,0.1290919812060014,-0.11161050639616653,0.03827005236408633
91.8333333333294,-0.13917184,-0.6761539,-0.15065637,-2.316202,-0.04303435,1.4101853,0.8028577,0.04,0.039999966,-0.006922006157861205,0.01701114916075608,-0.04634009324047117,0.2569352585835016,0.2016936103467584,0.08647231973118144,0.9840570899853951,0.1312693663527704,-0.11347007506986218,0.03904534761604753
91.84999999999607,-0.14152418,-0.6743266,-0.15320066,-2.3155246,-0.043761995,1.4074725,0.80314225,0.04,0.03999997,-0.005417153749576187,0.01620289579626899,-0.046020202996177595,0.25857618432077994,0.20292344357350478,0.08747522052606924,0.9835136253405217,0.13345914161690967,-0.11533953604275718,0.03982960850753106
91.86666666666274,-0.14389096,-0.67248803,-0.1557605,-2.3148434,-0.0444941,1.404743,0.8034285,0.04,0.039999973,-0.005939599337767554,0.014940054352702292,-0.04642337251994366,0.2601877040232406,0.20412752914582877,0.08847801877281603,0.9829575793058046,0.13566091382264334,-0.11721901581422842,0.04062285166777081
91.8833333333294,-0.14627185,-0.6706383,-0.15833573,-2.3141575,-0.04523056,1.4019973,0.80371636,0.04,0.03999997,-0.004117202083064875,0.014275970475613464,-0.045730121956988334,0.26177156271428204,0.20530108373186468,0.08947902457582445,0.982388909205215,0.13787446016273774,-0.1191076442259068,0.041425033402232754
91.89999999999607,-0.14866662,-0.66877794,-0.16092591,-2.313468,-0.045971308,1.3992357,0.804006,0.04,0.03999997,-0.005213464291875525,0.01265275951626843,-0.0466785611080045,0.26332580599870253,0.20644792257555006,0.09047849486495667,0.981807459208281,0.14009942575383877,-0.12100567038076503,0.042236141894424914
91.91666666666273,-0.15107498,-0.666907,-0.1635309,-2.3127744,-0.046716247,1.3964581,0.80429727,0.04,0.03999996,-0.004194915776545294,0.011799725525524218,-0.04670075978330246,0.26485109551206243,0.20756527595586233,0.09147596024309215,0.9812131310648182,0.14233555612595486,-0.12291274956675156,0.04305620608265621
91.9333333333294,-0.15349668,-0.66502583,-0.16615026,-2.3120775,-0.04746532,1.3936653,0.80459017,0.04,0.039999973,-0.004670023449748761,0.010464702694790162,-0.04681549589591327,0.26634529468822893,0.20865323862937543,0.09246930630884163,0.9806058335839857,0.1445824711090007,-0.1248286892137023,0.04388515168323396
91.94999999999607,-0.15593147,-0.66313446,-0.16878377,-2.311376,-0.048218407,1.3908575,0.80488455,0.04,0.03999996,-0.002599195925490072,0.009828187873839322,-0.04617630789678362,0.267810615027643,0.20971006239877976,0.09346168698104958,0.9799855369306306,0.14683990760526772,-0.12675270407432476,0.04472293540351034
91.96666666666273,-0.15837903,-0.66123325,-0.17143114,-2.310672,-0.04897545,1.3880348,0.8051805,0.04,0.03999997,-0.004882334784861442,0.008079144849776343,-0.047329897011416655,0.2692453027137176,0.21074066234656105,0.09445190699408897,0.9793520489073594,0.14910748968371007,-0.1286853921304835,0.04556962445975563
91.9833333333294,-0.16083905,-0.6593222,-0.17409196,-2.3099637,-0.049736355,1.3851981,0.80547804,0.04,0.03999997,-0.002082688081195272,0.007504521434975597,-0.045923016248927695,0.27064996166744293,0.21173606515008897,0.09543706377658165,0.9787054058269516,0.15138498910467088,-0.13062554099130705,0.04642501178900202
91.99999999999606,-0.16331133,-0.65740174,-0.17676608,-2.3092523,-0.050501026,1.3823475,0.8057769,0.04,0.03999996,-0.003253232699829134,0.006184534177827716,-0.0468499969007663,0.27202334379166426,0.21270582885704337,0.09642086171912911,0.9780454696702728,0.15367198668435025,-0.1325734103427436,0.04728922325472092
92.01666666666273,-0.16579549,-0.65547216,-0.17945305,-2.3085368,-0.051269382,1.3794829,0.80607724,0.04,0.039999966,-0.001300124564007632,0.005092286297336823,-0.04643832935891101,0.27336525503962456,0.21364401637782,0.09739847943385517,0.9773722185379586,0.15596820722227694,-0.13452834892419824,0.04816210233977518
92.0333333333294,-0.16829126,-0.6535336,-0.18215263,-2.3078182,-0.052041315,1.376605,0.80637896,0.04,0.039999966,-0.0023436922574671115,0.0038712239934679538,-0.04655462735614346,0.27467634636496185,0.21455447074570344,0.09837519302128606,0.9766855502451205,0.15827328953697148,-0.1364903604960303,0.04904368719005141
92.04999999999606,-0.17079839,-0.6515861,-0.1848645,-2.3070967,-0.052816756,1.3737141,0.80668217,0.04,0.039999966,-0.0023589117956968053,0.0026984756478831695,-0.04670023676167645,0.2759554326567073,0.21543340889155066,0.09934566325606019,0.9759853562219823,0.16058698785870482,-0.1384594008455387,0.04993393723924557
92.06666666666273,-0.17331655,-0.6496302,-0.18758835,-2.3063712,-0.05359563,1.370811,0.80698663,0.04,0.03999997,0.00012918891276747502,0.0021254336667164697,-0.045485402577827294,0.2772019013368268,0.21627920906351955,0.10031007058469175,0.9752717400610912,0.16290892423655018,-0.1404341646918358,0.050832674822478364
92.08333333332939,-0.17584547,-0.6476659,-0.19032383,-2.3056433,-0.05437783,1.3678943,0.80729234,0.04,0.03999998,-0.0021428797474465355,-1.715481456887602e-06,-0.047544576954239304,0.27841595366348154,0.2171011655891073,0.1012722431062662,0.9745444134686139,0.16523866207294224,-0.14241606020546232,0.0517400862872623
92.09999999999606,-0.17838484,-0.64569354,-0.19307065,-2.304912,-0.055163242,1.364966,0.80759937,0.04,0.039999977,-0.00010519976869627357,-0.00032864038445601373,-0.04553843339176744,0.2795990699162497,0.217882529329562,0.1022284161599067,0.9738035074453466,0.16757601154502572,-0.14440346542338708,0.052655943781484804
92.11666666666272,-0.18093435,-0.6437133,-0.19582845,-2.3041778,-0.05595178,1.3620263,0.8079077,0.04,0.039999966,4.801701036782902e-07,-0.0015776814438872577,-0.045621483004154584,0.2807484425624396,0.21863685611501438,0.10317940064256552,0.9730489571110317,0.16992062791237528,-0.14639627709660946,0.05358019528940309
92.13333333332939,-0.18349373,-0.6417254,-0.19859691,-2.303442,-0.05674337,1.3590751,0.80821717,0.04,0.03999997,-0.002010684171760424,-0.0033960399502042105,-0.04667185918099115,0.28186405584118923,0.2193601766986337,0.10412283415569186,0.9722805974436233,0.17227200782391197,-0.14839519809714466,0.05451293733324515
92.14999999999606,-0.18606263,-0.6397302,-0.20137572,-2.3027022,-0.057537902,1.3561124,0.80852795,0.04,0.039999966,0.0023626351149497182,-0.0035619622602955925,-0.045158678338563796,0.28294749589117535,0.22004591500397797,0.1050586932819043,0.9714985524561839,0.17463004950505978,-0.15039870554831783,0.055453924611249227
92.16666666666272,-0.18864079,-0.63772774,-0.20416456,-2.30196,-0.05833529,1.3531404,0.8088397,0.04,0.039999973,0.0003270793583975973,-0.004724076798245935,-0.044379290456331155,0.28399603628822406,0.2207042615283782,0.1059889728965289,0.9707028354168964,0.1769942387893493,-0.15240648030652257,0.0564030984038487
92.18333333332939,-0.19122788,-0.63571846,-0.2069631,-2.3012154,-0.05913543,1.3501577,0.8091525,0.04,0.039999973,0.0009271661366661021,-0.00627794530071446,-0.04543789655671038,0.2850120021441109,0.22133282602700044,0.10691396243290274,0.969893315692318,0.17936425768082137,-0.15441888480697696,0.05736050258617917
92.19999999999605,-0.19382356,-0.63370246,-0.20977098,-2.300468,-0.05993825,1.3471644,0.80946624,0.04,0.039999977,0.0018943534019433272,-0.00734631976081479,-0.04509655563318393,0.2859933233959043,0.22192996583305924,0.10783051425573652,0.9690699835740584,0.18173970467549164,-0.15643567225642688,0.058326041575949346
92.21666666666272,-0.1964276,-0.6316801,-0.21258786,-2.2997181,-0.06074361,1.3441625,0.8097811,0.04,0.039999973,0.0018954338994348063,-0.008016656401610422,-0.04374748294782016,0.28694177032655466,0.2224924306927072,0.10873979171101919,0.968232928202439,0.18412038775021775,-0.1584558070980363,0.0592995510619613
92.23333333332938,-0.19903961,-0.6296514,-0.2154135,-2.2989666,-0.061551463,1.3411516,0.81009686,0.04,0.039999984,0.0011491892617510047,-0.009523411549861027,-0.04426719606756002,0.2878547583922838,0.22302588409267557,0.10964158933449064,0.9673820469728928,0.1865058483780932,-0.16047970883086918,0.060281064762186934
92.24999999999605,-0.20165928,-0.6276169,-0.21824738,-2.2982123,-0.062361673,1.3381308,0.8104136,0.04,0.039999977,0.003424549495578688,-0.010651775455772228,-0.044179621174422756,0.28873401775759966,0.22352589559775152,0.1105349763774177,0.9665173512446072,0.18889573736255716,-0.16250704555554754,0.06127046836911974
92.26666666666272,-0.20428635,-0.62557644,-0.2210893,-2.297456,-0.06317418,1.3351021,0.8107311,0.04,0.039999977,0.002329358530261949,-0.011404855278274173,-0.0431147692943501,0.2895781944765158,0.2239911902749035,0.11141856834499547,0.9656388880752115,0.19128970662948025,-0.16453730333953093,0.06226766242787594
92.28333333332938,-0.20692047,-0.62353057,-0.22393882,-2.2966971,-0.063988835,1.3320655,0.8110496,0.04,0.039999984,0.004063601955528462,-0.012385869377029568,-0.0424907169315647,0.29038831139787613,0.2244245906047669,0.11229343729371272,0.9647467255794266,0.19368749834702814,-0.1665698074313594,0.06327248786103125
92.29999999999605,-0.20956136,-0.62147963,-0.22679567,-2.295937,-0.0648056,1.3290209,0.8113688,0.04,0.039999973,0.0025530099234671866,-0.01401932690436869,-0.043293261771348845,0.2911624459073915,0.22482895934074923,0.1131608643567664,0.9638407593208276,0.19608863280345246,-0.16860508697218488,0.06428501694971632
92.31666666666271,-0.21220869,-0.6194236,-0.22965951,-2.295175,-0.065624334,1.3259689,0.811689,0.04,0.039999988,0.0038137037501995152,-0.014668250826566087,-0.04213200428337949,0.29190070132614293,0.22519883254700773,0.11401465412289598,0.9629210535401591,0.1984929202240671,-0.17064247024073378,0.06530507346425957
92.33333333332938,-0.21486206,-0.617363,-0.23253,-2.2944114,-0.06644495,1.3229102,0.81200975,0.04,0.039999984,0.0041170208914032,-0.01573349004320157,-0.04153860820310662,0.2926033889427514,0.22553467498297097,0.11486047812646738,0.9619877194653161,0.20089979440057482,-0.1726814706557851,0.06633257043023733
92.34999999999604,-0.21752118,-0.615298,-0.23540676,-2.2936456,-0.06726736,1.319845,0.81233114,0.04,0.03999998,0.005299948444315028,-0.016593419941091092,-0.040958212095532076,0.2932714583961804,0.22583850438586706,0.11569561113047712,0.9610408124975716,0.20330900423923123,-0.17472162248545017,0.06736735222132131
92.36666666666271,-0.22018583,-0.6132286,-0.23828942,-2.2928784,-0.06809142,1.3167729,0.8126533,0.04,0.03999998,0.00448712620539915,-0.017998052931611497,-0.04119573344781857,0.2939039407545579,0.22611276282273793,0.11652157894683535,0.9600802269405665,0.20572026398135235,-0.17676334440183764,0.0684094357605032
92.38333333332938,-0.22285557,-0.6111554,-0.24117762,-2.29211,-0.06891708,1.3136958,0.81297594,0.04,0.03999998,0.0048633854969226675,-0.018780340563884224,-0.039823315744436094,0.29449959810340054,0.22635099676984463,0.1173341293925615,0.9591061790252718,0.20813306156396108,-0.17880567306929948,0.06945860146728006
92.39999999999604,-0.22553015,-0.6090784,-0.24407104,-2.29134,-0.0697442,1.3106123,0.8132992,0.04,0.039999984,0.00549505596785238,-0.020048254237337026,-0.04025687013572421,0.2950604124547457,0.22656004779881672,0.11813695662735263,0.9581185761719193,0.2105471345449252,-0.1808489719439714,0.07051487414740089
92.4166666666627,-0.22820915,-0.6069979,-0.24696933,-2.2905684,-0.07057271,1.3075242,0.8136231,0.04,0.039999984,0.006623152627538431,-0.020389232687512138,-0.03839148334049414,0.29558448538936893,0.22673251054999446,0.11892484069830607,0.9571176418518558,0.21296222723236688,-0.1828920647351837,0.0715779441243866
92.43333333332937,-0.23089235,-0.60491437,-0.24987212,-2.289796,-0.07140248,1.3044316,0.8139474,0.04,0.039999984,0.005281421593261726,-0.02205084812805236,-0.03884346238188785,0.2960713595635298,0.2268756581412426,0.11970383421997427,0.956103350783399,0.21537781684001508,-0.18493529915777368,0.07264787511972008
92.44999999999604,-0.23357937,-0.60282785,-0.25277913,-2.2890224,-0.072233416,1.3013344,0.81427217,0.04,0.039999977,0.006861240215982889,-0.022584486197785303,-0.03789632673737442,0.29652368990031913,0.22698501933367107,0.12047018967222417,0.9550757994171654,0.21779367173663974,-0.18697815764765102,0.07372450394424834
92.4666666666627,-0.23626985,-0.6007387,-0.2556899,-2.2882476,-0.07306544,1.2982333,0.8145974,0.04,0.03999998,0.007090515177798906,-0.023652336670931806,-0.03716582186867878,0.2969380751284423,0.22706208111309378,0.12122232308164144,0.9540351013120274,0.22020939934551695,-0.1890202696207601,0.07480764384026206
92.48333333332937,-0.23896354,-0.59864706,-0.25860405,-2.287472,-0.073898435,1.2951286,0.8149231,0.04,0.039999984,0.006734072939673652,-0.024691437492818658,-0.03673875509483393,0.29731611634741645,0.2271080236786931,0.12196264895837441,0.9529812911880378,0.22262465310216417,-0.19106159662229416,0.07589722506693611
92.49999999999604,-0.24166003,-0.59655327,-0.2615214,-2.286696,-0.07473233,1.2920208,0.8152491,0.04,0.039999984,0.006912120801927379,-0.02558888199822862,-0.03615340472126194,0.2976564475381682,0.22712153762237286,0.12268811491275239,0.9519144777460952,0.2250390369783844,-0.19310181683695588,0.0769931635113604
92.5166666666627,-0.24435902,-0.59445757,-0.26444155,-2.2859192,-0.07556698,1.2889098,0.81557524,0.04,0.039999984,0.007674505327437409,-0.026532872106110883,-0.03564445310121345,0.2979614323881425,0.2270999263095031,0.12339943989670016,0.950834748568095,0.22745217784432906,-0.19514071777620273,0.07809537742470725
92.53333333332937,-0.24706018,-0.5923602,-0.267364,-2.2851412,-0.0764023,1.2857965,0.81590164,0.04,0.03999999,0.008763968846037251,-0.027041440645991788,-0.03415196585542235,0.29822939295734796,0.22704582781645283,0.12409569070122396,0.9497423195882595,0.22986379604223015,-0.1971774838001417,0.07920354496115191
92.54999999999603,-0.24976322,-0.5902614,-0.2702885,-2.2843633,-0.077238165,1.2826812,0.8162283,0.04,0.039999984,0.007505877756530666,-0.028392711476221688,-0.034190462247396525,0.2984603699001676,0.22696266929239986,0.1247793627731085,0.9486371737630682,0.23227352512824717,-0.19921241839365805,0.08031770936142235
92.5666666666627,-0.25246784,-0.5881614,-0.27321464,-2.283585,-0.07807451,1.2795643,0.81655514,0.04,0.039999984,0.00824987485545936,-0.029092943341213484,-0.03328859679777585,0.298654083063095,0.22684491806639062,0.125446348312368,0.947519454169252,0.2346810596297173,-0.20124510118451738,0.08143766616934274
92.58333333332936,-0.25517353,-0.58606064,-0.2761421,-2.2828069,-0.07891118,1.2764459,0.81688213,0.04,0.039999995,0.008496411891045774,-0.030230679171361352,-0.03267410871525822,0.2988098571667468,0.22669482936480673,0.12609680314785673,0.9463893039194401,0.23708592118274419,-0.2032753014144349,0.08256332865550937
92.59999999999603,-0.25788006,-0.5839591,-0.27907056,-2.282028,-0.0797481,1.2733262,0.81720924,0.04,0.039999995,0.009632397797987302,-0.0305535314377825,-0.0316616548201365,0.2989296592752577,0.22651023303591616,0.1267314162435385,0.9452468526861081,0.23948790882436263,-0.20530259865775577,0.08369451593929579
92.6166666666627,-0.2605871,-0.5818573,-0.28199944,-2.281249,-0.080585204,1.2702062,0.81753635,0.04,0.04,0.009353780290721758,-0.031641888283129305,-0.030695886031295583,0.29901156498258114,0.22629429660069078,0.12734916913051186,0.9440923193693727,0.2418865430701135,-0.2073265471913053,0.08483098266011084
92.63333333332936,-0.2632943,-0.5797554,-0.28492865,-2.28047,-0.08142235,1.2670861,0.8178635,0.04,0.03999999,0.009899931422041597,-0.03211076240965394,-0.0299929146371003,0.2990577720315042,0.22604807927228485,0.12795293884922818,0.942925797158057,0.24428163964411198,-0.20934689051036826,0.08597267600968733
92.64999999999603,-0.26600143,-0.57765365,-0.28785768,-2.2796905,-0.08225945,1.2639663,0.8181907,0.04,0.039999984,0.010303057416227723,-0.032910005856479074,-0.02909465984405335,0.2990659097305614,0.22576975198157093,0.1285395257067602,0.9417474531267875,0.24667283979486734,-0.21136332765866872,0.08711939139938393
92.66666666666269,-0.26870814,-0.57555217,-0.2907863,-2.2789114,-0.083096385,1.2608473,0.8185178,0.04,0.04,0.009936644048580412,-0.03366283383053892,-0.028350813306787792,0.2990353162353752,0.22546247221890603,0.12910890255295604,0.9405574117404537,0.24905981844237374,-0.2133756917924276,0.08827103834017933
92.68333333332936,-0.27141404,-0.5734515,-0.29371405,-2.2781327,-0.08393306,1.2577289,0.8188448,0.04,0.039999988,0.01031297838907097,-0.03486885841104126,-0.028036709424683615,0.2989679671432278,0.2251220621914331,0.12966246856177516,0.9393558088630592,0.2514421298040784,-0.21538393713933102,0.08942750883915535
92.69999999999602,-0.2741188,-0.57135177,-0.29664055,-2.2773535,-0.084769376,1.2546122,0.8191718,0.04,0.039999988,0.011753053695473525,-0.0347450313606279,-0.026046644464161606,0.29886281468708753,0.22475047437997836,0.13019686373192885,0.9381429467394784,0.2538196372855868,-0.21738707195906484,0.09058843279495384
92.71666666666269,-0.27682212,-0.56925327,-0.2995656,-2.2765753,-0.085605204,1.251497,0.81949854,0.04,0.039999988,0.010289761191506486,-0.0362244841082382,-0.02635542464538565,0.2987194227871236,0.224350131875717,0.13071551256448657,0.9369188369890465,0.2561918341454795,-0.2193856230332917,0.09175393952611491
92.73333333332936,-0.27952355,-0.5671559,-0.30248874,-2.2757976,-0.086440496,1.2483842,0.81982493,0.04,0.03999999,0.010940347031707098,-0.036534202226190526,-0.024588191331498255,0.2985383769869603,0.2239180764599102,0.13121343667959828,0.9356837583466786,0.2585583467137364,-0.22137903145618198,0.09292367912656356
92.74999999999602,-0.28222284,-0.5650604,-0.30540952,-2.2750206,-0.0872751,1.2452735,0.8201509,0.04,0.03999999,0.011476524675790856,-0.03764538712878185,-0.024427949074035116,0.29832079988286725,0.2234551628991035,0.13169432694580674,0.9344378598560658,0.26091879178618615,-0.22336721549080302,0.09409759404117399
92.76666666666269,-0.28491968,-0.5629668,-0.30832765,-2.2742438,-0.088108934,1.2421659,0.8204768,0.04,0.03999999,0.01226563191754071,-0.03753165911417611,-0.022656119191222235,0.2980666027655865,0.22296045692184968,0.13215338231502974,0.9331814081529801,0.26327313589379303,-0.22534933858754735,0.09527534304542998
92.78333333332935,-0.2876137,-0.56087554,-0.3112428,-2.2734685,-0.08894192,1.2390618,0.8208023,0.04,0.03999999,0.011070104417942872,-0.038828686042235994,-0.022396131755542115,0.29777377416243583,0.2224380453325367,0.13259526095783272,0.9319145149775134,0.26562084069086445,-0.2273256941432664,0.09645690512962954
92.79999999999602,-0.2903046,-0.5587865,-0.31415457,-2.272694,-0.08977391,1.2359614,0.82112736,0.04,0.03999999,0.011820804221063241,-0.03913736097674869,-0.02117004913281262,0.29744414070431446,0.22188355697055803,0.13301755249458044,0.9306373915498752,0.2679616453177235,-0.22929593610332846,0.0976420799366809
92.81666666666268,-0.292992,-0.55670035,-0.3170626,-2.2719204,-0.09060482,1.2328651,0.82145214,0.04,0.04,0.012791579801385566,-0.03965113454124092,-0.0201125621391407,0.2970771163049461,0.22129881052339548,0.1334193674819079,0.9293503152017446,0.2702952844502282,-0.23125951067848735,0.09883061043591151
92.83333333332935,-0.2956756,-0.55461735,-0.31996667,-2.2711484,-0.09143455,1.2297732,0.8217763,0.04,0.04,0.011868100076295462,-0.0405173427986627,-0.019761192673217742,0.29667268233362165,0.22068617619526606,0.13380251666143725,0.9280534323684883,0.2726213003789652,-0.233216526122184,0.1000225234247286
92.84999999999602,-0.29835522,-0.5525375,-0.3228662,-2.2703774,-0.092263006,1.2266858,0.82210004,0.04,0.04,0.012967882669689956,-0.04080275862583527,-0.018371729959532068,0.2962316145960429,0.22004239385255409,0.13416324941325988,0.9267469545352126,0.27493957462777574,-0.23516661794370522,0.10121746078679161
92.86666666666268,-0.30103043,-0.55046093,-0.325761,-2.2696073,-0.09309011,1.2236035,0.8224233,0.04,0.03999999,0.013093932987673362,-0.0410499671851583,-0.017205428665489908,0.2957518607428111,0.21936921134708454,0.13450364216554697,0.9254311349699406,0.27724977760846325,-0.23710944849071738,0.10241525609367542
92.88333333332935,-0.30370075,-0.54838836,-0.3286507,-2.2688391,-0.09391571,1.2205268,0.8227458,0.04,0.04,0.012573135451576789,-0.04219094707972326,-0.016628194866430412,0.29523455641124363,0.21866673050497745,0.13482294627237532,0.9241062251318196,0.279551392329559,-0.23904489143920746,0.1036158462593504
92.89999999999601,-0.306366,-0.5463197,-0.33153486,-2.2680717,-0.0947397,1.2174559,0.82306784,0.04,0.04,0.014184025905006337,-0.04198812021481979,-0.015043984441587277,0.29468166063019313,0.21793598876039832,0.13512067867748231,0.9227724842866627,0.28184438406294093,-0.2409723884865818,0.10481885995694812
92.91666666666268,-0.30902582,-0.5442552,-0.3344132,-2.267306,-0.09556201,1.2143916,0.8233891,0.04,0.04,0.012775417104005093,-0.04274435211382155,-0.014225903788667171,0.2940900580039156,0.217178263182066,0.1353986669406101,0.9214301268819178,0.28412828441537186,-0.2428919600141121,0.10602421907306415
92.93333333332934,-0.31167993,-0.54219526,-0.33728552,-2.2665424,-0.09638254,1.2113341,0.8237097,0.04,0.04,0.013259341708993233,-0.04312087542345244,-0.013518167668058467,0.2934630421531061,0.21639073517008178,0.13565447369574873,0.9200793644850723,0.2864029233362927,-0.24480333262891998,0.1072317904678712
92.94999999999601,-0.31432804,-0.54014015,-0.34015128,-2.2657807,-0.09720121,1.2082828,0.8240295,0.04,0.04,0.013669119162362797,-0.04399954094149727,-0.013016365184592704,0.29279833723126164,0.21557531868164942,0.13588761357112727,0.9187203759707968,0.2886678648325785,-0.24670668357084186,0.10844144443225785
92.96666666666268,-0.31696972,-0.53808993,-0.34301007,-2.2650201,-0.09801788,1.2052392,0.82434875,0.04,0.04,0.014579886011700793,-0.04358055017731344,-0.010657140274961119,0.2920967229413707,0.21472990560511462,0.13609654998412937,0.9173535832144604,0.2909230450462917,-0.24860102795414055,0.10965269775399145
92.98333333332934,-0.31960467,-0.5360452,-0.34586173,-2.2642615,-0.09883245,1.2022034,0.8246671,0.04,0.04,0.01420412453896347,-0.0442366786835402,-0.010281755478314114,0.29135761108953556,0.2138587809813078,0.13628643903138896,0.9159792304247494,0.2931680345251125,-0.2504862912091992,0.11086555316881165
92.999999999996,-0.32223263,-0.5340059,-0.3487058,-2.2635052,-0.099644855,1.1991756,0.82498443,0.04,0.04,0.01362366469277454,-0.04492732765705165,-0.009465467910574343,0.29058100519994023,0.2129638316406549,0.13645235534327269,0.9145974876161129,0.29540246222745453,-0.2523626877678291,0.11207985893481841
93.01666666666267,-0.3248533,-0.53197217,-0.35154203,-2.2627513,-0.10045497,1.1961573,0.825301,0.04,0.04,0.013637271721078648,-0.04459193980126397,-0.007619009586035119,0.2897697843041964,0.2120383359530873,0.13659487230026346,0.913208717996152,0.2976262919410476,-0.25422944457565055,0.11329526570869171
93.03333333332934,-0.3274662,-0.52994436,-0.35436997,-2.2619994,-0.101262696,1.1931478,0.82561654,0.04,0.04,0.014691394850463446,-0.045279113862517484,-0.006921425262629288,0.2889205643903332,0.2110881540978447,0.13671550364962504,0.9118131834336219,0.2998390429852995,-0.25608661302794444,0.11451163017868374
93.049999999996,-0.3300712,-0.5279229,-0.3571893,-2.26125,-0.102067955,1.1901472,0.82593113,0.04,0.04,0.014236723488303404,-0.04585041133674528,-0.006502649701300989,0.2880365559180128,0.21011252478347292,0.13681432139613245,0.9104110611257689,0.30204052319921443,-0.25793420426023267,0.1157288572398294
93.06666666666267,-0.33266795,-0.52590793,-0.35999975,-2.260503,-0.10287064,1.1871567,0.8262448,0.04,0.04,0.014463342711290572,-0.04552349233497566,-0.00465018893751612,0.28711521742217766,0.2091099718637612,0.13688733983811477,0.9090027483689086,0.3042305536646944,-0.25977156285795117,0.11694660664158546
93.08333333332934,-0.33525604,-0.5238996,-0.3628009,-2.2597578,-0.103670664,1.1841754,0.82655734,0.04,0.04,0.01576058090995147,-0.04593700708032111,-0.003977365201790484,0.2861577636009278,0.2080827379898331,0.13693771786639725,0.9075884829670191,0.30640880050168695,-0.2615987200699467,0.11816472493306875
93.099999999996,-0.3378353,-0.52189827,-0.36559248,-2.259016,-0.10446793,1.1812053,0.82686883,0.04,0.04,0.013375656721015261,-0.04641082109704264,-0.0028521213882637397,0.28516382977306465,0.2070305292841235,0.13696482299536844,0.9061685411806051,0.3085750114626462,-0.2634154975981788,0.11938305114439704
93.11666666666267,-0.3404053,-0.5199041,-0.36837405,-2.2582767,-0.105262324,1.1782455,0.8271791,0.04,0.04,0.015200286694727616,-0.04653680620968492,-0.0017276112505570929,0.28413498781225555,0.20595310333033676,0.13696817967670027,0.9047432604313047,0.3107288280691672,-0.2652216891664579,0.12060134205963484
93.13333333332933,-0.34296572,-0.5179172,-0.37114534,-2.2575397,-0.106053755,1.1752958,0.8274882,0.04,0.04,0.015425620778120042,-0.0468829811150262,-0.0011488473230736318,0.2830707261675328,0.20485125290644773,0.13694609823030818,0.9033128025182148,0.3128700918447463,-0.2670174113545077,0.12181949133568981
93.149999999996,-0.34551638,-0.5159381,-0.373906,-2.256806,-0.10684213,1.1723573,0.8277962,0.04,0.04,0.014759734807356928,-0.04704865655309476,7.686315713906211e-05,0.2819718421786667,0.20372147225333564,0.13689920616895473,0.9018775107585334,0.3149986075091271,-0.2688022865105715,0.12303724485695772
93.16666666666266,-0.3480569,-0.51396686,-0.37665582,-2.2560744,-0.1076274,1.1694317,0.82810295,0.04,0.04,0.015463226432510524,-0.04590928766955438,0.002306360062231949,0.28083671851092373,0.20256760234605886,0.13682663406401474,0.9004379557761928,0.3171142574993723,-0.2705752003896074,0.12425416058360725
93.18333333332933,-0.3505872,-0.5120039,-0.37939438,-2.2553468,-0.10840941,1.1665184,0.82840836,0.04,0.04,0.014173504125758463,-0.04732424689504189,0.002136641575167797,0.27966629478433,0.20139517886088032,0.136734170606161,0.898994195621457,0.3192166530038248,-0.27233685448776634,0.12547032466553412
93.199999999996,-0.35310656,-0.5100492,-0.3821213,-2.2546217,-0.10918809,1.1636174,0.8287126,0.04,0.04,0.015695828829853653,-0.0470960152490596,0.003797255265025612,0.2784616424846284,0.20019785972888743,0.13661669047016967,0.897546614491828,0.32130557044118657,-0.2740868995344899,0.12668534532964712
93.21666666666266,-0.35561505,-0.50810313,-0.3848364,-2.2538998,-0.10996333,1.1607282,0.8290155,0.04,0.04,0.01537249069718527,-0.04737519699787862,0.003929765019794473,0.2772212439736681,0.19897907322145536,0.13647419938689595,0.8960953477074641,0.3233808637233026,-0.2758255282535882,0.1278992680129115
93.23333333332933,-0.3581121,-0.5061658,-0.38753918,-2.253182,-0.11073506,1.1578532,0.8293169,0.04,0.04,0.014025181016164012,-0.047406376776137904,0.006169601466710084,0.2759456750779735,0.19773508234873272,0.13630444149058074,0.8946409612003708,0.32544209072133484,-0.27755212795970474,0.12911162765003997
93.24999999999599,-0.36059758,-0.50423765,-0.3902296,-2.252467,-0.11150321,1.154991,0.82961696,0.04,0.04,0.015999939871402802,-0.04709698474154589,0.006263317100863031,0.2746380514528422,0.19646922494361652,0.13611074011905283,0.8931836100005538,0.3274893152619368,-0.2792666471776761,0.13032239634761822
93.26666666666266,-0.3630711,-0.5023186,-0.39290708,-2.2517557,-0.11226767,1.1521428,0.8299155,0.04,0.04,0.014635812848862173,-0.047556739941956305,0.007862311009743106,0.2732947202721987,0.19518169643790245,0.13589140723947363,0.8917236622468327,0.3295221053902465,-0.2809690705330358,0.13153126492236575
93.28333333332932,-0.36553264,-0.5004092,-0.39557144,-2.2510474,-0.11302834,1.1493088,0.8302127,0.04,0.04,0.016078166607691458,-0.04659990775377487,0.009016123629190798,0.2719185635177067,0.1938718473245612,0.13564671467051215,0.890261516775188,0.3315406062298971,-0.28265861990393853,0.13273794771599645
93.29999999999599,-0.36798158,-0.49850947,-0.39822236,-2.2503433,-0.11378515,1.1464894,0.8305083,0.04,0.04,0.01437965306367861,-0.04771017392187771,0.009650506157399263,0.2705066295135549,0.19254385118147624,0.13537988102234905,0.888797395648463,0.33354422618803525,-0.2843358404493748,0.1339424074036369
93.31666666666266,-0.37041777,-0.49661976,-0.40085956,-2.2496421,-0.11453799,1.1436847,0.8308024,0.04,0.04,0.016273116637210983,-0.046594582538905804,0.011174843826189385,0.26906273149889254,0.19119306972975098,0.13508503417747886,0.8873317544461685,0.3355330789500736,-0.28599989831933437,0.13514425123954993
93.33333333332932,-0.37284094,-0.49474022,-0.4034827,-2.2489455,-0.11528679,1.1408951,0.8310949,0.04,0.04,0.014321780979154042,-0.047692197515714074,0.011505780630849394,0.2675852971623392,0.18982534202989082,0.13476911616842174,0.8858647222142011,0.33750674735809344,-0.287651425400798,0.1363434886197568
93.34999999999599,-0.37525076,-0.49287102,-0.4060914,-2.248252,-0.116031446,1.1381208,0.8313858,0.04,0.04,0.016121064506324778,-0.04669771238496878,0.01325954891704395,0.26607545887511475,0.1884349812439499,0.13442566551305613,0.8843968259136007,0.3394651448522558,-0.2892896527692949,0.13753969079871428
93.36666666666265,-0.37764695,-0.49101236,-0.40868554,-2.2475624,-0.1167719,1.1353619,0.83167493,0.04,0.04,0.01501139089892245,-0.04708242594397838,0.013677547779866739,0.26453264868544213,0.18702691312132125,0.13405822191568784,0.8829282522963497,0.3414080336306831,-0.29091485373933024,0.13873285026686286
93.38333333332932,-0.38002938,-0.4891646,-0.41126466,-2.2468772,-0.11750806,1.1326194,0.8319625,0.04,0.04,0.014830935911169796,-0.04688766067906247,0.014938288837818003,0.262957850215179,0.1855984412663633,0.13366327833815173,0.8814593779135176,0.3433353468270668,-0.29252668694012296,0.1399226291036849
93.39999999999598,-0.38239762,-0.48732778,-0.4138285,-2.2461965,-0.11823982,1.1298931,0.8322484,0.04,0.04,0.014586102678082469,-0.04716439303849018,0.01576629884127989,0.2613497754254109,0.1841522855122437,0.13324468955745242,0.8799904827882801,0.3452467377169073,-0.2941253309428109,0.14110892953907875
93.41666666666265,-0.38475138,-0.48550218,-0.41637674,-2.2455204,-0.118967116,1.1271832,0.8325325,0.04,0.04,0.014681248918169132,-0.047014687791990806,0.016766758860409237,0.25971100575925093,0.18268511308574095,0.1327981585769989,0.878521906276568,0.34714204361333334,-0.29571064349018755,0.14229152144370014
93.43333333332932,-0.38709056,-0.483688,-0.41890916,-2.244847,-0.119689874,1.1244906,0.8328149,0.04,0.04,0.016568910530589953,-0.04519680931793779,0.01862261091604145,0.2580423403215964,0.18119779238029138,0.13232601536694677,0.8770542387841835,0.34902145654937383,-0.29728146730173505,0.14346990728991668
93.44999999999598,-0.38941488,-0.48188543,-0.42142552,-2.2441785,-0.120408006,1.1218152,0.8330954,0.04,0.04,0.014432442842826632,-0.04653125234431732,0.018574235031343367,0.2563402238426219,0.17969837803452032,0.13183309103128274,0.8755875397848893,0.35088453214473714,-0.2988386730969191,0.14464422814853875
93.46666666666265,-0.39172396,-0.48009476,-0.42392546,-2.2435143,-0.121121414,1.1191571,0.833374,0.04,0.04,0.015136712878116576,-0.04616499280961639,0.019796533681237793,0.25460764682024595,0.17818052854886895,0.1313129865701467,0.8741222218975736,0.3527311228678686,-0.30038195502426934,0.14581418737907342
93.48333333332931,-0.3940176,-0.4783161,-0.4264087,-2.2428546,-0.121830076,1.1165171,0.8336508,0.04,0.04,0.014685752009468978,-0.04571722824968649,0.020952878013325016,0.25284479543923877,0.17664567854455765,0.13076866819981858,0.8726586526948611,0.3545611449251378,-0.30191107462332667,0.1469794999513647
93.49999999999598,-0.39629567,-0.47654969,-0.42887503,-2.2422004,-0.12253385,1.1138952,0.8339257,0.04,0.04,0.01368207062246718,-0.046241508847422175,0.02128416676175915,0.2510511630771567,0.17509508037156707,0.13019896355994948,0.8711970070103059,0.3563743530108319,-0.30342639431388363,0.14814019956133245
93.51666666666264,-0.3985577,-0.47479564,-0.43132415,-2.2415497,-0.12323271,1.1112919,0.8341987,0.04,0.04,0.01580021431351053,-0.04454738353139032,0.02329493783440606,0.2492284259477731,0.17352554308625118,0.1296012979968211,0.8697379096691472,0.3581708270259704,-0.30492690873048306,0.14929570484091814
93.53333333332931,-0.40080354,-0.47305414,-0.43375576,-2.2409043,-0.1239265,1.1087072,0.83446974,0.04,0.04,0.013929391648925815,-0.04562398432340631,0.02342054683550643,0.24737669111844435,0.1719437322664355,0.12898439549429047,0.868281455580434,0.35995020072596406,-0.306413331401955,0.150446127340044
93.54999999999598,-0.40303287,-0.4713255,-0.43616965,-2.2402635,-0.124615215,1.1061413,0.8347387,0.04,0.04,0.014829105104663398,-0.044776932838153094,0.024565689372302302,0.24549527642198318,0.17034566842405144,0.1283390899940589,0.8668281077468101,0.3617124052071895,-0.30788518856521974,0.15159115476001073
93.56666666666264,-0.40524572,-0.4696098,-0.4385657,-2.239627,-0.12529875,1.1035949,0.83500564,0.04,0.04,0.014930401533908011,-0.04389148680316035,0.025505854062102262,0.2435863587246312,0.16873239078637964,0.12766986097194966,0.8653781837548181,0.3634576030591283,-0.3093421170774793,0.152730561649424
93.5833333333293,-0.40744162,-0.4679072,-0.44094336,-2.2389958,-0.12597704,1.1010681,0.8352705,0.04,0.04,0.013555222868366634,-0.044744982195121796,0.026363896447945123,0.24164609590486327,0.16710713933219057,0.1269775627762095,0.8639319698097359,0.36518528846980525,-0.31078459306595974,0.1538642042150175
93.59999999999597,-0.4096203,-0.46621805,-0.44330248,-2.2383697,-0.12665005,1.098561,0.8355332,0.04,0.04,0.014285718763740185,-0.044118868674591916,0.0271459010884878,0.2396788993434046,0.16546750788090575,0.12625983470899163,0.862489863936025,0.36689539400296095,-0.3122123056917616,0.1549918728245559
93.61666666666264,-0.41178173,-0.4645424,-0.44564286,-2.237748,-0.12731764,1.0960742,0.83579385,0.04,0.04,0.014835014944480918,-0.042967778776292764,0.028457481072008406,0.23768501128918512,0.16381421414877756,0.12551754408925164,0.8610522481217417,0.36858811078057735,-0.3136247551474269,0.15611323952316117
93.6333333333293,-0.41392556,-0.46288037,-0.44796416,-2.2371316,-0.12797977,1.0936075,0.83605254,0.04,0.04,0.01354351641615903,-0.043742836637783444,0.028759763990804377,0.23566386412516782,0.1621492344825797,0.12475508145810256,0.8596192670859424,0.3702631269950315,-0.31502254379345157,0.15722827145393217
93.64999999999597,-0.4160515,-0.46123227,-0.4502663,-2.236521,-0.1286364,1.0911616,0.8363091,0.04,0.04,0.013185723581399245,-0.04330181410419076,0.029627771819518145,0.23361503294530847,0.16046988885622984,0.12396574641202776,0.858191314517395,0.37192029696963796,-0.31640546359655514,0.15833680240288636
93.66666666666264,-0.41815946,-0.45959818,-0.45254886,-2.235915,-0.12928751,1.088736,0.8365631,0.04,0.04,0.014618635812468916,-0.042368605377296475,0.03066795595524363,0.23154027699926297,0.15877876750873327,0.12315248903027522,0.8567688443624831,0.37355950401560734,-0.3177731854592393,0.15943853640972952
93.6833333333293,-0.42024904,-0.45797828,-0.45481175,-2.2353141,-0.12993291,1.0863316,0.83681506,0.04,0.04,0.013610464882929385,-0.042297410994507345,0.03155451555078015,0.22944074048617816,0.15707552236988434,0.12231587142638649,0.8553520971740028,0.3751807725740695,-0.31912572979413073,0.16053331845483995
93.69999999999597,-0.42232028,-0.45637274,-0.45705473,-2.234719,-0.1305726,1.0839486,0.83706486,0.04,0.04,0.012989330195245508,-0.04203981900636755,0.03205207981716862,0.22731496493023678,0.15536175949757491,0.12145592679444966,0.8539413344198379,0.37678404465259707,-0.3204631478316843,0.1616210133191364
93.71666666666263,-0.42437288,-0.45478174,-0.4592775,-2.2341297,-0.13120654,1.0815873,0.83731234,0.04,0.04,0.012953206329746614,-0.041685949115177756,0.03295557661454618,0.22516526637259554,0.15363487433602724,0.1205738037005962,0.8525369437188819,0.3783691361261132,-0.3217853450297042,0.16270140794031598
93.7333333333293,-0.4264066,-0.4532054,-0.46147996,-2.233545,-0.13183457,1.0792477,0.8375577,0.04,0.04,0.01396235406272428,-0.04068572184806607,0.03402205047956519,0.22299042429868696,0.15189869039558004,0.11966817376353027,0.8511392903071221,0.3799361850085339,-0.32309194142756115,0.16377423851515566
93.74999999999596,-0.4284213,-0.4516439,-0.46366182,-2.2329657,-0.13245673,1.0769302,0.8378005,0.04,0.04,0.013334759832939191,-0.04046062730556077,0.03458644537338573,0.22078970349185717,0.15015364413460022,0.11874137295867686,0.8497487210324229,0.3814849556059574,-0.32438299078776994,0.16483936131174348
93.76666666666263,-0.4304167,-0.4500973,-0.46582285,-2.2323923,-0.13307296,1.0746348,0.8380412,0.04,0.04,0.012388103029992159,-0.040666213756923586,0.03516405610463069,0.21856548596084138,0.14840011324016414,0.1177915822533672,0.8483653759879285,0.3830153969255028,-0.32565886386689996,0.16589665134589085
93.7833333333293,-0.43239263,-0.44856575,-0.4679629,-2.2318254,-0.1336831,1.072362,0.8382794,0.04,0.04,0.011772525546405177,-0.04052711921064267,0.03580856533401677,0.2163195793530827,0.1466340790788548,0.11682098658615031,0.8469895939383937,0.3845272844987922,-0.3269195674742463,0.16694607404342188
93.79999999999596,-0.4343489,-0.44704962,-0.47008175,-2.2312632,-0.13428721,1.0701115,0.8385152,0.04,0.04,0.01377303094374227,-0.0389323524184193,0.036831226931621774,0.21405103734203798,0.14485876390624328,0.11582481161571515,0.845621877553841,0.3860208198329042,-0.32816439539270675,0.16798719134025805
93.81666666666263,-0.43628544,-0.44554886,-0.47217917,-2.2307062,-0.1348851,1.0678841,0.8387487,0.04,0.04,0.012911133151805032,-0.038651090151442524,0.03767449342015894,0.21175925851248523,0.14307724441886666,0.1148097883396777,0.8442624802626518,0.3874959921491864,-0.3293933913326615,0.16901986343457123
93.83333333332929,-0.43820205,-0.44406363,-0.474255,-2.2301555,-0.13547684,1.0656798,0.8389798,0.04,0.04,0.011772072641091924,-0.03887363033112656,0.03787563752223333,0.2094450418917781,0.14128980244419972,0.11377547792676834,0.8429115766411128,0.3889526168989842,-0.33060695472883694,0.1700440450493648
93.84999999999596,-0.44009846,-0.4425941,-0.47630906,-2.229611,-0.13606237,1.0634985,0.8392084,0.04,0.04,0.011784372298984103,-0.038623192273834484,0.03845706960381445,0.20710938854057345,0.13949275775051992,0.11271828485060122,0.8415694562583748,0.3903905705618754,-0.33180515206348266,0.1710596205230378
93.86666666666262,-0.44197455,-0.44114044,-0.47834116,-2.2290719,-0.13664164,1.0613408,0.8394346,0.04,0.04,0.012368597552159244,-0.037359521943058915,0.03955296519019269,0.20475339052524258,0.137687889877584,0.11163942465562905,0.840236575432829,0.39180999245173337,-0.3329874479722631,0.17206622740329938
93.88333333332929,-0.44383007,-0.43970263,-0.48035112,-2.228538,-0.13721448,1.0592068,0.8396583,0.04,0.04,0.012435934382271085,-0.03680396829807142,0.04041046668610271,0.2023790607267995,0.13587573912558368,0.11054339304668992,0.8389132553467714,0.3932108335189227,-0.33415376756316845,0.17306371667734666
93.89999999999596,-0.445665,-0.43828088,-0.48233876,-2.2280104,-0.13778093,1.0570966,0.8398796,0.04,0.04,0.011384267410363691,-0.03706264422574934,0.040432267069501204,0.19998285745510516,0.13406113799377786,0.10942895792338177,0.8375996134147178,0.394592997176906,-0.33530452915641334,0.17405208103799713
93.91666666666262,-0.4474791,-0.4368752,-0.48430386,-2.2274892,-0.13834095,1.0550104,0.84009814,0.04,0.04,0.010865189871012149,-0.03669944437555417,0.04119240744804298,0.19756735419215518,0.13223915709218562,0.1082927359383967,0.8362959841554057,0.39595630662908593,-0.33643976835718387,0.1750311754915645
93.93333333332929,-0.44927227,-0.4354859,-0.48624635,-2.2269747,-0.13889456,1.0529485,0.8403142,0.04,0.04,0.010641586218218535,-0.03634172025702709,0.04146048875729447,0.19513389027845843,0.13041107326947032,0.10713659926065167,0.8350025901878277,0.39730083809323236,-0.3375594999656365,0.17600085912569619
93.94999999999595,-0.45104435,-0.43411288,-0.4881661,-2.2264662,-0.13944158,1.0509106,0.84052783,0.04,0.04,0.01119550909778333,-0.03548281838290368,0.04228233779591806,0.1926837403908522,0.12857596435924049,0.10595986645889513,0.8337197038812542,0.3986266881768224,-0.33866360158760767,0.17696096686287158
93.96666666666262,-0.45279515,-0.43275648,-0.49006274,-2.2259629,-0.13998206,1.0488971,0.84073883,0.04,0.04,0.012019876817870312,-0.03442826224568929,0.04326040981479373,0.19021510325034616,0.12673508395109412,0.10476391450436615,0.8324478544169853,0.39993384365307105,-0.3397515705081392,0.17791110340473823
93.98333333332928,-0.45452464,-0.4314167,-0.4919364,-2.2254658,-0.14051588,1.0469085,0.8409474,0.04,0.04,0.010624319821306294,-0.03440389126525556,0.043373342775476775,0.18773087227324894,0.12489242526879415,0.10355378784753896,0.8311870957148185,0.40122236359959346,-0.34082374206158533,0.1788513452894856
93.99999999999595,-0.45623255,-0.43009362,-0.4937868,-2.224975,-0.14104305,1.0449445,0.8411532,0.04,0.04,0.010336501046892543,-0.03430951284587591,0.043816891288295245,0.18522849627322815,0.12304636676193954,0.10232621662167171,0.8299377201451341,0.4024919942328631,-0.3418803112390792,0.17978161209039267
94.01666666666262,-0.4579189,-0.42878726,-0.49561378,-2.2244906,-0.14156355,1.0430058,0.84135646,0.04,0.04,0.010263287528644582,-0.0333309558443462,0.044598569300213775,0.18271095743062443,0.12119643565205218,0.10107969708308706,0.8287000282941118,0.40374294034490127,-0.3429210315145833,0.18070159759107282
94.03333333332928,-0.45958346,-0.4274977,-0.4974173,-2.224013,-0.14207731,1.041092,0.84155697,0.04,0.04,0.00946761268802998,-0.03367546554851053,0.04463566921250606,0.1801786036461403,0.11934440419472028,0.09981840363281373,0.8274741401644392,0.40497495484364354,-0.3439463928957075,0.18161143169564592
94.04999999999595,-0.46122605,-0.4262253,-0.49919719,-2.223542,-0.14258431,1.0392034,0.841755,0.04,0.04,0.010002005425890914,-0.03280967837695492,0.04531909217547758,0.1776318467326948,0.11748739670821315,0.09853604015632823,0.8262604022945447,0.4061882118320681,-0.34495606612923524,0.18251081230811209
94.06666666666261,-0.46284676,-0.42496988,-0.50095326,-2.2230763,-0.14308448,1.03734,0.8419503,0.04,0.04,0.010712873087026509,-0.03148079858584785,0.04603282624991989,0.1750718335152398,0.11562817183827141,0.09723789494049873,0.8250591479473663,0.40738287906253606,-0.34594972720103845,0.18339950513731543
94.08333333332928,-0.46444538,-0.42373157,-0.5026854,-2.222617,-0.14357783,1.0355022,0.842143,0.04,0.04,0.009775592205918393,-0.03149280636012275,0.046323930389513546,0.1724993213286154,0.11376803217707515,0.09592852240456318,0.8238705532081912,0.4085588700506492,-0.3469276348687692,0.18427744686674924
94.09999999999594,-0.4660219,-0.4225105,-0.5043938,-2.2221634,-0.14406434,1.03369,0.84233296,0.04,0.04,0.009873419199823985,-0.030656379489657493,0.04652858560338924,0.1699109789058609,0.11190891240442918,0.09460262270693856,0.8226948666531997,0.4097163016599993,-0.347889629385872,0.18514457675634777
94.11666666666261,-0.46757612,-0.42130673,-0.50607795,-2.2217166,-0.14454395,1.0319034,0.84252024,0.04,0.04,0.009046220510677827,-0.03101364599623624,0.04706324569678788,0.16731200439066954,0.11004861576199873,0.09326488113951764,0.8215322711087307,0.41085495606584366,-0.34883612817372656,0.1860007749549131
94.13333333332928,-0.46910813,-0.42012018,-0.50773793,-2.2212768,-0.14501664,1.0301427,0.8427049,0.04,0.04,0.00844276427549584,-0.030419899874367662,0.04711917308485858,0.16470116186235806,0.10818855550329062,0.09191227932391166,0.8203828652377744,0.41197500585781704,-0.3497672212814437,0.18684603257700938
94.14999999999594,-0.47061762,-0.4189512,-0.5093736,-2.2208438,-0.1454824,1.0284077,0.84288675,0.04,0.04,0.008601034044186662,-0.030226396367749597,0.04757559594606442,0.16208268722863423,0.10632334526855905,0.09054552280342278,0.8192469911498218,0.41307626699560324,-0.350682899585993,0.18768023091125274
94.1666666666626,-0.47210455,-0.41779974,-0.51098496,-2.2204175,-0.1459412,1.0266987,0.843066,0.04,0.04,0.008514202416898264,-0.029384392979037166,0.04800165401244172,0.15945308534442257,0.1044605819791496,0.08916304060621638,0.8181248249954863,0.4141589534590267,-0.3515830928335377,0.18850321172179732
94.18333333332927,-0.47356892,-0.4166657,-0.512572,-2.2199974,-0.146393,1.0250156,0.8432424,0.04,0.04,0.00881758600075333,-0.028539380932801617,0.048269798163375066,0.15682059794598865,0.10259285019245505,0.08777018540313143,0.8170165851078106,0.41522314942221006,-0.3524677374922406,0.18931489605885204
94.19999999999594,-0.47501063,-0.4155493,-0.5141346,-2.219583,-0.14683783,1.0233586,0.8434161,0.04,0.03999999,0.009232818735149806,-0.027612262105991547,0.048784447456307056,0.15417019895206147,0.10073300581268399,0.08636094216624526,0.815922593896871,0.41626900396847155,-0.3533365444524385,0.190115026912941
94.2166666666626,-0.4764296,-0.4144505,-0.51567286,-2.219175,-0.14727564,1.0217277,0.843587,0.04,0.039999977,0.008209750287391238,-0.027655747335408876,0.04872158293027229,0.15151718135006925,0.09887300636753805,0.08494671926991271,0.8148428968614065,0.41729645904039653,-0.35418990023432523,0.19090372777621867
94.23333333332927,-0.4778259,-0.41336936,-0.51718616,-2.2187734,-0.14770639,1.0201231,0.8437553,0.04,0.039999947,0.008417273334337949,-0.027138097486123502,0.04955344283897878,0.1488540170514587,0.09701619535129535,0.08351959536920472,0.8137777924661789,0.418305596096209,-0.3550277068920719,0.19168062004914593
94.24999999999594,-0.47919938,-0.41230583,-0.5186749,-2.218379,-0.14813004,1.0185449,0.84392065,0.04,0.039999936,0.006830124036549812,-0.02745348490160726,0.0491286147575154,0.14618518418472584,0.09516210393506527,0.08208496390252455,0.8127272864440582,0.41929619150785,-0.355850494978963,0.19244606226035615
94.2666666666626,-0.4805499,-0.41126007,-0.520139,-2.2179914,-0.14854664,1.0169926,0.84408337,0.04,0.03999994,0.00769860101048625,-0.026767254705140076,0.0493982534864601,0.1435096252511401,0.09331092630830877,0.08063541388265688,0.8116915340586992,0.4202684661280758,-0.3566582349149862,0.19319982759598012
94.28333333332927,-0.48187762,-0.4102321,-0.52157813,-2.2176104,-0.14895618,1.0154669,0.8442433,0.04,0.039999936,0.007312348286481196,-0.025847892870778377,0.049959116260783754,0.14083177207402503,0.09145960353728691,0.07917611290830687,0.810670872892705,0.42122251489455137,-0.3574506314800298,0.19394167897545106
94.29999999999593,-0.4831824,-0.40922183,-0.52299273,-2.217236,-0.14935866,1.0139681,0.8444005,0.04,0.03999992,0.0069361135331291734,-0.02518289190128753,0.04998076683791486,0.13815289285755128,0.08961041166191483,0.0777106367286351,0.8096653760946009,0.4221585278201332,-0.358227740567172,0.1946716261566267
94.3166666666626,-0.48446432,-0.40822935,-0.5243825,-2.2168686,-0.14975405,1.0124952,0.84455496,0.04,0.0399999,0.006973962357004204,-0.02558008828756897,0.04975798272165988,0.13546360171845714,0.08777001702097147,0.07623463280841852,0.8086750600245873,0.42307634496610963,-0.3589900899963167,0.1953897871148431
94.33333333332926,-0.48572323,-0.40725467,-0.52574724,-2.2165077,-0.15014234,1.011048,0.8447067,0.04,0.03999989,0.007367837002303368,-0.024909980234422147,0.05018674280319879,0.13277545209561012,0.08592924369611199,0.07474863951172436,0.8077001264130494,0.4239760715875966,-0.35973763968545236,0.19609596402535315
94.34999999999593,-0.48695922,-0.40629783,-0.52708757,-2.2161531,-0.15052356,1.009628,0.8448554,0.04,0.03999987,0.006573833691603248,-0.02328231220846133,0.050414740093196464,0.13008789259430112,0.08408983972568967,0.07325554429018535,0.8067409342666244,0.42485800662702217,-0.3604696996804804,0.1967900779912225
94.3666666666626,-0.48817217,-0.40535876,-0.5284029,-2.215805,-0.15089764,1.0082346,0.84500164,0.04,0.039999858,0.0067529938221344565,-0.023616070491472296,0.05076402305549954,0.12739571244474807,0.08226158011222462,0.07175805631606037,0.8057974618638644,0.4257221509248155,-0.3611868282189559,0.19747196202710124
94.38333333332926,-0.48936218,-0.4044375,-0.52969337,-2.215463,-0.15126467,1.0068674,0.84514487,0.04,0.03999985,0.007187350567106066,-0.022831476437246145,0.05067875008896161,0.12470077787317571,0.08043978336248393,0.07025370953294359,0.8048699350394268,0.4265685088802325,-0.3618889271108568,0.19814161434660052
94.39999999999593,-0.49052912,-0.40353405,-0.530959,-2.2151277,-0.15162462,1.0055267,0.8452855,0.04,0.039999846,0.0058992329297513635,-0.023031180029509102,0.05062683512468413,0.12200903105340583,0.07862405294059462,0.06874762264821076,0.8039583039178546,0.4273971490924564,-0.3625764022009901,0.19879908218136433
94.41666666666259,-0.4916731,-0.4026483,-0.5321999,-2.2147992,-0.15197743,1.0042121,0.8454232,0.04,0.039999835,0.005990520587184633,-0.02249723676410742,0.05057686423755592,0.11931886661486803,0.07681336931182399,0.06723517818247687,0.8030626716486707,0.42820812985293505,-0.36324930725226,0.19944443765897432
94.43333333332926,-0.49279425,-0.4017803,-0.5334159,-2.2144775,-0.1523232,1.002924,0.84555835,0.04,0.03999983,0.005626858402818513,-0.022219524113931133,0.05064474074886749,0.11663395604684189,0.07500680336998339,0.06571880915112217,0.8021831152039947,0.4290015849493024,-0.3639077793211404,0.2000775298282078
94.44999999999592,-0.49389258,-0.40093014,-0.53460735,-2.2141628,-0.15266192,1.001662,0.8456906,0.04,0.039999813,0.005472309592269298,-0.021714019550822528,0.05028590471018446,0.11394592233260036,0.07321055232627398,0.06419557310146853,0.8013197040031902,0.42977760700305034,-0.36455184158709053,0.20069851840617123
94.46666666666259,-0.49496806,-0.40009767,-0.5357739,-2.2138546,-0.15299354,1.0004265,0.8458202,0.04,0.039999787,0.0057260156190563904,-0.020973028124104953,0.051022697770297665,0.1112662035165847,0.07141748329163475,0.06266932722772071,0.800472675108263,0.43053632199439457,-0.36518136412083974,0.20130708667953764
94.48333333332926,-0.49602067,-0.39928275,-0.5369158,-2.2135525,-0.15331818,0.9992172,0.84594685,0.04,0.039999783,0.005740848545943145,-0.020363359696662364,0.05073557787084182,0.10858650669490613,0.06963630420698093,0.061140103030369486,0.799642073223933,0.4312778092954201,-0.3657964726656991,0.2019033098411369
94.49999999999592,-0.49705046,-0.39848557,-0.53803307,-2.2132566,-0.15363573,0.998034,0.8460709,0.04,0.039999783,0.005750009957172786,-0.02008175797632017,0.0507647778227982,0.1059181616429359,0.06786040702322686,0.059611788076379374,0.7988279599163033,0.43200225754972305,-0.3663971760065753,0.20248715846271922
94.51666666666259,-0.49805763,-0.39770603,-0.53912574,-2.212967,-0.15394628,0.99687696,0.8461922,0.04,0.039999783,0.005513297375836501,-0.019541853327031955,0.0506200289312253,0.1032534791363911,0.06609608930785509,0.05808307970679831,0.7980304058258406,0.43270978639985724,-0.3669835392486467,0.2030585975815135
94.53333333332925,-0.49904212,-0.39694396,-0.540194,-2.2126837,-0.15424988,0.99574596,0.84631085,0.04,0.039999776,0.004995275854957626,-0.01934899954199043,0.05048378394283404,0.10059498964006626,0.06434203213694478,0.05655530337100323,0.7972493679521951,0.433400485952527,-0.36755585640394967,0.20361767236440426
94.54999999999592,-0.50000405,-0.3961994,-0.54123795,-2.2124074,-0.15454654,0.994641,0.84642667,0.04,0.03999976,0.004369890788824549,-0.019264693634235552,0.05010876199958436,0.0979440466505205,0.06259773619430556,0.05502901887329731,0.7964848773770575,0.43407434363751335,-0.36811430539640355,0.20416454752928778
94.56666666666258,-0.50094366,-0.39547223,-0.5422575,-2.212138,-0.15483625,0.9935618,0.8465398,0.04,0.039999764,0.004281129856620325,-0.019082682587401312,0.05003724115238972,0.09530225458070284,0.060862629206339225,0.053501186574120715,0.7957368882053764,0.4347315035349031,-0.3686591354201485,0.20469920970725683
94.58333333332925,-0.5018608,-0.3947624,-0.54325277,-2.2118754,-0.15511903,0.99250823,0.8466503,0.04,0.039999753,0.004130729110762843,-0.0187782324158281,0.050000957500806464,0.09266724949590405,0.05913914301232556,0.051971578433362337,0.7950054453049172,0.4353720326007436,-0.36919047334838795,0.20522165956209584
94.59999999999592,-0.5027553,-0.39406985,-0.54422396,-2.2116187,-0.15539491,0.9914804,0.846758,0.04,0.039999746,0.005089887196119136,-0.017375398206131987,0.05041617887119321,0.09004963355414551,0.0574200202467191,0.050444492811788734,0.794290850341809,0.4359961305969262,-0.3697078529596197,0.20573167628681324
94.61666666666258,-0.50362784,-0.3933944,-0.54517114,-2.2113678,-0.15566394,0.99047804,0.84686315,0.04,0.03999974,0.004684438052260376,-0.017115229358966033,0.049591865471504404,0.08743830921473501,0.05571946094018061,0.04892015434749128,0.7935928433807848,0.4366041810762157,-0.37021158160958545,0.20622941798806785
94.63333333332925,-0.5044782,-0.39273608,-0.5460946,-2.2111237,-0.15592617,0.989501,0.8469656,0.04,0.03999973,0.0038064335295739937,-0.01739587550808608,0.0493023249815705,0.08484197031708948,0.05402758901109783,0.04740356800815884,0.7929114023931935,0.4371960478010135,-0.3707020464391074,0.20671506115397328
94.64999999999591,-0.5053067,-0.39209482,-0.54699385,-2.2108855,-0.15618162,0.98854923,0.8470654,0.04,0.039999716,0.004531471130930775,-0.01663594939345092,0.04965762502400772,0.08225801628039142,0.05234786157132739,0.04588824092934613,0.7922467197421174,0.4377718929432107,-0.37117906051433314,0.20718834388659588
