rsonawane2002/My_IMU/logs_incomplete/traj_438/imu_438.csv
time,j1,j2,j3,j4,j5,j6,j7,gripper1,gripper2,imu_ax,imu_ay,imu_az,imu_gx,imu_gy,imu_gz
2067.3833333320463,0.00016700293,-0.785875,4.0107683e-05,-2.3551247,9.29385e-05,1.570997,0.786,0.04,0.04,-9.501702,-0.0017993520013988018,0.09629763,2.2222812e-07,-0.0011641273740679026,6.447945e-07
2067.399999998713,0.00016701214,-0.78576016,4.011335e-05,-2.3552213,9.296428e-05,1.5709941,0.786,0.04,0.04,-9.834494,0.0006457872223109007,0.009060126,-4.1611915e-07,-0.0022379355505108833,4.8122945e-07
2067.41666666538,0.00016706521,-0.7856542,4.010986e-05,-2.35531,9.292013e-05,1.5709913,0.786,0.04,0.04,-9.832444,0.0006450057262554765,0.007591485,-2.6963544e-06,-0.0032243637833744287,-2.60308e-06
2067.433333332047,0.00016723483,-0.7855566,4.0083178e-05,-2.355391,9.269613e-05,1.5709884,0.786,0.04,0.04,-9.830208,0.000662097183521837,0.006388573,-8.098285e-06,-0.004128045402467251,-1.1499905e-05
2067.449999998714,0.00016762549,-0.7854667,4.0013303e-05,-2.3554652,9.2134585e-05,1.5709856,0.786,0.04,0.04,-9.828561,0.0006879026768729091,0.005152467,-1.8755743e-05,-0.004951064009219408,-2.8702287e-05
2067.4666666653807,0.00016837042,-0.7853836,3.98747e-05,-2.3555326,9.1035385e-05,1.5709827,0.786,0.04,0.04,-9.826702,0.0007174959755502641,0.004133766,-3.5546054e-05,-0.005696700420230627,-5.645511e-05
2067.4833333320476,0.00016962842,-0.7853068,3.9637234e-05,-2.3555977,8.915857e-05,1.5709828,0.786,0.04,0.04,-9.824862,0.0007449720287695527,0.003223407,-5.974455e-05,-0.006367506459355354,-9.6768126e-05
2067.4999999987144,0.00017158125,-0.78523564,3.9266255e-05,-2.3556564,8.623275e-05,1.5709833,0.786,0.04,0.04,-9.823309,0.0007723403396084905,0.0024208603,-9.222479e-05,-0.006970623973757029,-0.00015145139
2067.5166666653813,0.00017443129,-0.7851691,3.872325e-05,-2.3557136,8.195386e-05,1.5709839,0.786,0.04,0.04,-9.821652,0.0007948045968078077,0.0016497488,-0.00013427642,-0.0075000072829425335,-0.00022212247
2067.533333332048,0.00017839897,-0.7851069,3.7966234e-05,-2.3557646,7.5990894e-05,1.5709847,0.786,0.04,0.04,-9.820456,0.0008068871684372425,0.0009816277,-0.00018625952,-0.007980559021234512,-0.00031019916
2067.549999998715,0.00018372084,-0.78504837,3.695007e-05,-2.3558147,6.799687e-05,1.5709857,0.786,0.04,0.039999995,-9.818539,0.000815534614957869,0.00045077782,-0.00024952952,-0.00839230790734291,-0.00041620166
2067.566666665382,0.00019064803,-0.78499305,3.562716e-05,-2.3558614,5.7585963e-05,1.5709866,0.786,0.04,0.039999995,-9.817475,0.0008047318551689386,-0.00011631311,-0.0003239665,-0.00875738263130188,-0.0005428086
2067.583333332049,0.00019944384,-0.78494024,3.3947512e-05,-2.355905,4.436279e-05,1.5709909,0.786,0.04,0.039999995,-9.815992,0.0007762855384498835,-0.00058216776,-0.00041046206,-0.009067795239388943,-0.0006902011
2067.5999999987157,0.00021038273,-0.7848894,3.1858868e-05,-2.355948,2.7906048e-05,1.5709956,0.786,0.04,0.04,-9.81443,0.0007227994501590729,-0.0010902374,-0.0005095622,-0.009308647364377975,-0.0008600029
2067.6166666653826,0.00022374811,-0.7848402,2.9307272e-05,-2.355991,7.800964e-06,1.5710003,0.786,0.04,0.04,-9.81321,0.0006404698942787945,-0.0014677292,-0.0006211777,-0.0095062255859375,-0.0010513788
2067.6333333320495,0.00023983185,-0.78479207,2.6237221e-05,-2.3560338,-1.6391872e-05,1.5710062,0.7860019,0.039999995,0.04,-9.812151,0.000534911931026727,-0.0018369018,-0.00074626185,-0.009664744138717651,-0.0012666247
2067.6499999987163,0.00025893212,-0.7847445,2.2591958e-05,-2.3560767,-4.511875e-05,1.5710146,0.7860038,0.03999999,0.039999995,-9.811026,0.00040467793587595224,-0.002214654,-0.00089338305,-0.009780976921319962,-0.0015045456
2067.666666665383,0.00028135348,-0.784697,1.8313585e-05,-2.3561196,-7.883615e-05,1.5710232,0.78600574,0.039999988,0.039999988,-9.8098135,0.0002259924658574164,-0.0026194646,-0.001054317,-0.00984670128673315,-0.0017656153
2067.68333333205,0.00030740447,-0.78464913,1.3343452e-05,-2.3561628,-0.00011800825,1.5710355,0.78600764,0.039999988,0.039999988,-9.808679,-1.5404541045427322e-05,-0.0029778066,-0.0012287484,-0.009874467737972736,-0.0020519134
2067.699999998717,0.0003373975,-0.7846002,7.6221027e-06,-2.3562062,-0.00016310348,1.5710479,0.78600955,0.039999988,0.039999988,-9.807435,-0.0002772306324914098,-0.0034015812,-0.0014168724,-0.009849179536104202,-0.002362876
2067.716666665384,0.0003716477,-0.7845502,1.0896147e-06,-2.356253,-0.00021459472,1.571064,0.78601146,0.039999984,0.039999984,-9.806274,-0.000600172788836062,-0.003746595,-0.0016193722,-0.009788142517209053,-0.0026987158
2067.7333333320507,0.00041047213,-0.7844985,-6.3143493e-06,-2.3563027,-0.00027295796,1.5710802,0.78601336,0.03999998,0.03999998,-9.805419,-0.0009832188952714205,-0.0041853124,-0.0018355427,-0.009688624180853367,-0.0030596
2067.7499999987176,0.00045418923,-0.7844448,-1.465032e-05,-2.3563535,-0.00033867083,1.5711001,0.7860153,0.039999977,0.039999977,-9.804692,-0.0014446658315137029,-0.004615187,-0.0020654418,-0.009566441178321838,-0.0034456314
2067.7666666653845,0.00050311774,-0.78438854,-2.397914e-05,-2.3564072,-0.00041221184,1.5711216,0.7860172,0.039999977,0.039999977,-9.803394,-0.001933092251420021,-0.0050868075,-0.0023096772,-0.00939516257494688,-0.003856852
2067.7833333320514,0.00055757654,-0.78432953,-3.4361296e-05,-2.3564653,-0.00049405947,1.5711454,0.7860192,0.039999973,0.039999973,-9.802507,-0.0025119034107774496,-0.005582533,-0.0025674256,-0.009195267222821712,-0.0042932807
2067.7999999987182,0.00061788346,-0.78426737,-4.5857392e-05,-2.3565242,-0.00058469054,1.5711731,0.786023,0.039999973,0.03999997,-9.801868,-0.0031804079189896584,-0.006180047,-0.0028395033,-0.00896809808909893,-0.004754006
2067.816666665385,0.00068435544,-0.78420156,-5.852769e-05,-2.35659,-0.000684582,1.571203,0.78602684,0.039999973,0.03999997,-9.80045,-0.0038912175223231316,-0.006763086,-0.0031335687,-0.008690760470926762,-0.005240658
2067.833333332052,0.0007573082,-0.78413194,-7.243229e-05,-2.3566573,-0.0007942068,1.571235,0.78603065,0.039999973,0.03999997,-9.80002,-0.004700253717601299,-0.007390333,-0.0034413233,-0.008400265127420425,-0.0057522813
2067.849999998719,0.00083705515,-0.7840581,-8.7630855e-05,-2.3567307,-0.00091403536,1.5712705,0.78603446,0.03999997,0.03999997,-9.798818,-0.005604465492069721,-0.0080859205,-0.0037621553,-0.008070804178714752,-0.006289584
2067.8666666653858,0.00092390686,-0.78397983,-0.000104182516,-2.3568106,-0.0010445324,1.5713096,0.7860383,0.039999966,0.03999996,-9.798365,-0.006611635908484459,-0.008942891,-0.004096245,-0.007717778906226158,-0.006849816
2067.8833333320526,0.0010181712,-0.7838966,-0.00012214598,-2.3568923,-0.0011861627,1.5713524,0.78604317,0.039999966,0.03999996,-9.797592,-0.007674301974475384,-0.009714135,-0.0044437665,-0.007342505268752575,-0.007435347
2067.8999999987195,0.0011201533,-0.78380823,-0.00014157922,-2.3569813,-0.001339383,1.5713985,0.7860489,0.039999966,0.03999996,-9.796396,-0.008855834603309631,-0.010649897,-0.0048087356,-0.006924362387508154,-0.008045087
2067.9166666653864,0.0012301547,-0.7837145,-0.00016253977,-2.3570774,-0.0015046459,1.5714482,0.7860546,0.039999966,0.03999996,-9.795844,-0.010142670013010502,-0.011635559,-0.00519046,-0.006487558595836163,-0.008678779
2067.9333333320533,0.0013484734,-0.783615,-0.00018508427,-2.3571758,-0.0016823984,1.5715016,0.78606033,0.039999966,0.03999996,-9.795496,-0.011565398424863815,-0.012783384,-0.0055844123,-0.006032678298652172,-0.00933618
2067.94999999872,0.001475403,-0.783509,-0.00020926876,-2.3572814,-0.001873082,1.5715588,0.78606606,0.039999966,0.03999996,-9.794115,-0.013041715137660503,-0.013858672,-0.0059910263,-0.0055367969907820225,-0.010016978
2067.966666665387,0.001611233,-0.783397,-0.00023514852,-2.3573945,-0.0020771318,1.5716201,0.78607357,0.039999966,0.03999996,-9.793524,-0.014663676731288433,-0.015124625,-0.0064095743,-0.005022937897592783,-0.010720887
2067.983333332054,0.0017562495,-0.783279,-0.00026277758,-2.3575144,-0.0022949749,1.5716856,0.7860812,0.039999966,0.03999996,-9.792964,-0.016405155882239342,-0.016436253,-0.006848422,-0.0044891852885484695,-0.011447594
2067.999999998721,0.0019107328,-0.7831536,-0.00029220968,-2.3576417,-0.0025270344,1.5717552,0.7860888,0.039999966,0.03999996,-9.792468,-0.01829894445836544,-0.017939014,-0.0072991555,-0.003929601050913334,-0.0121967625
2068.0166666653877,0.0020749595,-0.7830207,-0.00032349757,-2.3577766,-0.0027737243,1.5718296,0.78609663,0.039999966,0.03999996,-9.791676,-0.02025243639945984,-0.019411042,-0.007761629,-0.0033535724505782127,-0.012968063
2068.0333333320546,0.0022492008,-0.78288114,-0.00035669282,-2.3579192,-0.003035453,1.5719085,0.78610593,0.039999966,0.03999996,-9.791096,-0.022375499829649925,-0.02109887,-0.008236211,-0.0027578778099268675,-0.013761155
2068.0499999987214,0.0024337221,-0.7827339,-0.00039184626,-2.35807,-0.0033126206,1.5719919,0.78611547,0.039999966,0.039999966,-9.790716,-0.024678142741322517,-0.022914601,-0.008728481,-0.0021395303774625063,-0.014577448
2068.0666666653883,0.0026287858,-0.78257895,-0.00042900734,-2.3582284,-0.0036056167,1.5720799,0.786125,0.039999966,0.03999997,-9.789882,-0.02702353522181511,-0.024677753,-0.009232555,-0.0015036073746159673,-0.015413942
2068.083333332055,0.0028346484,-0.7824158,-0.0004682254,-2.358395,-0.003914829,1.5721731,0.7861354,0.039999966,0.039999973,-9.789261,-0.029553500935435295,-0.026652392,-0.009747431,-0.0008483972051180899,-0.016271032
2068.099999998722,0.0030515597,-0.78224415,-0.000509548,-2.3585696,-0.0042406293,1.5722713,0.7861468,0.039999966,0.03999998,-9.788644,-0.032238151878118515,-0.02877206,-0.010276513,-0.00017200804722961038,-0.017150145
2068.116666665389,0.0032797658,-0.78206414,-0.0005530218,-2.3587527,-0.0045833904,1.5723745,0.78615826,0.039999966,0.039999984,-9.788367,-0.03509405255317688,-0.03113237,-0.010820671,0.0005226400098763406,-0.018047402
2068.133333332056,0.003519506,-0.7818755,-0.00059869286,-2.358945,-0.0049434733,1.5724831,0.7861702,0.039999966,0.03999998,-9.787468,-0.03801530972123146,-0.033341784,-0.011374783,0.0012353683123365045,-0.018962627
2068.1499999987227,0.0037710168,-0.78167796,-0.0006466056,-2.3591468,-0.0053212275,1.572597,0.78618324,0.039999966,0.039999977,-9.786948,-0.041140031069517136,-0.03581661,-0.011940911,0.001965243835002184,-0.019896919
2068.1666666653896,0.0040345252,-0.7814714,-0.0006968041,-2.3593585,-0.0057169916,1.5727162,0.7861966,0.039999966,0.039999995,-9.786495,-0.04444234073162079,-0.03841153,-0.012521684,0.0027092210948467255,-0.020853294
2068.1833333320565,0.004310257,-0.7812555,-0.00074933056,-2.3595793,-0.0061311075,1.5728409,0.78621036,0.03999997,0.04,-9.786367,-0.04792691767215729,-0.041283548,-0.013112922,0.0034661570098251104,-0.021825626
2068.1999999987233,0.004598428,-0.78103006,-0.0008042269,-2.3598094,-0.006563895,1.5729713,0.78622514,0.039999966,0.039999995,-9.785523,-0.05148676410317421,-0.04402445,-0.0137153845,0.00423836475238204,-0.022815958
2068.21666666539,0.0048992503,-0.78079504,-0.0008615335,-2.3600497,-0.00701567,1.5731075,0.7862404,0.039999966,0.039999995,-9.784965,-0.05525274574756622,-0.04704776,-0.0143313855,0.005027290899306536,-0.023823926
2068.233333332057,0.005212932,-0.7805502,-0.0009212898,-2.3603005,-0.007486754,1.5732497,0.78625613,0.039999966,0.039999995,-9.784525,-0.05919971689581871,-0.05019016,-0.014958271,0.005829004570841789,-0.02484912
2068.249999998724,0.005539673,-0.78029543,-0.000983534,-2.360561,-0.007977443,1.5733974,0.7862728,0.039999966,0.039999995,-9.784484,-0.06336809694766998,-0.05365025,-0.015595837,0.00664292648434639,-0.025891922
2068.266666665391,0.0058796695,-0.78003037,-0.0010483034,-2.3608317,-0.008488022,1.5735515,0.78629,0.039999966,0.039999995,-9.783552,-0.0675942674279213,-0.05692686,-0.016246228,0.0074716354720294476,-0.0269503
2068.2833333320577,0.0062331087,-0.7797552,-0.0011156339,-2.3611135,-0.009018793,1.5737114,0.7863079,0.03999996,0.039999995,-9.783152,-0.07206261157989502,-0.06054443,-0.01690671,0.00831280741840601,-0.028025523
2068.2999999987246,0.006600177,-0.77946943,-0.0011855607,-2.361406,-0.009570034,1.5738776,0.7863266,0.039999954,0.039999995,-9.78313,-0.07676931470632553,-0.06441208,-0.017578522,0.009163186885416508,-0.029117106
2068.3166666653915,0.006981052,-0.7791732,-0.0012581182,-2.361709,-0.01014202,1.5740501,0.78634566,0.039999947,0.039999995,-9.782306,-0.08153334259986877,-0.068162344,-0.018262073,0.01002560742199421,-0.030223845
2068.3333333320584,0.007375906,-0.7788661,-0.0013333389,-2.3620238,-0.01073501,1.5742288,0.7863657,0.03999994,0.039999995,-9.78183,-0.08654022961854935,-0.07220564,-0.018954732,0.010900693014264107,-0.03134527
2068.3499999987253,0.007784906,-0.77854806,-0.0014112549,-2.3623488,-0.011349241,1.5744138,0.78638655,0.039999936,0.039999995,-9.781526,-0.09172963351011276,-0.076416396,-0.019659068,0.011781135573983192,-0.032480307
2068.366666665392,0.008208212,-0.77821916,-0.0014918963,-2.3626857,-0.01198493,1.5746053,0.786408,0.039999943,0.04,-9.7814,-0.09716969728469849,-0.08094638,-0.020374727,0.012675340287387371,-0.033627696
2068.383333332059,0.00864598,-0.77787894,-0.0015752934,-2.3630335,-0.012642331,1.5748036,0.78643024,0.03999994,0.04,-9.780659,-0.1026831567287445,-0.08529918,-0.021099817,0.013576638884842396,-0.03479047
2068.399999998726,0.009098359,-0.7775276,-0.0016614745,-2.3633933,-0.013321673,1.5750084,0.7864531,0.039999936,0.04,-9.78019,-0.10844850540161133,-0.09000547,-0.02183566,0.014489163644611835,-0.035966434
2068.4166666653928,0.00956549,-0.7771649,-0.0017504671,-2.3637645,-0.014023171,1.5752196,0.78647685,0.039999932,0.04,-9.779855,-0.11440838873386383,-0.09484071,-0.02258126,0.015407558530569077,-0.03715527
2068.4333333320596,0.010047518,-0.7767907,-0.0018422971,-2.3641474,-0.0147470515,1.5754379,0.7865013,0.039999936,0.04,-9.779843,-0.12064264714717865,-0.10002198,-0.0233373,0.016334224492311478,-0.03835734
2068.4499999987265,0.010544572,-0.77640486,-0.0019369905,-2.364542,-0.015493494,1.575663,0.78652656,0.039999932,0.04,-9.7790165,-0.12692031264305115,-0.10503248,-0.024102818,0.01726938970386982,-0.03957057
2068.4666666653934,0.011056778,-0.7760074,-0.002034571,-2.3649485,-0.01626269,1.5758947,0.7865525,0.039999932,0.04,-9.778612,-0.13347452878952026,-0.11038707,-0.02487877,0.018211739137768745,-0.04079551
2068.4833333320603,0.011584261,-0.77559805,-0.0021350624,-2.3653672,-0.017054811,1.5761335,0.78657925,0.039999932,0.04,-9.778184,-0.14023186266422272,-0.115889944,-0.025663717,0.019161250442266464,-0.042031813
2068.499999998727,0.012127133,-0.7751768,-0.0022384878,-2.3657978,-0.017870035,1.5763793,0.7866068,0.039999932,0.04,-9.778268,-0.14727267622947693,-0.1217655,-0.026458748,0.020115619525313377,-0.04327826
2068.516666665394,0.012685507,-0.7747436,-0.0023448663,-2.3662407,-0.01870852,1.576632,0.786635,0.039999932,0.04,-9.777364,-0.15435191988945007,-0.12743841,-0.027262833,0.021077772602438927,-0.04453528
2068.533333332061,0.01325949,-0.7742983,-0.0024542187,-2.3666966,-0.019570444,1.5768917,0.7866642,0.03999993,0.04,-9.777017,-0.16173164546489716,-0.13347162,-0.028075973,0.022042928263545036,-0.04580347
2068.549999998728,0.013849179,-0.7738409,-0.0025665646,-2.3671641,-0.02045598,1.5771583,0.786694,0.03999993,0.04,-9.777129,-0.16940632462501526,-0.13985145,-0.028899102,0.02300972491502762,-0.04708305
2068.5666666653947,0.014454671,-0.7733712,-0.0026819224,-2.3676445,-0.021365238,1.5774323,0.78672487,0.03999992,0.04,-9.77616,-0.17709921300411224,-0.14605984,-0.02973064,0.023984653875231743,-0.048371106
2068.5833333320616,0.015076051,-0.77288926,-0.0028003072,-2.3681378,-0.022298353,1.5777136,0.7867564,0.03999992,0.04,-9.775813,-0.18509379029273987,-0.15262069,-0.030572496,0.024960968643426895,-0.049667466
2068.5999999987284,0.015713403,-0.772395,-0.0029217368,-2.3686438,-0.023255449,1.5780022,0.7867886,0.03999992,0.04,-9.775434,-0.19331000745296478,-0.15936363,-0.031422418,0.025940129533410072,-0.050972532
2068.6166666653953,0.016366806,-0.77188814,-0.003046225,-2.3691618,-0.024236647,1.578298,0.7868218,0.039999913,0.04,-9.775468,-0.20183643698692322,-0.16645667,-0.03228024,0.026922190561890602,-0.05228686
2068.633333332062,0.017036334,-0.77136904,-0.0031737874,-2.369693,-0.02524206,1.578601,0.7868556,0.039999906,0.04,-9.774521,-0.2103790044784546,-0.17338595,-0.03314813,0.02790791541337967,-0.053609107
2068.649999998729,0.01772206,-0.7708373,-0.0033044354,-2.3702378,-0.026271798,1.5789115,0.78689057,0.039999902,0.04,-9.774076,-0.21922913193702698,-0.18063454,-0.034023147,0.028896179050207138,-0.054939
2068.666666665396,0.018424036,-0.77029294,-0.003438181,-2.3707943,-0.027325945,1.5792294,0.78692603,0.039999902,0.04,-9.7737465,-0.22830647230148315,-0.18810664,-0.03490864,0.029882332310080528,-0.056276202
2068.683333332063,0.019142328,-0.76973605,-0.0035750354,-2.3713639,-0.028404618,1.5795546,0.7869625,0.039999913,0.04,-9.77361,-0.23774424195289612,-0.1959264,-0.035800632,0.030873483046889305,-0.057628732
2068.6999999987297,0.01987699,-0.7691664,-0.0037150087,-2.3719468,-0.02950783,1.5798872,0.78699976,0.039999917,0.04,-9.772671,-0.2470848709344864,-0.20354982,-0.036702115,0.031865932047367096,-0.058977634
2068.7166666653966,0.020628054,-0.7685841,-0.00385811,-2.3725429,-0.030635677,1.5802271,0.78703785,0.039999913,0.04,-9.772254,-0.2568150460720062,-0.21155506,-0.0376113,0.03285541757941246,-0.060333747
2068.7333333320635,0.021395572,-0.767989,-0.004004347,-2.3731515,-0.031788222,1.5805745,0.78707683,0.039999902,0.04,-9.771739,-0.2667597532272339,-0.21973339,-0.038528375,0.03384532406926155,-0.06169659
2068.7499999987303,0.022179581,-0.76738113,-0.004153727,-2.3737736,-0.032965545,1.5809294,0.7871165,0.039999895,0.04,-9.771647,-0.2770327627658844,-0.22828539,-0.039454155,0.034835100173950195,-0.06306492
2068.766666665397,0.02298011,-0.76676023,-0.004306258,-2.374409,-0.0341677,1.5812917,0.78715724,0.03999989,0.04,-9.770675,-0.28730103373527527,-0.23665504,-0.040386714,0.03582361340522766,-0.06443844
2068.783333332064,0.023797194,-0.76612675,-0.0044619422,-2.3750577,-0.03539471,1.5816616,0.7871985,0.039999884,0.04,-9.770156,-0.29790353775024414,-0.2454055,-0.04132815,0.03680818900465965,-0.06581665
2068.799999998731,0.024630848,-0.76548034,-0.0046207868,-2.375719,-0.036646597,1.5820391,0.78724086,0.039999876,0.04,-9.770065,-0.30885177850723267,-0.25449866,-0.042275622,0.0377911739051342,-0.06719941
2068.816666665398,0.0254811,-0.7648212,-0.004782792,-2.376393,-0.0379234,1.5824242,0.7872839,0.039999887,0.04,-9.768947,-0.31977006793022156,-0.26343235,-0.043232076,0.03877447172999382,-0.06858554
2068.8333333320647,0.026347946,-0.7641491,-0.004947964,-2.377081,-0.0392251,1.5828167,0.7873279,0.039999887,0.04,-9.768236,-0.33103036880493164,-0.27270427,-0.044195298,0.03975825384259224,-0.06997472
2068.8499999987316,0.02723141,-0.76346403,-0.0051163025,-2.3777819,-0.040551748,1.5832167,0.7873727,0.039999884,0.04,-9.767698,-0.34253785014152527,-0.28217384,-0.04516601,0.04073535278439522,-0.07136998
2068.8666666653985,0.028131492,-0.7627661,-0.0052878084,-2.3784957,-0.041903354,1.5836241,0.78741837,0.039999872,0.04,-9.767474,-0.35437822341918945,-0.2920253,-0.046143852,0.041708316653966904,-0.07276848
2068.8833333320654,0.029048184,-0.76205546,-0.0054624807,-2.3792226,-0.043279905,1.5840391,0.78746486,0.03999987,0.04,-9.766247,-0.3661682903766632,-0.3016808,-0.047128864,0.04268060624599457,-0.07416798
2068.8999999987323,0.029981483,-0.76133204,-0.005640317,-2.3799624,-0.04468142,1.5844613,0.7875122,0.03999986,0.04,-9.765532,-0.3783361613750458,-0.31169385,-0.048120763,0.043648235499858856,-0.07557251
2068.916666665399,0.030931378,-0.7605956,-0.005821318,-2.380716,-0.04610786,1.5848912,0.7875604,0.039999858,0.04,-9.764726,-0.39069664478302,-0.3218819,-0.04911957,0.04461217671632767,-0.076976575
2068.933333332066,0.031897854,-0.7598463,-0.00600548,-2.3814828,-0.04755918,1.5853285,0.78760934,0.03999985,0.04,-9.764502,-0.40344491600990295,-0.33247423,-0.05012515,0.04556772857904434,-0.0783835
2068.949999998733,0.032880887,-0.7590842,-0.006192799,-2.3822625,-0.049035355,1.5857733,0.7876592,0.03999985,0.04,-9.763208,-0.4161129593849182,-0.34286535,-0.05113668,0.04651809111237526,-0.07979012
2068.9666666653998,0.033880465,-0.75830925,-0.006383271,-2.3830545,-0.050536387,1.5862257,0.78770983,0.039999846,0.04,-9.76231,-0.4291622042655945,-0.35362563,-0.052155543,0.04746490344405174,-0.08119986
2068.9833333320666,0.034896553,-0.75752145,-0.0065768915,-2.3838606,-0.0520622,1.5866855,0.78776145,0.039999835,0.04,-9.761315,-0.4424218237400055,-0.36457503,-0.053179935,0.04840945079922676,-0.08261199
2068.9999999987335,0.035929117,-0.75672114,-0.006773653,-2.3846796,-0.05361276,1.5871527,0.7878138,0.03999983,0.04,-9.76095,-0.4560471475124359,-0.37587517,-0.054211326,0.04934284836053848,-0.084022135
2069.0166666654004,0.03697813,-0.75590795,-0.0069735497,-2.385512,-0.055188008,1.5876273,0.787867,0.039999824,0.04,-9.759494,-0.46960020065307617,-0.38698688,-0.055248167,0.05027144029736519,-0.08543415
2069.0333333320673,0.03804354,-0.7550819,-0.007176571,-2.3863566,-0.056787893,1.5881093,0.787921,0.039999817,0.04,-9.758594,-0.4835246205329895,-0.39848283,-0.05629116,0.051188431680202484,-0.08684617
2069.049999998734,0.039125293,-0.7542434,-0.0073827095,-2.3872144,-0.058412343,1.588599,0.78797597,0.039999813,0.04,-9.757809,-0.4978135824203491,-0.41034555,-0.057339784,0.052103810012340546,-0.08825756
2069.066666665401,0.040223353,-0.7533919,-0.0075919563,-2.3880856,-0.06006128,1.5890963,0.7880317,0.039999813,0.04,-9.756327,-0.5120059847831726,-0.42201218,-0.058394667,0.053011566400527954,-0.08966748
2069.083333332068,0.041337673,-0.75252837,-0.007804301,-2.3889692,-0.061734606,1.5896006,0.7880882,0.03999981,0.04,-9.755234,-0.5265824794769287,-0.43407542,-0.059454456,0.05390967056155205,-0.0910764
2069.099999998735,0.04246817,-0.7516516,-0.008019735,-2.3898656,-0.06343225,1.5901122,0.7881456,0.03999981,0.04,-9.7539215,-0.541366457939148,-0.44623595,-0.060519833,0.05480292811989784,-0.092484705
2069.1166666654017,0.043614797,-0.7507628,-0.008238239,-2.3907752,-0.06515411,1.5906311,0.7882036,0.039999813,0.04,-9.753209,-0.5565524697303772,-0.4588549,-0.06159037,0.05568324029445648,-0.093893096
2069.1333333320686,0.044777483,-0.7498615,-0.008459808,-2.391698,-0.06690012,1.5911574,0.7882626,0.039999817,0.04,-9.75145,-0.5716242790222168,-0.47120324,-0.06266491,0.056556351482868195,-0.095303796
2069.1499999987354,0.045956165,-0.7489477,-0.008684428,-2.3926327,-0.06867018,1.591691,0.7883223,0.03999981,0.04,-9.750172,-0.5870203375816345,-0.48396832,-0.06374512,0.05741841718554497,-0.096706174
2069.1666666654023,0.04715077,-0.74802154,-0.008912082,-2.39358,-0.07046411,1.5922319,0.78838307,0.0399998,0.04,-9.748708,-0.6026586294174194,-0.4968957,-0.064829856,0.05827338248491287,-0.098105624
2069.183333332069,0.048361212,-0.7470833,-0.0091427555,-2.39454,-0.072281815,1.5927798,0.78844446,0.039999805,0.04,-9.7476225,-0.6186789870262146,-0.5101622,-0.06591968,0.05911991745233536,-0.09950073
2069.199999998736,0.049587414,-0.74613273,-0.009376433,-2.3955126,-0.07412317,1.5933349,0.7885067,0.03999979,0.04,-9.745704,-0.6345711350440979,-0.52325165,-0.06701371,0.05995620787143707,-0.10089514
2069.216666665403,0.05082929,-0.7451701,-0.0096131,-2.3964977,-0.075988084,1.5938972,0.7885696,0.039999783,0.04,-9.744139,-0.6508313417434692,-0.53669506,-0.068111494,0.0607820488512516,-0.10228422
2069.23333333207,0.05208676,-0.7441953,-0.009852741,-2.3974953,-0.07787638,1.5944666,0.7886333,0.039999772,0.04,-9.742538,-0.6673118472099304,-0.55030817,-0.069213055,0.0615958534181118,-0.10367043
2069.2499999987367,0.053359713,-0.74320847,-0.010095333,-2.3985052,-0.07978796,1.5950431,0.78869796,0.039999772,0.04,-9.741214,-0.6841830611228943,-0.5642767,-0.07031796,0.06239980086684227,-0.10505244
2069.2666666654036,0.05464806,-0.7422098,-0.010340862,-2.3995268,-0.081722654,1.5956264,0.7887632,0.039999764,0.04,-9.739072,-0.7008706331253052,-0.5780694,-0.07142751,0.06319243460893631,-0.10642911
2069.2833333320705,0.0559517,-0.7411991,-0.010589309,-2.4005606,-0.08368033,1.5962162,0.7888294,0.039999753,0.04,-9.737172,-0.7179516553878784,-0.59218997,-0.07253986,0.06397535651922226,-0.10780181
2069.2999999987373,0.057270538,-0.7401767,-0.010840651,-2.4016068,-0.08566079,1.596813,0.78889626,0.03999975,0.04,-9.735666,-0.7354357838630676,-0.6066427,-0.07365589,0.06474485993385315,-0.10916946
2069.3166666654042,0.058604464,-0.73914266,-0.011094868,-2.4026647,-0.08766391,1.5974168,0.7889639,0.039999742,0.04,-9.733353,-0.752720832824707,-0.62094676,-0.07477435,0.06550095230340958,-0.11053094
2069.333333332071,0.059953358,-0.7380971,-0.01135194,-2.4037342,-0.08968954,1.5980272,0.7890324,0.03999974,0.04,-9.731272,-0.7704058885574341,-0.63556945,-0.07589575,0.06624709069728851,-0.111888416
2069.349999998738,0.061317116,-0.7370399,-0.011611845,-2.4048157,-0.091737464,1.5986446,0.7891014,0.03999973,0.04,-9.729098,-0.7882668972015381,-0.65036947,-0.077020295,0.06698280572891235,-0.113238916
2069.366666665405,0.06269561,-0.7359714,-0.011874565,-2.4059093,-0.09380755,1.5992688,0.78917134,0.03999973,0.04,-9.727312,-0.8065459132194519,-0.66548115,-0.0781459,0.0677049458026886,-0.11458239
2069.3833333320717,0.064088725,-0.7348916,-0.012140071,-2.407014,-0.09589958,1.5998994,0.78924197,0.039999723,0.04,-9.724723,-0.8245983123779297,-0.6804328,-0.079274535,0.06841299682855606,-0.11592002
2069.3999999987386,0.065496325,-0.7338004,-0.012408342,-2.4081297,-0.0980134,1.6005365,0.7893133,0.03999972,0.04,-9.72227,-0.8430391550064087,-0.69571114,-0.08040496,0.06911180168390274,-0.11725166
2069.4166666654055,0.06691831,-0.7326981,-0.012679355,-2.409258,-0.1001488,1.6011801,0.7893855,0.039999712,0.04,-9.719853,-0.8616889715194702,-0.7111415,-0.08153712,0.06979568302631378,-0.11857858
2069.4333333320724,0.06835454,-0.7315848,-0.012953078,-2.4103966,-0.10230559,1.6018304,0.7894583,0.03999972,0.04,-9.717798,-0.8807469010353088,-0.7268886,-0.08267048,0.07046235352754593,-0.11990083
2069.4499999987393,0.06980485,-0.73046035,-0.013229495,-2.4115467,-0.10448356,1.6024868,0.7895318,0.03999972,0.04,-9.714726,-0.8994795680046082,-0.7424903,-0.0838052,0.07112105935811996,-0.121209025
2069.466666665406,0.07126913,-0.7293253,-0.013508576,-2.4127083,-0.106682524,1.6031497,0.78960615,0.039999716,0.04,-9.712109,-0.9186627268791199,-0.7583991,-0.08494073,0.07176278531551361,-0.12250925
2069.483333332073,0.07274725,-0.72817945,-0.0137902945,-2.4138808,-0.108902216,1.6038188,0.7896811,0.0399997,0.04,-9.709394,-0.938021719455719,-0.77444965,-0.086076975,0.07238909602165222,-0.12380109
2069.49999999874,0.07423908,-0.727023,-0.014074624,-2.4150636,-0.11114248,1.604494,0.7897567,0.039999694,0.04,-9.706827,-0.9577721953392029,-0.7908073,-0.087213606,0.07300228625535965,-0.1250843
2069.516666665407,0.07574441,-0.7258561,-0.014361534,-2.4162571,-0.11340306,1.6051753,0.7898331,0.039999682,0.04,-9.703495,-0.9772449731826782,-0.8070226,-0.08835034,0.07360292971134186,-0.1263585
2069.5333333320737,0.077263154,-0.72467893,-0.014650997,-2.4174619,-0.11568379,1.6058631,0.7899102,0.039999682,0.04,-9.700441,-0.9971085786819458,-0.82351583,-0.08948753,0.07418893277645111,-0.1276235
2069.5499999987405,0.078795135,-0.72349125,-0.014942983,-2.4186764,-0.117984384,1.6065565,0.7899878,0.039999668,0.04,-9.697677,-1.0173871517181396,-0.8403098,-0.090624265,0.0747605487704277,-0.12887964
2069.5666666654074,0.080340214,-0.7222935,-0.015237467,-2.4199014,-0.120304614,1.6072559,0.7900661,0.039999664,0.04,-9.694065,-1.0373419523239136,-0.8569846,-0.091759756,0.07531801611185074,-0.1301253
2069.5833333320743,0.08189819,-0.7210858,-0.015534419,-2.4211369,-0.12264427,1.6079614,0.79014516,0.039999656,0.04,-9.690742,-1.0576961040496826,-0.8739129,-0.0928948,0.07586084306240082,-0.13135985
2069.599999998741,0.08346896,-0.7198682,-0.015833804,-2.4223826,-0.12500313,1.6086724,0.7902248,0.039999645,0.04,-9.687358,-1.0782361030578613,-0.8909958,-0.094028674,0.07638770341873169,-0.13258743
2069.616666665408,0.08505232,-0.71864086,-0.016135596,-2.423638,-0.12738088,1.6093891,0.7903051,0.039999645,0.04,-9.684121,-1.0991284847259521,-0.90832657,-0.09516073,0.07689793407917023,-0.13380076
2069.633333332075,0.086648114,-0.71740395,-0.016439764,-2.4249036,-0.12977739,1.6101111,0.7903861,0.039999638,0.04,-9.680179,-1.119724154472351,-0.9255615,-0.09629138,0.07739467918872833,-0.13500528
2069.649999998742,0.08825618,-0.71615726,-0.01674627,-2.4261787,-0.13219228,1.610839,0.79046756,0.03999963,0.04,-9.676482,-1.1406928300857544,-0.94303834,-0.09742013,0.07787352800369263,-0.13619721
2069.6666666654087,0.08987636,-0.7149014,-0.017055081,-2.4274638,-0.13462533,1.6115725,0.79054964,0.03999962,0.04,-9.6726265,-1.161816954612732,-0.9606998,-0.09854618,0.07833825796842575,-0.13737866
2069.6833333320756,0.09150846,-0.7136363,-0.017366165,-2.4287586,-0.1370763,1.6123118,0.79063255,0.039999615,0.04,-9.668984,-1.183368444442749,-0.9785637,-0.09966914,0.07878649979829788,-0.13855447
2069.6999999987424,0.09315232,-0.71236223,-0.0176795,-2.430062,-0.13954501,1.6130555,0.79071593,0.039999623,0.04,-9.664722,-1.2045179605484009,-0.9963408,-0.10079016,0.0792192667722702,-0.13971467
2069.7166666654093,0.09480778,-0.711079,-0.017995037,-2.431375,-0.14203103,1.6138045,0.79079974,0.039999615,0.04,-9.660445,-1.2260172367095947,-1.0143365,-0.10190807,0.07963702827692032,-0.14085881
2069.733333332076,0.0964746,-0.70978695,-0.018312749,-2.4326968,-0.1445342,1.6145592,0.7908843,0.0399996,0.04,-9.656267,-1.2477141618728638,-1.0324982,-0.10302099,0.08003608137369156,-0.14199144
2069.749999998743,0.09815265,-0.7084863,-0.018632598,-2.4340277,-0.1470542,1.6153188,0.79096943,0.039999597,0.04,-9.652089,-1.2697464227676392,-1.0508916,-0.10413111,0.08042174577713013,-0.14310905
2069.76666666541,0.0998417,-0.7071771,-0.018954555,-2.435367,-0.14959069,1.6160833,0.791055,0.039999586,0.04,-9.64738,-1.2914505004882812,-1.069163,-0.105237134,0.08079086989164352,-0.1442163
2069.783333332077,0.10154159,-0.7058596,-0.019278578,-2.4367146,-0.15214351,1.6168528,0.7911413,0.039999582,0.04,-9.642762,-1.313491940498352,-1.0876784,-0.10633831,0.0811438336968422,-0.14530945
2069.7999999987437,0.103252165,-0.7045339,-0.019604634,-2.4380705,-0.15471235,1.6176274,0.7912281,0.03999958,0.04,-9.638182,-1.335895299911499,-1.106401,-0.10743573,0.0814838781952858,-0.146387
2069.8166666654106,0.104973175,-0.70319986,-0.019932685,-2.4394355,-0.1572969,1.6184062,0.7913154,0.03999956,0.04,-9.633105,-1.3579503297805786,-1.1250533,-0.10852826,0.08181021362543106,-0.14745295
2069.8333333320775,0.10670443,-0.7018579,-0.020262696,-2.4408088,-0.15989687,1.6191901,0.7914032,0.039999556,0.04,-9.628315,-1.3803602457046509,-1.143898,-0.10961403,0.08211230486631393,-0.14850307
2069.8499999987444,0.108445756,-0.70050824,-0.020594621,-2.4421897,-0.16251194,1.6199783,0.7914915,0.03999954,0.04,-9.623226,-1.4028747081756592,-1.1628892,-0.110694565,0.08240091055631638,-0.14954047
2069.8666666654112,0.11019696,-0.699151,-0.020928437,-2.4435787,-0.16514187,1.620771,0.7915804,0.03999953,0.04,-9.618222,-1.4257383346557617,-1.1820549,-0.11176885,0.08267161250114441,-0.15056306
2069.883333332078,0.11195786,-0.69778615,-0.021264095,-2.4449754,-0.16778626,1.6215682,0.7916696,0.03999953,0.04,-9.61276,-1.448193907737732,-1.2011548,-0.11283699,0.08292638510465622,-0.15156814
2069.899999998745,0.11372822,-0.6964139,-0.021601563,-2.4463794,-0.17044492,1.6223695,0.79175943,0.039999515,0.04,-9.607325,-1.4710301160812378,-1.2204599,-0.11389733,0.0831652507185936,-0.15256159
2069.916666665412,0.11550784,-0.69503456,-0.021940798,-2.4477909,-0.1731175,1.6231751,0.7918497,0.03999951,0.04,-9.601784,-1.493912935256958,-1.2398652,-0.114951625,0.08338649570941925,-0.15353581
2069.9333333320787,0.117296524,-0.69364846,-0.022281762,-2.4492097,-0.17580366,1.6239848,0.7919404,0.039999507,0.04,-9.596267,-1.5171884298324585,-1.2594469,-0.11599802,0.08359222859144211,-0.15449874
2069.9499999987456,0.119094044,-0.69225526,-0.02262442,-2.4506352,-0.17850314,1.6247987,0.7920315,0.039999496,0.04,-9.590336,-1.5400300025939941,-1.2789502,-0.117036976,0.0837811604142189,-0.15544769
2069.9666666654125,0.120900206,-0.69085556,-0.02296872,-2.4520674,-0.18121564,1.6256163,0.79212314,0.039999504,0.04,-9.584412,-1.5631763935089111,-1.2986771,-0.11806755,0.08395503461360931,-0.1563775
2069.9833333320794,0.12271482,-0.6894492,-0.023314634,-2.453506,-0.1839408,1.6264378,0.7922152,0.039999496,0.04,-9.57831,-1.5863951444625854,-1.3184526,-0.11909037,0.08411483466625214,-0.1572889
2069.9999999987463,0.12453766,-0.68803656,-0.023662118,-2.4549508,-0.1866783,1.6272631,0.7923077,0.039999485,0.04,-9.572268,-1.6099671125411987,-1.3384161,-0.120105006,0.08425785601139069,-0.15818457
2070.016666665413,0.1263685,-0.68661785,-0.024011128,-2.4564025,-0.18942778,1.6280919,0.7924004,0.03999948,0.04,-9.56582,-1.6330775022506714,-1.3583015,-0.12111016,0.0843871682882309,-0.15905957
2070.03333333208,0.12820718,-0.6851932,-0.024361633,-2.45786,-0.19218895,1.6289243,0.7924935,0.039999463,0.04,-9.559477,-1.6565645933151245,-1.3783453,-0.12210516,0.0844978392124176,-0.15992059
2070.049999998747,0.13005346,-0.6837625,-0.024713574,-2.459324,-0.19496156,1.6297599,0.7925872,0.039999448,0.04,-9.553003,-1.6803247928619385,-1.398555,-0.12309042,0.084593266248703,-0.16076495
2070.066666665414,0.13190702,-0.6823261,-0.025066923,-2.460794,-0.19774526,1.630599,0.7926813,0.039999448,0.04,-9.546296,-1.7036447525024414,-1.4187222,-0.12406605,0.08467026054859161,-0.16158865
2070.0833333320807,0.13376772,-0.6808842,-0.025421638,-2.4622688,-0.20053966,1.6314412,0.79277563,0.039999433,0.04,-9.539571,-1.7272937297821045,-1.4390346,-0.12503071,0.08472979068756104,-0.16239733
2070.0999999987475,0.1356353,-0.6794369,-0.025777668,-2.4637496,-0.20334443,1.6322867,0.7928703,0.039999418,0.04,-9.53253,-1.7509456872940063,-1.4594232,-0.12598553,0.08477701246738434,-0.16318785
2070.1166666654144,0.1375096,-0.6779843,-0.026134986,-2.465236,-0.2061593,1.633135,0.7929653,0.039999414,0.04,-9.525649,-1.7749183177947998,-1.4799465,-0.12692848,0.08480531722307205,-0.16395822
2070.1333333320813,0.1393904,-0.67652684,-0.026493538,-2.466727,-0.20898385,1.6339865,0.79306066,0.039999403,0.04,-9.518453,-1.798459768295288,-1.5004355,-0.12785953,0.08481629937887192,-0.16471285
2070.149999998748,0.14127736,-0.6750645,-0.02685328,-2.4682236,-0.21181782,1.6348407,0.7931564,0.039999392,0.04,-9.511075,-1.822243571281433,-1.5210419,-0.12877947,0.08481483906507492,-0.16544704
2070.166666665415,0.1431704,-0.67359763,-0.027214168,-2.4697247,-0.21466082,1.6356975,0.7932524,0.039999384,0.04,-9.503739,-1.8460853099822998,-1.5417188,-0.12968716,0.08479513972997665,-0.16616224
2070.183333332082,0.14506924,-0.6721261,-0.027576163,-2.4712296,-0.21751249,1.6365571,0.79334867,0.03999938,0.04,-9.496225,-1.8701838254928589,-1.562503,-0.13058227,0.08475911617279053,-0.16685665
2070.199999998749,0.14697364,-0.6706504,-0.027939223,-2.4727395,-0.2203725,1.6374192,0.7934452,0.03999936,0.04,-9.488411,-1.8938319683074951,-1.5832797,-0.13146481,0.08471214771270752,-0.16753542
2070.2166666654157,0.14888334,-0.66917056,-0.028303301,-2.474254,-0.22324055,1.6382837,0.7935421,0.039999347,0.04,-9.480687,-1.9177474975585938,-1.6041329,-0.13233371,0.08464716374874115,-0.16819274
2070.2333333320826,0.15079817,-0.66768676,-0.028668353,-2.4757724,-0.22611627,1.6391506,0.7936393,0.039999347,0.04,-9.47282,-1.9416773319244385,-1.6250664,-0.1331892,0.08456473797559738,-0.16882965
2070.2499999987494,0.1527178,-0.6661992,-0.02903434,-2.477295,-0.22899929,1.6400197,0.7937367,0.039999336,0.04,-9.464756,-1.9658745527267456,-1.6460938,-0.1340314,0.08446841686964035,-0.16945218
2070.2666666654163,0.1546421,-0.66470814,-0.029401213,-2.4788208,-0.23188934,1.6408906,0.7938343,0.03999932,0.04,-9.456627,-1.9895830154418945,-1.6670905,-0.13485889,0.08435463905334473,-0.17005287
2070.283333332083,0.15657082,-0.66321343,-0.029768929,-2.4803503,-0.23478594,1.6417637,0.79393214,0.03999933,0.04,-9.448307,-2.0135245323181152,-1.6881742,-0.13567169,0.0842265710234642,-0.17063111
2070.29999999875,0.15850373,-0.6617158,-0.03013744,-2.4818828,-0.23768878,1.6426386,0.7940302,0.03999931,0.04,-9.439861,-2.0377025604248047,-1.7093726,-0.13646992,0.08408422768115997,-0.17119133
2070.316666665417,0.16044055,-0.66021514,-0.030506706,-2.4834182,-0.24059755,1.6435153,0.79412836,0.039999306,0.04,-9.431325,-2.061414957046509,-1.7305046,-0.13725285,0.08392695337533951,-0.17172809
2070.333333332084,0.16238105,-0.6587115,-0.030876677,-2.4849565,-0.24351189,1.6443937,0.7942267,0.0399993,0.04,-9.42259,-2.0853240489959717,-1.7517383,-0.13802053,0.08375819027423859,-0.17224249
2070.3499999987507,0.16432503,-0.65720516,-0.031247314,-2.4864976,-0.24643146,1.6452738,0.79432523,0.039999284,0.04,-9.413798,-2.1092610359191895,-1.7730203,-0.13877265,0.08357435464859009,-0.1727385
2070.3666666654176,0.16627221,-0.6556964,-0.03161856,-2.4880416,-0.24935587,1.6461555,0.794424,0.03999927,0.04,-9.404877,-2.133375644683838,-1.794365,-0.13950846,0.08337637782096863,-0.17321247
2070.3833333320845,0.16822238,-0.65418553,-0.031990387,-2.4895875,-0.25228474,1.6470385,0.79452294,0.03999926,0.04,-9.395956,-2.1570725440979004,-1.8156713,-0.14022759,0.08316176384687424,-0.17366618
2070.3999999987514,0.1701753,-0.6526724,-0.032362737,-2.491136,-0.25521782,1.6479224,0.794622,0.03999926,0.04,-9.3867,-2.1808831691741943,-1.8370368,-0.14093103,0.0829373151063919,-0.1740943
2070.4166666654182,0.17213072,-0.6511574,-0.03273558,-2.492686,-0.2581545,1.6488078,0.7947211,0.03999924,0.04,-9.377515,-2.2047646045684814,-1.8584529,-0.14161684,0.0826951190829277,-0.17450699
2070.433333332085,0.17408842,-0.6496407,-0.033108853,-2.4942384,-0.26109463,1.649694,0.79482037,0.03999922,0.04,-9.367993,-2.2287278175354004,-1.8799111,-0.14228544,0.08244239538908005,-0.17489575
2070.449999998752,0.17604814,-0.64812225,-0.033482507,-2.4957917,-0.2640379,1.6505812,0.79491967,0.039999213,0.04,-9.358623,-2.2523109912872314,-1.9013538,-0.14293595,0.08217329531908035,-0.17526394
2070.466666665419,0.17800966,-0.64660245,-0.033856507,-2.4973476,-0.26698387,1.651469,0.79501915,0.039999206,0.04,-9.348922,-2.2759785652160645,-1.922866,-0.14356896,0.0818944126367569,-0.17560676
2070.4833333320857,0.17997274,-0.64508164,-0.034230806,-2.4989035,-0.26993215,1.6523576,0.79511875,0.039999187,0.04,-9.3393545,-2.2997119426727295,-1.944357,-0.14418297,0.08159523457288742,-0.17593078
2070.4999999987526,0.18193708,-0.6435596,-0.034605343,-2.5004604,-0.27288234,1.6532469,0.7952183,0.039999172,0.04,-9.32928,-2.3234641551971436,-1.965902,-0.14477941,0.08128851652145386,-0.17623092
2070.5166666654195,0.18390253,-0.6420368,-0.03498009,-2.5020187,-0.27583417,1.6541365,0.79531795,0.039999157,0.04,-9.319403,-2.346860408782959,-1.987454,-0.1453571,0.08096931129693985,-0.17651229
2070.5333333320864,0.18586877,-0.6405133,-0.035355,-2.5035782,-0.27878726,1.6550266,0.7954176,0.039999153,0.04,-9.309391,-2.3703532218933105,-2.009011,-0.14591537,0.08063597232103348,-0.17676619
2070.5499999987533,0.18783562,-0.63898957,-0.035730034,-2.5051377,-0.28174117,1.6559168,0.7955174,0.03999914,0.04,-9.299205,-2.3940134048461914,-2.0305765,-0.14645304,0.08028589934110641,-0.17700121
2070.56666666542,0.18980278,-0.63746554,-0.036105137,-2.5066972,-0.2846957,1.6568074,0.7956171,0.039999124,0.04,-9.2889595,-2.417193651199341,-2.0521524,-0.14697249,0.07992696017026901,-0.17721294
2070.583333332087,0.19177008,-0.63594145,-0.036480263,-2.5082567,-0.28765032,1.6576982,0.7957168,0.039999112,0.04,-9.27855,-2.440504789352417,-2.073746,-0.14747204,0.07955705374479294,-0.17740431
2070.599999998754,0.19373721,-0.6344175,-0.03685536,-2.5098162,-0.2906048,1.6585889,0.79581654,0.039999105,0.04,-9.268045,-2.4637207984924316,-2.0953326,-0.14795163,0.07917634397745132,-0.1775696
2070.616666665421,0.19570395,-0.6328937,-0.03723038,-2.5113752,-0.29355866,1.6594791,0.79591626,0.0399991,0.04,-9.257319,-2.487022638320923,-2.1169114,-0.14841074,0.07878408581018448,-0.17771049
2070.6333333320877,0.19767006,-0.6313706,-0.0376053,-2.5129342,-0.2965116,1.6603693,0.796016,0.039999083,0.04,-9.246777,-2.5099713802337646,-2.1385045,-0.14884914,0.07837820798158646,-0.17783295
2070.6499999987545,0.19963528,-0.6298481,-0.037980054,-2.5144928,-0.29946318,1.6612588,0.79611564,0.039999068,0.04,-9.236005,-2.5329580307006836,-2.1600778,-0.149267,0.07796196639537811,-0.17793164
2070.6666666654214,0.2015994,-0.6283265,-0.03835459,-2.5160494,-0.3024131,1.6621481,0.7962152,0.039999053,0.04,-9.225179,-2.5558743476867676,-2.1816454,-0.14966285,0.0775313675403595,-0.17800677
2070.6833333320883,0.20356221,-0.62680596,-0.038728874,-2.5176046,-0.305361,1.6630367,0.7963147,0.03999904,0.04,-9.213882,-2.578767776489258,-2.2032096,-0.15003897,0.07709605246782303,-0.17805769
2070.699999998755,0.20552342,-0.62528676,-0.039102867,-2.5191593,-0.30830657,1.6639246,0.79641414,0.03999903,0.04,-9.202933,-2.6013476848602295,-2.2247722,-0.150394,0.07665146887302399,-0.1780868
2070.716666665422,0.20748277,-0.62376887,-0.03947651,-2.5207124,-0.3112494,1.6648117,0.79651344,0.039999016,0.04,-9.191856,-2.6239821910858154,-2.2462792,-0.15072647,0.07619329541921616,-0.1780923
2070.733333332089,0.20944007,-0.6222526,-0.03984976,-2.5222635,-0.31418917,1.6656977,0.7966127,0.039998993,0.04,-9.180611,-2.646496534347534,-2.2678041,-0.15103656,0.07572516798973083,-0.17807563
2070.749999998756,0.21139506,-0.62073815,-0.040222578,-2.5238137,-0.3171255,1.6665827,0.7967118,0.039998982,0.04,-9.169034,-2.668997287750244,-2.289261,-0.15132546,0.07524735480546951,-0.17803457
2070.7666666654227,0.21334748,-0.6192258,-0.040594906,-2.5253608,-0.32005793,1.6674668,0.79681075,0.039998975,0.04,-9.157906,-2.6912107467651367,-2.3107538,-0.1515907,0.07475658506155014,-0.17796946
2070.7833333320896,0.2152971,-0.6177155,-0.04096671,-2.526907,-0.32298616,1.6683493,0.79690963,0.039998967,0.04,-9.146242,-2.7133398056030273,-2.3322065,-0.15183496,0.0742628425359726,-0.17788118
2070.7999999987564,0.21724369,-0.6162074,-0.041337933,-2.5284495,-0.32590982,1.6692305,0.7970084,0.039998945,0.04,-9.134647,-2.7355802059173584,-2.3535702,-0.15205501,0.07375126332044601,-0.17777203
2070.8166666654233,0.21918702,-0.61470217,-0.041708536,-2.5299897,-0.3288286,1.6701102,0.79710704,0.039998926,0.04,-9.123016,-2.7573652267456055,-2.3750172,-0.15225394,0.07323691993951797,-0.17763928
2070.83333333209,0.22112685,-0.61319953,-0.042078484,-2.5315275,-0.33174214,1.6709884,0.79720545,0.039998922,0.04,-9.111294,-2.7791783809661865,-2.396341,-0.15242994,0.07271341234445572,-0.17748022
2070.849999998757,0.2230629,-0.6116999,-0.042447712,-2.533062,-0.33465007,1.671865,0.7973037,0.0399989,0.04,-9.099549,-2.800920248031616,-2.4176528,-0.15258199,0.07217903435230255,-0.17730102
2070.866666665424,0.224995,-0.6102032,-0.042816192,-2.534593,-0.33755195,1.6727395,0.79740167,0.039998893,0.04,-9.087381,-2.8225274085998535,-2.4388833,-0.15271124,0.07163839042186737,-0.17709662
2070.883333332091,0.22692287,-0.60870993,-0.043183874,-2.5361216,-0.34044757,1.6736124,0.7974994,0.039998878,0.04,-9.075646,-2.843892812728882,-2.46016,-0.15281707,0.07108910381793976,-0.17687011
2070.8999999987577,0.22884633,-0.6072201,-0.04355071,-2.5376463,-0.34333655,1.6744831,0.797597,0.039998863,0.04,-9.063708,-2.865231990814209,-2.481341,-0.15289828,0.07052997499704361,-0.17662202
2070.9166666654246,0.23076507,-0.605734,-0.043916672,-2.5391674,-0.34621847,1.6753516,0.7976942,0.039998844,0.04,-9.051609,-2.8863818645477295,-2.5024834,-0.15295602,0.06996336579322815,-0.17634864
2070.9333333320915,0.23267892,-0.6042516,-0.044281688,-2.5406845,-0.34909308,1.6762182,0.79779124,0.039998844,0.04,-9.039206,-2.9074337482452393,-2.523516,-0.1529896,0.06938961893320084,-0.17604984
2070.9499999987584,0.23458764,-0.6027733,-0.04464572,-2.5421977,-0.35195994,1.6770822,0.7978881,0.039998822,0.04,-9.027253,-2.9282872676849365,-2.5446217,-0.15299965,0.06880905479192734,-0.17573178
2070.9666666654252,0.2364909,-0.601299,-0.045008726,-2.5437055,-0.3548188,1.6779438,0.7979846,0.039998807,0.04,-9.015045,-2.949025869369507,-2.565595,-0.15298524,0.0682193785905838,-0.17538814
2070.983333332092,0.23838863,-0.59982914,-0.045370676,-2.5452094,-0.35766912,1.678803,0.7980808,0.0399988,0.04,-9.002552,-2.969529867172241,-2.58655,-0.15294886,0.06762949377298355,-0.17502089
2070.999999998759,0.24028054,-0.598364,-0.045731526,-2.5467088,-0.36051074,1.6796595,0.7981768,0.039998777,0.04,-8.990038,-2.9900689125061035,-2.6073358,-0.15288669,0.06702954322099686,-0.17463413
2071.016666665426,0.24216636,-0.5969033,-0.046091225,-2.5482042,-0.36334327,1.6805133,0.79827255,0.03999876,0.04,-8.977894,-3.010305404663086,-2.628194,-0.15280049,0.06642401963472366,-0.174223
2071.0333333320928,0.24404582,-0.5954476,-0.046449725,-2.5496938,-0.36616653,1.6813642,0.79836774,0.039998747,0.04,-8.9655695,-3.0304601192474365,-2.6489344,-0.15268876,0.06580737233161926,-0.17378652
2071.0499999987596,0.24591881,-0.593997,-0.046806984,-2.5511785,-0.36897987,1.6822122,0.79846275,0.039998744,0.04,-8.952705,-3.0504045486450195,-2.6695442,-0.15255313,0.06518819183111191,-0.17332743
2071.0666666654265,0.24778502,-0.5925514,-0.04716296,-2.5526578,-0.37178305,1.6830572,0.7985574,0.03999872,0.04,-8.940456,-3.0702178478240967,-2.690229,-0.15239295,0.06456376612186432,-0.17284802
2071.0833333320934,0.24964428,-0.5911113,-0.047517613,-2.554131,-0.3745759,1.6838989,0.79865164,0.03999871,0.04,-8.927907,-3.0898325443267822,-2.7107673,-0.15220846,0.06393250077962875,-0.17234153
2071.0999999987603,0.25149643,-0.58967674,-0.047870915,-2.5555992,-0.3773579,1.6847374,0.79874563,0.039998688,0.04,-8.915242,-3.1093013286590576,-2.7312253,-0.15199994,0.06329844146966934,-0.17181346
2071.116666665427,0.2533411,-0.588248,-0.0482228,-2.557061,-0.3801287,1.6855725,0.7988392,0.039998673,0.04,-8.902407,-3.128661870956421,-2.7515225,-0.15176581,0.06265665590763092,-0.17126544
2071.133333332094,0.2551782,-0.5868254,-0.04857323,-2.5585172,-0.38288814,1.6864043,0.7989323,0.03999865,0.04,-8.889981,-3.14778733253479,-2.7718916,-0.15150829,0.062011752277612686,-0.1706959
2071.149999998761,0.25700742,-0.58540875,-0.048922174,-2.5599666,-0.3856358,1.6872327,0.79902506,0.039998624,0.04,-8.877328,-3.1667585372924805,-2.7921052,-0.15122502,0.061362940818071365,-0.17010051
2071.166666665428,0.2588286,-0.58399826,-0.049269587,-2.5614104,-0.38837135,1.6880574,0.7991173,0.039998617,0.04,-8.864561,-3.1855359077453613,-2.8122494,-0.1509184,0.06071167811751366,-0.16948372
2071.1833333320947,0.26064155,-0.5825942,-0.049615417,-2.5628471,-0.39109448,1.6888783,0.79920924,0.039998595,0.04,-8.851665,-3.204195737838745,-2.8322074,-0.15058482,0.06005223095417023,-0.1688451
2071.1999999987615,0.26244605,-0.5811967,-0.049959637,-2.5642774,-0.39380494,1.6896952,0.7993008,0.039998583,0.04,-8.839146,-3.2226500511169434,-2.8522437,-0.15022823,0.05939077213406563,-0.16818538
2071.2166666654284,0.2642418,-0.57980597,-0.0503022,-2.565701,-0.3965024,1.6905082,0.7993918,0.03999856,0.04,-8.826439,-3.2409474849700928,-2.8721156,-0.1498462,0.05872427672147751,-0.16750453
2071.2333333320953,0.26602864,-0.57842225,-0.05064308,-2.5671177,-0.3991864,1.6913172,0.7994823,0.03999855,0.04,-8.813724,-3.25905179977417,-2.8918858,-0.14943878,0.05805273726582527,-0.16680075
2071.249999998762,0.2678064,-0.57704574,-0.050982226,-2.5685267,-0.4018568,1.6921222,0.79957247,0.039998535,0.04,-8.800647,-3.2769229412078857,-2.9114552,-0.14900702,0.05737810954451561,-0.16607642
2071.266666665429,0.2695749,-0.5756764,-0.051319614,-2.569929,-0.40451318,1.6929228,0.79966235,0.039998513,0.04,-8.788135,-3.294698476791382,-2.9311225,-0.14855187,0.05670298635959625,-0.1653318
2071.283333332096,0.27133384,-0.5743141,-0.051655177,-2.571323,-0.40715536,1.6937191,0.7997516,0.039998498,0.04,-8.775416,-3.312270164489746,-2.9505982,-0.14807227,0.05602240562438965,-0.16456534
2071.299999998763,0.27308306,-0.57295966,-0.051988896,-2.572709,-0.40978286,1.6945109,0.7998402,0.039998494,0.04,-8.762314,-3.3295538425445557,-2.9698818,-0.14756791,0.055339619517326355,-0.16377556
2071.3166666654297,0.27482232,-0.57161283,-0.052320726,-2.5740876,-0.41239545,1.6952984,0.7999284,0.03999848,0.04,-8.749816,-3.346792221069336,-2.9892354,-0.14703962,0.05465613305568695,-0.16296704
2071.3333333320966,0.27655154,-0.57027364,-0.052650627,-2.5754578,-0.41499284,1.6960815,0.80001616,0.03999846,0.04,-8.73709,-3.363795757293701,-3.0084012,-0.1464873,0.05396989360451698,-0.1621372
2071.3499999987635,0.27827045,-0.56894267,-0.052978568,-2.57682,-0.41757485,1.6968596,0.80010337,0.03999844,0.04,-8.72432,-3.3806145191192627,-3.0274656,-0.14591086,0.053283028304576874,-0.16128822
2071.3666666654303,0.27997878,-0.56761986,-0.053304505,-2.5781736,-0.42014098,1.6976329,0.80019003,0.039998423,0.04,-8.711294,-3.397139072418213,-3.0462596,-0.14531024,0.05259218439459801,-0.16041595
2071.383333332097,0.28167644,-0.5663053,-0.053628404,-2.5795186,-0.4226911,1.6984015,0.8002761,0.0399984,0.04,-8.698877,-3.4136390686035156,-3.065191,-0.14468642,0.05190061777830124,-0.15952285
2071.399999998764,0.28336325,-0.5649993,-0.053950235,-2.5808554,-0.42522493,1.699165,0.80036175,0.039998386,0.04,-8.686175,-3.429877758026123,-3.0838962,-0.14403883,0.051207851618528366,-0.1586094
2071.416666665431,0.28503892,-0.5637017,-0.054269962,-2.5821834,-0.42774212,1.6999236,0.8004467,0.03999837,0.04,-8.673552,-3.4459667205810547,-3.1024642,-0.14336729,0.05051269754767418,-0.15767725
2071.433333332098,0.28670332,-0.5624129,-0.054587528,-2.5835025,-0.4302425,1.7006773,0.8005311,0.039998345,0.04,-8.660603,-3.4617347717285156,-3.1208167,-0.14267144,0.04981523007154465,-0.15672748
2071.4499999987647,0.2883564,-0.56113297,-0.054902926,-2.5848126,-0.43272564,1.7014253,0.800615,0.03999833,0.04,-8.648294,-3.477497100830078,-3.1392715,-0.14195256,0.04911831021308899,-0.15575646
2071.4666666654316,0.28999782,-0.55986196,-0.05521612,-2.5861132,-0.43519127,1.7021682,0.80069834,0.039998315,0.04,-8.635734,-3.4929893016815186,-3.15748,-0.14121026,0.0484185554087162,-0.15476505
2071.4833333320985,0.2916274,-0.5586,-0.055527065,-2.5874047,-0.4376393,1.7029065,0.80078095,0.039998304,0.04,-8.623188,-3.5082826614379883,-3.1755688,-0.14044516,0.047717638313770294,-0.15375574
2071.4999999987654,0.29324502,-0.5573475,-0.055835735,-2.5886867,-0.44006932,1.7036391,0.800863,0.039998285,0.04,-8.6103115,-3.5232412815093994,-3.1934266,-0.1396568,0.047020040452480316,-0.1527283
2071.5166666654322,0.2948505,-0.55610436,-0.056142084,-2.5899591,-0.44248092,1.7043661,0.80094445,0.03999827,0.04,-8.5982,-3.538285970687866,-3.211358,-0.13884565,0.04632120952010155,-0.15168254
2071.533333332099,0.2964436,-0.5548708,-0.056446094,-2.5912216,-0.44487408,1.7050873,0.8010252,0.039998252,0.04,-8.585805,-3.553011655807495,-3.2290409,-0.13801168,0.04561992362141609,-0.15062031
2071.549999998766,0.29802427,-0.5536469,-0.05674773,-2.5924742,-0.44724855,1.705803,0.8011053,0.03999824,0.04,-8.573037,-3.567342758178711,-3.246474,-0.13715635,0.04491981491446495,-0.14953873
2071.566666665433,0.29959226,-0.5524328,-0.05704695,-2.5937169,-0.44960395,1.706513,0.80118495,0.039998226,0.04,-8.56107,-3.581826686859131,-3.2640095,-0.13627811,0.04421922564506531,-0.14843933
2071.5833333320998,0.30114746,-0.5512287,-0.05734373,-2.5949488,-0.4519402,1.7072171,0.8012637,0.039998215,0.04,-8.548772,-3.595945119857788,-3.2813046,-0.13537896,0.04351988807320595,-0.14732152
2071.5999999987666,0.30268964,-0.5500346,-0.05763803,-2.5961714,-0.45425692,1.7079154,0.8013419,0.039998192,0.04,-8.536494,-3.6098439693450928,-3.2984233,-0.13445807,0.04282236471772194,-0.14618509
2071.6166666654335,0.3042187,-0.5488507,-0.057929844,-2.597383,-0.4565539,1.7086078,0.8014195,0.039998177,0.04,-8.524101,-3.6234724521636963,-3.3152845,-0.13351408,0.04212142154574394,-0.1450323
2071.6333333321004,0.3057345,-0.54767716,-0.058219112,-2.598584,-0.45883095,1.7092941,0.80149627,0.03999815,0.04,-8.51227,-3.637169361114502,-3.3322704,-0.13255058,0.04142381250858307,-0.14386438
2071.6499999987673,0.30723676,-0.54651403,-0.05850584,-2.5997748,-0.46108788,1.7099744,0.80157244,0.039998144,0.04,-8.500186,-3.6504902839660645,-3.3489745,-0.13156597,0.040727611631155014,-0.14267899
2071.666666665434,0.30872545,-0.5453616,-0.05878997,-2.6009545,-0.46332434,1.7106483,0.801648,0.039998125,0.04,-8.488302,-3.663698196411133,-3.3655164,-0.13055953,0.040029559284448624,-0.14147766
2071.683333332101,0.31020045,-0.54421973,-0.05907147,-2.6021237,-0.46554014,1.7113163,0.8017227,0.039998103,0.04,-8.475949,-3.6764280796051025,-3.3817797,-0.12953465,0.03933502733707428,-0.1402596
2071.699999998768,0.31166154,-0.5430885,-0.059350334,-2.603281,-0.4677352,1.7119777,0.8017969,0.03999809,0.04,-8.464527,-3.689439058303833,-3.3981752,-0.12848735,0.03864017128944397,-0.13902701
2071.716666665435,0.31310868,-0.54196817,-0.059626535,-2.6044278,-0.4699092,1.7126329,0.8018702,0.039998077,0.04,-8.452633,-3.7019598484039307,-3.4142826,-0.12742321,0.03794963285326958,-0.13778031
2071.7333333321017,0.3145416,-0.5408586,-0.059900034,-2.605563,-0.47206187,1.7132818,0.801943,0.03999807,0.04,-8.440995,-3.7143661975860596,-3.430223,-0.12633748,0.03725859150290489,-0.13651532
2071.7499999987685,0.31596032,-0.53976023,-0.06017081,-2.6066873,-0.4741932,1.7139242,0.80201495,0.03999805,0.04,-8.429023,-3.7263784408569336,-3.4458745,-0.12523326,0.03656915947794914,-0.1352406
2071.7666666654354,0.3173646,-0.53867286,-0.060438838,-2.6078,-0.4763028,1.7145599,0.8020862,0.039998032,0.04,-8.417854,-3.7386059761047363,-3.4616387,-0.12410923,0.03588109835982323,-0.13394938
2071.7833333321023,0.3187543,-0.53759694,-0.0607041,-2.6089013,-0.47839057,1.7151892,0.8021566,0.039998014,0.04,-8.406371,-3.7504079341888428,-3.477126,-0.12296643,0.035194963216781616,-0.1326439
2071.799999998769,0.32012928,-0.53653234,-0.060966574,-2.6099908,-0.48045626,1.7158117,0.8022264,0.039997995,0.04,-8.394682,-3.76182222366333,-3.4922657,-0.12180544,0.034509770572185516,-0.13132413
2071.816666665436,0.32148948,-0.5354791,-0.06122622,-2.6110687,-0.4824998,1.7164277,0.8022954,0.03999798,0.04,-8.383694,-3.773447036743164,-3.50757,-0.12062748,0.033827733248472214,-0.12998925
2071.833333332103,0.32283482,-0.53443754,-0.061483018,-2.6121354,-0.48452088,1.717037,0.8023637,0.03999797,0.04,-8.372543,-3.7847390174865723,-3.5225544,-0.11943036,0.03314666822552681,-0.12864313
2071.84999999877,0.3241651,-0.53340757,-0.061736975,-2.6131892,-0.4865195,1.7176391,0.80243117,0.03999795,0.04,-8.36146,-3.795820474624634,-3.5373702,-0.11821582,0.03246736899018288,-0.1272836
2071.8666666654367,0.32548025,-0.5323895,-0.06198805,-2.6142313,-0.48849535,1.7182343,0.80249786,0.03999794,0.04,-8.350003,-3.8063912391662598,-3.5518708,-0.11698601,0.03179208189249039,-0.1259102
2071.8833333321036,0.32678017,-0.5313832,-0.06223621,-2.6152613,-0.49044827,1.718823,0.8025638,0.039997924,0.04,-8.339454,-3.817349672317505,-3.5664847,-0.11573899,0.03111858107149601,-0.12452695
2071.8999999987705,0.32806474,-0.5303887,-0.06248144,-2.6162791,-0.49237826,1.7194046,0.80262893,0.039997917,0.04,-8.328613,-3.827843189239502,-3.5808086,-0.11447638,0.0304493959993124,-0.123130076
2071.9166666654373,0.3293338,-0.5294062,-0.06272373,-2.6172845,-0.49428508,1.7199793,0.8026934,0.0399979,0.04,-8.317891,-3.838182210922241,-3.5949543,-0.11319742,0.029781924560666084,-0.12172475
2071.933333332104,0.33058745,-0.52843577,-0.06296305,-2.6182775,-0.49616855,1.720547,0.802757,0.039997887,0.04,-8.306887,-3.8480465412139893,-3.6087773,-0.111904435,0.029118940234184265,-0.12030829
2071.949999998771,0.33182532,-0.5274773,-0.06319939,-2.6192584,-0.49802846,1.7211076,0.80281997,0.039997876,0.04,-8.296703,-3.858269453048706,-3.6227207,-0.11059576,0.02845878340303898,-0.11888084
2071.966666665438,0.3330476,-0.52653116,-0.06343275,-2.6202266,-0.49986482,1.7216612,0.802882,0.039997853,0.04,-8.286334,-3.8680591583251953,-3.6363444,-0.109272756,0.027800194919109344,-0.11744323
2071.983333332105,0.3342541,-0.52559716,-0.06366311,-2.6211832,-0.50167763,1.7222074,0.8029432,0.039997846,0.04,-8.27599,-3.8776652812957764,-3.6497948,-0.10793499,0.027146564796566963,-0.11599671
2071.9999999987717,0.33544457,-0.52467555,-0.063890435,-2.6221268,-0.50346625,1.7227465,0.8030036,0.039997827,0.04,-8.265528,-3.8868298530578613,-3.6628993,-0.10658143,0.026491327211260796,-0.11453566
2072.0166666654386,0.33661908,-0.5237664,-0.06411468,-2.6230574,-0.50523096,1.7232782,0.80306315,0.03999781,0.04,-8.255761,-3.8963310718536377,-3.6761553,-0.105215624,0.025840813294053078,-0.11306818
2072.0333333321055,0.33777755,-0.5228696,-0.06433588,-2.6239753,-0.5069715,1.7238027,0.803122,0.039997794,0.04,-8.24572,-3.905376434326172,-3.6890733,-0.10383764,0.0251949280500412,-0.11159305
2072.0499999987724,0.3389199,-0.52198493,-0.06455402,-2.6248808,-0.50868785,1.72432,0.8031799,0.03999778,0.04,-8.235552,-3.9140052795410156,-3.7016506,-0.10244722,0.02455078810453415,-0.11010946
2072.0666666654392,0.34004614,-0.5211133,-0.06476908,-2.6257732,-0.51038015,1.7248302,0.8032371,0.039997768,0.04,-8.226153,-3.9230029582977295,-3.7143962,-0.10104369,0.02391033247113228,-0.10861695
2072.083333332106,0.34115613,-0.52025366,-0.06498105,-2.6266522,-0.5120478,1.725333,0.8032934,0.039997756,0.04,-8.216466,-3.931532621383667,-3.7267582,-0.09962949,0.023275598883628845,-0.10711776
2072.099999998773,0.34224972,-0.5194072,-0.0651899,-2.6275187,-0.51369107,1.7258282,0.80334896,0.039997745,0.04,-8.206946,-3.9398953914642334,-3.7389925,-0.09820397,0.022643918171525,-0.105610326
2072.11666666544,0.34332702,-0.51857334,-0.06539562,-2.6283724,-0.5153097,1.7263159,0.8034036,0.039997738,0.04,-8.197197,-3.9477970600128174,-3.750803,-0.09676916,0.022016724571585655,-0.10409658
2072.1333333321068,0.3443879,-0.517752,-0.06559823,-2.6292124,-0.51690364,1.7267963,0.80345744,0.03999773,0.04,-8.188288,-3.9561526775360107,-3.7628038,-0.095323086,0.02139141783118248,-0.10257884
2072.1499999987736,0.3454324,-0.5169437,-0.0657977,-2.6300402,-0.51847315,1.7272693,0.8035105,0.039997704,0.04,-8.179058,-3.96398663520813,-3.7744708,-0.09386856,0.02077225036919117,-0.101056926
2072.1666666654405,0.34646034,-0.51614803,-0.065994024,-2.630855,-0.52001786,1.7277349,0.80356264,0.0399977,0.04,-8.170119,-3.9717395305633545,-3.785914,-0.09240303,0.020154938101768494,-0.09952773
2072.1833333321074,0.34747174,-0.51536506,-0.06618722,-2.6316566,-0.5215376,1.7281932,0.80361396,0.039997686,0.04,-8.160895,-3.978973865509033,-3.7970445,-0.09092838,0.019540565088391304,-0.09799249
2072.1999999987743,0.3484666,-0.51459485,-0.06637724,-2.6324446,-0.5230325,1.7286437,0.8036645,0.039997675,0.04,-8.152405,-3.9866321086883545,-3.8083239,-0.08944628,0.0189320370554924,-0.096454814
2072.216666665441,0.34944493,-0.5138375,-0.066564105,-2.633219,-0.5245026,1.7290866,0.80371416,0.039997656,0.04,-8.143701,-3.9938066005706787,-3.8192415,-0.08795732,0.018327467143535614,-0.09491097
2072.233333332108,0.3504066,-0.513093,-0.0667478,-2.6339812,-0.52594763,1.7295221,0.80376303,0.03999764,0.04,-8.1351385,-4.00083065032959,-3.8299825,-0.08646175,0.017728636041283607,-0.093361944
2072.249999998775,0.35135162,-0.5123612,-0.066928305,-2.6347306,-0.52736783,1.7299501,0.803811,0.03999763,0.04,-8.126519,-4.007490158081055,-3.8403459,-0.08495744,0.017129886895418167,-0.09181164
2072.266666665442,0.35228002,-0.5116425,-0.06710566,-2.6354663,-0.528763,1.7303705,0.8038581,0.03999762,0.04,-8.118618,-4.014550685882568,-3.8508787,-0.08344574,0.01653372123837471,-0.0902572
2072.2833333321087,0.3531918,-0.51093674,-0.06727983,-2.6361885,-0.5301331,1.7307835,0.8039045,0.039997607,0.04,-8.110391,-4.021084308624268,-3.8610575,-0.081929795,0.015944628044962883,-0.08870048
2072.2999999987755,0.35408685,-0.5102441,-0.067450814,-2.636898,-0.5314782,1.7311887,0.8039499,0.039997596,0.04,-8.102017,-4.027188777923584,-3.8708901,-0.08041022,0.015361584722995758,-0.08714381
2072.3166666654424,0.35496515,-0.50956404,-0.06761862,-2.6375942,-0.5327981,1.7315866,0.80399454,0.03999759,0.04,-8.094523,-4.033787727355957,-3.8808284,-0.07888416,0.014779902063310146,-0.08558306
2072.3333333321093,0.35582688,-0.5088969,-0.06778326,-2.6382773,-0.5340932,1.7319767,0.8040382,0.039997578,0.04,-8.086767,-4.039915561676025,-3.8904688,-0.0773553,0.014203392900526524,-0.084025815
2072.349999998776,0.356672,-0.5082427,-0.06794472,-2.638947,-0.53536314,1.7323595,0.80408114,0.039997574,0.04,-8.079152,-4.045873165130615,-3.8999045,-0.07582172,0.013630983419716358,-0.082464784
2072.366666665443,0.35750046,-0.5076015,-0.068102986,-2.6396031,-0.5366081,1.7327348,0.80412316,0.039997566,0.04,-8.071335,-4.0513787269592285,-3.9089828,-0.07428599,0.013063550926744938,-0.08090472
2072.38333333211,0.3583123,-0.50697327,-0.06825812,-2.6402466,-0.5378282,1.7331024,0.80416435,0.03999756,0.04,-8.064225,-4.0573272705078125,-3.9182172,-0.072748736,0.012503838166594505,-0.079345606
2072.399999998777,0.35910755,-0.5063577,-0.06841009,-2.640877,-0.5390232,1.7334626,0.80420476,0.03999755,0.04,-8.057083,-4.062899112701416,-3.9270713,-0.07120885,0.011945882812142372,-0.07778875
2072.4166666654437,0.35988614,-0.50575495,-0.06855888,-2.6414936,-0.54019344,1.7338153,0.8042442,0.039997548,0.04,-8.050006,-4.068284034729004,-3.9357672,-0.06966798,0.011392188258469105,-0.076233394
2072.4333333321106,0.36064824,-0.5051649,-0.06870452,-2.6420975,-0.54133886,1.7341605,0.804283,0.03999754,0.04,-8.042693,-4.073166370391846,-3.944118,-0.06812719,0.01084549818187952,-0.07467952
2072.4499999987775,0.3613939,-0.50458777,-0.068847016,-2.6426885,-0.54245955,1.7344984,0.8043208,0.03999753,0.04,-8.036217,-4.078609466552734,-3.9526079,-0.06658613,0.010302562266588211,-0.07312912
2072.4666666654443,0.36212316,-0.5040234,-0.06898637,-2.6432664,-0.54355544,1.7348287,0.8043579,0.039997514,0.04,-8.029553,-4.083583354949951,-3.960727,-0.06504435,0.009763688780367374,-0.071582496
2072.483333332111,0.36283585,-0.5034716,-0.06912258,-2.6438313,-0.54462665,1.7351518,0.804394,0.039997514,0.04,-8.02302,-4.088420867919922,-3.9686773,-0.06350381,0.00922941043972969,-0.07003787
2072.499999998778,0.36353227,-0.5029324,-0.06925572,-2.644383,-0.5456734,1.7354673,0.80442935,0.039997503,0.04,-8.016274,-4.092745304107666,-3.976294,-0.06196595,0.008701839484274387,-0.068495914
2072.516666665445,0.36421236,-0.502406,-0.069385715,-2.6449223,-0.5466957,1.7357755,0.804464,0.039997496,0.04,-8.01028,-4.09760856628418,-3.9840498,-0.06043066,0.00817924179136753,-0.06696008
2072.533333332112,0.3648763,-0.5018921,-0.069512606,-2.6454484,-0.54769343,1.736076,0.8044976,0.039997485,0.04,-8.004201,-4.1020612716674805,-3.991431,-0.058897432,0.007659729570150375,-0.0654292
2072.5499999987787,0.3655241,-0.5013908,-0.06963642,-2.6459613,-0.5486669,1.7363695,0.8045307,0.039997473,0.04,-7.9979057,-4.1060404777526855,-3.9984927,-0.057366908,0.007143829949200153,-0.06390379
2072.5666666654456,0.3661557,-0.500902,-0.06975716,-2.6464612,-0.54961634,1.7366556,0.80456257,0.039997462,0.04,-7.9922166,-4.110452175140381,-4.005706,-0.05584393,0.006638661026954651,-0.062384512
2072.5833333321125,0.36677134,-0.5004255,-0.06987487,-2.646949,-0.5505415,1.7369344,0.8045939,0.03999745,0.04,-7.9864726,-4.114474773406982,-4.012558,-0.05432468,0.00613784696906805,-0.060874265
2072.5999999987794,0.36737096,-0.49996144,-0.0699895,-2.6474242,-0.5514432,1.737206,0.8046242,0.039997444,0.04,-7.980936,-4.118407726287842,-4.0192285,-0.052810736,0.0056399209424853325,-0.059369635
2072.6166666654462,0.36795482,-0.49950948,-0.070101164,-2.6478868,-0.55232084,1.7374703,0.8046538,0.03999744,0.04,-7.9751716,-4.12185001373291,-4.0255694,-0.051301856,0.005147972609847784,-0.057870895
2072.633333332113,0.36852285,-0.49906975,-0.07020977,-2.6483366,-0.553175,1.7377274,0.8046827,0.03999744,0.04,-7.9700875,-4.125804424285889,-4.0320625,-0.049800657,0.004661290440708399,-0.056381974
2072.64999999878,0.36907536,-0.49864206,-0.07031541,-2.6487744,-0.5540055,1.7379776,0.8047106,0.039997436,0.04,-7.964888,-4.129331588745117,-4.038204,-0.048307016,0.004179596435278654,-0.054901086
2072.666666665447,0.3696123,-0.49822637,-0.07041807,-2.6491995,-0.55481267,1.7382213,0.8047379,0.039997436,0.04,-7.959839,-4.132767677307129,-4.044185,-0.046819843,0.0037029513623565435,-0.0534297
2072.6833333321138,0.37013388,-0.49782267,-0.0705178,-2.649613,-0.55559665,1.7384578,0.80476433,0.03999743,0.04,-7.9545493,-4.135720729827881,-4.0498443,-0.045343235,0.0032364476937800646,-0.051969025
2072.6999999987806,0.37064016,-0.49743083,-0.07061461,-2.650014,-0.5563578,1.7386873,0.8047901,0.03999742,0.04,-7.9500775,-4.139251232147217,-4.0556083,-0.043873888,0.0027721791993826628,-0.050520327
2072.7166666654475,0.37113127,-0.49705076,-0.07070852,-2.6504028,-0.5570959,1.73891,0.8048151,0.039997414,0.04,-7.945361,-4.1422834396362305,-4.0610595,-0.04241558,0.0023142097052186728,-0.04908117
2072.7333333321144,0.3716072,-0.49668232,-0.0707996,-2.65078,-0.5578114,1.7391257,0.8048393,0.03999741,0.04,-7.940784,-4.145222187042236,-4.0663433,-0.04096853,0.0018628323450684547,-0.047655117
2072.7499999987813,0.3720683,-0.4963254,-0.07088783,-2.6511457,-0.5585045,1.7393343,0.80486274,0.039997406,0.04,-7.936121,-4.147747993469238,-4.0712957,-0.039532885,0.0014161602593958378,-0.046241786
2072.766666665448,0.3725147,-0.49597988,-0.07097321,-2.651499,-0.5591756,1.7395364,0.8048853,0.0399974,0.04,-7.9321265,-4.150800704956055,-4.0763803,-0.038107306,0.0009717553039081395,-0.044842176
2072.783333332115,0.3729463,-0.49564573,-0.0710558,-2.6518416,-0.5598247,1.7397324,0.80490726,0.0399974,0.04,-7.927848,-4.153355121612549,-4.081192,-0.036695454,0.000537645595613867,-0.043453924
2072.799999998782,0.37336355,-0.49532276,-0.07113562,-2.6521723,-0.56045204,1.7399216,0.8049285,0.0399974,0.04,-7.9236245,-4.15561580657959,-4.0856547,-0.03529615,0.00010805057536344975,-0.04208096
2072.816666665449,0.37376645,-0.4950109,-0.07121272,-2.6524916,-0.56105787,1.7401041,0.8049489,0.039997388,0.04,-7.919867,-4.158276081085205,-4.0902596,-0.03391168,-0.0003135872248094529,-0.040723965
2072.8333333321157,0.37415522,-0.49471,-0.07128712,-2.6527998,-0.56164235,1.7402799,0.8049686,0.039997388,0.04,-7.9160795,-4.160562515258789,-4.0945444,-0.032541346,-0.0007308496860787272,-0.039380856
2072.8499999987826,0.37452996,-0.4944199,-0.07135885,-2.6530967,-0.5622059,1.7404499,0.8049877,0.039997384,0.04,-7.9123874,-4.162750244140625,-4.0986686,-0.031186227,-0.0011432389728724957,-0.03805401
2072.8666666654494,0.37489095,-0.49414054,-0.07142797,-2.653383,-0.5627488,1.7406137,0.805006,0.039997384,0.04,-7.9085193,-4.164524555206299,-4.102533,-0.029849194,-0.0015449213096871972,-0.036743406
2072.8833333321163,0.3752383,-0.4938716,-0.07149446,-2.6536584,-0.5632712,1.7407708,0.8050237,0.039997384,0.04,-7.905354,-4.166828632354736,-4.1064796,-0.028526332,-0.001942155067808926,-0.035450257
2072.899999998783,0.37557223,-0.4936131,-0.07155839,-2.6539228,-0.5637736,1.7409225,0.80504066,0.039997384,0.04,-7.901994,-4.168694972991943,-4.1101413,-0.027221968,-0.0023347928654402494,-0.03417444
2072.91666666545,0.37589294,-0.49336484,-0.0716198,-2.6541772,-0.5642562,1.7410678,0.805057,0.03999738,0.04,-7.898694,-4.170461654663086,-4.1136804,-0.025936484,-0.0027159343007951975,-0.032917548
2072.933333332117,0.37620065,-0.49312666,-0.07167874,-2.6544209,-0.564719,1.7412072,0.80507267,0.039997377,0.04,-7.8954163,-4.171933174133301,-4.1168995,-0.024668504,-0.0030934936366975307,-0.03167937
2072.949999998784,0.37649557,-0.49289837,-0.07173524,-2.6546545,-0.56516254,1.7413411,0.80508757,0.03999738,0.04,-7.892583,-4.173767566680908,-4.1202545,-0.023420969,-0.0034623201936483383,-0.030459838
2072.9666666654507,0.37677792,-0.4926798,-0.0717893,-2.6548781,-0.5655872,1.741469,0.805102,0.03999738,0.04,-7.889681,-4.175288677215576,-4.1233373,-0.022193039,-0.003823985578492284,-0.029261868
2072.9833333321176,0.3770478,-0.49247077,-0.07184102,-2.655092,-0.5659934,1.7415915,0.80511576,0.039997377,0.04,-7.8868895,-4.1767144203186035,-4.1262617,-0.020986583,-0.004179385956376791,-0.028085008
2072.9999999987845,0.37730557,-0.49227118,-0.07189042,-2.6552966,-0.5663812,1.7417082,0.80512875,0.039997377,0.04,-7.88401,-4.177797794342041,-4.1289344,-0.01980122,-0.004527750890702009,-0.026927749
2073.0166666654513,0.37755147,-0.49208075,-0.071937546,-2.655491,-0.5667511,1.7418199,0.8051413,0.03999737,0.04,-7.8816347,-4.179315090179443,-4.131708,-0.018637128,-0.004870060831308365,-0.025796238
2073.033333332118,0.37778565,-0.49189943,-0.07198243,-2.6556766,-0.5671035,1.7419261,0.8051532,0.039997365,0.04,-7.879084,-4.180451393127441,-4.1342545,-0.017497813,-0.005201409105211496,-0.024686595
2073.049999998785,0.3780085,-0.49172693,-0.07202516,-2.6558523,-0.5674387,1.742027,0.80516434,0.039997365,0.04,-7.876508,-4.181290149688721,-4.1365066,-0.016381888,-0.005526011344045401,-0.023599088
2073.066666665452,0.37822008,-0.4915631,-0.07206574,-2.65602,-0.5677574,1.7421235,0.80517524,0.039997365,0.04,-7.874334,-4.1824870109558105,-4.138892,-0.015290777,-0.005840538069605827,-0.022535834
2073.083333332119,0.3784207,-0.49140766,-0.07210425,-2.6561797,-0.56805956,1.7422144,0.8051855,0.039997365,0.04,-7.8721704,-4.18341588973999,-4.1410174,-0.01422568,-0.006146921310573816,-0.021495339
2073.0999999987857,0.37861073,-0.49126053,-0.07214072,-2.656331,-0.5683458,1.7423005,0.80519515,0.03999736,0.04,-7.870185,-4.1843438148498535,-4.1430044,-0.01318361,-0.006451910827308893,-0.020483823
2073.1166666654526,0.37879044,-0.49112144,-0.07217521,-2.6564744,-0.56861645,1.7423822,0.8052043,0.03999736,0.04,-7.8679867,-4.184903144836426,-4.1447825,-0.012167473,-0.006748942658305168,-0.019496756
2073.1333333321195,0.37895998,-0.49099016,-0.07220777,-2.6566098,-0.56887203,1.7424593,0.805213,0.039997358,0.04,-7.866218,-4.185819149017334,-4.1466694,-0.011178643,-0.007036107592284679,-0.018537655
2073.1499999987864,0.3791198,-0.49086654,-0.07223845,-2.6567376,-0.56911266,1.7425319,0.80522114,0.039997358,0.04,-7.864367,-4.186427593231201,-4.148325,-0.010218009,-0.007315752562135458,-0.01760488
2073.1666666654532,0.37927014,-0.49075,-0.072267346,-2.6568577,-0.5693392,1.7425998,0.8052287,0.039997354,0.04,-7.862584,-4.186997890472412,-4.1498632,-0.009286187,-0.007586262188851833,-0.016702231
2073.18333333212,0.3794113,-0.49064073,-0.07229446,-2.6569703,-0.56955206,1.7426639,0.8052359,0.039997354,0.04,-7.86074,-4.187283515930176,-4.1512203,-0.008382932,-0.007850081659853458,-0.015826505
2073.199999998787,0.3795435,-0.49053824,-0.072319895,-2.6570752,-0.56975144,1.7427241,0.8052428,0.039997354,0.04,-7.8592205,-4.187861442565918,-4.152651,-0.0075110495,-0.008102750405669212,-0.014979617
2073.216666665454,0.37966713,-0.49044243,-0.07234369,-2.657173,-0.5699379,1.7427804,0.80524904,0.039997354,0.04,-7.8576226,-4.188186168670654,-4.1538982,-0.0066718413,-0.008343472145497799,-0.014163699
2073.2333333321208,0.37978262,-0.49035296,-0.07236591,-2.657263,-0.57011205,1.7428331,0.80525494,0.03999735,0.04,-7.8560677,-4.188427925109863,-4.155027,-0.0058654356,-0.008572611957788467,-0.013379003
2073.2499999987876,0.37989023,-0.4902696,-0.07238663,-2.6573467,-0.5702741,1.742882,0.80526036,0.03999735,0.04,-7.854415,-4.188439846038818,-4.155984,-0.0050937845,-0.008787758648395538,-0.012624489
2073.2666666654545,0.37999025,-0.49019212,-0.07240589,-2.657428,-0.57042485,1.7429271,0.8052655,0.039997354,0.04,-7.853146,-4.18874454498291,-4.1569934,-0.0043561463,-0.008992558345198631,-0.011902494
2073.2833333321214,0.3800829,-0.49012026,-0.07242374,-2.6575022,-0.5705646,1.7429688,0.80527025,0.039997358,0.04,-7.8522973,-4.189135551452637,-4.1577754,-0.0036432154,-0.009204539470374584,-0.011214599
2073.2999999987883,0.38016874,-0.49005368,-0.07244031,-2.6575692,-0.5706944,1.7430079,0.8052746,0.039997358,0.04,-7.850779,-4.188945770263672,-4.1585064,-0.0029694561,-0.009401371702551842,-0.010561271
2073.316666665455,0.38024816,-0.4899921,-0.07245564,-2.6576319,-0.57081443,1.7430446,0.8052787,0.039997358,0.04,-7.84951,-4.188971996307373,-4.1593013,-0.0023345612,-0.009578600525856018,-0.009940842
2073.333333332122,0.38032132,-0.48993534,-0.07246977,-2.6576903,-0.5709253,1.7430781,0.8052824,0.039997358,0.04,-7.8484564,-4.1890034675598145,-4.159908,-0.0017335652,-0.009746030904352665,-0.009355032
2073.349999998789,0.38038874,-0.489883,-0.072482824,-2.6577423,-0.5710272,1.7431079,0.8052858,0.03999736,0.04,-7.847453,-4.188949108123779,-4.16042,-0.0011682475,-0.009907561354339123,-0.008804575
2073.366666665456,0.38045087,-0.48983485,-0.072494835,-2.657793,-0.57112134,1.743137,0.805289,0.03999736,0.04,-7.846137,-4.188586711883545,-4.1608286,-0.0006455787,-0.010055716149508953,-0.008292006
2073.3833333321227,0.38050798,-0.48979053,-0.0725059,-2.6578372,-0.57120776,1.7431629,0.80529195,0.03999736,0.04,-7.845527,-4.188750267028809,-4.161294,-0.00015257436,-0.010197325609624386,-0.007816515
2073.3999999987896,0.3805605,-0.4897498,-0.07251611,-2.6578798,-0.5712874,1.7431872,0.80529475,0.03999736,0.04,-7.844281,-4.1883463859558105,-4.1616564,0.00029389007,-0.010321347042918205,-0.0073784166
2073.4166666654564,0.38060883,-0.48971224,-0.07252549,-2.6579163,-0.5713606,1.743209,0.8052972,0.03999736,0.04,-7.8436327,-4.188305854797363,-4.161951,0.0007094773,-0.010441138409078121,-0.006975784
2073.4333333321233,0.38065332,-0.4896778,-0.07253411,-2.6579518,-0.5714279,1.7432301,0.80529946,0.039997365,0.04,-7.842451,-4.187854290008545,-4.162233,0.0010858271,-0.010543149895966053,-0.006604531
2073.44999999879,0.38069412,-0.48964602,-0.072542034,-2.6579852,-0.5714897,1.7432483,0.80530167,0.039997365,0.04,-7.841967,-4.187921524047852,-4.1625223,0.0014367863,-0.010639575310051441,-0.006263953
2073.466666665457,0.38073176,-0.48961684,-0.07254937,-2.6580136,-0.5715467,1.7432661,0.80530345,0.039997365,0.04,-7.841394,-4.187814235687256,-4.162732,0.0017604299,-0.010736913420259953,-0.0059513887
2073.483333332124,0.38076624,-0.48959,-0.0725561,-2.6580415,-0.5715991,1.7432806,0.8053051,0.039997365,0.04,-7.8404593,-4.187501430511475,-4.1630197,0.0020537453,-0.010812363587319851,-0.005662494
2073.499999998791,0.380798,-0.48956537,-0.07256231,-2.6580684,-0.57164747,1.7432948,0.80530673,0.039997365,0.04,-7.8400865,-4.187448024749756,-4.1631207,0.0023274785,-0.01089740451425314,-0.0053972257
2073.5166666654577,0.3808271,-0.4895427,-0.07256803,-2.6580906,-0.57169193,1.7433088,0.8053081,0.039997365,0.04,-7.839704,-4.187473773956299,-4.1633563,0.0025821938,-0.010976463556289673,-0.005153418
2073.5333333321246,0.38085392,-0.48952183,-0.07257328,-2.658111,-0.571733,1.7433218,0.8053094,0.039997365,0.04,-7.838892,-4.1871562004089355,-4.163597,0.0028100621,-0.011035269126296043,-0.0049285544
2073.5499999987915,0.3808787,-0.48950264,-0.07257811,-2.6581311,-0.5717705,1.7433324,0.80531067,0.039997365,0.04,-7.83842,-4.187038421630859,-4.163728,0.0030201601,-0.011088873259723186,-0.004720821
2073.5666666654583,0.38090146,-0.48948494,-0.07258257,-2.6581507,-0.5718051,1.7433426,0.8053118,0.039997365,0.04,-7.8382025,-4.187091827392578,-4.163846,0.0032163055,-0.011148804798722267,-0.0045310794
2073.583333332125,0.38092232,-0.48946878,-0.07258666,-2.6581674,-0.57183695,1.7433528,0.80531293,0.039997365,0.04,-7.8379226,-4.187079429626465,-4.164,0.0033996324,-0.011206159368157387,-0.004356525
2073.599999998792,0.3809415,-0.48945382,-0.072590426,-2.6581817,-0.5718663,1.7433628,0.805314,0.039997365,0.04,-7.8373938,-4.186891555786133,-4.1641545,0.003564038,-0.011250248178839684,-0.0041957283
2073.616666665459,0.3809591,-0.48944005,-0.07259391,-2.6581948,-0.57189333,1.7433697,0.805315,0.039997365,0.04,-7.836922,-4.186720848083496,-4.164283,0.0037129137,-0.01128397136926651,-0.0040473104
2073.633333332126,0.38097528,-0.48942745,-0.07259711,-2.6582072,-0.57191813,1.7433764,0.805316,0.03999737,0.04,-7.836711,-4.186678409576416,-4.1643343,0.0038493264,-0.011325600557029247,-0.0039094733
2073.6499999987927,0.3809902,-0.48941585,-0.07260006,-2.6582193,-0.57194096,1.7433829,0.80531687,0.03999737,0.04,-7.8364644,-4.186663627624512,-4.164441,0.00397543,-0.011363472789525986,-0.0037840358
2073.6666666654596,0.38100395,-0.4894052,-0.07260277,-2.6582313,-0.57196194,1.7433894,0.8053177,0.03999737,0.04,-7.8362837,-4.186666965484619,-4.164531,0.004093374,-0.011399339884519577,-0.003668897
2073.6833333321265,0.38101646,-0.4893953,-0.07260526,-2.658243,-0.57198143,1.7433957,0.80531836,0.03999737,0.04,-7.836097,-4.186645030975342,-4.164608,0.004203545,-0.01143312081694603,-0.003563284
2073.6999999987934,0.38102794,-0.48938626,-0.07260757,-2.6582525,-0.5719992,1.7434019,0.80531895,0.039997365,0.04,-7.8359756,-4.186665058135986,-4.1647124,0.004307248,-0.011465933173894882,-0.0034667875
2073.7166666654603,0.38103846,-0.48937792,-0.07260968,-2.6582603,-0.5720156,1.743408,0.80531955,0.039997365,0.04,-7.8356166,-4.18651008605957,-4.1648064,0.004399026,-0.011489293538033962,-0.0033775952
2073.733333332127,0.38104832,-0.4893703,-0.07261159,-2.6582675,-0.5720306,1.7434111,0.8053201,0.039997365,0.04,-7.8353357,-4.186407089233398,-4.1648827,0.0044811303,-0.01150570809841156,-0.00329511
2073.749999998794,0.38105738,-0.48936322,-0.072613396,-2.658274,-0.5720445,1.743414,0.8053206,0.039997365,0.04,-7.835195,-4.186373233795166,-4.164867,0.0045571607,-0.011531560681760311,-0.003218636
2073.766666665461,0.38106564,-0.4893568,-0.07261503,-2.6582797,-0.57205725,1.743417,0.8053211,0.039997365,0.04,-7.835042,-4.186346054077148,-4.164943,0.0046264087,-0.011554251424968243,-0.0031482333
2073.7833333321278,0.38107312,-0.48935077,-0.07261654,-2.658285,-0.57206917,1.7434198,0.80532146,0.039997365,0.04,-7.8348746,-4.186305522918701,-4.1649976,0.0046894695,-0.011573221534490585,-0.0030835408
2073.7999999987946,0.38108018,-0.48934528,-0.07261793,-2.6582897,-0.57207996,1.7434225,0.8053218,0.039997365,0.04,-7.584609,-4.078792572021484,-4.1153216,0.0,-0.0,0.0
2073.8166666654615,0.38108018,-0.48934528,-0.07261793,-2.6582897,-0.57207996,1.7434225,0.8053218,0.039997365,0.04,-7.8341284,-4.185506343841553,-4.1646223,0.0,-0.0,0.0
2073.8333333321284,0.38108018,-0.48934528,-0.07261793,-2.6582897,-0.57207996,1.7434225,0.8053218,0.039997365,0.04,-7.8341284,-4.185506343841553,-4.1646223,0.0,-0.0,0.0
2073.8499999987953,0.38108018,-0.48934528,-0.07261793,-2.6582897,-0.57207996,1.7434225,0.8053218,0.039997365,0.04,-7.8341284,-4.185506343841553,-4.1646223,0.0,-0.0,0.0
2073.866666665462,0.38108018,-0.48934528,-0.07261793,-2.6582897,-0.57207996,1.7434225,0.8053218,0.039997365,0.04,-7.8341284,-4.185506343841553,-4.1646223,0.0,-0.0,0.0
2073.883333332129,0.38108018,-0.48934528,-0.07261793,-2.6582897,-0.57207996,1.7434225,0.8053218,0.039997365,0.04,-7.8341284,-4.185506343841553,-4.1646223,0.0,-0.0,0.0
2073.899999998796,0.38108018,-0.48934528,-0.07261793,-2.6582897,-0.57207996,1.7434225,0.8053218,0.039997365,0.04,-7.8341284,-4.185506343841553,-4.1646223,0.0,-0.0,0.0
2073.916666665463,0.38108018,-0.48934528,-0.07261793,-2.6582897,-0.57207996,1.7434225,0.8053218,0.039997365,0.04,-7.8341284,-4.185506343841553,-4.1646223,0.0,-0.0,0.0
2073.9333333321297,0.38108018,-0.48934528,-0.07261793,-2.6582897,-0.57207996,1.7434225,0.8053218,0.039997365,0.04,-7.8341284,-4.185506343841553,-4.1646223,0.0,-0.0,0.0
2073.9499999987966,0.38108018,-0.48934528,-0.07261793,-2.6582897,-0.57207996,1.7434225,0.8053218,0.039997365,0.04,-7.8341284,-4.185506343841553,-4.1646223,0.0,-0.0,0.0
2073.9666666654634,0.38108018,-0.48934528,-0.07261793,-2.6582897,-0.57207996,1.7434225,0.8053218,0.039997365,0.04,-7.8341284,-4.185506343841553,-4.1646223,0.0,-0.0,0.0
2073.9833333321303,0.38108018,-0.48934528,-0.07261793,-2.6582897,-0.57207996,1.7434225,0.8053218,0.039997365,0.04,-7.8341284,-4.185506343841553,-4.1646223,0.0,-0.0,0.0
2073.999999998797,0.38108018,-0.48934528,-0.07261793,-2.6582897,-0.57207996,1.7434225,0.8053218,0.039997365,0.04,-7.8341284,-4.185506343841553,-4.1646223,0.0,-0.0,0.0
2074.016666665464,0.38108018,-0.48934528,-0.07261793,-2.6582897,-0.57207996,1.7434225,0.8053218,0.039997365,0.04,-7.8341284,-4.185506343841553,-4.1646223,0.0,-0.0,0.0
2074.033333332131,0.38108018,-0.48934528,-0.07261793,-2.6582897,-0.57207996,1.7434225,0.8053218,0.039997365,0.04,-7.8341284,-4.185506343841553,-4.1646223,0.0,-0.0,0.0
2074.049999998798,0.38108018,-0.48934528,-0.07261793,-2.6582897,-0.57207996,1.7434225,0.8053218,0.039997365,0.04,-7.8341284,-4.185506343841553,-4.1646223,0.0,-0.0,0.0
2074.0666666654647,0.38108018,-0.48934528,-0.07261793,-2.6582897,-0.57207996,1.7434225,0.8053218,0.039997365,0.04,-7.8341284,-4.185506343841553,-4.1646223,0.0,-0.0,0.0
2074.0833333321316,0.38108018,-0.48934528,-0.07261793,-2.6582897,-0.57207996,1.7434225,0.8053218,0.039997365,0.04,-7.8341284,-4.185506343841553,-4.1646223,0.0,-0.0,0.0
2074.0999999987985,0.38108018,-0.48934528,-0.07261793,-2.6582897,-0.57207996,1.7434225,0.8053218,0.039997365,0.04,-7.8341284,-4.185506343841553,-4.1646223,0.0,-0.0,0.0
2074.1166666654653,0.38108018,-0.48934528,-0.07261793,-2.6582897,-0.57207996,1.7434225,0.8053218,0.039997365,0.04,-7.8341284,-4.185506343841553,-4.1646223,0.0,-0.0,0.0
2074.133333332132,0.38108018,-0.48934528,-0.07261793,-2.6582897,-0.57207996,1.7434225,0.8053218,0.039997365,0.04,-7.8341284,-4.185506343841553,-4.1646223,0.0,-0.0,0.0
2074.149999998799,0.38108018,-0.48934528,-0.07261793,-2.6582897,-0.57207996,1.7434225,0.8053218,0.039997365,0.04,-7.8341284,-4.185506343841553,-4.1646223,0.0,-0.0,0.0
2074.166666665466,0.38108018,-0.48934528,-0.07261793,-2.6582897,-0.57207996,1.7434225,0.8053218,0.039997365,0.04,-7.8341284,-4.185506343841553,-4.1646223,0.0,-0.0,0.0
2074.183333332133,0.38108018,-0.48934528,-0.07261793,-2.6582897,-0.57207996,1.7434225,0.8053218,0.039997365,0.04,-7.8341284,-4.185506343841553,-4.1646223,0.0,-0.0,0.0
2074.1999999987997,0.38108018,-0.48934528,-0.07261793,-2.6582897,-0.57207996,1.7434225,0.8053218,0.039997365,0.04,-7.8341284,-4.185506343841553,-4.1646223,0.0,-0.0,0.0
2074.2166666654666,0.38108018,-0.48934528,-0.07261793,-2.6582897,-0.57207996,1.7434225,0.8053218,0.039997365,0.04,-7.8341284,-4.185506343841553,-4.1646223,0.0,-0.0,0.0
2074.2333333321335,0.38108018,-0.48934528,-0.07261793,-2.6582897,-0.57207996,1.7434225,0.8053218,0.039997365,0.04,-7.8341284,-4.185506343841553,-4.1646223,0.0,-0.0,0.0
2074.2499999988004,0.38108018,-0.48934528,-0.07261793,-2.6582897,-0.57207996,1.7434225,0.8053218,0.039997365,0.04,-7.8341284,-4.185506343841553,-4.1646223,0.0,-0.0,0.0
2074.2666666654673,0.38108018,-0.48934528,-0.07261793,-2.6582897,-0.57207996,1.7434225,0.8053218,0.039997365,0.04,-7.8341284,-4.185506343841553,-4.1646223,0.0,-0.0,0.0
2074.283333332134,0.38108018,-0.48934528,-0.07261793,-2.6582897,-0.57207996,1.7434225,0.8053218,0.039997365,0.04,-7.8341284,-4.185506343841553,-4.1646223,0.0,-0.0,0.0
2074.299999998801,0.38108018,-0.48934528,-0.07261793,-2.6582897,-0.57207996,1.7434225,0.8053218,0.039997365,0.04,-7.8341284,-4.185506343841553,-4.1646223,0.0,-0.0,0.0
2074.316666665468,0.38108018,-0.48934528,-0.07261793,-2.6582897,-0.57207996,1.7434225,0.8053218,0.039997365,0.04,-7.8341284,-4.185506343841553,-4.1646223,0.0,-0.0,0.0
2074.3333333321348,0.38108018,-0.48934528,-0.07261793,-2.6582897,-0.57207996,1.7434225,0.8053218,0.039997365,0.04,-7.8341284,-4.185506343841553,-4.1646223,0.0,-0.0,0.0
2074.3499999988016,0.38108018,-0.48934528,-0.07261793,-2.6582897,-0.57207996,1.7434225,0.8053218,0.039997365,0.04,-7.8341284,-4.185506343841553,-4.1646223,0.0,-0.0,0.0
2074.3666666654685,0.38108018,-0.48934528,-0.07261793,-2.6582897,-0.57207996,1.7434225,0.8053218,0.039997365,0.04,-7.8341284,-4.185506343841553,-4.1646223,0.0,-0.0,0.0
2074.3833333321354,0.38108018,-0.48934528,-0.07261793,-2.6582897,-0.57207996,1.7434225,0.8053218,0.039997365,0.04,-7.8341284,-4.185506343841553,-4.1646223,0.0,-0.0,0.0
2074.3999999988023,0.38108018,-0.48934528,-0.07261793,-2.6582897,-0.57207996,1.7434225,0.8053218,0.039997365,0.04,-7.8341284,-4.185506343841553,-4.1646223,0.0,-0.0,0.0
2074.416666665469,0.38108018,-0.48934528,-0.07261793,-2.6582897,-0.57207996,1.7434225,0.8053218,0.039997365,0.04,-7.8341284,-4.185506343841553,-4.1646223,0.0,-0.0,0.0
2074.433333332136,0.38108018,-0.48934528,-0.07261793,-2.6582897,-0.57207996,1.7434225,0.8053218,0.039997365,0.04,-7.8341284,-4.185506343841553,-4.1646223,0.0,-0.0,0.0
2074.449999998803,0.38108018,-0.48934528,-0.07261793,-2.6582897,-0.57207996,1.7434225,0.8053218,0.039997365,0.04,-7.8341284,-4.185506343841553,-4.1646223,0.0,-0.0,0.0
2074.46666666547,0.38108018,-0.48934528,-0.07261793,-2.6582897,-0.57207996,1.7434225,0.8053218,0.039997365,0.04,-7.8341284,-4.185506343841553,-4.1646223,0.0,-0.0,0.0
2074.4833333321367,0.38108018,-0.48934528,-0.07261793,-2.6582897,-0.57207996,1.7434225,0.8053218,0.039997365,0.04,-7.8341284,-4.185506343841553,-4.1646223,0.0,-0.0,0.0
2074.4999999988036,0.38108018,-0.48934528,-0.07261793,-2.6582897,-0.57207996,1.7434225,0.8053218,0.039997365,0.04,-7.8341284,-4.185506343841553,-4.1646223,0.0,-0.0,0.0
2074.5166666654704,0.38108018,-0.48934528,-0.07261793,-2.6582897,-0.57207996,1.7434225,0.8053218,0.039997365,0.04,-7.8341284,-4.185506343841553,-4.1646223,0.0,-0.0,0.0
2074.5333333321373,0.38108018,-0.48934528,-0.07261793,-2.6582897,-0.57207996,1.7434225,0.8053218,0.039997365,0.04,-7.8341284,-4.185506343841553,-4.1646223,0.0,-0.0,0.0
2074.549999998804,0.38108018,-0.48934528,-0.07261793,-2.6582897,-0.57207996,1.7434225,0.8053218,0.039997365,0.04,-7.8341284,-4.185506343841553,-4.1646223,0.0,-0.0,0.0
2074.566666665471,0.38108018,-0.48934528,-0.07261793,-2.6582897,-0.57207996,1.7434225,0.8053218,0.039997365,0.04,-7.8341284,-4.185506343841553,-4.1646223,0.0,-0.0,0.0
2074.583333332138,0.38108018,-0.48934528,-0.07261793,-2.6582897,-0.57207996,1.7434225,0.8053218,0.039997365,0.04,-7.8341284,-4.185506343841553,-4.1646223,0.0,-0.0,0.0
2074.599999998805,0.38108018,-0.48934528,-0.07261793,-2.6582897,-0.57207996,1.7434225,0.8053218,0.039997365,0.04,-7.8341284,-4.185506343841553,-4.1646223,0.0,-0.0,0.0
2074.6166666654717,0.38108018,-0.48934528,-0.07261793,-2.6582897,-0.57207996,1.7434225,0.8053218,0.039997365,0.04,-7.8341284,-4.185506343841553,-4.1646223,0.0,-0.0,0.0
2074.6333333321386,0.38108018,-0.48934528,-0.07261793,-2.6582897,-0.57207996,1.7434225,0.8053218,0.039997365,0.04,-7.8341284,-4.185506343841553,-4.1646223,0.0,-0.0,0.0
2074.6499999988055,0.38108018,-0.48934528,-0.07261793,-2.6582897,-0.57207996,1.7434225,0.8053218,0.039997365,0.04,-7.8341284,-4.185506343841553,-4.1646223,0.0,-0.0,0.0
2074.6666666654723,0.38108018,-0.48934528,-0.07261793,-2.6582897,-0.57207996,1.7434225,0.8053218,0.039997365,0.04,-7.8341284,-4.185506343841553,-4.1646223,0.0,-0.0,0.0
2074.6833333321392,0.38108018,-0.48934528,-0.07261793,-2.6582897,-0.57207996,1.7434225,0.8053218,0.039997365,0.04,-7.8341284,-4.185506343841553,-4.1646223,0.0,-0.0,0.0
2074.699999998806,0.38108018,-0.48934528,-0.07261793,-2.6582897,-0.57207996,1.7434225,0.8053218,0.039997365,0.04,-7.8341284,-4.185506343841553,-4.1646223,0.0,-0.0,0.0
2074.716666665473,0.38108018,-0.48934528,-0.07261793,-2.6582897,-0.57207996,1.7434225,0.8053218,0.039997365,0.04,-7.8341284,-4.185506343841553,-4.1646223,0.0,-0.0,0.0
2074.73333333214,0.38108018,-0.48934528,-0.07261793,-2.6582897,-0.57207996,1.7434225,0.8053218,0.039997365,0.04,-7.8341284,-4.185506343841553,-4.1646223,0.0,-0.0,0.0
2074.7499999988067,0.38108018,-0.48934528,-0.07261793,-2.6582897,-0.57207996,1.7434225,0.8053218,0.039997365,0.04,-7.8341284,-4.185506343841553,-4.1646223,0.0,-0.0,0.0
2074.7666666654736,0.38108018,-0.48934528,-0.07261793,-2.6582897,-0.57207996,1.7434225,0.8053218,0.039997365,0.04,-7.8341284,-4.185506343841553,-4.1646223,0.0,-0.0,0.0
2074.7833333321405,0.38108018,-0.48934528,-0.07261793,-2.6582897,-0.57207996,1.7434225,0.8053218,0.039997365,0.04,-7.8341284,-4.185506343841553,-4.1646223,0.0,-0.0,0.0
2074.7999999988074,0.38108018,-0.48934528,-0.07261793,-2.6582897,-0.57207996,1.7434225,0.8053218,0.039997365,0.04,-7.8341284,-4.185506343841553,-4.1646223,0.0,-0.0,0.0
2074.8166666654743,0.38108018,-0.48934528,-0.07261793,-2.6582897,-0.57207996,1.7434225,0.8053218,0.039997365,0.04,-7.8341284,-4.185506343841553,-4.1646223,0.0,-0.0,0.0
2074.833333332141,0.38108018,-0.48934528,-0.07261793,-2.6582897,-0.57207996,1.7434225,0.8053218,0.039997365,0.04,-7.8341284,-4.185506343841553,-4.1646223,0.0,-0.0,0.0
2074.849999998808,0.38108018,-0.48934528,-0.07261793,-2.6582897,-0.57207996,1.7434225,0.8053218,0.039997365,0.04,-7.8341284,-4.185506343841553,-4.1646223,0.0,-0.0,0.0
2074.866666665475,0.38108018,-0.48934528,-0.07261793,-2.6582897,-0.57207996,1.7434225,0.8053218,0.039997365,0.04,-7.8341284,-4.185506343841553,-4.1646223,0.0,-0.0,0.0
2074.883333332142,0.38108018,-0.48934528,-0.07261793,-2.6582897,-0.57207996,1.7434225,0.8053218,0.039997365,0.04,-7.8341284,-4.185506343841553,-4.1646223,0.0,-0.0,0.0
2074.8999999988087,0.38108018,-0.48934528,-0.07261793,-2.6582897,-0.57207996,1.7434225,0.8053218,0.039997365,0.04,-7.8341284,-4.185506343841553,-4.1646223,0.0,-0.0,0.0
2074.9166666654755,0.38108018,-0.48934528,-0.07261793,-2.6582897,-0.57207996,1.7434225,0.8053218,0.039997365,0.04,-7.8341284,-4.185506343841553,-4.1646223,0.0,-0.0,0.0
2074.9333333321424,0.38108018,-0.48934528,-0.07261793,-2.6582897,-0.57207996,1.7434225,0.8053218,0.039997365,0.04,-7.8341284,-4.185506343841553,-4.1646223,0.0,-0.0,0.0
2074.9499999988093,0.38108018,-0.48934528,-0.07261793,-2.6582897,-0.57207996,1.7434225,0.8053218,0.039997365,0.04,-7.8341284,-4.185506343841553,-4.1646223,0.0,-0.0,0.0
2074.966666665476,0.38108018,-0.48934528,-0.07261793,-2.6582897,-0.57207996,1.7434225,0.8053218,0.039997365,0.04,-7.8341284,-4.185506343841553,-4.1646223,0.0,-0.0,0.0
2074.983333332143,0.38108018,-0.48934528,-0.07261793,-2.6582897,-0.57207996,1.7434225,0.8053218,0.039997365,0.04,-7.8341284,-4.185506343841553,-4.1646223,0.0,-0.0,0.0
2074.99999999881,0.38108018,-0.48934528,-0.07261793,-2.6582897,-0.57207996,1.7434225,0.8053218,0.039997365,0.04,-7.8341284,-4.185506343841553,-4.1646223,0.0,-0.0,0.0
2075.016666665477,0.38108018,-0.48934528,-0.07261793,-2.6582897,-0.57207996,1.7434225,0.8053218,0.039997365,0.04,-7.8341284,-4.185506343841553,-4.1646223,0.0,-0.0,0.0
2075.0333333321437,0.38108018,-0.48934528,-0.07261793,-2.6582897,-0.57207996,1.7434225,0.8053218,0.039997365,0.04,-7.8341284,-4.185506343841553,-4.1646223,0.0,-0.0,0.0
2075.0499999988106,0.38108018,-0.48934528,-0.07261793,-2.6582897,-0.57207996,1.7434225,0.8053218,0.039997365,0.04,-7.8341284,-4.185506343841553,-4.1646223,0.0,-0.0,0.0
2075.0666666654774,0.38108018,-0.48934528,-0.07261793,-2.6582897,-0.57207996,1.7434225,0.8053218,0.039997365,0.04,-7.8341284,-4.185506343841553,-4.1646223,0.0,-0.0,0.0
2075.0833333321443,0.38108018,-0.48934528,-0.07261793,-2.6582897,-0.57207996,1.7434225,0.8053218,0.039997365,0.04,-7.8341284,-4.185506343841553,-4.1646223,0.0,-0.0,0.0
2075.099999998811,0.38108018,-0.48934528,-0.07261793,-2.6582897,-0.57207996,1.7434225,0.8053218,0.039997365,0.04,-7.8341284,-4.185506343841553,-4.1646223,0.0,-0.0,0.0
2075.116666665478,0.38108018,-0.48934528,-0.07261793,-2.6582897,-0.57207996,1.7434225,0.8053218,0.039997365,0.04,-7.8341284,-4.185506343841553,-4.1646223,0.0,-0.0,0.0
2075.133333332145,0.38108018,-0.48934528,-0.07261793,-2.6582897,-0.57207996,1.7434225,0.8053218,0.039997365,0.04,-7.8341284,-4.185506343841553,-4.1646223,0.0,-0.0,0.0
2075.149999998812,0.38108018,-0.48934528,-0.07261793,-2.6582897,-0.57207996,1.7434225,0.8053218,0.039997365,0.04,-7.8341284,-4.185506343841553,-4.1646223,0.0,-0.0,0.0
2075.1666666654787,0.38108018,-0.48934528,-0.07261793,-2.6582897,-0.57207996,1.7434225,0.8053218,0.039997365,0.04,-7.8341284,-4.185506343841553,-4.1646223,0.0,-0.0,0.0
2075.1833333321456,0.38108018,-0.48934528,-0.07261793,-2.6582897,-0.57207996,1.7434225,0.8053218,0.039997365,0.04,-7.8341284,-4.185506343841553,-4.1646223,0.0,-0.0,0.0
2075.1999999988125,0.38108018,-0.48934528,-0.07261793,-2.6582897,-0.57207996,1.7434225,0.8053218,0.039997365,0.04,-7.8341284,-4.185506343841553,-4.1646223,0.0,-0.0,0.0
2075.2166666654794,0.38108018,-0.48934528,-0.07261793,-2.6582897,-0.57207996,1.7434225,0.8053218,0.039997365,0.04,-7.8341284,-4.185506343841553,-4.1646223,0.0,-0.0,0.0
2075.2333333321462,0.38108018,-0.48934528,-0.07261793,-2.6582897,-0.57207996,1.7434225,0.8053218,0.039997365,0.04,-7.8341284,-4.185506343841553,-4.1646223,0.0,-0.0,0.0
2075.249999998813,0.38108018,-0.48934528,-0.07261793,-2.6582897,-0.57207996,1.7434225,0.8053218,0.039997365,0.04,-7.8341284,-4.185506343841553,-4.1646223,0.0,-0.0,0.0
2075.26666666548,0.38108018,-0.48934528,-0.07261793,-2.6582897,-0.57207996,1.7434225,0.8053218,0.039997365,0.04,-7.8341284,-4.185506343841553,-4.1646223,0.0,-0.0,0.0
2075.283333332147,0.38108018,-0.48934528,-0.07261793,-2.6582897,-0.57207996,1.7434225,0.8053218,0.039997365,0.04,-7.8341284,-4.185506343841553,-4.1646223,0.0,-0.0,0.0
2075.2999999988137,0.38108018,-0.48934528,-0.07261793,-2.6582897,-0.57207996,1.7434225,0.8053218,0.039997365,0.04,-7.8341284,-4.185506343841553,-4.1646223,0.0,-0.0,0.0
2075.3166666654806,0.38108018,-0.48934528,-0.07261793,-2.6582897,-0.57207996,1.7434225,0.8053218,0.039997365,0.04,-7.8341284,-4.185506343841553,-4.1646223,0.0,-0.0,0.0
2075.3333333321475,0.38108018,-0.48934528,-0.07261793,-2.6582897,-0.57207996,1.7434225,0.8053218,0.039997365,0.04,-7.8341284,-4.185506343841553,-4.1646223,0.0,-0.0,0.0
2075.3499999988144,0.38108018,-0.48934528,-0.07261793,-2.6582897,-0.57207996,1.7434225,0.8053218,0.039997365,0.04,-7.8341284,-4.185506343841553,-4.1646223,0.0,-0.0,0.0
2075.3666666654813,0.38108018,-0.48934528,-0.07261793,-2.6582897,-0.57207996,1.7434225,0.8053218,0.039997365,0.04,-7.8341284,-4.185506343841553,-4.1646223,0.0,-0.0,0.0
2075.383333332148,0.38108018,-0.48934528,-0.07261793,-2.6582897,-0.57207996,1.7434225,0.8053218,0.039997365,0.04,-7.8341284,-4.185506343841553,-4.1646223,0.0,-0.0,0.0
2075.399999998815,0.38108018,-0.48934528,-0.07261793,-2.6582897,-0.57207996,1.7434225,0.8053218,0.039997365,0.04,-7.8341284,-4.185506343841553,-4.1646223,0.0,-0.0,0.0
