rsonawane2002/My_IMU/logs_2/traj_437/imu_400hz_437.csv
time,j1,j2,j3,j4,j5,j6,j7,gripper1,gripper2,imu_ax,imu_ay,imu_az,imu_gx,imu_gy,imu_gz
0.0,0.00016700293,-0.785875,4.0107683e-05,-2.3551247,9.29385e-05,1.570997,0.786,0.04,0.04,-9.48129,-0.0010520825162529,0.097591855,2.3325401e-07,-0.0011641276068985,8.8876654e-08
0.0025,0.000167003554,-0.7858577740000002,4.0108806649999986e-05,-2.35513919,9.294285299999994e-05,1.570996565,0.786,0.04,0.04,-9.534272249999326,-0.0007982686831414568,0.08431396615016908,2.1029493050029234e-07,-0.0013253155862891525,1.6445671089903766e-07
0.005,0.00016700417799999997,-0.7858405480000005,4.010993029999997e-05,-2.35515368,9.29472059999999e-05,1.57099613,0.786,0.04,0.04,-9.58725449999865,-0.0005444548500300135,0.07103607730033813,1.8733585100058466e-07,-0.0014865035656798052,2.400367677980753e-07
0.0075,0.00016700480199999997,-0.7858233220000007,4.011105394999996e-05,-2.35516817,9.295155899999984e-05,1.5709956950000001,0.786,0.04,0.04,-9.640236749997976,-0.0002906410169185704,0.0577581884505072,1.64376771500877e-07,-0.0016476915450704577,3.156168246971129e-07
0.01,0.00016700542599999997,-0.785806096000001,4.0112177599999944e-05,-2.3551826599999997,9.295591199999978e-05,1.5709952600000001,0.786,0.04,0.04,-9.6932189999973,-3.682718380712698e-05,0.04448029960067627,1.4141769200116933e-07,-0.0018088795244611102,3.9119688159615055e-07
0.0125,0.00016700604999999994,-0.7857888700000011,4.011330124999993e-05,-2.355197149999999,9.296026499999973e-05,1.570994825,0.786,0.04,0.04,-9.746201249996627,0.00021698664930431622,0.03120241075084533,1.1845861250146167e-07,-0.001970067503851763,4.667769384951882e-07
0.015,0.00016700667399999994,-0.7857716440000013,4.011442489999991e-05,-2.355211639999999,9.296461799999967e-05,1.57099439,0.786,0.04,0.04,-9.799183499995952,0.0004708004824157592,0.0179245219010144,9.549953300175402e-08,-0.002131255483242415,5.423569953942258e-07
0.0175,0.0001670077354999998,-0.7857548670000016,4.011572604999984e-05,-2.355225734999999,9.296658880000027e-05,1.57099396,0.786,0.04,0.04,-9.834391450000034,0.0006396611512173827,0.0090020155000208,1.3861987098278325e-07,-0.0022882894496286713,4.769434250341234e-07
0.02,0.00016700967199999973,-0.7857389880000022,4.0117382199999773e-05,-2.355239039999998,9.296379520000038e-05,1.5709935400000001,0.786,0.04,0.04,-9.834050800000048,0.0006386154913344645,0.008790274000029272,3.138990439757689e-07,-0.0024370153900029595,1.295426000480257e-07
0.0225,0.00016701160849999966,-0.7857231090000029,4.01190383499997e-05,-2.3552523449999976,9.29610016000005e-05,1.57099312,0.786,0.04,0.04,-9.83371015000006,0.0006375698314515463,0.008578532500037745,4.891782169687545e-07,-0.002585741330377248,-2.1785822493807187e-07
0.025,0.00016701354499999957,-0.7857072300000035,4.012069449999964e-05,-2.355265649999997,9.29582080000006e-05,1.5709927000000001,0.786,0.04,0.04,-9.833369500000074,0.0006365241715686282,0.008366791000046218,6.644573899617403e-07,-0.0027344672707515366,-5.6525904992417e-07
0.0275,0.0001670154814999995,-0.7856913510000041,4.0122350649999576e-05,-2.3552789549999966,9.295541440000072e-05,1.57099228,0.786,0.04,0.04,-9.833028850000089,0.0006354785116857101,0.008155049500054691,8.39736562954726e-07,-0.0028831932111258248,-9.126598749102677e-07
0.03,0.00016701741799999943,-0.7856754720000048,4.0124006799999505e-05,-2.3552922599999957,9.295262080000083e-05,1.5709918600000001,0.786,0.04,0.04,-9.832688200000101,0.0006344328518027919,0.007943308000063166,1.0150157359477117e-06,-0.003031919151500113,-1.2600606998963653e-06
0.0325,0.00016701935449999936,-0.7856595930000054,4.012566294999944e-05,-2.355305564999995,9.294982720000094e-05,1.57099144,0.786,0.04,0.04,-9.832347550000115,0.0006333871919198738,0.007731566500071639,1.1902949089406974e-06,-0.0031806450918744015,-1.6074615248824635e-06
0.035,0.00016702366599999813,-0.785644570000005,4.012834429999891e-05,-2.355318099999996,9.293491600000717e-05,1.5709910100000002,0.786,0.04,0.04,-9.832084300000076,0.0006327241659165113,0.00751518246007479,1.6057876398168416e-06,-0.0033218269468745605,-2.410059869647705e-06
0.0375,0.00016702916499999822,-0.7856299750000048,4.013153824999896e-05,-2.3553302499999957,9.291394600000687e-05,1.5709905750000002,0.786,0.04,0.04,-9.831859750000072,0.0006322524568532294,0.007296477150071608,2.1413871498246347e-06,-0.0034592367591816846,-3.440256974662694e-06
0.04,0.00016703466399999828,-0.7856153800000045,4.0134732199999e-05,-2.355342399999996,9.289297600000657e-05,1.5709901400000001,0.786,0.04,0.04,-9.83163520000007,0.0006317807477899476,0.0070777718400684255,2.676986659832429e-06,-0.003596646571488809,-4.470454079677686e-06
0.0425,0.00016704016299999837,-0.7856007850000043,4.013792614999905e-05,-2.3553545499999964,9.287200600000625e-05,1.5709897050000001,0.786,0.04,0.04,-9.831410650000066,0.0006313090387266657,0.006859066530065242,3.2125861698402233e-06,-0.0037340563837959338,-5.500651184692679e-06
0.045,0.00016704566199999844,-0.7855861900000041,4.01411200999991e-05,-2.3553666999999967,9.285103600000595e-05,1.57098927,0.786,0.04,0.04,-9.831186100000062,0.0006308373296633839,0.006640361220062061,3.7481856798480166e-06,-0.0038714661961030583,-6.530848289707667e-06
0.0475,0.00016705116099999853,-0.7855715950000038,4.014431404999914e-05,-2.3553788499999966,9.283006600000564e-05,1.570988835,0.786,0.04,0.04,-9.83096155000006,0.000630365620600102,0.006421655910058877,4.283785189855811e-06,-0.004008876008410183,-7.56104539472266e-06
0.05,0.0001670566599999986,-0.7855570000000036,4.014750799999919e-05,-2.355390999999997,9.280909600000533e-05,1.5709884,0.786,0.04,0.04,-9.830737000000056,0.0006298939115368202,0.006202950600055695,4.819384699863605e-06,-0.004146285820717308,-8.591242499737651e-06
0.0525,0.00016706896449999672,-0.7855435750000035,4.0153690249998346e-05,-2.355402129999997,9.275418910001467e-05,1.5709879800000002,0.786,0.04,0.04,-9.830480500000068,0.0006295770144788648,0.006020455710048798,5.886689044714611e-06,-0.004273269558291381,-1.0596227174463882e-05
0.055,0.00016708126899999656,-0.7855301500000037,4.015987249999827e-05,-2.3554132599999966,9.269928220001538e-05,1.57098756,0.786,0.04,0.04,-9.83022400000007,0.0006292601174209488,0.005837960820051121,6.953993389701022e-06,-0.0044002532958627985,-1.2601211849438355e-05
0.0575,0.0001670935734999964,-0.7855167250000039,4.016605474999819e-05,-2.3554243899999965,9.264437530001607e-05,1.5709871400000002,0.786,0.04,0.04,-9.829967500000075,0.0006289432203630328,0.005655465930053445,8.021297734687433e-06,-0.004527237033434217,-1.4606196524412827e-05
0.06,0.00016710587799999624,-0.7855033000000041,4.017223699999811e-05,-2.3554355199999963,9.258946840001678e-05,1.57098672,0.786,0.04,0.04,-9.829711000000078,0.0006286263233051168,0.005472971040055769,9.088602079673842e-06,-0.004654220771005635,-1.6611181199387296e-05
0.0625,0.00016711818249999608,-0.7854898750000042,4.0178419249998034e-05,-2.355446649999996,9.253456150001748e-05,1.5709863000000002,0.786,0.04,0.04,-9.82945450000008,0.0006283094262472008,0.005290476150058092,1.0155906424660251e-05,-0.004781204508577053,-1.8616165874361765e-05
0.065,0.00016713048699999592,-0.7854764500000044,4.0184601499997956e-05,-2.355457779999996,9.247965460001817e-05,1.57098588,0.786,0.04,0.04,-9.829198000000085,0.0006279925291892849,0.005107981260060416,1.1223210769646664e-05,-0.004908188246148471,-2.062115054933624e-05
0.0675,0.000167146442999992,-0.7854633875000042,4.019239099999622e-05,-2.3554685499999963,9.240723450003694e-05,1.57098557,0.786,0.04,0.03999999975,-9.82894890000008,0.0006274854589722101,0.004930898800057157,1.251374839940284e-05,-0.005032071238343158,-2.3000798798924298e-05
0.07,0.00016716970199999172,-0.7854510500000044,4.020339499999608e-05,-2.355478599999996,9.229978800003831e-05,1.57098548,0.786,0.04,0.039999999,-9.828714600000083,0.0006265980424362363,0.004764641200059274,1.4250752599380725e-05,-0.005149752739774904,-2.612977419888446e-05
0.0725,0.00016719296099999142,-0.7854387125000045,4.021439899999594e-05,-2.3554886499999963,9.219234150003967e-05,1.5709853900000001,0.786,0.04,0.03999999825,-9.828480300000086,0.0006257106259002626,0.004598383600061392,1.59877567993586e-05,-0.00526743424120665,-2.9258749598844605e-05
0.075,0.00016721621999999113,-0.7854263750000047,4.0225402999995796e-05,-2.355498699999996,9.208489500004105e-05,1.5709853,0.786,0.04,0.0399999975,-9.828246000000089,0.000624823209364289,0.004432126000063509,1.7724760999336482e-05,-0.005385115742638397,-3.2387724998804765e-05
0.0775,0.00016723947899999084,-0.7854140375000049,4.0236406999995655e-05,-2.355508749999996,9.197744850004242e-05,1.5709852100000001,0.786,0.04,0.03999999675,-9.828011700000092,0.0006239357928283153,0.0042658684000656255,1.946176519931437e-05,-0.005502797244070144,-3.551670039876493e-05
0.08,0.00016726273799999054,-0.7854017000000051,4.024741099999552e-05,-2.3555187999999956,9.187000200004378e-05,1.57098512,0.786,0.04,0.039999996,-9.827777400000096,0.0006230483762923416,0.004099610800067742,2.1198769399292252e-05,-0.00562047874550189,-3.864567579872509e-05
0.0825,0.00016728599699999022,-0.7853893625000052,4.025841499999538e-05,-2.355528849999996,9.176255550004515e-05,1.5709850300000001,0.786,0.04,0.03999999525,-9.8275431000001,0.0006221609597563679,0.003933353200069859,2.2935773599270136e-05,-0.005738160246933637,-4.177465119868525e-05
0.085,0.00016731988399998303,-0.785377675000005,4.0274118699992185e-05,-2.3555386799999956,9.160202850008099e-05,1.57098504,0.7860001899999999,0.04,0.0399999955,-9.827283400000118,0.0006198750517809523,0.0037791042400641774,2.5270561698859832e-05,-0.005848980555264269,-4.60430436979055e-05
0.08750000000000001,0.00016735908499998254,-0.7853663125000051,4.029217224999195e-05,-2.3555483999999955,9.141496125008337e-05,1.5709851000000001,0.7860004749999999,0.04,0.03999999625,-9.827011000000121,0.0006168898980844804,0.003630859600066065,2.7904241748826302e-05,-0.005956370267037792,-5.088114474784391e-05
0.09,0.00016739828599998202,-0.7853549500000052,4.0310225799991726e-05,-2.3555581199999955,9.122789400008575e-05,1.57098516,0.7860007599999999,0.04,0.039999997,-9.826738600000125,0.0006139047443880083,0.0034826149600679533,3.0537921798792756e-05,-0.006063759978811314,-5.571924579778228e-05
0.0925,0.00016743748699998154,-0.7853435875000053,4.0328279349991494e-05,-2.3555678399999955,9.104082675008813e-05,1.57098522,0.7860010449999999,0.04,0.03999999775,-9.826466200000128,0.0006109195906915364,0.0033343703200698406,3.317160184875922e-05,-0.006171149690584837,-6.055734684772068e-05
0.095,0.00016747668799998102,-0.7853322250000055,4.034633289999126e-05,-2.355577559999995,9.085375950009051e-05,1.5709852800000002,0.7860013299999999,0.04,0.0399999985,-9.826193800000132,0.0006079344369950643,0.0031861256800717283,3.580528189872569e-05,-0.00627853940235836,-6.539544789765909e-05
0.0975,0.00016751588899998053,-0.7853208625000057,4.0364386449991035e-05,-2.355587279999995,9.066669225009289e-05,1.57098534,0.7860016149999999,0.04,0.03999999925,-9.825921400000135,0.0006049492832985924,0.0030378810400736155,3.843896194869216e-05,-0.006385929114131882,-7.023354894759749e-05
0.1,0.00016755508999998002,-0.7853095000000058,4.03824399999908e-05,-2.355596999999995,9.047962500009527e-05,1.5709854,0.7860018999999999,0.04,0.04,-9.825649000000139,0.0006019641296021203,0.0028896364000755032,4.1072641998658624e-05,-0.006493318825905405,-7.50716499975359e-05
0.10250000000000001,0.00016761587749996828,-0.7852991095000054,4.041003999998559e-05,-2.3556057299999953,9.01871062501527e-05,1.57098549,0.7860021849999999,0.04,0.04,-9.825556600000048,0.0006003655784305345,0.002735272975080585,4.343817124876508e-05,-0.006595280137791102,-8.146901859666028e-05
0.105,0.00016767666499996749,-0.7852887190000055,4.043763999998524e-05,-2.3556144599999955,8.989458750015644e-05,1.57098558,0.7860024699999999,0.04,0.04,-9.825464200000049,0.0005987670272596549,0.002580909550082551,4.580370049873495e-05,-0.006697241449674033,-8.786638719657878e-05
0.1075,0.00016773745249996672,-0.7852783285000057,4.0465239999984885e-05,-2.3556231899999953,8.960206875016016e-05,1.57098567,0.7860027549999998,0.04,0.04,-9.82537180000005,0.0005971684760887752,0.0024265461250845164,4.8169229748704835e-05,-0.006799202761556965,-9.426375579649734e-05
0.11,0.00016779823999996595,-0.7852679380000058,4.049283999998454e-05,-2.355631919999995,8.930955000016388e-05,1.57098576,0.7860030399999999,0.04,0.04,-9.825279400000051,0.0005955699249178956,0.0022721827000864816,5.0534758998674716e-05,-0.006901164073439897,-0.00010066112439641589
0.1125,0.00016785902749996516,-0.785257547500006,4.0520439999984186e-05,-2.355640649999995,8.90170312501676e-05,1.57098585,0.7860033249999999,0.04,0.04,-9.825187000000053,0.000593971373747016,0.002117819275088447,5.29002882486446e-05,-0.007003125385322828,-0.00010705849299633443
0.115,0.0001679198149999644,-0.785247157000006,4.054803999998383e-05,-2.355649379999995,8.872451250017133e-05,1.57098594,0.7860036099999999,0.04,0.04,-9.825094600000053,0.0005923728225761363,0.0019634558500904124,5.526581749861448e-05,-0.00710508669720576,-0.00011345586159625298
0.11750000000000001,0.0001679899169999469,-0.7852370585000057,4.0579760799976084e-05,-2.3556578599999956,8.838674950025628e-05,1.570986045,0.7860038969999998,0.04,0.04,-9.824962600000125,0.0005900750868043869,0.0018198052400731448,5.8060683147813556e-05,-0.007204536069128012,-0.00012047815879504957
0.12,0.00016807864799994577,-0.7852275440000058,4.061972319997558e-05,-2.3556658399999955,8.795849800026174e-05,1.57098618,0.7860041879999998,0.04,0.04,-9.824751400000128,0.000586378981827159,0.0016975802600747015,6.171422159776702e-05,-0.007298961561115469,-0.00012875031319494422
0.1225,0.00016816737899994465,-0.785218029500006,4.0659685599975065e-05,-2.3556738199999954,8.753024650026719e-05,1.5709863149999999,0.7860044789999998,0.04,0.04,-9.824540200000131,0.000582682876849931,0.0015753552800762578,6.53677600477205e-05,-0.007393387053102927,-0.0001370224675948389
0.125,0.00016825610999994352,-0.7852085150000061,4.069964799997456e-05,-2.3556817999999953,8.710199500027265e-05,1.57098645,0.7860047699999998,0.04,0.04,-9.824329000000134,0.0005789867718727031,0.0014531303000778141,6.9021298497674e-05,-0.007487812545090384,-0.00014529462199473357
0.1275,0.0001683448409999424,-0.7851990005000061,4.0739610399974046e-05,-2.355689779999995,8.66737435002781e-05,1.570986585,0.7860050609999998,0.04,0.04,-9.824117800000137,0.0005752906668954752,0.0013309053200793702,7.267483694762747e-05,-0.007582238037077842,-0.00015356677639462825
0.13,0.00016843357199994126,-0.7851894860000063,4.077957279997354e-05,-2.355697759999995,8.624549200028354e-05,1.57098672,0.7860053519999998,0.04,0.04,-9.82390660000014,0.0005715945619182472,0.0012086803400809263,7.632837539758096e-05,-0.0076766635290653,-0.00016183893079452292
0.1325,0.00016852230299994013,-0.7851799715000064,4.0819535199973034e-05,-2.3557057399999946,8.5817240500289e-05,1.570986855,0.7860056429999999,0.04,0.04,-9.823695400000142,0.0005678984569410193,0.0010864553600824826,7.998191384753445e-05,-0.007771089021052758,-0.0001701110851944176
0.135,0.00016863424399991505,-0.785171000000006,4.086976509996193e-05,-2.355713429999995,8.527739860040955e-05,1.57098699,0.7860061209999996,0.04,0.0399999995,-9.823510800000118,0.0005632119602559028,0.0009695166100785867,8.457555259651834e-05,-0.007861549919410295,-0.00017966810899298712
0.1375,0.00016875778999991348,-0.7851623000000061,4.0925128749961225e-05,-2.3557209749999948,8.468176150041712e-05,1.570987125,0.7860066924999995,0.04,0.03999999875,-9.82333950000012,0.0005580302677153288,0.000855220975080042,8.963924149645387e-05,-0.007950028520946813,-0.00018986756749285726
0.14,0.0001688813359999119,-0.7851536000000062,4.0980492399960524e-05,-2.3557285199999947,8.408612440042472e-05,1.5709872599999999,0.7860072639999995,0.04,0.039999998,-9.823168200000122,0.0005528485751747547,0.0007409253400814972,9.47029303963894e-05,-0.008038507122483331,-0.0002000670259927274
0.14250000000000002,0.00016900488199991033,-0.7851449000000064,4.103585604995982e-05,-2.3557360649999946,8.34904873004323e-05,1.570987395,0.7860078354999995,0.04,0.03999999725,-9.822996900000124,0.0005476668826341807,0.0006266297050829524,9.976661929632492e-05,-0.008126985724019849,-0.00021026648449259754
0.145,0.00016912842799990876,-0.7851362000000064,4.109121969995911e-05,-2.3557436099999944,8.289485020043989e-05,1.5709875299999998,0.7860084069999995,0.04,0.0399999965,-9.822825600000126,0.0005424851900936068,0.0005123340700844089,0.0001048303081962604,-0.008215464325556367,-0.00022046594299246757
0.1475,0.00016925197399990719,-0.7851275000000065,4.114658334995841e-05,-2.3557511549999943,8.229921310044748e-05,1.5709876649999999,0.7860089784999995,0.04,0.03999999575,-9.822654300000128,0.0005373034975530327,0.00039803843508586423,0.00010989399709619593,-0.008303942927092885,-0.0002306654014923377
0.15,0.0001693755199999056,-0.7851188000000067,4.12019469999577e-05,-2.355758699999994,8.170357600045506e-05,1.5709878,0.7860095499999995,0.04,0.039999995,-9.822483000000132,0.0005321218050124587,0.00028374280008731944,0.00011495768599613146,-0.008392421528629405,-0.00024086485999220785
0.1525,0.00016954130749987124,-0.7851108275000062,4.127600094994248e-05,-2.355765524999995,8.090306710062177e-05,1.57098795,0.7860101214999995,0.04,0.039999995,-9.822336150000114,0.0005246205080824363,0.00019125017507183996,0.00012036415159580075,-0.008477149577745535,-0.00025337079199028655
0.155,0.00016970709499986912,-0.7851028550000063,4.1350054899941535e-05,-2.3557723499999947,8.010255820063196e-05,1.5709880999999999,0.7860106929999995,0.04,0.039999995,-9.822189300000115,0.0005171192111506418,9.875755007301756e-05,0.0001257706171957319,-0.008561877626858802,-0.0002658767239901273
0.1575,0.000169872882499867,-0.7850948825000064,4.142410884994059e-05,-2.3557791749999946,7.930204930064215e-05,1.5709882499999999,0.7860112644999995,0.04,0.039999995,-9.822042450000117,0.0005096179142188473,6.264925074195163e-06,0.00013117708279566307,-0.008646605675972068,-0.00027838265598996805
0.16,0.0001700386699998649,-0.7850869100000065,4.149816279993965e-05,-2.3557859999999944,7.850154040065234e-05,1.5709883999999998,0.7860118359999995,0.04,0.039999995,-9.821895600000119,0.0005021166172870528,-8.622769992462724e-05,0.00013658354839559425,-0.008731333725085335,-0.00029088858798980886
0.1625,0.00017020445749986278,-0.7850789375000066,4.1572216749938704e-05,-2.3557928249999947,7.770103150066253e-05,1.5709885499999998,0.7860124074999995,0.04,0.039999995,-9.82174875000012,0.0004946153203552583,-0.00017872032492344958,0.0001419900139955254,-0.008816061774198601,-0.0003033945199896496
0.165,0.00017037024499986066,-0.7850709650000066,4.164627069993777e-05,-2.3557996499999945,7.690052260067272e-05,1.5709887,0.7860129789999996,0.04,0.039999995,-9.821601900000122,0.0004871140234234638,-0.00027121294992227203,0.00014739647959545658,-0.008900789823311866,-0.00031590045198949036
0.1675,0.0001705527259998178,-0.7850632300000061,4.172771199991879e-05,-2.3558063449999946,7.601921600088022e-05,1.5709890299999996,0.7860136469999993,0.04,0.039999995,-9.821461300000108,0.00047905877728081874,-0.0003676328249119917,0.00015340013049392482,-0.008984028967029633,-0.0003291797629874867
0.17,0.00017076859399982094,-0.7850559700000059,4.182392799992019e-05,-2.3558127799999946,7.497631400086503e-05,1.5709897199999996,0.7860145079999993,0.04,0.039999995,-9.821333200000106,0.0004698956327122404,-0.0004719071999135092,0.00016059815199402958,-0.009064290299945026,-0.00034400583198770246
0.17250000000000001,0.0001709844619998241,-0.7850487100000059,4.192014399992159e-05,-2.355819214999995,7.393341200084986e-05,1.5709904099999996,0.7860153689999992,0.04,0.039999995,-9.821205100000103,0.00046073248814366204,-0.0005761815749150267,0.00016779617349413432,-0.00914455163286042,-0.00035883190098791816
0.17500000000000002,0.00017120032999982723,-0.7850414500000058,4.201635999992299e-05,-2.355825649999995,7.289051000083468e-05,1.5709910999999996,0.7860162299999993,0.04,0.039999995,-9.821077000000102,0.0004515693435750837,-0.0006804559499165441,0.00017499419499423908,-0.009224812965775812,-0.000373657969988134
0.1775,0.00017141619799983037,-0.7850341900000057,4.211257599992439e-05,-2.355832084999995,7.184760800081951e-05,1.5709917899999994,0.7860170909999993,0.04,0.039999995,-9.8209489000001,0.00044240619900650545,-0.0007847303249180605,0.00018219221649434374,-0.009305074298691205,-0.0003884840389883496
0.18,0.00017163206599983351,-0.7850269300000056,4.220879199992579e-05,-2.355838519999995,7.080470600080434e-05,1.5709924799999995,0.7860179519999994,0.04,0.039999995,-9.8208208000001,0.0004332430544379271,-0.0008890046999195779,0.0001893902379944485,-0.009385335631606598,-0.0004033101079885653
0.1825,0.00017184793399983666,-0.7850196700000055,4.230500799992719e-05,-2.3558449549999954,6.976180400078916e-05,1.5709931699999995,0.7860188129999993,0.04,0.039999995,-9.820692700000098,0.00042407990986934876,-0.0009932790749210955,0.00019658825949455327,-0.009465596964521992,-0.0004181361769887811
0.185,0.0001721027129997865,-0.7850128650000051,4.241843719990499e-05,-2.355851289999995,6.852973500103284e-05,1.5709938799999996,0.7860198099999991,0.04,0.0399999955,-9.820572500000091,0.0004127804568365785,-0.0010906329099269012,0.00020424748999385754,-0.009542448911757305,-0.00043465972498647515
0.1875,0.00017237694749977552,-0.7850062875000053,4.254047299990011e-05,-2.355857574999995,6.720308250108592e-05,1.5709945999999995,0.7860208749999991,0.04,0.03999999625,-9.820456250000095,0.00040041284956809843,-0.0011845264749231438,0.00021213732499354184,-0.009617596166146814,-0.00045203201248578
0.19,0.00017265118199976455,-0.7849997100000057,4.266250879989522e-05,-2.3558638599999946,6.587643000113902e-05,1.5709953199999995,0.786021939999999,0.04,0.039999997,-9.8203400000001,0.00038804524229961836,-0.0012784200399193865,0.0002200271599932261,-0.009692743420536321,-0.00046940429998508477
0.1925,0.00017292541649975357,-0.7849931325000059,4.278454459989034e-05,-2.355870144999994,6.45497775011921e-05,1.5709960399999994,0.786023004999999,0.04,0.03999999775,-9.820223750000105,0.0003756776350311383,-0.0013723136049156293,0.00022791699499291037,-0.00976789067492583,-0.0004867765874843896
0.195,0.0001731996509997426,-0.7849865550000062,4.290658039988546e-05,-2.355876429999994,6.322312500124518e-05,1.5709967599999994,0.786024069999999,0.04,0.0399999985,-9.820107500000109,0.0003633100277626582,-0.001466207169911872,0.00023580682999259464,-0.009843037929315337,-0.0005041488749836944
0.1975,0.00017347388549973164,-0.7849799775000065,4.302861619988058e-05,-2.3558827149999937,6.189647250129828e-05,1.5709974799999993,0.7860251349999989,0.04,0.03999999925,-9.819991250000113,0.00035094242049417813,-0.0015601007349081146,0.0002436966649922789,-0.009918185183704844,-0.0005215211624829992
0.2,0.00017374811999972065,-0.7849734000000067,4.315065199987569e-05,-2.3558889999999937,6.056982000135136e-05,1.5709981999999993,0.7860261999999989,0.04,0.04,-9.819875000000119,0.000338574813225698,-0.0016539942999043574,0.0002515864999919632,-0.009993332438094353,-0.0005388934499823041
0.2025,0.00017408927849964814,-0.7849674600000062,4.3302292999843605e-05,-2.3558944449999943,5.892014280170141e-05,1.5709994149999988,0.7860274299999988,0.04,0.04,-9.819779300000098,0.0003240884332775057,-0.001718984169932972,0.00026072053999057947,-0.010067061614169124,-0.000558676949979596
0.20500000000000002,0.0001744304369996438,-0.7849615200000062,4.345393399984167e-05,-2.355899889999994,5.727046560172242e-05,1.5710006299999988,0.7860286599999987,0.04,0.04,-9.819683600000099,0.00030960205332715516,-0.0017839740399321446,0.0002698545799904632,-0.01014079079024245,-0.0005784604499793442
0.20750000000000002,0.00017477159549963945,-0.7849555800000063,4.360557499983974e-05,-2.3559053349999943,5.562078840174342e-05,1.5710018449999987,0.7860298899999987,0.04,0.04,-9.819587900000101,0.0002951156733768046,-0.001848963909931317,0.0002789886199903469,-0.010214519966315776,-0.0005982439499790923
0.21,0.0001751127539996351,-0.7849496400000063,4.375721599983781e-05,-2.355910779999994,5.3971111201764447e-05,1.5710030599999987,0.7860311199999988,0.04,0.04,-9.819492200000102,0.00028062929342645415,-0.001913953779930489,0.0002881226599902305,-0.010288249142389102,-0.0006180274499788402
0.2125,0.00017545391249963076,-0.7849437000000065,4.390885699983588e-05,-2.355916224999994,5.232143400178545e-05,1.5710042749999988,0.7860323499999987,0.04,0.04,-9.819396500000103,0.0002661429134761036,-0.0019789436499296617,0.00029725669999011424,-0.010361978318462427,-0.0006378109499785884
0.215,0.00017579507099962642,-0.7849377600000065,4.4060497999833945e-05,-2.355921669999994,5.0671756801806454e-05,1.5710054899999988,0.7860335799999987,0.04,0.04,-9.819300800000104,0.00025165653352575304,-0.002043933519928834,0.0003063907399899979,-0.010435707494535755,-0.0006575944499783364
0.2175,0.0001761614974995381,-0.7849320180000059,4.422331374979488e-05,-2.355927064999994,4.8900140402232696e-05,1.5710067299999986,0.7860349099999984,0.04,0.04,-9.819185200000172,0.00023598970840056548,-0.002113494014912817,0.0003160688249880736,-0.010507279215306026,-0.0006782518574751803
0.22,0.0001765784599995328,-0.784926672000006,4.440847899979252e-05,-2.355932359999994,4.688464560225836e-05,1.5710080199999985,0.7860364399999983,0.04,0.04,-9.819029800000173,0.00021796199291398,-0.002192195759911815,0.00032683499998793655,-0.01057453602544876,-0.000700657079974895
0.2225,0.0001769954224995275,-0.7849213260000061,4.4593644249790165e-05,-2.355937654999994,4.486915080228402e-05,1.5710093099999987,0.7860379699999983,0.04,0.04,-9.818874400000176,0.00019993427742739453,-0.002270897504910813,0.00033760117498779946,-0.010641792835591492,-0.0007230623024746097
0.225,0.00017741238499952217,-0.7849159800000062,4.47788094997878e-05,-2.355942949999994,4.285365600230968e-05,1.5710105999999986,0.7860394999999982,0.04,0.04,-9.818719000000177,0.00018190656194080906,-0.0023495992499098107,0.00034836734998766237,-0.010709049645734227,-0.0007454675249743245
0.2275,0.00017782934749951688,-0.7849106340000062,4.496397474978545e-05,-2.355948244999994,4.083816120233534e-05,1.5710118899999985,0.7860410299999983,0.04,0.04,-9.81856360000018,0.00016387884645422359,-0.002428300994908809,0.0003591335249875253,-0.01077630645587696,-0.0007678727474740392
0.23,0.00017824630999951156,-0.7849052880000063,4.514913999978309e-05,-2.3559535399999936,3.8822666402361e-05,1.5710131799999985,0.7860425599999982,0.04,0.04,-9.818408200000182,0.0001458511309676381,-0.002507002739907807,0.00036989969998738823,-0.010843563266019695,-0.0007902779699737539
0.2325,0.00017866327249950624,-0.7848999420000063,4.533430524978073e-05,-2.355958834999994,3.680717160238667e-05,1.5710144699999984,0.7860440899999982,0.04,0.04,-9.818252800000185,0.00012782341548105264,-0.0025857044849068047,0.00038066587498725114,-0.010910820076162427,-0.0008126831924734686
0.23500000000000001,0.00017913688199939926,-0.7848949770000058,4.5544529699733386e-05,-2.3559640399999937,3.451814200290341e-05,1.571016019999998,0.7860458599999978,0.0399999995,0.04,-9.818162200000069,0.00010660265000298712,-0.002645442859939848,0.0003922342199856739,-0.01097778836257206,-0.000836937259969864
0.23750000000000002,0.00017963881499939285,-0.7848902025000057,4.576728374973055e-05,-2.355969199999994,3.20923450029343e-05,1.571017699999998,0.7860477499999977,0.03999999875,0.04,-9.818104000000071,8.378535952064368e-05,-0.0026956995499392085,0.0004042036499855215,-0.011044612387114369,-0.0008621157499695435
0.24,0.00018014074799938646,-0.7848854280000058,4.5990037799727715e-05,-2.3559743599999936,2.9666548002965208e-05,1.571019379999998,0.7860496399999977,0.039999998,0.04,-9.818045800000071,6.0968069038300484e-05,-0.002745956239938568,0.00041617307998536896,-0.011111436411656676,-0.0008872942399692226
0.2425,0.00018064268099938008,-0.7848806535000059,4.621279184972488e-05,-2.3559795199999938,2.7240751002996096e-05,1.571021059999998,0.7860515299999976,0.03999999725,0.04,-9.817987600000071,3.815077855595704e-05,-0.002796212929937928,0.00042814250998521655,-0.011178260436198986,-0.0009124727299689021
0.245,0.0001811446139993737,-0.7848758790000059,4.6435545899722045e-05,-2.3559846799999935,2.481495400302698e-05,1.5710227399999979,0.7860534199999977,0.0399999965,0.04,-9.817929400000072,1.5333488073613586e-05,-0.002846469619937288,0.0004401119399850642,-0.011245084460741295,-0.0009376512199685815
0.2475,0.00018164654699936728,-0.784871104500006,4.66582999497192e-05,-2.3559898399999937,2.2389157003057865e-05,1.5710244199999979,0.7860553099999976,0.03999999575,0.04,-9.817871200000074,-7.483802408729857e-06,-0.002896726309936648,0.0004520813699849118,-0.011311908485283604,-0.000962829709968261
0.25,0.0001821484799993609,-0.784866330000006,4.688105399971637e-05,-2.3559949999999934,1.996336000308875e-05,1.5710260999999979,0.7860571999999976,0.039999995,0.04,-9.817813000000074,-3.0301092891073312e-05,-0.0029469829999360085,0.0004640507999847594,-0.011378732509825913,-0.0009880081999679403
0.2525,0.000182744701499217,-0.7848620955000055,4.7145505799652694e-05,-2.355999799999994,1.7082892768782946e-05,1.5710279599999977,0.786059464999997,0.039999994250000004,0.03999999925,-9.817739350000096,-5.640010364214636e-05,-0.0029973354799338716,0.00047712521548282924,-0.011443495005284082,-0.0010159001149633693
0.255,0.00018334092299919312,-0.7848578610000057,4.740995759964211e-05,-2.3560045999999937,1.4202425533898212e-05,1.5710298199999975,0.7860617299999969,0.039999993500000004,0.0399999985,-9.817665700000099,-8.2499114397398e-05,-0.0030476879599318565,0.0004901996309823061,-0.011508257500739626,-0.0010437920299622531
0.2575,0.00018393714449916926,-0.7848536265000059,4.767440939963153e-05,-2.3560093999999934,1.132195829901348e-05,1.5710316799999975,0.7860639949999968,0.039999992750000005,0.03999999775,-9.817592050000103,-0.00010859812515264963,-0.0030980404399298415,0.0005032740464817829,-0.011573019996195168,-0.0010716839449611368
0.26,0.00018453336599914542,-0.784849392000006,4.793886119962094e-05,-2.356014199999993,8.441491064128748e-06,1.5710335399999973,0.7860662599999967,0.039999992000000005,0.039999997,-9.817518400000106,-0.00013469713590790128,-0.003148392919927827,0.0005163484619812597,-0.011637782491650712,-0.0010995758599600207
0.2625,0.00018512958749912156,-0.7848451575000062,4.820331299961036e-05,-2.356018999999993,5.561023829244015e-06,1.5710353999999973,0.7860685249999966,0.03999999125,0.03999999625,-9.817444750000108,-0.00016079614666315292,-0.003198745399925812,0.0005294228774807365,-0.011702544987106257,-0.0011274677749589046
0.265,0.0001857258089990977,-0.7848409230000064,4.846776479959978e-05,-2.356023799999993,2.6805565943592844e-06,1.571037259999997,0.7860707899999966,0.0399999905,0.0399999955,-9.817371100000113,-0.00018689515741840456,-0.003249097879923797,0.0005424972929802133,-0.011767307482561799,-0.0011553596899577885
0.2675,0.00018635664299892528,-0.7848368600000057,4.874752099952352e-05,-2.3560284749999933,-3.6670679980963995e-07,1.5710393049999962,0.7860731599999959,0.0399999899,0.03999999465,-9.817286900000163,-0.00021419964973559021,-0.003293865099948422,0.0005559632044781248,-0.01183152408329392,-0.0011841283299531419
0.27,0.00018705670199893544,-0.7848331400000057,4.905788599952804e-05,-2.3560328999999935,-3.7475625148588407e-06,1.5710417199999964,0.786075739999996,0.0399999896,0.039999993600000006,-9.817181600000161,-0.00024391510519335266,-0.003327461799948911,0.0005702121079783322,-0.01189464889457163,-0.001214650419953586
0.2725,0.00018775676099894563,-0.7848294200000057,4.936825099953255e-05,-2.3560373249999933,-7.128418229908042e-06,1.5710441349999964,0.7860783199999961,0.0399999893,0.03999999255,-9.81707630000016,-0.00027363056065111513,-0.0033610584999493997,0.0005844610114785396,-0.011957773705849337,-0.00124517250995403
0.275,0.00018845681999895582,-0.7848257000000055,4.967861599953707e-05,-2.3560417499999935,-1.0509273944957243e-05,1.5710465499999964,0.7860808999999961,0.039999989,0.039999991500000005,-9.816971000000157,-0.00030334601610887754,-0.0033946551999498886,0.0005987099149787469,-0.012020898517127046,-0.0012756945999544743
0.2775,0.000189156878998966,-0.7848219800000055,4.9988980999541586e-05,-2.3560461749999937,-1.3890129660006443e-05,1.5710489649999966,0.7860834799999962,0.0399999887,0.03999999045,-9.816865700000156,-0.00033306147156663996,-0.0034282518999503775,0.0006129588184789542,-0.012084023328404754,-0.0013062166899549185
0.28,0.0001898569379989762,-0.7848182600000054,5.0299345999546106e-05,-2.356050599999994,-1.7270985375055642e-05,1.5710513799999966,0.7860860599999963,0.0399999884,0.039999989400000005,-9.816760400000154,-0.00036277692702440243,-0.0034618485999508663,0.0006272077219791616,-0.012147148139682463,-0.0013367387799553627
0.28250000000000003,0.00019055699699898636,-0.7848145400000054,5.060971099955062e-05,-2.3560550249999936,-2.0651841090104844e-05,1.5710537949999965,0.7860886399999962,0.0399999881,0.03999998835,-9.816655100000153,-0.0003924923824821649,-0.0034954452999513552,0.0006414566254793689,-0.012210272950960171,-0.001367260869955807
0.28500000000000003,0.00019133272799881905,-0.7848111600000047,5.095353199947665e-05,-2.356059279999994,-2.4397392294298493e-05,1.5710563299999962,0.7860915249999956,0.0399999876,0.0399999876,-9.81656515000012,-0.00042756553733825145,-0.0035330970599424037,0.0006568656139767912,-0.012271379586221936,-0.0013997689899513718
0.28750000000000003,0.00019214629499880872,-0.7848079500000047,5.131408099947206e-05,-2.356063449999994,-2.8325291244248483e-05,1.5710589249999962,0.7860945624999955,0.039999987,0.039999987,-9.816482875000121,-0.00046531754191089575,-0.0035727763499418985,0.0006728546449765877,-0.012331477133469175,-0.0014332701249509452
0.29,0.00019295986199879833,-0.7848047400000048,5.167462999946746e-05,-2.356067619999994,-3.225319019419839e-05,1.5710615199999962,0.7860975999999955,0.0399999864,0.0399999864,-9.816400600000122,-0.0005030695464835393,-0.0036124556399413925,0.0006888436759763838,-0.012391574680716414,-0.0014667712599505179
0.2925,0.00019377342899878797,-0.7848015300000047,5.203517899946287e-05,-2.356071789999994,-3.6181089144148373e-05,1.5710641149999962,0.7861006374999955,0.039999985800000006,0.039999985800000006,-9.816318325000122,-0.0005408215510561836,-0.0036521349299408873,0.0007048327069761803,-0.012451672227963654,-0.0015002723949500913
0.295,0.00019458699599877763,-0.7847983200000048,5.239572799945828e-05,-2.356075959999994,-4.0108988094098366e-05,1.5710667099999962,0.7861036749999954,0.039999985200000004,0.039999985200000004,-9.816236050000123,-0.000578573555628828,-0.003691814219940382,0.0007208217379759766,-0.012511769775210894,-0.0015337735299496649
0.2975,0.00019540056299876727,-0.7847951100000049,5.275627699945368e-05,-2.356080129999994,-4.403688704404836e-05,1.571069304999996,0.7861067124999954,0.0399999846,0.0399999846,-9.816153775000124,-0.0006163255602014723,-0.003731493509939877,0.0007368107689757731,-0.012571867322458134,-0.0015672746649492383
0.3,0.0001962141299987569,-0.7847919000000049,5.3116825999449094e-05,-2.356084299999994,-4.7964785993998345e-05,1.571071899999996,0.7861097499999954,0.039999984,0.039999984,-9.816071500000126,-0.0006540775647741167,-0.003771172799939372,0.0007527997999755695,-0.012631964869705374,-0.0016007757999488119
0.3025,0.0001971509879985566,-0.7847891355000043,5.3531893399360506e-05,-2.3560884549999934,-5.248661009303328e-05,1.5710748999999953,0.7861132449999947,0.0399999834,0.0399999834,-9.815998075000113,-0.0006958575452965251,-0.003786987224975635,0.0007699446799735851,-0.012691442994309183,-0.0016371534099439535
0.305,0.00019808784599854466,-0.7847863710000043,5.3946960799355225e-05,-2.3560926099999935,-5.700843419297571e-05,1.5710778999999953,0.7861167399999947,0.0399999828,0.0399999828,-9.815924650000113,-0.0007376375258250882,-0.0038028016499754335,0.0007870895599733668,-0.012750921118912045,-0.0016735310199434905
0.3075,0.00019902470399853274,-0.7847836065000043,5.436202819934994e-05,-2.3560967649999935,-6.153025829291814e-05,1.5710808999999952,0.7861202349999945,0.0399999822,0.0399999822,-9.815851225000115,-0.0007794175063536512,-0.003818616074975232,0.0008042344399731485,-0.012810399243514908,-0.0017099086299430272
0.31,0.00019996156199852082,-0.7847808420000043,5.477709559934465e-05,-2.3561009199999936,-6.605208239286057e-05,1.5710838999999952,0.7861237299999945,0.0399999816,0.0399999816,-9.815777800000115,-0.0008211974868822143,-0.0038344304999750308,0.0008213793199729302,-0.01286987736811777,-0.001746286239942564
0.3125,0.0002008984199985089,-0.7847780775000044,5.519216299933937e-05,-2.356105074999993,-7.0573906492803e-05,1.5710868999999952,0.7861272249999944,0.039999981,0.039999981,-9.815704375000116,-0.0008629774674107774,-0.0038502449249748294,0.0008385241999727119,-0.012929355492720633,-0.001782663849942101
0.315,0.00020183527799849698,-0.7847753130000044,5.560723039933408e-05,-2.3561092299999933,-7.509573059274543e-05,1.5710898999999954,0.7861307199999944,0.039999980399999996,0.039999980399999996,-9.815630950000116,-0.0009047574479393404,-0.003866059349974628,0.0008556690799724936,-0.012988833617323496,-0.0018190414599416377
0.3175,0.0002028165239982697,-0.7847727115000036,5.60419215992336e-05,-2.3561133849999933,-7.98313459916507e-05,1.5710930899999944,0.7861343789999935,0.03999998,0.03999998,-9.815568300000066,-0.0009488323731724601,-0.003881776399974899,0.0008732795849700165,-0.013048311928190878,-0.001856386569936481
0.32,0.00020388654599825607,-0.7847704360000037,5.651586039922757e-05,-2.3561175399999934,-8.499454399158497e-05,1.5710966599999943,0.7861383659999935,0.03999998,0.03999998,-9.815527200000066,-0.0009974971878480056,-0.0038972986999747015,0.0008918213399697804,-0.013107790611587301,-0.0018956666799359808
0.3225,0.00020495656799824244,-0.7847681605000038,5.698979919922153e-05,-2.356121694999993,-9.015774199151922e-05,1.571100229999994,0.7861423529999935,0.03999998,0.03999998,-9.815486100000067,-0.001046162002523551,-0.003912820999974503,0.0009103630949695444,-0.013167269294983724,-0.0019349467899354806
0.325,0.00020602658999822882,-0.7847658850000038,5.74637379992155e-05,-2.356125849999993,-9.532093999145348e-05,1.5711037999999942,0.7861463399999934,0.03999998,0.03999998,-9.815445000000068,-0.0010948268171990963,-0.003928343299974306,0.0009289048499693082,-0.013226747978380147,-0.0019742268999349806
0.3275,0.0002070966119982152,-0.7847636095000038,5.793767679920946e-05,-2.356130004999993,-0.00010048413799138775,1.571107369999994,0.7861503269999933,0.03999998,0.03999998,-9.815403900000069,-0.0011434916318746418,-0.003943865599974108,0.0009474466049690721,-0.01328622666177657,-0.00201350700993448
0.33,0.00020816663399820157,-0.7847613340000038,5.841161559920343e-05,-2.3561341599999928,-0.000105647335991322,1.571110939999994,0.7861543139999932,0.03999998,0.03999998,-9.815362800000068,-0.0011921564465501872,-0.0039593878999739105,0.0009659883599688361,-0.013345705345172992,-0.00205278711993398
0.3325,0.00020923665599818797,-0.7847590585000038,5.88855543991974e-05,-2.356138314999993,-0.00011081053399125627,1.571114509999994,0.7861583009999933,0.03999998,0.03999998,-9.81532170000007,-0.0012408212612257325,-0.003974910199973713,0.0009845301149686,-0.013405184028569415,-0.00209206722993348
0.335,0.00021040208299793017,-0.7847570900000032,5.9401670599083414e-05,-2.356142409999993,-0.00011643306199001497,1.571118469999993,0.7861626369999923,0.0399999797,0.0399999793,-9.815267100000105,-0.0012929339310166939,-0.003983508029991237,0.0010039996499659894,-0.013463972881336583,-0.002133208449928217
0.3375,0.0002116152124979147,-0.7847552750000031,5.993887549907658e-05,-2.356146474999993,-0.00012228525498994046,1.5711226249999928,0.7861671474999923,0.03999997925,0.03999997825,-9.815205750000105,-0.0013467705283785334,-0.003988643624991172,0.0010239330749657358,-0.013522416818786489,-0.002175280224927681
0.34,0.00021282834199789927,-0.7847534600000031,6.0476080399069734e-05,-2.356150539999993,-0.00012813744798986594,1.5711267799999928,0.7861716579999922,0.0399999788,0.0399999772,-9.815144400000106,-0.0014006071257403729,-0.003993779219991106,0.0010438664999654818,-0.013580860756236395,-0.0022173519999271456
0.3425,0.0002140414714978838,-0.7847516450000032,6.10132852990629e-05,-2.356154604999993,-0.00013398964098979143,1.5711309349999927,0.7861761684999922,0.03999997835,0.03999997615,-9.815083050000107,-0.0014544437231022126,-0.003998914814991041,0.0010637999249652281,-0.0136393046936863,-0.00225942377492661
0.34500000000000003,0.00021525460099786837,-0.7847498300000032,6.155049019905606e-05,-2.356158669999993,-0.00013984183398971692,1.5711350899999927,0.7861806789999921,0.0399999779,0.0399999751,-9.815021700000107,-0.001508280320464052,-0.0040040504099909755,0.0010837333499649745,-0.013697748631136207,-0.0023014955499260745
0.34750000000000003,0.00021646773049785294,-0.7847480150000031,6.208769509904922e-05,-2.3561627349999927,-0.0001456940269896424,1.5711392449999926,0.786185189499992,0.03999997745,0.039999974050000005,-9.814960350000108,-0.0015621169178258916,-0.00400918600499091,0.0011036667749647205,-0.013756192568586113,-0.0023435673249255387
0.35000000000000003,0.00021768085999783747,-0.7847462000000032,6.262489999904238e-05,-2.356166799999993,-0.00015154621998956792,1.5711433999999926,0.786189699999992,0.039999977,0.039999973,-9.81489900000011,-0.0016159535151877313,-0.004014321599990845,0.0011236001999644668,-0.013814636506036019,-0.0023856390999250033
0.3525,0.00021904707349754718,-0.7847448200000025,6.322978249891403e-05,-2.3561708799999925,-0.00015813545298817004,1.5711480649999916,0.7861947849999908,0.0399999764,0.039999972550000006,-9.81485400000008,-0.001679458777538981,-0.004015855349997246,0.0011450054099615703,-0.013872189447180388,-0.0024307706349189734
0.355,0.00022041328699752978,-0.7847434400000025,6.383466499890632e-05,-2.3561749599999926,-0.00016472468598808612,1.5711527299999914,0.7861998699999908,0.039999975800000004,0.0399999721,-9.814809000000082,-0.0017429640399074674,-0.004017389099997226,0.0011664106199612977,-0.01392974238832317,-0.0024759021699183987
0.3575,0.00022177950049751238,-0.7847420600000025,6.443954749889862e-05,-2.3561790399999927,-0.00017131391898800224,1.5711573949999915,0.7862049549999908,0.0399999752,0.03999997165,-9.814764000000082,-0.0018064693022759538,-0.0040189228499972075,0.001187815829961025,-0.013987295329465951,-0.002521033704917824
0.36,0.00022314571399749498,-0.7847406800000025,6.504442999889091e-05,-2.3561831199999923,-0.00017790315198791835,1.5711620599999914,0.7862100399999907,0.0399999746,0.039999971200000005,-9.814719000000082,-0.0018699745646444403,-0.004020456599997188,0.0012092210399607525,-0.014044848270608734,-0.0025661652399172493
0.3625,0.0002245119274974776,-0.7847393000000026,6.564931249888322e-05,-2.3561871999999924,-0.00018449238498783444,1.5711667249999912,0.7862151249999906,0.039999974,0.03999997075,-9.814674000000084,-0.0019334798270129266,-0.004021990349997168,0.0012306262499604801,-0.014102401211751516,-0.0026112967749166746
0.365,0.0002258781409974602,-0.7847379200000025,6.625419499887552e-05,-2.3561912799999924,-0.00019108161798775055,1.5711713899999913,0.7862202099999905,0.0399999734,0.03999997030000001,-9.814629000000084,-0.001996985089381413,-0.004023524099997148,0.0012520314599602075,-0.014159954152894299,-0.0026564283099161
0.3675,0.0002272987099971376,-0.7847366865000018,6.68831044987329e-05,-2.356195359999992,-0.0001979324919861975,1.5711762349999903,0.7862254999999894,0.03999997285,0.03999996980000001,-9.814587100000066,-0.0020626644486181713,-0.0040214659200172986,0.0012738719499574907,-0.014217537222322196,-0.002702537419910036
0.37,0.0002288279899971181,-0.7847357460000018,6.756006799872428e-05,-2.356199439999992,-0.0002053066479861036,1.5711814399999902,0.7862311999999892,0.0399999724,0.039999969200000006,-9.814551400000067,-0.002132692001628015,-0.004012223880017416,0.0012965829999572016,-0.014275180548320832,-0.002750601679909424
0.3725,0.00023035726999709864,-0.7847348055000019,6.823703149871565e-05,-2.3562035199999922,-0.00021268080398600972,1.57118664499999,0.7862368999999892,0.039999971950000004,0.039999968600000005,-9.814515700000067,-0.0022027195546378583,-0.004002981840017534,0.0013192940499569125,-0.014332823874319469,-0.002798665939908812
0.375,0.00023188654999707918,-0.7847338650000019,6.891399499870704e-05,-2.356207599999992,-0.00022005495998591584,1.57119184999999,0.7862425999999891,0.0399999715,0.039999968000000004,-9.814480000000067,-0.002272747107647702,-0.003993739800017652,0.0013420050999566233,-0.014390467200318105,-0.0028467301999082002
0.3775,0.00023341582999705972,-0.7847329245000019,6.959095849869842e-05,-2.356211679999992,-0.00022742911598582193,1.5711970549999899,0.786248299999989,0.039999971050000006,0.0399999674,-9.81444430000007,-0.0023427746606575453,-0.003984497760017769,0.001364716149956334,-0.01444811052631674,-0.002894794459907588
0.38,0.00023494510999704022,-0.7847319840000019,7.02679219986898e-05,-2.356215759999992,-0.00023480327198572806,1.57120225999999,0.786253999999989,0.039999970600000004,0.0399999668,-9.81440860000007,-0.0024128022136673884,-0.003975255720017887,0.0013874271999560449,-0.014505753852315376,-0.002942858719906976
0.3825,0.00023647438999702076,-0.7847310435000019,7.094488549868118e-05,-2.356219839999992,-0.00024217742798563418,1.5712074649999899,0.7862596999999889,0.03999997015,0.0399999662,-9.81437290000007,-0.002482829766677232,-0.003966013680018005,0.0014101382499557558,-0.014563397178314013,-0.002990922979906364
0.385,0.0002381190589966619,-0.784730377000001,7.167286439852251e-05,-2.3562239199999917,-0.000250106891983907,1.5712130599999887,0.7862658399999876,0.039999969600000004,0.0399999654,-9.814334600000077,-0.0025587720794918584,-0.003948726290041786,0.0014337753199527429,-0.014621181134021015,-0.0030409413599000045
0.3875,0.00023982142249664022,-0.7847298475000011,7.242635099851292e-05,-2.3562279999999918,-0.00025831400998380246,1.5712188499999886,0.7862721999999874,0.039999969,0.0399999645,-9.814295000000078,-0.002637671772234859,-0.0039274162250420575,0.0014578753999524362,-0.014679035404582819,-0.003091936799899355
0.39,0.00024152378599661854,-0.784729318000001,7.317983759850333e-05,-2.356232079999992,-0.00026652112798369794,1.5712246399999885,0.7862785599999874,0.0399999684,0.0399999636,-9.814255400000079,-0.0027165714649778593,-0.0039061061600423287,0.0014819754799521292,-0.014736889675144622,-0.003142932239898706
0.3925,0.00024322614949659688,-0.784728788500001,7.393332419849373e-05,-2.356236159999992,-0.0002747282459835935,1.5712304299999884,0.7862849199999873,0.0399999678,0.0399999627,-9.81421580000008,-0.0027954711577208597,-0.0038847960950426003,0.0015060755599518223,-0.014794743945706425,-0.0031939276798980567
0.395,0.0002449285129965752,-0.7847282590000011,7.468681079848415e-05,-2.356240239999992,-0.00028293536398348897,1.5712362199999883,0.7862912799999872,0.0399999672,0.039999961800000004,-9.81417620000008,-0.00287437085046386,-0.0038634860300428716,0.0015301756399515155,-0.014852598216268229,-0.0032449231198974074
0.3975,0.0002466308764965535,-0.784727729500001,7.544029739847455e-05,-2.3562443199999916,-0.0002911424819833845,1.5712420099999884,0.7862976399999871,0.0399999666,0.0399999609,-9.814136600000081,-0.0029532705432068606,-0.003842175965043143,0.0015542757199512086,-0.014910452486830032,-0.0032959185598967584
0.4,0.00024833323999653187,-0.7847272000000011,7.619378399846495e-05,-2.3562483999999917,-0.00029934959998328,1.5712477999999883,0.786303999999987,0.039999966,0.03999996,-9.81409700000008,-0.003032170235949861,-0.003820865900043414,0.0015783757999509019,-0.014968306757391836,-0.003346913999896109
0.4025,0.000250218607996135,-0.7847270950000002,7.702815989828954e-05,-2.3562524799999918,-0.00030843743398137005,1.571254189999987,0.7863110349999856,0.039999966,0.03999996,-9.814046600000104,-0.003118857869234956,-0.003791933030059312,0.001603823764947832,-0.015026115206883043,-0.0034008326398894673
0.405,0.000252103975996111,-0.7847269900000002,7.786253579827892e-05,-2.356256559999992,-0.0003175252679812543,1.5712605799999868,0.7863180699999854,0.039999966,0.03999996,-9.813996200000105,-0.0032055455025359176,-0.0037630001600596806,0.0016292717299475079,-0.015083923656374157,-0.003454751279888781
0.40750000000000003,0.000253989343996087,-0.7847268850000002,7.869691169826829e-05,-2.3562606399999915,-0.0003266131019811386,1.5712669699999868,0.7863251049999854,0.039999966,0.03999996,-9.813945800000104,-0.0032922331358368785,-0.0037340672900600487,0.0016547196949471838,-0.015141732105865271,-0.0035086699198880944
0.41000000000000003,0.00025587471199606303,-0.7847267800000002,7.953128759825766e-05,-2.3562647199999915,-0.0003357009359810229,1.5712733599999869,0.7863321399999853,0.039999966,0.03999996,-9.813895400000105,-0.00337892076913784,-0.003705134420060417,0.00168016765994686,-0.015199540555356385,-0.003562588559887408
0.41250000000000003,0.000257760079996039,-0.7847266750000002,8.036566349824705e-05,-2.3562687999999916,-0.00034478876998090717,1.5712797499999867,0.7863391749999852,0.039999966,0.03999996,-9.813845000000105,-0.0034656084024388013,-0.0036762015500607856,0.0017056156249465359,-0.015257349004847499,-0.0036165071998867215
0.41500000000000004,0.000259645447996015,-0.7847265700000002,8.120003939823642e-05,-2.3562728799999912,-0.00035387660398079147,1.5712861399999867,0.7863462099999851,0.039999966,0.03999996,-9.813794600000106,-0.003552296035739762,-0.003647268680061154,0.001731063589946212,-0.015315157454338613,-0.003670425839886035
0.4175,0.0002615951389955806,-0.7847266049999994,8.206285399804436e-05,-2.356276979999991,-0.00036327392697870127,1.5712927349999852,0.7863534849999835,0.039999966199999994,0.0399999603,-9.81375010000007,-0.003642325417398574,-0.0036162174850750363,0.0017569620599430136,-0.015373031794901466,-0.0037253153898791536
0.42,0.00026367347599555414,-0.7847269199999993,8.298254599803266e-05,-2.3562811199999913,-0.00037329022797857376,1.571299739999985,0.7863612399999834,0.039999966799999995,0.039999961199999996,-9.813717400000069,-0.0037390382958369175,-0.0035809296400754853,0.0017837615399426722,-0.015431037917609058,-0.0037821467598784303
0.4225,0.0002657518129955277,-0.7847272349999993,8.390223799802095e-05,-2.356285259999991,-0.0003833065289784462,1.571306744999985,0.7863689949999833,0.039999967399999996,0.0399999621,-9.81368470000007,-0.0038357511742752614,-0.0035456417950759348,0.001810561019942331,-0.015489044040316648,-0.0038389781298777065
0.425,0.00026783014999550125,-0.7847275499999993,8.482192999800923e-05,-2.356289399999991,-0.0003933228299783187,1.571313749999985,0.7863767499999832,0.039999968,0.039999963,-9.81365200000007,-0.003932464052713604,-0.0035103539500763842,0.0018373604999419898,-0.01554705016302424,-0.0038958094998769828
0.4275,0.0002699084869954748,-0.7847278649999994,8.574162199799753e-05,-2.356293539999991,-0.0004033391309781912,1.5713207549999848,0.786384504999983,0.0399999686,0.0399999639,-9.81361930000007,-0.004029176931151949,-0.0034750661050768333,0.0018641599799416487,-0.015605056285731831,-0.003952640869876259
0.43,0.0002719868239954483,-0.7847281799999993,8.666131399798582e-05,-2.356297679999991,-0.0004133554319780637,1.5713277599999846,0.786392259999983,0.0399999692,0.039999964799999996,-9.813586600000072,-0.004125889809590292,-0.0034397782600772827,0.0018909594599413075,-0.015663062408439423,-0.004009472239875536
0.4325,0.00027406516099542184,-0.7847284949999993,8.75810059979741e-05,-2.356301819999991,-0.00042337173297793613,1.5713347649999847,0.7864000149999829,0.0399999698,0.039999965699999994,-9.813553900000072,-0.004222602688028636,-0.003404490415077732,0.0019177589399409663,-0.015721068531147013,-0.004066303609874812
0.435,0.0002762787359949045,-0.7847290759999984,8.85604704977454e-05,-2.356305969999991,-0.00043403861997544656,1.5713421899999829,0.786408279999981,0.03999997,0.039999966,-9.813523100000067,-0.004325352003561564,-0.0033621592601024227,0.001945516329936928,-0.015779443830120882,-0.00412506435986659
0.4375,0.0002785599299948132,-0.7847297899999984,8.956982124770501e-05,-2.3563101249999905,-0.0004450307999750067,1.5713498249999827,0.7864167999999806,0.03999997,0.039999966,-9.813493250000068,-0.004431119537671762,-0.0033163064501042575,0.001973752674935798,-0.015838003717229723,-0.0041847897998642004
0.44,0.00028084112399472187,-0.7847305039999983,9.057917199766462e-05,-2.3563142799999905,-0.0004560229799745668,1.5713574599999824,0.7864253199999802,0.03999997,0.039999966,-9.81346340000007,-0.00453688707178196,-0.0032704536401060923,0.002001989019934668,-0.015896563604338564,-0.00424451523986181
0.4425,0.0002831223179946306,-0.7847312179999983,9.158852274762422e-05,-2.35631843499999,-0.0004670151599741269,1.571365094999982,0.78643383999998,0.03999997,0.039999966,-9.81343355000007,-0.004642654605892157,-0.003224600830107927,0.002030225364933538,-0.01595512349144741,-0.0043042406798594205
0.445,0.0002854035119945393,-0.7847319319999984,9.259787349758383e-05,-2.3563225899999902,-0.0004780073399736871,1.5713727299999818,0.7864423599999796,0.03999997,0.039999966,-9.813403700000071,-0.004748422140002355,-0.003178748020109762,0.002058461709932408,-0.01601368337855625,-0.00436396611985703
0.4475,0.000287684705994448,-0.7847326459999983,9.360722424754344e-05,-2.35632674499999,-0.0004889995199732471,1.5713803649999813,0.7864508799999793,0.03999997,0.039999966,-9.813373850000072,-0.004854189674112552,-0.0031328952101115966,0.002086698054931278,-0.01607224326566509,-0.00442369155985464
0.45,0.0002899658999943567,-0.7847333599999983,9.461657499750304e-05,-2.35633089999999,-0.0004999916999728073,1.5713879999999811,0.7864593999999789,0.03999997,0.039999966,-9.813344000000075,-0.00495995720822275,-0.003087042400113432,0.002114934399930148,-0.01613080315277393,-0.00448341699985225
0.4525,0.0002924597624938669,-0.7847344909999973,9.571993674728653e-05,-2.35633508499999,-0.0005120069699704513,1.5713964449999793,0.7864686999999771,0.0399999694,0.0399999651,-9.813294500000122,-0.0050758738300706145,-0.0030310120901377935,0.0021444473199274195,-0.016189561132197102,-0.004546016004846052
0.455,0.0002949536249939032,-0.7847356219999972,9.682329849730259e-05,-2.35633926999999,-0.0005240222399706261,1.5714048899999793,0.7864779999999773,0.0399999688,0.0399999642,-9.813245000000121,-0.005191790451943587,-0.0029749817801369783,0.0021739602399278492,-0.016248319111620762,-0.0046086150098469635
0.4575,0.0002974474874939395,-0.7847367529999972,9.792666024731865e-05,-2.35634345499999,-0.0005360375099708009,1.5714133349999795,0.7864872999999775,0.0399999682,0.039999963300000003,-9.813195500000122,-0.005307707073816559,-0.002918951470136163,0.0022034731599282786,-0.01630707709104442,-0.004671214014847874
0.46,0.00029994134999397577,-0.7847378839999972,9.90300219973347e-05,-2.35634763999999,-0.0005480527799709758,1.5714217799999797,0.7864965999999776,0.0399999676,0.039999962400000005,-9.81314600000012,-0.005423623695689531,-0.0028629211601353473,0.0022329860799287084,-0.01636583507046808,-0.004733813019848785
0.4625,0.00030243521249401206,-0.7847390149999973,0.00010013338374735076,-2.35635182499999,-0.0005600680499711506,1.5714302249999796,0.7865058999999777,0.039999967,0.0399999615,-9.81309650000012,-0.005539540317562503,-0.002806890850134532,0.0022624989999291377,-0.01642459304989174,-0.004796412024849696
0.465,0.00030492907499404836,-0.7847401459999973,0.00010123674549736682,-2.35635600999999,-0.0005720833199713255,1.5714386699999798,0.7865151999999779,0.0399999664,0.0399999606,-9.813047000000118,-0.005655456939435474,-0.0027508605401337163,0.002292011919929567,-0.0164833510293154,-0.004859011029850607
0.4675,0.00030749707049353245,-0.7847414099999963,0.00010237287499713878,-2.3563602599999895,-0.0005844551529688441,1.5714473549999781,0.786524774999976,0.039999966,0.0399999599,-9.813004650000067,-0.005774744297077625,-0.00269313644014551,0.002321992984926384,-0.016542150452592802,-0.004922517139844469
0.47000000000000003,0.00031021333199349784,-0.7847429399999963,0.00010357453999712348,-2.3563646399999896,-0.0005975401119686775,1.5714565199999782,0.7865348999999758,0.039999966,0.0399999596,-9.812976600000068,-0.005900773126330235,-0.0026320247601462877,0.0023529103399259907,-0.016601032763578567,-0.004987837459843637
0.47250000000000003,0.0003129295934934633,-0.7847444699999963,0.00010477620499710818,-2.3563690199999896,-0.000610625070968511,1.571465684999978,0.7865450249999757,0.039999966,0.039999959300000006,-9.812948550000069,-0.0060268019555828455,-0.002570913080147066,0.002383827694925597,-0.016659915074564335,-0.005053157779842806
0.47500000000000003,0.00031564585499342874,-0.7847459999999963,0.00010597786999709289,-2.3563733999999896,-0.0006237100299683443,1.5714748499999778,0.7865551499999756,0.039999966,0.039999959,-9.812920500000068,-0.006152830784835456,-0.002509801400147844,0.002414745049925203,-0.0167187973855501,-0.005118478099841974
0.47750000000000004,0.0003183621164933941,-0.7847475299999963,0.00010717953499707758,-2.356377779999989,-0.0006367949889681777,1.5714840149999776,0.7865652749999754,0.039999966,0.039999958700000005,-9.812892450000069,-0.006278859614088066,-0.002448689720148622,0.0024456624049248098,-0.016777679696535864,-0.005183798419841143
0.48,0.00032107837799335946,-0.7847490599999963,0.00010838119999706225,-2.3563821599999892,-0.0006498799479680109,1.5714931799999776,0.7865753999999753,0.039999966,0.0399999584,-9.81286440000007,-0.006404888443340673,-0.0023875780401494016,0.0024765797599244155,-0.01683656200752163,-0.005249118739840309
0.4825,0.0003237946394933249,-0.7847505899999963,0.00010958286499704695,-2.3563865399999893,-0.0006629649069678442,1.5715023449999774,0.7865855249999751,0.039999966,0.0399999581,-9.812836350000069,-0.006530917272593284,-0.0023264663601501798,0.0025074971149240217,-0.016895444318507393,-0.005314439059839478
0.485,0.000326665623992717,-0.7847523899999953,0.00011085291699677826,-2.3563911299999885,-0.0006767940479649202,1.571512089999975,0.7865962259999729,0.039999966,0.039999958,-9.81281890000003,-0.006665510078549032,-0.002256976260182002,0.0025393276699202444,-0.016955083049685467,-0.0053817270198313555
0.4875,0.00032961396999267947,-0.7847543249999952,0.00011215716249676166,-2.3563958249999883,-0.0006909952799647395,1.5715221249999751,0.7866072149999728,0.039999966,0.039999958,-9.81280675000003,-0.006804384872903784,-0.00218329695018294,0.0025716148249198332,-0.017015099990963883,-0.005449998799830486
0.49,0.00033256231599264194,-0.7847562599999952,0.00011346140799674505,-2.3564005199999882,-0.0007051965119645586,1.571532159999975,0.7866182039999726,0.039999966,0.039999958,-9.81279460000003,-0.006943259667258536,-0.0021096176401838784,0.002603901979919422,-0.0170751169322423,-0.005518270579829617
0.4925,0.0003355106619926044,-0.7847581949999952,0.00011476565349672844,-2.356405214999988,-0.0007193977439643778,1.5715421949999748,0.7866291929999725,0.039999966,0.039999958,-9.81278245000003,-0.007082134461613288,-0.0020359383301848163,0.0026361891349190114,-0.017135133873520714,-0.005586542359828747
0.495,0.00033845900799256683,-0.7847601299999951,0.00011606989899671185,-2.3564099099999885,-0.000733598975964197,1.5715522299999747,0.7866401819999723,0.039999966,0.039999958,-9.81277030000003,-0.00722100925596804,-0.0019622590201857546,0.0026684762899186003,-0.01719515081479913,-0.005654814139827879
0.4975,0.0003414073539925293,-0.7847620649999951,0.00011737414449669524,-2.3564146049999883,-0.0007478002079640162,1.5715622649999745,0.7866511709999722,0.039999966,0.039999958,-9.81275815000003,-0.007359884050322792,-0.0018885797101866927,0.0027007634449181892,-0.017255167756077546,-0.00572308591982701
0.5,0.0003443556999924918,-0.7847639999999951,0.00011867838999667863,-2.3564192999999882,-0.0007620014399638353,1.5715722999999744,0.786662159999972,0.039999966,0.039999958,-9.81274600000003,-0.0074987588446775435,-0.0018149004001876308,0.002733050599917778,-0.017315184697355962,-0.00579135769982614
0.5025000000000001,0.00034754564799183596,-0.7847663249999941,0.0001200894414963887,-2.356424414999987,-0.0007773647084606809,1.5715830999999723,0.7866740519999695,0.039999966,0.039999958,-9.812737000000023,-0.007648097117980519,-0.0017347077752052366,0.002766673834913948,-0.017376249376528125,-0.005862418849818134
0.505,0.00035073559599179527,-0.7847686499999941,0.00012150049299637071,-2.356429529999987,-0.0007927279769604849,1.5715938999999721,0.7866859439999694,0.039999966,0.039999958,-9.812728000000023,-0.007797435391310135,-0.0016545151502062594,0.002800297069913519,-0.01743731405570295,-0.0059334799998172275
0.5075000000000001,0.00035392554399175474,-0.7847709749999939,0.00012291154449635278,-2.356434644999987,-0.0008080912454602896,1.571604699999972,0.7866978359999692,0.039999966,0.039999958,-9.812719000000023,-0.007946773664639757,-0.0015743225252072787,0.002833920304913092,-0.01749837873487778,-0.006004541149816324
0.51,0.00035711549199171405,-0.7847732999999939,0.00012432259599633478,-2.356439759999987,-0.0008234545139600936,1.5716154999999719,0.7867097279999691,0.039999966,0.039999958,-9.812710000000024,-0.008096111937969372,-0.0014941299002083014,0.002867543539912663,-0.017559443414052606,-0.0060756022998154175
0.5125,0.00036030543999167336,-0.7847756249999939,0.0001257336474963168,-2.3564448749999864,-0.0008388177824598977,1.5716262999999717,0.7867216199999689,0.039999966,0.039999958,-9.812701000000024,-0.008245450211298987,-0.0014139372752093242,0.0029011667749122344,-0.01762050809322743,-0.006146663449814511
0.515,0.00036349538799163283,-0.7847779499999938,0.00012714469899629885,-2.3564499899999864,-0.0008541810509597025,1.5716370999999716,0.7867335119999688,0.039999966,0.039999958,-9.812692000000023,-0.008394788484628608,-0.0013337446502103435,0.0029347900099118067,-0.01768157277240226,-0.0062177245998136085
0.5175,0.0003667690339909303,-0.7847804174999927,0.00012859274349598835,-2.3564551199999864,-0.000869946803456324,1.5716481899999692,0.7867457164999662,0.039999966,0.039999958,-9.812691449999956,-0.008548345742320133,-0.0012499244482400502,0.002968833874908052,-0.017743454780262114,-0.006289704364805439
0.52,0.0003702100759908866,-0.7847831699999926,0.00013011477399596898,-2.356460279999986,-0.0008865175239561134,1.5716598599999692,0.7867585459999661,0.039999966,0.039999958,-9.812707799999956,-0.008710340968835405,-0.0011588490922412077,0.003003718999907609,-0.01780697144551138,-0.0063635213598045
0.5225,0.0003736511179908427,-0.7847859224999927,0.0001316368044959496,-2.3564654399999863,-0.000903088244455902,1.5716715299999688,0.7867713754999659,0.039999966,0.039999958,-9.812724149999957,-0.00887233619535067,-0.0010677737362423693,0.003038604124907164,-0.017870488110760644,-0.006437338354803559
0.525,0.00037709215999079897,-0.7847886749999926,0.00013315883499593023,-2.356470599999986,-0.0009196589649556915,1.5716831999999687,0.7867842049999657,0.039999966,0.039999958,-9.812740499999956,-0.00903433142186594,-0.000976698380243527,0.0030734892499067203,-0.017934004776009912,-0.00651115534980262
0.5275,0.0003805332019907551,-0.7847914274999926,0.0001346808654959108,-2.356475759999986,-0.0009362296854554801,1.5716948699999687,0.7867970344999655,0.039999966,0.039999958,-9.812756849999955,-0.009196326648381204,-0.0008856230242446885,0.0031083743749062754,-0.017997521441259177,-0.006584972344801679
0.53,0.00038397424399071135,-0.7847941799999926,0.00013620289599589148,-2.356480919999986,-0.0009528004059552696,1.5717065399999683,0.7868098639999653,0.039999966,0.039999958,-9.812773199999956,-0.009358321874896474,-0.0007945476682458461,0.0031432594999058323,-0.018061038106508446,-0.0066587893398007405
0.5325,0.00038741528599066746,-0.7847969324999926,0.00013772492649587206,-2.356486079999986,-0.0009693711264550581,1.5717182099999683,0.7868226934999653,0.039999966,0.039999958,-9.812789549999955,-0.009520317101411739,-0.0007034723122470076,0.003178144624905387,-0.01812455477175771,-0.006732606334799799
0.535,0.0003910299269899142,-0.7847999449999915,0.0001393236849955391,-2.356491299999986,-0.0009867766699514354,1.5717304699999657,0.7868361729999624,0.039999966,0.039999958,-9.812768300000108,-0.009691013581573807,-0.0006070015928702174,0.003213901919901379,-0.018187997117465812,-0.006808235939791452
0.5375,0.000394731367489867,-0.7848030874999914,0.0001409608074955182,-2.3564965499999855,-0.001004599624951208,1.5717430249999655,0.7868499774999622,0.039999966,0.039999958,-9.81272825000011,-0.009866060688612443,-0.0005078331917714822,0.003250095299900917,-0.018251402303402872,-0.006884771849790476
0.54,0.00039843280798981996,-0.7848062299999914,0.00014259792999549742,-2.3565017999999855,-0.0010224225799509816,1.5717555799999654,0.7868637819999621,0.039999966,0.039999958,-9.81268820000011,-0.010041107795651089,-0.0004086647906727426,0.003286288679900457,-0.018314807489339936,-0.006961307759789504
0.5425,0.0004021342484897727,-0.7848093724999914,0.00014423505249547654,-2.3565070499999856,-0.0010402455349507542,1.5717681349999653,0.7868775864999619,0.039999966,0.039999958,-9.812648150000111,-0.010216154902689725,-0.0003094963895740074,0.003322482059899996,-0.018378212675277,-0.007037843669788528
0.545,0.0004058356889897257,-0.7848125149999913,0.00014587217499545572,-2.3565122999999852,-0.0010580684899505277,1.5717806899999651,0.7868913909999617,0.039999966,0.039999958,-9.81260810000011,-0.01039120200972837,-0.00021032798847526785,0.003358675439899536,-0.018441617861214062,-0.007114379579787555
0.5475,0.0004095371294896785,-0.7848156574999913,0.00014750929749543485,-2.3565175499999853,-0.0010758914449503004,1.571793244999965,0.7869051954999615,0.039999966,0.039999958,-9.812568050000111,-0.010566249116767007,-0.00011115958737653261,0.003394868819899074,-0.018505023047151126,-0.0071909154897865785
0.55,0.00041323856998963147,-0.7848187999999913,0.00014914641999541403,-2.3565227999999854,-0.001093714399950074,1.5718057999999648,0.7869189999999614,0.039999966,0.039999958,-9.812528000000112,-0.010741296223805652,-1.1991186277793037e-05,0.003431062199898614,-0.01856842823308819,-0.007267451399785606
0.5525,0.00041720962648882553,-0.78482236999999,0.0001509027234950578,-2.356528124999985,-0.0011128337899461984,1.571819299999962,0.7869338049999584,0.0399999666,0.0399999583,-9.81249980000008,-0.010928144212286313,9.787611659083559e-05,0.0034684886698946827,-0.01863243244570358,-0.007346670989777078
0.555,0.0004211806829887751,-0.78482593999999,0.00015265902699503547,-2.356533449999985,-0.0011319531799459555,1.5718327999999617,0.7869486099999582,0.0399999672,0.0399999586,-9.81247160000008,-0.011114992200800039,0.00020774341948943918,0.003505915139894207,-0.018696436658320652,-0.007425890579776071
0.5575,0.0004251517394887244,-0.7848295099999899,0.00015441533049501306,-2.356538774999985,-0.0011510725699457117,1.5718462999999616,0.786963414999958,0.0399999678,0.0399999589,-9.812443400000081,-0.011301840189313754,0.0003176107223880379,0.0035433416098937295,-0.01876044087093772,-0.007505110169775061
0.56,0.00042912279598867394,-0.7848330799999897,0.00015617163399499074,-2.3565440999999847,-0.0011701919599454685,1.5718597999999615,0.7869782199999578,0.0399999684,0.0399999592,-9.81241520000008,-0.01148868817782748,0.0004274780252866415,0.003580768079893254,-0.01882444508355479,-0.0075843297597740535
0.5625,0.00043309385248862327,-0.7848366499999897,0.00015792793749496836,-2.3565494249999848,-0.0011893113499452247,1.5718732999999614,0.7869930249999576,0.039999969,0.0399999595,-9.812387000000081,-0.011675536166341198,0.0005373453281852403,0.0036181945498927766,-0.01888844929617186,-0.007663549349773043
0.5650000000000001,0.0004370649089885728,-0.7848402199999897,0.00015968424099494603,-2.356554749999985,-0.0012084307399449817,1.5718867999999613,0.7870078299999574,0.0399999696,0.0399999598,-9.812358800000082,-0.011862384154854922,0.0006472126310838439,0.003655621019892301,-0.018952453508788932,-0.007742768939772036
0.5675,0.00044112885948771667,-0.7848439399999884,0.0001614816044945676,-2.356560174999984,-0.0012279968299408644,1.5719005949999585,0.7870229779999542,0.03999997,0.03999996,-9.812328050000104,-0.012053814902321807,0.0007611970546467426,0.0036934748998881176,-0.019016497302615072,-0.007822868474763395
0.5700000000000001,0.00044537859798766266,-0.7848479599999882,0.0001633610879945437,-2.356565799999984,-0.0012484563199406044,1.5719149799999583,0.7870388119999541,0.03999997,0.03999996,-9.812292200000105,-0.012254411167814073,0.0008834157196451892,0.0037321835998876257,-0.019080620258860388,-0.007904727899762355
0.5725,0.0004496283364876085,-0.7848519799999882,0.00016524057149451974,-2.356571424999984,-0.0012689158099403433,1.5719293649999582,0.7870546459999539,0.03999997,0.03999996,-9.812256350000105,-0.012455007433306329,0.0010056343846436304,0.0037708922998871317,-0.0191447432151057,-0.007986587324761311
0.5750000000000001,0.0004538780749875545,-0.7848559999999882,0.00016712005499449584,-2.3565770499999834,-0.0012893752999400833,1.571943749999958,0.7870704799999536,0.03999997,0.03999996,-9.812220500000105,-0.012655603698798593,0.001127853049642077,0.00380960099988664,-0.019208866171351015,-0.008068446749760271
0.5775,0.00045812781348750025,-0.7848600199999882,0.00016899953849447186,-2.3565826749999834,-0.0013098347899398225,1.5719581349999578,0.7870863139999534,0.03999997,0.03999996,-9.812184650000106,-0.01285619996429085,0.0012500717146405182,0.0038483096998861463,-0.019272989127596327,-0.008150306174759227
0.58,0.000462377551987446,-0.7848640399999881,0.0001708790219944479,-2.3565882999999834,-0.0013302942799395614,1.5719725199999577,0.7871021479999533,0.03999997,0.03999996,-9.812148800000106,-0.013056796229783106,0.0013722903796389591,0.0038870183998856527,-0.01933711208384164,-0.008232165599758184
0.5825,0.000466627290487392,-0.7848680599999881,0.000172758505494424,-2.3565939249999834,-0.0013507537699393014,1.5719869049999575,0.787117981999953,0.03999997,0.03999996,-9.812112950000106,-0.013257392495275373,0.001494509044637406,0.00392572709988516,-0.01940123504008695,-0.008314025024757143
0.585,0.0004710688089864807,-0.784872323999987,0.00017472274499402124,-2.3565999199999816,-0.0013721352999349196,1.5720019699999541,0.7871345339999496,0.03999997,0.03999996,-9.812093500000033,-0.013466968572991945,0.0016267394795911017,0.003965271499880932,-0.01946637649069532,-0.008397616649748358
0.5875,0.000475606217486423,-0.7848767099999869,0.00017672936249399574,-2.3566060999999814,-0.001393977849934642,1.572017374999954,0.7871514449999494,0.03999997,0.03999996,-9.812082250000033,-0.013681034556880715,0.0017639757995893575,0.004005233749880424,-0.01953202718849203,-0.008482074374747283
0.59,0.00048014362598636516,-0.7848810959999868,0.00017873597999397016,-2.3566122799999816,-0.0014158203999343633,1.5720327799999538,0.7871683559999492,0.03999997,0.03999996,-9.812071000000033,-0.013895100540769475,0.001901212119587607,0.004045195999879915,-0.01959767788628874,-0.008566532099746206
0.5925,0.00048468103448630746,-0.7848854819999868,0.00018074259749394463,-2.3566184599999813,-0.0014376629499340857,1.5720481849999535,0.787185266999949,0.03999997,0.03999996,-9.812059750000033,-0.014109166524658245,0.002038448439585863,0.004085158249879406,-0.01966332858408545,-0.008650989824745133
0.595,0.0004892184429862496,-0.7848898679999867,0.00018274921499391905,-2.3566246399999815,-0.0014595054999338073,1.5720635899999533,0.7872021779999487,0.03999997,0.03999996,-9.812048500000033,-0.014323232508547005,0.0021756847595841124,0.0041251204998788964,-0.01972897928188216,-0.008735447549744056
0.5975,0.0004937558514861919,-0.7848942539999867,0.00018475583249389355,-2.3566308199999813,-0.0014813480499335297,1.572078994999953,0.7872190889999485,0.03999997,0.03999996,-9.812037250000033,-0.014537298492435773,0.0023129210795823684,0.004165082749878389,-0.01979462997967887,-0.008819905274742981
0.6,0.0004982932599861341,-0.7848986399999865,0.00018676244999386795,-2.356636999999981,-0.001503190599933251,1.5720943999999528,0.7872359999999484,0.03999997,0.03999996,-9.812026000000033,-0.014751364476324535,0.002450157399580618,0.004205044999877879,-0.019860280677475577,-0.008904362999741905
0.6025,0.0005031270609851668,-0.784903493999985,0.00018890009699344036,-2.3566433599999805,-0.0015264584049285998,1.5721108399999495,0.7872540209999448,0.03999997,0.03999996,-9.812056299999906,-0.014981329952592218,0.002589041244573818,0.0042462282048736245,-0.019928232766479342,-0.008991371249733005
0.605,0.0005079608619851053,-0.784908347999985,0.00019103774399341312,-2.3566497199999805,-0.0015497262099283032,1.5721272799999493,0.7872720419999445,0.03999997,0.03999996,-9.812086599999907,-0.015211295428908481,0.002727925089572047,0.0042874114098730995,-0.019996184855490134,-0.009078379499731896
0.6075,0.0005127946629850438,-0.784913201999985,0.00019317539099338594,-2.3566560799999805,-0.0015729940149280075,1.572143719999949,0.7872900629999443,0.03999997,0.03999996,-9.812116899999905,-0.015441260905224753,0.0028668089345702816,0.0043285946148725754,-0.020064136944500932,-0.009165387749730788
0.61,0.0005176284639849822,-0.784918055999985,0.0001953130379933587,-2.3566624399999805,-0.0015962618199277107,1.5721601599999488,0.787308083999944,0.03999997,0.03999996,-9.812147199999906,-0.015671226381541014,0.0030056927795685104,0.0043697778198720505,-0.020132089033511723,-0.00925239599972968
0.6125,0.0005224622649849207,-0.7849229099999849,0.0001974506849933315,-2.35666879999998,-0.001619529624927415,1.5721765999999486,0.7873261049999438,0.03999997,0.03999996,-9.812177499999905,-0.015901191857857287,0.003144576624566745,0.004410961024871526,-0.02020004112252252,-0.009339404249728574
0.615,0.0005272960659848591,-0.7849277639999849,0.00019958833199330424,-2.35667515999998,-0.0016427974299271183,1.5721930399999484,0.7873441259999435,0.03999997,0.03999996,-9.812207799999904,-0.01613115733417355,0.003283460469564974,0.0044521442298710015,-0.020267993211533313,-0.009426412499727463
0.6175,0.000532231574983838,-0.7849327449999836,0.00020177093449285293,-2.35668154999998,-0.0016665541849222093,1.572209814999945,0.7873625204999398,0.03999997,0.03999996,-9.812220100000074,-0.01636586673480951,0.003427765329512061,0.004493709614866872,-0.02033610092454486,-0.009514255899718478
0.62,0.0005373704999837725,-0.7849379799999835,0.00020404344799282393,-2.3566879999999797,-0.0016912888399218937,1.572227259999945,0.7873816619999395,0.03999997,0.03999996,-9.812196400000074,-0.016610063984218944,0.003582912219510082,0.0045360393598663324,-0.020404519885562307,-0.009603769599717336
0.6225,0.0005425094249837071,-0.7849432149999834,0.00020631596149279504,-2.3566944499999796,-0.0017160234949215793,1.5722447049999446,0.7874008034999394,0.03999997,0.03999996,-9.812172700000074,-0.016854261233628386,0.0037380591095081102,0.0045783691048657945,-0.02047293884657976,-0.009693283299716198
0.625,0.0005476483499836416,-0.7849484499999834,0.00020858847499276607,-2.3567008999999794,-0.001740758149921264,1.5722621499999443,0.7874199449999391,0.03999997,0.03999996,-9.812149000000074,-0.017098458483037815,0.0038932059995061313,0.004620698849865255,-0.020541357807597208,-0.009782796999715057
0.6275000000000001,0.0005527872749835763,-0.7849536849999833,0.00021086098849273718,-2.3567073499999793,-0.0017654928049209496,1.5722795949999442,0.7874390864999389,0.03999997,0.03999996,-9.812125300000076,-0.017342655732447258,0.004048352889504159,0.004663028594864717,-0.020609776768614658,-0.00987231069971392
0.63,0.0005579261999835107,-0.7849589199999832,0.0002131335019927082,-2.3567137999999797,-0.001790227459920634,1.5722970399999439,0.7874582279999386,0.03999997,0.03999996,-9.812101600000076,-0.017586852981856686,0.004203499779502181,0.0047053583398641765,-0.020678195729632105,-0.009961824399712778
0.6325000000000001,0.0005630651249834454,-0.7849641549999832,0.00021540601549267931,-2.3567202499999795,-0.0018149621149203198,1.5723144849999438,0.7874773694999384,0.03999997,0.03999996,-9.812077900000077,-0.01783105023126613,0.004358646669500209,0.004747688084863639,-0.020746614690649555,-0.010051338099711642
0.635,0.0005684131199823657,-0.7849697099999815,0.000217770942992202,-2.3567268599999784,-0.0018407018599151284,1.57233264999994,0.7874972979999343,0.03999997,0.03999996,-9.812047900000108,-0.018085207044240173,0.004518165069477022,0.00479081129985925,-0.020815397239998378,-0.01014249419970253
0.6375000000000001,0.0005738656499822963,-0.7849754249999814,0.00022018207749217134,-2.3567335499999786,-0.0018669441499147947,1.5723511749999397,0.7875176199999341,0.03999997,0.03999996,-9.812014750000108,-0.018344343639068818,0.004679869224474968,0.004834331249858697,-0.02088436158351553,-0.010234471499701362
0.64,0.0005793181799822268,-0.7849811399999814,0.0002225932119921406,-2.3567402399999784,-0.00189318643991446,1.5723696999999395,0.7875379419999338,0.03999997,0.03999996,-9.811981600000108,-0.018603480233897452,0.004841573379472905,0.004877851199858141,-0.02095332592703268,-0.010326448799700188
0.6425,0.0005847707099821572,-0.7849868549999813,0.00022500434649210985,-2.356746929999978,-0.0019194287299141254,1.5723882249999395,0.7875582639999336,0.03999997,0.03999996,-9.81194845000011,-0.018862616828726086,0.005003277534470843,0.004921371149857586,-0.02102229027054983,-0.010418426099699016
0.645,0.000590223239982088,-0.7849925699999812,0.00022741548099207922,-2.3567536199999783,-0.0019456710199137917,1.5724067499999392,0.7875785859999332,0.03999997,0.03999996,-9.81191530000011,-0.019121753423554735,0.0051649816894687875,0.004964891099857033,-0.021091254614066985,-0.010510403399697846
0.6475,0.0005956757699820184,-0.7849982849999811,0.00022982661549204847,-2.356760309999978,-0.001971913309913457,1.572425274999939,0.787598907999933,0.03999997,0.03999996,-9.811882150000109,-0.01938089001838337,0.005326685844466725,0.005008411049856478,-0.021160218957584135,-0.010602380699696674
0.65,0.0006011282999819491,-0.7850039999999812,0.0002322377499920178,-2.356766999999978,-0.0019981555999131237,1.5724437999999388,0.7876192299999327,0.03999997,0.03999996,-9.81184900000011,-0.019640026613212014,0.0054883899994646705,0.005051930999855925,-0.02122918330110129,-0.010694357999695503
0.6525,0.0006069027809808096,-0.7850101349999796,0.00023479119249151414,-2.3567744249999754,-0.0020259457249076447,1.572463434999935,0.7876407354999285,0.03999997,0.03999996,-9.811821400000092,-0.019915108102390885,0.005669220009399047,0.0050965861498515974,-0.021298645529665153,-0.010788754349686291
0.655,0.0006126772619807362,-0.7850162699999795,0.00023734463499148166,-2.356781849999975,-0.002053735849907292,1.5724830699999346,0.7876622409999282,0.03999997,0.03999996,-9.811793800000093,-0.020190189591622554,0.005850050019396748,0.00514124129985103,-0.021368107758230673,-0.010883150699685092
0.6575,0.0006184517429806626,-0.7850224049999794,0.0002398980774914491,-2.3567892749999753,-0.002081525974906937,1.5725027049999343,0.787683746499928,0.03999997,0.03999996,-9.811766200000093,-0.02046527108085421,0.006030880029394442,0.0051858964498504604,-0.021437569986796186,-0.010977547049683888
0.66,0.0006242262239805893,-0.7850285399999795,0.00024245151999141665,-2.356796699999975,-0.002109316099906584,1.5725223399999342,0.7877052519999277,0.03999997,0.03999996,-9.811738600000092,-0.020740352570085878,0.006211710039392144,0.005230551599849893,-0.021507032215361703,-0.011071943399682689
0.6625,0.0006300007049805155,-0.7850346749999794,0.00024500496249138407,-2.3568041249999747,-0.0021371062249062297,1.5725419749999339,0.7877267574999274,0.03999997,0.03999996,-9.811711000000093,-0.021015434059317536,0.006392540049389837,0.005275206749849323,-0.02157649444392722,-0.011166339749681484
0.665,0.0006357751859804422,-0.7850408099999793,0.0002475584049913516,-2.356811549999975,-0.0021648963499058763,1.5725616099999336,0.7877482629999272,0.03999997,0.03999996,-9.811683400000094,-0.021290515548549202,0.0065733700593875385,0.005319861899848756,-0.021645956672492736,-0.011260736099680285
0.6675,0.0006416597079791906,-0.7850470949999776,0.0002501604899907984,-2.356819024999974,-0.0021932154698998596,1.5725816199999294,0.7877701849999225,0.03999997,0.03999996,-9.811683949999805,-0.02157112378527638,0.00675656432935941,0.005364920099843658,-0.021716538630177633,-0.011355956699669795
0.67,0.0006477643119789465,-0.7850536799999773,0.00025285985999069045,-2.3568265999999736,-0.0022225925798986844,1.5726023799999285,0.7877929399999215,0.03999997,0.03999996,-9.811740799999804,-0.0218627855171635,0.006944487119351894,0.005410784399841824,-0.021789360046135516,-0.01145282579966592
0.6725,0.0006538689159787021,-0.785060264999977,0.00025555922999058234,-2.3568341749999733,-0.0022519696898975084,1.5726231399999278,0.7878156949999205,0.03999997,0.03999996,-9.811797649999802,-0.022154447249050607,0.00713240990934437,0.005456648699839988,-0.021862181462093396,-0.011549694899662042
0.675,0.000659973519978458,-0.7850668499999768,0.0002582585999904744,-2.356841749999973,-0.0022813467998963333,1.5726438999999268,0.7878384499999197,0.03999997,0.03999996,-9.8118544999998,-0.022446108980937726,0.007320332699336854,0.0055025129998381534,-0.021935002878051276,-0.011646563999658167
0.6775,0.0006660781239782135,-0.7850734349999765,0.0002609579699903663,-2.3568493249999727,-0.0023107239098951573,1.572664659999926,0.7878612049999187,0.03999997,0.03999996,-9.811911349999797,-0.022737770712824835,0.00750825548932933,0.0055483772998363165,-0.022007824294009156,-0.011743433099654288
0.68,0.0006721827279779694,-0.7850800199999762,0.00026365733999025837,-2.3568568999999724,-0.002340101019893982,1.5726854199999252,0.7878839599999179,0.03999997,0.03999996,-9.811968199999795,-0.023029432444711954,0.007696178279321814,0.005594241599834482,-0.02208064570996704,-0.011840302199650415
0.6825,0.0006782873319777249,-0.785086604999976,0.0002663567099901503,-2.356864474999972,-0.002369478129892806,1.5727061799999242,0.7879067149999169,0.03999997,0.03999996,-9.812025049999793,-0.023321094176599062,0.00788410106931429,0.005640105899832646,-0.02215346712592492,-0.011937171299646535
0.685,0.0006846173699764678,-0.7850934899999743,0.0002691557219895946,-2.3568721599999716,-0.0023999389698867624,1.5727277299999198,0.7879302999999123,0.03999997,0.03999996,-9.812020700000128,-0.02362239230312354,0.008080000799269906,0.0056865929698290685,-0.022226431406767607,-0.012035406999638698
0.6875,0.0006910601249765614,-0.7851005249999744,0.000272004554989636,-2.3568798999999716,-0.002430941674887213,1.5727496749999201,0.7879542999999126,0.03999997,0.03999996,-9.811985750000128,-0.02392850862704608,0.008279888999272811,0.005733391424829749,-0.022299467120053873,-0.012134325999640136
0.6900000000000001,0.0006975028799766553,-0.7851075599999745,0.00027485338798967753,-2.356887639999972,-0.0024619443798876645,1.5727716199999204,0.787978299999913,0.03999997,0.03999996,-9.811950800000126,-0.024234624950968637,0.008479777199275725,0.0057801898798304305,-0.022372502833340142,-0.012233244999641577
0.6925,0.0007039456349767489,-0.7851145949999746,0.00027770222098971893,-2.356895379999972,-0.0024929470848881153,1.572793564999921,0.7880022999999133,0.03999997,0.03999996,-9.811915850000126,-0.02454074127489118,0.008679665399278629,0.005826988334831111,-0.02244553854662641,-0.012332163999643014
0.6950000000000001,0.0007103883899768428,-0.7851216299999747,0.00028055105398976045,-2.356903119999972,-0.002523949789888567,1.5728155099999213,0.7880262999999137,0.03999997,0.03999996,-9.811880900000126,-0.024846857598813735,0.008879553599281543,0.005873786789831793,-0.022518574259912678,-0.012431082999644455
0.6975,0.0007168311449769364,-0.7851286649999748,0.00028339988698980185,-2.3569108599999726,-0.0025549524948890174,1.5728374549999216,0.788050299999914,0.03999997,0.03999996,-9.811845950000125,-0.02515297392273628,0.009079441799284447,0.005920585244832473,-0.022591609973198944,-0.012530001999645893
0.7000000000000001,0.0007232738999770303,-0.7851356999999749,0.00028624871998984337,-2.3569185999999727,-0.0025859551998894696,1.5728593999999219,0.7880742999999144,0.03999997,0.03999996,-9.811811000000125,-0.025459090246658836,0.00927932999928736,0.005967383699833155,-0.022664645686485213,-0.012628920999647334
0.7025,0.00073006270047571,-0.7851431549999733,0.0002892505274892597,-2.3569268499999705,-0.002618621419883122,1.5728824849999175,0.7880995959999095,0.03999997045,0.039999961949999996,-9.811772900000136,-0.025786234530381015,0.00949036199924494,0.006015334244828436,-0.02273768642891137,-0.012730759599635627
0.705,0.0007368515009756235,-0.7851506099999732,0.00029225233498922143,-2.3569350999999705,-0.0026512876398827054,1.572905569999917,0.7881248919999092,0.0399999709,0.03999996389999999,-9.811734800000137,-0.026113378814178162,0.009701393999242247,0.006063284789827824,-0.02281072717133755,-0.012832598199634327
0.7075,0.0007436403014755372,-0.7851580649999731,0.00029525414248918327,-2.35694334999997,-0.00268395385988229,1.5729286549999169,0.7881501879999089,0.03999997135,0.03999996584999999,-9.811696700000137,-0.026440523097975326,0.009912425999239565,0.006111235334827215,-0.022883767913763734,-0.012934436799633034
0.71,0.0007504291019754506,-0.7851655199999731,0.00029825594998914495,-2.35695159999997,-0.0027166200798818736,1.5729517399999164,0.7881754839999084,0.0399999718,0.039999967799999994,-9.811658600000138,-0.026767667381772473,0.010123457999236873,0.006159185879826603,-0.02295680865618991,-0.013036275399631736
0.7125,0.0007572179024753643,-0.785172974999973,0.0003012577574891068,-2.35695984999997,-0.0027492862998814583,1.5729748249999163,0.7882007799999081,0.03999997225,0.039999969749999996,-9.811620500000139,-0.027094811665569634,0.01033448999923419,0.006207136424825994,-0.023029849398616093,-0.01313811399963044
0.715,0.0007640067029752777,-0.7851804299999728,0.0003042595649890685,-2.35696809999997,-0.0027819525198810417,1.5729979099999158,0.7882260759999078,0.0399999727,0.03999997169999999,-9.81158240000014,-0.027421955949366784,0.0105455219992315,0.006255086969825382,-0.023102890141042273,-0.013239952599629142
0.7175,0.0007709133964739639,-0.7851880434999712,0.00030731347898848785,-2.356976484999968,-0.002815185459874726,1.5730213899999115,0.7882518129999029,0.039999973,0.03999997285,-9.811563999999924,-0.02775262165691529,0.010761177449180176,0.006303385119821408,-0.023176694009178413,-0.013342260899623638
0.72,0.0007780558759740677,-0.7851959739999712,0.00031047160598853376,-2.3569851399999684,-0.0028495518398752254,1.5730456599999119,0.7882784319999033,0.039999973,0.0399999724,-9.811584999999925,-0.028090330212082158,0.010986079799183444,0.006352378479822119,-0.023252024128759537,-0.013445508599625138
0.7225,0.0007851983554741719,-0.7852039044999714,0.0003136297329885798,-2.3569937949999686,-0.002883918219875726,1.5730699299999122,0.7883050509999037,0.039999973,0.039999971950000004,-9.811605999999925,-0.02842803876724904,0.011210982149186722,0.006401371839822833,-0.023327354248340666,-0.013548756299626643
0.725,0.0007923408349742756,-0.7852118349999715,0.0003167878599886257,-2.357002449999969,-0.0029182845998762257,1.5730941999999126,0.7883316699999041,0.039999973,0.0399999715,-9.811626999999925,-0.028765747322415908,0.01143588449918999,0.006450365199823545,-0.02340268436792179,-0.013652003999628144
0.7275,0.0007994833144743797,-0.7852197654999715,0.0003199459869886717,-2.357011104999969,-0.0029526509798767264,1.573118469999913,0.7883582889999046,0.039999973,0.039999971050000006,-9.811647999999925,-0.029103455877582788,0.011660786849193267,0.006499358559824259,-0.02347801448750292,-0.013755251699629647
0.73,0.0008066257939744834,-0.7852276959999717,0.00032310411398871756,-2.357019759999969,-0.002987017359877226,1.5731427399999134,0.7883849079999049,0.039999973,0.039999970600000004,-9.811668999999926,-0.029441164432749654,0.011885689199196536,0.006548351919824971,-0.023553344607084043,-0.013858499399631147
0.7325,0.0008137682734745876,-0.7852356264999718,0.00032626224098876363,-2.357028414999969,-0.0030213837398777267,1.5731670099999138,0.7884115269999054,0.039999973,0.03999997015,-9.811689999999926,-0.029778872987916538,0.012110591549199815,0.006597345279825685,-0.02362867472666517,-0.013961747099632653
0.735,0.0008211516129731382,-0.7852438729999699,0.0003295268499881228,-2.357037219999968,-0.0030569077798707598,1.5731920999999087,0.7884390399999,0.039999973,0.03999997249999999,-9.811698049999995,-0.030135004221085174,0.012344283499147703,0.0066469709098212195,-0.023704978450857825,-0.01406718589961863
0.7375,0.0008286553824728381,-0.7852522774999696,0.00033284469998799015,-2.357046099999968,-0.0030930106498693157,1.5732175999999078,0.7884669999998988,0.039999973,0.03999997624999999,-9.811699624999996,-0.030500346793401995,0.012582370249138181,0.006696912674819222,-0.023781768977364035,-0.01417372024961437
0.74,0.0008361591519725376,-0.7852606819999692,0.0003361625499878573,-2.3570549799999676,-0.0031291135198678703,1.5732430999999067,0.7884949599998977,0.039999973,0.03999997999999999,-9.811701199999995,-0.030865689365718794,0.012820456999128647,0.006746854439817223,-0.023858559503870242,-0.014280254599610106
0.7425,0.0008436629214722375,-0.785269086499969,0.0003394803999877246,-2.3570638599999674,-0.0031652163898664262,1.5732685999999056,0.7885229199998965,0.039999973,0.03999998374999999,-9.811702774999995,-0.031231031938035614,0.013058543749119125,0.0067967962048152255,-0.02393535003037645,-0.014386788949605845
0.745,0.0008511666909719371,-0.7852774909999686,0.0003427982499875918,-2.3570727399999667,-0.003201319259864981,1.5732940999999048,0.7885508799998955,0.039999973,0.03999998749999999,-9.811704349999994,-0.03159637451035242,0.013296630499109592,0.006846737969813226,-0.024012140556882656,-0.014493323299601579
0.7475,0.0008586704604716369,-0.7852858954999682,0.00034611609998745906,-2.3570816199999665,-0.003237422129863537,1.5733195999999037,0.7885788399998943,0.039999973,0.03999999124999999,-9.811705924999995,-0.03196171708266923,0.01353471724910007,0.006896679734811228,-0.024088931083388866,-0.014599857649597318
0.75,0.0008661742299713365,-0.7852942999999679,0.00034943394998732623,-2.3570904999999662,-0.0032735249998620914,1.5733450999999026,0.7886067999998932,0.039999973,0.03999999499999999,-9.811707499999995,-0.032327059654986036,0.013772803999090538,0.006946621499809229,-0.02416572160989507,-0.014706391999593052
0.7525000000000001,0.0008740465704698286,-0.7853031589999661,0.00035291470148665974,-2.357099874999964,-0.003311399609854842,1.5733718299998976,0.7886361204998876,0.039999973,0.039999995,-9.811678625000111,-0.032699408380750285,0.014023961299037418,0.006997512779804954,-0.02424290413007353,-0.014814139099587051
0.755,0.0008819189109697281,-0.785312017999966,0.00035639545298661536,-2.3571092499999637,-0.003349274219854359,1.5733985599998972,0.7886654409998873,0.039999973,0.039999995,-9.811649750000111,-0.03307175710654128,0.014275118599034214,0.007048404059804305,-0.024320086650253488,-0.014921886199585677
0.7575000000000001,0.0008897912514696281,-0.7853208769999658,0.0003598762044865711,-2.3571186249999636,-0.0033871488298538774,1.5734252899998968,0.7886947614998869,0.039999973,0.039999995,-9.811620875000111,-0.033444105832332295,0.014526275899031021,0.0070992953398036586,-0.024397269170433448,-0.015029633299584306
0.76,0.0008976635919695277,-0.7853297359999657,0.0003633569559865267,-2.3571279999999635,-0.0034250234398533947,1.5734520199998965,0.7887240819998865,0.039999973,0.039999995,-9.811592000000113,-0.033816454558123286,0.014777433199027818,0.0071501866198030095,-0.024474451690613405,-0.015137380399582932
0.7625000000000001,0.0009055359324694276,-0.7853385949999656,0.00036683770748648244,-2.3571373749999633,-0.0034628980498529133,1.5734787499998961,0.7887534024998861,0.039999973,0.039999995,-9.811563125000113,-0.0341888032839143,0.015028590499024627,0.007201077899802363,-0.02455163421079336,-0.015245127499581563
0.765,0.0009134082729693271,-0.7853474539999655,0.00037031845898643806,-2.357146749999963,-0.00350077265985243,1.5735054799998958,0.7887827229998858,0.039999973,0.039999995,-9.811534250000113,-0.0345611520097053,0.015279747799021423,0.007251969179801714,-0.024628816730973318,-0.015352874599580188
0.7675000000000001,0.0009214058734677582,-0.7853564719999635,0.00037385458598574443,-2.357156284999961,-0.003539249439844887,1.5735326449998903,0.78881250649988,0.039999973,0.03999999465000001,-9.811516374999984,-0.03494081329400192,0.015535454348964882,0.00730323193979671,-0.02470657071067836,-0.01546126189957131
0.77,0.000929653993967653,-0.7853658079999634,0.00037750146398569793,-2.3571661399999613,-0.003578930559844381,1.57356067999989,0.7888432159998796,0.039999973,0.039999993600000006,-9.811520499999984,-0.03533509969556673,0.015800259398961503,0.007355237659796047,-0.02478546760945365,-0.015570929599569912
0.7725,0.0009379021144675479,-0.7853751439999632,0.00038114834198565143,-2.357175994999961,-0.003618611679843875,1.5735887149998897,0.7888739254998792,0.039999973,0.03999999255000001,-9.811524624999985,-0.03572938609713154,0.016065064448958128,0.007407243379795384,-0.024864364508228938,-0.015680597299568513
0.775,0.0009461502349674431,-0.7853844799999632,0.0003847952199856051,-2.357185849999961,-0.003658292799843371,1.5736167499998894,0.7889046349998788,0.039999973,0.039999991500000005,-9.811528749999983,-0.03612367249869637,0.01632986949895476,0.007459249099794723,-0.02494326140700423,-0.01579026499956712
0.7775,0.0009543983554673378,-0.785393815999963,0.00038844209798555854,-2.3571957049999606,-0.0036979739198428644,1.573644784999889,0.7889353444998785,0.039999973,0.03999999045000001,-9.811532874999983,-0.03651795890026118,0.016594674548951385,0.00751125481979406,-0.02502215830577952,-0.01589993269956572
0.78,0.000962646475967233,-0.7854031519999629,0.0003920889759855122,-2.3572055599999606,-0.00373765503984236,1.5736728199998886,0.7889660539998781,0.039999973,0.039999989400000005,-9.811536999999984,-0.03691224530182601,0.016859479598948016,0.007563260539793399,-0.02510105520455481,-0.016009600399564325
0.7825,0.0009708945964671278,-0.7854124879999628,0.0003957358539854657,-2.3572154149999607,-0.0037773361598418542,1.5737008549998883,0.7889967634998776,0.039999973,0.03999998835,-9.811541124999984,-0.03730653170339082,0.01712428464894464,0.007615266259792736,-0.0251799521033301,-0.016119268099562926
0.785,0.0009793978929653357,-0.7854221439999606,0.0003994955219846735,-2.3572253799999596,-0.003818243779833239,1.5737297599998823,0.7890284299998709,0.039999973,0.03999998650000001,-9.811553349999935,-0.037712541220918085,0.017395887198895506,0.007667887499787421,-0.025260009802553964,-0.016229997299553146
0.7875,0.0009880287774649901,-0.7854319599999602,0.00040331158498452073,-2.357235399999959,-0.0038597646498315765,1.573759099999881,0.7890605749998696,0.039999973,0.03999998425000001,-9.811569624999933,-0.03812441229653178,0.017670888498884495,0.007720816499785301,-0.025340647902012528,-0.01634125724954869
0.79,0.0009966596619646448,-0.7854417759999598,0.0004071276479843681,-2.357245419999959,-0.003901285519829916,1.5737884399998798,0.7890927199998683,0.039999973,0.03999998200000001,-9.811585899999933,-0.03853628337214549,0.017945889798873498,0.007773745499783185,-0.0254212860014711,-0.01645251719954424
0.7925,0.0010052905464642994,-0.7854515919999594,0.0004109437109842153,-2.3572554399999586,-0.003942806389828254,1.5738177799998787,0.789124864999867,0.039999973,0.03999997975000001,-9.811602174999932,-0.03894815444775918,0.018220891098862487,0.007826674499781066,-0.025501924100929666,-0.016563777149539785
0.795,0.001013921430963954,-0.785461407999959,0.00041475977398406266,-2.357265459999958,-0.003984327259826593,1.5738471199998774,0.7891570099998657,0.039999973,0.03999997750000001,-9.811618449999932,-0.0393600255233729,0.01849589239885149,0.007879603499778948,-0.025582562200388233,-0.016675037099535335
0.7975,0.0010225523154636085,-0.7854712239999586,0.0004185758369839099,-2.357275479999958,-0.004025848129824931,1.5738764599998762,0.7891891549998645,0.039999973,0.039999975250000014,-9.81163472499993,-0.03977189659898659,0.01877089369884048,0.00793253249977683,-0.0256632002998468,-0.01678629704953088
0.8,0.0010311831999632634,-0.7854810399999582,0.00042239189998375727,-2.3572854999999575,-0.00406736899982327,1.5739057999998751,0.7892212999998632,0.039999973,0.03999997300000001,-9.81165099999993,-0.0401837676746003,0.019045894998829478,0.007985461499774712,-0.02574383839930537,-0.01689755699952643
0.8025,0.0010402037199619821,-0.7854913479999566,0.00042638020048319094,-2.3572963749999545,-0.004110762349817115,1.573936414999871,0.7892548999998584,0.039999972550000006,0.039999973,-9.81160585000019,-0.04062057323569732,0.019336481748775294,0.008039297474773104,-0.02582418369095431,-0.017011382399520273
0.805,0.0010492242399623597,-0.7855016559999569,0.00043036850098335786,-2.3573072499999546,-0.004154155699818931,1.5739670299998723,0.7892884999998598,0.0399999721,0.039999973,-9.811560700000188,-0.041057378796900496,0.019627068498787457,0.008093133449775356,-0.02590452898260201,-0.017125207799525036
0.8075,0.001058244759962737,-0.7855119639999574,0.0004343568014835246,-2.357318124999955,-0.004197549049820746,1.5739976449998736,0.7893220999998612,0.03999997165,0.039999973,-9.811515550000186,-0.04149418435810364,0.01991765524879961,0.008146969424777608,-0.025984874274249704,-0.017239033199529796
0.81,0.0010672652799631145,-0.7855222719999578,0.00043834510198369154,-2.3573289999999556,-0.004240942399822562,1.5740282599998747,0.7893556999998627,0.039999971200000005,0.039999973,-9.811470400000184,-0.04193098991930681,0.02020824199881177,0.00820080539977986,-0.026065219565897402,-0.01735285859953456
0.8125,0.0010762857999634917,-0.7855325799999583,0.00044233340248385836,-2.357339874999956,-0.004284335749824376,1.574058874999876,0.7893892999998641,0.03999997075,0.039999973,-9.811425250000182,-0.042367795480509965,0.020498828748823923,0.008254641374782112,-0.026145564857545097,-0.01746668399953932
0.8150000000000001,0.0010853063199638693,-0.7855428879999587,0.0004463217029840253,-2.3573507499999566,-0.004327729099826193,1.5740894899998774,0.7894228999998655,0.03999997030000001,0.039999973,-9.81138010000018,-0.04280460104171313,0.020789415498836086,0.008308477349784366,-0.026225910149192795,-0.017580509399544083
0.8175,0.0010944589199625046,-0.785553361999957,0.000450368394983422,-2.357361684999956,-0.004371757164819636,1.5741205699998726,0.7894569899998604,0.03999997035,0.039999973749999994,-9.811368299999781,-0.0432469082978199,0.021084869348784813,0.008362584199782402,-0.026307432725691533,-0.017694999049538838
0.8200000000000001,0.001103875679962385,-0.7855641679999569,0.0004545318699833691,-2.357372739999956,-0.004417054659819061,1.5741525799998721,0.7894920599998599,0.0399999714,0.03999997599999999,-9.81142319999978,-0.043700218943930884,0.021390057398780936,0.008417232799781708,-0.026391309871934512,-0.017810817199537365
0.8225,0.0011132924399622649,-0.7855749739999567,0.00045869534498331596,-2.3573837949999557,-0.004462352154818483,1.5741845899998719,0.7895271299998594,0.03999997245,0.03999997824999999,-9.81147809999978,-0.04415352959004184,0.02169524544877704,0.008471881399781011,-0.026475187018177488,-0.01792663534953589
0.8250000000000001,0.0011227091999621453,-0.7855857799999566,0.00046285881998326306,-2.3573948499999555,-0.004507649649817907,1.5742165999998714,0.789562199999859,0.039999973499999994,0.03999998049999999,-9.811532999999779,-0.04460684023615282,0.022000433498773165,0.008526529999780316,-0.026559064164420467,-0.018042453499534417
