rsonawane2002/My_IMU/logs_2/traj_471/imu_471.csv
time,j1,j2,j3,j4,j5,j6,j7,gripper1,gripper2,imu_ax,imu_ay,imu_az,imu_gx,imu_gy,imu_gz
2432.0333333366893,0.00016700293,-0.785875,4.0107683e-05,-2.3551247,9.29385e-05,1.570997,0.786,0.04,0.04,-9.513918,-0.031108930706977844,0.078979164,-4.0564115e-07,-0.0011641274904832244,4.6338153e-07
2432.050000003356,0.00016701568,-0.78576016,4.0114934e-05,-2.3552213,9.298441e-05,1.5709941,0.786,0.04,0.04,-9.834135,0.0006439982098527253,0.009184363,-4.3143132e-07,-0.0022382396273314953,1.5829377e-06
2432.066666670023,0.00016709701,-0.7856542,4.0123912e-05,-2.35531,9.309935e-05,1.5709913,0.786,0.04,0.04,-9.832416,0.0007409208919852972,0.0076213414,-2.5118966e-06,-0.003225526073947549,6.0850757e-06
2432.08333333669,0.00016736126,-0.7855566,4.01388e-05,-2.355391,9.3403534e-05,1.5709884,0.786,0.04,0.04,-9.830423,0.0009155847365036607,0.0063822386,-7.692315e-06,-0.004131550434976816,1.7203645e-05
2432.100000003357,0.00016797357,-0.78546655,4.0165683e-05,-2.3554654,9.4075906e-05,1.5709856,0.786,0.04,0.039999995,-9.828433,0.0011773814912885427,0.005336577,-1.7601396e-05,-0.004959988407790661,3.8573882e-05
2432.1166666700237,0.00016914467,-0.7853831,4.021269e-05,-2.355533,9.5321964e-05,1.5709862,0.786,0.04,0.039999995,-9.826272,0.001487571862526238,0.0045002396,-3.2465592e-05,-0.00571573618799448,7.121587e-05
2432.1333333366906,0.00017112611,-0.78530556,4.0289568e-05,-2.3555982,9.739965e-05,1.570987,0.7860019,0.04,0.039999995,-9.82445,0.0018861166900023818,0.0035620015,-5.3329328e-05,-0.0063840667717158794,0.00011824436
2432.1500000033575,0.00017420622,-0.7852333,4.0407504e-05,-2.3556573,0.000100590696,1.5709879,0.7860038,0.04,0.04,-9.82311,0.002337144687771797,0.002920593,-8.950102e-05,-0.007005966268479824,0.00018036058
2432.1666666700244,0.00017870548,-0.7851658,4.057875e-05,-2.3557146,0.000105241415,1.5709922,0.78600574,0.04,0.04,-9.821187,0.0028615635819733143,0.0023813562,-0.000132208,-0.007563031278550625,0.0002629105
2432.1833333366912,0.00018497401,-0.785102,4.0817093e-05,-2.355766,0.00011169755,1.570997,0.78600955,0.04,0.04,-9.81951,0.00338850449770689,0.0019149615,-0.00018153482,-0.008060332387685776,0.00036410498
2432.200000003358,0.00019338708,-0.78504133,4.1136904e-05,-2.3558166,0.00012035656,1.5710052,0.78601336,0.04,0.04,-9.81777,0.004061141517013311,0.001525828,-0.00024639978,-0.00849936529994011,0.00048806786
2432.216666670025,0.00020434322,-0.7849829,4.1554016e-05,-2.3558664,0.00013160681,1.5710138,0.7860191,0.039999995,0.04,-9.816314,0.004735650960355997,0.0011941439,-0.0003174579,-0.008886616677045822,0.00063327997
2432.233333336692,0.00021826045,-0.7849263,4.208477e-05,-2.3559153,0.00014588248,1.5710262,0.7860267,0.03999999,0.04,-9.814976,0.005410672631114721,0.00097491685,-0.00040328712,-0.009243069216609001,0.0008023366
2432.2500000033588,0.00023557397,-0.78487104,4.2745978e-05,-2.355962,0.00016363423,1.5710424,0.78603625,0.039999988,0.03999999,-9.813574,0.006274661980569363,0.00072112016,-0.0005029832,-0.009550225920975208,0.0009979244
2432.2666666700256,0.00025673458,-0.784816,4.3555585e-05,-2.3560085,0.00018530838,1.5710624,0.7860477,0.039999984,0.03999999,-9.811899,0.007109277881681919,0.0005660711,-0.0006166081,-0.00980442389845848,0.0012175026
2432.2833333366925,0.0002822052,-0.78476095,4.4531545e-05,-2.3560555,0.0002113827,1.5710863,0.78606105,0.039999977,0.039999988,-9.8105135,0.008016000501811504,0.00042603852,-0.00074272056,-0.01001815963536501,0.0014634972
2432.3000000033594,0.00031245954,-0.7847052,4.5692334e-05,-2.356105,0.00024234071,1.5711143,0.78607714,0.03999997,0.03999998,-9.809141,0.008882434107363224,0.00032357476,-0.0008808503,-0.010194159112870693,0.0017373713
2432.3166666700263,0.00034798097,-0.78464806,4.705717e-05,-2.356155,0.00027867375,1.5711488,0.7860962,0.039999966,0.039999977,-9.808039,0.010006895288825035,0.00028976938,-0.0010339868,-0.010342859663069248,0.0020387864
2432.333333336693,0.0003892596,-0.7845889,4.864507e-05,-2.3562055,0.0003208809,1.5711881,0.7861182,0.039999954,0.039999966,-9.806538,0.011095893569290638,0.0001863502,-0.0012019986,-0.010444837622344494,0.0023681528
2432.35000000336,0.00043679145,-0.7845271,5.047552e-05,-2.3562572,0.0003694669,1.5712342,0.78614354,0.03999995,0.039999966,-9.805128,0.012237939052283764,0.0001510107,-0.0013838294,-0.010511190630495548,0.0027249325
2432.366666670027,0.00049107696,-0.78446233,5.2568063e-05,-2.3563147,0.00042494235,1.5712868,0.78617257,0.039999954,0.03999997,-9.803816,0.013310070149600506,2.546236e-05,-0.0015799892,-0.010536523535847664,0.0031110996
2432.383333336694,0.0005526197,-0.78439397,5.4942677e-05,-2.3563733,0.00048781888,1.5713466,0.7862054,0.039999958,0.039999977,-9.802851,0.01474007312208414,7.363316e-05,-0.0017911923,-0.010543937794864178,0.0035250944
2432.4000000033607,0.00062192505,-0.7843215,5.7618952e-05,-2.3564382,0.00055861246,1.571414,0.78624237,0.039999958,0.039999977,-9.80139,0.01610601507127285,1.2208242e-05,-0.002016688,-0.010510829277336597,0.003968747
2432.4166666700276,0.00069949956,-0.7842442,6.06169e-05,-2.3565044,0.00063783757,1.5714895,0.78628355,0.039999958,0.03999998,-9.800507,0.017538543790578842,-5.052425e-05,-0.0022564942,-0.01045956090092659,0.0044403803
2432.4333333366944,0.00078584923,-0.78416175,6.3956366e-05,-2.3565779,0.00072601024,1.5715733,0.78632945,0.039999958,0.039999984,-9.799177,0.018867308273911476,-0.00025414024,-0.0025102706,-0.010368522256612778,0.0049408334
2432.4500000033613,0.00088147953,-0.78407365,6.7657216e-05,-2.3566558,0.0008236452,1.5716662,0.78638035,0.03999996,0.039999988,-9.798224,0.020665451884269714,-0.00023699272,-0.0027784721,-0.010263340547680855,0.005470894
2432.466666670028,0.0009868939,-0.7839792,7.1739145e-05,-2.3567376,0.00093125424,1.5717688,0.78643626,0.03999996,0.03999999,-9.797051,0.02234683930873871,-0.00038421247,-0.0030611937,-0.010128571651875973,0.006028728
2432.483333336695,0.0011025928,-0.78387827,7.62218e-05,-2.3568268,0.0010493478,1.5718812,0.7864977,0.03999996,0.039999995,-9.79597,0.02390063740313053,-0.0007007653,-0.0033571122,-0.009962274692952633,0.006615045
2432.500000003362,0.0012290742,-0.78377014,8.1124774e-05,-2.3569233,0.0011784337,1.5720043,0.7865649,0.039999958,0.03999999,-9.794878,0.026006590574979782,-0.00075045787,-0.0036676284,-0.00977750401943922,0.0072304807
2432.516666670029,0.0013668311,-0.7836544,8.646731e-05,-2.3570273,0.0013190124,1.5721385,0.78663814,0.039999954,0.03999999,-9.794003,0.02797321230173111,-0.0010098685,-0.0039915997,-0.009574965573847294,0.00787309
2432.5333333366957,0.0015163531,-0.7835308,9.226857e-05,-2.3571389,0.0014715833,1.5722841,0.78671753,0.039999947,0.039999988,-9.793067,0.030048971995711327,-0.0013283165,-0.004329783,-0.009351707994937897,0.008543445
2432.5500000033626,0.0016781245,-0.78339815,9.8547665e-05,-2.357258,0.0016366402,1.5724417,0.7868035,0.03999994,0.03999998,-9.792403,0.03196960315108299,-0.0018282682,-0.0046806955,-0.009109539911150932,0.0092421025
2432.5666666700295,0.0018526246,-0.78325707,0.0001053234,-2.357385,0.0018146697,1.5726117,0.7868962,0.03999994,0.039999984,-9.791207,0.03452179208397865,-0.0021252446,-0.005044993,-0.008847763761878014,0.009967023
2432.5833333366963,0.0020403252,-0.78310645,0.000112614245,-2.3575196,0.0020061543,1.5727946,0.7869959,0.03999994,0.039999988,-9.790214,0.03692858666181564,-0.0025640316,-0.005421956,-0.008563154377043247,0.0107186735
2432.600000003363,0.0022416937,-0.78294605,0.00012043853,-2.3576622,0.002211568,1.5729905,0.7871028,0.039999936,0.03999999,-9.789231,0.03944409638643265,-0.0031151706,-0.00581137,-0.008256861940026283,0.011494965
2432.61666667003,0.0024571896,-0.78277564,0.00012881421,-2.3578136,0.0024313822,1.5732005,0.78721726,0.039999932,0.039999988,-9.788552,0.04180115461349487,-0.0038875965,-0.0062127104,-0.007929559797048569,0.0123006655
2432.633333336697,0.0026872677,-0.7825946,0.00013775927,-2.3579733,0.0026660548,1.5734245,0.7873393,0.03999993,0.039999988,-9.787315,0.0448688343167305,-0.004340413,-0.0066259657,-0.007581227459013462,0.013129209
2432.650000003364,0.002932371,-0.78240263,0.0001472909,-2.358144,0.0029160436,1.5736631,0.7874695,0.03999993,0.03999999,-9.786344,0.047779232263565063,-0.005061427,-0.007050332,-0.007211965508759022,0.013984722
2432.6666666700307,0.0031929398,-0.7821994,0.00015742658,-2.3583257,0.003181794,1.5739169,0.7876079,0.03999992,0.039999988,-9.785645,0.05081024393439293,-0.0058579827,-0.0074862977,-0.006830224767327309,0.014863877
2432.6833333366976,0.0034694064,-0.78198445,0.00016818293,-2.3585165,0.0034637444,1.5741863,0.7877546,0.03999991,0.03999998,-9.785268,0.05363502353429794,-0.0069417674,-0.007933036,-0.0064344764687120914,0.015767165
2432.7000000033645,0.0037621912,-0.7817576,0.00017957667,-2.3587184,0.003762327,1.5744714,0.78791004,0.039999906,0.03999998,-9.783961,0.057293787598609924,-0.0076900367,-0.008389537,-0.006016677711158991,0.016694097
2432.7166666700314,0.00407171,-0.7815183,0.00019162412,-2.3589313,0.0040779626,1.5747727,0.7880743,0.039999906,0.039999984,-9.783205,0.060759276151657104,-0.008702237,-0.008856301,-0.005585540551692247,0.017644098
2432.7333333366983,0.0043983697,-0.78126633,0.00020434112,-2.359156,0.004411067,1.5750909,0.7882477,0.039999902,0.039999984,-9.78283,0.06398959457874298,-0.010069577,-0.009332361,-0.0051385159604251385,0.018616732
2432.750000003365,0.004742569,-0.78100127,0.00021774328,-2.3593924,0.004762047,1.575426,0.78843033,0.039999902,0.039999988,-9.781702,0.06812545657157898,-0.011031944,-0.0098176105,-0.004677137825638056,0.019611398
2432.766666670032,0.0051046973,-0.7807229,0.00023184594,-2.3596404,0.005131298,1.5757785,0.7886226,0.0399999,0.039999988,-9.781036,0.07204093039035797,-0.012340182,-0.0103113465,-0.004203850403428078,0.020627588
2432.783333336699,0.005485136,-0.7804309,0.00024666416,-2.3599007,0.0055192094,1.5761492,0.78882456,0.039999895,0.039999995,-9.780221,0.07610362023115158,-0.013726098,-0.010813696,-0.0037134899757802486,0.021662103
2432.8000000033658,0.005884257,-0.7801249,0.00026221242,-2.3601735,0.0059261606,1.576538,0.7890364,0.03999989,0.04,-9.779933,0.07994149625301361,-0.015475478,-0.011323621,-0.00320712523534894,0.022717994
2432.8166666700326,0.0063024242,-0.77980447,0.00027850483,-2.3604589,0.006352521,1.5769453,0.7892583,0.039999884,0.039999995,-9.778821,0.08476066589355469,-0.016811613,-0.011840899,-0.002688446780666709,0.023796178
2432.8333333366995,0.0067399926,-0.7794697,0.00029555528,-2.360758,0.0067986553,1.5773714,0.7894905,0.039999884,0.04,-9.778094,0.08932983875274658,-0.018521052,-0.012364575,-0.002155008725821972,0.024891956
2432.8500000033664,0.007197311,-0.7791201,0.00031337744,-2.3610694,0.0072649256,1.5778164,0.7897332,0.03999988,0.04,-9.77752,0.09408041834831238,-0.020286823,-0.0128946975,-0.0016121097141876817,0.026007293
2432.8666666700333,0.007674712,-0.7787554,0.00033198434,-2.3613946,0.0077516674,1.5782815,0.7899866,0.039999872,0.04,-9.777202,0.09856507927179337,-0.022447368,-0.013430453,-0.0010527634294703603,0.02714067
2432.8833333367,0.008172524,-0.7783753,0.0003513891,-2.3617337,0.008259205,1.5787662,0.7902508,0.039999872,0.04,-9.776085,0.10409737378358841,-0.02420166,-0.013971855,-0.00047860326594673097,0.028290655
2432.900000003367,0.008691069,-0.7779796,0.00037160402,-2.362087,0.008787874,1.5792713,0.790526,0.039999872,0.04,-9.775471,0.10938107222318649,-0.026304062,-0.01451792,0.00010549616126809269,0.029458407
2432.916666670034,0.009230653,-0.77756786,0.0003926412,-2.3624544,0.009338003,1.5797969,0.7908123,0.039999872,0.04,-9.774842,0.11485324800014496,-0.028538553,-0.015068093,0.0007027810788713396,0.030643253
2432.933333336701,0.009791579,-0.7771402,0.00041451267,-2.362836,0.009909886,1.5803432,0.79111004,0.039999865,0.04,-9.774738,0.120040662586689,-0.031179452,-0.015621849,0.0013114956673234701,0.03184287
2432.9500000033677,0.010374143,-0.7766962,0.00043722946,-2.3632321,0.010503812,1.5809104,0.7914192,0.039999858,0.04,-9.773549,0.12633870542049408,-0.0333341,-0.01617918,0.001934171188622713,0.033056762
2432.9666666700346,0.0109786205,-0.7762355,0.0004608032,-2.3636434,0.0111200595,1.581499,0.79173994,0.039999846,0.04,-9.772947,0.1323649287223816,-0.035910793,-0.016739024,0.0025683583226054907,0.034284282
2432.9833333367014,0.011605293,-0.7757581,0.00048524424,-2.36407,0.011758918,1.5821093,0.7920725,0.039999843,0.04,-9.772945,0.13811957836151123,-0.038895346,-0.017300848,0.003211260074749589,0.03552661
2433.0000000033683,0.012254418,-0.77526385,0.00051056297,-2.3645115,0.012420662,1.5827416,0.79241693,0.03999984,0.04,-9.771791,0.1450306624174118,-0.041435376,-0.017864035,0.0038666618056595325,0.03678297
2433.016666670035,0.012926251,-0.77475214,0.00053676934,-2.3649683,0.0131055545,1.583396,0.7927735,0.03999983,0.04,-9.771184,0.1516486257314682,-0.044373475,-0.018428357,0.0045354049652814865,0.038051106
2433.033333336702,0.013621042,-0.77422327,0.00056387327,-2.3654401,0.013813841,1.5840727,0.79314226,0.039999828,0.04,-9.770578,0.1584811508655548,-0.04745254,-0.018993495,0.005214619915932417,0.039332125
2433.050000003369,0.014339029,-0.7736767,0.0005918837,-2.3659277,0.014545765,1.5847719,0.7935232,0.03999983,0.04,-9.770488,0.16500502824783325,-0.050937645,-0.019558365,0.005908310879021883,0.040623598
2433.066666670036,0.01508044,-0.7731126,0.0006208094,-2.366431,0.01530157,1.5854937,0.7939166,0.03999982,0.04,-9.7693205,0.1727408766746521,-0.05395851,-0.020122143,0.006612609606236219,0.04192665
2433.0833333367027,0.015845492,-0.7725303,0.0006506594,-2.36695,0.016081475,1.5862385,0.7943225,0.039999817,0.04,-9.768718,0.18018320202827454,-0.057395905,-0.020684734,0.007328839972615242,0.043239858
2433.1000000033696,0.016634401,-0.77193016,0.0006814417,-2.3674862,0.016885685,1.5870069,0.7947411,0.039999817,0.04,-9.768117,0.18783564865589142,-0.06099615,-0.021245383,0.00805542804300785,0.044562537
2433.1166666700365,0.017447365,-0.77131164,0.0007131642,-2.3680387,0.01771444,1.5877986,0.79517245,0.03999981,0.04,-9.768225,0.1951822191476822,-0.065010116,-0.021803828,0.008791271597146988,0.045893963
2433.1333333367033,0.018284578,-0.7706747,0.0007458347,-2.368607,0.018567894,1.5886141,0.79561675,0.03999981,0.04,-9.767055,0.2037670910358429,-0.06857352,-0.022359472,0.009536784142255783,0.047232818
2433.15000000337,0.019146224,-0.77001923,0.00077946036,-2.3691916,0.01944626,1.5894532,0.7960739,0.039999794,0.04,-9.766385,0.21206031739711761,-0.07257173,-0.02291162,0.010296748019754887,0.048580077
2433.166666670037,0.020032477,-0.7693451,0.00081404764,-2.3697934,0.020349707,1.5903163,0.7965442,0.039999794,0.04,-9.76574,0.22056084871292114,-0.07670095,-0.023459239,0.01106865331530571,0.049934357
2433.183333336704,0.020943508,-0.76865214,0.0008496035,-2.3704119,0.021278419,1.5912033,0.7970275,0.039999794,0.04,-9.765863,0.2287566065788269,-0.0812622,-0.02400273,0.01184716634452343,0.051294923
2433.200000003371,0.021879468,-0.76794034,0.0008861341,-2.371047,0.022232536,1.5921146,0.7975241,0.03999979,0.04,-9.764601,0.23821669816970825,-0.08537917,-0.024540259,0.012637430801987648,0.052660283
2433.2166666700377,0.022840517,-0.7672096,0.000923645,-2.371699,0.023212235,1.5930504,0.798034,0.03999978,0.04,-9.763972,0.2473747730255127,-0.08993639,-0.025072154,0.013439066708087921,0.054031625
2433.2333333367046,0.023826782,-0.76645964,0.0009621422,-2.3723686,0.024217626,1.5940108,0.79855734,0.039999783,0.04,-9.763985,0.25621557235717773,-0.09491622,-0.025597814,0.01425112597644329,0.055407576
2433.2500000033715,0.024838408,-0.76569045,0.0010016302,-2.3730555,0.025248865,1.594996,0.79909396,0.039999783,0.04,-9.762756,0.2663431465625763,-0.09948298,-0.026116824,0.015073457732796669,0.05678616
2433.2666666700384,0.025875518,-0.76490176,0.0010421143,-2.3737593,0.026306082,1.596006,0.7996443,0.039999776,0.04,-9.762163,0.2761629819869995,-0.10447397,-0.026627466,0.015905100852251053,0.058168884
2433.2833333367053,0.026938232,-0.76409376,0.0010835992,-2.374481,0.027389387,1.5970409,0.80020815,0.03999978,0.04,-9.761488,0.2862040102481842,-0.10963562,-0.027130682,0.016747742891311646,0.059554357
2433.300000003372,0.028026644,-0.7632661,0.0011260887,-2.3752196,0.028498901,1.5981008,0.8007856,0.039999776,0.04,-9.761528,0.2959230840206146,-0.11520676,-0.027625263,0.017599493265151978,0.060941476
2433.316666670039,0.029140858,-0.7624189,0.0011695864,-2.3759756,0.029634718,1.5991857,0.80137676,0.039999776,0.04,-9.760194,0.3069489598274231,-0.12037866,-0.028110405,0.01846146583557129,0.06232996
2433.333333336706,0.030280966,-0.76155216,0.0012140968,-2.376749,0.030796925,1.6002958,0.8019817,0.039999783,0.04,-9.759488,0.31763941049575806,-0.1259691,-0.028585613,0.019334206357598305,0.06371673
2433.3500000033728,0.031447053,-0.7606657,0.0012596224,-2.3775406,0.031985607,1.6014314,0.8026004,0.039999798,0.04,-9.758757,0.32858240604400635,-0.13172328,-0.029051015,0.02021835930645466,0.065105096
2433.3666666700396,0.03263919,-0.75975937,0.001306166,-2.3783495,0.033200886,1.6025922,0.80323285,0.03999979,0.04,-9.7588,0.33919718861579895,-0.13791026,-0.029505143,0.021110815927386284,0.066493526
2433.3833333367065,0.033857442,-0.75883305,0.0013537309,-2.3791757,0.034442782,1.6037786,0.8038792,0.039999794,0.04,-9.757371,0.3511175513267517,-0.14370003,-0.02994797,0.022013980895280838,0.0678809
2433.4000000033734,0.035101876,-0.7578869,0.0014023188,-2.3800201,0.03571136,1.6049904,0.8045394,0.039999787,0.04,-9.756593,0.3627151846885681,-0.14993444,-0.030378742,0.02292797714471817,0.06926641
2433.4166666700403,0.036372554,-0.7569207,0.0014519324,-2.380883,0.037006695,1.6062275,0.8052136,0.039999787,0.04,-9.755925,0.3745362460613251,-0.15631352,-0.030797077,0.02384837716817856,0.07064856
2433.433333336707,0.037669506,-0.7559347,0.0015025723,-2.3817632,0.038328793,1.6074904,0.8059016,0.039999787,0.04,-9.755887,0.38604557514190674,-0.16312315,-0.03120261,0.02477588690817356,0.07202856
2433.450000003374,0.038992763,-0.7549287,0.0015542405,-2.382661,0.039677728,1.6087788,0.8066035,0.039999772,0.04,-9.7543745,0.3988533020019531,-0.16955991,-0.03159434,0.025714782997965813,0.073404714
2433.466666670041,0.040342353,-0.7539026,0.001606938,-2.3835769,0.04105348,1.6100929,0.8073196,0.039999776,0.04,-9.753501,0.41133999824523926,-0.17644358,-0.03197146,0.02666490525007248,0.07477582
2433.483333336708,0.041718315,-0.7528565,0.0016606658,-2.3845108,0.04245612,1.6114327,0.80804926,0.039999776,0.04,-9.753379,0.4235180616378784,-0.18373606,-0.032334954,0.027623094618320465,0.07614283
2433.5000000033747,0.043120626,-0.7517903,0.0017154245,-2.3854618,0.043885626,1.612798,0.80879325,0.039999776,0.04,-9.7518635,0.4369846284389496,-0.19067982,-0.03268195,0.02858918346464634,0.07750367
2433.5166666700416,0.044549327,-0.75070405,0.0017712138,-2.3864307,0.045342036,1.6141893,0.80955154,0.039999776,0.04,-9.750866,0.45013725757598877,-0.19805437,-0.033014625,0.02956731989979744,0.07885885
2433.5333333367084,0.046004415,-0.74959785,0.0018280337,-2.3874178,0.046825327,1.6156061,0.8103238,0.039999764,0.04,-9.749934,0.46350207924842834,-0.2055919,-0.033332787,0.030556252226233482,0.080207236
2433.5500000033753,0.047485847,-0.74847174,0.0018858843,-2.388423,0.048335478,1.6170483,0.8111097,0.03999977,0.04,-9.749749,0.47655820846557617,-0.21351302,-0.03363428,0.03155120834708214,0.08154847
2433.566666670042,0.04899364,-0.7473255,0.0019447643,-2.3894458,0.04987249,1.6185161,0.81190974,0.03999977,0.04,-9.748071,0.49088895320892334,-0.22113249,-0.033917744,0.032554324716329575,0.082880795
2433.583333336709,0.050527755,-0.74615926,0.0020046723,-2.3904865,0.051436342,1.6200106,0.8127235,0.039999764,0.04,-9.747058,0.504906415939331,-0.22918212,-0.034183983,0.03356583043932915,0.084205516
2433.600000003376,0.052088153,-0.74497306,0.002065609,-2.391545,0.053027004,1.6215297,0.8135514,0.03999976,0.04,-9.745982,0.5191317200660706,-0.23742254,-0.034431625,0.034591034054756165,0.08552082
2433.616666670043,0.05367481,-0.74376684,0.0021275715,-2.3926218,0.054644436,1.6230749,0.8143931,0.03999976,0.04,-9.745663,0.533057689666748,-0.24599597,-0.034661863,0.03561976179480553,0.086826384
2433.6333333367097,0.055287678,-0.7425408,0.0021905587,-2.3937156,0.0562886,1.624645,0.81524885,0.039999757,0.04,-9.743889,0.5482316017150879,-0.2543538,-0.03487266,0.036656465381383896,0.0881216
2433.6500000033766,0.0569267,-0.7412949,0.0022545673,-2.394827,0.057959408,1.6262411,0.8161183,0.03999975,0.04,-9.7426605,0.5630829334259033,-0.26307076,-0.035065062,0.037702299654483795,0.0894058
2433.6666666700435,0.05859182,-0.7400289,0.002319596,-2.3959568,0.05965682,1.6278623,0.81700176,0.039999746,0.04,-9.741417,0.5781407356262207,-0.27199367,-0.035236876,0.03876068443059921,0.09067755
2433.6833333367103,0.06028296,-0.7387434,0.0023856424,-2.3971038,0.061380774,1.6295091,0.8178989,0.039999746,0.04,-9.741067,0.5929189920425415,-0.28127077,-0.035390105,0.03981955721974373,0.0919382
2433.700000003377,0.062000077,-0.7374381,0.002452702,-2.3982692,0.06313119,1.6311812,0.8188099,0.039999746,0.04,-9.738984,0.6088933944702148,-0.29033315,-0.035522357,0.04089054837822914,0.09318648
2433.716666670044,0.06374306,-0.7361131,0.0025207733,-2.3994515,0.064908,1.6328783,0.8197347,0.039999742,0.04,-9.737783,0.6245650053024292,-0.29978138,-0.035634458,0.041966065764427185,0.09442046
2433.733333336711,0.06551186,-0.7347685,0.0025898528,-2.4006512,0.06671111,1.6346005,0.82067305,0.039999742,0.04,-9.737112,0.6399428844451904,-0.30956852,-0.035725676,0.043049171566963196,0.095641166
2433.750000003378,0.06730638,-0.73340434,0.0026599362,-2.4018693,0.06854045,1.636348,0.8216251,0.039999742,0.04,-9.734975,0.6564990878105164,-0.3192084,-0.035795044,0.04414042457938194,0.09684715
2433.7666666700447,0.06912648,-0.7320207,0.0027310203,-2.4031038,0.07039586,1.6381203,0.82259065,0.039999735,0.04,-9.733656,0.6727638244628906,-0.3291938,-0.035843004,0.04523542523384094,0.098038204
2433.7833333367116,0.070972085,-0.73061776,0.0028031005,-2.4043555,0.07227724,1.639917,0.8235698,0.03999973,0.04,-9.732063,0.6892017722129822,-0.3393586,-0.035868745,0.046339888125658035,0.09921304
2433.8000000033785,0.07284306,-0.7291955,0.002876173,-2.4056253,0.074184544,1.641739,0.8245625,0.039999723,0.04,-9.731214,0.7053638100624084,-0.3498379,-0.035872158,0.047451138496398926,0.10037256
2433.8166666700454,0.07473933,-0.72775406,0.0029502327,-2.4069118,0.07611761,1.6435858,0.82556844,0.039999716,0.04,-9.729031,0.7226687669754028,-0.36023635,-0.035854284,0.048566337674856186,0.10151529
2433.8333333367123,0.076660745,-0.72629344,0.003025275,-2.4082158,0.07807631,1.6454567,0.82658786,0.03999972,0.04,-9.727338,0.7396532297134399,-0.37096214,-0.03581225,0.04969052970409393,0.10263989
2433.850000003379,0.07860718,-0.72481394,0.0031012946,-2.409536,0.0800605,1.6473521,0.82762057,0.03999972,0.04,-9.725719,0.7568461298942566,-0.38185057,-0.035747785,0.05081600323319435,0.10374791
2433.866666670046,0.08057848,-0.72331554,0.0031782868,-2.4108734,0.08207006,1.6492714,0.8286663,0.03999972,0.04,-9.724557,0.7737368941307068,-0.39304626,-0.035660084,0.051953256130218506,0.10483738
2433.883333336713,0.082574554,-0.7217981,0.003256245,-2.4122279,0.08410487,1.651215,0.82972515,0.039999716,0.04,-9.722146,0.7917230725288391,-0.40419516,-0.035548095,0.053090840578079224,0.10590805
2433.90000000338,0.08459521,-0.7202621,0.0033351644,-2.4135983,0.08616475,1.653182,0.8307971,0.039999712,0.04,-9.720326,0.8094193339347839,-0.41566518,-0.03541231,0.05423230305314064,0.106959425
2433.9166666700467,0.08664033,-0.7187076,0.0034150383,-2.4149854,0.08824956,1.6551735,0.83188194,0.039999712,0.04,-9.718314,0.8272726535797119,-0.42731452,-0.035252478,0.055380530655384064,0.107990876
2433.9333333367135,0.0887097,-0.7171346,0.003495861,-2.4163895,0.09035911,1.6571885,0.83297974,0.039999705,0.04,-9.717039,0.8448620438575745,-0.439222,-0.035068203,0.056536730378866196,0.109000996
2433.9500000033804,0.090803206,-0.7155435,0.0035776256,-2.4178095,0.09249324,1.6592271,0.8340903,0.0399997,0.04,-9.714383,0.8634759187698364,-0.45116282,-0.03486019,0.057692740112543106,0.1099904
2433.9666666700473,0.09292064,-0.71393365,0.0036603266,-2.4192462,0.09465177,1.661289,0.83521354,0.039999705,0.04,-9.712194,0.881783664226532,-0.46336132,-0.034627166,0.05885636806488037,0.11095504
2433.983333336714,0.09506187,-0.7123061,0.0037439552,-2.4206986,0.09683457,1.6633738,0.8363494,0.0399997,0.04,-9.710883,0.8998984694480896,-0.47584864,-0.034370158,0.06001855432987213,0.11190133
2434.000000003381,0.09722667,-0.7106606,0.003828506,-2.4221666,0.09904143,1.6654816,0.83749783,0.039999694,0.04,-9.707847,0.9189198017120361,-0.48835698,-0.034087915,0.061187148094177246,0.11282608
2434.016666670048,0.09941489,-0.7089974,0.0039139693,-2.423651,0.10127215,1.6676121,0.8386588,0.039999694,0.04,-9.705514,0.9376935958862305,-0.50114197,-0.033780646,0.06236017495393753,0.11372791
2434.033333336715,0.10162635,-0.7073166,0.004000342,-2.4251513,0.10352654,1.6697655,0.83983207,0.039999694,0.04,-9.703215,0.9566046595573425,-0.51409596,-0.033449564,0.06353362649679184,0.11460546
2434.0500000033817,0.1038608,-0.7056183,0.004087611,-2.4266675,0.1058044,1.6719413,0.8410174,0.039999694,0.04,-9.701561,0.9752846956253052,-0.5272869,-0.033093322,0.06470832973718643,0.115459695
2434.0666666700486,0.10611808,-0.70390284,0.0041757724,-2.428199,0.10810552,1.6741389,0.8422149,0.03999969,0.04,-9.698348,0.994831919670105,-0.5406141,-0.032711618,0.06588536500930786,0.11629051
2434.0833333367154,0.10839795,-0.70217013,0.004264815,-2.4297462,0.11042968,1.6763586,0.8434244,0.03999969,0.04,-9.695775,1.0141299962997437,-0.55414456,-0.03230477,0.06706290692090988,0.11709711
2434.1000000033823,0.11070021,-0.7004204,0.004354734,-2.4313085,0.11277668,1.6786001,0.84464574,0.03999969,0.04,-9.693194,1.0335603952407837,-0.5678843,-0.031873252,0.06824029982089996,0.11787964
2434.116666670049,0.11302463,-0.69865376,0.0044455184,-2.4328861,0.115146294,1.6808631,0.84587896,0.039999686,0.04,-9.691157,1.0527480840682983,-0.58181137,-0.03141636,0.06941875070333481,0.118635625
2434.133333336716,0.11537103,-0.6968704,0.00453716,-2.4344769,0.11753827,1.6831478,0.84712386,0.039999682,0.04,-9.68775,1.0727267265319824,-0.5959544,-0.03093543,0.07059533894062042,0.11936334
2434.150000003383,0.11773915,-0.69507056,0.004629651,-2.4360826,0.11995242,1.6854535,0.84838,0.03999968,0.04,-9.684631,1.0924601554870605,-0.6102954,-0.030428372,0.07178140431642532,0.120066896
2434.16666667005,0.12012878,-0.6932545,0.0047229817,-2.4377031,0.12238849,1.6877803,0.8496477,0.03999967,0.04,-9.6817255,1.112312912940979,-0.6247983,-0.029895185,0.07296624779701233,0.12074303
2434.1833333367167,0.12253967,-0.69142216,0.0048171417,-2.4393387,0.12484622,1.6901278,0.8509266,0.039999675,0.04,-9.679445,1.131969928741455,-0.63943744,-0.029337633,0.07414890080690384,0.12139317
2434.2000000033836,0.124971576,-0.68957394,0.004912123,-2.4409878,0.12732546,1.6924957,0.8522166,0.039999668,0.04,-9.675753,1.1523232460021973,-0.65437675,-0.028755007,0.07532807439565659,0.12201696
2434.2166666700505,0.12742427,-0.6877099,0.005007916,-2.4426515,0.12982582,1.694884,0.85351765,0.03999967,0.04,-9.672502,1.172433614730835,-0.6694624,-0.028147705,0.07650777697563171,0.122611836
2434.2333333367174,0.1298975,-0.68583035,0.0051045096,-2.444329,0.1323471,1.697292,0.85482967,0.03999967,0.04,-9.669959,1.1923710107803345,-0.6846704,-0.027515696,0.0776851624250412,0.123178065
2434.2500000033842,0.13239102,-0.68393546,0.005201894,-2.4460206,0.13488905,1.6997197,0.85615253,0.03999967,0.04,-9.665997,1.2129417657852173,-0.70020497,-0.026859453,0.07885804772377014,0.12371823
2434.266666670051,0.1349045,-0.6820253,0.0053000613,-2.4477255,0.13745143,1.7021672,0.85748583,0.039999668,0.04,-9.662577,1.2332806587219238,-0.7158675,-0.026179342,0.08002859354019165,0.12422819
2434.283333336718,0.13743775,-0.68010026,0.0053989985,-2.4494436,0.14003395,1.7046336,0.85882974,0.03999966,0.04,-9.659099,1.2537128925323486,-0.73173046,-0.02547443,0.08119573444128036,0.124710515
2434.300000003385,0.1399905,-0.6781603,0.0054986966,-2.4511745,0.1426363,1.7071192,0.8601841,0.039999664,0.04,-9.656107,1.2739461660385132,-0.7476747,-0.0247458,0.0823608785867691,0.12516247
2434.3166666700517,0.14256243,-0.67620593,0.0055991467,-2.4529192,0.14525832,1.7096233,0.8615486,0.039999653,0.04,-9.651774,1.294709324836731,-0.7640281,-0.023993278,0.08352306485176086,0.1255858
2434.3333333367186,0.14515333,-0.67423713,0.005700333,-2.454677,0.14789961,1.712146,0.86292297,0.03999966,0.04,-9.64813,1.3153005838394165,-0.7804312,-0.023218216,0.08467673510313034,0.12597896
2434.3500000033855,0.14776291,-0.67225415,0.005802249,-2.456447,0.15056004,1.7146869,0.8643074,0.03999965,0.04,-9.644338,1.3359322547912598,-0.7970583,-0.022418652,0.08582443743944168,0.12634254
2434.3666666700524,0.15039083,-0.67025715,0.0059048836,-2.458229,0.15323912,1.7172455,0.8657016,0.039999653,0.04,-9.640968,1.3563803434371948,-0.81374615,-0.02159661,0.08696932345628738,0.12667513
2434.3833333367193,0.15303689,-0.6682465,0.0060082255,-2.4600239,0.15593669,1.7198219,0.8671054,0.039999653,0.04,-9.636333,1.3772672414779663,-0.8308826,-0.020751752,0.08810783922672272,0.12697779
2434.400000003386,0.15570073,-0.6662224,0.0061122626,-2.4618301,0.15865241,1.7224157,0.86851865,0.03999965,0.04,-9.632266,1.3979798555374146,-0.8480786,-0.019884357,0.08924006670713425,0.12724994
2434.416666670053,0.15838209,-0.6641849,0.00621698,-2.4636488,0.161386,1.7250264,0.8699411,0.039999653,0.04,-9.628039,1.4187066555023193,-0.86545527,-0.018994434,0.09036678820848465,0.12749031
2434.43333333672,0.16108061,-0.6621343,0.0063223704,-2.4654787,0.16413715,1.727654,0.8713727,0.039999645,0.04,-9.624457,1.4393291473388672,-0.8828491,-0.018082945,0.09148304909467697,0.12770107
2434.450000003387,0.1637961,-0.660071,0.0064284215,-2.46732,0.16690554,1.730298,0.8728131,0.03999964,0.04,-9.619445,1.4602206945419312,-0.9007942,-0.017149633,0.09259406477212906,0.12788005
2434.4666666700537,0.16652817,-0.6579952,0.0065351212,-2.4691725,0.16969082,1.7329582,0.87426245,0.039999645,0.04,-9.615006,1.4809671640396118,-0.9187101,-0.016194217,0.09369628876447678,0.128027
2434.4833333367205,0.16927654,-0.6559069,0.0066424566,-2.4710364,0.17249276,1.7356342,0.8757203,0.03999965,0.04,-9.611074,1.501623511314392,-0.9366431,-0.0152187,0.09479018300771713,0.12814364
2434.5000000033874,0.1720409,-0.65380645,0.006750415,-2.472911,0.17531104,1.7383256,0.87718683,0.03999964,0.04,-9.605926,1.5224766731262207,-0.9551449,-0.014222341,0.09587183594703674,0.12822883
2434.5166666700543,0.17482096,-0.65169424,0.0068589854,-2.4747965,0.1781453,1.7410324,0.87866145,0.03999964,0.04,-9.601183,1.5431978702545166,-0.9736394,-0.0132068,0.09694420546293259,0.12828238
2434.533333336721,0.17761636,-0.64957035,0.0069681555,-2.476692,0.1809952,1.7437541,0.88014406,0.039999634,0.04,-9.596454,1.5639046430587769,-0.99230444,-0.012170721,0.09800487011671066,0.12830429
2434.550000003388,0.18042682,-0.64743507,0.0070779133,-2.478598,0.18386051,1.7464902,0.88163465,0.039999634,0.04,-9.592096,1.5845067501068115,-1.0109513,-0.011114567,0.0990559309720993,0.12829465
2434.566666670055,0.18325195,-0.64528877,0.0071882457,-2.4805143,0.1867408,1.7492409,0.8831334,0.03999963,0.04,-9.586627,1.6052217483520508,-1.0301903,-0.010040458,0.1000923216342926,0.1282523
2434.583333336722,0.1860915,-0.6431313,0.0072991406,-2.4824395,0.18963575,1.7520055,0.8846397,0.039999634,0.04,-9.581573,1.6258306503295898,-1.0494056,-0.008949553,0.10111796110868454,0.1281799
2434.6000000033887,0.1889451,-0.6409632,0.0074105836,-2.4843748,0.19254507,1.754784,0.88615346,0.039999634,0.04,-9.576343,1.6463496685028076,-1.0688206,-0.007839759,0.10213324427604675,0.12807487
2434.6166666700556,0.19181243,-0.63878477,0.007522561,-2.4863193,0.19546841,1.7575756,0.8876747,0.03999963,0.04,-9.571744,1.6668627262115479,-1.0881476,-0.0067136823,0.10313363373279572,0.12793897
2434.6333333367224,0.19469316,-0.6365963,0.0076350626,-2.4882724,0.1984054,1.7603805,0.88920265,0.039999627,0.04,-9.565883,1.6873008012771606,-1.1081232,-0.0055713714,0.104119673371315,0.12776944
2434.6500000033893,0.19758695,-0.6343978,0.007748074,-2.4902344,0.2013557,1.7631979,0.89073783,0.039999623,0.04,-9.560429,1.707674264907837,-1.1280376,-0.0044108066,0.10509416460990906,0.12757024
2434.666666670056,0.20049343,-0.63218963,0.007861582,-2.4922054,0.20431893,1.7660279,0.8922797,0.039999623,0.04,-9.554926,1.7279632091522217,-1.1481292,-0.0032357553,0.10605388134717941,0.1273375
2434.683333336723,0.20341232,-0.6299721,0.007975571,-2.4941847,0.20729484,1.7688698,0.8938282,0.039999615,0.04,-9.549914,1.748244285583496,-1.1681281,-0.0020461532,0.10699759423732758,0.12707557
2434.70000000339,0.20634323,-0.62774557,0.00809003,-2.4961722,0.21028301,1.7717233,0.8953829,0.03999962,0.04,-9.543754,1.7683435678482056,-1.1888086,-0.00084183796,0.10792480409145355,0.12678286
2434.716666670057,0.2092858,-0.6255103,0.008204948,-2.498168,0.2132831,1.7745881,0.8969439,0.03999961,0.04,-9.538031,1.7883931398391724,-1.209378,0.00037723113,0.10883478820323944,0.12645727
2434.7333333367237,0.21223976,-0.6232662,0.008320308,-2.5001717,0.21629478,1.7774639,0.8985108,0.0399996,0.04,-9.532718,1.8084262609481812,-1.2298437,0.0016081763,0.10972712934017181,0.12610196
2434.7500000033906,0.21520467,-0.6210138,0.008436097,-2.5021822,0.21931762,1.7803504,0.9000836,0.0399996,0.04,-9.526374,1.8282065391540527,-1.251048,0.0028531011,0.11060011386871338,0.12571563
2434.7666666700575,0.21818036,-0.61875343,0.008552302,-2.5042,0.22235131,1.7832478,0.901662,0.039999604,0.04,-9.520297,1.8479371070861816,-1.2721301,0.004110127,0.11145919561386108,0.12529859
2434.7833333367244,0.2211662,-0.6164853,0.008668906,-2.5062242,0.22539558,1.786155,0.9032459,0.039999604,0.04,-9.514226,1.867537260055542,-1.2933713,0.0053793215,0.11230195313692093,0.124849916
2434.8000000033912,0.22416198,-0.6142097,0.008785899,-2.5082555,0.2284499,1.7890716,0.9048351,0.039999604,0.04,-9.508429,1.8871568441390991,-1.3144562,0.0066593126,0.11312714964151382,0.12437085
2434.816666670058,0.22716728,-0.61192673,0.008903263,-2.510293,0.23151398,1.7919978,0.90642935,0.039999604,0.04,-9.501823,1.9064311981201172,-1.3362645,0.007948979,0.1139310821890831,0.12386153
2434.833333336725,0.23018178,-0.6096371,0.009020988,-2.5123365,0.23458748,1.7949328,0.9080285,0.039999597,0.04,-9.4954605,1.9256749153137207,-1.3579814,0.009248496,0.11471797525882721,0.123323016
2434.850000003392,0.23320515,-0.6073405,0.009139056,-2.5143862,0.23766997,1.7978759,0.9096322,0.039999597,0.04,-9.489054,1.944775938987732,-1.3797821,0.010557537,0.11548526585102081,0.12275467
2434.8666666700587,0.23623697,-0.6050379,0.0092574535,-2.5164423,0.24076112,1.8008271,0.9112405,0.039999593,0.04,-9.48301,1.9639034271240234,-1.4014423,0.011874971,0.11622873693704605,0.12215653
2434.8833333367256,0.23927692,-0.60272914,0.009376171,-2.5185037,0.24386056,1.8037864,0.91285306,0.039999597,0.04,-9.4761305,1.982581377029419,-1.4238346,0.013199263,0.11694993823766708,0.12153109
2434.9000000033925,0.24232462,-0.60041463,0.009495191,-2.5205696,0.24696784,1.806753,0.9144698,0.0399996,0.04,-9.469485,2.0012295246124268,-1.4460982,0.014531034,0.11765071749687195,0.12087553
2434.9166666700594,0.2453797,-0.59809446,0.0096145,-2.5226407,0.25008267,1.8097271,0.9160903,0.0399996,0.04,-9.462725,2.0197160243988037,-1.4684952,0.015869394,0.11833211779594421,0.120192595
2434.9333333367263,0.24844176,-0.5957689,0.00973408,-2.524717,0.25320473,1.8127084,0.91771454,0.039999593,0.04,-9.456322,2.0382533073425293,-1.4907013,0.017213663,0.1189914271235466,0.11948108
2434.950000003393,0.25151044,-0.59343815,0.009853921,-2.5267968,0.25633356,1.8156971,0.9193424,0.0399996,0.04,-9.449204,2.0562314987182617,-1.5136844,0.01856202,0.11962798982858658,0.11874266
2434.96666667006,0.25458536,-0.59110284,0.009974005,-2.5288815,0.25946864,1.8186904,0.9209734,0.0399996,0.04,-9.442133,2.074169158935547,-1.5365261,0.019915367,0.12025046348571777,0.11797528
2434.983333336727,0.25766614,-0.58876306,0.010094319,-2.5309699,0.26260975,1.8216907,0.92260766,0.0399996,0.04,-9.435602,2.092240333557129,-1.5590141,0.02127213,0.12084003537893295,0.117182516
2435.000000003394,0.26075238,-0.58641887,0.010214848,-2.5330622,0.2657565,1.8246953,0.92424476,0.039999604,0.04,-9.428191,2.1096115112304688,-1.5824158,0.022631517,0.12141285836696625,0.11636282
2435.0166666700607,0.2638438,-0.58407086,0.0103355795,-2.535158,0.26890844,1.8277049,0.9258846,0.039999593,0.04,-9.421184,2.1270596981048584,-1.6055132,0.023991976,0.12195460498332977,0.11551858
2435.0333333367275,0.26693997,-0.58171934,0.010456497,-2.5372572,0.27206525,1.8307189,0.927527,0.0399996,0.04,-9.41397,2.144260883331299,-1.6287792,0.025354361,0.12247340381145477,0.11464849
2435.0500000033944,0.27004054,-0.57936496,0.010577585,-2.5393586,0.27522653,1.8337375,0.9291717,0.039999604,0.04,-9.4070835,2.161579132080078,-1.6517892,0.026716411,0.12296402454376221,0.11375398
2435.0666666700613,0.2731451,-0.5770073,0.010698829,-2.541463,0.27839193,1.8367599,0.9308184,0.039999604,0.04,-9.399345,2.178060531616211,-1.6756078,0.028080586,0.12343868613243103,0.11283356
2435.083333336728,0.2762533,-0.5746472,0.010820215,-2.5435698,0.28156102,1.8397858,0.9324669,0.039999597,0.04,-9.39208,2.1946821212768555,-1.6991757,0.029443309,0.12388420850038528,0.11188999
2435.100000003395,0.27936465,-0.5722844,0.010941729,-2.5456784,0.28473338,1.8428149,0.9341172,0.039999604,0.04,-9.384664,2.211066484451294,-1.7228192,0.030805288,0.12430515140295029,0.11092359
2435.116666670062,0.28247893,-0.56991935,0.011063355,-2.5477896,0.2879087,1.8458468,0.9357691,0.039999593,0.04,-9.377401,2.227543830871582,-1.7462716,0.032164384,0.12470122426748276,0.10993323
2435.133333336729,0.28559566,-0.5675524,0.011185079,-2.5499022,0.2910865,1.848881,0.9374222,0.03999959,0.04,-9.369757,2.2431774139404297,-1.7704581,0.03351983,0.1250678449869156,0.10892136
2435.1500000033957,0.2887145,-0.56518435,0.01130688,-2.5520163,0.2942664,1.8519173,0.9390764,0.039999604,0.04,-9.362151,2.2588727474212646,-1.7944199,0.03487189,0.12541010975837708,0.107887514
2435.1666666700626,0.29183495,-0.56281507,0.011428753,-2.5541315,0.29744798,1.8549552,0.9407316,0.039999597,0.04,-9.354547,2.274357557296753,-1.8184127,0.03621985,0.1257263571023941,0.106832825
2435.1833333367294,0.2949567,-0.56044424,0.01155068,-2.556247,0.30063105,1.8579947,0.94238746,0.039999593,0.04,-9.347038,2.2899467945098877,-1.8421798,0.037562035,0.12601599097251892,0.10575724
2435.2000000033963,0.29807946,-0.5580732,0.011672643,-2.558363,0.30381498,1.8610351,0.9440439,0.039999593,0.04,-9.339129,2.304565668106079,-1.8667564,0.038898297,0.12628106772899628,0.10466067
2435.216666670063,0.30120277,-0.5557019,0.011794631,-2.5604792,0.30699953,1.8640759,0.9457006,0.039999593,0.04,-9.331326,2.319312572479248,-1.8909822,0.040228784,0.1265222430229187,0.10354732
2435.23333333673,0.30432618,-0.5533307,0.011916626,-2.5625963,0.31018433,1.8671168,0.9473573,0.039999597,0.04,-9.323675,2.334188222885132,-1.9149284,0.041551907,0.12673476338386536,0.10241509
2435.250000003397,0.30744943,-0.5509594,0.01203861,-2.5647132,0.31336877,1.8701576,0.949014,0.039999597,0.04,-9.315769,2.3480706214904785,-1.9396322,0.042866338,0.1269187182188034,0.101260595
2435.266666670064,0.3105721,-0.5485886,0.012160576,-2.5668292,0.31655255,1.8731978,0.9506703,0.0399996,0.04,-9.307953,2.3620765209198,-1.9640762,0.044171013,0.12707370519638062,0.10009083
2435.2833333367307,0.31369373,-0.5462182,0.012282506,-2.5689442,0.3197355,1.8762372,0.95232606,0.039999604,0.04,-9.300016,2.375786304473877,-1.9885768,0.045467537,0.12720252573490143,0.098904155
2435.3000000033976,0.31681395,-0.54384935,0.01240438,-2.571059,0.32291695,1.8792746,0.9539811,0.03999961,0.04,-9.292091,2.389641284942627,-2.0128138,0.046753984,0.12730593979358673,0.09770091
2435.3166666700645,0.31993255,-0.541482,0.012526193,-2.5731728,0.32609674,1.8823106,0.9556352,0.03999961,0.04,-9.284172,2.402495861053467,-2.0376697,0.04802839,0.12737615406513214,0.09648256
2435.3333333367314,0.32304904,-0.5391158,0.012647924,-2.575285,0.3292743,1.8853444,0.9572881,0.039999608,0.04,-9.276194,2.4154179096221924,-2.0622942,0.04929146,0.12741969525814056,0.09525033
2435.3500000033982,0.3261629,-0.5367516,0.012769559,-2.5773952,0.33244923,1.8883761,0.9589398,0.03999962,0.04,-9.268167,2.428065061569214,-2.0869868,0.050542835,0.12743395566940308,0.09400258
2435.366666670065,0.32927388,-0.53439003,0.012891083,-2.5795035,0.33562124,1.8914047,0.9605898,0.03999962,0.04,-9.260133,2.4409143924713135,-2.1113725,0.051780183,0.1274232566356659,0.0927435
2435.383333336732,0.3323816,-0.53203124,0.013012479,-2.5816095,0.33878982,1.8944302,0.9622381,0.03999962,0.04,-9.252024,2.452578544616699,-2.1363895,0.053004872,0.1273842751979828,0.09146822
2435.400000003399,0.33548564,-0.52967477,0.013133735,-2.583713,0.34195486,1.8974519,0.9638845,0.039999615,0.04,-9.243906,2.4644203186035156,-2.1611266,0.054216392,0.1273198276758194,0.0901843
2435.4166666700658,0.33858562,-0.5273217,0.013254838,-2.5858133,0.34511566,1.9004697,0.9655288,0.03999962,0.04,-9.235894,2.4759888648986816,-2.1858919,0.055410992,0.12722310423851013,0.0888851
2435.4333333367326,0.34168127,-0.5249718,0.013375769,-2.587911,0.348272,1.903483,0.96717083,0.039999623,0.04,-9.227615,2.4876999855041504,-2.21036,0.05659117,0.12710310518741608,0.087577365
2435.4500000033995,0.3447722,-0.52262527,0.013496517,-2.5900056,0.35142332,1.9064918,0.9688102,0.039999627,0.039999995,-9.219602,2.49825382232666,-2.2354565,0.05775447,0.12695322930812836,0.08626137
2435.4666666700664,0.34785777,-0.5202829,0.013617066,-2.5920966,0.3545694,1.9094963,0.97044677,0.039999634,0.04,-9.211567,2.508985996246338,-2.2602358,0.05890032,0.12677104771137238,0.08493543
2435.4833333367333,0.3509378,-0.51794505,0.013737395,-2.5941834,0.35770994,1.9124943,0.97208035,0.039999638,0.039999995,-9.203227,2.519879102706909,-2.2847543,0.060029525,0.12656913697719574,0.08360066
2435.5000000034,0.354012,-0.5156118,0.013857497,-2.5962667,0.36084437,1.9154874,0.9737108,0.03999964,0.039999995,-9.19516,2.5295283794403076,-2.3097866,0.061141014,0.1263352334499359,0.08225685
2435.516666670067,0.35707983,-0.5132832,0.013977357,-2.598345,0.3639724,1.9184732,0.975338,0.039999645,0.04,-9.187019,2.539386510848999,-2.3345656,0.062234238,0.12607687711715698,0.08090504
2435.533333336734,0.360141,-0.51095986,0.014096957,-2.600419,0.36709362,1.9214541,0.97696155,0.039999645,0.03999999,-9.1788435,2.5489501953125,-2.3593025,0.063307524,0.12578752636909485,0.07955
2435.550000003401,0.36319512,-0.5086419,0.014216285,-2.6024885,0.3702076,1.9244279,0.9785814,0.03999965,0.039999988,-9.170523,2.558708906173706,-2.3837724,0.06436154,0.12547846138477325,0.07818733
2435.5666666700677,0.36624184,-0.50632966,0.014335331,-2.6045532,0.37331414,1.927394,0.98019737,0.039999656,0.03999999,-9.162508,2.5672054290771484,-2.4087572,0.06539522,0.12514153122901917,0.07681964
2435.5833333367345,0.36928076,-0.5040233,0.014454071,-2.606613,0.37641266,1.9303526,0.9818092,0.039999664,0.03999999,-9.1544485,2.5759334564208984,-2.4333897,0.066406816,0.12477347254753113,0.075449266
2435.6000000034014,0.3723115,-0.5017233,0.014572501,-2.608666,0.37950292,1.9333034,0.9834167,0.039999668,0.03999999,-9.14631,2.5843513011932373,-2.458033,0.06739673,0.12437890470027924,0.07407515
2435.6166666700683,0.3753337,-0.49942952,0.014690601,-2.610713,0.38258445,1.9362458,0.9850196,0.039999668,0.03999998,-9.13785,2.5929040908813477,-2.4823792,0.06836694,0.12396325170993805,0.07269825
2435.633333336735,0.378347,-0.49714264,0.014808359,-2.6127548,0.3856569,1.9391787,0.9866179,0.03999967,0.03999998,-9.129916,2.600231170654297,-2.5072184,0.06931411,0.12352117151021957,0.071317844
2435.650000003402,0.38135117,-0.49486282,0.014925755,-2.6147902,0.3887199,1.9421033,0.9882113,0.03999968,0.039999984,-9.121911,2.6078078746795654,-2.5316763,0.07023702,0.12304683774709702,0.06993819
2435.666666670069,0.38434565,-0.49259028,0.01504278,-2.6168184,0.3917731,1.945018,0.9897995,0.039999682,0.03999998,-9.11381,2.615046977996826,-2.5561366,0.071137324,0.12254980951547623,0.068558805
2435.683333336736,0.38733014,-0.4903253,0.0151594225,-2.6188402,0.3948161,1.9479235,0.99138236,0.039999682,0.039999977,-9.105414,2.622478723526001,-2.580287,0.072014555,0.12202882021665573,0.0671777
2435.7000000034027,0.3903043,-0.48806828,0.015275665,-2.6208549,0.39784855,1.9508185,0.99295974,0.03999968,0.039999966,-9.097638,2.6286678314208984,-2.6048672,0.07286711,0.1214827373623848,0.065798804
2435.7166666700696,0.39326775,-0.4858194,0.015391494,-2.6228623,0.40087023,1.9537034,0.9945315,0.039999682,0.03999996,-9.089552,2.635021686553955,-2.6291125,0.07369599,0.12091249972581863,0.06442179
2435.7333333367365,0.39622012,-0.48357898,0.015506894,-2.6248622,0.4038806,1.9565774,0.9960974,0.039999686,0.03999997,-9.0813055,2.6416311264038086,-2.6530645,0.074498065,0.12031741440296173,0.06304322
2435.7500000034033,0.3991612,-0.48134723,0.015621853,-2.626854,0.40687925,1.9594402,0.9976573,0.039999694,0.03999997,-9.07358,2.646946668624878,-2.677408,0.07527542,0.11969909816980362,0.06167092
2435.76666667007,0.40209043,-0.47912437,0.015736355,-2.6288378,0.40986595,1.9622916,0.9992109,0.039999694,0.03999996,-9.065581,2.6524574756622314,-2.7014241,0.07602769,0.1190580278635025,0.060302824
2435.783333336737,0.40500757,-0.4769108,0.015850395,-2.6308136,0.41284037,1.9651313,1.0007585,0.039999697,0.039999958,-9.057683,2.6577231884002686,-2.7253585,0.076753125,0.11839276552200317,0.05893894
2435.800000003404,0.4079124,-0.47470668,0.015963953,-2.6327815,0.415802,1.967959,1.0022991,0.039999697,0.039999954,-9.049421,2.6631851196289062,-2.7489944,0.07744995,0.11770658940076828,0.057578642
2435.816666670071,0.41080436,-0.47251222,0.016077016,-2.6347399,0.41875067,1.9707743,1.0038329,0.039999705,0.039999954,-9.041992,2.6674013137817383,-2.7729318,0.07812167,0.11699533462524414,0.056227032
2435.8333333367377,0.4136833,-0.47032785,0.01618957,-2.63669,0.421686,1.9735767,1.0053598,0.039999712,0.039999958,-9.034044,2.6717562675476074,-2.7966087,0.078766875,0.11626511812210083,0.054878734
2435.8500000034046,0.4165487,-0.46815366,0.016301598,-2.6386309,0.42460752,1.976366,1.0068799,0.03999972,0.039999958,-9.026306,2.675926923751831,-2.8201256,0.07938463,0.11551126837730408,0.053539097
2435.8666666700715,0.41940033,-0.46598998,0.0164131,-2.6405623,0.427515,1.979142,1.0083926,0.039999727,0.039999958,-9.0182,2.680323839187622,-2.8433704,0.079971455,0.11473659425973892,0.052207544
2435.8833333367384,0.42223793,-0.46383715,0.01652405,-2.642484,0.43040806,1.9819039,1.0098976,0.039999727,0.039999954,-9.010849,2.683393716812134,-2.866878,0.08053162,0.11394052952528,0.05088334
2435.9000000034052,0.425061,-0.4616952,0.016634444,-2.6443958,0.43328646,1.984652,1.0113946,0.039999723,0.039999947,-9.003157,2.6867055892944336,-2.8900714,0.08106489,0.11312475800514221,0.049567785
2435.916666670072,0.42786932,-0.45956445,0.016744263,-2.6462977,0.43614966,1.9873857,1.0128839,0.03999974,0.039999958,-8.99551,2.689770221710205,-2.913173,0.08157119,0.11229065805673599,0.04826106
2435.933333336739,0.4306625,-0.4574453,0.016853496,-2.648189,0.43899754,1.9901049,1.0143656,0.03999974,0.039999954,-8.987542,2.6931052207946777,-2.9359403,0.08204774,0.11143583059310913,0.046965618
2435.950000003406,0.43344027,-0.45533776,0.016962137,-2.6500704,0.44182968,1.9928089,1.0158393,0.03999975,0.039999958,-8.980363,2.695120096206665,-2.9589372,0.08249431,0.11056431382894516,0.0456804
2435.9666666700728,0.43620235,-0.45324227,0.017070161,-2.651941,0.44464582,1.9954976,1.0173049,0.03999975,0.03999995,-8.972956,2.697458028793335,-2.9816246,0.082909405,0.10967206954956055,0.044407405
2435.9833333367396,0.4389484,-0.451159,0.017177563,-2.653801,0.44744554,1.9981707,1.0187603,0.039999746,0.039999943,-8.965018,2.699965715408325,-3.0040245,0.083295226,0.10876327753067017,0.04314455
2436.0000000034065,0.44167805,-0.4490882,0.017284336,-2.6556497,0.4502285,2.000828,1.0202074,0.039999757,0.039999958,-8.958152,2.701284885406494,-3.0265555,0.08365862,0.10783389210700989,0.041892897
2436.0166666700734,0.44439095,-0.44703004,0.017390452,-2.6574867,0.45299459,2.0034683,1.0216465,0.039999757,0.03999995,-8.950782,2.7028419971466064,-3.0488393,0.08399105,0.10689108818769455,0.040656753
2436.0333333367403,0.447087,-0.44498482,0.017495913,-2.6593127,0.45574328,2.0060925,1.023076,0.03999976,0.03999995,-8.943464,2.7041242122650146,-3.070945,0.084290296,0.10592921823263168,0.03943236
2436.050000003407,0.44976568,-0.44295272,0.017600706,-2.6611269,0.45847434,2.0087006,1.0244963,0.039999764,0.03999995,-8.93579,2.705695152282715,-3.0927684,0.08456217,0.10495050996541977,0.038221743
2436.066666670074,0.4524268,-0.44093385,0.017704818,-2.6629283,0.46118745,2.0112903,1.025908,0.03999977,0.03999995,-8.929083,2.7060444355010986,-3.1147344,0.08480467,0.10396182537078857,0.0370251
2436.083333336741,0.4550701,-0.4389287,0.017808242,-2.6647184,0.46388224,2.013863,1.0273097,0.03999978,0.039999958,-8.9219265,2.706622362136841,-3.1363592,0.08501487,0.10295401513576508,0.035843987
2436.100000003408,0.4576952,-0.4369374,0.017910955,-2.666496,0.46655855,2.0164192,1.0287021,0.03999978,0.039999954,-8.914959,2.7070398330688477,-3.1578214,0.08519732,0.10193154960870743,0.03467895
2436.1166666700747,0.46030194,-0.43496,0.018012956,-2.668261,0.46921608,2.0189557,1.0300844,0.03999978,0.03999995,-8.907345,2.707642078399658,-3.1790607,0.085348494,0.10090116411447525,0.033527546
2436.1333333367415,0.4628899,-0.43299696,0.01811423,-2.6700134,0.47185454,2.0214753,1.0314567,0.039999783,0.03999995,-8.901018,2.707122325897217,-3.2002585,0.0854716,0.0998491495847702,0.032394126
2436.1500000034084,0.46545887,-0.43104836,0.018214766,-2.671753,0.47447354,2.0239751,1.0328193,0.039999783,0.039999954,-8.89414,2.7068543434143066,-3.2212577,0.08556426,0.09879046678543091,0.031273838
2436.1666666700753,0.46800858,-0.42911428,0.018314552,-2.673479,0.4770729,2.0264575,1.0341712,0.039999787,0.03999996,-8.887331,2.7063663005828857,-3.2420182,0.08562667,0.0977141484618187,0.030171352
2436.183333336742,0.47053874,-0.42719522,0.018413572,-2.6751919,0.47965237,2.02892,1.0355129,0.039999783,0.03999995,-8.879938,2.706106662750244,-3.2625978,0.085661046,0.09663289785385132,0.02908732
2436.200000003409,0.4730491,-0.4252911,0.018511824,-2.6768916,0.48221153,2.0313642,1.0368443,0.03999979,0.03999997,-8.873872,2.7047643661499023,-3.2830672,0.08566565,0.09553598612546921,0.028016197
2436.216666670076,0.47553942,-0.42340225,0.018609298,-2.6785774,0.48475024,2.033788,1.0381651,0.039999794,0.03999996,-8.867256,2.7037196159362793,-3.3033562,0.08563985,0.09443426132202148,0.02696861
2436.233333336743,0.47800925,-0.42152894,0.018705983,-2.6802495,0.48726815,2.0361915,1.0394751,0.039999794,0.03999997,-8.860108,2.7028422355651855,-3.323305,0.08558392,0.09331674873828888,0.025931116
2436.2500000034097,0.48045847,-0.41967127,0.018801868,-2.6819074,0.48976502,2.0385761,1.0407739,0.0399998,0.039999973,-8.85425,2.7009949684143066,-3.343226,0.08549922,0.09218821674585342,0.024919545
2436.2666666700766,0.4828868,-0.41782933,0.018896941,-2.683552,0.49224073,2.0409398,1.0420617,0.039999805,0.03999997,-8.847778,2.6993536949157715,-3.362951,0.085386544,0.09105902165174484,0.023929244
2436.2833333367435,0.48529416,-0.4160035,0.0189912,-2.6851819,0.49469492,2.0432827,1.0433382,0.0399998,0.03999996,-8.841586,2.697593927383423,-3.382375,0.08524173,0.08991166949272156,0.022952167
2436.3000000034103,0.48768005,-0.41419387,0.019084623,-2.6867979,0.4971273,2.045605,1.0446033,0.03999981,0.039999977,-8.834553,2.6959359645843506,-3.4016297,0.08507102,0.08875937759876251,0.021992898
2436.316666670077,0.49004447,-0.4124007,0.019177206,-2.6883986,0.49953765,2.047907,1.0458572,0.03999981,0.039999977,-8.829097,2.6934616565704346,-3.420745,0.0848699,0.08759704232215881,0.02105715
2436.333333336744,0.49238712,-0.41062406,0.019268943,-2.6899838,0.50192577,2.0501878,1.0470996,0.039999805,0.039999966,-8.82287,2.691102981567383,-3.4396589,0.08464129,0.08643483370542526,0.020141177
2436.350000003411,0.49470785,-0.40886408,0.019359825,-2.691554,0.50429136,2.052447,1.0483304,0.03999981,0.039999977,-8.816728,2.6885581016540527,-3.458338,0.084385924,0.08526747673749924,0.019239234
2436.366666670078,0.49700624,-0.407121,0.019449843,-2.6931102,0.5066342,2.0546842,1.0495496,0.03999981,0.03999997,-8.810054,2.6863203048706055,-3.4767694,0.084102556,0.08409375697374344,0.018362148
2436.3833333367447,0.499282,-0.40539497,0.019538986,-2.6946514,0.5089538,2.0568993,1.0507568,0.039999813,0.03999997,-8.8049345,2.6832549571990967,-3.4950187,0.08378878,0.08291012793779373,0.017506743
2436.4000000034116,0.50153524,-0.40368623,0.019627247,-2.6961772,0.5112506,2.0590925,1.0519516,0.039999817,0.039999973,-8.799122,2.680375576019287,-3.513076,0.08344634,0.08172032237052917,0.016671568
2436.4166666700785,0.50376546,-0.40199482,0.019714614,-2.697687,0.5135243,2.0612633,1.0531344,0.039999817,0.039999977,-8.793363,2.6773123741149902,-3.5308971,0.08307903,0.08052470535039902,0.0158554
2436.4333333367454,0.5059728,-0.40032098,0.019801091,-2.6991808,0.5157743,2.0634117,1.0543052,0.039999813,0.039999973,-8.78685,2.674445152282715,-3.548555,0.082684025,0.07932865619659424,0.015057808
2436.4500000034122,0.5081566,-0.39866486,0.019886654,-2.700659,0.5180008,2.0655377,1.0554631,0.039999817,0.03999998,-8.781932,2.6707663536071777,-3.5659645,0.082263015,0.07812891155481339,0.014280548
2436.466666670079,0.5103172,-0.39702657,0.019971306,-2.7021215,0.5202031,2.0676408,1.0566088,0.03999982,0.03999998,-8.776363,2.667375087738037,-3.5831666,0.08181718,0.07692684978246689,0.013525094
2436.483333336746,0.51245385,-0.39540634,0.020055037,-2.7035673,0.52238125,2.069721,1.0577421,0.039999813,0.039999973,-8.770164,2.6641476154327393,-3.6001496,0.081344694,0.07572325319051743,0.012789632
2436.500000003413,0.514567,-0.39380395,0.020137837,-2.7049973,0.5245351,2.0717776,1.0588624,0.03999982,0.03999998,-8.765388,2.660137414932251,-3.6169236,0.08084699,0.0745202898979187,0.012073685
2436.5166666700798,0.516656,-0.3922199,0.0202197,-2.7064111,0.52666444,2.0738108,1.0599704,0.039999817,0.039999977,-8.760148,2.6564061641693115,-3.6334314,0.08032481,0.07331062853336334,0.011380471
2436.5333333367466,0.5187207,-0.39065415,0.020300627,-2.707808,0.52876896,2.07582,1.0610653,0.039999824,0.039999984,-8.754889,2.6525704860687256,-3.6497536,0.07977606,0.07210015505552292,0.010708463
2436.5500000034135,0.520761,-0.389107,0.020380601,-2.709189,0.5308488,2.0778053,1.0621474,0.03999983,0.03999999,-8.748877,2.648890733718872,-3.6659,0.079204336,0.07088980823755264,0.010056355
2436.5666666700804,0.52277684,-0.3875784,0.020459613,-2.7105534,0.5329038,2.0797672,1.0632163,0.039999824,0.03999998,-8.744586,2.6446056365966797,-3.6817224,0.07860678,0.06967582553625107,0.009427031
2436.5833333367473,0.524768,-0.38606867,0.020537673,-2.7119007,0.53493327,2.0817058,1.0642724,0.039999824,0.039999988,-8.7395115,2.640446662902832,-3.6974041,0.0779859,0.06846382468938828,0.008813802
2436.600000003414,0.52673435,-0.38457763,0.020614762,-2.7132316,0.5369376,2.0836196,1.0653154,0.039999817,0.039999977,-8.734477,2.6362314224243164,-3.7128584,0.07734226,0.06725757569074631,0.008224046
2436.616666670081,0.5286756,-0.3831056,0.020690875,-2.7145455,0.5389164,2.0855093,1.066345,0.03999983,0.04,-8.728863,2.6322386264801025,-3.72809,0.07667492,0.0660475343465805,0.007651144
2436.633333336748,0.53059185,-0.38165265,0.020766012,-2.7158425,0.5408699,2.0873744,1.0673614,0.03999983,0.03999999,-8.724808,2.6276612281799316,-3.7430472,0.07598465,0.06484070420265198,0.0071057524
2436.650000003415,0.5324828,-0.38021886,0.020840168,-2.7171223,0.5427973,2.0892158,1.0683644,0.03999983,0.039999995,-8.720037,2.62321138381958,-3.7577908,0.07527273,0.06363368779420853,0.0065750573
2436.6666666700817,0.5343484,-0.37880427,0.02091333,-2.7183847,0.54469883,2.0910313,1.0693539,0.03999984,0.04,-8.715338,2.618745803833008,-3.772358,0.07453892,0.062433645129203796,0.00606348
2436.6833333367485,0.5361888,-0.37740904,0.020985497,-2.7196302,0.5465746,2.092822,1.0703297,0.03999984,0.04,-8.709946,2.6144771575927734,-3.7866971,0.07378516,0.061231642961502075,0.0055778823
2436.7000000034154,0.5380033,-0.37603325,0.02105667,-2.7208583,0.54842424,2.0945888,1.0712922,0.039999835,0.039999995,-8.706209,2.6096391677856445,-3.800719,0.073012196,0.060032326728105545,0.005110852
2436.7166666700823,0.5397923,-0.37467688,0.021126842,-2.7220685,0.55024767,2.0963302,1.072241,0.03999983,0.04,-8.70171,2.605013608932495,-3.814605,0.07221703,0.058838799595832825,0.004657907
2436.733333336749,0.54155535,-0.37334013,0.021196004,-2.7232616,0.55204475,2.098046,1.0731759,0.039999835,0.04,-8.696471,2.600543260574341,-3.8283079,0.071404494,0.05765005573630333,0.004227298
2436.750000003416,0.5432927,-0.37202302,0.02126415,-2.7244375,0.5538155,2.0997372,1.0740974,0.039999835,0.04,-8.692968,2.5956625938415527,-3.8416386,0.07057212,0.056462664157152176,0.0038170305
2436.766666670083,0.5450039,-0.37072554,0.021331286,-2.725595,0.55555975,2.101403,1.0750052,0.039999828,0.039999995,-8.688758,2.5909509658813477,-3.8548083,0.06972007,0.05527930706739426,0.0034269392
2436.78333333675,0.546689,-0.36944786,0.0213974,-2.7267356,0.5572773,2.1030436,1.075899,0.03999983,0.04,-8.684447,2.586129665374756,-3.8678129,0.06885067,0.05410386994481087,0.003051064
2436.8000000034167,0.54834807,-0.36819008,0.0214625,-2.7278585,0.5589682,2.1046586,1.0767788,0.039999828,0.04,-8.679611,2.5816361904144287,-3.8806062,0.06796278,0.052932266145944595,0.0026977407
2436.8166666700836,0.5499809,-0.3669521,0.021526579,-2.7289636,0.56063247,2.106248,1.0776447,0.039999824,0.04,-8.676372,2.576637029647827,-3.8930237,0.06706017,0.051764339208602905,0.0023630848
2436.8333333367505,0.55158716,-0.36573407,0.021589633,-2.730051,0.5622699,2.1078115,1.0784969,0.03999982,0.04,-8.67236,2.5718090534210205,-3.9053204,0.066140115,0.050601597875356674,0.002045762
2436.8500000034173,0.55316764,-0.3645359,0.021651655,-2.7311208,0.56388074,2.1093495,1.0793351,0.03999982,0.04,-8.66845,2.567042589187622,-3.917391,0.06520229,0.04944394528865814,0.0017479812
2436.866666670084,0.5547215,-0.3633577,0.021712651,-2.7321718,0.56546485,2.110863,1.0801593,0.03999982,0.04,-8.66383,2.562375068664551,-3.9293032,0.06425133,0.04829087108373642,0.0014685409
2436.883333336751,0.5562492,-0.36219952,0.021772612,-2.7332058,0.5670217,2.1123495,1.0809695,0.039999813,0.04,-8.660686,2.55729079246521,-3.9409094,0.063285865,0.047152869403362274,0.0012001031
2436.900000003418,0.5577504,-0.3610614,0.021831544,-2.7342212,0.5685519,2.1138108,1.0817657,0.039999817,0.04,-8.657126,2.5525715351104736,-3.9522378,0.062306475,0.04601321741938591,0.0009551062
2436.916666670085,0.5592252,-0.35994336,0.021889443,-2.7352192,0.570055,2.1152463,1.0825481,0.039999813,0.04,-8.653351,2.547684907913208,-3.963449,0.061315022,0.04488445073366165,0.00072428084
2436.9333333367517,0.5606734,-0.3588454,0.021946304,-2.7361996,0.5715311,2.1166565,1.0833164,0.03999981,0.04,-8.649041,2.5431087017059326,-3.9744854,0.06030765,0.04376031085848808,0.0005109153
2436.9500000034186,0.5620952,-0.35776752,0.022002138,-2.7371616,0.5729803,2.11804,1.0840707,0.039999805,0.04,-8.64628,2.5381672382354736,-3.9851556,0.059288193,0.04264603555202484,0.00031282945
2436.9666666700855,0.5634906,-0.35670975,0.022056941,-2.7381063,0.57440245,2.1193986,1.0848107,0.039999805,0.04,-8.642802,2.5333797931671143,-3.9956684,0.058258355,0.041536618024110794,0.0001300289
2436.9833333367524,0.5648595,-0.355672,0.022110702,-2.7390323,0.57579756,2.120731,1.0855366,0.03999981,0.04,-8.638637,2.528825044631958,-4.0060782,0.057218056,0.040436603128910065,-3.3309458e-05
2437.0000000034192,0.5662019,-0.35465428,0.022163432,-2.7399406,0.57716584,2.1220386,1.0862483,0.039999805,0.04,-8.636026,2.5239250659942627,-4.016092,0.056168567,0.03934617340564728,-0.00018377243
2437.016666670086,0.56751806,-0.3536566,0.02221513,-2.7408314,0.5785072,2.1233196,1.0869464,0.0399998,0.04,-8.6327715,2.5192759037017822,-4.0259714,0.055109497,0.03826434165239334,-0.00032081327
2437.033333336753,0.5688077,-0.35267892,0.022265792,-2.7417037,0.5798217,2.124575,1.0876306,0.039999798,0.04,-8.629565,2.5146219730377197,-4.0356207,0.054039575,0.037188563495874405,-0.00044102952
2437.05000000342,0.570071,-0.3517213,0.022315418,-2.7425585,0.58110917,2.1258044,1.0883008,0.039999798,0.04,-8.625552,2.5100908279418945,-4.0452013,0.052960552,0.036122631281614304,-0.0005497312
2437.0666666700868,0.5713079,-0.35078362,0.022364017,-2.7433953,0.58236986,2.1270087,1.088957,0.03999979,0.04,-8.623279,2.505448818206787,-4.054329,0.05187397,0.035064004361629486,-0.0006419064
2437.0833333367536,0.5725185,-0.34986582,0.022411585,-2.7442145,0.583604,2.1281872,1.0895991,0.03999979,0.04,-8.620203,2.5009021759033203,-4.063383,0.0507807,0.03401605039834976,-0.00072413497
2437.1000000034205,0.5737031,-0.3489679,0.022458132,-2.7450159,0.58481133,2.1293404,1.0902274,0.03999979,0.04,-8.617214,2.496432065963745,-4.072212,0.049680173,0.03297649323940277,-0.00079131906
2437.1166666700874,0.5748614,-0.34808987,0.022503657,-2.7457995,0.58599204,2.1304681,1.090842,0.039999787,0.04,-8.613478,2.4920685291290283,-4.080956,0.048575535,0.031948018819093704,-0.0008462384
2437.1333333367543,0.5759937,-0.34723148,0.022548163,-2.7465656,0.5871462,2.1315703,1.0914428,0.03999978,0.04,-8.61138,2.487617254257202,-4.0892673,0.047462944,0.03092782385647297,-0.0008899543
2437.150000003421,0.5771,-0.34639293,0.02259165,-2.7473145,0.5882737,2.1326473,1.0920297,0.03999978,0.04,-8.608557,2.4832828044891357,-4.097491,0.04634663,0.02991730161011219,-0.00092143595
2437.166666670088,0.5781804,-0.34557387,0.02263412,-2.7480452,0.5893748,2.1336992,1.0926027,0.039999776,0.04,-8.605828,2.479069709777832,-4.1054926,0.045226224,0.028914598748087883,-0.00093844667
2437.183333336755,0.57923484,-0.34477445,0.022675576,-2.7487593,0.59044963,2.1347256,1.0931622,0.039999772,0.039999995,-8.602241,2.474860429763794,-4.1134634,0.044104505,0.027926424518227577,-0.0009466433
2437.200000003422,0.5802638,-0.34399438,0.022716032,-2.7494555,0.59149843,2.1357274,1.093708,0.039999772,0.04,-8.600434,2.470714807510376,-4.12094,0.042977493,0.026941752061247826,-0.00094507565
2437.2166666700887,0.5812671,-0.3432337,0.022755485,-2.7501347,0.59252113,2.1367037,1.0942402,0.03999977,0.04,-8.597765,2.466583251953125,-4.1283937,0.041849706,0.02597196027636528,-0.0009315641
2437.2333333367555,0.58224505,-0.34249243,0.022793943,-2.7507963,0.5935179,2.1376557,1.0947592,0.03999977,0.04,-8.594472,2.462670087814331,-4.135726,0.040720098,0.02500893734395504,-0.0009077896
2437.2500000034224,0.58319753,-0.34177023,0.022831405,-2.751441,0.59448886,2.1385834,1.0952647,0.03999976,0.04,-8.592656,2.4586212635040283,-4.1426616,0.039589576,0.02405877411365509,-0.00087596814
2437.2666666700893,0.5841249,-0.34106717,0.02286788,-2.7520685,0.59543425,2.1394863,1.0957564,0.03999976,0.04,-8.590173,2.454749345779419,-4.149537,0.038459767,0.02312074415385723,-0.00083418743
2437.283333336756,0.58502746,-0.34038296,0.022903383,-2.7526793,0.5963542,2.140365,1.0962353,0.03999976,0.04,-8.587719,2.45092511177063,-4.1562014,0.03733226,0.02219407446682453,-0.00078465615
2437.300000003423,0.5859051,-0.3397176,0.02293791,-2.753273,0.5972487,2.1412194,1.0967008,0.039999764,0.04,-8.584655,2.4472639560699463,-4.162776,0.036203913,0.021275797858834267,-0.00072502304
2437.31666667009,0.5867579,-0.33907104,0.02297147,-2.7538502,0.5981182,2.14205,1.0971533,0.03999976,0.04,-8.583023,2.4435441493988037,-4.168963,0.035079267,0.020369194447994232,-0.0006588748
2437.333333336757,0.58758634,-0.33844307,0.023004066,-2.754411,0.59896296,2.1428568,1.0975928,0.03999976,0.04,-8.580705,2.439960479736328,-4.175087,0.033956412,0.01947626657783985,-0.0005861825
2437.3500000034237,0.5883906,-0.33783343,0.02303571,-2.7549548,0.59978276,2.14364,1.0980196,0.039999757,0.04,-8.578469,2.436464309692383,-4.1810117,0.03283621,0.018592964857816696,-0.0005061629
2437.3666666700906,0.5891704,-0.33724213,0.023066418,-2.7554824,0.6005779,2.1444,1.0984335,0.03999976,0.04,-8.575498,2.4330172538757324,-4.1868916,0.03172199,0.017723193392157555,-0.00042113103
2437.3833333367575,0.5899266,-0.33666894,0.023096174,-2.755994,0.60134864,2.1451364,1.0988348,0.039999757,0.04,-8.574049,2.429687976837158,-4.192366,0.030611008,0.016865726560354233,-0.00032848743
2437.4000000034243,0.5906588,-0.33611372,0.023125002,-2.7564898,0.60209537,2.14585,1.0992236,0.039999753,0.04,-8.571954,2.4264142513275146,-4.197741,0.029506942,0.0160178504884243,-0.00022986704
2437.416666670091,0.5913675,-0.33557624,0.02315291,-2.756969,0.60281813,2.1465404,1.0995998,0.03999975,0.04,-8.569835,2.423257350921631,-4.2029996,0.028406074,0.015183301642537117,-0.00012613955
2437.433333336758,0.5920531,-0.33505645,0.02317991,-2.757433,0.60351735,2.147208,1.0999639,0.039999746,0.04,-8.567026,2.4201204776763916,-4.208194,0.027314665,0.01436286699026823,-1.8783649e-05
2437.450000003425,0.59271574,-0.33455405,0.023206007,-2.7578812,0.604193,2.1478536,1.1003159,0.03999975,0.04,-8.565764,2.4171180725097656,-4.2129416,0.026229389,0.01354929804801941,9.1703405e-05
2437.466666670092,0.59335566,-0.3340688,0.023231212,-2.7583141,0.60484564,2.148477,1.1006554,0.03999975,0.04,-8.563754,2.414174795150757,-4.2176986,0.025152262,0.012751853093504906,0.0002104516
2437.4833333367587,0.5939731,-0.3336007,0.02325553,-2.758732,0.6054753,2.1490788,1.1009833,0.039999753,0.04,-8.561147,2.411346197128296,-4.222381,0.02408587,0.011966784484684467,0.00033241007
2437.5000000034256,0.59456825,-0.33314946,0.023278981,-2.759135,0.6060825,2.149659,1.1012993,0.03999975,0.04,-8.559927,2.408590078353882,-4.2266655,0.02302774,0.01119307242333889,0.0004568564
2437.5166666700925,0.5951415,-0.3327148,0.023301575,-2.7595232,0.60666734,2.1502175,1.1016036,0.039999742,0.04,-8.558035,2.4059202671051025,-4.2309337,0.021979026,0.01043290738016367,0.00058423716
2437.5333333367594,0.5956931,-0.3322965,0.02332332,-2.7598963,0.60723,2.1507552,1.1018964,0.039999742,0.04,-8.556169,2.4033117294311523,-4.235036,0.02094212,0.009685009717941284,0.0007133939
2437.5500000034262,0.5962233,-0.33189425,0.023344226,-2.7602553,0.607771,2.1512716,1.1021781,0.03999973,0.039999995,-8.553718,2.400810480117798,-4.2390943,0.019918123,0.008951064199209213,0.00084627554
2437.566666670093,0.5967326,-0.33150798,0.023364305,-2.7606,0.6082905,2.1517677,1.1024485,0.039999746,0.04,-8.552568,2.398376226425171,-4.242789,0.018904615,0.008227606303989887,0.000979816
2437.58333333676,0.59722126,-0.33113748,0.02338357,-2.7609308,0.608789,2.152244,1.1027079,0.039999735,0.04,-8.550802,2.396049737930298,-4.246447,0.017905442,0.00751862395554781,0.0011179933
2437.600000003427,0.5976895,-0.33078238,0.02340204,-2.7612476,0.60926676,2.1527007,1.1029564,0.03999973,0.04,-8.5490465,2.393770933151245,-4.2499657,0.0169202,0.006825280841439962,0.0012543827
2437.6166666700938,0.5981375,-0.33044243,0.023419721,-2.7615507,0.609724,2.1531377,1.1031944,0.039999735,0.04,-8.546755,2.391605854034424,-4.253427,0.015949888,0.006145125720649958,0.0013921402
2437.6333333367606,0.59856594,-0.33011737,0.02343663,-2.761841,0.6101614,2.1535554,1.1034223,0.039999735,0.04,-8.545606,2.389512777328491,-4.256592,0.014994413,0.00548098050057888,0.0015312666
2437.6500000034275,0.5989751,-0.32980695,0.023452777,-2.762118,0.6105792,2.1539545,1.1036398,0.03999973,0.04,-8.544031,2.3875513076782227,-4.259656,0.014050964,0.0048265233635902405,0.0016703815
2437.6666666700944,0.59936535,-0.32951087,0.023468185,-2.7623823,0.6109776,2.1543355,1.103847,0.03999973,0.04,-8.542361,2.385603666305542,-4.262632,0.013125242,0.00418822281062603,0.0018085099
2437.6833333367613,0.599737,-0.32922882,0.023482865,-2.7626345,0.6113571,2.154698,1.1040449,0.03999973,0.04,-8.540159,2.3837382793426514,-4.2655797,0.012219356,0.0035677512641996145,0.001947162
2437.700000003428,0.6000905,-0.3289605,0.023496829,-2.762874,0.61171824,2.1550434,1.104233,0.039999727,0.04,-8.539213,2.3820626735687256,-4.2681637,0.011326449,0.002956059295684099,0.0020874874
2437.716666670095,0.6004262,-0.32870564,0.023510093,-2.7631016,0.61206126,2.1553707,1.1044117,0.039999727,0.04,-8.537519,2.380279302597046,-4.2707973,0.010453928,0.002365109510719776,0.0022194549
2437.733333336762,0.6007447,-0.3284639,0.02352268,-2.7633173,0.6123865,2.1556811,1.104581,0.039999727,0.04,-8.535514,2.3787360191345215,-4.273323,0.009599585,0.0017854556208476424,0.0023579537
2437.750000003429,0.6010462,-0.32823494,0.023534609,-2.7635214,0.61269474,2.1559758,1.1047417,0.039999723,0.04,-8.534468,2.3771677017211914,-4.2755766,0.008767749,0.001219984726049006,0.0024922779
2437.7666666700957,0.6013313,-0.32801852,0.023545884,-2.7637148,0.6129862,2.1562545,1.1048934,0.03999972,0.04,-8.532902,2.3757054805755615,-4.2778435,0.007953494,0.0006738671800121665,0.002622223
2437.7833333367626,0.60160017,-0.3278142,0.023556527,-2.7638967,0.61326134,2.1565177,1.1050366,0.03999972,0.04,-8.5314,2.374335527420044,-4.2799635,0.0071612783,0.00014422170352190733,0.0027501134
2437.8000000034294,0.6018536,-0.32762164,0.023566557,-2.7640698,0.6135205,2.1567655,1.1051716,0.039999716,0.04,-8.529399,2.373004198074341,-4.2820764,0.0063912114,-0.00036807882133871317,0.002876664
2437.8166666700963,0.6020919,-0.32744053,0.023575999,-2.7642314,0.6137644,2.1569986,1.1052988,0.039999712,0.04,-8.528537,2.3719027042388916,-4.2838683,0.0056412546,-0.0008700440521351993,0.0030034045
2437.833333336763,0.6023155,-0.32727048,0.023584863,-2.7643824,0.6139934,2.1572177,1.1054182,0.03999972,0.04,-8.526933,2.3706252574920654,-4.2857103,0.004914891,-0.0013518005143851042,0.0031249416
2437.85000000343,0.6025252,-0.3271111,0.023593165,-2.7645247,0.61420804,2.1574225,1.1055301,0.039999716,0.04,-8.525363,2.369452714920044,-4.2874546,0.0042133555,-0.0018127757357433438,0.0032403432
2437.866666670097,0.60272104,-0.326962,0.023600936,-2.7646585,0.6144089,2.1576142,1.1056349,0.039999712,0.04,-8.523619,2.3684847354888916,-4.2891045,0.0035354851,-0.0022620444651693106,0.0033550332
2437.883333336764,0.6029039,-0.32682294,0.02360819,-2.764784,0.61459637,2.1577935,1.1057324,0.03999971,0.04,-8.522608,2.3675732612609863,-4.2905746,0.0028799598,-0.0026948743034154177,0.0034676665
2437.9000000034307,0.6030742,-0.32669333,0.023614949,-2.7649,0.61477107,2.1579602,1.1058229,0.039999712,0.04,-8.521228,2.366717576980591,-4.2920094,0.002250876,-0.003110111691057682,0.003578035
2437.9166666700976,0.6032323,-0.3265729,0.023621233,-2.765007,0.61493343,2.1581156,1.1059078,0.039999716,0.04,-8.519646,2.365734577178955,-4.2934046,0.0016519104,-0.0035055987536907196,0.0036814027
2437.9333333367645,0.6033789,-0.3264612,0.023627076,-2.7651062,0.6150843,2.1582592,1.1059862,0.039999716,0.04,-8.517783,2.364877939224243,-4.294772,0.001078243,-0.003877877024933696,0.0037782833
2437.9500000034313,0.6035147,-0.32635763,0.023632484,-2.7652006,0.61522394,2.1583927,1.1060591,0.03999971,0.039999995,-8.516656,2.3641281127929688,-4.295917,0.0005332614,-0.004233926068991423,0.0038710542
2437.966666670098,0.60364014,-0.3262619,0.023637488,-2.7652876,0.615353,2.1585155,1.1061262,0.03999971,0.04,-8.515488,2.3636550903320312,-4.297021,1.0132936e-05,-0.00457660760730505,0.0039638416
2437.983333336765,0.6037557,-0.32617354,0.0236421,-2.7653673,0.6154722,2.1586294,1.1061884,0.039999716,0.04,-8.513737,2.3629727363586426,-4.298149,-0.0004820714,-0.004901844076812267,0.0040533957
2438.000000003432,0.6038622,-0.3260921,0.023646353,-2.7654395,0.61558217,2.158735,1.1062454,0.039999716,0.04,-8.512455,2.362293243408203,-4.299161,-0.0009447528,-0.005201801657676697,0.0041340594
2438.016666670099,0.60396004,-0.32601714,0.023650266,-2.765505,0.6156832,2.1588323,1.1062981,0.03999971,0.04,-8.51086,2.361603260040283,-4.300145,-0.0013725683,-0.005475668702274561,0.0042051454
2438.0333333367657,0.6040499,-0.3259482,0.023653863,-2.7655687,0.6157765,2.158922,1.1063466,0.039999712,0.04,-8.509315,2.361036777496338,-4.3010616,-0.0017692086,-0.005725279450416565,0.004269542
2438.0500000034326,0.60413253,-0.32588482,0.023657171,-2.7656255,0.6158621,2.159005,1.1063914,0.039999716,0.04,-8.508003,2.3608603477478027,-4.3018675,-0.002143273,-0.005965442396700382,0.0043357713
2438.0666666700995,0.6042082,-0.32582647,0.023660218,-2.7656758,0.6159409,2.1590805,1.1064326,0.039999716,0.04,-8.506648,2.3602347373962402,-4.3026595,-0.0024839784,-0.006177882663905621,0.0043919217
2438.0833333367664,0.6042779,-0.3257728,0.02366302,-2.7657242,0.61601317,2.1591487,1.10647,0.03999971,0.04,-8.505222,2.359679937362671,-4.3034077,-0.0027946357,-0.006370653863996267,0.0044388566
2438.1000000034333,0.6043419,-0.32572347,0.023665592,-2.7657664,0.61607957,2.1592114,1.1065043,0.03999971,0.04,-8.504355,2.35951828956604,-4.303969,-0.0030819217,-0.006560011766850948,0.004490977
2438.1166666701,0.6044007,-0.32567808,0.023667958,-2.7658072,0.6161411,2.1592715,1.1065365,0.03999971,0.04,-8.502899,2.358952045440674,-4.304653,-0.0033409183,-0.006726807914674282,0.0045316764
2438.133333336767,0.6044547,-0.32563633,0.02367013,-2.7658432,0.6161974,2.1593244,1.1065662,0.03999971,0.04,-8.502252,2.358820915222168,-4.3051925,-0.0035879845,-0.006876199971884489,0.004570063
2438.150000003434,0.6045043,-0.32559794,0.023672126,-2.7658772,0.61624944,2.1593754,1.1065929,0.039999712,0.04,-8.50126,2.358405828475952,-4.3056765,-0.00381189,-0.00701835798099637,0.004606821
2438.1666666701008,0.6045498,-0.32556266,0.02367397,-2.76591,0.61629736,2.1594205,1.1066183,0.039999712,0.04,-8.500499,2.358215808868408,-4.30617,-0.0040181596,-0.007142496760934591,0.0046366225
2438.1833333367676,0.60459167,-0.32553017,0.023675665,-2.7659373,0.6163414,2.1594644,1.1066408,0.039999712,0.04,-8.499821,2.3581037521362305,-4.3065505,-0.0042150747,-0.0072684683836996555,0.004671939
2438.2000000034345,0.60463005,-0.32550025,0.023677224,-2.7659638,0.6163819,2.1595018,1.1066623,0.039999712,0.04,-8.498903,2.357607841491699,-4.3070374,-0.0043866304,-0.0073656318709254265,0.00469314
2438.2166666701014,0.60466534,-0.32547277,0.023678662,-2.7659893,0.6164192,2.1595387,1.1066812,0.039999705,0.039999995,-8.4984865,2.357560873031616,-4.3072968,-0.004551146,-0.007471625693142414,0.0047202124
2438.2333333367683,0.60469776,-0.3254475,0.023679983,-2.766012,0.6164534,2.1595693,1.1066992,0.039999712,0.04,-8.497876,2.3574371337890625,-4.307683,-0.004701538,-0.007562093902379274,0.004742115
2438.250000003435,0.60472745,-0.32542425,0.023681195,-2.766031,0.61648506,2.159599,1.1067158,0.039999712,0.04,-8.497412,2.357218027114868,-4.3079166,-0.0048405807,-0.007656761910766363,0.0047693574
2438.266666670102,0.6047547,-0.3254029,0.02368231,-2.7660499,0.6165139,2.1596284,1.1067305,0.039999712,0.04,-8.496684,2.356874704360962,-4.308294,-0.004965707,-0.007731430698186159,0.0047845547
2438.283333336769,0.60477984,-0.32538325,0.023683336,-2.7660677,0.61654055,2.1596527,1.1067444,0.03999971,0.04,-8.496335,2.3568496704101562,-4.30856,-0.005080519,-0.00779523141682148,0.004799902
2438.300000003436,0.6048029,-0.32536513,0.023684278,-2.7660851,0.6165651,2.159675,1.1067578,0.039999712,0.04,-8.49599,2.35677170753479,-4.3087163,-0.0051894384,-0.007867594249546528,0.0048191994
2438.3166666701027,0.6048241,-0.3253485,0.023685144,-2.7661,0.61658776,2.1596968,1.1067692,0.039999705,0.039999995,-8.495763,2.356719493865967,-4.3089256,-0.005294625,-0.007937945425510406,0.0048393374
2438.3333333367696,0.6048436,-0.32533318,0.023685941,-2.7661126,0.6166085,2.1597183,1.1067798,0.039999705,0.039999995,-8.495227,2.3564586639404297,-4.3091993,-0.00538482,-0.007992139086127281,0.0048522493
2438.3500000034364,0.60486144,-0.32531908,0.02368668,-2.7661238,0.6166276,2.159738,1.1067898,0.039999705,0.039999995,-8.494784,2.356262683868408,-4.3094225,-0.0054660323,-0.008033311925828457,0.0048601264
2438.3666666701033,0.6048778,-0.32530615,0.023687359,-2.7661347,0.6166451,2.1597528,1.1067996,0.03999971,0.04,-8.494416,2.3561465740203857,-4.3095903,-0.0055413586,-0.008069444447755814,0.0048660804
2438.38333333677,0.604893,-0.32529426,0.02368798,-2.766145,0.6166614,2.1597674,1.106808,0.03999971,0.04,-8.494343,2.356152296066284,-4.3096356,-0.0056146486,-0.008119730278849602,0.0048781573
2438.400000003437,0.60490686,-0.32528332,0.023688547,-2.7661552,0.6166763,2.1597817,1.1068152,0.039999712,0.04,-8.494087,2.3560686111450195,-4.309801,-0.0056794696,-0.008162645623087883,0.004887866
2438.416666670104,0.60491955,-0.32527322,0.023689067,-2.766165,0.6166899,2.1597958,1.106822,0.039999712,0.04,-8.493915,2.356069564819336,-4.309951,-0.0057392498,-0.00820031389594078,0.0048978524
2438.433333336771,0.6049313,-0.32526398,0.023689548,-2.7661748,0.61670274,2.1598089,1.1068283,0.039999712,0.04,-8.493688,2.35601544380188,-4.3100924,-0.005795656,-0.008232081308960915,0.0049066795
2438.4500000034377,0.6049419,-0.3252554,0.023689995,-2.766183,0.6167143,2.159821,1.1068344,0.039999712,0.04,-8.276405,2.2235374450683594,-4.283649,0.0,-0.0,0.0
2438.4666666701046,0.6049419,-0.3252554,0.023689995,-2.766183,0.6167143,2.159821,1.1068344,0.039999712,0.04,-8.49152,2.3557991981506348,-4.3105,0.0,-0.0,0.0
2438.4833333367715,0.6049419,-0.3252554,0.023689995,-2.766183,0.6167143,2.159821,1.1068344,0.039999712,0.04,-8.49152,2.3557991981506348,-4.3105,0.0,-0.0,0.0
2438.5000000034383,0.6049419,-0.3252554,0.023689995,-2.766183,0.6167143,2.159821,1.1068344,0.039999712,0.04,-8.49152,2.3557991981506348,-4.3105,0.0,-0.0,0.0
2438.516666670105,0.6049419,-0.3252554,0.023689995,-2.766183,0.6167143,2.159821,1.1068344,0.039999712,0.04,-8.49152,2.3557991981506348,-4.3105,0.0,-0.0,0.0
2438.533333336772,0.6049419,-0.3252554,0.023689995,-2.766183,0.6167143,2.159821,1.1068344,0.039999712,0.04,-8.49152,2.3557991981506348,-4.3105,0.0,-0.0,0.0
2438.550000003439,0.6049419,-0.3252554,0.023689995,-2.766183,0.6167143,2.159821,1.1068344,0.039999712,0.04,-8.49152,2.3557991981506348,-4.3105,0.0,-0.0,0.0
2438.566666670106,0.6049419,-0.3252554,0.023689995,-2.766183,0.6167143,2.159821,1.1068344,0.039999712,0.04,-8.49152,2.3557991981506348,-4.3105,0.0,-0.0,0.0
2438.5833333367727,0.6049419,-0.3252554,0.023689995,-2.766183,0.6167143,2.159821,1.1068344,0.039999712,0.04,-8.49152,2.3557991981506348,-4.3105,0.0,-0.0,0.0
2438.6000000034396,0.6049419,-0.3252554,0.023689995,-2.766183,0.6167143,2.159821,1.1068344,0.039999712,0.04,-8.49152,2.3557991981506348,-4.3105,0.0,-0.0,0.0
2438.6166666701065,0.6049419,-0.3252554,0.023689995,-2.766183,0.6167143,2.159821,1.1068344,0.039999712,0.04,-8.49152,2.3557991981506348,-4.3105,0.0,-0.0,0.0
2438.6333333367734,0.6049419,-0.3252554,0.023689995,-2.766183,0.6167143,2.159821,1.1068344,0.039999712,0.04,-8.49152,2.3557991981506348,-4.3105,0.0,-0.0,0.0
2438.6500000034403,0.6049419,-0.3252554,0.023689995,-2.766183,0.6167143,2.159821,1.1068344,0.039999712,0.04,-8.49152,2.3557991981506348,-4.3105,0.0,-0.0,0.0
2438.666666670107,0.6049419,-0.3252554,0.023689995,-2.766183,0.6167143,2.159821,1.1068344,0.039999712,0.04,-8.49152,2.3557991981506348,-4.3105,0.0,-0.0,0.0
2438.683333336774,0.6049419,-0.3252554,0.023689995,-2.766183,0.6167143,2.159821,1.1068344,0.039999712,0.04,-8.49152,2.3557991981506348,-4.3105,0.0,-0.0,0.0
2438.700000003441,0.6049419,-0.3252554,0.023689995,-2.766183,0.6167143,2.159821,1.1068344,0.039999712,0.04,-8.49152,2.3557991981506348,-4.3105,0.0,-0.0,0.0
2438.7166666701078,0.6049419,-0.3252554,0.023689995,-2.766183,0.6167143,2.159821,1.1068344,0.039999712,0.04,-8.49152,2.3557991981506348,-4.3105,0.0,-0.0,0.0
2438.7333333367746,0.6049419,-0.3252554,0.023689995,-2.766183,0.6167143,2.159821,1.1068344,0.039999712,0.04,-8.49152,2.3557991981506348,-4.3105,0.0,-0.0,0.0
2438.7500000034415,0.6049419,-0.3252554,0.023689995,-2.766183,0.6167143,2.159821,1.1068344,0.039999712,0.04,-8.49152,2.3557991981506348,-4.3105,0.0,-0.0,0.0
2438.7666666701084,0.6049419,-0.3252554,0.023689995,-2.766183,0.6167143,2.159821,1.1068344,0.039999712,0.04,-8.49152,2.3557991981506348,-4.3105,0.0,-0.0,0.0
2438.7833333367753,0.6049419,-0.3252554,0.023689995,-2.766183,0.6167143,2.159821,1.1068344,0.039999712,0.04,-8.49152,2.3557991981506348,-4.3105,0.0,-0.0,0.0
2438.800000003442,0.6049419,-0.3252554,0.023689995,-2.766183,0.6167143,2.159821,1.1068344,0.039999712,0.04,-8.49152,2.3557991981506348,-4.3105,0.0,-0.0,0.0
2438.816666670109,0.6049419,-0.3252554,0.023689995,-2.766183,0.6167143,2.159821,1.1068344,0.039999712,0.04,-8.49152,2.3557991981506348,-4.3105,0.0,-0.0,0.0
2438.833333336776,0.6049419,-0.3252554,0.023689995,-2.766183,0.6167143,2.159821,1.1068344,0.039999712,0.04,-8.49152,2.3557991981506348,-4.3105,0.0,-0.0,0.0
2438.850000003443,0.6049419,-0.3252554,0.023689995,-2.766183,0.6167143,2.159821,1.1068344,0.039999712,0.04,-8.49152,2.3557991981506348,-4.3105,0.0,-0.0,0.0
2438.8666666701097,0.6049419,-0.3252554,0.023689995,-2.766183,0.6167143,2.159821,1.1068344,0.039999712,0.04,-8.49152,2.3557991981506348,-4.3105,0.0,-0.0,0.0
2438.8833333367766,0.6049419,-0.3252554,0.023689995,-2.766183,0.6167143,2.159821,1.1068344,0.039999712,0.04,-8.49152,2.3557991981506348,-4.3105,0.0,-0.0,0.0
2438.9000000034434,0.6049419,-0.3252554,0.023689995,-2.766183,0.6167143,2.159821,1.1068344,0.039999712,0.04,-8.49152,2.3557991981506348,-4.3105,0.0,-0.0,0.0
2438.9166666701103,0.6049419,-0.3252554,0.023689995,-2.766183,0.6167143,2.159821,1.1068344,0.039999712,0.04,-8.49152,2.3557991981506348,-4.3105,0.0,-0.0,0.0
2438.933333336777,0.6049419,-0.3252554,0.023689995,-2.766183,0.6167143,2.159821,1.1068344,0.039999712,0.04,-8.49152,2.3557991981506348,-4.3105,0.0,-0.0,0.0
2438.950000003444,0.6049419,-0.3252554,0.023689995,-2.766183,0.6167143,2.159821,1.1068344,0.039999712,0.04,-8.49152,2.3557991981506348,-4.3105,0.0,-0.0,0.0
2438.966666670111,0.6049419,-0.3252554,0.023689995,-2.766183,0.6167143,2.159821,1.1068344,0.039999712,0.04,-8.49152,2.3557991981506348,-4.3105,0.0,-0.0,0.0
2438.983333336778,0.6049419,-0.3252554,0.023689995,-2.766183,0.6167143,2.159821,1.1068344,0.039999712,0.04,-8.49152,2.3557991981506348,-4.3105,0.0,-0.0,0.0
2439.0000000034447,0.6049419,-0.3252554,0.023689995,-2.766183,0.6167143,2.159821,1.1068344,0.039999712,0.04,-8.49152,2.3557991981506348,-4.3105,0.0,-0.0,0.0
2439.0166666701116,0.6049419,-0.3252554,0.023689995,-2.766183,0.6167143,2.159821,1.1068344,0.039999712,0.04,-8.49152,2.3557991981506348,-4.3105,0.0,-0.0,0.0
2439.0333333367785,0.6049419,-0.3252554,0.023689995,-2.766183,0.6167143,2.159821,1.1068344,0.039999712,0.04,-8.49152,2.3557991981506348,-4.3105,0.0,-0.0,0.0
2439.0500000034453,0.6049419,-0.3252554,0.023689995,-2.766183,0.6167143,2.159821,1.1068344,0.039999712,0.04,-8.49152,2.3557991981506348,-4.3105,0.0,-0.0,0.0
2439.066666670112,0.6049419,-0.3252554,0.023689995,-2.766183,0.6167143,2.159821,1.1068344,0.039999712,0.04,-8.49152,2.3557991981506348,-4.3105,0.0,-0.0,0.0
2439.083333336779,0.6049419,-0.3252554,0.023689995,-2.766183,0.6167143,2.159821,1.1068344,0.039999712,0.04,-8.49152,2.3557991981506348,-4.3105,0.0,-0.0,0.0
2439.100000003446,0.6049419,-0.3252554,0.023689995,-2.766183,0.6167143,2.159821,1.1068344,0.039999712,0.04,-8.49152,2.3557991981506348,-4.3105,0.0,-0.0,0.0
2439.116666670113,0.6049419,-0.3252554,0.023689995,-2.766183,0.6167143,2.159821,1.1068344,0.039999712,0.04,-8.49152,2.3557991981506348,-4.3105,0.0,-0.0,0.0
2439.1333333367797,0.6049419,-0.3252554,0.023689995,-2.766183,0.6167143,2.159821,1.1068344,0.039999712,0.04,-8.49152,2.3557991981506348,-4.3105,0.0,-0.0,0.0
2439.1500000034466,0.6049419,-0.3252554,0.023689995,-2.766183,0.6167143,2.159821,1.1068344,0.039999712,0.04,-8.49152,2.3557991981506348,-4.3105,0.0,-0.0,0.0
2439.1666666701135,0.6049419,-0.3252554,0.023689995,-2.766183,0.6167143,2.159821,1.1068344,0.039999712,0.04,-8.49152,2.3557991981506348,-4.3105,0.0,-0.0,0.0
2439.1833333367804,0.6049419,-0.3252554,0.023689995,-2.766183,0.6167143,2.159821,1.1068344,0.039999712,0.04,-8.49152,2.3557991981506348,-4.3105,0.0,-0.0,0.0
2439.2000000034473,0.6049419,-0.3252554,0.023689995,-2.766183,0.6167143,2.159821,1.1068344,0.039999712,0.04,-8.49152,2.3557991981506348,-4.3105,0.0,-0.0,0.0
2439.216666670114,0.6049419,-0.3252554,0.023689995,-2.766183,0.6167143,2.159821,1.1068344,0.039999712,0.04,-8.49152,2.3557991981506348,-4.3105,0.0,-0.0,0.0
2439.233333336781,0.6049419,-0.3252554,0.023689995,-2.766183,0.6167143,2.159821,1.1068344,0.039999712,0.04,-8.49152,2.3557991981506348,-4.3105,0.0,-0.0,0.0
2439.250000003448,0.6049419,-0.3252554,0.023689995,-2.766183,0.6167143,2.159821,1.1068344,0.039999712,0.04,-8.49152,2.3557991981506348,-4.3105,0.0,-0.0,0.0
2439.266666670115,0.6049419,-0.3252554,0.023689995,-2.766183,0.6167143,2.159821,1.1068344,0.039999712,0.04,-8.49152,2.3557991981506348,-4.3105,0.0,-0.0,0.0
2439.2833333367817,0.6049419,-0.3252554,0.023689995,-2.766183,0.6167143,2.159821,1.1068344,0.039999712,0.04,-8.49152,2.3557991981506348,-4.3105,0.0,-0.0,0.0
2439.3000000034485,0.6049419,-0.3252554,0.023689995,-2.766183,0.6167143,2.159821,1.1068344,0.039999712,0.04,-8.49152,2.3557991981506348,-4.3105,0.0,-0.0,0.0
2439.3166666701154,0.6049419,-0.3252554,0.023689995,-2.766183,0.6167143,2.159821,1.1068344,0.039999712,0.04,-8.49152,2.3557991981506348,-4.3105,0.0,-0.0,0.0
2439.3333333367823,0.6049419,-0.3252554,0.023689995,-2.766183,0.6167143,2.159821,1.1068344,0.039999712,0.04,-8.49152,2.3557991981506348,-4.3105,0.0,-0.0,0.0
2439.350000003449,0.6049419,-0.3252554,0.023689995,-2.766183,0.6167143,2.159821,1.1068344,0.039999712,0.04,-8.49152,2.3557991981506348,-4.3105,0.0,-0.0,0.0
2439.366666670116,0.6049419,-0.3252554,0.023689995,-2.766183,0.6167143,2.159821,1.1068344,0.039999712,0.04,-8.49152,2.3557991981506348,-4.3105,0.0,-0.0,0.0
2439.383333336783,0.6049419,-0.3252554,0.023689995,-2.766183,0.6167143,2.159821,1.1068344,0.039999712,0.04,-8.49152,2.3557991981506348,-4.3105,0.0,-0.0,0.0
2439.40000000345,0.6049419,-0.3252554,0.023689995,-2.766183,0.6167143,2.159821,1.1068344,0.039999712,0.04,-8.49152,2.3557991981506348,-4.3105,0.0,-0.0,0.0
2439.4166666701167,0.6049419,-0.3252554,0.023689995,-2.766183,0.6167143,2.159821,1.1068344,0.039999712,0.04,-8.49152,2.3557991981506348,-4.3105,0.0,-0.0,0.0
2439.4333333367836,0.6049419,-0.3252554,0.023689995,-2.766183,0.6167143,2.159821,1.1068344,0.039999712,0.04,-8.49152,2.3557991981506348,-4.3105,0.0,-0.0,0.0
2439.4500000034504,0.6049419,-0.3252554,0.023689995,-2.766183,0.6167143,2.159821,1.1068344,0.039999712,0.04,-8.49152,2.3557991981506348,-4.3105,0.0,-0.0,0.0
2439.4666666701173,0.6049419,-0.3252554,0.023689995,-2.766183,0.6167143,2.159821,1.1068344,0.039999712,0.04,-8.49152,2.3557991981506348,-4.3105,0.0,-0.0,0.0
2439.483333336784,0.6049419,-0.3252554,0.023689995,-2.766183,0.6167143,2.159821,1.1068344,0.039999712,0.04,-8.49152,2.3557991981506348,-4.3105,0.0,-0.0,0.0
2439.500000003451,0.6049419,-0.3252554,0.023689995,-2.766183,0.6167143,2.159821,1.1068344,0.039999712,0.04,-8.49152,2.3557991981506348,-4.3105,0.0,-0.0,0.0
2439.516666670118,0.6049419,-0.3252554,0.023689995,-2.766183,0.6167143,2.159821,1.1068344,0.039999712,0.04,-8.49152,2.3557991981506348,-4.3105,0.0,-0.0,0.0
2439.533333336785,0.6049419,-0.3252554,0.023689995,-2.766183,0.6167143,2.159821,1.1068344,0.039999712,0.04,-8.49152,2.3557991981506348,-4.3105,0.0,-0.0,0.0
2439.5500000034517,0.6049419,-0.3252554,0.023689995,-2.766183,0.6167143,2.159821,1.1068344,0.039999712,0.04,-8.49152,2.3557991981506348,-4.3105,0.0,-0.0,0.0
2439.5666666701186,0.6049419,-0.3252554,0.023689995,-2.766183,0.6167143,2.159821,1.1068344,0.039999712,0.04,-8.49152,2.3557991981506348,-4.3105,0.0,-0.0,0.0
2439.5833333367855,0.6049419,-0.3252554,0.023689995,-2.766183,0.6167143,2.159821,1.1068344,0.039999712,0.04,-8.49152,2.3557991981506348,-4.3105,0.0,-0.0,0.0
2439.6000000034524,0.6049419,-0.3252554,0.023689995,-2.766183,0.6167143,2.159821,1.1068344,0.039999712,0.04,-8.49152,2.3557991981506348,-4.3105,0.0,-0.0,0.0
2439.6166666701192,0.6049419,-0.3252554,0.023689995,-2.766183,0.6167143,2.159821,1.1068344,0.039999712,0.04,-8.49152,2.3557991981506348,-4.3105,0.0,-0.0,0.0
2439.633333336786,0.6049419,-0.3252554,0.023689995,-2.766183,0.6167143,2.159821,1.1068344,0.039999712,0.04,-8.49152,2.3557991981506348,-4.3105,0.0,-0.0,0.0
2439.650000003453,0.6049419,-0.3252554,0.023689995,-2.766183,0.6167143,2.159821,1.1068344,0.039999712,0.04,-8.49152,2.3557991981506348,-4.3105,0.0,-0.0,0.0
2439.66666667012,0.6049419,-0.3252554,0.023689995,-2.766183,0.6167143,2.159821,1.1068344,0.039999712,0.04,-8.49152,2.3557991981506348,-4.3105,0.0,-0.0,0.0
2439.6833333367867,0.6049419,-0.3252554,0.023689995,-2.766183,0.6167143,2.159821,1.1068344,0.039999712,0.04,-8.49152,2.3557991981506348,-4.3105,0.0,-0.0,0.0
2439.7000000034536,0.6049419,-0.3252554,0.023689995,-2.766183,0.6167143,2.159821,1.1068344,0.039999712,0.04,-8.49152,2.3557991981506348,-4.3105,0.0,-0.0,0.0
2439.7166666701205,0.6049419,-0.3252554,0.023689995,-2.766183,0.6167143,2.159821,1.1068344,0.039999712,0.04,-8.49152,2.3557991981506348,-4.3105,0.0,-0.0,0.0
2439.7333333367874,0.6049419,-0.3252554,0.023689995,-2.766183,0.6167143,2.159821,1.1068344,0.039999712,0.04,-8.49152,2.3557991981506348,-4.3105,0.0,-0.0,0.0
2439.7500000034543,0.6049419,-0.3252554,0.023689995,-2.766183,0.6167143,2.159821,1.1068344,0.039999712,0.04,-8.49152,2.3557991981506348,-4.3105,0.0,-0.0,0.0
2439.766666670121,0.6049419,-0.3252554,0.023689995,-2.766183,0.6167143,2.159821,1.1068344,0.039999712,0.04,-8.49152,2.3557991981506348,-4.3105,0.0,-0.0,0.0
2439.783333336788,0.6049419,-0.3252554,0.023689995,-2.766183,0.6167143,2.159821,1.1068344,0.039999712,0.04,-8.49152,2.3557991981506348,-4.3105,0.0,-0.0,0.0
2439.800000003455,0.6049419,-0.3252554,0.023689995,-2.766183,0.6167143,2.159821,1.1068344,0.039999712,0.04,-8.49152,2.3557991981506348,-4.3105,0.0,-0.0,0.0
2439.816666670122,0.6049419,-0.3252554,0.023689995,-2.766183,0.6167143,2.159821,1.1068344,0.039999712,0.04,-8.49152,2.3557991981506348,-4.3105,0.0,-0.0,0.0
2439.8333333367887,0.6049419,-0.3252554,0.023689995,-2.766183,0.6167143,2.159821,1.1068344,0.039999712,0.04,-8.49152,2.3557991981506348,-4.3105,0.0,-0.0,0.0
2439.8500000034555,0.6049419,-0.3252554,0.023689995,-2.766183,0.6167143,2.159821,1.1068344,0.039999712,0.04,-8.49152,2.3557991981506348,-4.3105,0.0,-0.0,0.0
2439.8666666701224,0.6049419,-0.3252554,0.023689995,-2.766183,0.6167143,2.159821,1.1068344,0.039999712,0.04,-8.49152,2.3557991981506348,-4.3105,0.0,-0.0,0.0
2439.8833333367893,0.6049419,-0.3252554,0.023689995,-2.766183,0.6167143,2.159821,1.1068344,0.039999712,0.04,-8.49152,2.3557991981506348,-4.3105,0.0,-0.0,0.0
2439.900000003456,0.6049419,-0.3252554,0.023689995,-2.766183,0.6167143,2.159821,1.1068344,0.039999712,0.04,-8.49152,2.3557991981506348,-4.3105,0.0,-0.0,0.0
2439.916666670123,0.6049419,-0.3252554,0.023689995,-2.766183,0.6167143,2.159821,1.1068344,0.039999712,0.04,-8.49152,2.3557991981506348,-4.3105,0.0,-0.0,0.0
2439.93333333679,0.6049419,-0.3252554,0.023689995,-2.766183,0.6167143,2.159821,1.1068344,0.039999712,0.04,-8.49152,2.3557991981506348,-4.3105,0.0,-0.0,0.0
2439.950000003457,0.6049419,-0.3252554,0.023689995,-2.766183,0.6167143,2.159821,1.1068344,0.039999712,0.04,-8.49152,2.3557991981506348,-4.3105,0.0,-0.0,0.0
2439.9666666701237,0.6049419,-0.3252554,0.023689995,-2.766183,0.6167143,2.159821,1.1068344,0.039999712,0.04,-8.49152,2.3557991981506348,-4.3105,0.0,-0.0,0.0
2439.9833333367906,0.6049419,-0.3252554,0.023689995,-2.766183,0.6167143,2.159821,1.1068344,0.039999712,0.04,-8.49152,2.3557991981506348,-4.3105,0.0,-0.0,0.0
2440.0000000034574,0.6049419,-0.3252554,0.023689995,-2.766183,0.6167143,2.159821,1.1068344,0.039999712,0.04,-8.49152,2.3557991981506348,-4.3105,0.0,-0.0,0.0
2440.0166666701243,0.6049419,-0.3252554,0.023689995,-2.766183,0.6167143,2.159821,1.1068344,0.039999712,0.04,-8.49152,2.3557991981506348,-4.3105,0.0,-0.0,0.0
2440.033333336791,0.6049419,-0.3252554,0.023689995,-2.766183,0.6167143,2.159821,1.1068344,0.039999712,0.04,-8.49152,2.3557991981506348,-4.3105,0.0,-0.0,0.0
2440.050000003458,0.6049419,-0.3252554,0.023689995,-2.766183,0.6167143,2.159821,1.1068344,0.039999712,0.04,-8.49152,2.3557991981506348,-4.3105,0.0,-0.0,0.0
