rsonawane2002/My_IMU/logs_2/traj_500/clean_500.csv
time,j1,j2,j3,j4,j5,j6,j7,gripper1,gripper2,imu_ax,imu_ay,imu_az,imu_gx,imu_gy,imu_gz,quat_x,quat_y,quat_z,quat_w
2752.4833333407696,0.00016700293,-0.785875,4.0107683e-05,-2.3551247,9.29385e-05,1.570997,0.786,0.04,0.04,0.0,-0.0,0.0,2.875329272945135e-08,-0.0011641195053377316,4.421952117202833e-08,0.9999995971961153,0.00020320632366974898,0.0008736418299892524,3.263050917662294e-05
2752.5000000074365,0.00016700926,-0.78576016,4.0109102e-05,-2.3552213,9.297017e-05,1.5709941,0.786,0.04,0.04,-0.2919984597547831,-2.975708377884567e-05,0.020128409413433523,-1.7779384901146686e-07,-0.002238454580653222,8.575906970535446e-08,0.9999996850587348,0.00020320740322162645,0.0007665025188414035,3.260477162059925e-05
2752.5166666741034,0.00016703899,-0.7856543,4.007205e-05,-2.35531,9.2972485e-05,1.5709913,0.786,0.04,0.04,0.023328727090499157,4.1330451413986715e-05,-0.0016704270470846438,-2.0571663841146853e-06,-0.0032238039267603524,1.3227299695969793e-07,0.999999755845462,0.00020321001276786646,0.0006677972545200922,3.258119174188848e-05
2752.5333333407702,0.00016712972,-0.78555703,3.9934075e-05,-2.355391,9.290178e-05,1.5709884,0.786,0.04,0.04,0.022460751353214903,0.00010615641918059133,-0.0015248729515082715,-7.303839045941706e-06,-0.004126431298357847,1.938583752404746e-07,0.9999998122423517,0.00020321745870034786,0.000577198214952738,3.2559890877748116e-05
2752.550000007437,0.00016733483,-0.7854676,3.9605726e-05,-2.3554654,9.27053e-05,1.5709856,0.786,0.04,0.039999995,0.02004784682263505,0.00019230261417354524,-0.001531665946674643,-1.7633872442123366e-05,-0.004944327978185402,1.0394194190966956e-06,0.9999998568639461,0.00020323473395567206,0.000493870936348834,3.254578999157167e-05
2752.566666674104,0.00016772174,-0.7853856,3.8973143e-05,-2.3555338,9.229292e-05,1.5709827,0.786,0.04,0.039999995,0.01830402166136391,0.0003195979527629959,-0.0015699047106298991,-3.4233767967871224e-05,-0.0056833011198764915,1.1113126503134486e-06,0.9999998917757376,0.00020326842915064435,0.000417219377117105,3.253383304911435e-05
2752.583333340771,0.00016837039,-0.78531075,3.7900783e-05,-2.3555996,9.1555754e-05,1.5709798,0.7859981,0.04,0.04,0.012366674813590883,0.00047300231623472475,-0.0029183938347943084,-5.9133638419174166e-05,-0.006347631842312082,-1.4325489275860803e-07,0.999999919324207,0.0002023729322018675,0.00034545543433931597,3.25164356744395e-05
2752.6000000074378,0.00016937185,-0.78524226,3.6232894e-05,-2.3556588,9.040167e-05,1.570977,0.7859962,0.04,0.04,0.01839826612000106,0.0006244577495833573,-0.0006591588377125035,-8.5336174561579e-05,-0.006948918742949079,7.143042426168382e-07,0.9999999399072217,0.0002015113455159304,0.0002802182030800946,3.250368049820247e-05
2752.6166666741046,0.00017082755,-0.78517985,3.3796718e-05,-2.355717,8.870412e-05,1.5709741,0.7859943,0.04,0.04,0.008343554004497378,0.0008115085464036834,-0.003044186422140882,-0.00012258149001697358,-0.007471182239525544,4.1784161915942085e-07,0.9999999554624361,0.00020069420492278597,0.00021849765172495355,3.2492122908108604e-05
2752.6333333407715,0.00017284771,-0.7851235,3.0403648e-05,-2.3557737,8.6337546e-05,1.5709711,0.7859905,0.04,0.04,0.009116069408943162,0.0010060032471042235,-0.0029157296954851475,-0.00017295130446259057,-0.007937825478326999,1.3618086460510156e-06,0.9999999668002162,0.00019897937916071412,0.00016047262446062402,3.248553131082958e-05
2752.6500000074384,0.00017555049,-0.78507286,2.5851445e-05,-2.3558257,8.315782e-05,1.5709682,0.78598666,0.04,0.04,0.014364755391382822,0.0012212195936140628,-0.0010911475339270282,-0.0002289394673084389,-0.00834503955653415,1.7805237293852722e-06,0.9999999742066007,0.00019733285496217716,0.00010766300847442078,3.2484131903628525e-05
2752.6666666741053,0.00017906122,-0.7850276,1.9925577e-05,-2.355877,7.901398e-05,1.5709649,0.78598094,0.04,0.04,0.0071375640843696075,0.0014491025325495221,-0.0029454849625354385,-0.00030115477963935306,-0.008677607255462814,2.2742362416125342e-06,0.9999999788253531,0.00019481423142720397,5.780385614319574e-05,3.2487271115378183e-05
2752.683333340772,0.00018351116,-0.7849877,1.2400878e-05,-2.3559282,7.374861e-05,1.5709615,0.7859733,0.04,0.04,0.005790334708510869,0.0016872446109724272,-0.0031960681111664613,-0.000382116743779107,-0.008952862183279108,2.8532038138212156e-06,0.9999999810929724,0.00019143744180121492,1.0477929930348202e-05,3.2495752269890525e-05
2752.700000007439,0.00018903699,-0.784953,3.0430226e-06,-2.3559794,6.7197754e-05,1.5709548,0.7859638,0.04,0.04,0.004780435767637314,0.0019353767259063035,-0.005381123336922755,-0.00047340631950809246,-0.009172041677622929,3.524558091679887e-06,0.9999999813044079,0.0001872168880538009,-3.583469695286032e-05,3.250992351146442e-05
2752.716666674106,0.00019578004,-0.78492326,-8.390635e-06,-2.3560326,5.9191527e-05,1.5709481,0.7859523,0.04,0.04,0.0022298820424149213,0.00219188140903869,-0.0036677508134630443,-0.0005763395437457418,-0.009347031330593149,4.295232718826982e-06,0.9999999796279488,0.00018216768440182458,-8.062739799705571e-05,3.253089593848516e-05
2752.733333340773,0.00020388565,-0.7848986,-2.2149436e-05,-2.3560898,4.955523e-05,1.5709412,0.7859388,0.04,0.04,-0.0013598179128715415,0.002455780218532075,-0.004874871259064051,-0.0006925199492642678,-0.009471448639345894,5.1738763949166254e-06,0.9999999761273622,0.00017621579648687365,-0.00012503267712220755,3.2559142598647494e-05
2752.7500000074397,0.00021350251,-0.78487885,-3.8488477e-05,-2.356148,3.809895e-05,1.5709335,0.7859223,0.039999995,0.04,0.0035861538538739524,0.002733644009487112,-0.003859885401102936,-0.0008227309628343085,-0.009552081764145546,5.361169377181936e-06,0.999999971112058,0.00016892981422998103,-0.00016785845081580288,3.259051301877171e-05
2752.7666666741065,0.00022478182,-0.7848642,-5.7667898e-05,-2.3562074,2.4650697e-05,1.570923,0.7859032,0.03999999,0.03999999,0.0027089660061152543,0.0030017565154967173,-0.0054545631361646585,-0.0009641999272839261,-0.009577308627682704,7.401848953831908e-06,0.9999999645071537,0.00016053452774182256,-0.00021011804133840579,3.2630747272771126e-05
2752.7833333407734,0.00023787726,-0.7848544,-7.995169e-05,-2.3562732,9.027347e-06,1.5709121,0.78588086,0.039999988,0.039999984,-0.0056458431284101,0.0032792164102963175,-0.005931387711788361,-0.0011199330558102915,-0.00955341761312901,9.572177728748828e-06,0.9999999560240411,0.000150688567727364,-0.000253331400946318,3.26813806157199e-05
2752.8000000074403,0.0002529443,-0.7848494,-0.00010560706,-2.3563414,-8.959793e-06,1.570898,0.7858552,0.039999984,0.03999998,0.00020353454781574243,0.003562954299690267,-0.006175943842734455,-0.0012882658235559403,-0.009491858924010716,1.102945429161395e-05,0.9999999456575009,0.000139378529764492,-0.0002969621445285199,3.2743018901821346e-05
2752.816666674107,0.0002701397,-0.78484964,-0.00013490356,-2.3564153,-2.9498895e-05,1.5708836,0.7858258,0.03999998,0.039999977,-0.0040353239971535615,0.003846836094177576,-0.0058124428268468975,-0.001470565601320537,-0.009385309056736742,1.2641896147175431e-05,0.9999999333236784,0.00012644213237283502,-0.000341010339044121,3.281729170033754e-05
2752.833333340774,0.00028962133,-0.7848548,-0.00016811227,-2.3564963,-5.2779324e-05,1.5708672,0.7857925,0.039999977,0.03999997,-0.0073229749945946665,0.004132097595692848,-0.007531433306806612,-0.0016660141201398915,-0.009234039147473632,1.5285639174750535e-05,0.9999999182561302,0.00011180628424966895,-0.00038717480366270215,3.29053068899807e-05
2752.850000007441,0.00031154754,-0.784865,-0.00020550545,-2.3565845,-7.8992714e-05,1.5708487,0.7857552,0.039999973,0.039999966,-0.00725700297714571,0.004419581631628334,-0.00756605250271658,-0.0018751643677285073,-0.009049198470469895,1.726071578274737e-05,0.9999999001070004,9.539805150528089e-05,-0.00043542584248061,3.3008130359505735e-05
2752.866666674108,0.00033607686,-0.78488046,-0.00024735593,-2.3566787,-0.00010832969,1.5708276,0.7857134,0.03999997,0.03999996,-0.0051569234740478365,0.004706797438376379,-0.007609666976748919,-0.0020988506901671905,-0.008830079239188857,1.9438512341076993e-05,0.9999998787065705,7.699555805796924e-05,-0.000485346347126408,3.312780741874862e-05
2752.8833333407747,0.00036336793,-0.78490126,-0.00029393638,-2.3567784,-0.00014098076,1.5708051,0.7856669,0.039999966,0.039999954,-0.003838824063029378,0.0049931946372468,-0.006573958755562437,-0.0023357227391104197,-0.008568919017307166,2.2684382519593503e-05,0.9999998541766641,5.6555576638581546e-05,-0.0005360424032773351,3.3266484622561065e-05
2752.9000000074416,0.000393579,-0.7849274,-0.00034551875,-2.3568895,-0.00017713723,1.5707792,0.7856154,0.039999966,0.039999954,-0.014567137560606014,0.005277660428723802,-0.010679213798470144,-0.0025869132660455733,-0.008258346286301876,2.532186442198367e-05,0.9999998239608415,3.3914831659781814e-05,-0.0005914480960527397,3.342483778837552e-05
2752.9166666741085,0.00042686766,-0.78495884,-0.00040237446,-2.3570087,-0.0002169886,1.5707517,0.78555846,0.03999997,0.039999958,-0.00850164124539532,0.005562306596482417,-0.007867161489860663,-0.0028516103345929537,-0.007930376846086863,2.8220725583038772e-05,0.9999997887175787,8.881003407455215e-06,-0.0006491198450959656,3.360583996954415e-05
2752.9333333407753,0.0004633909,-0.78499603,-0.0004647734,-2.3571362,-0.0002607238,1.5707213,0.7854961,0.03999997,0.039999958,-0.00869125896552081,0.005844676733920261,-0.00916723151869192,-0.003129315071238049,-0.007561451025885057,3.139521632407284e-05,0.9999997475580404,-1.85302666800589e-05,-0.0007095049363629365,3.381168340065033e-05
2752.950000007442,0.0005033044,-0.785039,-0.0005329835,-2.3572724,-0.00030853075,1.5706875,0.78542805,0.039999977,0.039999966,-0.009247534291922932,0.006124612634435833,-0.009631347862248951,-0.0034211544719705963,-0.00715499172410792,3.4880730705142814e-05,0.9999996995120385,-4.8452556319384504e-05,-0.000772961281713491,3.40446702289805e-05
2752.966666674109,0.00054676295,-0.7850877,-0.000607271,-2.3574202,-0.00036059518,1.570651,0.7853539,0.039999977,0.03999996,-0.014390241895689826,0.006399295127690998,-0.010551916694212515,-0.0037266339459966994,-0.006711047354607898,3.9565687232235615e-05,0.999999642679175,-8.105012564849933e-05,-0.0008407707049082457,3.430774446721032e-05
2752.983333340776,0.0005939197,-0.78514266,-0.0006878991,-2.357579,-0.00041710207,1.570612,0.7852734,0.039999977,0.03999996,-0.01254614625669781,0.00667321429755932,-0.010445651994572813,-0.004045801908535152,-0.006240154263448332,4.3757887995695376e-05,0.9999995765217263,-0.00011645733071526291,-0.0009122481228067741,3.460376828081158e-05
2753.000000007443,0.0006449263,-0.7852038,-0.0007751292,-2.3577487,-0.00047823423,1.5705696,0.7851863,0.03999998,0.039999966,-0.012801125054773266,0.006943711837557307,-0.010858906253985445,-0.0043778903415157356,-0.005735043494709411,4.834362294784669e-05,0.9999994996188043,-0.00015474915969881546,-0.0009877217814744862,3.493595798867557e-05
2753.0166666741097,0.00069993275,-0.78527105,-0.0008692189,-2.357931,-0.00054417225,1.5705237,0.78509235,0.03999998,0.039999966,-0.015475942727527503,0.007207875136363991,-0.011706818028578425,-0.004723492255064795,-0.005196353724564458,5.337339500449635e-05,0.9999994096887302,-0.00019606133419025983,-0.0010681458251348339,3.5307796565535666e-05
2753.0333333407766,0.0007590872,-0.7853448,-0.00097042345,-2.358127,-0.00061509403,1.5704741,0.7849913,0.039999977,0.039999958,-0.017887895303192458,0.007467760922602032,-0.012788007032904503,-0.0050821464268084,-0.004630941857809547,5.9741634968071486e-05,0.999999304345484,-0.00024050016885211506,-0.0011542062336637807,3.572376054124628e-05
2753.0500000074435,0.0008225362,-0.7854251,-0.0010789941,-2.3583348,-0.0006911763,1.5704209,0.7848829,0.03999998,0.03999996,-0.013304103234279552,0.0077275036930056365,-0.011674550964557717,-0.0054536195808229165,-0.004045822424802763,6.575487673561066e-05,0.999999183384095,-0.00028820131511110217,-0.0012445326866934996,3.618752321374801e-05
2753.0666666741104,0.0008904233,-0.78551215,-0.0011951793,-2.3585565,-0.00077259284,1.570364,0.784767,0.03999998,0.03999996,-0.01765559284971907,0.007978018511742574,-0.012807838768957858,-0.005837995612527625,-0.003424119744600753,7.23285452965865e-05,0.999999043527348,-0.0003392125984273623,-0.001340347730037656,3.67037437000823e-05
2753.0833333407772,0.0009628908,-0.78560615,-0.001319223,-2.358793,-0.0008595135,1.5703034,0.7846433,0.03999998,0.039999958,-0.018580181587291023,0.008222601153812237,-0.013392732532779839,-0.006235619964302436,-0.002777215960826149,8.036958253541601e-05,0.9999988822604077,-0.00039364213311517647,-0.0014419202999820515,3.7278074044431195e-05
2753.100000007444,0.0010400785,-0.785707,-0.0014513663,-2.3590438,-0.0009521081,1.570239,0.78451145,0.039999984,0.03999996,-0.017978817888053555,0.00846708930190677,-0.013293301709205174,-0.006646013458476643,-0.0021059281093528206,8.819780154624337e-05,0.9999986972724859,-0.0004516870853247638,-0.001549191575313458,3.791531553489286e-05
2753.116666674111,0.0011221241,-0.78581506,-0.0015918452,-2.3593102,-0.0010505419,1.5701706,0.7843713,0.039999984,0.03999996,-0.019572510299892265,0.008700012632443955,-0.013950538704232684,-0.007068451802617888,-0.0014089506582353555,9.672422845298685e-05,0.9999984854779969,-0.0005133977023972331,-0.0016625200453134843,3.862137243160589e-05
2753.133333340778,0.0012091622,-0.78593045,-0.0017408911,-2.3595917,-0.001154976,1.570098,0.78422266,0.039999984,0.039999958,-0.019188273686365775,0.008930044196009792,-0.014271616477401494,-0.007503278756327694,-0.0006870271533456866,0.00010686704214576178,0.9999982439673817,-0.0005788832691037766,-0.0017819662514501249,3.940294950076684e-05
2753.1500000074448,0.001301325,-0.7860533,-0.0018987331,-2.359889,-0.0012655716,1.5700213,0.7840652,0.039999988,0.03999996,-0.019831074759135703,0.009156177092586176,-0.014472218242800317,-0.007950310058695516,6.112639281351858e-05,0.00011696016961388559,0.9999979694863077,-0.0006482837015198693,-0.0019076504202494994,4.0266338300180624e-05
2753.1666666741116,0.001398743,-0.78618383,-0.0020655945,-2.3602037,-0.0013824855,1.5699401,0.7838987,0.039999988,0.03999996,-0.022478096539302328,0.009370694732407136,-0.01554837396753328,-0.008409096411487757,0.0008333640652617752,0.00012792880866501453,0.9999976571030535,-0.0007216814388916428,-0.0020404081176622867,4.1219145228115876e-05
2753.1833333407785,0.0015015434,-0.7863222,-0.0022416953,-2.3605351,-0.0015058701,1.5698545,0.78372306,0.039999988,0.039999958,-0.02113523346096713,0.009584453746128421,-0.015299035138749417,-0.008879706575449823,0.0016248874030998857,0.0001406824128268036,0.9999973039616485,-0.000799157740720034,-0.002179823302517573,4.226948584134994e-05
2753.2000000074454,0.0016098515,-0.7864683,-0.0024272504,-2.3608835,-0.0016358767,1.5697644,0.78353804,0.03999999,0.03999996,-0.021580081852290434,0.009790496382077645,-0.015504830625601151,-0.009362270334805085,0.0024407109008407423,0.0001535720032630472,0.9999969058370449,-0.000880795497030558,-0.0023260760699251276,4.3425170712270415e-05
2753.2166666741123,0.001723789,-0.7866227,-0.0026224693,-2.36125,-0.0017726525,1.5696696,0.7833433,0.03999999,0.03999996,-0.023183661999159888,0.009986442851816959,-0.01637845784696612,-0.009856591674341867,0.003278351727251221,0.00016751892264940844,0.9999964574292058,-0.0009667686798612298,-0.0024796148231156926,4.4695492268235674e-05
2753.233333340779,0.0018434753,-0.7867853,-0.0028275584,-2.3616343,-0.0019163403,1.5695701,0.78313875,0.03999999,0.039999958,-0.02281963943726595,0.010180151133243071,-0.016369201374777376,-0.010361684077727307,0.004137523416788615,0.0001834465858912438,0.9999959543593723,-0.0010571312494532263,-0.002640381429244404,4.6090322113290076e-05
2753.250000007446,0.0019690273,-0.78695613,-0.003042718,-2.362038,-0.0020670823,1.5694653,0.7829241,0.039999995,0.03999996,-0.02539874893603411,0.010360921107777305,-0.01738803506159403,-0.010877957550338165,0.005018036992922066,0.00019974248551697486,0.999995389132819,-0.001152000039292262,-0.002809331125758793,4.7619713523768044e-05
2753.266666674113,0.002100559,-0.7871356,-0.0032681448,-2.3624597,-0.0022250165,1.5693558,0.78269935,0.039999995,0.03999996,-0.022734456903439337,0.010546422203582461,-0.016644144088373558,-0.011405170790280106,0.005912749563847229,0.00021635242416526146,0.999994759574673,-0.0012513999011967856,-0.0029853629071523004,4.929291941788341e-05
2753.28333334078,0.002238182,-0.78732365,-0.0035040297,-2.362901,-0.002390274,1.5692413,0.78246415,0.04,0.039999966,-0.02537939975957304,0.010709505791787408,-0.017631731265810302,-0.011943785893284363,0.0068332347648907285,0.00023525118584564152,0.9999940572685339,-0.0013554794557979638,-0.0031694620132367074,5.1123454671217605e-05
2753.3000000074467,0.002382005,-0.7875204,-0.0037505599,-2.3633616,-0.0025629876,1.5691214,0.7822184,0.04,0.03999997,-0.024922116758707702,0.010876944246296198,-0.017780884043738787,-0.012493042482584052,0.007769973691115198,0.0002558321754289744,0.9999932764052883,-0.001464296594477639,-0.0033615707227676586,5.312227204916841e-05
2753.3166666741135,0.0025321331,-0.78772604,-0.0040079164,-2.3638425,-0.0027432826,1.5689963,0.7819617,0.04,0.03999996,-0.026272389502324245,0.011029750419595651,-0.0181523743108869,-0.013053081188772223,0.00872613401342549,0.0002791240591142521,0.9999924095280727,-0.001578060262485789,-0.0035619592323090613,5.530348035496889e-05
2753.3333333407804,0.0026886684,-0.78794086,-0.0042762766,-2.364344,-0.0029312854,1.5688659,0.781694,0.04,0.039999973,-0.026427706105103255,0.01118171762772048,-0.01862056701609216,-0.013622695848394177,0.009698916219427929,0.00029909990787900173,0.9999914496229785,-0.0016967710150013432,-0.0037707190503750705,5.767928418689567e-05
2753.3500000074473,0.002851712,-0.7881647,-0.004555813,-2.3648665,-0.0031271128,1.5687302,0.7814152,0.04,0.03999996,-0.02780389972696362,0.011317218724535283,-0.018776495156291872,-0.01420238324328371,0.010688905919288606,0.00032801669352316987,0.9999903880151644,-0.0018204912877441992,-0.003988239806501706,6.026606013160378e-05
2753.366666674114,0.0030213608,-0.7883977,-0.004846692,-2.3654099,-0.0033308852,1.5685887,0.7811252,0.04,0.03999996,-0.02692355316191719,0.011457204548258673,-0.019153094517587732,-0.014792171652707915,0.011693029208629606,0.00035665162319546,0.9999892171887179,-0.001949312443914238,-0.004214464218320569,6.307649035492252e-05
2753.383333340781,0.0031977084,-0.7886404,-0.0051490786,-2.365974,-0.0035427157,1.568442,0.7808236,0.04,0.03999996,-0.0263511824430962,0.011589641176983252,-0.018922470714133333,-0.015392396734574293,0.01271222911586534,0.0003855678821466039,0.9999879310578957,-0.0020833855809638175,-0.004448917881770646,6.612678371319919e-05
2753.400000007448,0.0033808479,-0.7888927,-0.0054631275,-2.36656,-0.003762714,1.5682892,0.7805103,0.04,0.039999958,-0.028570238680059035,0.011697895669434723,-0.020145941317561977,-0.01600181181256514,0.013752713601826063,0.0004168556243177683,0.9999865169408934,-0.002222778520915968,-0.0046925868021426695,6.943465743269837e-05
2753.416666674115,0.0035708668,-0.7891543,-0.0057889903,-2.3671682,-0.003990988,1.568131,0.78018534,0.04,0.03999996,-0.029149487371071814,0.011808570636221219,-0.01954392196299448,-0.0166205240707002,0.01480537052379148,0.0004497477821130292,0.9999849661398779,-0.002367497207485296,-0.004945414037058937,7.30150801259455e-05
2753.4333333407817,0.0037678499,-0.78942573,-0.006126816,-2.3677983,-0.004227641,1.5679667,0.7798484,0.04,0.039999958,-0.028384447961449233,0.011919516062844273,-0.020286153527004913,-0.017248936663535337,0.015871427553648957,0.0004852061389509395,0.9999832691435583,-0.00251769586400873,-0.005207372552379942,7.688692300385477e-05
2753.4500000074486,0.0039718817,-0.7897071,-0.006476748,-2.368451,-0.00447277,1.5677968,0.7794994,0.04,0.039999954,-0.02932376220263766,0.012008191888920102,-0.02034676226483345,-0.017886452642854156,0.01695274666763611,0.000522048655954465,0.999981415852599,-0.002673414036551052,-0.00547852483025386,8.107098665375882e-05
2753.4666666741155,0.004183042,-0.7899984,-0.006838924,-2.3691263,-0.0047264737,1.5676209,0.77913797,0.04,0.039999958,-0.029138568870368253,0.01210228886247295,-0.02058351950064985,-0.018533273107517064,0.01804756785896775,0.0005618071857642747,0.9999793947135867,-0.0028348684041481645,-0.005759022870986396,8.558593097730096e-05
2753.4833333407823,0.004401408,-0.7902996,-0.0072134766,-2.3698242,-0.004988845,1.5674387,0.7787644,0.04,0.039999954,-0.029584964135920266,0.01218096128352648,-0.020806912427007163,-0.01918777492413289,0.019155775773685924,0.0006042011029264386,0.9999771944802713,-0.003001890876157177,-0.006049048611743871,9.045123468874018e-05
2753.500000007449,0.0046270536,-0.790611,-0.0076005347,-2.370546,-0.005259975,1.5672506,0.7783785,0.04,0.039999954,-0.03154792814965557,0.012246125095961586,-0.021513448876153696,-0.019852270286097595,0.02027795332129605,0.0006485664084451385,0.9999748008775977,-0.0031746443576488666,-0.00634902247969601,9.568993441561862e-05
2753.516666674116,0.0048600533,-0.79093266,-0.00800022,-2.3712916,-0.0055399467,1.5670565,0.7779799,0.04,0.039999954,-0.030812141777025737,0.012308500179134332,-0.021286588500268877,-0.020525693189467932,0.02140810646006519,0.000696487064848407,0.9999722028957795,-0.00335326134906628,-0.0066587391819494714,0.00010132420006187003
2753.533333340783,0.005100472,-0.79126453,-0.008412656,-2.372061,-0.0058288462,1.566856,0.77756864,0.04,0.039999943,-0.031303162786078254,0.012376337937690211,-0.021815308627348706,-0.021207493753788016,0.02254963367014309,0.0007464191160705472,0.9999693858753687,-0.003537781976229655,-0.0069785299769009905,0.00010737824805868217
2753.55000000745,0.0053483774,-0.79160696,-0.008837952,-2.3728538,-0.006126753,1.5666496,0.7771446,0.039999995,0.039999932,-0.030031859244439296,0.01242552905200648,-0.02142605242747564,-0.021897770702843662,0.023701418643618646,0.0007986909381182197,0.9999663412496064,-0.00372825173640187,-0.007307772582224296,0.00011387164912455074
2753.5666666741167,0.0056038345,-0.79195994,-0.009276218,-2.3736703,-0.006433742,1.5664366,0.7767076,0.039999995,0.03999993,-0.0309920147695264,0.01246197669274949,-0.02203433596181803,-0.022596533521199922,0.0248675573159875,0.0008554249228519516,0.9999630520589203,-0.00392480716839404,-0.0076469474519963,0.00012083197622739497
2753.5833333407836,0.0058669015,-0.79232365,-0.009727558,-2.3745115,-0.006749887,1.5662173,0.77625746,0.04,0.039999932,-0.032013734982361264,0.01249342588882027,-0.022496315289810553,-0.023302987988658434,0.026045373685644163,0.0009138691245106113,0.9999595020989953,-0.004127525474499949,-0.007996326532474965,0.00012828629222546033
2753.6000000074505,0.006137638,-0.7926978,-0.01019207,-2.375378,-0.007075256,1.5659916,0.7757943,0.039999995,0.03999993,-0.03351776180584576,0.012504199487268011,-0.022613770357482466,-0.02401716826609731,0.02723224655769451,0.0009753273629099814,0.9999556733020151,-0.004336369490411924,-0.008356360678128899,0.00013626068138377243
2753.6166666741174,0.006416097,-0.79308283,-0.010669851,-2.376268,-0.0074099186,1.5657598,0.7753179,0.04,0.03999993,-0.03014904943299257,0.012552357983143525,-0.022031298018521106,-0.024739754827337236,0.028423264903860095,0.0010408757765817608,0.9999515594187028,-0.004551499878709656,-0.008725921402509773,0.00014477788409542584
2753.6333333407842,0.006702331,-0.79347867,-0.011160988,-2.3771834,-0.0077539366,1.5655214,0.77482826,0.04,0.03999993,-0.03361866513433842,0.012535668637164883,-0.023165536371960727,-0.025469879691645873,0.02963111631328994,0.0011089294270335316,0.999947134924264,-0.004772914800659133,-0.009106204747771213,0.00015387057194865547
2753.650000007451,0.006996391,-0.7938853,-0.011665572,-2.3781238,-0.00810737,1.565276,0.77432513,0.039999995,0.03999992,-0.03252558368358471,0.012551130960791052,-0.023133080801929218,-0.026207821723922862,0.030843354696943024,0.0011812779273545106,0.9999423843579045,-0.00500075162735538,-0.00949703601654862,0.0001635686120777501
2753.666666674118,0.0072983247,-0.79430294,-0.012183681,-2.379089,-0.0084702745,1.5650243,0.77380854,0.04,0.039999925,-0.03253248967176603,0.012540514744556822,-0.023051461167877818,-0.026952984432682306,0.0320635487561909,0.001257159555692694,0.9999372931219116,-0.005235035425565881,-0.009898180994786652,0.00017389971668508499
2753.683333340785,0.0076081743,-0.7947316,-0.012715391,-2.3800805,-0.0088427,1.564766,0.77327836,0.039999995,0.03999992,-0.03415061076528225,0.012513129761919026,-0.02354064319576299,-0.027705597191778484,0.03329229687576904,0.0013346618606444594,0.999931838807279,-0.00547585266844753,-0.010310120719044663,0.0001848994486761721
2753.7000000074518,0.007925979,-0.7951712,-0.013260771,-2.3810964,-0.009224701,1.5645013,0.77273464,0.039999984,0.039999906,-0.0319089538286077,0.012517335089775282,-0.02292644078982775,-0.028465003424645415,0.03452726465353343,0.0014181365710042547,0.9999260097339185,-0.005723192130372091,-0.01073226357743298,0.00019659081070718244
2753.7166666741186,0.0082517825,-0.79562193,-0.013819892,-2.382138,-0.009616325,1.5642297,0.77217716,0.03999998,0.0399999,-0.03374246535181591,0.012472043206818682,-0.023838032967771206,-0.029232045252633794,0.03577105460409536,0.0015051955860866419,0.9999197804888829,-0.005977205677919825,-0.011165209944426541,0.00020901254760666838
2753.7333333407855,0.008585622,-0.7960839,-0.0143928155,-2.383205,-0.010017615,1.5639515,0.77160597,0.039999973,0.03999989,-0.032781270737514134,0.012442307077416108,-0.023624681272860215,-0.0300055269755066,0.03702229238169672,0.0015952944703911676,0.9999131360348655,-0.0062378894522914195,-0.011608606707486814,0.00022219453699445885
2753.7500000074524,0.008927529,-0.7965569,-0.014979601,-2.3842983,-0.01042861,1.5636666,0.771021,0.039999977,0.03999989,-0.035121935862436615,0.01237792376667865,-0.02407810920446174,-0.030786281819511974,0.03828016362318809,0.0016903054824567477,0.9999060477510533,-0.006505306827735808,-0.012063203343530735,0.00023617586246453513
2753.7666666741193,0.009277533,-0.79704124,-0.015580297,-2.3854172,-0.010849347,1.5633748,0.77042216,0.039999977,0.03999989,-0.03314172116861691,0.012342384264328252,-0.02406551762808018,-0.03157396160758926,0.03954178145429977,0.0017886118922873645,0.9998985013679457,-0.006779542938777448,-0.012528438233243762,0.00025098827347040474
2753.783333340786,0.009635665,-0.7975369,-0.016194955,-2.3865623,-0.011279864,1.5630761,0.7698093,0.039999973,0.039999887,-0.034384286361355265,0.012269571043778404,-0.024330713066489373,-0.032367903374659106,0.04080951686450818,0.0018911119588592672,0.9998904713677794,-0.007060693780713494,-0.013004643762616695,0.0002666680753492008
2753.800000007453,0.010001951,-0.79804385,-0.016823623,-2.3877337,-0.01172019,1.5627707,0.7691825,0.039999973,0.039999884,-0.03445624687969939,0.01220973799734848,-0.0243451201592082,-0.03316812578160854,0.04208105017957863,0.001998791736923196,0.9998819357182286,-0.007348758858305069,-0.013491854378582599,0.0002832543694007726
2753.81666667412,0.010376411,-0.79856217,-0.017466338,-2.388931,-0.012170353,1.5624585,0.7685417,0.039999977,0.039999887,-0.033933920879047896,0.012137210031502865,-0.02433877811411911,-0.033974620879885106,0.043357216189002686,0.0021100366716278636,0.9998728742425965,-0.007643801128407212,-0.013989895961606805,0.0003007808860296029
2753.833333340787,0.010759067,-0.79909176,-0.018123139,-2.3901546,-0.012630382,1.5621394,0.7678869,0.03999998,0.039999887,-0.03450682345442768,0.012053846578137517,-0.02452846032605649,-0.03478708802162575,0.044637669348597336,0.002226634924983893,0.9998632606946792,-0.00794585626369595,-0.014499011604599137,0.0003192862826312726
2753.8500000074537,0.011149938,-0.7996327,-0.01879405,-2.3914042,-0.013100294,1.5618136,0.76721805,0.03999998,0.039999887,-0.03391456443959662,0.011962202444861653,-0.024343123657843968,-0.03560611113386653,0.04592078044450136,0.0023469599642597164,0.9998530758258437,-0.008254960541696606,-0.015018908026605625,0.0003388063502797318
2753.8666666741206,0.011549044,-0.8001852,-0.01947911,-2.3926802,-0.013580112,1.5614809,0.766535,0.039999984,0.039999887,-0.03466737115855878,0.011863348655460557,-0.02486516286670515,-0.0364313961169924,0.047210436519617864,0.00247289228545209,0.9998422901286709,-0.008571271630289937,-0.015549887872172943,0.00035938844900902834
2753.8833333407874,0.011956395,-0.80074894,-0.020178335,-2.3939826,-0.01406985,1.5611411,0.76583785,0.039999988,0.03999989,-0.03496487833325457,0.011752514065651448,-0.024882360756817157,-0.03726177711873932,0.04850206273537254,0.002602678436578295,0.9998308765019621,-0.008894739023878948,-0.016092134652734368,0.000381068672935093
2753.9000000074543,0.012372005,-0.8013243,-0.020891745,-2.3953109,-0.014569523,1.5607947,0.76512676,0.039999984,0.039999884,-0.033281998376466504,0.011662542254028616,-0.02449760284048974,-0.03809813351839337,0.04979395491945668,0.00273816046587555,0.9998188216108561,-0.009225338523604427,-0.01664493801136944,0.0004038816677495092
2753.916666674121,0.012795875,-0.8019111,-0.021619359,-2.3966668,-0.0150791425,1.5604415,0.764401,0.039999988,0.039999887,-0.036721659072735946,0.011507029962493781,-0.025482565187373574,-0.03894095934439537,0.05109360029155634,0.002877811384998496,0.9998060778061305,-0.009563476324426251,-0.017209404855346278,0.00042788671245279277
2753.933333340788,0.0132280225,-0.8025091,-0.022361184,-2.3980482,-0.015598714,1.560081,0.7636618,0.03999999,0.03999989,-0.033515790789695465,0.01141684542495594,-0.02472053933395557,-0.0397869514436226,0.05239032814493173,0.0030223322780498878,0.9997926357736193,-0.009908589486733486,-0.01778482507950038,0.0004531049700193777
2753.950000007455,0.013668444,-0.80311877,-0.023117235,-2.399457,-0.016128242,1.5597137,0.7629083,0.04,0.039999895,-0.03614148610147083,0.011253698860629047,-0.02556760698637639,-0.04064152425542557,0.053689143366584834,0.003172999625659815,0.99977845504461,-0.010261145275671261,-0.01837170951208724,0.0004795996744989736
2753.966666674122,0.014117145,-0.8037401,-0.023887502,-2.4008913,-0.016667731,1.5593396,0.76214015,0.039999995,0.03999989,-0.032882739797268634,0.011152626229195967,-0.024708986738075644,-0.041500613130035446,0.0549866176491834,0.0033278469962505462,0.9997635240210688,-0.01062132786182212,-0.018969079522687924,0.0005073987459848775
2753.9833333407887,0.014574121,-0.8043731,-0.024671983,-2.4023526,-0.017217178,1.5589588,0.761358,0.039999988,0.03999988,-0.03529118628771144,0.010966437113630115,-0.02547100072438635,-0.042363275361384164,0.05629076398519249,0.0034887713755824626,0.9997478040798318,-0.010988893766744653,-0.019577654723923615,0.000536550881342281
2754.0000000074556,0.01503937,-0.80501705,-0.025470683,-2.4038408,-0.01777658,1.5585709,0.7605618,0.039999984,0.039999876,-0.03612545776960907,0.010817415958564239,-0.02534904831641427,-0.043231259740799326,0.057594712614826474,0.003654225133515314,0.9997312558801627,-0.011363915980132274,-0.020197916275885217,0.0005671049122823547
2754.0166666741225,0.015512887,-0.80567235,-0.026283588,-2.4053545,-0.01834594,1.558176,0.75975144,0.039999984,0.039999876,-0.0333169030803937,0.010707432064809355,-0.024783872166733723,-0.044104880123236836,0.05889264264710415,0.0038250571720853596,0.9997138677449187,-0.011746489581875654,-0.02082891525289626,0.0005990913000580106
2754.0333333407893,0.01599467,-0.8063394,-0.02711069,-2.4068952,-0.018925231,1.5577745,0.7589269,0.039999988,0.039999876,-0.03520982813949303,0.010484826577722081,-0.025584258467370447,-0.04498302045649296,0.06019639237829401,0.004002209512984991,0.9996956016584058,-0.012136646371218574,-0.02147104300442336,0.0006325756875061297
2754.050000007456,0.016484695,-0.80701786,-0.027951961,-2.4084613,-0.019514445,1.557366,0.7580883,0.039999984,0.039999872,-0.033236798477442875,0.01036470939660486,-0.025045785986366198,-0.04586614425836855,0.06149694832147848,0.004183943158446141,0.9996764351499963,-0.012534418444660128,-0.0221239165759441,0.0006675892376113836
2754.066666674123,0.016982965,-0.8077078,-0.028807392,-2.4100547,-0.02011358,1.5569506,0.7572355,0.03999998,0.03999987,-0.036002114259203744,0.0101317435371482,-0.025854147755288714,-0.04675371735897544,0.06280185281967576,0.004372133709277748,0.9996563191697919,-0.0129398756179408,-0.0227883145597887,0.0007041891930813872
2754.08333334079,0.017489463,-0.8084092,-0.029676955,-2.4116738,-0.020722609,1.5565281,0.7563686,0.039999973,0.039999858,-0.033582135405296754,0.009991469961230862,-0.025312357999829338,-0.047645424564364845,0.06410014815905721,0.004565028508844167,0.9996352362425412,-0.013353083185928824,-0.02346355573982217,0.0007424175326003428
2754.100000007457,0.018004168,-0.8091221,-0.030560628,-2.4133208,-0.02134152,1.5560989,0.7554876,0.03999997,0.039999854,-0.037136540165816356,0.00973476488149716,-0.02616128419417052,-0.04854143810496398,0.06540090647536535,0.00476368262364911,0.9996131323552873,-0.013774021768080513,-0.024150567310932822,0.0007823335242906257
2754.1166666741237,0.018527064,-0.8098463,-0.031458367,-2.414992,-0.021970285,1.5556629,0.75459266,0.039999954,0.03999984,-0.03135261506255205,0.009653188467298457,-0.02452659669940349,-0.049441306550819936,0.06669143232282607,0.004968774045252547,0.9995900127895002,-0.014202711421546511,-0.024847744680677176,0.0008239563380959589
2754.1333333407906,0.019058129,-0.81058174,-0.032370143,-2.4166906,-0.02260888,1.55522,0.7536836,0.039999947,0.039999828,-0.03616675470128339,0.009347634701240698,-0.025925769000623156,-0.050345555929481846,0.06798931206198629,0.005178856882998892,0.9995658084635975,-0.014639262173426967,-0.025556491123891162,0.0008673609206297355
2754.1500000074575,0.019597337,-0.81132835,-0.033295915,-2.4184144,-0.023257276,1.5547705,0.7527607,0.03999993,0.03999981,-0.03307410263724275,0.00921258255819693,-0.024864928379275675,-0.051253368076829245,0.06927913627246599,0.005394663035922745,0.9995405099458738,-0.0150836174350567,-0.026275857093961644,0.0009125766779294958
2754.1666666741244,0.020144664,-0.8120864,-0.03423564,-2.420165,-0.023915444,1.5543141,0.7518238,0.039999906,0.039999787,-0.035582219568786044,0.008931554852115858,-0.026020005158300386,-0.052165422798060405,0.07056949364937133,0.0056164293027052,0.9995140612247277,-0.015535910990649807,-0.027006590182898898,0.0009596720453390547
2754.1833333407913,0.020700086,-0.8128556,-0.03518928,-2.421941,-0.024583356,1.553851,0.75087315,0.039999895,0.039999772,-0.03311016889342433,0.008781765128241387,-0.025080316528192093,-0.053080225014216144,0.07185239007970842,0.005844663079928113,0.9994864469229363,-0.015996030790295743,-0.027748008771327902,0.0010086751442341879
2754.200000007458,0.02126358,-0.813636,-0.03615678,-2.4237432,-0.025260976,1.553381,0.7499087,0.039999884,0.03999976,-0.03467117174820178,0.008509325782951604,-0.025756097589302307,-0.05399968371475217,0.07313577164591216,0.0060781468911795256,0.999457615360915,-0.016464106108009198,-0.028500621825560533,0.001059652157039206
2754.216666674125,0.021835105,-0.8144274,-0.03713808,-2.4255707,-0.02594827,1.5529045,0.7489305,0.039999876,0.039999753,-0.033198202429685075,0.00831689475716893,-0.024848897792217883,-0.05492245774133608,0.0744111814097172,0.006317481798128077,0.9994275472375886,-0.0169401225056825,-0.02926383653756628,0.0011126289824571573
2754.233333340792,0.022414638,-0.8152301,-0.03813313,-2.4274242,-0.026645182,1.5524212,0.74793845,0.03999987,0.039999746,-0.034114448500099925,0.008042959752245504,-0.025727937661912392,-0.05584849147695972,0.07568557743962262,0.0065636592698690155,0.9993961928571449,-0.017424236826516185,-0.030038012359938488,0.0011676845132087468
2754.2500000074588,0.023002135,-0.81604373,-0.039141875,-2.429303,-0.027351677,1.5519314,0.7469328,0.039999865,0.03999974,-0.03322909982372835,0.007844750147784768,-0.025068291993823877,-0.05677692426720479,0.07695314084524443,0.006814841281937822,0.9993635254405632,-0.01791634516688295,-0.03082285404105869,0.001224852494597028
2754.2666666741256,0.023597572,-0.8168684,-0.04016423,-2.4312065,-0.028067723,1.5514345,0.7459137,0.039999858,0.03999973,-0.03249961210989305,0.0075931848416858905,-0.025272567075873553,-0.05770868461293595,0.07821761010116644,0.0070719348166986065,0.9993295082573367,-0.018416454311943675,-0.03161833404506044,0.001284168579590023
2754.2833333407925,0.02420089,-0.8177041,-0.041200142,-2.4331362,-0.028793264,1.5509312,0.74488103,0.039999843,0.039999716,-0.034775874234482806,0.007304647867072828,-0.025610090832417498,-0.05864364141939453,0.07947755605613882,0.00733516503656069,0.9992940869667785,-0.01892465754627792,-0.032424900419008154,0.0013457053191758223
2754.3000000074594,0.024812065,-0.81855065,-0.042249545,-2.4350905,-0.029528249,1.5504215,0.7438349,0.039999828,0.0399997,-0.032059528941386084,0.007111626913196278,-0.024766537187681514,-0.059581042195308576,0.08072868245676552,0.007604322201712317,0.9992572481476031,-0.019440970605890066,-0.033241750941300816,0.0014094966254130528
2754.3166666741263,0.02543105,-0.8194079,-0.043312356,-2.4370701,-0.030272635,1.5499052,0.74277544,0.039999817,0.039999686,-0.033520273228115904,0.006811156540376118,-0.025191943753055668,-0.06052110846692562,0.08197692321192052,0.007880157685130451,0.9992189347725923,-0.019965406063634315,-0.034069422889568206,0.0014755936472848755
2754.333333340793,0.026057795,-0.82027596,-0.04438851,-2.4390748,-0.031026363,1.5493824,0.7417028,0.039999805,0.039999675,-0.032901961016884584,0.0065758007099764315,-0.025124438945511862,-0.061463548286042974,0.0832176222933222,0.008161309175953958,0.9991791165564853,-0.020497925941168726,-0.034907649326519616,0.0015440492247914312
2754.35000000746,0.02669226,-0.8211547,-0.045477934,-2.4411037,-0.03178939,1.5488534,0.7406168,0.039999787,0.039999656,-0.031862091015177896,0.006348265356911215,-0.02463420807621297,-0.06240897766092003,0.08445122403288423,0.008448415585911993,0.9991377619708381,-0.02103867250573958,-0.035756103578966324,0.0016149055549053337
2754.366666674127,0.027334401,-0.82204413,-0.04658053,-2.4431565,-0.03256164,1.548318,0.7395177,0.039999776,0.039999645,-0.031065130641483307,0.006076557094053525,-0.024440653428503545,-0.06335589000642063,0.08568059968892139,0.008741328771698427,0.9990948407947255,-0.021587587493737556,-0.036614548049319795,0.0016882045807275186
2754.383333340794,0.027984159,-0.82294405,-0.04769621,-2.445234,-0.03334305,1.5477762,0.73840547,0.039999764,0.039999634,-0.03285096767473572,0.005738794649340351,-0.025030183353980107,-0.06430472722322772,0.08690650824351165,0.009040198290660391,0.9990502878557376,-0.022144745192817072,-0.037483607703046914,0.0017640151011678823
2754.4000000074607,0.028641483,-0.8238547,-0.048824895,-2.4473367,-0.034133572,1.5472281,0.7372804,0.039999757,0.039999627,-0.03295955045050647,0.005465426499148829,-0.025244552688663546,-0.06525525877229255,0.08812267010117536,0.0093450744968913,0.9990040649576103,-0.022710062571605235,-0.038363223090457386,0.0018423816858583264
2754.4166666741276,0.029306332,-0.8247757,-0.049966484,-2.449463,-0.034933146,1.5466738,0.7361424,0.039999746,0.039999615,-0.03091604493630218,0.005243393155188181,-0.0242826759068393,-0.06620794242393248,0.08932893032826453,0.009655648864474897,0.9989561496636622,-0.02328367752807185,-0.03925279862063315,0.0019233331401244376
2754.4333333407944,0.029978637,-0.825707,-0.051120896,-2.4516125,-0.035741672,1.5461129,0.7349916,0.039999735,0.039999604,-0.030664531161295194,0.004970251889570287,-0.02446510005822411,-0.06716143017250882,0.09052896716856403,0.009972951516177372,0.9989064981999951,-0.02386551907956469,-0.04015242264985249,0.0020069400174714228
2754.4500000074613,0.030658346,-0.82664865,-0.052288022,-2.453786,-0.036559105,1.5455462,0.7338281,0.039999716,0.039999582,-0.03125595564907879,0.004651718814628614,-0.024240782938544925,-0.06811654392132067,0.0917210435846075,0.0102951544835653,0.9988550717888471,-0.02445563601896525,-0.04106197511966755,0.002093233832266196
2754.466666674128,0.031345394,-0.82760036,-0.053467758,-2.4559832,-0.037385385,1.5449733,0.732652,0.039999712,0.03999958,-0.03157454039666163,0.004361279931609785,-0.02447863310670595,-0.06907285956901729,0.09290725366898275,0.010623068295433198,0.9988018142844435,-0.0250540611544675,-0.04198175237600822,0.0021822624067338635
2754.483333340795,0.03203974,-0.8285623,-0.054660007,-2.4582045,-0.038220424,1.5443943,0.7314634,0.039999712,0.03999958,-0.03173959811195726,0.004020416236315272,-0.02466457946541656,-0.07002966231065044,0.09408078531665995,0.010956798741372467,0.9987466822432944,-0.025660812616065218,-0.042911722497410515,0.0022740879930370074
2754.500000007462,0.032741293,-0.82953423,-0.055864662,-2.4604487,-0.039064154,1.5438092,0.73026234,0.039999712,0.03999958,-0.030058438240243568,0.003825790943664392,-0.023943812236315587,-0.07098698987389493,0.09524432330506166,0.01129607208501062,0.9986896513362704,-0.026275860179216657,-0.043851437461453834,0.0023687376902847214
2754.516666674129,0.03345002,-0.830516,-0.057081617,-2.4627159,-0.0399165,1.5432181,0.7290492,0.039999705,0.03999957,-0.030131459890370138,0.0034992293680334574,-0.023864415997532085,-0.0719450138483638,0.0963979047174575,0.011640933188112192,0.998630679537507,-0.026899131490082984,-0.04480089512287613,0.0024662537836286267
2754.5333333407957,0.034165826,-0.83150774,-0.058310762,-2.4650056,-0.040777385,1.5426213,0.727824,0.0399997,0.039999567,-0.02951120688980957,0.0032359169350508477,-0.023781205876338696,-0.07290407274148075,0.09754244316121877,0.011991484335969124,0.9985697334162464,-0.027530675386402838,-0.04575982473780753,0.0025666822437146286
2754.5500000074626,0.034888677,-0.83250904,-0.059551977,-2.4673178,-0.04164672,1.5420185,0.72658664,0.039999686,0.039999552,-0.02957817923987527,0.0028951168543074612,-0.023507591217808432,-0.0738637068707757,0.09867755615365784,0.012347520047826334,0.9985067610659782,-0.028170567548644988,-0.0467283421087263,0.00267006990296399
2754.5666666741295,0.03561848,-0.83352005,-0.06080514,-2.469652,-0.04252442,1.5414097,0.72533727,0.03999966,0.039999526,-0.028652288746799925,0.002640362093121046,-0.023563024594297488,-0.07482313041313762,0.0998029498200653,0.01270878899386238,0.9984417267885648,-0.0288188233187112,-0.04770623543425525,0.0027764600997008835
2754.5833333407963,0.03635518,-0.83454055,-0.06207013,-2.4720085,-0.043410424,1.5407954,0.7240761,0.039999638,0.039999504,-0.02950559434597988,0.002293045020800022,-0.023335770991161908,-0.07578198997027634,0.10091857034715476,0.013075340328643686,0.998374583692179,-0.029475404337442702,-0.048693560604264906,0.0028858850100853656
2754.600000007463,0.037098687,-0.83557063,-0.06334683,-2.4743867,-0.04430464,1.5401753,0.72280335,0.039999627,0.039999492,-0.02827639556621797,0.0020404552568700773,-0.023319951579781062,-0.07674057538398017,0.10202323706947813,0.013447226099088903,0.99830530014703,-0.030140234962193698,-0.04969007563996775,0.002998385843490374
2754.61666667413,0.037848946,-0.8366102,-0.06463512,-2.4767857,-0.045206957,1.5395495,0.721519,0.03999961,0.039999478,-0.0267800790709094,0.0017717689400995051,-0.022692695923764994,-0.07769917523759544,0.10311711334117223,0.013824366114124242,0.9982338525042017,-0.030813394214054386,-0.05069529985579814,0.0031140045214578813
2754.633333340797,0.038605865,-0.83765876,-0.06593487,-2.4792056,-0.046117295,1.5389181,0.7202233,0.03999959,0.039999455,-0.02756270783950132,0.0014498408215490866,-0.022508980421553915,-0.07865688099377494,0.1042036679920928,0.014206326744930949,0.9981601866300193,-0.03149479401963364,-0.05170946659739504,0.0032327759895613975
2754.650000007464,0.0393694,-0.8387165,-0.06724593,-2.4816465,-0.04703557,1.5382813,0.71891624,0.03999957,0.039999437,-0.02735779096942892,0.0010970258045348014,-0.022639883051089882,-0.07961456457089901,0.10528052650153608,0.014593373764841565,0.9980842579748593,-0.03218454835027831,-0.052732481025543086,0.0033547392080038835
2754.6666666741307,0.04013945,-0.8397835,-0.06856818,-2.484109,-0.047961693,1.5376393,0.71759796,0.039999552,0.039999418,-0.027993639544621196,0.0007558037178487242,-0.022816966743599565,-0.08057080010624605,0.10634555978002432,0.014985302361879858,0.998006016480634,-0.032882633051381914,-0.05376442620430279,0.003479940658499826
2754.6833333407976,0.04091593,-0.8408593,-0.069901526,-2.4865925,-0.048895564,1.5369917,0.7162687,0.039999537,0.039999403,-0.028043318077308754,0.000501234387158267,-0.02276338315903015,-0.0815254459584401,0.10739835034355041,0.015382097399858984,0.9979254066455192,-0.033588965631400035,-0.05480550441965397,0.0036084407290605113
2754.7000000074645,0.041698784,-0.8419439,-0.071245775,-2.489096,-0.04983708,1.5363388,0.7149286,0.039999522,0.03999939,-0.025642603760567262,0.00020317353905535684,-0.021895076406530656,-0.0824789966633277,0.10843647279318352,0.015783415367754856,0.9978424239641798,-0.03430355197061695,-0.05585493646111543,0.003740231599002955
2754.7166666741314,0.04248792,-0.8430372,-0.072600804,-2.491619,-0.050786152,1.5356808,0.7135778,0.039999507,0.039999373,-0.02573305706561335,-7.894919238360387e-05,-0.021697354753280607,-0.08343110159250273,0.10946337898332538,0.016189328225449967,0.9977570247598667,-0.035026381264846536,-0.05691268585738285,0.0038753511230838157
2754.7333333407983,0.043283254,-0.84413904,-0.07396649,-2.4941628,-0.051742677,1.5350175,0.7122164,0.03999949,0.039999355,-0.026950543359194334,-0.00046571595303940283,-0.022246680026349885,-0.08438182934789998,0.11048038495215334,0.016599848252589755,0.9976691363523367,-0.03575747094026885,-0.057979190476118,0.004013865178648315
2754.750000007465,0.04408471,-0.8452495,-0.075342655,-2.4967253,-0.052706562,1.5343491,0.7108444,0.03999947,0.039999336,-0.02416820528785557,-0.0006600882081056469,-0.02122598420488675,-0.08533004904802807,0.11148066340199003,0.01701443476098028,0.997578763584317,-0.036496823151651155,-0.059053551701668296,0.004155764290837716
2754.766666674132,0.044892203,-0.8463683,-0.07672916,-2.4993079,-0.053677693,1.5336757,0.7094621,0.039999444,0.039999314,-0.026218252916909712,-0.0011109815626089703,-0.02182624738704675,-0.08627602977974252,0.1124710575656592,0.017433518377598177,0.9974858241864137,-0.03724441188834249,-0.06013638471862212,0.004301111858125731
2754.783333340799,0.04570563,-0.8474954,-0.07812588,-2.5019085,-0.054655984,1.5329973,0.7080697,0.039999418,0.039999288,-0.023255072469696714,-0.0012130141363489444,-0.02068125055390002,-0.08721944366376497,0.11344661600059952,0.017855744597001753,0.9973903266588418,-0.038000145763431546,-0.06122682074751127,0.004449902299936634
2754.8000000074658,0.046524916,-0.8486304,-0.07953266,-2.5045288,-0.055641327,1.5323141,0.70666724,0.039999396,0.039999265,-0.02571601856560246,-0.0016867049112537225,-0.021315151204870375,-0.08816060603677046,0.1144108536314295,0.018282716501553907,0.9972921794118181,-0.038764066364776924,-0.062325562976540676,0.004602199751258018
2754.8166666741326,0.047349975,-0.8497736,-0.080949344,-2.5071669,-0.056633595,1.5316259,0.7052548,0.039999377,0.03999925,-0.022903590138456664,-0.0018787074591394837,-0.02059874127648964,-0.08909866858566012,0.11535966009306993,0.01871274920150405,0.9971913825391534,-0.03953619618045868,-0.06343182975038418,0.004758020150281422
2754.8333333407995,0.048180714,-0.85092455,-0.08237577,-2.5098233,-0.05763269,1.530933,0.70383275,0.039999355,0.039999224,-0.02384244934623414,-0.0022499842877082843,-0.020548966928246593,-0.0900331962770876,0.1162963015619033,0.019147897800696215,0.9970878820258553,-0.04031639852114807,-0.06454581973778539,0.004917385672826703
2754.8500000074664,0.049017046,-0.85208344,-0.083811805,-2.5124974,-0.05863851,1.5302356,0.7024013,0.03999934,0.039999213,-0.022502520218581346,-0.0024782114984758796,-0.020118676150437942,-0.09096487036372855,0.11721724909866317,0.019585814162549287,0.9969816645209759,-0.041104620589343936,-0.06566704823653319,0.005080310137297537
2754.8666666741333,0.04985889,-0.8532499,-0.085257255,-2.5151896,-0.059650935,1.5295339,0.7009605,0.039999325,0.0399992,-0.023542941951548713,-0.002908084230898722,-0.020235442177485297,-0.09189413238165489,0.11812619211977123,0.020026478890390748,0.996872659499689,-0.04190088978915475,-0.06679586055084916,0.0052468266757939785
2754.8833333408,0.050706103,-0.8544239,-0.08671199,-2.5178988,-0.06066986,1.5288271,0.69951046,0.039999302,0.039999176,-0.02175618460247275,-0.003028168035111578,-0.020008236586743777,-0.09281960124224099,0.1190192805386544,0.02047119462494819,0.996760838412432,-0.042705195388470674,-0.06793197906327139,0.0054169654535995235
2754.900000007467,0.05155863,-0.8556052,-0.08817581,-2.5206249,-0.061695162,1.5281162,0.69805115,0.039999284,0.03999916,-0.02167232269725261,-0.003427045140219631,-0.019243721968131844,-0.09374127373668537,0.11989763868564476,0.020918174374886078,0.9966461791574257,-0.043517592758335485,-0.0690750057819321,0.005590730511314425
2754.916666674134,0.05241638,-0.8567938,-0.08964858,-2.5233674,-0.06272675,1.5274009,0.6965825,0.039999273,0.03999915,-0.020958623244715646,-0.0036633401684013633,-0.019369610626629452,-0.09465783925716989,0.12076262012317149,0.021368712963776668,0.9965286314821968,-0.04433818159321807,-0.07022492932265978,0.005768153158026971
2754.933333340801,0.05327924,-0.8579894,-0.09113011,-2.526127,-0.06376448,1.5266812,0.6951057,0.039999258,0.039999135,-0.022399527053784674,-0.0040980272369414705,-0.01953104660441518,-0.09556797154398855,0.12161373183649077,0.021821930427973854,0.9964081407311899,-0.04516644085566582,-0.07138218456538617,0.005949237910710701
2754.9500000074677,0.054147135,-0.8591918,-0.09262026,-2.5289028,-0.06480826,1.5259575,0.69361967,0.039999243,0.03999912,-0.020436922777489208,-0.004260417836408903,-0.01863386003517764,-0.09647586976170347,0.12244432560335822,0.02227809886623483,0.9962846854877812,-0.046002894465658126,-0.07254607424213212,0.006134026031043653
2754.9666666741346,0.05501994,-0.8604012,-0.09411888,-2.531694,-0.06585795,1.5252298,0.6921257,0.039999217,0.039999094,-0.019426858552629156,-0.004493263427617078,-0.018349545305418324,-0.09737592426039589,0.12326100552792879,0.022736356486629618,0.9961582748955478,-0.046846972310686644,-0.07371620279750123,0.006322498522406087
2754.9833333408014,0.055897556,-0.8616173,-0.09562576,-2.5345004,-0.06691343,1.5244983,0.6906235,0.0399992,0.03999908,-0.01930008853054943,-0.0048110536615200705,-0.01802633359382355,-0.09827363937094094,0.12406347161655885,0.023196240542138848,0.996028858573821,-0.04769881517297798,-0.07489255652743844,0.006514667758990376
2755.0000000074683,0.056779902,-0.86283976,-0.097140715,-2.5373218,-0.06797456,1.5237627,0.68911326,0.039999183,0.039999064,-0.01926611207789808,-0.0051617028851771996,-0.018078528295384366,-0.09916591800867239,0.12485294418088821,0.02365903024886732,0.9958963726117083,-0.048558449791716356,-0.07607535870576748,0.006710571544642187
2755.016666674135,0.057666887,-0.8640688,-0.09866362,-2.5401583,-0.06904125,1.5230232,0.68759495,0.039999165,0.03999905,-0.018863264496005172,-0.005398187896688,-0.017940081577694222,-0.10005269206537054,0.1256240778403521,0.024123080447196805,0.9957607960224552,-0.04942588993210567,-0.07726426946966937,0.006910222316539788
2755.033333340802,0.05855838,-0.86530405,-0.10019424,-2.5430093,-0.070113376,1.5222801,0.6860689,0.039999146,0.03999903,-0.018398696837862438,-0.0056924275312952854,-0.017449002819636128,-0.10093255427655987,0.12637900347350625,0.024589299089500374,0.9956220969113332,-0.0503010231373361,-0.07845918634206374,0.007113599072083971
2755.050000007469,0.059454277,-0.8665455,-0.10173243,-2.545875,-0.07119078,1.5215333,0.6845353,0.039999127,0.039999012,-0.018722375815882764,-0.00601522884807193,-0.017645115731346195,-0.10180623394526143,0.1271178146779354,0.02505720113483221,0.9954802248860636,-0.051183776353937456,-0.07966021265082698,0.007320752650326489
2755.066666674136,0.06035449,-0.8677929,-0.10327804,-2.5487537,-0.07227339,1.5207826,0.68299425,0.039999127,0.039999016,-0.015860752043539428,-0.006045142177772689,-0.016478691947985347,-0.10267356150773849,0.12783661395179519,0.025525559009832333,0.9953351987512551,-0.05207413070962431,-0.08086656532617066,0.007531643245993304
2755.0833333408027,0.06125891,-0.86904603,-0.104830846,-2.551645,-0.07336104,1.5200281,0.68144596,0.039999112,0.039999,-0.01563603855452289,-0.006364942660280759,-0.016280236665378034,-0.10353389718898144,0.12854247254997425,0.02599578418556111,0.9951869817687401,-0.0529719813239645,-0.0820782295136308,0.007746273461914336
2755.1000000074696,0.062167436,-0.87030476,-0.10639067,-2.5545504,-0.07445362,1.5192702,0.6798908,0.039999094,0.039998982,-0.017890566522238416,-0.006846655059425388,-0.01692280736242946,-0.10438751128643349,0.12923280516660243,0.02646727143543296,0.9950354861375175,-0.05387724993644574,-0.08329578198164575,0.007964670139193808
2755.1166666741365,0.06307997,-0.8715692,-0.10795734,-2.557469,-0.075551,1.5185093,0.6783288,0.039999083,0.039998975,-0.01610800418729852,-0.007013175690159801,-0.01600517499873444,-0.10523459066963535,0.1299012352218824,0.02693863667557428,0.9948807324343556,-0.054789945280448824,-0.08451843616649718,0.008186823255403
2755.1333333408033,0.063996404,-0.8728391,-0.10953068,-2.5603988,-0.076653056,1.517745,0.6767601,0.03999907,0.039998963,-0.013732005846622819,-0.007083370575114434,-0.015138354614663285,-0.10607368253257306,0.13055382460479387,0.02741137194384778,0.9947227266045381,-0.055709988115197825,-0.08574567469140124,0.008412708978342863
2755.15000000747,0.06491659,-0.8741143,-0.11111048,-2.5633411,-0.07775967,1.5169773,0.6751849,0.03999906,0.039998956,-0.015308038006400793,-0.007462795771451258,-0.01585309491400899,-0.10690546369496064,0.13119423782236456,0.027883735285113752,0.9945613817949747,-0.05663728859601936,-0.08697807361258351,0.008642343039130706
2755.166666674137,0.06584047,-0.87539434,-0.11269656,-2.5662956,-0.07887066,1.516207,0.6736034,0.03999904,0.039998937,-0.01508463767776469,-0.007806726903750172,-0.014945257439813453,-0.10772906076349513,0.13181344103698975,0.028357260848075445,0.994396685037825,-0.05757184124778053,-0.08821528946620312,0.008875730140050579
2755.183333340804,0.066767894,-0.8766795,-0.11428875,-2.5692606,-0.07998591,1.5154334,0.67201596,0.039999034,0.039998934,-0.012322829358524245,-0.0077948045712164515,-0.014398799571857523,-0.10854431156444742,0.13241530402199952,0.028829760460380167,0.9942286644160894,-0.05851341866299964,-0.0894566865288872,0.009112843960041386
2755.200000007471,0.06769878,-0.8779694,-0.11588687,-2.5722377,-0.08110534,1.5146571,0.6704226,0.03999902,0.03999892,-0.015076032474414802,-0.008283443514674194,-0.01507021486222282,-0.10935183491142735,0.13300176168672664,0.029302993834344995,0.9940572091463487,-0.059462100125000215,-0.09070298702204853,0.00935370184337967
2755.2166666741377,0.06863297,-0.87926376,-0.11749068,-2.5752249,-0.082228765,1.5138781,0.6688236,0.03999901,0.03999891,-0.011874238539633097,-0.008292679060727115,-0.01358893392071625,-0.11015064612591952,0.1335663672918674,0.029775182659217456,0.9938823735142284,-0.06041770967113168,-0.09195325793850269,0.009598246210320703
2755.2333333408046,0.0695704,-0.88056284,-0.119100034,-2.5782218,-0.08335606,1.5130962,0.667219,0.03999901,0.03999891,-0.011242872608896448,-0.008525514642804266,-0.013608858691549486,-0.11094097765893732,0.13411644350836904,0.0302474188910549,0.9937041357928119,-0.06138025315924364,-0.09320730412037784,0.009846496279349524
2755.2500000074715,0.070510946,-0.8818662,-0.1207147,-2.5812304,-0.08448709,1.5123118,0.66560894,0.039998997,0.0399989,-0.014477263348733338,-0.0091022760147913,-0.01451991410645892,-0.11172197401244306,0.13465010775398695,0.03071893020050534,0.9935223642810446,-0.06234975331236761,-0.0944660817706856,0.010098481578157292
2755.2666666741384,0.071454495,-0.8831737,-0.12233452,-2.5842476,-0.08562173,1.5115249,0.66399384,0.039998993,0.0399989,-0.00968534595484627,-0.008868559002085663,-0.012409302349891682,-0.11249242025426283,0.1351591872165211,0.031188430777704834,0.9933371757513761,-0.063325927404243,-0.09572812919279512,0.010354104013374216
2755.2833333408053,0.07240094,-0.88448524,-0.12395927,-2.5872731,-0.08675987,1.5107354,0.6623737,0.039998982,0.03999889,-0.009312493408208944,-0.00908459820005425,-0.012338757086660657,-0.11325372417397664,0.1356530184789006,0.03165759565057311,0.9931485383209195,-0.06430877216774125,-0.09699339979823562,0.01061334296432326
2755.300000007472,0.07335016,-0.8858006,-0.12558877,-2.5903075,-0.087901324,1.5099438,0.6607489,0.03999898,0.039998885,-0.010098769570188182,-0.009444323583272796,-0.01214613536089093,-0.11400494576961193,0.13613274414500276,0.03212536688134786,0.9929564182538383,-0.06529817735548432,-0.0982619328937285,0.010876213796581507
2755.316666674139,0.07430205,-0.8871196,-0.12722284,-2.5933506,-0.08904598,1.5091501,0.65911955,0.039998975,0.039998885,-0.01020061725587329,-0.009672099174086457,-0.012214604223870218,-0.11474654081033853,0.13659535298037342,0.03259075593840701,0.9927607696596183,-0.06629408190746273,-0.09953385933975917,0.011142700472591752
2755.333333340806,0.07525652,-0.8884421,-0.12886128,-2.5964034,-0.09019369,1.5083544,0.65748584,0.03999896,0.03999887,-0.01132567969948095,-0.010059584346347461,-0.012604043225417083,-0.11547760949708274,0.13703843595862247,0.03305521598241355,0.9925615221281943,-0.06729646425927747,-0.10080951388240526,0.011412826098524669
2755.3500000074728,0.0762134,-0.88976806,-0.13050383,-2.5994642,-0.091344275,1.5075566,0.6558479,0.03999895,0.039998863,-0.009068234834441746,-0.010102363346764509,-0.011725591925015877,-0.1161972076008967,0.13745575547952066,0.03351674125132196,0.9923587105154317,-0.06830521332836956,-0.10208825752619259,0.011686538049450775
2755.3666666741397,0.07717261,-0.8910971,-0.13215035,-2.602531,-0.092497654,1.5067567,0.65420604,0.03999894,0.039998855,-0.005940202731302691,-0.009947485723600658,-0.010066908831340982,-0.11690525265462347,0.1378530602992168,0.033976633312048525,0.9921524144809863,-0.0693201110767871,-0.10336913294075878,0.011963736662374977
2755.3833333408065,0.07813402,-0.8924294,-0.13380063,-2.6056035,-0.09365367,1.5059551,0.65256053,0.039998934,0.03999885,-0.0053389983562190935,-0.010138574246842946,-0.009649183788185134,-0.11760279892437153,0.13823756102964738,0.034433262522041805,0.9919426516032933,-0.07034101497871276,-0.1046517676383749,0.012244389415391
2755.4000000074734,0.079097494,-0.89376444,-0.13545448,-2.6086826,-0.09481215,1.5051519,0.6509114,0.039998937,0.039998855,-0.007162892418599576,-0.010511560899868766,-0.010211916779490071,-0.1182899832328691,0.1386112207813606,0.03488799470746547,0.9917293149260363,-0.07136795803073426,-0.105936848651065,0.012528550624044083
2755.4166666741403,0.080062926,-0.89510226,-0.13711171,-2.6117687,-0.09597299,1.5043466,0.6492589,0.039998934,0.039998855,-0.00745615936512678,-0.01074292508609076,-0.010691074869595418,-0.1189650866893662,0.13896385632000477,0.03533897118386765,0.9915123523224982,-0.07240082974367551,-0.10722462488043288,0.01281619536305427
2755.433333340807,0.08103021,-0.8964427,-0.13877207,-2.6148622,-0.097136065,1.50354,0.64760333,0.039998926,0.039998848,-0.00814835465581254,-0.011099228487224111,-0.010431402913158028,-0.11962848538258146,0.13929452283294896,0.0357877463226359,0.991291739870071,-0.07343956972307279,-0.10851504681835891,0.0131072757759461
2755.450000007474,0.08199924,-0.89778554,-0.1404354,-2.6179624,-0.09830119,1.502732,0.6459448,0.03999892,0.039998844,-0.007176816273668507,-0.011202396957078753,-0.009988789655812624,-0.12027892820224309,0.13959976168540958,0.036232614298746,0.9910674717132716,-0.07448408947979389,-0.10980791819691402,0.01340179195069476
2755.466666674141,0.0829699,-0.8991305,-0.14210144,-2.6210642,-0.09946827,1.5019226,0.6442835,0.039998908,0.039998837,0.0004547479812710975,-0.010528080897576064,-0.0063791513356670215,-0.12091601892498305,0.13988040944548488,0.036673468464740545,0.990839808765964,-0.07553405301123692,-0.11110087225676787,0.013699503060649387
2755.483333340808,0.083942056,-0.90047765,-0.14377005,-2.6241727,-0.10063712,1.501112,0.64261955,0.0399989,0.03999883,-0.007187412055920106,-0.011585555914141177,-0.009759995083125084,-0.12154176321554439,0.14015680453505674,0.03711192849651373,0.9906084478849003,-0.07658963100660705,-0.11239623860969927,0.014000605263062068
2755.5000000074747,0.08491559,-0.90182656,-0.14544101,-2.6272852,-0.10180763,1.5003003,0.64095336,0.03999889,0.039998822,-0.0033309185999419455,-0.01132375870541713,-0.007723398189996011,-0.12215360109245549,0.1404056530694049,0.037545387373437045,0.990373517974094,-0.07765052922107997,-0.11369282618316595,0.01430494606027561
2755.5166666741416,0.08589039,-0.9031773,-0.14711416,-2.6304014,-0.10297961,1.4994875,0.63928497,0.039998885,0.03999882,-0.0024752556010865234,-0.011416757110493947,-0.007398070814956803,-0.1227525588380057,0.14063764251254154,0.03797549578836634,0.9901350295716895,-0.07871668499335097,-0.11499034950402211,0.014612537071636912
2755.5333333408084,0.086866304,-0.9045297,-0.14878914,-2.6335223,-0.104152955,1.4986738,0.63761467,0.03999888,0.03999882,-0.004389612198529846,-0.0118717779509378,-0.008112584134767342,-0.12333825005094692,0.1408518289567943,0.03840032393376014,0.9898928881459215,-0.07978804206088476,-0.11628943865697569,0.014923297191378195
2755.5500000074753,0.08784325,-0.9058834,-0.15046585,-2.636646,-0.105327524,1.4978591,0.63594264,0.039998874,0.039998814,-0.0016345721130628377,-0.011665215995347589,-0.006678497839851527,-0.12390920523559083,0.14104092571939564,0.038820851237632056,0.9896471780946146,-0.08086440330393665,-0.11758928368397584,0.01523717593106206
2755.566666674142,0.08882108,-0.9072383,-0.15214407,-2.639771,-0.10650316,1.4970437,0.6342691,0.03999887,0.03999881,0.0009851516976189245,-0.01152268213123614,-0.005256653239293918,-0.12446654504578494,0.1412124271231061,0.03923733696141376,0.9893980049512491,-0.08194555750177668,-0.1188889566973815,0.015554079195481567
2755.583333340809,0.0897997,-0.90859437,-0.15382366,-2.6429007,-0.107679695,1.496228,0.6325942,0.039998867,0.03999881,-0.004473354240230876,-0.012357723302471035,-0.007561698783531412,-0.1250108728090373,0.1413716857659763,0.039648464485113326,0.9891451394928784,-0.0830316202596513,-0.12019007943410687,0.015874125496993276
2755.600000007476,0.09077901,-0.90995127,-0.15550429,-2.6460311,-0.10885701,1.4954114,0.6309182,0.039998874,0.03999882,0.001523574999162669,-0.011824696244529254,-0.004908798759373223,-0.1255389355810508,0.1415020664359426,0.04005459473222561,0.9888887825488287,-0.08412229568860514,-0.12149102600427905,0.016197089788042584
2755.616666674143,0.09175885,-0.9113091,-0.15718587,-2.6491632,-0.11003498,1.4945943,0.62924135,0.039998878,0.039998826,0.00026680452727134707,-0.012047775002407834,-0.005346883650336753,-0.1260529035152326,0.14161720585742865,0.04045486180243115,0.9886288992160228,-0.08521743830297428,-0.12279201210966732,0.016523002331687565
2755.6333333408097,0.0927391,-0.9126675,-0.15886812,-2.6522965,-0.11121345,1.4937772,0.6275637,0.03999888,0.03999883,0.0007887514533511109,-0.01215576861263723,-0.004622362424122617,-0.12655260762905712,0.14171568472303653,0.04085031560583814,0.9883655027151251,-0.08631699777156839,-0.12409281492746843,0.01685177206581752
2755.6500000074766,0.09371966,-0.91402614,-0.16055092,-2.6554317,-0.112392254,1.4929597,0.6258856,0.03999888,0.039998833,-0.00048745419740647833,-0.012432394654710022,-0.005197001375345511,-0.12703650517546272,0.14179441575355,0.04123940113688258,0.9880985158638498,-0.08742084122016522,-0.12539397443349143,0.017183440976387084
2755.6666666741435,0.094700396,-0.9153852,-0.162234,-2.6585684,-0.113571264,1.4921421,0.6242073,0.039998885,0.039998837,0.00047852695066463724,-0.012489061385942413,-0.004873124522608574,-0.12750485391060348,0.14184884317108606,0.041622975088635245,0.9878279775914978,-0.08852879874846313,-0.1266951517534114,0.01751790517800432
2755.6833333408103,0.095681205,-0.91674423,-0.1639171,-2.661705,-0.114750326,1.4913243,0.6225288,0.03999888,0.039998837,0.0024167537083563673,-0.012392617188888844,-0.0036272450170460324,-0.12795778964464977,0.14187926162694625,0.04200008841876994,0.9875539485087024,-0.08964082328497248,-0.12799577299927659,0.017855074348241056
2755.7000000074772,0.096661925,-0.9181031,-0.16560009,-2.6648414,-0.115929306,1.4905065,0.6208505,0.03999889,0.039998844,0.0027164485449038267,-0.012383087140588334,-0.003323357078233169,-0.12839372538853233,0.14189147028058371,0.042371564079143324,0.9872764535466817,-0.09075660985439649,-0.12929573626442786,0.018194906536259988
2755.716666674144,0.09764248,-0.9194618,-0.16728278,-2.6679761,-0.117108025,1.4896891,0.6191724,0.039998896,0.039998855,0.004997313815557902,-0.012277964139334463,-0.0019395442730885115,-0.1288144148819881,0.1418824089830812,0.0427357303802377,0.9869956012679922,-0.09187611436995269,-0.13059414365769276,0.018537322574408703
2755.733333340811,0.098622754,-0.92082006,-0.16896483,-2.6711087,-0.11828639,1.4888719,0.6174949,0.039998904,0.039998867,0.00559896871306087,-0.012312715657922246,-0.0016082176220733047,-0.12921865351607753,0.14186042431154786,0.04309268881702031,0.9867114129227068,-0.0929991090636897,-0.13189092733236965,0.01888217701545956
2755.750000007478,0.09960258,-0.9221778,-0.17064613,-2.6742396,-0.11946424,1.4880551,0.61581814,0.039998904,0.039998867,0.004857374564970485,-0.012457373653479431,-0.001846994227761023,-0.1296071764634723,0.14182358031597106,0.04344403136386704,0.9864238597645827,-0.09412547012142794,-0.1331863037573424,0.019229489151306102
2755.7666666741447,0.10058188,-0.92353463,-0.17232653,-2.6773698,-0.12064141,1.4872385,0.61414236,0.03999891,0.039998878,0.0031931542737950735,-0.012759038880827411,-0.0026060366415836533,-0.12997923717339108,0.14176844531633415,0.04378772153004899,0.9861328416879994,-0.09525513801276256,-0.1344809596913956,0.019579292811588614
2755.7833333408116,0.10156052,-0.9248907,-0.17400575,-2.6804981,-0.12181777,1.4864229,0.61246765,0.039998915,0.03999888,0.005248135088709027,-0.012657223854017907,-0.0011240946384716288,-0.13033404222603742,0.14168883602110538,0.04412480645370993,0.9858384994089968,-0.09638798583082092,-0.1357738831596707,0.019931430511610053
2755.8000000074785,0.10253836,-0.9262456,-0.17568359,-2.6836238,-0.12299317,1.4856077,0.61079437,0.03999893,0.0399989,0.0060627555507952735,-0.01255901794893488,-0.0008950460270940042,-0.13067089795210562,0.14158958942652636,0.04445441460499269,0.9855408440695416,-0.09752374679053774,-0.13706512303727159,0.02028584554334005
2755.8166666741454,0.10351532,-0.9275994,-0.17735983,-2.6867456,-0.124167465,1.4847933,0.6091225,0.039998937,0.039998908,0.007901098814011576,-0.012433197590502876,0.0002487274526341565,-0.1309911416194049,0.14147118019333899,0.04477560726001515,0.9852399732790165,-0.09866234174645624,-0.13835399134995435,0.020642442970858516
2755.8333333408123,0.104491256,-0.9289517,-0.17903434,-2.6898654,-0.1253405,1.4839796,0.6074526,0.03999895,0.039998922,0.005280040467448011,-0.012828337900300246,-0.0009988213381384448,-0.13129360950450944,0.14133706105355165,0.04508995725705819,0.9849357690474037,-0.099803581782798,-0.139641410486141,0.021001247385933366
2755.850000007479,0.10546607,-0.9303023,-0.18070678,-2.6929803,-0.12651217,1.4831667,0.6057846,0.039998952,0.03999893,0.00911874364537546,-0.012396510331522115,0.0011911145863630068,-0.13157831405085774,0.14117728067884994,0.04539544186400784,0.9846284230528379,-0.10094728040338315,-0.14092614348812757,0.021362049929864024
2755.866666674146,0.1064396,-0.9316513,-0.18237703,-2.6960921,-0.12768224,1.4823552,0.60411876,0.039998956,0.039998934,0.006743067915437884,-0.012831628235529524,0.00038035740027586584,-0.13184538560319184,0.1410027090448235,0.04569420074293078,0.9843178633047507,-0.10209338574224912,-0.14220869460215868,0.02172491073409699
2755.883333340813,0.10741175,-0.9329983,-0.18404494,-2.6991985,-0.1288507,1.4815447,0.60245526,0.03999896,0.039998937,0.01007615353394442,-0.012233593986532565,0.0019195407691352528,-0.1320940207484198,0.1408070326456261,0.04598411761951236,0.9840042326668883,-0.10324161900623541,-0.14348827354624408,0.022089670738557162
2755.90000000748,0.10838241,-0.93434316,-0.18571027,-2.7023022,-0.13001737,1.4807357,0.6007945,0.039998963,0.039998945,0.005807721825257239,-0.013008069028555558,9.790692676592272e-05,-0.1323249182469635,0.14059484638166495,0.046265185386281854,0.9836873526007152,-0.10439193170776749,-0.14476611881062207,0.022456352602903604
2755.9166666741467,0.10935146,-0.9356858,-0.18737274,-2.7053988,-0.13118204,1.4799279,0.5991364,0.03999897,0.039998956,0.012557397688484073,-0.012118743909284024,0.0036015457930971273,-0.13253658891637465,0.1403541916192657,0.04653791366479485,0.9833675699538696,-0.10554404429164407,-0.14604009046953026,0.02282474650978476
2755.9333333408135,0.11031878,-0.9370261,-0.18903221,-2.7084894,-0.13234457,1.4791216,0.59748137,0.039998975,0.03999896,0.010713461126443669,-0.012407410043929756,0.0028045613415628168,-0.13273042832064272,0.1401030351266779,0.04680184409793271,0.9830448157912741,-0.10669779823487338,-0.14731078984614615,0.023194852718535417
2755.9500000074804,0.11128424,-0.9383638,-0.19068846,-2.7115772,-0.1335049,1.4783167,0.5958295,0.039998982,0.03999897,0.006061224615416805,-0.013100095029974779,0.0003783869977347365,-0.1329058137698302,0.13983465854265634,0.047057779692044104,0.9827188400654336,-0.10785329151055341,-0.14857980680543154,0.02356671170207969
2755.9666666741473,0.11224775,-0.9396989,-0.1923413,-2.7146573,-0.13466284,1.4775136,0.594181,0.03999899,0.03999898,0.01316208476669356,-0.012090972883604945,0.004490162693060462,-0.13306029695011184,0.13953232958934514,0.04730413794064269,0.9823900731907471,-0.10901007123944981,-0.14984465838427044,0.023940067216906686
2755.983333340814,0.113209166,-0.9410308,-0.19399054,-2.7177298,-0.13581821,1.4767122,0.59253615,0.039999004,0.039998997,0.012812552434016133,-0.012118129272167821,0.004573222448034375,-0.1331959881363797,0.13921879779321095,0.04754211403098793,0.9820585053147007,-0.11016794627357795,-0.15110559862244766,0.02431488881055286
2756.000000007481,0.11416837,-0.94235986,-0.195636,-2.7207947,-0.13697097,1.4759128,0.59089506,0.039999012,0.039999004,0.013090748252198026,-0.012068766950637522,0.004674012804894989,-0.1333138924890369,0.1388886888327187,0.04776991247306625,0.981724189682559,-0.11132681830634436,-0.15236241445424895,0.02469108299732555
2756.016666674148,0.11512524,-0.9436858,-0.19727744,-2.7238517,-0.13812086,1.4751154,0.58925796,0.039999027,0.039999023,0.013333846979146635,-0.012126904785883519,0.005017554970210281,-0.133412544844851,0.13854391724500478,0.0479891614046974,0.9813871667810015,-0.11248650782899487,-0.1536150366402665,0.02506860490744997
2756.033333340815,0.11607969,-0.9450083,-0.19891465,-2.726901,-0.13926785,1.4743198,0.58762497,0.03999904,0.039999038,0.01271485365754721,-0.012145408314043205,0.004704894710627627,-0.1334922146140141,0.13818350325011647,0.04819776489603651,0.9810473887153119,-0.11364693250889146,-0.15486389919069196,0.025447368304843093
2756.0500000074817,0.1170316,-0.94632727,-0.20054744,-2.7299428,-0.14041172,1.4735266,0.58599645,0.039999045,0.039999045,0.012854460264422052,-0.012207247369594443,0.0052029806781983545,-0.13355119691361855,0.1378010821570542,0.04839796708131646,0.9807049441073221,-0.11480786263820962,-0.1561086697163259,0.02582732117931032
2756.0666666741486,0.117980845,-0.94764256,-0.20217563,-2.732976,-0.14155237,1.4727353,0.5843725,0.03999906,0.03999906,0.014095613828146725,-0.0119424496549142,0.005641588150839816,-0.1335907124589509,0.13739896820763867,0.04858774329790352,0.9803598854180612,-0.11596911785500552,-0.15734922948971727,0.026208371677962267
2756.0833333408154,0.11892729,-0.9489538,-0.20379902,-2.7360013,-0.14268968,1.4719466,0.58275324,0.039999068,0.03999907,0.012894330093460304,-0.012109709368293697,0.005684503024094845,-0.13361016837282563,0.13697815316380066,0.04876855822843662,0.980012204643616,-0.1171306456132367,-0.158585741030171,0.02659047479262745
2756.1000000074823,0.11987087,-0.9502611,-0.20541744,-2.7390177,-0.14382349,1.47116,0.5811391,0.03999908,0.039999083,0.014389842695217148,-0.011885889766891089,0.006101380963263736,-0.13360867886925804,0.13653383129155494,0.04893873291903697,0.979662002132363,-0.11829211625491869,-0.1598179140755749,0.026973526845317244
2756.116666674149,0.12081144,-0.9515642,-0.20703061,-2.7420223,-0.14495365,1.4703763,0.5795303,0.039999083,0.03999909,0.018780906173243572,-0.01116278860431863,0.009189482751448264,-0.13358678651240616,0.13606791441433763,0.04909949911228039,0.9793096170433848,-0.11945314340743772,-0.16104409252709512,0.027357279808955578
2756.133333340816,0.121748894,-0.9528629,-0.20863838,-2.7450166,-0.14608005,1.4695953,0.57792675,0.039999098,0.039999105,0.0163019115674512,-0.011526065434011579,0.007959525814249524,-0.13354762777741888,0.1355962215742058,0.049249778397403354,0.9789549230433778,-0.12061383385245932,-0.16226507787295577,0.0277417777986402
2756.150000007483,0.12268307,-0.95415723,-0.2102406,-2.7480023,-0.14720252,1.4688166,0.5763287,0.039999116,0.039999127,0.013844471913082579,-0.011866760832904277,0.006121229008970719,-0.13348771323440584,0.1351082051277228,0.049390743554429815,0.9785977593554882,-0.12177409397923432,-0.16348199516375542,0.02812708085160061
2756.16666667415,0.12361394,-0.9554469,-0.21183702,-2.750976,-0.14832093,1.4680408,0.57473636,0.039999124,0.039999135,0.018598524080615242,-0.011117902594859341,0.009430353365902366,-0.13340609557871638,0.13459200499159227,0.04952040402999534,0.9782384943983742,-0.12293356380073485,-0.1646930482291236,0.028512923972334292
2756.1833333408167,0.124541335,-0.9567317,-0.21342753,-2.7539392,-0.14943513,1.4672679,0.5731499,0.039999135,0.039999146,0.016729455325648068,-0.011315072519846314,0.008477771036285997,-0.13330426656440042,0.13406409311365056,0.049640374297032275,0.9778770461232654,-0.1240921312395668,-0.1658989269538977,0.02889933676063384
2756.2000000074836,0.12546517,-0.95801145,-0.21501186,-2.7568905,-0.15054505,1.4664985,0.57156944,0.039999146,0.03999916,0.01810676463944727,-0.011070099772383934,0.009900225193348877,-0.13318200136590402,0.13351551056530647,0.04974882415884488,0.9775135854230987,-0.1252496642219016,-0.16709887468471135,0.029286140146533607
2756.2166666741505,0.12638544,-0.95928633,-0.21658984,-2.7598307,-0.15165056,1.4657311,0.56999546,0.039999165,0.03999918,0.017457939526410726,-0.011162020158136943,0.00829355476175131,-0.13303833171361742,0.13295411550056427,0.049847288106050144,0.9771480056139831,-0.1264059219802948,-0.16829382935639764,0.029673304728098635
2756.2333333408174,0.12730183,-0.96055585,-0.2181613,-2.762758,-0.15275149,1.4649674,0.56842804,0.03999918,0.0399992,0.019634165809589987,-0.010627890690331765,0.010977193654160278,-0.1328735859855326,0.13236833275942228,0.049935883054054525,0.9767806061514318,-0.12756058051693694,-0.1694824480001522,0.03006069800419182
2756.2500000074842,0.1282143,-0.96181995,-0.21972603,-2.7656739,-0.1538477,1.4642073,0.5668672,0.039999183,0.039999202,0.017578728721456827,-0.011017754993322693,0.009916553729272248,-0.13268990562583205,0.1317695342318974,0.05001308068030488,0.9764112884529472,-0.12871371587141583,-0.17066538995236843,0.030448313592609827
2756.266666674151,0.12912281,-0.96307844,-0.22128387,-2.7685764,-0.15493912,1.4634497,0.5653133,0.03999919,0.039999213,0.020160945997660384,-0.010413590296376452,0.010615496473054264,-0.13248354119008846,0.13115150694456812,0.05008004750315378,0.9760401753216693,-0.12986493849314582,-0.1718424124491249,0.030836004797661336
2756.283333340818,0.13002719,-0.96433127,-0.22283466,-2.7714653,-0.15602554,1.462696,0.5637663,0.039999206,0.039999228,0.02054005108118595,-0.010346257401341874,0.01191048890913926,-0.1322575558903247,0.13051437464310628,0.050136824614437664,0.9756674370680474,-0.1310141617517695,-0.17301277807717946,0.03122371354540858
2756.300000007485,0.13092738,-0.96557826,-0.2243782,-2.7743409,-0.15710692,1.461946,0.5622267,0.039999224,0.03999925,0.020101022930552048,-0.010340905234831888,0.011763239050932572,-0.13201070257467323,0.12986443877992165,0.05018145562962329,0.9752931038930569,-0.13216112886894796,-0.17417669907494865,0.031611311489515626
2756.3166666741517,0.13182324,-0.9668194,-0.22591422,-2.7772036,-0.15818305,1.4611999,0.5606945,0.039999235,0.03999926,0.019457884578977236,-0.01045705037261424,0.011390298098512552,-0.13174304562393419,0.12919806587609053,0.05021624943480685,0.9749171709962082,-0.1333057988641652,-0.1753344004174202,0.031998776792253304
2756.3333333408186,0.13271466,-0.96805435,-0.22744267,-2.7800517,-0.15925387,1.4604576,0.5591696,0.039999254,0.03999928,0.021595233242033274,-0.009868300666027174,0.012858826439843263,-0.1314538350439759,0.12851294323163745,0.050240028266652,0.9745398069917609,-0.13444800836778978,-0.1764852508186811,0.032386013614884274
2756.3500000074855,0.1336016,-0.969283,-0.22896332,-2.7828848,-0.16031922,1.459719,0.5576525,0.039999265,0.039999295,0.022209059745859072,-0.00973619242030932,0.013228578088941845,-0.13114304537379173,0.1278127135245366,0.0502517927168462,0.9741611125008764,-0.13558742821795505,-0.17762914662570978,0.03277289229405677
2756.3666666741524,0.13448384,-0.9705052,-0.230476,-2.785703,-0.16137902,1.458984,0.55614316,0.03999928,0.03999931,0.02214007400913598,-0.009547682219110398,0.013256427523100633,-0.13081148118730324,0.12709826307618277,0.05025337046148186,0.9737811316096469,-0.13672391591203295,-0.17876614493994983,0.03315937215967471
2756.3833333408193,0.13536137,-0.9717208,-0.23198053,-2.7885063,-0.16243307,1.458253,0.55464274,0.0399993,0.039999332,0.021752380146722317,-0.009681280997900221,0.013298487074142606,-0.1304590287869229,0.1263684084009961,0.050243169135320315,0.9733999629378457,-0.13785694724542374,-0.17989631935026185,0.03354532058278659
2756.400000007486,0.13623406,-0.9729298,-0.23347673,-2.791294,-0.1634813,1.457526,0.55315036,0.03999932,0.039999355,0.0226947498112251,-0.00934536699451205,0.01395610050205498,-0.1300885885942875,0.12561999352610126,0.05022382774941732,0.9730176605171507,-0.13898678282343158,-0.1810193726868662,0.03393071225566479
2756.416666674153,0.13710187,-0.97413194,-0.23496443,-2.7940664,-0.16452359,1.456803,0.55166626,0.03999934,0.039999373,0.022627356081028616,-0.00929831229145306,0.01410371342543959,-0.1296960305805992,0.1248555161044384,0.05019309673450791,0.9726342839588549,-0.14011326407352373,-0.18213531232895322,0.03431546154932442
2756.43333334082,0.13796462,-0.9753271,-0.23644347,-2.7968228,-0.1655598,1.4560841,0.55019087,0.03999936,0.039999392,0.02315493029794169,-0.009043409362738397,0.014643033745642686,-0.12928137499786402,0.12407465676769576,0.05015138975993416,0.9722499564468223,-0.14123602359382847,-0.18324397373626092,0.034699480081121704
2756.450000007487,0.13882224,-0.97651505,-0.2379137,-2.7995615,-0.1665898,1.4553697,0.5487241,0.03999937,0.039999403,0.025432361198807207,-0.008539719835126691,0.016342863654672524,-0.12884643268629847,0.1232775760017755,0.05009854994894555,0.9718649063390501,-0.14235490231515047,-0.18434449852026166,0.0350826378533116
2756.4666666741537,0.13967468,-0.9776958,-0.23937498,-2.8022838,-0.16761358,1.4546595,0.5472666,0.039999384,0.03999942,0.023699994739323493,-0.008682247102689833,0.015158745789212169,-0.1283914696057295,0.12247029468059598,0.050033554975174976,0.9714790754145489,-0.1434696377028097,-0.18543762470658334,0.03546486193823564
2756.4833333408205,0.14052181,-0.9788691,-0.24082713,-2.8049893,-0.16863091,1.4539537,0.5458181,0.0399994,0.039999437,0.02386132505902694,-0.008626205038100854,0.015690075507834855,-0.1279162208102693,0.12164640255110606,0.04995912953374772,0.9710925311323247,-0.1445802350186482,-0.18652320287051113,0.03584614919197562
2756.5000000074874,0.14136353,-0.9800349,-0.24226992,-2.807678,-0.16964172,1.4532526,0.5443789,0.039999425,0.039999463,0.02424330302008837,-0.008448469766900168,0.01594636816253381,-0.1274196045848097,0.12080608195447452,0.049873296581503225,0.9707053779528572,-0.14568646648336397,-0.18760110114756423,0.03622636533263973
2756.5166666741543,0.14219971,-0.98119324,-0.2437032,-2.8103485,-0.17064588,1.452556,0.542949,0.039999444,0.03999948,0.025903755592127098,-0.007993747526238715,0.017134307068977783,-0.1269018098755353,0.11994914745634479,0.049776549806417394,0.9703178157749514,-0.14678811226203875,-0.18867069430943945,0.036605403932600866
2756.533333340821,0.14303029,-0.98234373,-0.24512687,-2.8130014,-0.17164333,1.451864,0.54152894,0.039999466,0.039999504,0.02495306413536902,-0.007981177321586541,0.016656049228447323,-0.12636400728409275,0.11908203188511887,0.04966859801461617,0.969929829407653,-0.147884924847324,-0.18973248939635565,0.036983205588539375
2756.550000007488,0.14385517,-0.9834863,-0.2465408,-2.815636,-0.17263387,1.4511769,0.5401185,0.03999949,0.039999526,0.025907665354441,-0.0077597373310422935,0.017616696129274523,-0.12580599180355506,0.11819724067318102,0.04955038583503449,0.9695415719109188,-0.14897682174336557,-0.19078599697114604,0.03735974142678123
2756.566666674155,0.14467427,-0.984621,-0.24794473,-2.8182518,-0.17361744,1.4504944,0.5387179,0.03999951,0.03999955,0.026278361676079776,-0.007571155300176158,0.017693137890295585,-0.1252275811287065,0.1172987071366663,0.04942075840916332,0.9691531208711346,-0.15006364230542016,-0.1918312036016523,0.03773487628855082
2756.583333340822,0.14548753,-0.9857474,-0.24933857,-2.8208492,-0.17459391,1.4498172,0.5373273,0.03999953,0.039999567,0.025998993463716147,-0.0074925231352468424,0.018206565542988606,-0.12462864657415916,0.11638780611908524,0.04928012210439942,0.9687645615993304,-0.1511452428588232,-0.1928680311760613,0.03810855941484066
2756.6000000074887,0.14629483,-0.9868655,-0.25072214,-2.8234267,-0.17556328,1.4491448,0.535947,0.039999552,0.03999959,0.027634740730553276,-0.00694335810781932,0.019031283095138907,-0.12400920909897205,0.11546334476757883,0.049128590544947205,0.9683760830265166,-0.1522212398690191,-0.19389610371146454,0.038480604471249666
2756.6166666741556,0.14709607,-0.9879753,-0.25209537,-2.8259857,-0.17652537,1.4484773,0.534577,0.039999567,0.039999604,0.025919028898946372,-0.007177458760707078,0.017899847446767314,-0.12337049454708482,0.11452731055219845,0.0489668421306191,0.9679875893136584,-0.1532916823724436,-0.1949160801748939,0.038851109886493304
2756.6333333408224,0.14789116,-0.9890767,-0.25345808,-2.828524,-0.17748004,1.4478151,0.53321767,0.039999586,0.03999962,0.028507925937493184,-0.00659358427369805,0.020141498362358234,-0.12271064159855673,0.11357420230437484,0.0487945908540607,0.9675994365573084,-0.15435614727385918,-0.19592680235832186,0.03921987111647488
2756.6500000074893,0.14868009,-0.99016935,-0.25481,-2.8310432,-0.17842723,1.447158,0.53186893,0.0399996,0.039999634,0.026678862743589882,-0.006849665356412071,0.018927750757635753,-0.12203317557435567,0.11261344453587431,0.04861105096965849,0.9672114917465539,-0.1554147225471155,-0.19692911512459463,0.03958683954615929
2756.666666674156,0.14946268,-0.9912533,-0.25615117,-2.8335426,-0.17936684,1.4465063,0.53053087,0.03999962,0.039999653,0.027284674892635863,-0.006504108972829603,0.019570102688482027,-0.1213350118765409,0.11163688140024397,0.048417452877198765,0.9668239065280468,-0.15646719304631523,-0.19792268042048192,0.0399520192384013
2756.683333340823,0.15023889,-0.9923285,-0.25748137,-2.836021,-0.18029876,1.4458597,0.52920383,0.039999634,0.039999668,0.028875230479075142,-0.006066270587631872,0.020508089223025827,-0.12061691168134209,0.11064569933411599,0.048212852653046485,0.9664368739456896,-0.15751323028314348,-0.1989070930336704,0.040315249034918885
2756.70000000749,0.15100868,-0.99339473,-0.2588004,-2.8384783,-0.18122287,1.4452183,0.5278879,0.039999653,0.039999686,0.028715716076188613,-0.006027190151020045,0.020654127703834124,-0.11988024150428529,0.10964532261393518,0.047997975156080314,0.9660504459154121,-0.15855276364322637,-0.19988242488130323,0.04067644664051612
2756.716666674157,0.15177187,-0.9944517,-0.2601082,-2.840915,-0.18213911,1.4445826,0.5265831,0.039999675,0.03999971,0.028195229084082563,-0.0058588164438933,0.020738236793726994,-0.11912495187884321,0.1086341477198361,0.047772740860078114,0.9656646881124947,-0.15958562678017096,-0.20084874191949678,0.04103560316522097
2756.7333333408237,0.15252848,-0.9954995,-0.26140466,-2.8433309,-0.18304741,1.4439522,0.5252897,0.0399997,0.03999973,0.028207073781105763,-0.005773794381253028,0.020606109238530124,-0.11834969229551712,0.10760821625759542,0.047538008959062,0.9652796620112837,-0.16061164799424207,-0.2018061513944782,0.041392630929969726
2756.7500000074906,0.15327844,-0.99653834,-0.2626896,-2.8457253,-0.18394767,1.4433277,0.52400786,0.039999716,0.039999746,0.029299381143865766,-0.005498458417299568,0.021710435422528374,-0.11755637637971897,0.10656911990240195,0.04729280510010869,0.964895589818765,-0.16163068976491862,-0.2027539771732908,0.04174740249197474
2756.7666666741575,0.15402165,-0.9975676,-0.26396295,-2.8480978,-0.18483979,1.4427085,0.5227374,0.03999974,0.039999764,0.02951226404277474,-0.005154716480409993,0.021757183872539443,-0.11674377665669365,0.10552103027192378,0.047037901768825795,0.9645124740955812,-0.16264263430890052,-0.20369255277538192,0.04209993780197859
2756.7833333408244,0.15475795,-0.99858725,-0.26522458,-2.8504488,-0.1857237,1.4420952,0.52147865,0.039999757,0.039999783,0.028832757588670432,-0.0051318910680248075,0.02174328302396722,-0.11591278188716102,0.10446097047103203,0.046772083455179136,0.9641304097246203,-0.16364724273984677,-0.20462189324207047,0.04245013302584768
2756.8000000074912,0.15548736,-0.9995975,-0.2664743,-2.8527777,-0.18659927,1.4414878,0.52023184,0.039999776,0.039999798,0.02987940512511056,-0.004930358544280589,0.02256550417762959,-0.11506377725416689,0.10338813528786274,0.04649657434747966,0.9637495824817393,-0.16464435027495788,-0.2055415283875453,0.04279790061349141
2756.816666674158,0.1562098,-1.0005982,-0.26771203,-2.855084,-0.18746647,1.4408865,0.5189969,0.03999981,0.039999835,0.030409973039113858,-0.004586801235878513,0.02314267566053685,-0.11419708471620782,0.10230677420502411,0.046210990913686065,0.9633701139573915,-0.16563385985090415,-0.2064512478561806,0.043143136919324455
2756.833333340825,0.15692523,-1.0015887,-0.26893765,-2.8573678,-0.18832517,1.4402909,0.5177741,0.03999983,0.03999986,0.029667763249285883,-0.004570895052108392,0.022630073721241484,-0.1133126114153967,0.10121637304753903,0.045914450106509956,0.9629919622709062,-0.16661555693400282,-0.2073516766757348,0.04348584791587936
2756.850000007492,0.15763354,-1.0025696,-0.2701511,-2.8596284,-0.1891753,1.4397013,0.51656353,0.039999854,0.039999884,0.030890230969737864,-0.004182666020086101,0.023560902678854134,-0.1124111992167562,0.1001140758798399,0.04560873953297975,0.9626153681893787,-0.16758926442348798,-0.20824211134183104,0.0438259562304976
2756.8666666741588,0.15833464,-1.0035406,-0.27135214,-2.8618667,-0.19001679,1.4391177,0.5153652,0.039999876,0.03999991,0.029838548825167344,-0.004279574554957866,0.022945032020083023,-0.11149362487077517,0.09900455041443657,0.0452923443679855,0.9622403017339183,-0.16855498176713318,-0.2091229672972807,0.04416338290122104
2756.8833333408256,0.15902849,-1.0045015,-0.27254087,-2.8640814,-0.19084957,1.43854,0.51417935,0.0399999,0.03999994,0.03108749934157551,-0.00374556795599279,0.024042567109994195,-0.11055777344263899,0.09788247320444499,0.044966866118018374,0.9618669527517401,-0.1695123397900913,-0.2099939286516578,0.04449810998697385
2756.9000000074925,0.159715,-1.0054523,-0.273717,-2.8662732,-0.19167353,1.4379683,0.5130059,0.039999913,0.03999997,0.03025124943205615,-0.0039001245134451246,0.023453361033765052,-0.10960764125253261,0.09675194065217545,0.04463008602220746,0.9614953144168686,-0.17046141976494114,-0.21085523231921538,0.044830076173672254
2756.9166666741594,0.16039419,-1.006393,-0.2748805,-2.868441,-0.19248864,1.4374028,0.5118452,0.039999932,0.04,0.03138948422767296,-0.003483396816045259,0.02467026499516356,-0.10864065194221563,0.0956086789556697,0.044282198424247375,0.9611256173112386,-0.17140194123062139,-0.2117063344469145,0.045159165686671096
2756.9333333408263,0.16106594,-1.0073234,-0.27603132,-2.870585,-0.19329482,1.4368436,0.5106971,0.039999947,0.04,0.03159163823780453,-0.0032267530390650556,0.024822598807727747,-0.10765827372734804,0.09445907346958624,0.04392533763356089,0.9607579408935946,-0.17233376769859043,-0.21254725196118585,0.04548535153713455
2756.950000007493,0.16173021,-1.0082433,-0.27716905,-2.8727047,-0.194092,1.4362906,0.5095619,0.039999966,0.04,0.031459540158129684,-0.0031894845656077475,0.024874417571507657,-0.10666206140712664,0.09330203809492899,0.04355529669924496,0.9603923322504043,-0.17325683048026827,-0.2133781261463303,0.04580845040864573
2756.96666667416,0.16238695,-1.0091525,-0.2782939,-2.8748007,-0.19488014,1.4357439,0.5084398,0.03999998,0.04,0.03089634899682281,-0.0030345050907543136,0.024741601209299358,-0.10565024908630499,0.09213660248009593,0.043177516926757926,0.9600288497853964,-0.17417086793051031,-0.2141991461947367,0.04612853903504018
2756.983333340827,0.16303612,-1.0100515,-0.2794058,-2.8768733,-0.19565913,1.4352034,0.50733054,0.03999998,0.04,0.03048112826562477,-0.0030979007930670432,0.0242847995150286,-0.10462155594642494,0.09096173099666488,0.04279635984766046,0.9596675137885291,-0.17507599482995967,-0.21501037208113197,0.04644565545642014
2757.000000007494,0.16367766,-1.0109398,-0.2805045,-2.8789203,-0.1964289,1.4346696,0.50623435,0.039999988,0.04,0.033105756317719504,-0.002365077525848247,0.026710746527702778,-0.10357511410646991,0.08977462334989772,0.04240827667236957,0.959308689257547,-0.1759718773488525,-0.2158107546625667,0.04675954735945632
2757.0166666741607,0.16431145,-1.0118176,-0.28159004,-2.880943,-0.19718936,1.4341419,0.50515133,0.039999988,0.04,0.0314517943293513,-0.0025059335872879007,0.025129439278159804,-0.10251160762280648,0.08858985230369415,0.04201917028637314,0.9589522480910572,-0.17685843269944532,-0.21660116158974677,0.04707034588969383
2757.0333333408275,0.1649375,-1.0126845,-0.28266224,-2.8829412,-0.19794051,1.4336209,0.5040815,0.039999984,0.04,0.03158095958784024,-0.0023637428822026463,0.025967496257472966,-0.10143540243557857,0.08739456931948392,0.041618572113487594,0.9585983359419511,-0.17773561428635856,-0.21738127197106016,0.0473778887226607
2757.0500000074944,0.16555575,-1.0135406,-0.28372106,-2.8849142,-0.19868234,1.4331062,0.503025,0.03999998,0.04,0.03255078078079343,-0.001934432643693751,0.026218548046930135,-0.10034673656185578,0.0861907389499432,0.0412051950402823,0.9582470729426438,-0.1786032011228011,-0.2181510016043728,0.04768211661149818
2757.0666666741613,0.16616614,-1.0143859,-0.2847665,-2.8868623,-0.19941473,1.4325981,0.5019819,0.039999977,0.04,0.03176487027332087,-0.001995816376515469,0.026170015446791428,-0.09924070078203484,0.08498167751149602,0.040791789061037344,0.9578985136004701,-0.17946111834435924,-0.2189104168125046,0.0479830600897603
2757.083333340828,0.16676867,-1.0152202,-0.28579828,-2.888785,-0.20013765,1.4320967,0.5009525,0.039999977,0.04,0.032560436813566795,-0.0016896381409253758,0.026884895866752245,-0.09812360347532412,0.08376656113644361,0.04036677021748099,0.957552807384049,-0.18030915910124595,-0.2196593244757449,0.048280528021005846
2757.100000007495,0.16736326,-1.0160439,-0.28681657,-2.8906827,-0.20085102,1.431602,0.4999365,0.039999977,0.04,0.031837110090049414,-0.0017410408265833288,0.026291396657573962,-0.0969925362314728,0.0825465266829826,0.039938403695477034,0.9572099781569188,-0.1811473966230915,-0.22039777853534429,0.04857466037135815
2757.116666674162,0.1679499,-1.0168563,-0.28782126,-2.8925543,-0.20155485,1.4311137,0.49893406,0.03999997,0.04,0.033228705254551016,-0.0011340065204368255,0.027418144278379408,-0.09584924931375939,0.08132080986105145,0.039499294021998026,0.9568701682695112,-0.1819755695655604,-0.22112565006742074,0.04886532553281172
2757.133333340829,0.16852857,-1.0176575,-0.2888122,-2.8944016,-0.20224905,1.430632,0.49794537,0.039999973,0.04,0.03073352702831489,-0.001667921776918324,0.025753888813140335,-0.09469437902354261,0.080089879454189,0.039052906825127465,0.9565332368513751,-0.18279372992514312,-0.2218437455293671,0.049152534707644864
2757.1500000074957,0.1690992,-1.0184478,-0.28978935,-2.8962219,-0.20293361,1.4301571,0.49697044,0.039999966,0.04,0.03423729301565981,-0.0006773176238872303,0.028516450137638927,-0.09352590186968503,0.07884760828724313,0.03860101950353,0.9561996467618317,-0.18360155055665847,-0.22255061536857934,0.04943611801917575
2757.1666666741626,0.16966175,-1.0192268,-0.29075262,-2.8980167,-0.20360847,1.4296888,0.4960093,0.039999966,0.04,0.03217755119135912,-0.0010193618938947324,0.027068014529585405,-0.09234799667900752,0.07760831292831837,0.03814140652982754,0.9558692378703821,-0.1843991012836808,-0.2232471260343322,0.04971611666528955
2757.1833333408294,0.17021623,-1.0199949,-0.29170197,-2.8997858,-0.20427363,1.4292274,0.49506208,0.039999958,0.04,0.03254483963721633,-0.000823431782909223,0.027468319101675576,-0.09115796721146807,0.07636172063687002,0.03767606414841059,0.9555421562406066,-0.18518624825201488,-0.22393301655732725,0.049992451439502705
2757.2000000074963,0.17076255,-1.0207514,-0.29263747,-2.901529,-0.20492902,1.4287727,0.4941287,0.039999947,0.04,0.03214694095321491,-0.0006429833744187041,0.027411773035745934,-0.08995727315411783,0.07511258734188933,0.037204771713522655,0.9552183986880803,-0.18596291124237332,-0.2246085865667024,0.0502651896499845
2757.216666674163,0.17130071,-1.0214965,-0.293559,-2.9032462,-0.2055746,1.4283248,0.49320927,0.03999994,0.04,0.03284548423803102,-0.00041688500651559934,0.0279445366028086,-0.08874550134424952,0.07385699740353487,0.03672792219667525,0.9548981233254805,-0.18672896301940572,-0.22527351706385876,0.050534255202309836
2757.23333334083,0.1718307,-1.0222301,-0.29446653,-2.9049373,-0.20621037,1.4278836,0.4923038,0.039999936,0.04,0.03235666978351759,-0.0003432540555042829,0.027635341308140937,-0.08752464143338513,0.07259824533693525,0.03624445557457907,0.9545813187182528,-0.18748438080615662,-0.2259281160061127,0.050799599464779986
2757.250000007497,0.17235251,-1.0229524,-0.2953599,-2.9066017,-0.20683622,1.4274492,0.49141234,0.039999936,0.04,0.0333611029101899,-8.945206587951393e-05,0.028491156370857862,-0.08629342009561014,0.07133401634332093,0.03575630708899976,0.954268186314847,-0.1882290217615105,-0.22657189068638392,0.05106116239251448
2757.266666674164,0.17286617,-1.0236636,-0.29623917,-2.9082406,-0.20745222,1.4270217,0.49053505,0.039999932,0.04,0.031845094536753216,-0.0003075489796833253,0.027514298108077817,-0.08505424170919726,0.07006907845644778,0.035261493648956505,0.9539586752341349,-0.18896292168454903,-0.22720525458625393,0.05131892888953098
2757.2833333408307,0.17337152,-1.0243634,-0.29710436,-2.909852,-0.20805833,1.4266015,0.48967177,0.03999993,0.04,0.03404777398019476,0.0004783219916398851,0.029613782036885805,-0.08380474818645528,0.06879914740676746,0.03476226447776537,0.9536531014721373,-0.1896858345841248,-0.2278273205512422,0.051572843834125505
2757.3000000074976,0.17386864,-1.025052,-0.29795536,-2.9114373,-0.2086545,1.426188,0.4888227,0.039999925,0.04,0.032597826105829064,0.00017486479759187823,0.028065528914977822,-0.08254864955098781,0.06753528810483386,0.034258105866480044,0.9533513334133373,-0.19039777671998037,-0.22843884743182738,0.05182291658251481
2757.3166666741645,0.17435744,-1.025729,-0.29879212,-2.9129975,-0.20924075,1.4257812,0.4879878,0.039999913,0.04,0.03079545429423014,-2.675969960619362e-05,0.026986392682304405,-0.08128444143138702,0.06626808892625782,0.033749394200740454,0.9530532437505822,-0.19109880327444143,-0.2290405288414462,0.052069166611346474
2757.3333333408314,0.17483796,-1.0263944,-0.29961464,-2.914531,-0.20981702,1.4253813,0.4871669,0.039999913,0.04,0.032903992951305305,0.0005628552244785201,0.02864135624979225,-0.0800097587041502,0.06499277658845799,0.033239791536981096,0.9527590972989329,-0.19178878352414505,-0.2296315938134931,0.05231152981060716
2757.3500000074982,0.1753102,-1.0270482,-0.3004231,-2.9160373,-0.21038333,1.4249883,0.48636037,0.039999906,0.04,0.03341282191406947,0.0008723320722020533,0.02922437682361112,-0.07872959120664406,0.06371461639251026,0.03272220039920557,0.952469058761944,-0.19246746244358576,-0.23021178406414808,0.052549999806522474
2757.366666674165,0.17577413,-1.0276904,-0.30121717,-2.9175174,-0.21093976,1.424602,0.48556793,0.039999902,0.04,0.0321013003986792,0.0007397053276902987,0.0282473796231697,-0.07744473538453285,0.06243946322526478,0.03220021655127656,0.9521830031771938,-0.19313503770672744,-0.2307816864436163,0.052784456734169476
2757.383333340832,0.17622977,-1.0283211,-0.30199733,-2.9189708,-0.21148616,1.4242231,0.4847897,0.039999895,0.04,0.03267223360499116,0.0008921206639672663,0.029116955231889285,-0.07615272799435585,0.061161123764091815,0.031675279208146966,0.9519011449779907,-0.193791312612234,-0.23134073286347673,0.05301511731390617
2757.400000007499,0.1766771,-1.0289403,-0.30276313,-2.9203975,-0.21202256,1.4238511,0.48402584,0.03999989,0.04,0.03263693426553971,0.0010192156328914237,0.02897746751531205,-0.07485661456995403,0.05988491248511543,0.031144365833707867,0.9516235109395802,-0.1944362175947308,-0.23188913016673285,0.05324173198720406
2757.4166666741658,0.1771161,-1.029548,-0.3035145,-2.9217982,-0.212549,1.423486,0.4832761,0.03999988,0.04,0.03172933765607233,0.000933366587618778,0.02814648209623627,-0.07355596098083707,0.05860822980569742,0.030611194589262383,0.9513500155682741,-0.1950699154676986,-0.23242728618908837,0.05346431139035831
2757.4333333408326,0.17754683,-1.0301445,-0.30425167,-2.9231715,-0.21306545,1.4231274,0.4825406,0.039999884,0.04,0.03355177080106575,0.001497064601610476,0.029392291115981628,-0.0722490733004163,0.05733013664159359,0.03007592223967298,0.9510808997434714,-0.19569216736096529,-0.23295460290545061,0.053682872146341154
2757.4500000074995,0.1779692,-1.0307293,-0.30497465,-2.9245183,-0.21357189,1.4227759,0.48181933,0.03999988,0.04,0.03209861880093534,0.0013177091542665442,0.028823967285585006,-0.07093938765408335,0.05605753957916138,0.029537685443642686,0.950816120453428,-0.1963029856313391,-0.2334714255239341,0.05389746173927357
2757.4666666741664,0.17838326,-1.0313027,-0.3056833,-2.925839,-0.21406837,1.4224312,0.48111215,0.039999876,0.04,0.03181584205611543,0.0013335176395123938,0.0285607768667262,-0.06962621085575786,0.05478478066766248,0.028996448474063227,0.9505556762350057,-0.19690245784366017,-0.2339778846382663,0.054108021334539166
2757.4833333408333,0.17878905,-1.0318648,-0.30637777,-2.927133,-0.21455492,1.4220934,0.48041922,0.039999876,0.04,0.03210989099511341,0.001543850451804496,0.0287492393302613,-0.06830923301452377,0.05351251534428959,0.02845287791922792,0.9502996588026252,-0.19749046929040626,-0.23447389040687758,0.05431452601774924
2757.5000000075,0.17918657,-1.0324153,-0.30705804,-2.9284008,-0.21503146,1.4217628,0.4797404,0.039999865,0.04,0.031896590155922055,0.0015490840872045553,0.02911565838346064,-0.06698944570555863,0.05224219227083614,0.0279080734572915,0.950048134956853,-0.19806702589498212,-0.23495933604178104,0.05451701500382311
2757.516666674167,0.1795758,-1.0329541,-0.30772415,-2.9296417,-0.21549807,1.4214392,0.47907576,0.03999987,0.04,0.032097039011236284,0.0018376771387607072,0.029074808171747346,-0.06566814590934822,0.050976993948395465,0.02736040212109936,0.9498011338291426,-0.198632040295148,-0.23543436104795892,0.05471544921684764
