rsonawane2002/My_IMU/logs_2/traj_500/imu_400hz_500.csv
time,j1,j2,j3,j4,j5,j6,j7,gripper1,gripper2,imu_ax,imu_ay,imu_az,imu_gx,imu_gy,imu_gz
0.0,0.00016700293,-0.785875,4.0107683e-05,-2.3551247,9.29385e-05,1.570997,0.786,0.04,0.04,-9.543553,-0.0671530663967132,0.076581016,-5.4459765e-08,-0.0011641271412372,1.0450344e-06
0.0025,0.0001670038795,-0.7858577740000002,4.010789585e-05,-2.35513919,9.294325049999994e-05,1.570996565,0.786,0.04,0.04,-9.587195049999444,-0.056984825284000465,0.066450116500129,-9.47104147494875e-08,-0.001325283269395803,1.037491050000096e-06
0.005,0.00016700482899999997,-0.7858405480000005,4.010810869999999e-05,-2.35515368,9.294800099999988e-05,1.57099613,0.786,0.04,0.04,-9.630837099998889,-0.04681658417128773,0.05631921700025799,-1.34961064498975e-07,-0.0014864393975544058,1.0299477000001922e-06
0.0075,0.00016700577849999997,-0.7858233220000007,4.0108321549999995e-05,-2.35516817,9.295275149999982e-05,1.5709956950000001,0.786,0.04,0.04,-9.674479149998332,-0.036648343058575,0.04618831750038699,-1.7521171424846247e-07,-0.001647595525713009,1.022404350000288e-06
0.01,0.00016700672799999994,-0.785806096000001,4.010853439999999e-05,-2.3551826599999997,9.295750199999975e-05,1.5709952600000001,0.786,0.04,0.04,-9.718121199997777,-0.026480101945862262,0.036057418000515984,-2.1546236399794997e-07,-0.0018087516538716117,1.0148610000003841e-06
0.0125,0.00016700767749999994,-0.7857888700000011,4.0108747249999985e-05,-2.355197149999999,9.296225249999969e-05,1.570994825,0.786,0.04,0.04,-9.761763249997221,-0.016311860833149526,0.02592651850064498,-2.5571301374743747e-07,-0.001969907782030215,1.0073176500004802e-06
0.015,0.00016700862699999992,-0.7857716440000013,4.010896009999998e-05,-2.355211639999999,9.296700299999964e-05,1.57099439,0.786,0.04,0.04,-9.805405299996666,-0.0061436197204367965,0.015795619000773975,-2.9596366349692497e-07,-0.002131063910188818,9.997743000005763e-07
0.0175,0.00016701074649999955,-0.7857548670000016,4.0107249400000544e-05,-2.355225734999999,9.297028574999997e-05,1.57099396,0.786,0.04,0.04,-9.83439690000003,0.0006331639015121123,0.00896512860002256,-4.199404984713744e-07,-0.002287766325738603,1.017206659993381e-06
0.02,0.00016701520599999938,-0.7857389880000022,4.010169160000077e-05,-2.355239039999998,9.297063299999995e-05,1.5709935400000001,0.786,0.04,0.04,-9.834087600000043,0.0006270325393423876,0.00873545640003175,-7.113697039597119e-07,-0.0024355613160673482,1.0845904399906846e-06
0.0225,0.0001670196654999992,-0.7857231090000029,4.009613380000099e-05,-2.3552523449999976,9.297098024999993e-05,1.57099312,0.786,0.04,0.04,-9.833778300000056,0.000620901177172663,0.008505784200040941,-1.0027989094480494e-06,-0.0025833563063960936,1.151974219987988e-06
0.025,0.00016702412499999903,-0.7857072300000035,4.009057600000121e-05,-2.355265649999997,9.297132749999993e-05,1.5709927000000001,0.786,0.04,0.04,-9.833469000000068,0.0006147698150029383,0.008276112000050132,-1.2942281149363873e-06,-0.0027311512967248394,1.2193579999852915e-06
0.0275,0.00016702858449999883,-0.7856913510000041,4.0085018200001436e-05,-2.3552789549999966,9.297167474999991e-05,1.57099228,0.786,0.04,0.04,-9.83315970000008,0.0006086384528332137,0.008046439800059323,-1.5856573204247249e-06,-0.002878946287053585,1.286741779982595e-06
0.03,0.00016703304399999866,-0.7856754720000048,4.007946040000166e-05,-2.3552922599999957,9.29720219999999e-05,1.5709918600000001,0.786,0.04,0.04,-9.832850400000092,0.000602507090663489,0.007816767600068514,-1.8770865259130625e-06,-0.0030267412773823305,1.3541255599798985e-06
0.0325,0.00016703750349999848,-0.7856595930000054,4.007390260000188e-05,-2.355305564999995,9.297236924999988e-05,1.57099144,0.786,0.04,0.04,-9.832541100000105,0.0005963757284937643,0.007587095400077706,-2.1685157314014e-06,-0.003174536267711076,1.421509339977202e-06
0.035,0.00016704806299999535,-0.785644573000005,4.005825250000708e-05,-2.355318099999996,9.296541450000363e-05,1.5709910100000002,0.786,0.04,0.04,-9.8322445000001,0.000587912346239693,0.007368826600072691,-2.7961192197278983e-06,-0.0033140617189465304,1.4873899499777278e-06
0.0375,0.00016706167249999553,-0.7856299825000048,4.003755625000678e-05,-2.3553302499999957,9.295480875000347e-05,1.5709905750000002,0.786,0.04,0.04,-9.831954250000095,0.0005782829539416029,0.0071562595000695985,-3.5918098497394755e-06,-0.0034494524006287958,1.5525189749786756e-06
0.04,0.00016707528199999574,-0.7856153920000046,4.0016860000006475e-05,-2.355342399999996,9.294420300000332e-05,1.5709901400000001,0.786,0.04,0.04,-9.83166400000009,0.0005686535616435126,0.006943692400066505,-4.387500479751055e-06,-0.003584843082311061,1.6176479999796234e-06
0.0425,0.00016708889149999592,-0.7856008015000043,3.999616375000618e-05,-2.3553545499999964,9.293359725000317e-05,1.5709897050000001,0.786,0.04,0.04,-9.831373750000086,0.0005590241693454225,0.006731125300063412,-5.183191109762634e-06,-0.0037202337639933264,1.6827770249805712e-06
0.045,0.00016710250099999613,-0.7855862110000041,3.997546750000587e-05,-2.3553666999999967,9.2922991500003e-05,1.57098927,0.786,0.04,0.04,-9.831083500000082,0.0005493947770473324,0.006518558200060319,-5.978881739774211e-06,-0.0038556244456755913,1.7479060499815188e-06
0.0475,0.00016711611049999634,-0.785571620500004,3.995477125000557e-05,-2.3553788499999966,9.291238575000286e-05,1.570988835,0.786,0.04,0.04,-9.830793250000077,0.0005397653847492423,0.006305991100057225,-6.774572369785791e-06,-0.003991015127357857,1.8130350749824665e-06
0.05,0.00016712971999999652,-0.7855570300000037,3.993407500000527e-05,-2.355390999999997,9.29017800000027e-05,1.5709884,0.786,0.04,0.04,-9.830503000000075,0.0005301359924511522,0.006093424000054132,-7.570262999797371e-06,-0.004126405809040122,1.8781640999834145e-06
0.0525,0.00016716048649999176,-0.7855436155000036,3.988482265001317e-05,-2.355402159999997,9.287230800000788e-05,1.5709879800000002,0.786,0.04,0.03999999925,-9.83016580000009,0.0005172696837723353,0.005909579995049158,-9.12744899958362e-06,-0.004249094659429729,2.056154129952407e-06
0.055,0.00016719125299999136,-0.7855302010000038,3.98355703000138e-05,-2.3554133199999967,9.284283600000825e-05,1.57098756,0.786,0.04,0.0399999985,-9.829828600000095,0.0005044033750926942,0.005725735990051499,-1.0684634999563793e-05,-0.004371783509816102,2.2341441599501407e-06
0.0575,0.000167222019499991,-0.7855167865000039,3.978631795001442e-05,-2.355424479999997,9.281336400000862e-05,1.5709871400000002,0.786,0.04,0.03999999775,-9.8294914000001,0.000491537066413053,0.00554189198505384,-1.2241820999543969e-05,-0.004494472360202475,2.4121341899478743e-06
0.06,0.0001672527859999906,-0.7855033720000041,3.973706560001505e-05,-2.3554356399999965,9.278389200000901e-05,1.57098672,0.786,0.04,0.039999997,-9.829154200000103,0.0004786707577334118,0.005358047980056181,-1.3799006999524137e-05,-0.004617161210588847,2.590124219945608e-06
0.0625,0.0001672835524999902,-0.7854899575000043,3.968781325001568e-05,-2.3554467999999966,9.275442000000938e-05,1.5709863000000002,0.786,0.04,0.03999999625,-9.828817000000107,0.0004658044490537707,0.005174203975058521,-1.535619299950431e-05,-0.00473985006097522,2.7681142499433416e-06
0.065,0.0001673143189999898,-0.7854765430000045,3.96385609000163e-05,-2.3554579599999963,9.272494800000975e-05,1.57098588,0.786,0.04,0.0399999955,-9.828479800000112,0.0004529381403741295,0.004990359970060862,-1.6913378999484485e-05,-0.004862538911361593,2.9461042799410756e-06
0.0675,0.00016735417549998006,-0.7854635000000043,3.9574096850032616e-05,-2.3554688199999965,9.268468100002126e-05,1.5709854550000002,0.786,0.04,0.039999995,-9.828175350000082,0.0004380694052152135,0.004800586170069319,-1.8783857349141543e-05,-0.004981282912156605,3.0839001049802642e-06
0.07,0.00016741221199997931,-0.7854512000000045,3.9479209400033825e-05,-2.3554790799999963,9.262282400002205e-05,1.5709850200000002,0.786,0.04,0.039999995,-9.827936400000086,0.0004191958170916288,0.004598952780071886,-2.1280920399109747e-05,-0.005092137213756838,3.141307519979533e-06
0.0725,0.0001674702484999786,-0.7854389000000046,3.938432195003503e-05,-2.355489339999996,9.256096700002284e-05,1.5709845850000002,0.786,0.04,0.039999995,-9.82769745000009,0.0004003222289680442,0.004397319390074455,-2.377798344907794e-05,-0.005202991515357071,3.1987149349788018e-06
0.075,0.00016752828499997784,-0.7854266000000047,3.928943450003624e-05,-2.355499599999996,9.249911000002363e-05,1.5709841500000001,0.786,0.04,0.039999995,-9.827458500000091,0.00038144864084445953,0.004195686000077021,-2.6275046499046148e-05,-0.005313845816957305,3.256122349978071e-06
0.0775,0.00016758632149997712,-0.7854143000000049,3.919454705003745e-05,-2.3555098599999957,9.243725300002441e-05,1.5709837150000001,0.786,0.04,0.039999995,-9.827219550000095,0.00036257505272087483,0.003994052610079589,-2.8772109549014352e-05,-0.005424700118557538,3.31352976497734e-06
0.08,0.00016764435799997637,-0.785402000000005,3.9099659600038664e-05,-2.3555201199999956,9.23753960000252e-05,1.5709832800000003,0.786,0.04,0.039999995,-9.826980600000098,0.00034370146459729013,0.0037924192200821565,-3.126917259898256e-05,-0.005535554420157772,3.370937179976609e-06
0.0825,0.00016770239449997562,-0.7853897000000052,3.900477215003987e-05,-2.3555303799999954,9.231353900002599e-05,1.5709828450000003,0.786,0.04,0.039999995,-9.826741650000102,0.00032482787647370543,0.003590785830084723,-3.376623564895077e-05,-0.005646408721758006,3.428344594975878e-06
0.085,0.00016778660499995788,-0.7853781150000049,3.8865907000069635e-05,-2.3555403799999954,9.221920340004787e-05,1.5709824100000003,0.7859998100000002,0.04,0.0399999955,-9.826485500000116,0.0003036926034933494,0.0034047522300771605,-3.709287379838027e-05,-0.005749781243459928,3.3500645300632596e-06
0.08750000000000001,0.00016788390249995665,-0.785366887500005,3.870505300007169e-05,-2.3555502499999954,9.210862850004928e-05,1.5709819750000003,0.7859995250000001,0.04,0.03999999625,-9.826220750000118,0.00028142648808244787,0.00322651852507943,-4.083429949833264e-05,-0.0058494128752055495,3.20394072506512e-06
0.09,0.00016798119999995542,-0.7853556600000051,3.854419900007373e-05,-2.3555601199999954,9.199805360005069e-05,1.5709815400000002,0.7859992400000002,0.04,0.039999997,-9.825956000000122,0.0002591603726715465,0.0030482848200817,-4.457572519828498e-05,-0.005949044506951171,3.0578169200669814e-06
0.0925,0.00016807849749995416,-0.7853444325000053,3.8383345000075784e-05,-2.3555699899999953,9.188747870005209e-05,1.5709811050000002,0.7859989550000002,0.04,0.03999999775,-9.825691250000125,0.000236894257260645,0.0028700511150839695,-4.8317150898237345e-05,-0.006048676138696792,2.911693115068842e-06
0.095,0.00016817579499995292,-0.7853332050000054,3.822249100007783e-05,-2.3555798599999953,9.17769038000535e-05,1.5709806700000002,0.7859986700000001,0.04,0.0399999985,-9.825426500000129,0.0002146281418497435,0.0026918174100862384,-5.205857659818971e-05,-0.006148307770442413,2.765569310070702e-06
0.0975,0.0001682730924999517,-0.7853219775000055,3.806163700007988e-05,-2.3555897299999953,9.166632890005491e-05,1.5709802350000002,0.7859983850000002,0.04,0.03999999925,-9.825161750000131,0.000192362026438842,0.0025135837050885078,-5.580000229814208e-05,-0.006247939402188035,2.619445505072563e-06
0.1,0.00016837038999995045,-0.7853107500000057,3.7900783000081927e-05,-2.3555995999999952,9.15557540000563e-05,1.5709798000000001,0.7859981000000001,0.04,0.04,-9.824897000000135,0.00017009591102794047,0.002335350000090777,-5.9541427998094436e-05,-0.006347571033933656,2.473321700074423e-06
0.10250000000000001,0.00016852060899992158,-0.7853004765000053,3.765059965013061e-05,-2.3556084799999955,9.138264140009038e-05,1.5709793800000003,0.7859978150000002,0.04,0.04,-9.824684600000111,0.0001475542012602608,0.002168569965087067,-6.347712529794539e-05,-0.006437778612551658,2.6375202049142808e-06
0.105,0.00016867082799991966,-0.7852902030000054,3.74004163001338e-05,-2.355617359999995,9.120952880009257e-05,1.5709789600000001,0.7859975300000002,0.04,0.04,-9.824472200000113,0.00012501249149244088,0.0020017899300891913,-6.741282259789525e-05,-0.006527986191164859,2.801718709912189e-06
0.1075,0.00016882104699991775,-0.7852799295000056,3.715023295013698e-05,-2.3556262399999954,9.103641620009477e-05,1.5709785400000003,0.7859972450000002,0.04,0.04,-9.824259800000116,0.00010247078172462085,0.0018350098950913147,-7.134851989784513e-05,-0.0066181937697780595,2.9659172149100986e-06
0.11,0.00016897126599991583,-0.7852696560000058,3.6900049600140166e-05,-2.355635119999995,9.086330360009698e-05,1.5709781200000001,0.7859969600000002,0.04,0.04,-9.824047400000119,7.992907195680082e-05,0.0016682298600934381,-7.528421719779502e-05,-0.006708401348391261,3.130115719908008e-06
0.1125,0.00016912148499991392,-0.7852593825000058,3.664986625014335e-05,-2.355643999999995,9.069019100009919e-05,1.5709777000000003,0.7859966750000001,0.04,0.04,-9.823835000000122,5.738736218898078e-05,0.0015014498250955617,-7.921991449774492e-05,-0.006798608927004463,3.2943142249059173e-06
0.115,0.00016927170399991202,-0.785249109000006,3.6399682900146535e-05,-2.3556528799999947,9.05170784001014e-05,1.5709772800000004,0.7859963900000002,0.04,0.04,-9.823622600000125,3.4845652421160725e-05,0.0013346697900976851,-8.31556117976948e-05,-0.006888816505617664,3.458512729903827e-06
0.11750000000000001,0.00016944463499986932,-0.7852391395000056,3.6111085200218686e-05,-2.355661709999995,9.031679250015238e-05,1.5709768550000003,0.7859961050000002,0.04,0.04,-9.823376650000187,1.1220670437046902e-05,0.001172276518091933,-8.764335499665359e-05,-0.006975066498806336,3.5632669200084586e-06
0.12,0.00016966298999986654,-0.7852297780000057,3.574565880022334e-05,-2.3556704399999946,9.006216000015563e-05,1.5709764200000003,0.7859958200000002,0.04,0.04,-9.823063600000191,-1.4570855985447533e-05,0.0010186567720938896,-9.323518999658236e-05,-0.007053401321124783,3.5491324800086386e-06
0.1225,0.00016988134499986376,-0.7852204165000058,3.538023240022799e-05,-2.3556791699999944,8.980752750015887e-05,1.5709759850000002,0.7859955350000002,0.04,0.04,-9.822750550000194,-4.0362382407942115e-05,0.0008650370260958457,-9.882702499651118e-05,-0.007131736143443231,3.5349980400088186e-06
0.125,0.00017009969999986097,-0.785211055000006,3.501480600023265e-05,-2.355687899999994,8.955289500016212e-05,1.5709755500000002,0.7859952500000003,0.04,0.04,-9.822437500000198,-6.61539088304367e-05,0.0007114172800978015,-0.00010441885999643998,-0.007210070965761678,3.5208636000089986e-06
0.1275,0.0001703180549998582,-0.7852016935000061,3.46493796002373e-05,-2.3556966299999944,8.929826250016536e-05,1.5709751150000002,0.7859949650000002,0.04,0.04,-9.822124450000203,-9.194543525293127e-05,0.0005577975340997574,-0.00011001069499636879,-0.007288405788080126,3.5067291600091786e-06
0.13,0.00017053640999985543,-0.7851923320000062,3.428395320024195e-05,-2.355705359999994,8.904363000016859e-05,1.5709746800000002,0.7859946800000002,0.04,0.04,-9.821811400000207,-0.00011773696167542586,0.00040417778810171326,-0.0001156025299962976,-0.007366740610398574,3.4925947200093586e-06
0.1325,0.00017075476499985265,-0.7851829705000063,3.39185268002466e-05,-2.355714089999994,8.878899750017184e-05,1.5709742450000002,0.7859943950000002,0.04,0.04,-9.82149835000021,-0.00014352848809792045,0.0002505580421036692,-0.0001211943649962264,-0.007445075432717021,3.4784602800095386e-06
0.135,0.00017102956599979164,-0.7851742150000058,3.3457411000349946e-05,-2.355722669999994,8.846746260024409e-05,1.5709738000000002,0.7859939200000005,0.04,0.04,-9.82128585000011,-0.00017225061308371388,8.670697011617719e-05,-0.00012809772999480254,-0.007517854217391689,3.585498119884746e-06
0.1375,0.00017133258999978777,-0.7851657625000059,3.2948450500356424e-05,-2.355731174999994,8.81124765002486e-05,1.5709733500000003,0.7859933500000005,0.04,0.04,-9.821123625000114,-0.00020243803735563455,-8.225976488167154e-05,-0.00013565685999470628,-0.007587854983235978,3.7531220998826116e-06
0.14,0.00017163561399978394,-0.785157310000006,3.243949000036291e-05,-2.355739679999994,8.775749040025311e-05,1.5709729000000003,0.7859927800000004,0.04,0.04,-9.820961400000115,-0.00023262546162755522,-0.0002512264998795203,-0.00014321598999461006,-0.0076578557490802664,3.920746079880478e-06
0.14250000000000002,0.00017193863799978007,-0.7851488575000062,3.193052950036939e-05,-2.3557481849999937,8.740250430025764e-05,1.5709724500000002,0.7859922100000004,0.04,0.04,-9.820799175000118,-0.00026281288589947587,-0.000420193234877369,-0.0001507751199945138,-0.007727856514924555,4.088370059878343e-06
0.145,0.0001722416619997762,-0.7851404050000063,3.142156900037587e-05,-2.3557566899999935,8.704751820026216e-05,1.5709720000000003,0.7859916400000004,0.04,0.04,-9.82063695000012,-0.0002930003101713962,-0.0005891599698752159,-0.00015833424999441747,-0.007797857280768843,4.255994039876208e-06
0.1475,0.00017254468599977235,-0.7851319525000063,3.091260850038236e-05,-2.3557651949999934,8.669253210026668e-05,1.5709715500000003,0.7859910700000005,0.04,0.04,-9.820474725000121,-0.0003231877344433168,-0.0007581267048730646,-0.00016589337999432124,-0.007867858046613132,4.423618019874073e-06
0.15,0.00017284770999976848,-0.7851235000000064,3.0403648000388835e-05,-2.355773699999993,8.63375460002712e-05,1.5709711000000004,0.7859905000000005,0.04,0.04,-9.820312500000124,-0.0003533751587152375,-0.0009270934398709132,-0.00017345250999422498,-0.00793785881245742,4.591241999871939e-06
0.1525,0.0001732531269996851,-0.7851159040000059,2.972081755053036e-05,-2.3557814999999938,8.586058710037046e-05,1.5709706650000004,0.7859899240000005,0.04,0.04,-9.820105875000161,-0.00038508669237932437,-0.0010786037388823204,-0.00018185423799347428,-0.007998948078555036,4.6726108499368005e-06
0.155,0.00017365854399967995,-0.785108308000006,2.9037987100539053e-05,-2.355789299999994,8.538362820037653e-05,1.5709702300000004,0.7859893480000004,0.04,0.04,-9.819899250000162,-0.0004167982260445756,-0.0012301140378803913,-0.00019025596599336731,-0.008060037344645844,4.753979699935764e-06
0.1575,0.0001740639609996748,-0.7851007120000061,2.835515665054775e-05,-2.3557970999999935,8.49066693003826e-05,1.5709697950000003,0.7859887720000005,0.04,0.04,-9.819692625000165,-0.0004485097597098268,-0.0013816243368784623,-0.00019865769399326035,-0.008121126610736652,4.835348549934728e-06
0.16,0.0001744693779996696,-0.7850931160000062,2.7672326200556443e-05,-2.3558048999999937,8.442971040038868e-05,1.5709693600000003,0.7859881960000005,0.04,0.04,-9.819486000000168,-0.0004802212933750781,-0.001533134635876533,-0.0002070594219931534,-0.008182215876827457,4.916717399933692e-06
0.1625,0.00017487479499966445,-0.7850855200000063,2.6989495750565137e-05,-2.3558126999999933,8.395275150039475e-05,1.5709689250000003,0.7859876200000004,0.04,0.04,-9.819279375000171,-0.0005119328270403293,-0.0016846449348746043,-0.00021546114999304643,-0.008243305142918265,4.998086249932656e-06
0.165,0.0001752802119996593,-0.7850779240000063,2.630666530057383e-05,-2.3558204999999934,8.347579260040082e-05,1.5709684900000005,0.7859870440000004,0.04,0.04,-9.819072750000174,-0.0005436443607055806,-0.001836155233872675,-0.00022386287799293944,-0.008304394409009073,5.07945509993162e-06
0.1675,0.00017572602649955075,-0.7850705970000058,2.5555151600758306e-05,-2.3558282649999933,8.295062800053028e-05,1.5709680350000004,0.7859863740000007,0.04,0.04,-9.818839700000243,-0.0005746736511101629,-0.0019822915848845,-0.0002330757554907565,-0.008361746370749771,5.162552649926159e-06
0.17,0.00017625263599954405,-0.7850638080000059,2.4666271400769623e-05,-2.355835959999993,8.232905200053818e-05,1.5709675400000005,0.7859855160000007,0.04,0.04,-9.818553800000247,-0.0006043384549881952,-0.002117680039882776,-0.00024391093199061854,-0.008411623723761695,5.249107599925058e-06
0.17250000000000001,0.00017677924549953735,-0.785057019000006,2.3777391200780943e-05,-2.355843654999993,8.17074760005461e-05,1.5709670450000004,0.7859846580000007,0.04,0.04,-9.81826790000025,-0.0006340032588662275,-0.0022530684948810524,-0.0002547461084904806,-0.00846150107677362,5.335662549923955e-06
0.17500000000000002,0.00017730585499953062,-0.7850502300000061,2.288851100079226e-05,-2.3558513499999933,8.108590000055401e-05,1.5709665500000005,0.7859838000000007,0.04,0.04,-9.817982000000255,-0.0006636680627442598,-0.0023884569498793286,-0.0002655812849903426,-0.008511378429785546,5.422217499922854e-06
0.1775,0.00017783246449952391,-0.7850434410000061,2.1999630800803587e-05,-2.355859044999993,8.046432400056193e-05,1.5709660550000006,0.7859829420000007,0.04,0.04,-9.817696100000258,-0.0006933328666222918,-0.002523845404877603,-0.00027641646149020453,-0.00856125578279747,5.5087724499217506e-06
0.18,0.0001783590739995172,-0.7850366520000063,2.1110750600814904e-05,-2.355866739999993,7.984274800056985e-05,1.5709655600000005,0.7859820840000007,0.04,0.04,-9.817410200000262,-0.0007229976705003241,-0.0026592338598758793,-0.00028725163799006657,-0.008611133135809395,5.595327399920649e-06
0.1825,0.0001788856834995105,-0.7850298630000063,2.022187040082622e-05,-2.355874434999993,7.922117200057775e-05,1.5709650650000007,0.7859812260000008,0.04,0.04,-9.817124300000266,-0.0007526624743783564,-0.0027946223148741555,-0.00029808681448992866,-0.008661010488821319,5.681882349919547e-06
0.185,0.00017950621399937105,-0.7850236100000056,1.917310710106351e-05,-2.355882119999993,7.848744300074418e-05,1.5709645600000006,0.785980176000001,0.04,0.04,-9.816904900000175,-0.0007885118829650577,-0.0029415440698561312,-0.0003097955059885561,-0.008705150242855923,5.7715586999140326e-06
0.1875,0.00018017370499936257,-0.7850176250000057,1.804440225107788e-05,-2.355889799999993,7.769763750075424e-05,1.5709640500000006,0.785979030000001,0.04,0.04,-9.816718750000177,-0.0008274535939190869,-0.0030942324748541874,-0.00032194095498840145,-0.008746421197389812,5.862795749912871e-06
0.19,0.00018084119599935406,-0.7850116400000058,1.691569740109225e-05,-2.3558974799999928,7.690783200076429e-05,1.5709635400000006,0.7859778840000011,0.04,0.04,-9.81653260000018,-0.0008663953048731161,-0.003246920879852243,-0.0003340864039882468,-0.008787692151923703,5.95403279991171e-06
0.1925,0.00018150868699934558,-0.7850056550000059,1.578699255110662e-05,-2.3559051599999927,7.611802650077435e-05,1.5709630300000006,0.7859767380000011,0.04,0.04,-9.816346450000182,-0.0009053370158271452,-0.003399609284850299,-0.00034623185298809217,-0.008828963106457591,6.045269849910548e-06
0.195,0.00018217617799933707,-0.7849996700000059,1.4658287701120991e-05,-2.3559128399999927,7.532822100078441e-05,1.5709625200000004,0.7859755920000011,0.04,0.04,-9.816160300000185,-0.0009442787267811744,-0.003552297689848355,-0.00035837730198793753,-0.00887023406099148,6.136506899909387e-06
0.1975,0.0001828436689993286,-0.784993685000006,1.3529582851135362e-05,-2.355920519999992,7.453841550079447e-05,1.5709620100000004,0.7859744460000011,0.04,0.04,-9.815974150000187,-0.0009832204377352035,-0.003704986094846411,-0.0003705227509877829,-0.00891150501552537,6.227743949908225e-06
0.2,0.00018351115999932008,-0.7849877000000061,1.2400878001149732e-05,-2.355928199999992,7.374861000080452e-05,1.5709615000000003,0.7859733000000012,0.04,0.04,-9.81578800000019,-0.0010221621486892329,-0.003857674499844467,-0.00038266819998762825,-0.00895277597005926,6.318980999907063e-06
0.2025,0.00018434003449914515,-0.7849824950000054,1.09971996914477e-05,-2.355935879999992,7.276598160101344e-05,1.570960495000001,0.7859718750000014,0.04,0.04,-9.815590750000203,-0.001058182294908955,-0.003996320174857006,-0.00039636264498587605,-0.008985648537020706,6.4149522749010185e-06
0.20500000000000002,0.00018516890899913458,-0.7849772900000054,9.593521381465572e-06,-2.355943559999992,7.178335320102595e-05,1.570959490000001,0.7859704500000014,0.04,0.04,-9.815393500000205,-0.0010942024411257016,-0.004134965849855241,-0.0004100570899857017,-0.009018521103973597,6.510923549899797e-06
0.20750000000000002,0.00018599778349912403,-0.7849720850000055,8.189843071483443e-06,-2.355951239999992,7.080072480103847e-05,1.570958485000001,0.7859690250000015,0.04,0.04,-9.815196250000207,-0.0011302225873424479,-0.004273611524853475,-0.00042375153498552733,-0.00905139367092649,6.606894824898575e-06
0.21,0.00018682665799911346,-0.7849668800000056,6.78616476150133e-06,-2.355958919999992,6.981809640105099e-05,1.570957480000001,0.7859676000000015,0.04,0.04,-9.81499900000021,-0.001166242733559194,-0.004412257199851708,-0.00043744597998535286,-0.00908426623787938,6.7028660998973515e-06
0.2125,0.00018765553249910292,-0.7849616750000056,5.382486451519201e-06,-2.3559665999999915,6.88354680010635e-05,1.5709564750000011,0.7859661750000015,0.04,0.04,-9.814801750000212,-0.0012022628797759404,-0.004550902874849943,-0.0004511404249851785,-0.00911713880483227,6.79883737489613e-06
0.215,0.00018848440699909235,-0.7849564700000057,3.978808141537073e-06,-2.3559742799999914,6.7852839601076e-05,1.570955470000001,0.7859647500000015,0.04,0.04,-9.814604500000215,-0.001238283025992687,-0.004689548549848178,-0.00046483486998500414,-0.009150011371785163,6.894808649894908e-06
0.2175,0.00018937414249887955,-0.784951513000005,2.471339721899871e-06,-2.3559820599999908,6.679744265133035e-05,1.5709544650000011,0.7859632250000019,0.04,0.04,-9.814408850000213,-0.0012746517255025848,-0.004824491649858717,-0.0004791114749828951,-0.009180675912619363,6.9933335248852e-06
0.22,0.00019038559999886667,-0.784947052000005,7.56291081921707e-07,-2.3559900399999907,6.559650860134564e-05,1.570953460000001,0.785961500000002,0.04,0.04,-9.814216400000216,-0.001311717531602248,-0.004952029599857094,-0.0004945523999826985,-0.009206924401194248,7.096965599883881e-06
0.2225,0.0001913970574988538,-0.7849425910000051,-9.587575580564569e-07,-2.3559980199999906,6.439557455136092e-05,1.5709524550000011,0.7859597750000019,0.04,0.04,-9.814023950000218,-0.001348783337701911,-0.00507956754985547,-0.0005099933249825019,-0.009233172889769135,7.200597674882561e-06
0.225,0.00019240851499884091,-0.7849381300000051,-2.673806198034621e-06,-2.3560059999999905,6.319464050137623e-05,1.5709514500000012,0.785958050000002,0.04,0.04,-9.813831500000221,-0.0013858491438015741,-0.005207105499853846,-0.0005254342499823053,-0.00925942137834402,7.304229749881242e-06
0.2275,0.00019341997249882803,-0.7849336690000052,-4.3888548380127854e-06,-2.3560139799999904,6.199370645139151e-05,1.5709504450000011,0.785956325000002,0.04,0.04,-9.813639050000223,-0.001422914949901237,-0.005334643449852222,-0.0005408751749821088,-0.009285669866918906,7.407861824879923e-06
0.23,0.00019443142999881516,-0.7849292080000052,-6.10390347799095e-06,-2.3560219599999903,6.07927724014068e-05,1.5709494400000013,0.7859546000000021,0.04,0.04,-9.813446600000226,-0.0014599807560009002,-0.005462181399850599,-0.0005563160999819121,-0.009311918355493791,7.511493899878603e-06
0.2325,0.00019544288749880228,-0.7849247470000053,-7.818952117969114e-06,-2.35602993999999,5.959183835142209e-05,1.5709484350000014,0.7859528750000021,0.04,0.04,-9.813254150000228,-0.0014970465621005633,-0.005589719349848975,-0.0005717570249817156,-0.009338166844068678,7.615125974877284e-06
0.23500000000000001,0.00019659060099854478,-0.7849207940000045,-9.766515097529835e-06,-2.3560383199999895,5.822789730173003e-05,1.5709474100000014,0.7859509500000025,0.04,0.04,-9.813074600000208,-0.001531538704836037,-0.0057204925998415425,-0.0005885218169791422,-0.009359364584065971,7.722988899868368e-06
0.23750000000000002,0.0001978064424985293,-0.7849170950000045,-1.1830335247503559e-05,-2.3560468999999893,5.678245275174844e-05,1.5709463750000012,0.7859489250000025,0.04,0.04,-9.81290150000021,-0.001564744015882534,-0.005852883499839858,-0.0006059485424789203,-0.009378036949760964,7.832967249866968e-06
0.24,0.0001990222839985138,-0.7849133960000045,-1.389415539747726e-05,-2.3560554799999895,5.533700820176686e-05,1.5709453400000013,0.7859469000000026,0.04,0.04,-9.812728400000212,-0.0015979493269290311,-0.00598527439983817,-0.0006233752679786983,-0.009396709315455956,7.942945599865567e-06
0.2425,0.00020023812549849833,-0.7849096970000046,-1.5957975547450984e-05,-2.3560640599999894,5.389156365178526e-05,1.5709443050000014,0.7859448750000025,0.04,0.04,-9.812555300000215,-0.0016311546379755282,-0.006117665299836484,-0.0006408019934784763,-0.009415381681150949,8.052923949864167e-06
0.245,0.00020145396699848284,-0.7849059980000046,-1.8021795697424706e-05,-2.356072639999989,5.244611910180367e-05,1.5709432700000014,0.7859428500000025,0.04,0.04,-9.812382200000217,-0.0016643599490220255,-0.006250056199834799,-0.0006582287189782545,-0.009434054046845941,8.162902299862767e-06
0.2475,0.00020266980849846736,-0.7849022990000046,-2.008561584739843e-05,-2.356081219999989,5.100067455182207e-05,1.5709422350000013,0.7859408250000026,0.04,0.04,-9.812209100000219,-0.0016975652600685228,-0.006382447099833113,-0.0006756554444780326,-0.009452726412540934,8.272880649861365e-06
0.25,0.00020388564999845188,-0.7848986000000047,-2.214943599737215e-05,-2.356089799999989,4.955523000184047e-05,1.5709412000000014,0.7859388000000026,0.04,0.04,-9.812036000000221,-0.0017307705711150198,-0.006514837999831428,-0.0006930821699778107,-0.009471398778235924,8.382858999859965e-06
0.2525,0.00020532817899810552,-0.7848956375000039,-2.460029214678127e-05,-2.3560985299999886,4.7836788002256844e-05,1.5709400450000015,0.7859363250000033,0.03999999925,0.04,-9.811896050000184,-0.001775823999137091,-0.006666708574800547,-0.0007126133444743495,-0.009483492886631646,8.380934350002528e-06
0.255,0.0002067707079980478,-0.784892675000004,-2.705114829668319e-05,-2.356107259999988,4.611834600232561e-05,1.5709388900000016,0.7859338500000034,0.0399999985,0.04,-9.81175610000019,-0.001820877427174248,-0.006818579149794469,-0.0007321445189735679,-0.009495586995018993,8.379009700002605e-06
0.2575,0.00020821323699799006,-0.7848897125000042,-2.9502004446585115e-05,-2.3561159899999877,4.439990400239438e-05,1.5709377350000016,0.7859313750000034,0.03999999775,0.04,-9.811616150000194,-0.001865930855211405,-0.006970449724788393,-0.0007516756934727864,-0.00950768110340634,8.377085050002681e-06
0.26,0.00020965576599793234,-0.7848867500000043,-3.195286059648704e-05,-2.3561247199999875,4.268146200246314e-05,1.5709365800000017,0.7859289000000036,0.039999997,0.04,-9.8114762000002,-0.001910984283248562,-0.007122320299782315,-0.0007712068679720048,-0.009519775211793684,8.375160400002759e-06
0.2625,0.00021109829499787463,-0.7848837875000044,-3.440371674638897e-05,-2.3561334499999873,4.096302000253191e-05,1.5709354250000016,0.7859264250000036,0.03999999625,0.04,-9.811336250000206,-0.001956037711285719,-0.007274190874776237,-0.0007907380424712232,-0.009531869320181031,8.373235750002835e-06
0.265,0.00021254082399781689,-0.7848808250000044,-3.685457289629089e-05,-2.356142179999987,3.9244578002600676e-05,1.5709342700000017,0.7859239500000037,0.0399999955,0.04,-9.811196300000212,-0.002001091139322876,-0.00742606144977016,-0.0008102692169704416,-0.009543963428568378,8.371311100002913e-06
0.2675,0.00021406647549740258,-0.7848781175000034,-3.9447448045583304e-05,-2.3561509699999865,3.7426537353096905e-05,1.5709329750000025,0.7859213450000043,0.039999994750000004,0.0399999995,-9.81103550000031,-0.002044065517779448,-0.0075742390747838536,-0.000830362809967425,-0.009553287038573739,8.458165449594068e-06
0.27,0.0002157583719974272,-0.7848759200000034,-4.232436119562517e-05,-2.3561598799999866,3.540929940306755e-05,1.5709314000000023,0.7859184800000043,0.039999994000000004,0.039999998,-9.810833000000308,-0.0020828817970460333,-0.007715030799785902,-0.0008515812399677337,-0.009557069651776728,8.722577799597915e-06
0.2725,0.0002174502684974518,-0.7848737225000033,-4.520127434566704e-05,-2.3561687899999866,3.339206145303819e-05,1.5709298250000023,0.7859156150000043,0.039999993250000004,0.0399999965,-9.810630500000304,-0.002121698076312618,-0.007855822524787951,-0.0008727996699680426,-0.009560852264979719,8.986990149601765e-06
0.275,0.00021914216499747643,-0.7848715250000033,-4.80781874957089e-05,-2.356177699999987,3.1374823503008835e-05,1.5709282500000024,0.7859127500000043,0.039999992500000005,0.039999995,-9.810428000000302,-0.002160514355579203,-0.00799661424979,-0.0008940180999683514,-0.009564634878182708,9.251402499605612e-06
0.2775,0.00022083406149750104,-0.7848693275000033,-5.095510064575077e-05,-2.356186609999987,2.935758555297948e-05,1.5709266750000024,0.7859098850000042,0.039999991750000005,0.039999993500000004,-9.8102255000003,-0.002199330634845788,-0.00813740597479205,-0.0009152365299686601,-0.009568417491385699,9.51581484960946e-06
0.28,0.00022252595799752566,-0.7848671300000032,-5.3832013795792636e-05,-2.356195519999987,2.7340347602950126e-05,1.5709251000000024,0.7859070200000042,0.039999991,0.039999992000000005,-9.810023000000296,-0.002238146914112373,-0.008278197699794099,-0.000936454959968969,-0.009572200104588688,9.780227199613308e-06
0.28250000000000003,0.0002242178544975503,-0.7848649325000032,-5.67089269458345e-05,-2.356204429999987,2.5323109652920764e-05,1.5709235250000024,0.7859041550000042,0.03999999025,0.0399999905,-9.809820500000294,-0.0022769631933789577,-0.008418989424796148,-0.0009576733899692778,-0.009575982717791679,1.0044639549617156e-05
0.28500000000000003,0.0002260913639971487,-0.7848632200000022,-5.9896277195148126e-05,-2.356213979999986,2.308836200340169e-05,1.5709219100000025,0.7859009660000049,0.039999989799999996,0.0399999894,-9.809616600000297,-0.002316787792311121,-0.00855615039980354,-0.0009803178299660957,-0.009574855864053199,1.0314821449603632e-05
0.28750000000000003,0.0002280556799971237,-0.7848617500000021,-6.323884599510556e-05,-2.3562238499999855,2.0744859503431528e-05,1.5709202750000024,0.7858976150000049,0.0399999895,0.0399999885,-9.8094120000003,-0.0023571165510793478,-0.008691495999801816,-0.0010036752749657983,-0.009571274276828044,1.0587888124600155e-05
0.29,0.00023001999599709863,-0.7848602800000022,-6.658141479506293e-05,-2.3562337199999854,1.8401357003461416e-05,1.5709186400000024,0.785894264000005,0.0399999892,0.0399999876,-9.809207400000302,-0.002397445309847573,-0.00882684159980009,-0.0010270327199655004,-0.00956769268960289,1.0860954799596672e-05
0.2925,0.00023198431199707362,-0.7848588100000021,-6.992398359502037e-05,-2.3562435899999854,1.6057854503491253e-05,1.5709170050000025,0.785890913000005,0.0399999889,0.039999986700000004,-9.809002800000306,-0.0024377740686158,-0.008962187199798367,-0.001050390164965203,-0.009564111102377735,1.1134021474593195e-05
0.295,0.0002339486279970486,-0.7848573400000022,-7.326655239497782e-05,-2.3562534599999854,1.3714352003521091e-05,1.5709153700000025,0.7858875620000051,0.0399999886,0.039999985800000006,-9.808798200000307,-0.0024781028273840266,-0.009097532799796644,-0.0010737476099649057,-0.00956052951515258,1.140708814958972e-05
0.2975,0.0002359129439970236,-0.7848558700000022,-7.660912119493527e-05,-2.356263329999985,1.137084950355093e-05,1.5709137350000024,0.785884211000005,0.0399999883,0.0399999849,-9.80859360000031,-0.002518431586152253,-0.009232878399794921,-0.0010971050549646083,-0.009556947927927427,1.1680154824586243e-05
0.3,0.0002378772599969986,-0.7848544000000022,-7.99516899948927e-05,-2.356273199999985,9.027347003580767e-06,1.5709121000000024,0.7858808600000051,0.039999988,0.039999984,-9.808389000000313,-0.0025587603449204795,-0.009368223999793198,-0.0011204624999643109,-0.009553366340702273,1.1953221499582767e-05
0.3025,0.00024013731599651796,-0.7848536500000011,-8.379999549407097e-05,-2.356283429999984,6.329276004156884e-06,1.5709099850000032,0.785877011000006,0.0399999874,0.0399999834,-9.808275000000176,-0.0025926832691243154,-0.009503739399791213,-0.0011457103199611009,-0.009544133394970799,1.210843812476086e-05
0.305,0.00024239737199648919,-0.7848529000000012,-8.764830099402197e-05,-2.356293659999984,3.6312050041912363e-06,1.5709078700000032,0.785873162000006,0.039999986800000005,0.0399999828,-9.808161000000178,-0.0026266061933183636,-0.009639254799789488,-0.0011709581399607794,-0.009534900449230692,1.2263654749758884e-05
0.3075,0.0002446574279964604,-0.7848521500000012,-9.149660649397297e-05,-2.356303889999984,9.331340042255891e-07,1.5709057550000032,0.7858693130000061,0.039999986200000004,0.0399999822,-9.80804700000018,-0.0026605291175124117,-0.009774770199787761,-0.001196205959960458,-0.009525667503490584,1.2418871374756908e-05
0.31,0.0002469174839964316,-0.7848514000000012,-9.534491199392397e-05,-2.3563141199999835,-1.764936995740058e-06,1.5709036400000032,0.7858654640000061,0.0399999856,0.0399999816,-9.80793300000018,-0.0026944520417064594,-0.009910285599786036,-0.0012214537799601366,-0.009516434557750477,1.257408799975493e-05
0.3125,0.00024917753999640285,-0.7848506500000012,-9.919321749387497e-05,-2.3563243499999835,-4.463007995705707e-06,1.5709015250000034,0.7858616150000061,0.039999985,0.039999981,-9.807819000000181,-0.0027283749659005076,-0.010045800999784311,-0.0012467015999598151,-0.00950720161201037,1.2729304624752955e-05
0.315,0.0002514375959963741,-0.7848499000000012,-0.00010304152299382599,-2.3563345799999835,-7.161078995671354e-06,1.5708994100000033,0.7858577660000061,0.0399999844,0.039999980399999996,-9.807705000000183,-0.0027622978900945557,-0.010181316399782587,-0.0012719494199594937,-0.009497968666270262,1.2884521249750979e-05
0.3175,0.00025380406999582906,-0.784849412,-0.00010707188499289378,-2.356345094999982,-9.986748095017994e-06,1.5708972800000034,0.7858537300000071,0.0399999838,0.03999997985,-9.807562350000323,-0.002801014878708907,-0.010324432549743988,-0.001297895249955786,-0.009486484527613716,1.3043700099729781e-05
0.32,0.0002563833799957962,-0.784849448,-0.00011146635999283783,-2.356356179999982,-1.3067613394978769e-05,1.5708951200000034,0.7858493200000072,0.039999983200000006,0.039999979399999996,-9.807362400000326,-0.0028493199962334515,-0.010482750199741972,-0.001325237099955438,-0.009470498003091615,1.3210803399727654e-05
0.3225,0.0002589626899957634,-0.784849484,-0.00011586083499278189,-2.3563672649999816,-1.614847869493954e-05,1.5708929600000034,0.7858449100000072,0.039999982600000004,0.03999997895,-9.807162450000328,-0.0028976251137579965,-0.010641067849739956,-0.0013525789499550897,-0.009454511478569513,1.3377906699725526e-05
0.325,0.00026154199999573054,-0.78484952,-0.00012025530999272593,-2.3563783499999817,-1.9229343994900316e-05,1.5708908000000035,0.7858405000000073,0.039999982,0.0399999785,-9.806962500000331,-0.0029459302312825415,-0.010799385499737942,-0.0013799207999547417,-0.009438524954047412,1.3545009999723399e-05
0.3275,0.0002641213099956977,-0.784849556,-0.00012464978499267,-2.3563894349999814,-2.2310209294861093e-05,1.5708886400000035,0.7858360900000073,0.0399999814,0.03999997805,-9.806762550000334,-0.0029942353488070866,-0.010957703149735926,-0.0014072626499543935,-0.00942253842952531,1.3712113299721271e-05
0.33,0.00026670061999566487,-0.7848495919999999,-0.00012904425999261403,-2.3564005199999816,-2.5391074594821864e-05,1.5708864800000035,0.7858316800000075,0.0399999808,0.0399999776,-9.806562600000335,-0.0030425404663316316,-0.01111602079973391,-0.0014346044999540455,-0.00940655190500321,1.3879216599719143e-05
0.3325,0.000269279929995632,-0.7848496279999999,-0.00013343873499255807,-2.3564116049999813,-2.8471939894782638e-05,1.5708843200000036,0.7858272700000075,0.0399999802,0.03999997715,-9.806362650000338,-0.0030908455838561766,-0.011274338449731894,-0.0014619463499536973,-0.009390565380481108,1.4046319899717016e-05
0.335,0.00027208786299501406,-0.7848501559999987,-0.00013822443099150087,-2.3564233999999793,-3.1826937894041825e-05,1.5708819600000041,0.7858224700000085,0.0399999797,0.039999976300000004,-9.80619850000025,-0.0031335007165809617,-0.011430233899736077,-0.0014906025399499855,-0.009370111022183242,1.4307276999474687e-05
0.3375,0.00027501010749497685,-0.7848509299999987,-0.00014320573749143745,-2.356435549999979,-3.5319002243997365e-05,1.5708795000000042,0.7858174750000086,0.03999997925,0.03999997525,-9.806052250000251,-0.0031733308568842843,-0.011584918249734108,-0.0015199158999496122,-0.009347422746980425,1.4615160999470767e-05
0.34,0.00027793235199493965,-0.7848517039999987,-0.00014818704399137403,-2.356447699999979,-3.8811066593952905e-05,1.5708770400000043,0.7858124800000087,0.0399999788,0.0399999742,-9.805906000000252,-0.0032131609971876073,-0.011739602599732139,-0.001549229259949239,-0.00932473447177761,1.4923044999466848e-05
0.3425,0.00028085459649490244,-0.7848524779999987,-0.0001531683504913106,-2.356459849999979,-4.230313094390844e-05,1.5708745800000041,0.7858074850000087,0.03999997835,0.03999997315,-9.805759750000254,-0.0032529911374909303,-0.01189428694973017,-0.0015785426199488657,-0.009302046196574792,1.5230928999462928e-05
0.34500000000000003,0.00028377684099486523,-0.7848532519999987,-0.0001581496569912472,-2.356471999999979,-4.579519529386398e-05,1.5708721200000042,0.7858024900000088,0.0399999779,0.0399999721,-9.805613500000256,-0.003292821277794253,-0.0120489712997282,-0.0016078559799484926,-0.009279357921371977,1.5538812999459007e-05
0.34750000000000003,0.00028669908549482803,-0.7848540259999987,-0.00016313096349118377,-2.3564841499999782,-4.928725964381952e-05,1.5708696600000043,0.7857974950000088,0.03999997745,0.039999971050000006,-9.805467250000259,-0.003332651418097576,-0.01220365564972623,-0.0016371693399481193,-0.00925666964616916,1.5846696999455087e-05
0.35000000000000003,0.0002896213299947908,-0.7848547999999986,-0.00016811226999112033,-2.356496299999978,-5.277932399377506e-05,1.5708672000000043,0.7857925000000089,0.039999977,0.03999997,-9.80532100000026,-0.003372481558400899,-0.012358339999724261,-0.001666482699947746,-0.009233981370966343,1.6154580999451168e-05
0.3525,0.0002929102614940952,-0.7848563299999972,-0.00017372124698992992,-2.3565095299999763,-5.6711332492940664e-05,1.570864425000005,0.78578690500001,0.0399999764,0.0399999694,-9.805195750000225,-0.003414870414341117,-0.01251687829971537,-0.0016978500999436845,-0.00920626185839384,1.6349415549650204e-05
0.355,0.00029619919299405333,-0.7848578599999972,-0.00017933022398985851,-2.356522759999976,-6.06433409928906e-05,1.570861650000005,0.7857813100000102,0.039999975800000004,0.0399999688,-9.805070500000227,-0.0034572592702858972,-0.01267541659971335,-0.001729217499943285,-0.00917854234581237,1.6544250099647724e-05
0.3575,0.00029948812449401144,-0.7848593899999972,-0.00018493920098978708,-2.356535989999976,-6.457534949284054e-05,1.570858875000005,0.7857757150000102,0.0399999752,0.0399999682,-9.804945250000229,-0.003499648126230678,-0.012833954899711331,-0.0017605848999428858,-0.009150822833230897,1.6739084649645244e-05
0.36,0.00030277705599396956,-0.7848609199999972,-0.00019054817798971568,-2.356549219999976,-6.850735799279048e-05,1.570856100000005,0.7857701200000102,0.0399999746,0.0399999676,-9.80482000000023,-0.0035420369821754583,-0.012992493199709314,-0.0017919522999424865,-0.009123103320649424,1.693391919964276e-05
0.3625,0.00030606598749392767,-0.7848624499999972,-0.00019615715498964427,-2.3565624499999753,-7.243936649274041e-05,1.5708533250000052,0.7857645250000104,0.039999974,0.039999967,-9.804694750000232,-0.0035844258381202386,-0.013151031499707295,-0.001823319699942087,-0.009095383808067953,1.712875374964028e-05
0.365,0.00030935491899388584,-0.7848639799999971,-0.00020176613198957284,-2.3565756799999753,-7.637137499269035e-05,1.5708505500000052,0.7857589300000104,0.0399999734,0.039999966399999996,-9.804569500000234,-0.003626814694065019,-0.013309569799705276,-0.0018546870999416878,-0.00906766429548648,1.7323588299637802e-05
0.3675,0.0003127740059931131,-0.7848657729999957,-0.00020759797398825,-2.3565892099999735,-8.04595627917633e-05,1.570847645000006,0.7857531100000117,0.03999997285,0.0399999657,-9.804447675000215,-0.0036655436851427553,-0.013467240099708132,-0.001886781314937207,-0.00903822407132581,1.752434274960208e-05
0.37,0.00031645340399306623,-0.7848680919999956,-0.00021387554598817008,-2.3566033399999733,-8.486010919170728e-05,1.5708444800000059,0.7857468400000118,0.0399999724,0.0399999648,-9.804332700000217,-0.00369695294642489,-0.013623174399706147,-0.0019203291599367799,-0.009005342423977825,1.773693699959937e-05
0.3725,0.0003201328019930194,-0.7848704109999957,-0.00022015311798809014,-2.356617469999973,-8.926065559165125e-05,1.570841315000006,0.7857405700000119,0.039999971950000004,0.0399999639,-9.804217725000218,-0.0037283622077070254,-0.013779108699704161,-0.0019538770049363527,-0.008972460776629838,1.7949531249596665e-05
0.375,0.0003238121999929726,-0.7848727299999956,-0.00022643068998801023,-2.356631599999973,-9.366120199159523e-05,1.5708381500000062,0.785734300000012,0.0399999715,0.039999963,-9.80410275000022,-0.0037597714689891603,-0.013935042999702175,-0.0019874248499359257,-0.008939579129281852,1.816212549959396e-05
0.3775,0.00032749159799292575,-0.7848750489999956,-0.0002327082619879303,-2.356645729999973,-9.80617483915392e-05,1.570834985000006,0.785728030000012,0.039999971050000006,0.0399999621,-9.803987775000222,-0.0037911807302712956,-0.01409097729970019,-0.0020209726949354987,-0.008906697481933866,1.837471974959125e-05
0.38,0.00033117099599287887,-0.7848773679999955,-0.0002389858339878504,-2.3566598599999726,-0.00010246229479148317,1.5708318200000062,0.7857217600000121,0.039999970600000004,0.0399999612,-9.803872800000223,-0.0038225899915534304,-0.014246911599698204,-0.0020545205399350713,-0.00887381583458588,1.8587313999588544e-05
0.3825,0.00033485039399283205,-0.7848796869999954,-0.00024526340598777043,-2.3566739899999725,-0.00010686284119142715,1.5708286550000063,0.7857154900000122,0.03999997015,0.039999960300000005,-9.803757825000224,-0.0038539992528355653,-0.01440284589969622,-0.0020880683849346443,-0.008840934187237894,1.8799908249585835e-05
0.385,0.0003388059669919729,-0.7848825399999939,-0.0002520139749862993,-2.3566886699999703,-0.00011159479699039634,1.5708253500000067,0.7857087500000137,0.039999969600000004,0.0399999594,-9.803600150000351,-0.003898249287058892,-0.014578747199635504,-0.00212293430993034,-0.008803859911935828,1.911028969929551e-05
0.3875,0.00034289962749192075,-0.7848856599999938,-0.0002590010424862103,-2.3567036249999704,-0.00011649245749033398,1.5708219750000068,0.7857017750000137,0.039999969,0.0399999585,-9.803421125000353,-0.003948919707809222,-0.014764631999633139,-0.002158459274929888,-0.008764689322638308,1.9469564749290934e-05
0.39,0.00034699328799186866,-0.7848887799999938,-0.0002659881099861214,-2.35671857999997,-0.00012139011799027162,1.5708186000000068,0.7856948000000138,0.0399999684,0.039999957600000004,-9.803242100000356,-0.003999590128559552,-0.014950516799630772,-0.0021939842399294356,-0.008725518733340785,1.982883979928636e-05
0.3925,0.0003510869484918165,-0.7848918999999938,-0.00027297517748603244,-2.35673353499997,-0.00012628777849020927,1.570815225000007,0.7856878250000139,0.0399999678,0.0399999567,-9.803063075000358,-0.004050260549309881,-0.015136401599628405,-0.0022295092049289832,-0.008686348144043265,2.0188114849281785e-05
0.395,0.0003551806089917644,-0.7848950199999938,-0.00027996224498594345,-2.35674848999997,-0.0001311854389901469,1.5708118500000068,0.785680850000014,0.0399999672,0.0399999558,-9.80288405000036,-0.004100930970060212,-0.015322286399626038,-0.002265034169928531,-0.008647177554745743,2.054738989927721e-05
0.3975,0.0003592742694917123,-0.7848981399999937,-0.0002869493124858545,-2.3567634449999697,-0.00013608309949008455,1.5708084750000069,0.7856738750000141,0.0399999666,0.0399999549,-9.802705025000362,-0.0041516013908105415,-0.015508171199623673,-0.002300559134928079,-0.008608006965448223,2.0906664949272635e-05
0.4,0.00036336792999166014,-0.7849012599999937,-0.0002939363799857656,-2.3567783999999694,-0.0001409807599900222,1.570805100000007,0.7856669000000142,0.039999966,0.039999954,-9.802526000000364,-0.004202271811560871,-0.015694055999621304,-0.0023360840999276265,-0.0085688363761507,2.126593999926806e-05
0.4025,0.00036789959049071013,-0.784905180999992,-0.0003016737354841385,-2.356795064999966,-0.00014640423048888193,1.5708012150000081,0.7856591750000158,0.039999966,0.039999954,-9.802344350000373,-0.0042441211872807395,-0.01587530234962845,-0.002373754484922776,-0.008522241516134229,2.1517464649484376e-05
0.405,0.0003724312509906524,-0.784909101999992,-0.00030941109098403996,-2.356811729999966,-0.0001518277009888129,1.570797330000008,0.7856514500000159,0.039999966,0.039999954,-9.802162700000375,-0.004285970562982636,-0.01605654869962614,-0.002411424869922296,-0.008475646656102632,2.1768989299481175e-05
0.40750000000000003,0.00037696291149059475,-0.7849130229999919,-0.00031714844648394146,-2.3568283949999653,-0.00015725117148874382,1.570793445000008,0.785643725000016,0.039999966,0.039999954,-9.801981050000377,-0.004327819938684533,-0.016237795049623832,-0.002449095254921817,-0.008429051796071035,2.202051394947797e-05
0.41000000000000003,0.00038149457199053704,-0.7849169439999919,-0.00032488580198384296,-2.3568450599999653,-0.00016267464198867478,1.5707895600000081,0.7856360000000161,0.039999966,0.039999954,-9.80179940000038,-0.004369669314386431,-0.016419041399621522,-0.002486765639921337,-0.008382456936039439,2.2272038599474768e-05
0.41250000000000003,0.0003860262324904794,-0.7849208649999918,-0.00033262315748374446,-2.356861724999965,-0.00016809811248860574,1.5707856750000082,0.7856282750000162,0.039999966,0.039999954,-9.801617750000382,-0.004411518690088327,-0.016600287749619216,-0.0025244360249208576,-0.008335862076007842,2.2523563249471567e-05
0.41500000000000004,0.00039055789299042166,-0.7849247859999917,-0.0003403605129836459,-2.356878389999965,-0.00017352158298853667,1.5707817900000083,0.7856205500000163,0.039999966,0.039999954,-9.801436100000384,-0.004453368065790225,-0.01678153409961691,-0.0025621064099203778,-0.008289267215976247,2.2775087899468365e-05
0.4175,0.00039524343298938223,-0.78492897199999,-0.0003483615354818652,-2.356895459999962,-0.000179129798487289,1.5707778250000088,0.7856125530000181,0.039999966199999994,0.03999995419999999,-9.80129800000011,-0.004490632750034118,-0.016959442599635888,-0.0026004528899155844,-0.008241805760294494,2.3034871349412474e-05
0.42,0.00040023673198931865,-0.78493368799999,-0.0003568898919817567,-2.3569133399999616,-0.00018510750398721289,1.5707737000000088,0.7856040120000183,0.039999966799999995,0.039999954799999994,-9.80124700000011,-0.00451872805127444,-0.01713067539963371,-0.002640151559915079,-0.008192611113295875,2.3311172399408955e-05
0.4225,0.0004052300309892551,-0.7849384039999899,-0.0003654182484816481,-2.3569312199999617,-0.00019108520948713678,1.5707695750000088,0.7855954710000184,0.039999967399999996,0.039999955399999995,-9.80119600000011,-0.004546823352514762,-0.017301908199631528,-0.0026798502299145736,-0.008143416466297257,2.3587473449405436e-05
0.425,0.0004102233299891915,-0.7849431199999899,-0.0003739466049815395,-2.3569490999999614,-0.00019706291498706066,1.570765450000009,0.7855869300000184,0.039999968,0.039999955999999996,-9.80114500000011,-0.004574918653755085,-0.01747314099962935,-0.002719548899914068,-0.008094221819298636,2.3863774499401917e-05
0.4275,0.0004152166289891279,-0.7849478359999897,-0.00038247496148143093,-2.356966979999961,-0.00020304062048698455,1.570761325000009,0.7855783890000185,0.0399999686,0.0399999566,-9.801094000000111,-0.004603013954995407,-0.017644373799627168,-0.002759247569913563,-0.008045027172300018,2.41400755493984e-05
0.43,0.00042020992798906434,-0.7849525519999897,-0.00039100331798132233,-2.3569848599999608,-0.00020901832598690844,1.570757200000009,0.7855698480000186,0.0399999692,0.0399999572,-9.801043000000112,-0.004631109256235729,-0.01781560659962499,-0.0027989462399130574,-0.0079958325253014,2.4416376599394883e-05
0.4325,0.00042520322698900076,-0.7849572679999897,-0.0003995316744812138,-2.357002739999961,-0.00021499603148683233,1.5707530750000092,0.7855613070000188,0.0399999698,0.0399999578,-9.800992000000111,-0.0046592045574760516,-0.017986839399622808,-0.002838644909912552,-0.00794663787830278,2.4692677649391364e-05
0.435,0.0004305199839877626,-0.7849625589999876,-0.00040861435397909274,-2.3570214499999573,-0.00022136211998534616,1.5707486600000102,0.7855522240000209,0.03999997,0.039999958,-9.800863500000373,-0.004703377978759512,-0.018191610199505142,-0.002879642819906971,-0.007893336285029277,2.4986923599322694e-05
0.4375,0.00043599846998754334,-0.7849681374999874,-0.00041797419497871817,-2.3570405749999566,-0.00022792239998508366,1.5707441000000104,0.7855428700000212,0.03999997,0.039999958,-9.80069625000038,-0.004755590460144382,-0.018413149999496278,-0.0029212903499053044,-0.007837981218597937,2.529014199931056e-05
0.44,0.00044147695598732413,-0.7849737159999871,-0.00042733403597834365,-2.357059699999956,-0.00023448267998482113,1.5707395400000106,0.7855335160000216,0.03999997,0.039999958,-9.800529000000386,-0.004807802941529253,-0.01863468979948741,-0.002962937879903638,-0.007782626152166598,2.5593360399298428e-05
0.4425,0.00044695544198710487,-0.7849792944999868,-0.0004366938769779691,-2.357078824999955,-0.0002410429599845586,1.5707349800000108,0.7855241620000221,0.03999997,0.039999958,-9.800361750000393,-0.0048600154229141235,-0.018856229599478545,-0.003004585409901971,-0.007727271085735258,2.5896578799286295e-05
0.445,0.00045243392798688565,-0.7849848729999866,-0.00044605371797759455,-2.3570979499999543,-0.00024760323998429605,1.570730420000011,0.7855148080000224,0.03999997,0.039999958,-9.800194500000401,-0.004912227904298994,-0.01907776939946968,-0.0030462329399003046,-0.007671916019303918,2.619979719927416e-05
0.4475,0.00045791241398666644,-0.7849904514999864,-0.00045541355897722,-2.3571170749999535,-0.00025416351998403355,1.5707258600000111,0.7855054540000228,0.03999997,0.039999958,-9.800027250000408,-0.004964440385683866,-0.019299309199460817,-0.003087880469898638,-0.007616560952872578,2.6503015599262025e-05
0.45,0.0004633908999864472,-0.7849960299999862,-0.0004647733999768454,-2.3571361999999523,-0.000260723799983771,1.5707213000000113,0.7854961000000231,0.03999997,0.039999958,-9.799860000000415,-0.005016652867068736,-0.01952084899945195,-0.003129527999896971,-0.007561205886441238,2.6806233999249892e-05
0.4525,0.0004693779249852763,-0.7850024754999841,-0.000475004914974838,-2.3571566299999493,-0.00026789484248236444,1.5707162300000124,0.7854858925000251,0.03999997105,0.0399999592,-9.799712550000363,-0.005056574824167866,-0.019727640049491447,-0.0031732959748923626,-0.007500237459466717,2.7140507949177932e-05
0.455,0.0004753649499853634,-0.7850089209999842,-0.0004852364299749868,-2.35717705999995,-0.00027506588498246883,1.5707111600000123,0.785475685000025,0.039999972099999996,0.0399999604,-9.799565100000361,-0.005096496781236593,-0.019934431099494453,-0.003217063949893,-0.00743926903247831,2.7474781899182795e-05
0.4575,0.00048135197498545054,-0.7850153664999844,-0.0004954679449751358,-2.35719748999995,-0.00028223692748257316,1.5707060900000123,0.7854654775000248,0.03999997315,0.039999961599999995,-9.799417650000358,-0.005136418738305318,-0.020141222149497463,-0.0032608319248936366,-0.007378300605489903,2.7809055849187658e-05
0.46,0.0004873389999855377,-0.7850218119999844,-0.0005056994599752846,-2.3572179199999503,-0.00028940796998267756,1.5707010200000122,0.7854552700000247,0.039999974199999996,0.0399999628,-9.799270200000356,-0.0051763406953740446,-0.020348013199500473,-0.0033045998998942738,-0.007317332178501496,2.8143329799192524e-05
0.4625,0.0004933260249856248,-0.7850282574999845,-0.0005159309749754336,-2.357238349999951,-0.0002965790124827819,1.5706959500000122,0.7854450625000245,0.03999997525,0.039999964,-9.799122750000354,-0.00521626265244277,-0.020554804249503483,-0.0033483678748949105,-0.007256363751513089,2.8477603749197387e-05
0.465,0.000499313049985712,-0.7850347029999847,-0.0005261624899755824,-2.357258779999951,-0.0003037500549828863,1.5706908800000121,0.7854348550000244,0.0399999763,0.039999965199999994,-9.79897530000035,-0.0052561846095114965,-0.020761595299506493,-0.0033921358498955477,-0.007195395324524682,2.8811877699202254e-05
0.4675,0.0005054773274844785,-0.7850414349999827,-0.0005366978749734676,-2.357279789999947,-0.0003111339714814048,1.570685675000013,0.7854243425000266,0.039999977,0.0399999657,-9.798825500000367,-0.00529545403542262,-0.02097171449948385,-0.003436585424890918,-0.007132552820416375,2.9200443648816264e-05
0.47000000000000003,0.0005119961099843955,-0.7850487399999826,-0.0005478409999733258,-2.3573019599999467,-0.0003189436359813054,1.570680200000013,0.7854132200000267,0.039999977,0.0399999648,-9.79867100000037,-0.0053334183990045815,-0.021188489999481086,-0.0034823981998903346,-0.007065962162028183,2.969759359880993e-05
0.47250000000000003,0.0005185148924843124,-0.7850560449999825,-0.0005589841249731839,-2.3573241299999466,-0.00032675330048120594,1.5706747250000133,0.7854020975000268,0.039999977,0.039999963900000005,-9.798516500000371,-0.0053713827625865435,-0.021405265499478326,-0.003528210974889751,-0.006999371503639991,3.0194743548803602e-05
0.47500000000000003,0.0005250336749842295,-0.7850633499999824,-0.0005701272499730421,-2.3573462999999464,-0.0003345629649811065,1.5706692500000132,0.785390975000027,0.039999977,0.039999963,-9.798362000000374,-0.005409347126168505,-0.021622040999475567,-0.0035740237498891676,-0.006932780845251799,3.0691893498797276e-05
0.47750000000000004,0.0005315524574841465,-0.7850706549999823,-0.0005812703749729002,-2.357368469999946,-0.0003423726294810071,1.5706637750000134,0.7853798525000271,0.039999977,0.0399999621,-9.798207500000377,-0.0054473114897504666,-0.021838816499472807,-0.0036198365248885844,-0.0068661901868636065,3.118904344879095e-05
0.48,0.0005380712399840633,-0.7850779599999822,-0.0005924134999727581,-2.3573906399999456,-0.0003501822939809075,1.5706583000000134,0.7853687300000273,0.039999977,0.0399999612,-9.798053000000378,-0.005485275853332427,-0.02205559199947004,-0.0036656492998880003,-0.006799599528475416,3.1686193398784605e-05
0.4825,0.0005445900224839804,-0.7850852649999821,-0.0006035566249726163,-2.3574128099999454,-0.00035799195848080806,1.5706528250000136,0.7853576075000274,0.039999977,0.039999960300000005,-9.79789850000038,-0.005523240216914389,-0.02227236749946728,-0.003711462074887417,-0.006733008870087224,3.2183343348778276e-05
0.485,0.0005514786249825271,-0.7850931959999797,-0.000615333809970125,-2.357436079999941,-0.00036624586897906255,1.5706471000000144,0.7853458500000299,0.039999977,0.03999996,-9.797800300000175,-0.005552794132319053,-0.02248930539946392,-0.003758643269881763,-0.006663716631184602,3.26203753989947e-05
0.4875,0.000558552137482437,-0.7851014399999796,-0.000627428024969971,-2.3574598999999408,-0.00037472190247895464,1.5706412500000144,0.78533377500003,0.039999977,0.03999996,-9.797730250000175,-0.005578142823588486,-0.022706324499461156,-0.0038065086748811537,-0.006593073602009801,3.302734849898952e-05
0.49,0.000565625649982347,-0.7851096839999795,-0.000639522239969817,-2.3574837199999403,-0.0003831979359788467,1.5706354000000147,0.7853217000000302,0.039999977,0.03999996,-9.797660200000175,-0.005603491514857918,-0.022923343599458395,-0.0038543740798805443,-0.006522430572835001,3.343432159898434e-05
0.4925,0.0005726991624822569,-0.7851179279999794,-0.000651616454969663,-2.3575075399999403,-0.0003916739694787388,1.5706295500000147,0.7853096250000303,0.039999977,0.03999996,-9.797590150000177,-0.005628840206127351,-0.023140362699455633,-0.003902239484879935,-0.0064517875436602,3.384129469897916e-05
0.495,0.0005797726749821668,-0.7851261719999792,-0.000663710669969509,-2.35753135999994,-0.0004001500029786309,1.5706237000000147,0.7852975500000304,0.039999977,0.03999996,-9.797520100000177,-0.005654188897396783,-0.02335738179945287,-0.003950104889879326,-0.0063811445144854,3.424826779897398e-05
0.4975,0.0005868461874820768,-0.7851344159999791,-0.0006758048849693551,-2.3575551799999395,-0.000408626036478523,1.5706178500000147,0.7852854750000307,0.039999977,0.03999996,-9.797450050000178,-0.005679537588666215,-0.023574400899450107,-0.003997970294878716,-0.006310501485310599,3.4655240898968795e-05
0.5,0.0005939196999819867,-0.785142659999979,-0.0006878990999692011,-2.357578999999939,-0.0004171020699784151,1.5706120000000148,0.7852734000000308,0.039999977,0.03999996,-9.797380000000178,-0.005704886279935648,-0.023791419999447342,-0.004045835699878107,-0.0062398584561357984,3.5062213998963614e-05
0.5025000000000001,0.0006015706899804188,-0.7851518309999765,-0.0007009836149665129,-2.357604454999935,-0.00042627189397653173,1.5706056400000161,0.7852603350000334,0.039999977449999995,0.0399999609,-9.797227000000392,-0.005757237970695017,-0.024049266249340097,-0.004095638099872541,-0.0061640979258419035,3.551188039884917e-05
0.505,0.0006092216799803212,-0.7851610019999764,-0.000714068129966346,-2.3576299099999343,-0.00043544171797641477,1.5705992800000164,0.7852472700000336,0.0399999779,0.0399999618,-9.797074000000395,-0.005809589661523149,-0.024307112499336807,-0.004145440499871906,-0.00608833739553498,3.596154679884344e-05
0.5075000000000001,0.000616872669980224,-0.7851701729999763,-0.0007271526449661796,-2.357655364999934,-0.00044461154197629823,1.5705929200000164,0.7852342050000338,0.03999997835,0.039999962699999995,-9.796921000000395,-0.005861941352351283,-0.02456495874933353,-0.004195242899871273,-0.006012576865228053,3.641121319883772e-05
0.51,0.0006245236599801264,-0.7851793439999761,-0.0007402371599660128,-2.357680819999934,-0.00045378136597618127,1.5705865600000164,0.785221140000034,0.039999978799999995,0.039999963599999994,-9.796768000000398,-0.005914293043179416,-0.02482280499933024,-0.004245045299870638,-0.005936816334921128,3.6860879598831986e-05
0.5125,0.0006321746499800289,-0.7851885149999761,-0.000753321674965846,-2.357706274999934,-0.0004629511899760643,1.5705802000000166,0.7852080750000341,0.03999997925,0.0399999645,-9.796615000000399,-0.005966644734007548,-0.025080651249326954,-0.004294847699870002,-0.005861055804614205,3.731054599882625e-05
0.515,0.0006398256399799316,-0.785197685999976,-0.0007664061899656797,-2.357731729999933,-0.0004721210139759478,1.5705738400000167,0.7851950100000342,0.039999979699999993,0.0399999654,-9.796462000000401,-0.006018996424835683,-0.025338497499323678,-0.00434465009986937,-0.005785295274307278,3.7760212398820534e-05
0.5175,0.0006476766224782527,-0.7852071624999735,-0.0007798336849628007,-2.357757814999928,-0.00048153113097393075,1.5705673050000182,0.7851816025000371,0.03999998,0.039999966,-9.796316350000344,-0.0060660901944120105,-0.02559514839932984,-0.004395128664863388,-0.005707854847636612,3.8226074498686736e-05
0.52,0.0006559275899781478,-0.7852172499999733,-0.0007939471399626214,-2.3577851599999278,-0.0004914218339738051,1.5705604200000183,0.7851675100000374,0.03999998,0.039999966,-9.796185400000347,-0.006102668121360205,-0.025849408599326607,-0.004446959559862729,-0.005627054628198675,3.8724327998680405e-05
0.5225,0.0006641785574780425,-0.7852273374999732,-0.0008080605949624414,-2.3578125049999272,-0.0005013125369736789,1.5705535350000184,0.7851534175000375,0.03999998,0.039999966,-9.796054450000348,-0.006139246048308399,-0.026103668799323364,-0.004498790454862068,-0.00554625440876074,3.922258149867405e-05
0.525,0.0006724295249779377,-0.7852374249999731,-0.0008221740499622619,-2.357839849999927,-0.0005112032399735532,1.5705466500000185,0.7851393250000377,0.03999998,0.039999966,-9.79592350000035,-0.006175823975256594,-0.026357928999320133,-0.004550621349861409,-0.005465454189322802,3.9720834998667715e-05
0.5275,0.0006806804924778325,-0.7852475124999729,-0.0008362875049620819,-2.3578671949999266,-0.000521093942973427,1.5705397650000186,0.7851252325000379,0.03999998,0.039999966,-9.795792550000352,-0.006212401902204788,-0.02661218919931689,-0.004602452244860748,-0.005384653969884868,4.0219088498661364e-05
0.53,0.0006889314599777276,-0.7852575999999728,-0.0008504009599619026,-2.3578945399999265,-0.0005309846459733013,1.5705328800000187,0.785111140000038,0.03999998,0.039999966,-9.795661600000352,-0.006248979829152983,-0.02686644939931366,-0.004654283139860089,-0.00530385375044693,4.071734199865503e-05
0.5325,0.0006971824274776224,-0.7852676874999727,-0.0008645144149617226,-2.357921884999926,-0.0005408753489731751,1.5705259950000188,0.7850970475000382,0.03999998,0.039999966,-9.795530650000355,-0.006285557756101176,-0.027120709599310414,-0.004706114034859429,-0.0052230535310089955,4.1215595498648674e-05
0.535,0.0007058481949758222,-0.7852784249999698,-0.0008793393549586352,-2.35795059999992,-0.0005512644279710125,1.5705187400000205,0.7850822450000413,0.0399999797,0.0399999652,-9.795414500000296,-0.006322056474064725,-0.027385345399264776,-0.004759248099853443,-0.0051395721270219566,4.183507299814687e-05
0.5375,0.0007147213624757089,-0.7852894874999696,-0.0008945200374584416,-2.3579799999999196,-0.0005619026949708768,1.5705113000000204,0.7850670875000415,0.03999997925,0.039999964,-9.795305750000297,-0.006358515587535465,-0.027655168999261334,-0.0048130337498527576,-0.005054750130743983,4.25151624981382e-05
0.54,0.0007235945299755962,-0.7853005499999696,-0.0009097007199582487,-2.3580093999999194,-0.0005725409619707416,1.5705038600000205,0.7850519300000417,0.0399999788,0.039999962800000004,-9.795197000000298,-0.0063949747010062065,-0.027924992599257903,-0.004866819399852074,-0.004969928134466006,4.319525199812955e-05
0.5425,0.0007324676974754831,-0.7853116124999694,-0.0009248814024580551,-2.358038799999919,-0.0005831792289706059,1.5704964200000207,0.7850367725000419,0.03999997835,0.0399999616,-9.795088250000301,-0.006431433814476946,-0.028194816199254465,-0.0049206050498513875,-0.004885106138188032,4.3875341498120874e-05
0.545,0.0007413408649753702,-0.7853226749999692,-0.0009400620849578621,-2.3580681999999187,-0.0005938174959704707,1.5704889800000206,0.7850216150000421,0.0399999779,0.039999960400000006,-9.794979500000302,-0.006467892927947689,-0.028464639799251033,-0.004974390699850704,-0.004800284141910056,4.4555430998112236e-05
0.5475,0.0007502140324752571,-0.7853337374999692,-0.0009552427674576684,-2.358097599999918,-0.0006044557629703351,1.5704815400000207,0.7850064575000423,0.03999997745,0.039999959200000004,-9.794870750000303,-0.006504352041418428,-0.02873446339924759,-0.0050281763498500175,-0.004715462145632082,4.523552049810356e-05
0.55,0.0007590871999751443,-0.785344799999969,-0.0009704234499574756,-2.358126999999918,-0.0006150940299701999,1.5704741000000209,0.7849913000000424,0.039999977,0.039999958,-9.794762000000304,-0.00654081115488917,-0.029004286999244164,-0.005081961999849334,-0.004630640149354106,4.591560999809491e-05
0.5525,0.0007686045499732184,-0.785356844999966,-0.0009867090474541726,-2.3581581699999123,-0.000626506370467886,1.5704661200000225,0.7849750400000457,0.039999977449999995,0.0399999583,-9.79471940000012,-0.00656058734742939,-0.02926955194925355,-0.00513767304984323,-0.004542872053818007,4.6525463948283884e-05
0.555,0.0007781218999730975,-0.7853688899999659,-0.0010029946449539658,-2.358189339999912,-0.0006379187109677409,1.5704581400000226,0.7849587800000459,0.0399999779,0.0399999586,-9.79467680000012,-0.006580363539922879,-0.02953481689925018,-0.005193384099842522,-0.004455103958273653,4.713531789827613e-05
0.5575,0.000787639249972976,-0.7853809349999658,-0.001019280242453758,-2.358220509999912,-0.0006493310514675953,1.5704501600000227,0.7849425200000462,0.03999997835,0.0399999589,-9.794634200000122,-0.006600139732416367,-0.029800081849246794,-0.005249095149841811,-0.004367335862729303,4.7745171848268354e-05
0.56,0.0007971565999728551,-0.7853929799999656,-0.001035565839953551,-2.358251679999911,-0.0006607433919674503,1.5704421800000228,0.7849262600000464,0.039999978799999995,0.0399999592,-9.794591600000121,-0.006619915924909855,-0.030065346799243425,-0.005304806199841103,-0.004279567767184948,4.83550257982606e-05
0.5625,0.0008066739499727337,-0.7854050249999655,-0.0010518514374533432,-2.358282849999911,-0.0006721557324673047,1.5704342000000229,0.7849100000000466,0.03999997925,0.0399999595,-9.794549000000123,-0.006639692117403343,-0.03033061174924004,-0.005360517249840393,-0.004191799671640598,4.8964879748252824e-05
0.5650000000000001,0.0008161912999726127,-0.7854170699999653,-0.0010681370349531363,-2.3583140199999106,-0.0006835680729671597,1.570426220000023,0.7848937400000469,0.039999979699999993,0.0399999598,-9.794506400000122,-0.006659468309896831,-0.03059587669923667,-0.005416228299839685,-0.004104031576096243,4.957473369824507e-05
0.5675,0.0008259305549705671,-0.7854294524999622,-0.0010848033599496272,-2.358345884999904,-0.0006952471269647014,1.5704180550000246,0.7848771050000503,0.03999998,0.03999996,-9.79441690000053,-0.006689470307755605,-0.03087804099908675,-0.005472583469833389,-0.004014428705246612,5.0206273248049255e-05
0.5700000000000001,0.0008361136199704377,-0.7854425099999621,-0.0011022311399494058,-2.3583791399999035,-0.0007074596079645462,1.5704095200000248,0.7848597200000506,0.03999998,0.03999996,-9.794233600000531,-0.006739923916610569,-0.031194003999082735,-0.0055302268798326564,-0.003921156283738758,5.088118399804068e-05
0.5725,0.0008462966849703079,-0.7854555674999619,-0.0011196589199491836,-2.3584123949999034,-0.0007196720889643904,1.570400985000025,0.7848423350000507,0.03999998,0.03999996,-9.794050300000535,-0.006790377525465531,-0.0315099669990787,-0.005587870289831921,-0.003827883862230907,5.1556094748032065e-05
0.5750000000000001,0.0008564797499701785,-0.7854686249999617,-0.001137086699948962,-2.358445649999903,-0.0007318845699642352,1.570392450000025,0.7848249500000509,0.03999998,0.03999996,-9.793867000000537,-0.006840831134320494,-0.03182592999907469,-0.005645513699831188,-0.0037346114407230528,5.2231005498023486e-05
0.5775,0.0008666628149700485,-0.7854816824999615,-0.0011545144799487398,-2.3584789049999024,-0.0007440970509640794,1.5703839150000252,0.7848075650000511,0.03999998,0.03999996,-9.793683700000539,-0.006891284743175455,-0.03214189299907066,-0.005703157109830453,-0.0036413390192152023,5.290591624801488e-05
0.58,0.0008768458799699187,-0.7854947399999614,-0.0011719422599485174,-2.358512159999902,-0.0007563095319639237,1.5703753800000253,0.7847901800000514,0.03999998,0.03999996,-9.793500400000541,-0.006941738352030417,-0.03245785599906663,-0.005760800519829718,-0.003548066597707352,5.3580826998006275e-05
0.5825,0.0008870289449697893,-0.7855077974999612,-0.001189370039948296,-2.3585454149999014,-0.0007685220129637685,1.5703668450000254,0.7847727950000516,0.03999998,0.03999996,-9.793317100000543,-0.006992191960885381,-0.032773818999062614,-0.005818443929828986,-0.0034547941761994974,5.42557377479977e-05
0.585,0.00089767004996781,-0.7855215499999583,-0.0012075836699449,-2.358580149999895,-0.0007812849059613899,1.570357940000027,0.784754630000055,0.03999998,0.039999959800000005,-9.793192300000282,-0.00703058340577132,-0.03308941739906595,-0.00587741301982341,-0.0033590223643075725,5.506395519740922e-05
0.5875,0.0009085401749679684,-0.7855356499999584,-0.001226190224945171,-2.3586156249998957,-0.00079432300496158,1.5703488500000269,0.7847360750000547,0.03999998,0.0399999595,-9.79309675000028,-0.0070629437685921165,-0.03340483349907055,-0.005937044949824279,-0.0032620008572068985,5.593882599742197e-05
0.59,0.0009194102999681264,-0.7855497499999586,-0.0012447967799454414,-2.358651099999896,-0.0008073611039617694,1.5703397600000266,0.7847175200000545,0.03999998,0.039999959200000004,-9.79300120000028,-0.007095304131412912,-0.03372024959907513,-0.005996676879825146,-0.003164979350106229,5.681369679743468e-05
0.5925,0.0009302804249682849,-0.7855638499999589,-0.0012634033349457126,-2.3586865749998966,-0.0008203992029619594,1.5703306700000266,0.7846989650000542,0.03999998,0.0399999589,-9.792905650000279,-0.007127664494233709,-0.03403566569907973,-0.006056308809826015,-0.0030679578430055547,5.768856759744744e-05
0.595,0.0009411505499684427,-0.785577949999959,-0.001282009889945983,-2.358722049999897,-0.0008334373019621489,1.5703215800000265,0.7846804100000538,0.03999998,0.0399999586,-9.792810100000278,-0.007160024857054504,-0.03435108179908431,-0.0061159407398268814,-0.002970936335904885,5.856343839746015e-05
0.5975,0.0009520206749686012,-0.7855920499999592,-0.0013006164449462542,-2.3587575249998975,-0.0008464754009623388,1.5703124900000263,0.7846618550000536,0.03999998,0.039999958300000006,-9.792714550000277,-0.007192385219875301,-0.03466649789908891,-0.00617557266982775,-0.002873914828804211,5.94383091974729e-05
0.6,0.0009628907999687592,-0.7856061499999595,-0.0013192229999465246,-2.3587929999998978,-0.0008595134999625283,1.5703034000000262,0.7846433000000533,0.03999998,0.039999958,-9.792619000000276,-0.0072247455826960965,-0.03498191399909349,-0.006235204599828617,-0.0027768933217035413,6.0313179997485616e-05
0.6025,0.0009744689549662613,-0.7856212774999559,-0.0013390444949422401,-2.3588306199998903,-0.0008734026899595268,1.570293740000028,0.7846235225000576,0.0399999806,0.0399999583,-9.792524950000274,-0.007259062281709676,-0.03531182564903864,-0.006296751759820651,-0.0026762039287155596,6.11379579975966e-05
0.605,0.0009860471099657976,-0.7856364049999554,-0.0013588659899414464,-2.3588682399998886,-0.0008872918799589707,1.5702840800000286,0.7846037450000585,0.0399999812,0.0399999586,-9.792430900000278,-0.007293378980728877,-0.03564173729902543,-0.006358298919818187,-0.002575514535717041,6.196273599756357e-05
0.6075,0.0009976252649653346,-0.7856515324999547,-0.0013786874849406536,-2.3589058599998873,-0.0009011810699584152,1.570274420000029,0.7845839675000592,0.0399999818,0.0399999589,-9.792336850000282,-0.007327695679748079,-0.03597164894901223,-0.006419846079815725,-0.0024748251427185184,6.278751399753058e-05
0.61,0.001009203419964871,-0.7856666599999541,-0.00139850897993986,-2.3589434799998856,-0.0009150702599578591,1.5702647600000292,0.7845641900000601,0.0399999824,0.0399999592,-9.792242800000286,-0.007362012378767281,-0.03630156059899902,-0.006481393239813261,-0.0023741357497199995,6.361229199749757e-05
0.6125,0.0010207815749644078,-0.7856817874999535,-0.0014183304749390672,-2.3589810999998844,-0.0009289594499573037,1.5702551000000295,0.7845444125000608,0.039999982999999996,0.0399999595,-9.79214875000029,-0.007396329077786483,-0.03663147224898583,-0.0065429403998108,-0.0022734463567214767,6.443706999746458e-05
0.615,0.0010323597299639444,-0.785696914999953,-0.0014381519699382737,-2.3590187199998827,-0.0009428486399567476,1.57024544000003,0.7845246350000616,0.0399999836,0.0399999598,-9.792054700000293,-0.007430645776805684,-0.03696138389897262,-0.006604487559808335,-0.0021727569637229583,6.526184799743155e-05
0.6175,0.0010441807799612948,-0.785712402999949,-0.0014583902449337288,-2.359057119999874,-0.0009570297899535637,1.5702355800000323,0.7845044425000661,0.039999984,0.03999996,-9.791971050000198,-0.007457691454289256,-0.03729115399896376,-0.006666636399800757,-0.0020707767110811587,6.61146029971421e-05
0.62,0.0010564876199611378,-0.7857286119999488,-0.00147946207993346,-2.3590970799998736,-0.0009717948599533753,1.5702253200000325,0.7844834200000664,0.039999984,0.03999996,-9.791908200000199,-0.007470195088496037,-0.03762064099895956,-0.0067299885997999485,-0.0019662147391163224,6.702331199713051e-05
0.6225,0.0010687944599609815,-0.7857448209999487,-0.0015005339149331922,-2.3591370399998732,-0.0009865599299531877,1.5702150600000324,0.7844623975000666,0.039999984,0.03999996,-9.7918453500002,-0.007482698722702817,-0.03795012799895537,-0.006793340799799144,-0.0018616527671514813,6.793202099711896e-05
0.625,0.0010811012999608245,-0.7857610299999485,-0.0015216057499329236,-2.359176999999873,-0.0010013249999529994,1.5702048000000326,0.7844413750000669,0.039999984,0.03999996,-9.7917825000002,-0.007495202356909598,-0.03827961499895117,-0.0068566929997983354,-0.001757090795186645,6.884072999710737e-05
0.6275000000000001,0.001093408139960668,-0.7857772389999482,-0.0015426775849326556,-2.359216959999872,-0.0010160900699528116,1.5701945400000328,0.7844203525000671,0.039999984,0.03999996,-9.7917196500002,-0.007507705991116379,-0.03860910199894698,-0.006920045199797531,-0.001652528823221804,6.974943899709582e-05
0.63,0.001105714979960511,-0.785793447999948,-0.001563749419932387,-2.3592569199998716,-0.0010308551399526233,1.570184280000033,0.7843993300000675,0.039999984,0.03999996,-9.791656800000201,-0.0075202096253231595,-0.03893858899894277,-0.006983397399796722,-0.0015479668512569675,7.065814799708423e-05
0.6325000000000001,0.0011180218199603547,-0.7858096569999478,-0.001584821254932119,-2.3592968799998713,-0.0010456202099524358,1.570174020000033,0.7843783075000678,0.039999984,0.03999996,-9.791593950000202,-0.007532713259529941,-0.039268075998938584,-0.0070467495997959175,-0.0014434048792921264,7.156685699707268e-05
0.635,0.0011308279099577756,-0.785826598999944,-0.0016067497899276942,-2.3593383499998635,-0.0010609853099493366,1.5701633400000352,0.7843564360000721,0.039999984,0.039999959800000005,-9.791482900000437,-0.007568926317461761,-0.03963413649875696,-0.007111341469789095,-0.001336360012996935,7.262394699634126e-05
0.6375000000000001,0.0011438836249576098,-0.7858439074999438,-0.0016291066749274101,-2.359380574999863,-0.0010766504249491375,1.5701524500000352,0.7843341400000724,0.039999984,0.0399999595,-9.791347750000439,-0.00761699408742818,-0.040018483748752075,-0.007176553174788266,-0.0012280736995185415,7.375522749632689e-05
0.64,0.0011569393399574433,-0.7858612159999435,-0.001651463559927125,-2.3594227999998623,-0.0010923155399489377,1.5701415600000355,0.7843118440000727,0.039999984,0.039999959200000004,-9.79121260000044,-0.007665061857394597,-0.04040283099874717,-0.007241764879787434,-0.0011197873860401527,7.488650799631246e-05
0.6425,0.0011699950549572769,-0.7858785244999433,-0.0016738204449268399,-2.359465024999862,-0.0011079806549487378,1.5701306700000357,0.7842895480000729,0.039999984,0.0399999589,-9.791077450000442,-0.007713129627361015,-0.04078717824874227,-0.007306976584786603,-0.0010115010725617636,7.601778849629803e-05
0.645,0.0011830507699571108,-0.7858958329999431,-0.0016961773299265558,-2.3595072499998615,-0.0011236457699485387,1.5701197800000357,0.7842672520000732,0.039999984,0.0399999586,-9.790942300000445,-0.007761197397327434,-0.041171525498737385,-0.0073721882897857735,-0.00090321475908337,7.714906899628365e-05
0.6475,0.0011961064849569443,-0.7859131414999428,-0.0017185342149262707,-2.3595494749998607,-0.001139310884948339,1.570108890000036,0.7842449560000735,0.039999984,0.039999958300000006,-9.790807150000447,-0.007809265167293851,-0.041555872748732486,-0.007437399994784942,-0.0007949284456049812,7.828034949626922e-05
0.65,0.0012091621999567783,-0.7859304499999427,-0.0017408910999259864,-2.3595916999998603,-0.0011549759999481398,1.570098000000036,0.7842226600000738,0.039999984,0.039999958,-9.790672000000448,-0.00785733293726027,-0.0419402199987276,-0.007502611699784114,-0.0006866421321265875,7.941162999625485e-05
0.6525,0.0012229866199540572,-0.7859488774999387,-0.0017645673999213164,-2.3596362949998517,-0.0011715653399448685,1.5700864950000382,0.7841990410000784,0.0399999846,0.0399999583,-9.790565650000355,-0.007887060334807168,-0.04232351874872618,-0.007569654094777198,-0.0005744131045594474,8.051565549633099e-05
0.655,0.0012368110399538816,-0.7859673049999385,-0.0017882436999210156,-2.359680889999851,-0.0011881546799446577,1.5700749900000384,0.7841754220000787,0.0399999852,0.0399999586,-9.790459300000355,-0.007916787732293349,-0.04270681749872131,-0.0076366964897763455,-0.00046218407697924994,8.161968099631696e-05
0.6575,0.0012506354599537053,-0.7859857324999382,-0.0018119199999207134,-2.3597254849998506,-0.0012047440199444463,1.5700634850000386,0.784151803000079,0.0399999858,0.0399999589,-9.790352950000356,-0.00794651512977953,-0.04309011624871642,-0.007703738884775491,-0.0003499550493990574,8.272370649630288e-05
0.66,0.0012644598799535296,-0.786004159999938,-0.0018355962999204126,-2.35977007999985,-0.0012213333599442352,1.5700519800000388,0.7841281840000794,0.0399999864,0.0399999592,-9.790246600000359,-0.007976242527265712,-0.043473414998711546,-0.007770781279774638,-0.00023772602181885988,8.382773199628884e-05
0.6625,0.0012782842999533531,-0.7860225874999378,-0.0018592725999201107,-2.3598146749998494,-0.0012379226999440238,1.570040475000039,0.7841045650000797,0.039999987,0.0399999595,-9.79014025000036,-0.008005969924751893,-0.04385671374870666,-0.007837823674773784,-0.0001254969942386673,8.493175749627476e-05
0.665,0.0012921087199531775,-0.7860410149999375,-0.0018829488999198096,-2.359859269999849,-0.001254512039943813,1.570028970000039,0.78408094600008,0.0399999876,0.0399999598,-9.79003390000036,-0.008035697322238076,-0.04424001249870178,-0.007904866069772932,-1.3267966658469816e-05,8.603578299626072e-05
0.6675,0.0013061958999501884,-0.7860598264999332,-0.0019070761699146806,-2.359904734999839,-0.0012714172949402198,1.5700172400000416,0.7840568750000851,0.039999988,0.03999996,-9.789945700000176,-0.008058286271960946,-0.04462247384870197,-0.007972495699765462,0.00010016383054411448,8.717605349586595e-05
0.67,0.001320808599949604,-0.7860794059999324,-0.0019321053799136794,-2.359951939999837,-0.0012889543799395184,1.5700050600000421,0.7840319000000862,0.039999988,0.03999996,-9.78989380000018,-0.008066598325939053,-0.04500326039868675,-0.00804129979976271,0.00021600116702824264,8.838881399581744e-05
0.6725,0.0013354212999490188,-0.7860989854999316,-0.0019571345899126774,-2.3599991449998354,-0.0013064914649388163,1.5699928800000424,0.7840069250000872,0.039999988,0.03999996,-9.789841900000182,-0.008074910379917161,-0.0453840469486715,-0.008110103899759954,0.0003318385035123657,8.960157449576888e-05
0.675,0.0013500339999484344,-0.7861185649999309,-0.0019821637999116763,-2.360046349999833,-0.001324028549938115,1.569980700000043,0.7839819500000881,0.039999988,0.03999996,-9.789790000000183,-0.008083222433895268,-0.04576483349865627,-0.008178907999757203,0.00044767583999649383,9.081433499572039e-05
0.6775,0.0013646466999478494,-0.7861381444999301,-0.0020071930099106743,-2.3600935549998314,-0.0013415656349374126,1.5699685200000435,0.7839569750000891,0.039999988,0.03999996,-9.789738100000186,-0.008091534487873376,-0.04614562004864102,-0.008247712099754449,0.0005635131764806169,9.202709549567183e-05
0.68,0.0013792593999472648,-0.7861577239999293,-0.002032222219909673,-2.3601407599998296,-0.0013591027199367112,1.569956340000044,0.7839320000000901,0.039999988,0.03999996,-9.789686200000187,-0.008099846541851483,-0.046526406598625794,-0.008316516199751696,0.000679350512964745,9.323985599562332e-05
0.6825,0.0013938720999466798,-0.7861773034999285,-0.002057251429908671,-2.360187964999828,-0.0013766398049360092,1.5699441600000443,0.7839070250000911,0.039999988,0.03999996,-9.78963430000019,-0.008108158595829591,-0.04690719314861055,-0.008385320299748941,0.0007951878494488681,9.445261649557476e-05
0.685,0.001409023039943678,-0.7861976669999242,-0.002083204579903519,-2.3602368399998186,-0.0013948239599324006,1.5699315400000469,0.7838811360000962,0.039999988,0.039999959800000005,-9.789536500000441,-0.008141413796525982,-0.04732761679839201,-0.008455308199742207,0.0009129459965362794,9.583017559466748e-05
0.6875,0.0014244430999439022,-0.7862184224999245,-0.0021096196999039023,-2.3602865499998193,-0.0014133316499326694,1.5699187000000467,0.7838547900000958,0.039999988,0.0399999595,-9.789415750000439,-0.008187140570787047,-0.04776785899839841,-0.008525887999743232,0.0010316645489411543,9.72901339946887e-05
0.6900000000000001,0.001439863159944127,-0.7862391779999248,-0.0021360348199042875,-2.3603362599998197,-0.0014318393399329393,1.5699058600000464,0.7838284440000954,0.039999988,0.039999959200000004,-9.789295000000438,-0.008232867345048113,-0.048208101198404824,-0.00859646779974426,0.0011503831013460347,9.875009239470998e-05
0.6925,0.001455283219944351,-0.7862599334999251,-0.0021624499399046713,-2.3603859699998204,-0.001450347029933208,1.5698930200000463,0.783802098000095,0.039999988,0.0399999589,-9.789174250000436,-0.008278594119309177,-0.04864834339841122,-0.008667047599745287,0.0012691016537509097,0.00010021005079473119
0.6950000000000001,0.0014707032799445758,-0.7862806889999254,-0.002188865059905056,-2.360435679999821,-0.0014688547199334778,1.5698801800000461,0.7837757520000947,0.039999988,0.0399999586,-9.789053500000435,-0.008324320893570245,-0.04908858559841764,-0.008737627399746315,0.00138782020615579,0.00010167000919475247
0.6975,0.0014861233399447997,-0.7863014444999257,-0.00221528017990544,-2.360485389999822,-0.0014873624099337468,1.5698673400000458,0.7837494060000944,0.039999988,0.039999958300000006,-9.788932750000432,-0.00837004766783131,-0.04952882779842403,-0.008808207199747342,0.0015065387585606652,0.00010312996759477368
0.7000000000000001,0.0015015433999450245,-0.7863221999999259,-0.0022416952999058247,-2.3605350999998227,-0.0015058700999340164,1.5698545000000457,0.783723060000094,0.039999988,0.039999958,-9.78881200000043,-0.008415774442092376,-0.04996906999843045,-0.00887878699974837,0.0016252573109655454,0.00010458992599479496
0.7025,0.001517789614941872,-0.7863441149999215,-0.002269528564900414,-2.360587359999813,-0.0015253710899302264,1.5698409850000483,0.7836953070000994,0.0399999883,0.0399999583,-9.788712850000355,-0.008441165042950168,-0.050408887998426355,-0.008951160049741053,0.0017476348784098395,0.00010604892259477979
0.705,0.0015340358299416647,-0.7863660299999213,-0.0022973618299000588,-2.3606396199998123,-0.0015448720799299777,1.5698274700000485,0.7836675540000997,0.0399999886,0.0399999586,-9.788613700000356,-0.00846655564373546,-0.05084870599842074,-0.00902353309974013,0.0018700124458671788,0.00010750791919476117
0.7075,0.0015502820449414582,-0.786387944999921,-0.0023251950948997052,-2.360691879999812,-0.00156437306992973,1.5698139550000487,0.7836398010001,0.0399999889,0.0399999589,-9.788514550000357,-0.008491946244520753,-0.05128852399841515,-0.00909590614973921,0.0019923900133245235,0.00010896691579474264
0.71,0.001566528259941251,-0.7864098599999207,-0.00235302835989935,-2.360744139999811,-0.0015838740599294812,1.569800440000049,0.7836120480001004,0.039999989199999995,0.0399999592,-9.788415400000359,-0.008517336845306044,-0.05172834199840955,-0.009168279199738286,0.0021147675807818627,0.00011042591239472402
0.7125,0.0015827744749410445,-0.7864317749999205,-0.0023808616248989964,-2.3607963999998103,-0.0016033750499292335,1.569786925000049,0.7835842950001007,0.0399999895,0.0399999595,-9.78831625000036,-0.008542727446091336,-0.052168159998403955,-0.009240652249737366,0.002237145148239207,0.00011188490899470548
0.715,0.0015990206899408374,-0.7864536899999202,-0.0024086948898986416,-2.3608486599998098,-0.0016228760399289847,1.569773410000049,0.7835565420001012,0.039999989799999996,0.0399999598,-9.78821710000036,-0.008568118046876627,-0.05260797799839834,-0.009313025299736443,0.0023595227156965465,0.00011334390559468687
0.7175,0.001615548374937545,-0.7864760199999153,-0.0024370113448929907,-2.360901824999799,-0.0016427154899250264,1.5697596600000518,0.7835283030001068,0.03999999,0.03999996,-9.788121550000323,-0.008593000378372398,-0.053055336148310095,-0.009385985999729082,0.0024829974509839527,0.00011484823249417137
0.72,0.001632638999937327,-0.786499179999915,-0.0024662941798926172,-2.3609567999997982,-0.0016632318599247647,1.5697454400000521,0.7834990920001071,0.03999999,0.03999996,-9.788033200000323,-0.008616866171272422,-0.053517774598304195,-0.009460121999728136,0.00260866652196752,0.00011644321999415103
0.7225,0.0016497296249371098,-0.7865223399999148,-0.002495577014892245,-2.3610117749997976,-0.0016837482299245038,1.5697312200000524,0.7834698810001075,0.03999999,0.03999996,-9.787944850000324,-0.008640731964172449,-0.053980213048298316,-0.009534257999727194,0.002734335592951093,0.00011803820749413075
0.725,0.001666820249936892,-0.7865454999999145,-0.0025248598498918717,-2.361066749999797,-0.0017042645999242423,1.5697170000000524,0.7834406700001079,0.03999999,0.03999996,-9.787856500000325,-0.008664597757072474,-0.05444265149829242,-0.009608393999726248,0.00286000466393466,0.00011963319499411042
0.7275,0.0016839108749366748,-0.7865686599999142,-0.0025541426848914995,-2.3611217249997964,-0.0017247809699239814,1.5697027800000527,0.7834114590001082,0.03999999,0.03999996,-9.787768150000327,-0.0086884635499725,-0.054905089948286544,-0.009682529999725305,0.0029856737349182325,0.00012122818249409014
0.73,0.0017010014999364568,-0.7865918199999139,-0.002583425519891126,-2.361176699999796,-0.0017452973399237196,1.569688560000053,0.7833822480001086,0.03999999,0.03999996,-9.787679800000328,-0.008712329342872527,-0.055367528398280644,-0.00975666599972436,0.0031113428059017997,0.0001228231699940698
0.7325,0.0017180921249362396,-0.7866149799999136,-0.002612708354890754,-2.361231674999795,-0.001765813709923459,1.5696743400000532,0.7833530370001089,0.03999999,0.03999996,-9.78759145000033,-0.008736195135772553,-0.055829966848274765,-0.009830801999723417,0.0032370118768853726,0.0001244181574940495
0.735,0.0017357576299327935,-0.7866389599999087,-0.002642978209884838,-2.3612884299997843,-0.001787021279919316,1.569659650000056,0.7833228450001148,0.03999999,0.039999959800000005,-9.78753680000014,-0.008744508773086397,-0.0562874126982969,-0.009906016999716414,0.003364810975717379,0.00012619712699299607
0.7375,0.0017537105749325652,-0.7866633499999084,-0.0026737415748844468,-2.3613460749997834,-0.001808574449919042,1.569644725000056,0.7832921625001152,0.03999999,0.0399999595,-9.78749900000014,-0.008745046332476455,-0.05674236224829112,-0.00998177149971545,0.0034936750884915113,0.0001280680874929723
0.74,0.0017716635199323363,-0.786687739999908,-0.0027045049398840546,-2.3614037199997826,-0.0018301276199187671,1.5696298000000564,0.7832614800001156,0.03999999,0.039999959200000004,-9.787461200000141,-0.008745583891866514,-0.05719731179828532,-0.010057525999714484,0.0036225392012656375,0.00012993904799294843
0.7425,0.001789616464932108,-0.7867121299999078,-0.002735268304883664,-2.361461364999782,-0.0018516807899184931,1.5696148750000565,0.783230797500116,0.03999999,0.0399999589,-9.787423400000142,-0.008746121451256571,-0.057652261348279533,-0.010133280499713522,0.00375140331403977,0.00013181000849292465
0.745,0.001807569409931879,-0.7867365199999075,-0.002766031669883271,-2.3615190099997814,-0.0018732339599182182,1.5695999500000566,0.7832001150001164,0.03999999,0.0399999586,-9.787385600000142,-0.00874665901064663,-0.05810721089827373,-0.010209034999712555,0.0038802674268138965,0.0001336809689929008
0.7475,0.001825522354931651,-0.7867609099999071,-0.0027967950348828804,-2.3615766549997805,-0.0018947871299179444,1.569585025000057,0.7831694325001168,0.03999999,0.039999958300000006,-9.787347800000143,-0.008747196570036688,-0.05856216044826795,-0.010284789499711592,0.004009131539588029,0.000135551929492877
0.75,0.001843475299931422,-0.7867852999999069,-0.0028275583998824878,-2.3616342999997797,-0.0019163402999176696,1.569570100000057,0.7831387500001172,0.03999999,0.039999958,-9.787310000000144,-0.008747734129426745,-0.059017109998262145,-0.010360543999710627,0.004137995652362155,0.00013742288999285315
0.7525000000000001,0.0018623080999278215,-0.7868109244999018,-0.0028598323398763073,-2.361694854999768,-0.0019389515999133403,1.5695543800000602,0.7831065525001234,0.03999999075,0.0399999583,-9.787173500000524,-0.008790222834632808,-0.05954127689799108,-0.010437973399703244,0.004270068462431845,0.00013932476699271088
0.755,0.0018811408999275814,-0.7868365489999015,-0.0028921062798758957,-2.361755409999767,-0.0019615628999130517,1.5695386600000605,0.7830743550001238,0.0399999915,0.0399999586,-9.787037000000526,-0.008832711539999117,-0.0600654437979844,-0.010515402799702258,0.004402141272513785,0.00014122664399268664
0.7575000000000001,0.0018999736999273421,-0.7868621734999012,-0.0029243802198754853,-2.3618159649997663,-0.0019841741999127643,1.5695229400000608,0.7830421575001242,0.03999999225,0.0399999589,-9.786900500000527,-0.008875200245365426,-0.06058961069797773,-0.010592832199701273,0.004534214082595731,0.00014312852099266247
0.76,0.0019188064999271018,-0.7868877979999008,-0.0029566541598750736,-2.3618765199997656,-0.002006785499912476,1.5695072200000608,0.7830099600001247,0.039999993,0.0399999592,-9.78676400000053,-0.008917688950731735,-0.06111377759797105,-0.010670261599700285,0.004666286892677672,0.0001450303979926382
0.7625000000000001,0.0019376392999268625,-0.7869134224999005,-0.0029889280998746633,-2.361937074999765,-0.0020293967999121887,1.569491500000061,0.7829777625001251,0.03999999375,0.0399999595,-9.786627500000531,-0.008960177656098045,-0.061637944497964385,-0.010747690999699301,0.004798359702759618,0.00014693227499261403
0.765,0.0019564720999266224,-0.7869390469999001,-0.003021202039874252,-2.361997629999764,-0.0020520080999119005,1.5694757800000614,0.7829455650001255,0.0399999945,0.0399999598,-9.786491000000533,-0.009002666361464353,-0.0621621113979577,-0.010825120399698313,0.0049304325128415585,0.00014883415199258977
0.7675000000000001,0.001975603884922877,-0.7869651034998948,-0.0030539893398678214,-2.362059084999753,-0.002074979009907396,1.5694598250000642,0.7829128625001318,0.039999995,0.03999996,-9.786378000000258,-0.00903777689665044,-0.06268616919795232,-0.010903097749690904,0.005063219856877436,0.00015074384549247394
0.77,0.001995333639922625,-0.7869920239998944,-0.0030878033598673903,-2.362122339999752,-0.0020986691399070938,1.5694434000000645,0.7828791500001322,0.039999995,0.03999996,-9.78631200000026,-0.009058131091216797,-0.06321000879794564,-0.010982170999689895,0.005197436268846279,0.0001526691719924494
0.7725,0.0020150633949223735,-0.7870189444998941,-0.003121617379866959,-2.362185594999751,-0.0021223592699067917,1.5694269750000647,0.7828454375001327,0.039999995,0.03999996,-9.78624600000026,-0.009078485285783151,-0.06373384839793896,-0.011061244249688887,0.005331652680815122,0.00015459449849242483
0.775,0.002034793149922123,-0.7870458649998937,-0.0031554313998665294,-2.3622488499997503,-0.0021460493999064904,1.5694105500000648,0.7828117250001331,0.039999995,0.03999996,-9.786180000000261,-0.009098839480349508,-0.0642576879979323,-0.011140317499687882,0.005465869092783971,0.00015651982499240036
0.7775,0.0020545229049218714,-0.7870727854998935,-0.003189245419866098,-2.3623121049997495,-0.0021697395299061883,1.5693941250000651,0.7827780125001336,0.039999995,0.03999996,-9.78611400000026,-0.009119193674915864,-0.06478152759792562,-0.011219390749686874,0.0056000855047528145,0.0001584451514923758
0.78,0.0020742526599216203,-0.7870997059998931,-0.003223059439865668,-2.362375359999749,-0.002193429659905887,1.5693777000000653,0.782744300000134,0.039999995,0.03999996,-9.786048000000262,-0.00913954786948222,-0.06530536719791896,-0.011298463999685869,0.005734301916721664,0.00016037047799235133
0.7825,0.002093982414921369,-0.7871266264998927,-0.003256873459865237,-2.362438614999748,-0.002217119789905585,1.5693612750000656,0.7827105875001343,0.039999995,0.03999996,-9.785982000000262,-0.009159902064048575,-0.06582920679791228,-0.011377537249684861,0.005868518328690507,0.00016229580449232678
0.785,0.002114321299917465,-0.7871544049998873,-0.0032917332898585354,-2.3625038299997354,-0.002241542249900892,1.5693443500000688,0.7826758300001411,0.0399999955,0.039999960599999995,-9.785892700000403,-0.009177841059796656,-0.06636661299782427,-0.011457749899677022,0.00600530197788702,0.00016443536999101747
0.7875,0.0021349647499172017,-0.7871826124998869,-0.003327116024858084,-2.3625700249997346,-0.0022663308749005756,1.569327175000069,0.7826405500001415,0.03999999625,0.03999996149999999,-9.785791750000405,-0.009194572456113917,-0.06691080249781732,-0.011538532249675992,0.006143369245720403,0.00016668205499098881
0.79,0.002155608199916939,-0.7872108199998865,-0.0033624987598576345,-2.3626362199997337,-0.002291119499900261,1.5693100000000693,0.782605270000142,0.039999997,0.0399999624,-9.785690800000406,-0.00921130385243118,-0.06745499199781041,-0.011619314599674965,0.006281436513553794,0.00016892873999096026
0.7925,0.002176251649916676,-0.7872390274998862,-0.003397881494857183,-2.362702414999733,-0.0023159081248999443,1.5692928250000695,0.7825699900001424,0.03999999775,0.0399999633,-9.785589850000408,-0.009228035248748441,-0.06799918149780347,-0.011700096949673935,0.006419503781387178,0.0001711754249909316
0.795,0.0021968950999164136,-0.7872672349998858,-0.003433264229856733,-2.362768609999732,-0.0023406967498996296,1.5692756500000695,0.7825347100001429,0.0399999985,0.039999964199999995,-9.78548890000041,-0.009244766645065704,-0.06854337099779656,-0.011780879299672907,0.0065575710492205685,0.00017342210999090306
0.7975,0.00221753854991615,-0.7872954424998855,-0.003468646964856282,-2.362834804999731,-0.0023654853748993135,1.5692584750000698,0.7824994300001433,0.03999999925,0.03999996509999999,-9.78538795000041,-0.009261498041382966,-0.06908756049778961,-0.011861661649671878,0.006695638317053953,0.0001756687949908744
0.8,0.002238181999915888,-0.7873236499998851,-0.0035040296998558322,-2.3629009999997304,-0.0023902739998989983,1.56924130000007,0.7824641500001438,0.04,0.03999996599999999,-9.785287000000412,-0.009278229437700227,-0.0696317499977827,-0.01194244399967085,0.006833705584887342,0.00017791547999084585
0.8025,0.0022597554499118235,-0.7873531624998794,-0.0035410092298488543,-2.3629700899997177,-0.002416181039894111,1.5692233150000736,0.7824272875001507,0.04,0.0399999666,-9.785269000000074,-0.009270898345887759,-0.07017633549777413,-0.012024827299663277,0.006974219739794066,0.00018038877298989098
0.805,0.0022813288999115494,-0.787382674999879,-0.0035779887598483846,-2.3630391799997166,-0.0024420880798937815,1.5692053300000737,0.7823904250001511,0.04,0.0399999672,-9.785251000000073,-0.009263567253977248,-0.07072092099776721,-0.01210721059966223,0.0071147338947107645,0.00018286206598985954
0.8075,0.002302902349911274,-0.7874121874998786,-0.0036149682898479127,-2.363108269999716,-0.0024679951198934512,1.569187345000074,0.7823535625001516,0.04,0.039999967799999994,-9.785233000000074,-0.009256236162066736,-0.07126550649776027,-0.01218959389966118,0.007255248049627457,0.000185335358989828
0.81,0.0023244757999109997,-0.7874416999998782,-0.003651947819847443,-2.3631773599997152,-0.002493902159893122,1.5691693600000742,0.7823167000001521,0.04,0.039999968399999995,-9.785215000000074,-0.009248905070156225,-0.07181009199775334,-0.012271977199660132,0.007395762204544156,0.00018780865198979657
0.8125,0.0023460492499107247,-0.7874712124998778,-0.003688927349846971,-2.363246449999714,-0.002519809199892791,1.5691513750000745,0.7822798375001525,0.04,0.039999968999999996,-9.785197000000075,-0.009241573978245713,-0.0723546774977464,-0.012354360499659081,0.007536276359460849,0.00019028194498976503
0.8150000000000001,0.0023676226999104506,-0.7875007249998776,-0.0037259068798465014,-2.3633155399997134,-0.002545716239892462,1.5691333900000746,0.782242975000153,0.04,0.0399999696,-9.785179000000074,-0.0092342428863352,-0.07289926299773948,-0.012436743799658034,0.0076767905143775485,0.00019275523798973357
0.8175,0.002389511404906442,-0.7875306819998719,-0.003763427724839619,-2.3633856449997004,-0.0025720023498876426,1.569115145000078,0.7822055650001599,0.04,0.03999996950000001,-9.785120800000575,-0.009241203544513644,-0.07346749624744275,-0.012519666599651008,0.007818272755816704,0.00019535588098813726
0.8200000000000001,0.0024120306199067704,-0.7875615279998723,-0.0038020311998401817,-2.3634577799997016,-0.0025990465998880366,1.5690963800000777,0.7821670600001593,0.04,0.03999996800000001,-9.784982200000574,-0.009276747703405006,-0.07408302499745172,-0.012603668399652233,0.007961691170337029,0.0001982112239881789
0.8225,0.0024345498349070977,-0.7875923739998728,-0.003840634674840743,-2.3635299149997024,-0.00262609084988843,1.5690776150000774,0.7821285550001589,0.04,0.03999996650000001,-9.784843600000572,-0.009312291862296368,-0.07469855374746066,-0.012687670199653453,0.008105109584857348,0.0002010665669882204
