rsonawane2002/My_IMU/logs_2/traj_500/imu_500.csv
time,j1,j2,j3,j4,j5,j6,j7,gripper1,gripper2,imu_ax,imu_ay,imu_az,imu_gx,imu_gy,imu_gz
2752.4833333407696,0.00016700293,-0.785875,4.0107683e-05,-2.3551247,9.29385e-05,1.570997,0.786,0.04,0.04,-9.543553,-0.06715306639671326,0.076581016,-5.4459765e-08,-0.001164127141237259,1.0450344e-06
2752.5000000074365,0.00016700926,-0.78576016,4.0109102e-05,-2.3552213,9.297017e-05,1.5709941,0.786,0.04,0.04,-9.8345,0.0006352076889015734,0.009041686,-3.2279743e-07,-0.0022385013289749622,9.947454e-07
2752.5166666741034,0.00016703899,-0.7856543,4.007205e-05,-2.35531,9.2972485e-05,1.5709913,0.786,0.04,0.04,-9.832438,0.0005943319411017001,0.007510538,-2.2656588e-06,-0.003223801264539361,1.4439706e-06
2752.5333333407702,0.00016712972,-0.78555703,3.9934075e-05,-2.355391,9.290178e-05,1.5709884,0.786,0.04,0.04,-9.830503,0.000530135992448777,0.006093424,-7.570263e-06,-0.00412640580907464,1.8781641e-06
2752.550000007437,0.00016733483,-0.7854676,3.9605726e-05,-2.3554654,9.27053e-05,1.5709856,0.786,0.04,0.039999995,-9.828255,0.00044436060125008225,0.0048677973,-1.7951503e-05,-0.004944331478327513,3.0647643e-06
2752.566666674104,0.00016772174,-0.7853856,3.8973143e-05,-2.3555338,9.229292e-05,1.5709827,0.786,0.04,0.039999995,-9.826662,0.00031853668042458594,0.0035235747,-3.459859e-05,-0.005683360155671835,3.4474804e-06
2752.583333340771,0.00016837039,-0.78531075,3.7900783e-05,-2.3555996,9.1555754e-05,1.5709798,0.7859981,0.04,0.04,-9.824897,0.00017009591101668775,0.00233535,-5.9541428e-05,-0.006347571033984423,2.4733217e-06
2752.6000000074378,0.00016937185,-0.78524226,3.6232894e-05,-2.3556588,9.040167e-05,1.570977,0.7859962,0.04,0.04,-9.823481,1.981784589588642e-05,0.0012234831,-8.577941e-05,-0.00694895489141345,3.5679784e-06
2752.6166666741046,0.00017082755,-0.78517985,3.3796718e-05,-2.355717,8.870412e-05,1.5709741,0.7859943,0.04,0.04,-9.821394,-0.00015212566358968616,0.00019935146,-0.00012305831,-0.00747118704020977,3.4737488e-06
2752.6333333407715,0.00017284771,-0.7851235,3.0403648e-05,-2.3557737,8.6337546e-05,1.5709711,0.7859905,0.04,0.04,-9.8203125,-0.0003533751587383449,-0.00092709344,-0.00017345251,-0.007937858812510967,4.591242e-06
2752.6500000074384,0.00017555049,-0.78507286,2.5851445e-05,-2.3558257,8.315782e-05,1.5709682,0.78598666,0.04,0.04,-9.818935,-0.0005647853831760585,-0.0019371621,-0.00022946403,-0.008345120586454868,5.133701e-06
2752.6666666741053,0.00017906122,-0.7850276,1.9925577e-05,-2.355877,7.901398e-05,1.5709649,0.78598094,0.04,0.04,-9.817029,-0.0007625507423654199,-0.0028397518,-0.00030169854,-0.00867763627320528,5.710734e-06
2752.683333340772,0.00018351116,-0.7849877,1.2400878e-05,-2.3559282,7.374861e-05,1.5709615,0.7859733,0.04,0.04,-9.815788,-0.0010221621487289667,-0.0038576745,-0.0003826682,-0.008952775970101357,6.318981e-06
2752.700000007439,0.00018903699,-0.784953,3.0430226e-06,-2.3559794,6.7197754e-05,1.5709548,0.7859638,0.04,0.04,-9.814473,-0.0012622964568436146,-0.004781979,-0.0004739645,-0.0091719264164567,6.9587895e-06
2752.716666674106,0.00019578004,-0.78492326,-8.390635e-06,-2.3560326,5.9191527e-05,1.5709481,0.7859523,0.04,0.04,-9.81319,-0.0015094018308445811,-0.005632232,-0.000576904,-0.0093469163402915,7.64967e-06
2752.733333340773,0.00020388565,-0.7848986,-2.2149436e-05,-2.3560898,4.955523e-05,1.5709412,0.7859388,0.04,0.04,-9.812036,-0.0017307705711573362,-0.006514838,-0.00069308217,-0.009471398778259754,8.382859e-06
2752.7500000074397,0.00021350251,-0.78487885,-3.8488477e-05,-2.356148,3.809895e-05,1.5709335,0.7859223,0.039999995,0.04,-9.811103,-0.002031126758083701,-0.0075273085,-0.00082329,-0.00955202616751194,8.370028e-06
2752.7666666741065,0.00022478182,-0.7848642,-5.7667898e-05,-2.3562074,2.4650697e-05,1.570923,0.7859032,0.03999999,0.03999999,-9.809753,-0.002289901953190565,-0.00846592,-0.0009647462,-0.009577243588864803,1.0132777e-05
2752.7833333407734,0.00023787726,-0.7848544,-7.995169e-05,-2.3562732,9.027347e-06,1.5709121,0.78588086,0.039999988,0.039999984,-9.808389,-0.002558760344982147,-0.009368224,-0.0011204625,-0.009553366340696812,1.19532215e-05
2752.8000000074403,0.0002529443,-0.7848494,-0.00010560706,-2.3563414,-8.959793e-06,1.570898,0.7858552,0.039999984,0.03999998,-9.807629,-0.00278491317294538,-0.01027166,-0.0012887813,-0.009491813369095325,1.2987999e-05
2752.816666674107,0.0002701397,-0.78484964,-0.00013490356,-2.3564153,-2.9498895e-05,1.5708836,0.7858258,0.03999998,0.039999977,-9.806296,-0.0031069472897797823,-0.011327111,-0.0014710603,-0.009385236538946629,1.4102021e-05
2752.833333340774,0.00028962133,-0.7848548,-0.00016811227,-2.3564963,-5.2779324e-05,1.5708672,0.7857925,0.039999977,0.03999997,-9.805321,-0.003372481558471918,-0.01235834,-0.0016664827,-0.009233981370925903,1.6154581e-05
2752.850000007441,0.00031154754,-0.784865,-0.00020550545,-2.3565845,-7.8992714e-05,1.5708487,0.7857552,0.039999973,0.039999966,-9.804486,-0.003655073931440711,-0.013415262,-0.0018755987,-0.009049184620380402,1.7453478e-05
2752.866666674108,0.00033607686,-0.78488046,-0.00024735593,-2.3566787,-0.00010832969,1.5708276,0.7857134,0.03999997,0.03999996,-9.8037195,-0.0038644690066576004,-0.014454824,-0.002099251,-0.008829973638057709,1.8870773e-05
2752.8833333407747,0.00036336793,-0.78490126,-0.00029393638,-2.3567784,-0.00014098076,1.5708051,0.7856669,0.039999966,0.039999954,-9.802526,-0.0042022718116641045,-0.015694056,-0.0023360841,-0.008568836376070976,2.126594e-05
2752.9000000074416,0.000393579,-0.7849274,-0.00034551875,-2.3568895,-0.00017713723,1.5707792,0.7856154,0.039999966,0.039999954,-9.801315,-0.004481267649680376,-0.016902365,-0.00258722,-0.008258203975856304,2.2942771e-05
2752.9166666741085,0.00042686766,-0.78495884,-0.00040237446,-2.3570087,-0.0002169886,1.5707517,0.78555846,0.03999997,0.039999958,-9.800975,-0.004668569657951593,-0.018043917,-0.0028518778,-0.007930239662528038,2.4784778e-05
2752.9333333407753,0.0004633909,-0.78499603,-0.0004647734,-2.3571362,-0.0002607238,1.5707213,0.7854961,0.03999997,0.039999958,-9.79986,-0.00501665286719799,-0.019520849,-0.003129528,-0.0075612058863043785,2.6806234e-05
2752.950000007442,0.0005033044,-0.785039,-0.0005329835,-2.3572724,-0.00030853075,1.5706875,0.78542805,0.039999977,0.039999966,-9.798877,-0.005282799247652292,-0.020899456,-0.0034213145,-0.00715474970638752,2.9034727e-05
2752.966666674109,0.00054676295,-0.7850877,-0.000607271,-2.3574202,-0.00036059518,1.570651,0.7853539,0.039999977,0.03999996,-9.797847,-0.005535895004868507,-0.022344626,-0.003726733,-0.006710811983793974,3.234906e-05
2752.983333340776,0.0005939197,-0.78514266,-0.0006878991,-2.357579,-0.00041710207,1.570612,0.7852734,0.039999977,0.03999996,-9.79738,-0.00570488628000021,-0.02379142,-0.0040458357,-0.006239858455955982,3.5062214e-05
2753.000000007443,0.0006449263,-0.7852038,-0.0007751292,-2.3577487,-0.00047823423,1.5705696,0.7851863,0.03999998,0.039999966,-9.79636,-0.006053897552192211,-0.025510395,-0.0043778517,-0.005734788253903389,3.805999e-05
2753.0166666741097,0.00069993275,-0.78527105,-0.0008692189,-2.357931,-0.00054417225,1.5705237,0.78509235,0.03999998,0.039999966,-9.795487,-0.006297750398516655,-0.027205463,-0.004723391,-0.005196120124310255,4.138168e-05
2753.0333333407766,0.0007590872,-0.7853448,-0.00097042345,-2.358127,-0.00061509403,1.5704741,0.7849913,0.039999977,0.039999958,-9.794762,-0.006540811154991388,-0.029004287,-0.005081962,-0.004630640149116516,4.591561e-05
2753.0500000074435,0.0008225362,-0.7854251,-0.0010789941,-2.3583348,-0.0006911763,1.5704209,0.7848829,0.03999998,0.03999996,-9.794478,-0.006672652438282967,-0.03077272,-0.005453369,-0.004045519512146711,4.9981303e-05
2753.0666666741104,0.0008904233,-0.78551215,-0.0011951793,-2.3585565,-0.00077259284,1.570364,0.784767,0.03999998,0.03999996,-9.793256,-0.0070090098306536674,-0.03287914,-0.0058376584,-0.003423703368753195,5.4480708e-05
2753.0833333407772,0.0009628908,-0.78560615,-0.001319223,-2.358793,-0.0008595135,1.5703034,0.7846433,0.03999998,0.039999958,-9.792619,-0.007224745582789183,-0.034981914,-0.0062352046,-0.0027768933214247227,6.031318e-05
2753.100000007444,0.0010400785,-0.785707,-0.0014513663,-2.3590438,-0.0009521081,1.570239,0.78451145,0.039999984,0.03999996,-9.791992,-0.007453523576259613,-0.037181325,-0.006645519,-0.00210563070140779,6.58117e-05
2753.116666674111,0.0011221241,-0.78581506,-0.0015918452,-2.3593102,-0.0010505419,1.5701706,0.7843713,0.039999984,0.03999996,-9.791573,-0.007536881137639284,-0.039377905,-0.007067867,-0.001408550888299942,7.186976e-05
2753.133333340778,0.0012091622,-0.78593045,-0.0017408911,-2.3595917,-0.001154976,1.570098,0.78422266,0.039999984,0.039999958,-9.790672,-0.007857332937419415,-0.04194022,-0.0075026117,-0.000686642131768167,7.941163e-05
2753.1500000074448,0.001301325,-0.7860533,-0.0018987331,-2.359889,-0.0012655716,1.5700213,0.7840652,0.039999988,0.03999996,-9.789963,-0.008055515587329865,-0.044495545,-0.007949561,6.155138544272631e-05,8.67718e-05
2753.1666666741116,0.001398743,-0.78618383,-0.0020655945,-2.3602037,-0.0013824855,1.5699401,0.7838987,0.039999988,0.03999996,-9.789617,-0.008110929280519485,-0.047034122,-0.008408255,0.000833800295367837,9.485687e-05
2753.1833333407785,0.0015015434,-0.7863222,-0.0022416953,-2.3605351,-0.0015058701,1.5698545,0.78372306,0.039999988,0.039999958,-9.788812,-0.008415774442255497,-0.04996907,-0.008878787,0.0016252573113888502,0.000104589926
2753.2000000074454,0.0016098515,-0.7864683,-0.0024272504,-2.3608835,-0.0016358767,1.5697644,0.78353804,0.03999999,0.03999996,-9.788151,-0.008585045114159584,-0.05290119,-0.009361274,0.0024411077611148357,0.00011431657
2753.2166666741123,0.001723789,-0.7866227,-0.0026224693,-2.36125,-0.0017726525,1.5696696,0.7833433,0.03999999,0.03999996,-9.787562,-0.008744150400161743,-0.055984113,-0.009855514,0.003278901567682624,0.00012494982
2753.233333340779,0.0018434753,-0.7867853,-0.0028275584,-2.3616343,-0.0019163403,1.5695701,0.78313875,0.03999999,0.039999958,-9.78731,-0.008747734129428864,-0.05901711,-0.010360544,0.004137995652854443,0.00013742289
2753.250000007446,0.0019690273,-0.78695613,-0.003042718,-2.362038,-0.0020670823,1.5694653,0.7829241,0.039999995,0.03999996,-9.7864,-0.009030992165207863,-0.062511556,-0.01087674,0.005018481053411961,0.00015010207
2753.266666674113,0.002100559,-0.7871356,-0.0032681448,-2.3624597,-0.0022250165,1.5693558,0.78269935,0.039999995,0.03999996,-9.78596,-0.009166686795651913,-0.06600382,-0.011403895,0.005913257133215666,0.00016293758
2753.28333334078,0.002238182,-0.78732365,-0.0035040297,-2.362901,-0.002390274,1.5692413,0.78246415,0.04,0.039999966,-9.785287,-0.00927822943776846,-0.06963175,-0.011942444,0.006833705585449934,0.00017791548
2753.3000000074467,0.002382005,-0.7875204,-0.0037505599,-2.3633616,-0.0025629876,1.5691214,0.7822184,0.04,0.03999997,-9.785167,-0.009229355491697788,-0.07326232,-0.012491666,0.00777046661823988,0.0001944041
2753.3166666741135,0.0025321331,-0.78772604,-0.0040079164,-2.3638425,-0.0027432826,1.5689963,0.7819617,0.04,0.03999996,-9.784243,-0.009466316550970078,-0.077365845,-0.013051678,0.008726589381694794,0.00021343972
2753.3333333407804,0.0026886684,-0.78794086,-0.0042762766,-2.364344,-0.0029312854,1.5688659,0.781694,0.04,0.039999973,-9.783763,-0.009580876678228378,-0.081462115,-0.013621239,0.009699305519461632,0.0002289971
2753.3500000074473,0.002851712,-0.7881647,-0.004555813,-2.3648665,-0.0031271128,1.5687302,0.7814152,0.04,0.03999996,-9.783268,-0.00960487686097622,-0.08570285,-0.014200959,0.010689297690987587,0.00025332978
2753.366666674114,0.0030213608,-0.7883977,-0.004846692,-2.3654099,-0.0033308852,1.5685887,0.7811252,0.04,0.03999996,-9.783263,-0.009507888928055763,-0.089970246,-0.014790781,0.011693372391164303,0.0002771799
2753.383333340781,0.0031977084,-0.7886404,-0.0051490786,-2.365974,-0.0035427157,1.568442,0.7808236,0.04,0.03999996,-9.782363,-0.009721742011606693,-0.09471844,-0.015391027,0.01271256897598505,0.00030115526
2753.400000007448,0.0033808479,-0.7888927,-0.0054631275,-2.36656,-0.003762714,1.5682892,0.7805103,0.04,0.039999958,-9.781789,-0.009742647409439087,-0.099457845,-0.016000504,0.013752970844507217,0.00032732662
2753.416666674115,0.0035708668,-0.7891543,-0.0057889903,-2.3671682,-0.003990988,1.568131,0.78018534,0.04,0.03999996,-9.7817745,-0.009594297036528587,-0.104178086,-0.016619304,0.014805588871240616,0.0003549173
2753.4333333407817,0.0037678499,-0.78942573,-0.006126816,-2.3677983,-0.004227641,1.5679667,0.7798484,0.04,0.039999958,-9.780957,-0.009751631878316402,-0.10948202,-0.01724784,0.015871534124016762,0.00038488055
2753.4500000074486,0.0039718817,-0.7897071,-0.006476748,-2.368451,-0.00447277,1.5677968,0.7794994,0.04,0.039999954,-9.780457,-0.009734353050589561,-0.11473747,-0.017885495,0.016952864825725555,0.0004160373
2753.4666666741155,0.004183042,-0.7899984,-0.006838924,-2.3691263,-0.0047264737,1.5676209,0.77913797,0.04,0.039999958,-9.78005,-0.009695970453321934,-0.120174624,-0.018532503,0.018047504127025604,0.00044992423
2753.4833333407823,0.004401408,-0.7902996,-0.0072134766,-2.3698242,-0.004988845,1.5674387,0.7787644,0.04,0.039999954,-9.780006,-0.009472185745835304,-0.12560983,-0.019187232,0.01915556937456131,0.00048626607
2753.500000007449,0.0046270536,-0.790611,-0.0076005347,-2.370546,-0.005259975,1.5672506,0.7783785,0.04,0.039999954,-9.779093,-0.0095739234238863,-0.13160819,-0.019851994,0.020277632400393486,0.00052434206
2753.516666674116,0.0048600533,-0.79093266,-0.00800022,-2.3712916,-0.0055399467,1.5670565,0.7779799,0.04,0.039999954,-9.77879,-0.009482373483479023,-0.13757828,-0.020525722,0.021407607942819595,0.0005657426
2753.533333340783,0.005100472,-0.79126453,-0.008412656,-2.372061,-0.0058288462,1.566856,0.77756864,0.04,0.039999943,-9.778396,-0.009370969608426094,-0.14376882,-0.02120789,0.022548960521817207,0.000608932
2753.55000000745,0.0053483774,-0.79160696,-0.008837952,-2.3728538,-0.006126753,1.5666496,0.7771446,0.039999995,0.039999932,-9.778424,-0.009076177142560482,-0.14994435,-0.021898592,0.023700565099716187,0.0006542492
2753.5666666741167,0.0056038345,-0.79195994,-0.009276218,-2.3736703,-0.006433742,1.5664366,0.7767076,0.039999995,0.03999993,-9.7775,-0.009092135354876518,-0.15667592,-0.02259786,0.024866405874490738,0.0007038074
2753.5833333407836,0.0058669015,-0.79232365,-0.009727558,-2.3745115,-0.006749887,1.5662173,0.77625746,0.04,0.039999932,-9.77704,-0.008926764130592346,-0.16340393,-0.023304878,0.02604396641254425,0.0007548905
2753.6000000074505,0.006137638,-0.7926978,-0.01019207,-2.375378,-0.007075256,1.5659916,0.7757943,0.039999995,0.03999993,-9.776652,-0.008735203184187412,-0.17032863,-0.024019677,0.027230599895119667,0.0008087006
2753.6166666741174,0.006416097,-0.79308283,-0.010669851,-2.376268,-0.0074099186,1.5657598,0.7753179,0.04,0.03999993,-9.776863,-0.008343307301402092,-0.17726888,-0.024742996,0.02842123433947563,0.00086635194
2753.6333333407842,0.006702331,-0.79347867,-0.011160988,-2.3771834,-0.0077539366,1.5655214,0.77482826,0.04,0.03999993,-9.775792,-0.008281259797513485,-0.18478881,-0.025473896,0.02962859347462654,0.00092630443
2753.650000007451,0.006996391,-0.7938853,-0.011665572,-2.3781238,-0.00810737,1.565276,0.77432513,0.039999995,0.03999992,-9.775497,-0.008016726933419704,-0.19229522,-0.026212752,0.030840544030070305,0.0009902329
2753.666666674118,0.0072983247,-0.79430294,-0.012183681,-2.379089,-0.0084702745,1.5650243,0.77380854,0.04,0.039999925,-9.775555,-0.007554369047284126,-0.19981015,-0.02695895,0.032060183584690094,0.0010574479
2753.683333340785,0.0076081743,-0.7947316,-0.012715391,-2.3800805,-0.0088427,1.564766,0.77327836,0.039999995,0.03999992,-9.774646,-0.007426168769598007,-0.20791908,-0.027712608,0.033288564532995224,0.0011259989
2753.7000000074518,0.007925979,-0.7951712,-0.013260771,-2.3810964,-0.009224701,1.5645013,0.77273464,0.039999984,0.039999906,-9.774299,-0.00706655764952302,-0.21604347,-0.028473297,0.03452279046177864,0.0012002778
2753.7166666741186,0.0082517825,-0.79562193,-0.013819892,-2.382138,-0.009616325,1.5642297,0.77217716,0.03999998,0.0399999,-9.773835,-0.006702051497995853,-0.22437285,-0.029241703,0.035765908658504486,0.0012778095
2753.7333333407855,0.008585622,-0.7960839,-0.0143928155,-2.383205,-0.010017615,1.5639515,0.77160597,0.039999973,0.03999989,-9.7738905,-0.006138144992291927,-0.2326839,-0.030016664,0.037016525864601135,0.0013581691
2753.7500000074524,0.008927529,-0.7965569,-0.014979601,-2.3842983,-0.01042861,1.5636666,0.771021,0.039999977,0.03999989,-9.772965,-0.0058744680136442184,-0.24159607,-0.030799057,0.038273561745882034,0.0014430928
2753.7666666741193,0.009277533,-0.79704124,-0.015580297,-2.3854172,-0.010849347,1.5633748,0.77042216,0.039999977,0.03999989,-9.77261,-0.005421185400336981,-0.25054076,-0.03158854,0.03953445702791214,0.0015309483
2753.783333340786,0.009635665,-0.7975369,-0.016194955,-2.3865623,-0.011279864,1.5630761,0.7698093,0.039999973,0.039999887,-9.77215,-0.004928816109895706,-0.25966746,-0.03238442,0.04080129414796829,0.0016227113
2753.800000007453,0.010001951,-0.79804385,-0.016823623,-2.3877337,-0.01172019,1.5627707,0.7691825,0.039999973,0.039999884,-9.772267,-0.004237852990627289,-0.26879895,-0.0331868,0.04207174852490425,0.0017193172
2753.81666667412,0.010376411,-0.79856217,-0.017466338,-2.388931,-0.012170353,1.5624585,0.7685417,0.039999977,0.039999887,-9.771332,-0.0038493508473038673,-0.27855533,-0.033995602,0.04334684833884239,0.0018191022
2753.833333340787,0.010759067,-0.79909176,-0.018123139,-2.3901546,-0.012630382,1.5621394,0.7678869,0.03999998,0.039999887,-9.770886,-0.003252173773944378,-0.28831103,-0.03481065,0.04462611675262451,0.0019238945
2753.8500000074537,0.011149938,-0.7996327,-0.01879405,-2.3914042,-0.013100294,1.5618136,0.76721805,0.03999998,0.039999887,-9.770453,-0.002633044496178627,-0.29828727,-0.035632383,0.04590798541903496,0.0020320439
2753.8666666741206,0.011549044,-0.8001852,-0.01947911,-2.3926802,-0.013580112,1.5614809,0.766535,0.039999984,0.039999887,-9.770468,-0.0018026987090706825,-0.30826566,-0.036460645,0.0471961684525013,0.0021454298
2753.8833333407874,0.011956395,-0.80074894,-0.020178335,-2.3939826,-0.01406985,1.5611411,0.76583785,0.039999988,0.03999989,-9.769503,-0.0012633157894015312,-0.31884733,-0.03729421,0.04848635569214821,0.0022622938
2753.9000000074543,0.012372005,-0.8013243,-0.020891745,-2.3953109,-0.014569523,1.5607947,0.76512676,0.039999984,0.039999884,-9.769081,-0.0005150698125362396,-0.3294475,-0.038134012,0.049776654690504074,0.0023844226
2753.916666674121,0.012795875,-0.8019111,-0.021619359,-2.3966668,-0.0150791425,1.5604415,0.764401,0.039999988,0.039999887,-9.768991,0.00041978899389505386,-0.34004778,-0.038980532,0.05107459798455238,0.002510315
2753.933333340788,0.0132280225,-0.8025091,-0.022361184,-2.3980482,-0.015598714,1.560081,0.7636618,0.03999999,0.03999989,-9.768133,0.0010913433507084846,-0.3512625,-0.039830502,0.0523693710565567,0.0026407028
2753.950000007455,0.013668444,-0.80311877,-0.023117235,-2.399457,-0.016128242,1.5597137,0.7629083,0.04,0.039999895,-9.76756,0.001961910165846348,-0.36249965,-0.040689364,0.053666163235902786,0.0027765846
2753.966666674122,0.014117145,-0.8037401,-0.023887502,-2.4008913,-0.016667731,1.5593396,0.76214015,0.039999995,0.03999989,-9.767132,0.0028717275708913803,-0.3739412,-0.04155306,0.05496151000261307,0.0029162308
2753.9833333407887,0.014574121,-0.8043731,-0.024671983,-2.4023526,-0.017217178,1.5589588,0.761358,0.039999988,0.03999988,-9.766988,0.003979983739554882,-0.3853869,-0.04242063,0.05626320838928223,0.0030616298
2754.0000000074556,0.01503937,-0.80501705,-0.025470683,-2.4038408,-0.01777658,1.5585709,0.7605618,0.039999984,0.039999876,-9.765949,0.004832681268453598,-0.3974224,-0.043293826,0.05756477266550064,0.0032110044
2754.0166666741225,0.015512887,-0.80567235,-0.026283588,-2.4053545,-0.01834594,1.558176,0.75975144,0.039999984,0.039999876,-9.765529,0.005887821316719055,-0.4095364,-0.044173066,0.05886007472872734,0.003365104
2754.0333333407893,0.01599467,-0.8063394,-0.02711069,-2.4068952,-0.018925231,1.5577745,0.7589269,0.039999988,0.039999876,-9.7647915,0.006996104493737221,-0.42183203,-0.045057148,0.06016097590327263,0.0035251372
2754.050000007456,0.016484695,-0.80701786,-0.027951961,-2.4084613,-0.019514445,1.557366,0.7580883,0.039999984,0.039999872,-9.764823,0.008276835083961487,-0.43411696,-0.04594668,0.0614585317671299,0.003689161
2754.066666674123,0.016982965,-0.8077078,-0.028807392,-2.4100547,-0.02011358,1.5569506,0.7572355,0.03999998,0.03999987,-9.763527,0.009351064451038837,-0.44701105,-0.046841007,0.06276022642850876,0.0038591682
2754.08333334079,0.017489463,-0.8084092,-0.029676955,-2.4116738,-0.020722609,1.5565281,0.7563686,0.039999973,0.039999858,-9.763044,0.010604390874505043,-0.45991254,-0.047739837,0.06405508518218994,0.0040332116
2754.100000007457,0.018004168,-0.8091221,-0.030560628,-2.4133208,-0.02134152,1.5560989,0.7554876,0.03999997,0.039999854,-9.762279,0.011916332878172398,-0.4730331,-0.048643466,0.06535226106643677,0.0042124535
2754.1166666741237,0.018527064,-0.8098463,-0.031458367,-2.414992,-0.021970285,1.5556629,0.75459266,0.039999954,0.03999984,-9.762385,0.013413211330771446,-0.4861872,-0.049551435,0.0666389986872673,0.004397387
2754.1333333407906,0.019058129,-0.81058174,-0.032370143,-2.4166906,-0.02260888,1.55522,0.7536836,0.039999947,0.039999828,-9.760901,0.014715632423758507,-0.49991256,-0.050464217,0.06793258339166641,0.004586841
2754.1500000074575,0.019597337,-0.81132835,-0.033295915,-2.4184144,-0.023257276,1.5547705,0.7527607,0.03999993,0.03999981,-9.760335,0.01620163768529892,-0.51366967,-0.051381085,0.06921818107366562,0.0047812997
2754.1666666741244,0.020144664,-0.8120864,-0.03423564,-2.420165,-0.023915444,1.5543141,0.7518238,0.039999906,0.039999787,-9.760045,0.01786125637590885,-0.52745885,-0.052302606,0.07050403952598572,0.0049810205
2754.1833333407913,0.020700086,-0.8128556,-0.03518928,-2.421941,-0.024583356,1.553851,0.75087315,0.039999895,0.039999772,-9.758879,0.019359808415174484,-0.5417878,-0.053227566,0.07178200781345367,0.0051865075
2754.200000007458,0.02126358,-0.813636,-0.03615678,-2.4237432,-0.025260976,1.553381,0.7499087,0.039999884,0.03999976,-9.757986,0.021028142422437668,-0.5561734,-0.05415758,0.07306038588285446,0.005396505
2754.216666674125,0.021835105,-0.8144274,-0.03713808,-2.4255707,-0.02594827,1.5529045,0.7489305,0.039999876,0.039999753,-9.757266,0.022762242704629898,-0.5707388,-0.055091567,0.0743303969502449,0.0056115035
2754.233333340792,0.022414638,-0.8152301,-0.03813313,-2.4274242,-0.026645182,1.5524212,0.74793845,0.03999987,0.039999746,-9.756899,0.024671969935297966,-0.5853716,-0.056029446,0.07559897005558014,0.0058326875
2754.2500000074588,0.023002135,-0.81604373,-0.039141875,-2.429303,-0.027351677,1.5519314,0.7469328,0.039999865,0.03999974,-9.75556,0.026435043662786484,-0.60050863,-0.05697025,0.07686066627502441,0.0060580536
2754.2666666741256,0.023597572,-0.8168684,-0.04016423,-2.4312065,-0.028067723,1.5514345,0.7459137,0.039999858,0.03999973,-9.754633,0.028375210240483284,-0.61570716,-0.0579151,0.07811888307332993,0.0062885475
2754.2833333407925,0.02420089,-0.8177041,-0.041200142,-2.4331362,-0.028793264,1.5509312,0.74488103,0.039999843,0.039999716,-9.753646,0.030384063720703125,-0.6310791,-0.058863603,0.07937224954366684,0.0065242886
2754.3000000074594,0.024812065,-0.81855065,-0.042249545,-2.4350905,-0.029528249,1.5504215,0.7438349,0.039999828,0.0399997,-9.753347,0.032554347068071365,-0.64651215,-0.059815433,0.08061642944812775,0.0067649805
2754.3166666741263,0.02543105,-0.8194079,-0.043312356,-2.4370701,-0.030272635,1.5499052,0.74277544,0.039999817,0.039999686,-9.751765,0.03462717682123184,-0.66246897,-0.060770523,0.08185742050409317,0.0070116045
2754.333333340793,0.026057795,-0.82027596,-0.04438851,-2.4390748,-0.031026363,1.5493824,0.7417028,0.039999805,0.039999675,-9.750784,0.03685033321380615,-0.6784725,-0.06172874,0.08309046179056168,0.0072625396
2754.35000000746,0.02669226,-0.8211547,-0.045477934,-2.4411037,-0.03178939,1.5488534,0.7406168,0.039999787,0.039999656,-9.749768,0.039160795509815216,-0.69465774,-0.06269062,0.0843161940574646,0.007518402
2754.366666674127,0.027334401,-0.82204413,-0.04658053,-2.4431565,-0.03256164,1.548318,0.7395177,0.039999776,0.039999645,-9.749143,0.04161977767944336,-0.7108755,-0.06365479,0.08553706854581833,0.007779327
2754.383333340794,0.027984159,-0.82294405,-0.04769621,-2.445234,-0.03334305,1.5477762,0.73840547,0.039999764,0.039999634,-9.747425,0.04401259496808052,-0.7276057,-0.064621575,0.08675439655780792,0.00804536
2754.4000000074607,0.028641483,-0.8238547,-0.048824895,-2.4473367,-0.034133572,1.5472281,0.7372804,0.039999757,0.039999627,-9.746324,0.04656016081571579,-0.74436665,-0.06559087,0.08796132355928421,0.008316189
2754.4166666741276,0.029306332,-0.8247757,-0.049966484,-2.449463,-0.034933146,1.5466738,0.7361424,0.039999746,0.039999615,-9.745729,0.049242448061704636,-0.7611557,-0.06656316,0.08915819972753525,0.008591543
2754.4333333407944,0.029978637,-0.825707,-0.051120896,-2.4516125,-0.035741672,1.5461129,0.7349916,0.039999735,0.039999604,-9.743945,0.051898758858442307,-0.77845645,-0.0675371,0.09034822881221771,0.008872682
2754.4500000074613,0.030658346,-0.82664865,-0.052288022,-2.453786,-0.036559105,1.5455462,0.7338281,0.039999716,0.039999582,-9.742638,0.05469375103712082,-0.79578215,-0.068513446,0.0915299579501152,0.009157642
2754.466666674128,0.031345394,-0.82760036,-0.053467758,-2.4559832,-0.037385385,1.5449733,0.732652,0.039999712,0.03999958,-9.741292,0.057575710117816925,-0.8132988,-0.06949187,0.09270541369915009,0.009447328
2754.483333340795,0.03203974,-0.8285623,-0.054660007,-2.4582045,-0.038220424,1.5443943,0.7314634,0.039999712,0.03999958,-9.740553,0.06058892607688904,-0.8308665,-0.07047166,0.093867726624012,0.009741445
2754.500000007462,0.032741293,-0.82953423,-0.055864662,-2.4604487,-0.039064154,1.5438092,0.73026234,0.039999712,0.03999958,-9.738689,0.06360698491334915,-0.84888196,-0.07145292,0.09501969814300537,0.010039897
2754.516666674129,0.03345002,-0.830516,-0.057081617,-2.4627159,-0.0399165,1.5432181,0.7290492,0.039999705,0.03999957,-9.737267,0.06676248461008072,-0.86695147,-0.07243574,0.09616121649742126,0.010342742
2754.5333333407957,0.034165826,-0.83150774,-0.058310762,-2.4650056,-0.040777385,1.5426213,0.727824,0.0399997,0.039999567,-9.735766,0.07001052796840668,-0.88520193,-0.07342059,0.09729325771331787,0.010649901
2754.5500000074626,0.034888677,-0.83250904,-0.059551977,-2.4673178,-0.04164672,1.5420185,0.72658664,0.039999686,0.039999552,-9.734755,0.07337915152311325,-0.9034898,-0.07440699,0.09841541200876236,0.010961336
2754.5666666741295,0.03561848,-0.83352005,-0.06080514,-2.469652,-0.04252442,1.5414097,0.72533727,0.03999966,0.039999526,-9.732656,0.07678747922182083,-0.9222264,-0.07539405,0.09952741861343384,0.01127679
2754.5833333407963,0.03635518,-0.83454055,-0.06207013,-2.4720085,-0.043410424,1.5407954,0.7240761,0.039999638,0.039999504,-9.73101,0.08032268285751343,-0.94098,-0.07638161,0.10062902420759201,0.011596212
2754.600000007463,0.037098687,-0.83557063,-0.06334683,-2.4743867,-0.04430464,1.5401753,0.72280335,0.039999627,0.039999492,-9.729378,0.08395412564277649,-0.959935,-0.07736998,0.10171931982040405,0.011919595
2754.61666667413,0.037848946,-0.8366102,-0.06463512,-2.4767857,-0.045206957,1.5395495,0.721519,0.03999961,0.039999478,-9.728139,0.0876883864402771,-0.97891134,-0.07835924,0.10279817879199982,0.012246919
2754.633333340797,0.038605865,-0.83765876,-0.06593487,-2.4792056,-0.046117295,1.5389181,0.7202233,0.03999959,0.039999455,-9.725776,0.09151510149240494,-0.9982756,-0.07934871,0.10386941581964493,0.012577926
2754.650000007464,0.0393694,-0.8387165,-0.06724593,-2.4816465,-0.04703557,1.5382813,0.71891624,0.03999957,0.039999437,-9.723921,0.0954521968960762,-1.0177181,-0.08033911,0.10493015497922897,0.01291261
2754.6666666741307,0.04013945,-0.8397835,-0.06856818,-2.484109,-0.047961693,1.5376393,0.71759796,0.039999552,0.039999418,-9.722537,0.0994792953133583,-1.0371935,-0.08132915,0.10597884654998779,0.013250824
2754.6833333407976,0.04091593,-0.8408593,-0.069901526,-2.4865925,-0.048895564,1.5369917,0.7162687,0.039999537,0.039999403,-9.720174,0.10362829267978668,-1.0570283,-0.08231866,0.10701479017734528,0.013592341
2754.7000000074645,0.041698784,-0.8419439,-0.071245775,-2.489096,-0.04983708,1.5363388,0.7149286,0.039999522,0.03999939,-9.718264,0.10787900537252426,-1.0769373,-0.08330822,0.10803543776273727,0.013936674
2754.7166666741314,0.04248792,-0.8430372,-0.072600804,-2.491619,-0.050786152,1.5356808,0.7135778,0.039999507,0.039999373,-9.716211,0.11223535239696503,-1.0969851,-0.0842974,0.10904431343078613,0.014284227
2754.7333333407983,0.043283254,-0.84413904,-0.07396649,-2.4941628,-0.051742677,1.5350175,0.7122164,0.03999949,0.039999355,-9.714515,0.11667479574680328,-1.1171153,-0.08528625,0.11004279553890228,0.01463487
2754.750000007465,0.04408471,-0.8452495,-0.075342655,-2.4967253,-0.052706562,1.5343491,0.7108444,0.03999947,0.039999336,-9.7120285,0.12127495557069778,-1.1375535,-0.086273834,0.11102396994829178,0.014987861
2754.766666674132,0.044892203,-0.8463683,-0.07672916,-2.4993079,-0.053677693,1.5336757,0.7094621,0.039999444,0.039999314,-9.709725,0.12596365809440613,-1.1580346,-0.0872602,0.11199481785297394,0.015343878
2754.783333340799,0.04570563,-0.8474954,-0.07812588,-2.5019085,-0.054655984,1.5329973,0.7080697,0.039999418,0.039999288,-9.707543,0.1307525634765625,-1.1786748,-0.08824511,0.1129503846168518,0.015701436
2754.8000000074658,0.046524916,-0.8486304,-0.07953266,-2.5045288,-0.055641327,1.5323141,0.70666724,0.039999396,0.039999265,-9.7056,0.13562807440757751,-1.1993927,-0.08922888,0.11389393359422684,0.016062194
2754.8166666741326,0.047349975,-0.8497736,-0.080949344,-2.5071669,-0.056633595,1.5316259,0.7052548,0.039999377,0.03999925,-9.702848,0.14069010317325592,-1.220384,-0.090210825,0.11482150107622147,0.01642418
2754.8333333407995,0.048180714,-0.85092455,-0.08237577,-2.5098233,-0.05763269,1.530933,0.70383275,0.039999355,0.039999224,-9.700348,0.1458415687084198,-1.2414242,-0.09119035,0.11573629081249237,0.016789824
2754.8500000074664,0.049017046,-0.85208344,-0.083811805,-2.5124974,-0.05863851,1.5302356,0.7024013,0.03999934,0.039999213,-9.697906,0.15109197795391083,-1.2626164,-0.09216814,0.11663492769002914,0.017156372
2754.8666666741333,0.04985889,-0.8532499,-0.085257255,-2.5151896,-0.059650935,1.5295339,0.7009605,0.039999325,0.0399992,-9.695723,0.15640327334403992,-1.2838594,-0.09314456,0.11752120405435562,0.017523961
2754.8833333408,0.050706103,-0.8544239,-0.08671199,-2.5178988,-0.06066986,1.5288271,0.69951046,0.039999302,0.039999176,-9.6927395,0.1619533896446228,-1.3053546,-0.09411847,0.1183910071849823,0.01789372
2754.900000007467,0.05155863,-0.8556052,-0.08817581,-2.5206249,-0.061695162,1.5281162,0.69805115,0.039999284,0.03999916,-9.690011,0.16756890714168549,-1.3268994,-0.09508962,0.1192457303404808,0.018264007
2754.916666674134,0.05241638,-0.8567938,-0.08964858,-2.5233674,-0.06272675,1.5274009,0.6965825,0.039999273,0.03999915,-9.68767,0.17323531210422516,-1.3485392,-0.09605684,0.12008623778820038,0.018636359
2754.933333340801,0.05327924,-0.8579894,-0.09113011,-2.526127,-0.06376448,1.5266812,0.6951057,0.039999258,0.039999135,-9.684406,0.17916162312030792,-1.3703653,-0.09701879,0.12091241776943207,0.019009903
2754.9500000074677,0.054147135,-0.8591918,-0.09262026,-2.5289028,-0.06480826,1.5259575,0.69361967,0.039999243,0.03999912,-9.681648,0.18512842059135437,-1.3922714,-0.09797986,0.12171749770641327,0.01938374
2754.9666666741346,0.05501994,-0.8604012,-0.09411888,-2.531694,-0.06585795,1.5252298,0.6921257,0.039999217,0.039999094,-9.67869,0.19123101234436035,-1.414316,-0.0989341,0.12250828742980957,0.019758517
2754.9833333408014,0.055897556,-0.8616173,-0.09562576,-2.5345004,-0.06691343,1.5244983,0.6906235,0.0399992,0.03999908,-9.676034,0.19736404716968536,-1.4364015,-0.09988701,0.12328435480594635,0.020132907
2755.0000000074683,0.056779902,-0.86283976,-0.097140715,-2.5373218,-0.06797456,1.5237627,0.68911326,0.039999183,0.039999064,-9.67253,0.2038002461194992,-1.4586458,-0.10083565,0.12404682487249374,0.02050855
2755.016666674135,0.057666887,-0.8640688,-0.09866362,-2.5401583,-0.06904125,1.5230232,0.68759495,0.039999165,0.03999905,-9.6694,0.2102648913860321,-1.4809806,-0.10177995,0.12479064613580704,0.020883247
2755.033333340802,0.05855838,-0.86530405,-0.10019424,-2.5430093,-0.070113376,1.5222801,0.6860689,0.039999146,0.03999903,-9.666202,0.2168639600276947,-1.503395,-0.10271845,0.12551765143871307,0.021258513
2755.050000007469,0.059454277,-0.8665455,-0.10173243,-2.545875,-0.07119078,1.5215333,0.6845353,0.039999127,0.039999012,-9.66329,0.22347621619701385,-1.5259081,-0.1036519,0.12622788548469543,0.021633536
2755.066666674136,0.06035449,-0.8677929,-0.10327804,-2.5487537,-0.07227339,1.5207826,0.68299425,0.039999127,0.039999016,-9.659658,0.2304225116968155,-1.5485146,-0.10458,0.12691807746887207,0.022006916
2755.0833333408027,0.06125891,-0.86904603,-0.104830846,-2.551645,-0.07336104,1.5200281,0.68144596,0.039999112,0.039999,-9.656117,0.23740670084953308,-1.5712016,-0.1055022,0.12759454548358917,0.022380743
2755.1000000074696,0.062167436,-0.87030476,-0.10639067,-2.5545504,-0.07445362,1.5192702,0.6798908,0.039999094,0.039998982,-9.6525545,0.2445143759250641,-1.5939711,-0.10641887,0.12825508415699005,0.022753913
2755.1166666741365,0.06307997,-0.8715692,-0.10795734,-2.557469,-0.075551,1.5185093,0.6783288,0.039999083,0.039998975,-9.64943,0.25161096453666687,-1.6168419,-0.10732986,0.12889346480369568,0.023124592
2755.1333333408033,0.063996404,-0.8728391,-0.10953068,-2.5603988,-0.076653056,1.517745,0.6767601,0.03999907,0.039998963,-9.645485,0.2590920031070709,-1.6397686,-0.10823417,0.12951532006263733,0.02349498
2755.15000000747,0.06491659,-0.8741143,-0.11111048,-2.5633411,-0.07775967,1.5169773,0.6751849,0.03999906,0.039998956,-9.641617,0.26657626032829285,-1.662761,-0.10913186,0.13012483716011047,0.023863614
2755.166666674137,0.06584047,-0.87539434,-0.11269656,-2.5662956,-0.07887066,1.516207,0.6736034,0.03999904,0.039998937,-9.638241,0.2740577161312103,-1.6858426,-0.11002255,0.13071253895759583,0.024231125
2755.183333340804,0.066767894,-0.8766795,-0.11428875,-2.5692606,-0.07998591,1.5154334,0.67201596,0.039999034,0.039998934,-9.634085,0.28192633390426636,-1.708981,-0.110905744,0.1312827467918396,0.02459593
2755.200000007471,0.06769878,-0.8779694,-0.11588687,-2.5722377,-0.08110534,1.5146571,0.6704226,0.03999902,0.03999892,-9.6300745,0.2898049056529999,-1.7321596,-0.111782245,0.1318369209766388,0.024959633
2755.2166666741377,0.06863297,-0.87926376,-0.11749068,-2.5752249,-0.082228765,1.5138781,0.6688236,0.03999901,0.03999891,-9.626199,0.2977960407733917,-1.7554259,-0.112651,0.1323692798614502,0.025320001
2755.2333333408046,0.0695704,-0.88056284,-0.119100034,-2.5782218,-0.08335606,1.5130962,0.667219,0.03999901,0.03999891,-9.622317,0.30579060316085815,-1.778793,-0.11351215,0.13288640975952148,0.025678879
2755.2500000074715,0.070510946,-0.8818662,-0.1207147,-2.5812304,-0.08448709,1.5123118,0.66560894,0.039998997,0.0399989,-9.617831,0.31418994069099426,-1.802082,-0.11436477,0.13338689506053925,0.026035441
2755.2666666741384,0.071454495,-0.8831737,-0.12233452,-2.5842476,-0.08562173,1.5115249,0.66399384,0.039998993,0.0399989,-9.613788,0.32255467772483826,-1.8255113,-0.11520773,0.13386264443397522,0.026387641
2755.2833333408053,0.07240094,-0.88448524,-0.12395927,-2.5872731,-0.08675987,1.5107354,0.6623737,0.039998982,0.03999889,-9.609402,0.3310811221599579,-1.8489707,-0.11604252,0.13432267308235168,0.02673799
2755.300000007472,0.07335016,-0.8858006,-0.12558877,-2.5903075,-0.087901324,1.5099438,0.6607489,0.03999898,0.039998885,-9.605166,0.3395768105983734,-1.8725067,-0.1168679,0.13476821780204773,0.027085802
2755.316666674139,0.07430205,-0.8871196,-0.12722284,-2.5933506,-0.08904598,1.5091501,0.65911955,0.039998975,0.039998885,-9.600442,0.3484953045845032,-1.8959789,-0.11768422,0.13519662618637085,0.027429504
2755.333333340806,0.07525652,-0.8884421,-0.12886128,-2.5964034,-0.09019369,1.5083544,0.65748584,0.03999896,0.03999887,-9.595946,0.357398122549057,-1.9195426,-0.118490934,0.13560529053211212,0.027770407
2755.3500000074728,0.0762134,-0.88976806,-0.13050383,-2.5994642,-0.091344275,1.5075566,0.6558479,0.03999895,0.039998863,-9.591546,0.3664008677005768,-1.9431412,-0.1192868,0.1359880119562149,0.02810578
2755.3666666741397,0.07717261,-0.8910971,-0.13215035,-2.602531,-0.092497654,1.5067567,0.65420604,0.03999894,0.039998855,-9.58715,0.3753923177719116,-1.9668423,-0.120072104,0.1363505870103836,0.028437871
2755.3833333408065,0.07813402,-0.8924294,-0.13380063,-2.6056035,-0.09365367,1.5059551,0.65256053,0.039998934,0.03999885,-9.581975,0.3848353624343872,-1.9903979,-0.12084728,0.1367000788450241,0.028765844
2755.4000000074734,0.079097494,-0.89376444,-0.13545448,-2.6086826,-0.09481215,1.5051519,0.6509114,0.039998937,0.039998855,-9.576971,0.39426130056381226,-2.0140343,-0.12161249,0.13703860342502594,0.029091332
2755.4166666741403,0.080062926,-0.89510226,-0.13711171,-2.6117687,-0.09597299,1.5043466,0.6492589,0.039998934,0.039998855,-9.57234,0.40361085534095764,-2.0377858,-0.12236618,0.13735602796077728,0.029411146
2755.433333340807,0.08103021,-0.8964427,-0.13877207,-2.6148622,-0.097136065,1.50354,0.64760333,0.039998926,0.039998848,-9.567203,0.41343849897384644,-2.0613565,-0.12310873,0.1376512199640274,0.02972655
2755.450000007474,0.08199924,-0.89778554,-0.1404354,-2.6179624,-0.09830119,1.502732,0.6459448,0.03999892,0.039998844,-9.562362,0.42319032549858093,-2.0850546,-0.1238388,0.13792134821414948,0.030035755
2755.466666674141,0.0829699,-0.8991305,-0.14210144,-2.6210642,-0.09946827,1.5019226,0.6442835,0.039998908,0.039998837,-9.557398,0.433084100484848,-2.1087594,-0.12455627,0.13816675543785095,0.030339027
2755.483333340808,0.083942056,-0.90047765,-0.14377005,-2.6241727,-0.10063712,1.501112,0.64261955,0.0399989,0.03999883,-9.551945,0.44296643137931824,-2.1325328,-0.12526235,0.13840770721435547,0.03064027
2755.5000000074747,0.08491559,-0.90182656,-0.14544101,-2.6272852,-0.10180763,1.5003003,0.64095336,0.03999889,0.039998822,-9.546732,0.4532659351825714,-2.1561115,-0.1259551,0.1386212557554245,0.030934198
2755.5166666741416,0.08589039,-0.9031773,-0.14711416,-2.6304014,-0.10297961,1.4994875,0.63928497,0.039998885,0.03999882,-9.541345,0.463543564081192,-2.1797903,-0.12663533,0.138817697763443,0.031223668
2755.5333333408084,0.086866304,-0.9045297,-0.14878914,-2.6335223,-0.104152955,1.4986738,0.63761467,0.03999888,0.03999882,-9.535887,0.4739290475845337,-2.203442,-0.12730215,0.13899683952331543,0.031506743
2755.5500000074753,0.08784325,-0.9058834,-0.15046585,-2.636646,-0.105327524,1.4978591,0.63594264,0.039998874,0.039998814,-9.530697,0.48423126339912415,-2.2272043,-0.12795489,0.13915075361728668,0.031783517
2755.566666674142,0.08882108,-0.9072383,-0.15214407,-2.639771,-0.10650316,1.4970437,0.6342691,0.03999887,0.03999881,-9.524931,0.49504202604293823,-2.250717,-0.12859426,0.13928720355033875,0.032055315
2755.583333340809,0.0897997,-0.90859437,-0.15382366,-2.6429007,-0.107679695,1.496228,0.6325942,0.039998867,0.03999881,-9.519093,0.5057950615882874,-2.2743058,-0.12922037,0.1394115388393402,0.032321483
2755.600000007476,0.09077901,-0.90995127,-0.15550429,-2.6460311,-0.10885701,1.4954114,0.6309182,0.039998874,0.03999882,-9.513707,0.5166263580322266,-2.2979004,-0.12983076,0.13950718939304352,0.03258046
2755.616666674143,0.09175885,-0.9113091,-0.15718587,-2.6491632,-0.11003498,1.4945943,0.62924135,0.039998878,0.039998826,-9.507874,0.5274098515510559,-2.3215647,-0.13042662,0.13958780467510223,0.032833155
2755.6333333408097,0.0927391,-0.9126675,-0.15886812,-2.6522965,-0.11121345,1.4937772,0.6275637,0.03999888,0.03999883,-9.50187,0.5386918783187866,-2.3449273,-0.13100845,0.13965174555778503,0.033080418
2755.6500000074766,0.09371966,-0.91402614,-0.16055092,-2.6554317,-0.112392254,1.4929597,0.6258856,0.03999888,0.039998833,-9.495983,0.5498679876327515,-2.368395,-0.13157408,0.1396963745355606,0.033320446
2755.6666666741435,0.094700396,-0.9153852,-0.162234,-2.6585684,-0.113571264,1.4921421,0.6242073,0.039998885,0.039998837,-9.490208,0.560982882976532,-2.391982,-0.13212436,0.13971710205078125,0.033553246
2755.6833333408103,0.095681205,-0.91674423,-0.1639171,-2.661705,-0.114750326,1.4913243,0.6225288,0.03999888,0.039998837,-9.484184,0.5725641846656799,-2.4152215,-0.132659,0.13971427083015442,0.033777952
2755.7000000074772,0.096661925,-0.9181031,-0.16560009,-2.6648414,-0.115929306,1.4905065,0.6208505,0.03999889,0.039998844,-9.478032,0.5840780138969421,-2.4385664,-0.13317671,0.1396932303905487,0.033996683
2755.716666674144,0.09764248,-0.9194618,-0.16728278,-2.6679761,-0.117108025,1.4896891,0.6191724,0.039998896,0.039998855,-9.471873,0.5957027077674866,-2.4618714,-0.1336787,0.13965147733688354,0.03420697
2755.733333340811,0.098622754,-0.92082006,-0.16896483,-2.6711087,-0.11828639,1.4888719,0.6174949,0.039998904,0.039998867,-9.465504,0.6072484850883484,-2.4852452,-0.1341637,0.13959713280200958,0.03441104
2755.750000007478,0.09960258,-0.9221778,-0.17064613,-2.6742396,-0.11946424,1.4880551,0.61581814,0.039998904,0.039998867,-9.459019,0.619270384311676,-2.5082438,-0.13463278,0.13952818512916565,0.034609586
2755.7666666741447,0.10058188,-0.92353463,-0.17232653,-2.6773698,-0.12064141,1.4872385,0.61414236,0.03999891,0.039998878,-9.452606,0.6311909556388855,-2.5313299,-0.1350847,0.13944141566753387,0.034800176
2755.7833333408116,0.10156052,-0.9248907,-0.17400575,-2.6804981,-0.12181777,1.4864229,0.61246765,0.039998915,0.03999888,-9.446286,0.6432133913040161,-2.5543668,-0.1355192,0.13933062553405762,0.03498289
2755.8000000074785,0.10253836,-0.9262456,-0.17568359,-2.6836238,-0.12299317,1.4856077,0.61079437,0.03999893,0.0399989,-9.439835,0.6551361680030823,-2.5775003,-0.1359353,0.13920073211193085,0.03515808
2755.8166666741454,0.10351532,-0.9275994,-0.17735983,-2.6867456,-0.124167465,1.4847933,0.6091225,0.039998937,0.039998908,-9.433231,0.667534589767456,-2.600219,-0.13633399,0.13905227184295654,0.03532461
2755.8333333408123,0.104491256,-0.9289517,-0.17903434,-2.6898654,-0.1253405,1.4839796,0.6074526,0.03999895,0.039998922,-9.426499,0.6798430681228638,-2.6230156,-0.13671422,0.13888853788375854,0.035484903
2755.850000007479,0.10546607,-0.9303023,-0.18070678,-2.6929803,-0.12651217,1.4831667,0.6057846,0.039998952,0.03999893,-9.4199705,0.6922197937965393,-2.6457522,-0.13707612,0.1386999636888504,0.035635024
2755.866666674146,0.1064396,-0.9316513,-0.18237703,-2.6960921,-0.12768224,1.4823552,0.60411876,0.039998956,0.039998934,-9.413053,0.7045360207557678,-2.6685743,-0.13741986,0.13849672675132751,0.03577925
2755.883333340813,0.10741175,-0.9329983,-0.18404494,-2.6991985,-0.1288507,1.4815447,0.60245526,0.03999896,0.039998937,-9.406377,0.7172707319259644,-2.6909788,-0.13774417,0.13827331364154816,0.035914678
2755.90000000748,0.10838241,-0.93434316,-0.18571027,-2.7023022,-0.13001737,1.4807357,0.6007945,0.039998963,0.039998945,-9.399405,0.7299401164054871,-2.7134397,-0.1380498,0.13803398609161377,0.036041606
2755.9166666741467,0.10935146,-0.9356858,-0.18737274,-2.7053988,-0.13118204,1.4799279,0.5991364,0.03999897,0.039998956,-9.392706,0.7424615025520325,-2.7360306,-0.13833551,0.13776718080043793,0.036159024
2755.9333333408135,0.11031878,-0.9370261,-0.18903221,-2.7084894,-0.13234457,1.4791216,0.59748137,0.039998975,0.03999896,-9.385554,0.7554780840873718,-2.7581165,-0.13860223,0.13749033212661743,0.03626963
2755.9500000074804,0.11128424,-0.9383638,-0.19068846,-2.7115772,-0.1335049,1.4783167,0.5958295,0.039998982,0.03999897,-9.378474,0.7683808207511902,-2.78029,-0.13884956,0.1371968537569046,0.03637283
2755.9666666741473,0.11224775,-0.9396989,-0.1923413,-2.7146573,-0.13466284,1.4775136,0.594181,0.03999899,0.03999898,-9.371797,0.7812974452972412,-2.80241,-0.1390753,0.1368703693151474,0.036464218
2755.983333340814,0.113209166,-0.9410308,-0.19399054,-2.7177298,-0.13581821,1.4767122,0.59253615,0.039999004,0.039998997,-9.364391,0.7941814064979553,-2.8245683,-0.13928127,0.13653326034545898,0.036549598
2756.000000007481,0.11416837,-0.94235986,-0.195636,-2.7207947,-0.13697097,1.4759128,0.59089506,0.039999012,0.039999004,-9.357209,0.807481050491333,-2.8462622,-0.13946773,0.1361805498600006,0.036625817
2756.016666674148,0.11512524,-0.9436858,-0.19727744,-2.7238517,-0.13812086,1.4751154,0.58925796,0.039999027,0.039999023,-9.349903,0.8206676840782166,-2.8680077,-0.139634,0.13581369817256927,0.036695182
2756.033333340815,0.11607969,-0.9450083,-0.19891465,-2.726901,-0.13926785,1.4743198,0.58762497,0.03999904,0.039999038,-9.34257,0.8339023590087891,-2.8896396,-0.13977966,0.13543233275413513,0.036755554
2756.0500000074817,0.1170316,-0.94632727,-0.20054744,-2.7299428,-0.14041172,1.4735266,0.58599645,0.039999045,0.039999045,-9.335201,0.8470265865325928,-2.9113472,-0.1399037,0.13502942025661469,0.03680784
2756.0666666741486,0.117980845,-0.94764256,-0.20217563,-2.732976,-0.14155237,1.4727353,0.5843725,0.03999906,0.03999906,-9.328008,0.8605509400367737,-2.932569,-0.14000683,0.13460807502269745,0.03685056
2756.0833333408154,0.11892729,-0.9489538,-0.20379902,-2.7360013,-0.14268968,1.4719466,0.58275324,0.039999068,0.03999907,-9.3206,0.8739722967147827,-2.9538414,-0.1400886,0.13416868448257446,0.03688537
2756.1000000074823,0.11987087,-0.9502611,-0.20541744,-2.7390177,-0.14382349,1.47116,0.5811391,0.03999908,0.039999083,-9.313305,0.8874320983886719,-2.9750338,-0.14014813,0.13370685279369354,0.036909793
2756.116666674149,0.12081144,-0.9515642,-0.20703061,-2.7420223,-0.14495365,1.4703763,0.5795303,0.039999083,0.03999909,-9.305715,0.9007819890975952,-2.9962606,-0.14018612,0.13322441279888153,0.03692563
2756.133333340816,0.121748894,-0.9528629,-0.20863838,-2.7450166,-0.14608005,1.4695953,0.57792675,0.039999098,0.039999105,-9.298048,0.9145547151565552,-3.0169666,-0.14020476,0.1327369511127472,0.03693468
2756.150000007483,0.12268307,-0.95415723,-0.2102406,-2.7480023,-0.14720252,1.4688166,0.5763287,0.039999116,0.039999127,-9.290471,0.9281802773475647,-3.037735,-0.14020118,0.1322339028120041,0.036936413
2756.16666667415,0.12361394,-0.9554469,-0.21183702,-2.750976,-0.14832093,1.4680408,0.57473636,0.039999124,0.039999135,-9.282931,0.9416447281837463,-3.0585597,-0.1401744,0.1317039579153061,0.036926426
2756.1833333408167,0.124541335,-0.9567317,-0.21342753,-2.7539392,-0.14943513,1.4672679,0.5731499,0.039999135,0.039999146,-9.275331,0.9555281400680542,-3.0788527,-0.1401259,0.13116316497325897,0.03690986
2756.2000000074836,0.12546517,-0.95801145,-0.21501186,-2.7568905,-0.15054505,1.4664985,0.57156944,0.039999146,0.03999916,-9.267746,0.9692641496658325,-3.0992255,-0.14005494,0.13060307502746582,0.03688304
2756.2166666741505,0.12638544,-0.95928633,-0.21658984,-2.7598307,-0.15165056,1.4657311,0.56999546,0.039999165,0.03999918,-9.259974,0.9830570816993713,-3.1194491,-0.13996094,0.13003064692020416,0.036849577
2756.2333333408174,0.12730183,-0.96055585,-0.2181613,-2.762758,-0.15275149,1.4649674,0.56842804,0.03999918,0.0399992,-9.252156,0.9966835379600525,-3.139685,-0.13984461,0.12943485379219055,0.03680657
2756.2500000074842,0.1282143,-0.96181995,-0.21972603,-2.7656739,-0.1538477,1.4642073,0.5668672,0.039999183,0.039999202,-9.244532,1.010693073272705,-3.1594255,-0.13970697,0.12882740795612335,0.036754824
2756.266666674151,0.12912281,-0.96307844,-0.22128387,-2.7685764,-0.15493912,1.4634497,0.5653133,0.03999919,0.039999213,-9.236868,1.0245463848114014,-3.1792243,-0.13954543,0.12820157408714294,0.036695097
2756.283333340818,0.13002719,-0.96433127,-0.22283466,-2.7714653,-0.15602554,1.462696,0.5637663,0.039999206,0.039999228,-9.229036,1.0384376049041748,-3.1988273,-0.13936225,0.12755762040615082,0.03662652
2756.300000007485,0.13092738,-0.96557826,-0.2243782,-2.7743409,-0.15710692,1.461946,0.5622267,0.039999224,0.03999925,-9.220902,1.0522048473358154,-3.2184985,-0.13915586,0.12690205872058868,0.036549434
2756.3166666741517,0.13182324,-0.9668194,-0.22591422,-2.7772036,-0.15818305,1.4611999,0.5606945,0.039999235,0.03999926,-9.21333,1.0662763118743896,-3.2376263,-0.13892718,0.1262311488389969,0.03646503
2756.3333333408186,0.13271466,-0.96805435,-0.22744267,-2.7800517,-0.15925387,1.4604576,0.5591696,0.039999254,0.03999928,-9.205588,1.0801936388015747,-3.2567968,-0.13867494,0.12554238736629486,0.036371794
2756.3500000074855,0.1336016,-0.969283,-0.22896332,-2.7828848,-0.16031922,1.459719,0.5576525,0.039999265,0.039999295,-9.197679,1.0941506624221802,-3.2757971,-0.13839889,0.12483978271484375,0.03627003
2756.3666666741524,0.13448384,-0.9705052,-0.230476,-2.785703,-0.16137902,1.458984,0.55614316,0.03999928,0.03999931,-9.189443,1.1079833507537842,-3.294823,-0.13810012,0.12412364780902863,0.036161214
2756.3833333408193,0.13536137,-0.9717208,-0.23198053,-2.7885063,-0.16243307,1.458253,0.55464274,0.0399993,0.039999332,-9.181802,1.1220860481262207,-3.313293,-0.13777825,0.12339349091053009,0.036043767
2756.400000007486,0.13623406,-0.9729298,-0.23347673,-2.791294,-0.1634813,1.457526,0.55315036,0.03999932,0.039999355,-9.173956,1.1360431909561157,-3.3318117,-0.13743694,0.12264594435691833,0.03591807
2756.416666674153,0.13710187,-0.97413194,-0.23496443,-2.7940664,-0.16452359,1.456803,0.55166626,0.03999934,0.039999373,-9.165726,1.1498771905899048,-3.350346,-0.13707116,0.12188318371772766,0.0357844
2756.43333334082,0.13796462,-0.9753271,-0.23644347,-2.7968228,-0.1655598,1.4560841,0.55019087,0.03999936,0.039999392,-9.158126,1.1639574766159058,-3.3683438,-0.13668148,0.12110500037670135,0.03564297
2756.450000007487,0.13882224,-0.97651505,-0.2379137,-2.7995615,-0.1665898,1.4553697,0.5487241,0.03999937,0.039999403,-9.150203,1.1779139041900635,-3.3863604,-0.13626932,0.12031203508377075,0.035493325
2756.4666666741537,0.13967468,-0.9776958,-0.23937498,-2.8022838,-0.16761358,1.4546595,0.5472666,0.039999384,0.03999942,-9.142141,1.1918649673461914,-3.404195,-0.1358344,0.11950984597206116,0.035336036
2756.4833333408205,0.14052181,-0.9788691,-0.24082713,-2.8049893,-0.16863091,1.4539537,0.5458181,0.0399994,0.039999437,-9.13389,1.205682396888733,-3.4220426,-0.13537756,0.11869210004806519,0.035171885
2756.5000000074874,0.14136353,-0.9800349,-0.24226992,-2.807678,-0.16964172,1.4532526,0.5443789,0.039999425,0.039999463,-9.1263275,1.2197048664093018,-3.4393702,-0.13489716,0.11785884946584702,0.034999423
2756.5166666741543,0.14219971,-0.98119324,-0.2437032,-2.8103485,-0.17064588,1.452556,0.542949,0.039999444,0.03999948,-9.118445,1.2335892915725708,-3.4566991,-0.13439345,0.11701023578643799,0.034819193
2756.533333340821,0.14303029,-0.98234373,-0.24512687,-2.8130014,-0.17164333,1.451864,0.54152894,0.039999466,0.039999504,-9.110418,1.2474697828292847,-3.4738386,-0.13386738,0.11615245789289474,0.034632474
2756.550000007488,0.14385517,-0.9834863,-0.2465408,-2.815636,-0.17263387,1.4511769,0.5401185,0.03999949,0.039999526,-9.102178,1.2612065076828003,-3.4910016,-0.13331915,0.11527802050113678,0.034437858
2756.566666674155,0.14467427,-0.984621,-0.24794473,-2.8182518,-0.17361744,1.4504944,0.5387179,0.03999951,0.03999955,-9.094616,1.2751260995864868,-3.5076215,-0.13274804,0.11439109593629837,0.034235645
2756.583333340822,0.14548753,-0.9857474,-0.24933857,-2.8208492,-0.17459391,1.4498172,0.5373273,0.03999953,0.039999567,-9.086663,1.2889078855514526,-3.5242262,-0.13215426,0.11349260807037354,0.03402673
2756.6000000074887,0.14629483,-0.9868655,-0.25072214,-2.8234267,-0.17556328,1.4491448,0.535947,0.039999552,0.03999959,-9.078769,1.3026620149612427,-3.540691,-0.1315376,0.11258174479007721,0.033810947
2756.6166666741556,0.14709607,-0.9879753,-0.25209537,-2.8259857,-0.17652537,1.4484773,0.534577,0.039999567,0.039999604,-9.070422,1.3162918090820312,-3.5571125,-0.1308996,0.11166013777256012,0.03358896
2756.6333333408224,0.14789116,-0.9890767,-0.25345808,-2.828524,-0.17748004,1.4478151,0.53321767,0.039999586,0.03999962,-9.063029,1.3300470113754272,-3.5730245,-0.13023849,0.11072254180908203,0.03335973
2756.6500000074893,0.14868009,-0.99016935,-0.25481,-2.8310432,-0.17842723,1.447158,0.53186893,0.0399996,0.039999634,-9.055032,1.3436791896820068,-3.588897,-0.12955694,0.10977841168642044,0.03312403
2756.666666674156,0.14946268,-0.9912533,-0.25615117,-2.8335426,-0.17936684,1.4465063,0.53053087,0.03999962,0.039999653,-9.046859,1.3571571111679077,-3.6048014,-0.12885273,0.10881927609443665,0.032881673
2756.683333340823,0.15023889,-0.9923285,-0.25748137,-2.836021,-0.18029876,1.4458597,0.52920383,0.039999634,0.039999668,-9.039494,1.3707668781280518,-3.6201708,-0.12812638,0.10784666240215302,0.032631867
2756.70000000749,0.15100868,-0.99339473,-0.2588004,-2.8384783,-0.18122287,1.4452183,0.5278879,0.039999653,0.039999686,-9.031609,1.3842555284500122,-3.6355085,-0.12737912,0.10686583071947098,0.032376673
2756.716666674157,0.15177187,-0.9944517,-0.2601082,-2.840915,-0.18213911,1.4445826,0.5265831,0.039999675,0.03999971,-9.023764,1.3976726531982422,-3.6506584,-0.12661092,0.10587525367736816,0.032115556
2756.7333333408237,0.15252848,-0.9954995,-0.26140466,-2.8433309,-0.18304741,1.4439522,0.5252897,0.0399997,0.03999973,-9.01563,1.4109704494476318,-3.665821,-0.12582095,0.10487052798271179,0.03184823
2756.7500000074906,0.15327844,-0.99653834,-0.2626896,-2.8457253,-0.18394767,1.4433277,0.52400786,0.039999716,0.039999746,-9.008377,1.4243255853652954,-3.6804614,-0.12501048,0.10385402292013168,0.03157404
2756.7666666741575,0.15402165,-0.9975676,-0.26396295,-2.8480978,-0.18483979,1.4427085,0.5227374,0.03999974,0.039999764,-9.000662,1.4375569820404053,-3.6950657,-0.12417882,0.10282877087593079,0.031295206
2756.7833333408244,0.15475795,-0.99858725,-0.26522458,-2.8504488,-0.1857237,1.4420952,0.52147865,0.039999757,0.039999783,-8.992968,1.450724482536316,-3.7094934,-0.12332606,0.10179303586483002,0.031009736
2756.8000000074912,0.15548736,-0.9995975,-0.2664743,-2.8527777,-0.18659927,1.4414878,0.52023184,0.039999776,0.039999798,-8.984897,1.4637696743011475,-3.7239013,-0.12245335,0.10074537992477417,0.030718103
2756.816666674158,0.1562098,-1.0005982,-0.26771203,-2.855084,-0.18746647,1.4408865,0.5189969,0.03999981,0.039999835,-8.97774,1.476840615272522,-3.7378004,-0.12156054,0.09969015419483185,0.030421432
2756.833333340825,0.15692523,-1.0015887,-0.26893765,-2.8573678,-0.18832517,1.4402909,0.5177741,0.03999983,0.03999986,-8.970154,1.4897793531417847,-3.7516677,-0.12064717,0.09862691909074783,0.030118646
2756.850000007492,0.15763354,-1.0025696,-0.2701511,-2.8596284,-0.1891753,1.4397013,0.51656353,0.039999854,0.039999884,-8.96262,1.5026475191116333,-3.7653594,-0.11971493,0.09755270928144455,0.029810244
2756.8666666741588,0.15833464,-1.0035406,-0.27135214,-2.8618667,-0.19001679,1.4391177,0.5153652,0.039999876,0.03999991,-8.954573,1.5153995752334595,-3.778986,-0.11876364,0.0964726135134697,0.029496249
2756.8833333408256,0.15902849,-1.0045015,-0.27254087,-2.8640814,-0.19084957,1.43854,0.51417935,0.0399999,0.03999994,-8.947698,1.5281193256378174,-3.792155,-0.117792256,0.09538061916828156,0.029176928
2756.9000000074925,0.159715,-1.0054523,-0.273717,-2.8662732,-0.19167353,1.4379683,0.5130059,0.039999913,0.03999997,-8.940218,1.5407354831695557,-3.8052638,-0.116803356,0.09428197145462036,0.028850375
2756.9166666741594,0.16039419,-1.006393,-0.2748805,-2.868441,-0.19248864,1.4374028,0.5118452,0.039999932,0.04,-8.932433,1.5531922578811646,-3.818346,-0.11579464,0.09317205846309662,0.028516198
2756.9333333408263,0.16106594,-1.0073234,-0.27603132,-2.870585,-0.19329482,1.4368436,0.5106971,0.039999947,0.04,-8.925545,1.5656734704971313,-3.8309565,-0.1147684,0.09205663949251175,0.028177964
2756.950000007493,0.16173021,-1.0082433,-0.27716905,-2.8727047,-0.194092,1.4362906,0.5095619,0.039999966,0.04,-8.9182415,1.5779931545257568,-3.8435104,-0.11372423,0.09093624353408813,0.02783138
2756.96666667416,0.16238695,-1.0091525,-0.2782939,-2.8748007,-0.19488014,1.4357439,0.5084398,0.03999998,0.04,-8.910982,1.5902217626571655,-3.8558893,-0.112662725,0.08980775624513626,0.02748098
2756.983333340827,0.16303612,-1.0100515,-0.2794058,-2.8768733,-0.19565913,1.4352034,0.50733054,0.03999998,0.04,-8.903324,1.602371335029602,-3.8682148,-0.11158466,0.08866893500089645,0.027130956
2757.000000007494,0.16367766,-1.0109398,-0.2805045,-2.8789203,-0.1964289,1.4346696,0.50623435,0.039999988,0.04,-8.896856,1.614425778388977,-3.8801053,-0.11048794,0.08751793950796127,0.026777552
2757.0166666741607,0.16431145,-1.0118176,-0.28159004,-2.880943,-0.19718936,1.4341419,0.50515133,0.039999988,0.04,-8.8896,1.6264374256134033,-3.8919117,-0.109375216,0.08636660873889923,0.026430866
2757.0333333408275,0.1649375,-1.0126845,-0.28266224,-2.8829412,-0.19794051,1.4336209,0.5040815,0.039999984,0.04,-8.882615,1.6382389068603516,-3.9035408,-0.10824631,0.08520697057247162,0.026075559
2757.0500000074944,0.16555575,-1.0135406,-0.28372106,-2.8849142,-0.19868234,1.4331062,0.503025,0.03999998,0.04,-8.875147,1.649906039237976,-3.9151366,-0.10710083,0.08404137939214706,0.025711264
2757.0666666741613,0.16616614,-1.0143859,-0.2847665,-2.8868623,-0.19941473,1.4325981,0.5019819,0.039999977,0.04,-8.868756,1.6615815162658691,-3.9262655,-0.10593982,0.08286792784929276,0.025351996
2757.083333340828,0.16676867,-1.0152202,-0.28579828,-2.888785,-0.20013765,1.4320967,0.5009525,0.039999977,0.04,-8.8618965,1.673052430152893,-3.937363,-0.10476395,0.08169079571962357,0.02498511
2757.100000007495,0.16736326,-1.0160439,-0.28681657,-2.8906827,-0.20085102,1.431602,0.4999365,0.039999977,0.04,-8.8550825,1.6844539642333984,-3.9482706,-0.103574164,0.08050759881734848,0.02461915
2757.116666674162,0.1679499,-1.0168563,-0.28782126,-2.8925543,-0.20155485,1.4311137,0.49893406,0.03999997,0.04,-8.847852,1.6956772804260254,-3.9590971,-0.10236876,0.07932055741548538,0.024247106
2757.133333340829,0.16852857,-1.0176575,-0.2888122,-2.8944016,-0.20224905,1.430632,0.49794537,0.039999973,0.04,-8.841661,1.7068380117416382,-3.9695148,-0.101149894,0.07812891155481339,0.0238715
2757.1500000074957,0.1690992,-1.0184478,-0.28978935,-2.8962219,-0.20293361,1.4301571,0.49697044,0.039999966,0.04,-8.835211,1.717836618423462,-3.979906,-0.099916585,0.07692622393369675,0.023492767
2757.1666666741626,0.16966175,-1.0192268,-0.29075262,-2.8980167,-0.20360847,1.4296888,0.4960093,0.039999966,0.04,-8.827937,1.7287616729736328,-3.990163,-0.09867134,0.07572700083255768,0.023112433
2757.1833333408294,0.17021623,-1.0199949,-0.29170197,-2.8997858,-0.20427363,1.4292274,0.49506208,0.039999958,0.04,-8.822077,1.7395142316818237,-4.0000663,-0.09741289,0.07452096045017242,0.022729576
2757.2000000074963,0.17076255,-1.0207514,-0.29263747,-2.901529,-0.20492902,1.4287727,0.4941287,0.039999947,0.04,-8.815658,1.7501530647277832,-4.0098844,-0.096142255,0.07331244647502899,0.022345163
2757.216666674163,0.17130071,-1.0214965,-0.293559,-2.9032462,-0.2055746,1.4283248,0.49320927,0.03999994,0.04,-8.809374,1.760676622390747,-4.0195513,-0.094859414,0.07209774106740952,0.021958265
2757.23333334083,0.1718307,-1.0222301,-0.29446653,-2.9049373,-0.20621037,1.4278836,0.4923038,0.039999936,0.04,-8.802508,1.7710765600204468,-4.029104,-0.09356553,0.07088059931993484,0.021568408
2757.250000007497,0.17235251,-1.0229524,-0.2953599,-2.9066017,-0.20683622,1.4274492,0.49141234,0.039999936,0.04,-8.796915,1.7813100814819336,-4.0383263,-0.09226037,0.06965813785791397,0.021176897
2757.266666674164,0.17286617,-1.0236636,-0.29623917,-2.9082406,-0.20745222,1.4270217,0.49053505,0.039999932,0.04,-8.790708,1.791428804397583,-4.047437,-0.090945154,0.06843575090169907,0.020782921
2757.2833333408307,0.17337152,-1.0243634,-0.29710436,-2.909852,-0.20805833,1.4266015,0.48967177,0.03999993,0.04,-8.784755,1.8013797998428345,-4.0563974,-0.08961888,0.06720830500125885,0.020387799
2757.3000000074976,0.17386864,-1.025052,-0.29795536,-2.9114373,-0.2086545,1.426188,0.4888227,0.039999925,0.04,-8.778028,1.8112925291061401,-4.0652294,-0.08828437,0.06598678976297379,0.019993743
2757.3166666741645,0.17435744,-1.025729,-0.29879212,-2.9129975,-0.20924075,1.4257812,0.4879878,0.039999913,0.04,-8.772731,1.8209565877914429,-4.073743,-0.08694062,0.06476209312677383,0.019598056
2757.3333333408314,0.17483796,-1.0263944,-0.29961464,-2.914531,-0.20981702,1.4253813,0.4871669,0.039999913,0.04,-8.767074,1.830515742301941,-4.0821943,-0.08558732,0.06352831423282623,0.019202879
2757.3500000074982,0.1753102,-1.0270482,-0.3004231,-2.9160373,-0.21038333,1.4249883,0.48636037,0.039999906,0.04,-8.761308,1.8399178981781006,-4.090459,-0.084225595,0.06229361519217491,0.018802468
2757.366666674165,0.17577413,-1.0276904,-0.30121717,-2.9175174,-0.21093976,1.424602,0.48556793,0.039999902,0.04,-8.754948,1.8492484092712402,-4.098616,-0.082857676,0.06106208264827728,0.018401546
2757.383333340832,0.17622977,-1.0283211,-0.30199733,-2.9189708,-0.21148616,1.4242231,0.4847897,0.039999895,0.04,-8.749957,1.8583546876907349,-4.1064854,-0.081482105,0.05982734262943268,0.018000202
2757.400000007499,0.1766771,-1.0289403,-0.30276313,-2.9203975,-0.21202256,1.4238511,0.48402584,0.03999989,0.04,-8.74441,1.8673549890518188,-4.1142445,-0.080100104,0.05859564244747162,0.01759655
2757.4166666741658,0.1771161,-1.029548,-0.3035145,-2.9217982,-0.212549,1.423486,0.4832761,0.03999988,0.04,-8.738383,1.8762390613555908,-4.121909,-0.07871309,0.057363443076610565,0.017192937
2757.4333333408326,0.17754683,-1.0301445,-0.30425167,-2.9231715,-0.21306545,1.4231274,0.4825406,0.039999884,0.04,-8.733652,1.8848869800567627,-4.129278,-0.077319615,0.05612939968705177,0.016789863
2757.4500000074995,0.1779692,-1.0307293,-0.30497465,-2.9245183,-0.21357189,1.4227759,0.48181933,0.03999988,0.04,-8.728229,1.893455982208252,-4.1365156,-0.07592224,0.05490076541900635,0.01638772
2757.4666666741664,0.17838326,-1.0313027,-0.3056833,-2.925839,-0.21406837,1.4224312,0.48111215,0.039999876,0.04,-8.723055,1.9018558263778687,-4.143617,-0.07452045,0.05367221683263779,0.015984738
2757.4833333408333,0.17878905,-1.0318648,-0.30637777,-2.927133,-0.21455492,1.4220934,0.48041922,0.039999876,0.04,-8.717384,1.9101488590240479,-4.1506433,-0.073114194,0.05244429409503937,0.015581818
2757.5000000075,0.17918657,-1.0324153,-0.30705804,-2.9284008,-0.21503146,1.4217628,0.4797404,0.039999865,0.04,-8.712908,1.9182080030441284,-4.157358,-0.0717049,0.051217786967754364,0.01517995
2757.516666674167,0.1795758,-1.0329541,-0.30772415,-2.9296417,-0.21549807,1.4214392,0.47907576,0.03999987,0.04,-8.707911,1.9261647462844849,-4.163992,-0.070292905,0.04999663680791855,0.0147787
2757.533333340834,0.17995682,-1.0334816,-0.3083762,-2.9308562,-0.21595483,1.4211221,0.47842517,0.039999858,0.04,-8.703029,1.93397855758667,-4.1704774,-0.06887936,0.04877696931362152,0.014377301
2757.550000007501,0.18032958,-1.0339975,-0.30901408,-2.9320447,-0.2164017,1.4208119,0.47778863,0.03999986,0.04,-8.697633,1.941676378250122,-4.176819,-0.067464076,0.04756058007478714,0.013976587
2757.5666666741677,0.18069406,-1.0345019,-0.30963784,-2.933207,-0.2168387,1.4205087,0.47716618,0.03999986,0.04,-8.693497,1.9491292238235474,-4.182943,-0.066047825,0.046346791088581085,0.013576675
2757.5833333408345,0.18105035,-1.0349951,-0.3102476,-2.9343429,-0.2172659,1.4202123,0.47655764,0.03999986,0.04,-8.6888895,1.956475853919983,-4.1889787,-0.06463152,0.04513561725616455,0.013176904
2757.6000000075014,0.18139853,-1.035477,-0.31084344,-2.9354534,-0.21768329,1.4199227,0.47596315,0.039999858,0.04,-8.684283,1.9636880159378052,-4.194818,-0.063215695,0.043929584324359894,0.012779904
2757.6166666741683,0.18173857,-1.0359477,-0.31142536,-2.9365375,-0.21809092,1.4196401,0.47538254,0.039999854,0.04,-8.679345,1.9707622528076172,-4.2005925,-0.061799828,0.04272616654634476,0.012383384
2757.633333340835,0.1820705,-1.0364071,-0.31199336,-2.9375963,-0.21848884,1.4193639,0.4748157,0.03999985,0.04,-8.675435,1.9776170253753662,-4.2061067,-0.060386155,0.041530054062604904,0.011989093
2757.650000007502,0.18239437,-1.0368553,-0.31254756,-2.938629,-0.21887705,1.4190944,0.47426265,0.03999985,0.04,-8.671213,1.9843368530273438,-4.2115264,-0.058973607,0.0403350405395031,0.011594528
2757.666666674169,0.18271026,-1.0372927,-0.31308797,-2.939636,-0.2192556,1.4188318,0.47372347,0.039999843,0.04,-8.666373,1.9909917116165161,-4.2168355,-0.05756422,0.039147671312093735,0.01120278
2757.683333340836,0.18301813,-1.037719,-0.31361473,-2.940617,-0.2196246,1.4185759,0.47319788,0.03999984,0.04,-8.66278,1.9973570108413696,-4.2219286,-0.05615816,0.03796787187457085,0.010812807
2757.7000000075027,0.18331806,-1.0381343,-0.31412783,-2.941573,-0.21998402,1.4183267,0.47268593,0.039999846,0.04,-8.658669,2.0036518573760986,-4.226904,-0.05475657,0.03679618239402771,0.010425281
2757.7166666741696,0.18361004,-1.0385387,-0.3146274,-2.942503,-0.22033398,1.4180838,0.47218743,0.03999983,0.04,-8.654692,2.0097901821136475,-4.2317457,-0.053359505,0.035631533712148666,0.0100428015
2757.7333333408365,0.18389416,-1.0389321,-0.31511343,-2.9434087,-0.22067451,1.4178475,0.47170243,0.039999835,0.04,-8.650206,2.015824317932129,-4.236464,-0.051967874,0.0344746895134449,0.0096613355
2757.7500000075033,0.18417048,-1.0393149,-0.3155862,-2.944289,-0.22100568,1.4176177,0.47123075,0.039999828,0.04,-8.647031,2.02156138420105,-4.241021,-0.050581828,0.033321645110845566,0.0092804115
2757.76666667417,0.18443903,-1.039687,-0.3160456,-2.9451451,-0.22132751,1.4173942,0.47077233,0.039999824,0.04,-8.643197,2.027254343032837,-4.2454305,-0.049202662,0.032181087881326675,0.008903177
2757.783333340837,0.18469986,-1.0400484,-0.31649187,-2.9459765,-0.22164011,1.4171773,0.47032705,0.03999982,0.04,-8.63964,2.032752752304077,-4.249738,-0.04783,0.031044790521264076,0.008527059
2757.800000007504,0.1849531,-1.0403991,-0.3169251,-2.9467833,-0.22194357,1.4169667,0.46989483,0.03999982,0.04,-8.635501,2.0381932258605957,-4.2539387,-0.04646542,0.029919438064098358,0.008154334
2757.816666674171,0.18519871,-1.0407393,-0.31734544,-2.947566,-0.22223796,1.4167625,0.46947554,0.039999824,0.04,-8.632493,2.0433719158172607,-4.2579374,-0.045109663,0.028803927823901176,0.0077847852
2757.8333333408377,0.18543684,-1.0410691,-0.31775254,-2.948325,-0.22252327,1.4165643,0.46906912,0.039999813,0.04,-8.629119,2.048454523086548,-4.261847,-0.0437625,0.02769714593887329,0.0074191163
2757.8500000075046,0.1856675,-1.0413886,-0.31814712,-2.94906,-0.22279967,1.4163727,0.46867532,0.039999813,0.04,-8.625796,2.053344488143921,-4.265633,-0.04242505,0.026598544791340828,0.0070550023
2757.8666666741715,0.1858908,-1.0416982,-0.3185291,-2.9497714,-0.22306724,1.416187,0.46829426,0.03999981,0.04,-8.621983,2.0582222938537598,-4.2693033,-0.04109789,0.02551306039094925,0.0066961297
2757.8833333408384,0.1861068,-1.0419973,-0.3188986,-2.95046,-0.22332604,1.4160074,0.46792573,0.039999817,0.04,-8.619309,2.0627827644348145,-4.2728066,-0.039782163,0.024439146742224693,0.006339753
2757.9000000075052,0.18631555,-1.0422866,-0.3192556,-2.951125,-0.22357617,1.415834,0.46756947,0.039999813,0.04,-8.616268,2.0672783851623535,-4.276225,-0.038478117,0.023372799158096313,0.005987107
2757.916666674172,0.18651715,-1.0425657,-0.31960043,-2.951767,-0.22381775,1.4156662,0.46722537,0.03999981,0.04,-8.61268,2.0716869831085205,-4.2795277,-0.037186466,0.022320955991744995,0.0056390804
2757.933333340839,0.18671167,-1.0428354,-0.31993324,-2.9523866,-0.22405086,1.4155046,0.46689335,0.039999805,0.04,-8.610198,2.0758492946624756,-4.2826743,-0.035908278,0.02128111571073532,0.0052948366
2757.950000007506,0.18689921,-1.043095,-0.320254,-2.9529839,-0.2242756,1.4153485,0.4665732,0.0399998,0.04,-8.60731,2.079902410507202,-4.285725,-0.03464363,0.02025565318763256,0.0049528866
2757.9666666741728,0.18707989,-1.0433456,-0.32056302,-2.9535592,-0.2244921,1.4151984,0.46626493,0.039999805,0.04,-8.604503,2.0838470458984375,-4.2886624,-0.0333932,0.0192410871386528,0.0046179453
2757.9833333408396,0.18725374,-1.0435863,-0.32086042,-2.954113,-0.22470044,1.4150537,0.4659682,0.03999981,0.04,-8.601287,2.0876901149749756,-4.2914925,-0.03215812,0.01824272982776165,0.0042881565
2758.0000000075065,0.18742087,-1.0438179,-0.32114637,-2.9546456,-0.2249007,1.4149147,0.46568295,0.03999981,0.04,-8.599134,2.0912935733795166,-4.294197,-0.030938398,0.01725373975932598,0.003961478
2758.0166666741734,0.18758143,-1.0440402,-0.32142094,-2.9551578,-0.22509302,1.4147812,0.46540898,0.03999981,0.04,-8.59656,2.0948047637939453,-4.296817,-0.029734995,0.01628001220524311,0.0036387518
2758.0333333408403,0.18773559,-1.0442538,-0.32168442,-2.9556487,-0.22527757,1.4146534,0.4651461,0.0399998,0.04,-8.594059,2.098181962966919,-4.2993355,-0.0285485,0.015318676829338074,0.0033201207
2758.050000007507,0.18788329,-1.0444585,-0.32193694,-2.956119,-0.22545446,1.4145305,0.46489418,0.039999805,0.04,-8.591115,2.101501941680908,-4.301736,-0.027379075,0.014376573264598846,0.0030077756
2758.066666674174,0.18802464,-1.0446541,-0.32217866,-2.956569,-0.22562385,1.4144131,0.46465296,0.03999981,0.04,-8.58913,2.1045966148376465,-4.303999,-0.026228938,0.01344914361834526,0.0027031898
2758.083333340841,0.18815985,-1.0448416,-0.32240984,-2.9569998,-0.22578576,1.4143009,0.4644223,0.03999981,0.04,-8.5867405,2.1076109409332275,-4.3061924,-0.025098667,0.012539651244878769,0.0024025235
2758.100000007508,0.18828899,-1.0450206,-0.32263064,-2.957411,-0.22594042,1.4141933,0.464202,0.039999813,0.04,-8.584559,2.110466480255127,-4.3082995,-0.023986852,0.011645921505987644,0.0021068722
2758.1166666741747,0.18841214,-1.0451914,-0.32284123,-2.9578035,-0.22608791,1.4140911,0.46399185,0.03999981,0.04,-8.581889,2.113287925720215,-4.310287,-0.022896275,0.010768290609121323,0.0018166023
2758.1333333408415,0.18852948,-1.045354,-0.32304186,-2.958177,-0.22622846,1.4139937,0.4637917,0.03999981,0.04,-8.580196,2.115863561630249,-4.3121967,-0.021826476,0.009908893145620823,0.0015324563
2758.1500000075084,0.18864113,-1.0455086,-0.32323274,-2.9585326,-0.22636217,1.4139009,0.4636013,0.039999813,0.04,-8.578044,2.1183950901031494,-4.313995,-0.020779386,0.00906939897686243,0.0012541608
2758.1666666741753,0.1887472,-1.0456557,-0.32341406,-2.95887,-0.22648914,1.4138128,0.46342036,0.039999813,0.04,-8.5756645,2.1208481788635254,-4.315733,-0.019754458,0.008245793171226978,0.0009826507
2758.183333340842,0.18884777,-1.0457952,-0.32358605,-2.9591904,-0.22660954,1.4137293,0.46324882,0.03999981,0.04,-8.573995,2.123093605041504,-4.3173385,-0.018753162,0.007445186376571655,0.0007179121
2758.200000007509,0.188943,-1.0459272,-0.32374898,-2.9594939,-0.22672364,1.4136502,0.4630863,0.03999981,0.04,-8.572109,2.125267744064331,-4.3188934,-0.017776057,0.006663649342954159,0.00045855972
2758.216666674176,0.18903309,-1.046052,-0.323903,-2.9597807,-0.2268315,1.4135752,0.46293262,0.03999981,0.04,-8.570267,2.1273529529571533,-4.3203654,-0.016823422,0.005899406969547272,0.00020730504
2758.233333340843,0.18911815,-1.0461701,-0.3240484,-2.9600515,-0.22693335,1.4135045,0.46278757,0.039999805,0.04,-8.568054,2.1293528079986572,-4.321747,-0.015896272,0.005157628562301397,-4.007464e-05
2758.2500000075097,0.1891983,-1.0462816,-0.3241854,-2.960307,-0.22702934,1.4134378,0.46265084,0.0399998,0.04,-8.566644,2.1311912536621094,-4.3230433,-0.014994992,0.004436662420630455,-0.00027676622
2758.2666666741766,0.18927374,-1.0463862,-0.32431436,-2.9605472,-0.22711961,1.4133751,0.46252218,0.039999798,0.04,-8.564899,2.132946491241455,-4.324265,-0.014120554,0.0037384149618446827,-0.0005079399
2758.2833333408435,0.18934454,-1.0464844,-0.3244354,-2.9607728,-0.22720443,1.4133161,0.4624014,0.039999805,0.04,-8.563255,2.1346192359924316,-4.3254313,-0.013273159,0.0030600072350353003,-0.000732027
2758.3000000075103,0.18941095,-1.0465767,-0.32454887,-2.9609838,-0.2272839,1.4132607,0.46228823,0.039999805,0.04,-8.561247,2.13625431060791,-4.326516,-0.01245487,0.0024055256508290768,-0.0009479679
2758.316666674177,0.18947306,-1.0466629,-0.32465494,-2.9611816,-0.22735825,1.4132088,0.46218234,0.0399998,0.04,-8.559924,2.1376943588256836,-4.327515,-0.011665433,0.0017755453009158373,-0.0011558147
2758.333333340844,0.18953106,-1.0467435,-0.3247541,-2.9613657,-0.22742769,1.4131607,0.46208343,0.039999798,0.04,-8.55842,2.139094114303589,-4.3284764,-0.010905274,0.0011666025966405869,-0.0013563907
2758.350000007511,0.18958509,-1.0468184,-0.32484642,-2.9615371,-0.22749238,1.4131162,0.46199134,0.0399998,0.04,-8.556782,2.1404306888580322,-4.3293457,-0.010175785,0.0005874292692169547,-0.0015476128
2758.366666674178,0.18963537,-1.0468884,-0.32493225,-2.961697,-0.22755255,1.413075,0.46190566,0.039999794,0.04,-8.555013,2.1417160034179688,-4.330186,-0.009478182,3.380208363523707e-05,-0.0017301656
2758.3833333408447,0.189682,-1.046953,-0.325012,-2.9618454,-0.22760835,1.4130362,0.46182612,0.0399998,0.04,-8.553873,2.1428210735321045,-4.330953,-0.0088110585,-0.000495289801619947,-0.0019043556
2758.4000000075116,0.18972524,-1.0470132,-0.3250858,-2.9619825,-0.22766005,1.4129996,0.4617525,0.0399998,0.04,-8.552446,2.1439239978790283,-4.3316503,-0.008176824,-0.0010012522106990218,-0.0020702365
2758.4166666741785,0.18976523,-1.0470688,-0.32515407,-2.9621108,-0.22770783,1.4129668,0.4616844,0.039999798,0.04,-8.550787,2.1449530124664307,-4.3322883,-0.00757587,-0.0014813807792961597,-0.0022291422
2758.4333333408454,0.1898021,-1.0471203,-0.32521707,-2.9622273,-0.22775196,1.4129364,0.46162152,0.039999798,0.04,-8.549762,2.1458652019500732,-4.3329597,-0.007007122,-0.0019353963434696198,-0.002378759
2758.4500000075122,0.18983611,-1.0471678,-0.3252751,-2.962334,-0.22779265,1.4129077,0.46156353,0.039999798,0.04,-8.548179,2.1467976570129395,-4.3334665,-0.00647509,-0.0023547655437141657,-0.00251715
2758.466666674179,0.18986744,-1.0472114,-0.32532853,-2.9624324,-0.22783013,1.4128824,0.46151015,0.03999979,0.04,-8.546739,2.147639513015747,-4.333943,-0.00597901,-0.002744993194937706,-0.0026457638
2758.483333340846,0.18989626,-1.0472517,-0.32537785,-2.962523,-0.2278646,1.412858,0.46146104,0.039999798,0.04,-8.545272,2.148444890975952,-4.3344584,-0.0055189603,-0.0031038604211062193,-0.0027637274
2758.500000007513,0.1899228,-1.0472888,-0.32542327,-2.962606,-0.2278963,1.4128367,0.46141586,0.039999798,0.04,-8.544193,2.149138927459717,-4.334845,-0.0050947443,-0.0034387153573334217,-0.0028749278
2758.5166666741798,0.18994717,-1.0473225,-0.32546508,-2.9626818,-0.22792548,1.412816,0.4613743,0.039999798,0.04,-8.542921,2.14982533454895,-4.335266,-0.004704729,-0.003740126034244895,-0.0029750464
2758.5333333408466,0.18996961,-1.0473535,-0.32550317,-2.962756,-0.22795232,1.4127982,0.46133596,0.039999798,0.04,-8.5418005,2.1504507064819336,-4.3356004,-0.004346851,-0.004021155647933483,-0.0030687063
2758.5500000075135,0.18999027,-1.0473825,-0.3255383,-2.962823,-0.22797702,1.4127806,0.46130076,0.039999798,0.04,-8.541161,2.1509363651275635,-4.3360844,-0.0040123365,-0.004294564947485924,-0.0031572788
2758.5666666741804,0.1900093,-1.0474087,-0.32557064,-2.9628825,-0.22799975,1.4127638,0.4612684,0.039999805,0.04,-8.540166,2.1514711380004883,-4.3363323,-0.0037059868,-0.00454326905310154,-0.0032384456
2758.5833333408473,0.19002678,-1.0474334,-0.32560068,-2.9629383,-0.22802067,1.4127501,0.46123853,0.039999798,0.04,-8.539068,2.152001142501831,-4.3365827,-0.00342637,-0.004768386948853731,-0.0033121689
2758.600000007514,0.19004285,-1.0474558,-0.32562807,-2.96299,-0.2280399,1.4127365,0.46121114,0.039999798,0.04,-8.538337,2.15244460105896,-4.3368893,-0.0031676237,-0.0049689463339746,-0.003379131
2758.616666674181,0.19005767,-1.0474766,-0.3256534,-2.9630349,-0.2280576,1.4127235,0.4611858,0.039999798,0.04,-8.537584,2.1528449058532715,-4.337135,-0.0029296172,-0.005161316134035587,-0.0034421002
2758.633333340848,0.19007131,-1.0474956,-0.32567677,-2.9630787,-0.22807387,1.4127133,0.46116254,0.039999794,0.04,-8.536662,2.1532726287841797,-4.33727,-0.0027127152,-0.005327149759978056,-0.0034968266
2758.650000007515,0.19008388,-1.0475131,-0.32569823,-2.963118,-0.22808886,1.4127034,0.4611411,0.0399998,0.04,-8.536359,2.1535637378692627,-4.3375816,-0.0025105732,-0.005484496708959341,-0.003549715
2758.6666666741817,0.19009541,-1.0475291,-0.32571793,-2.9631548,-0.22810262,1.4126936,0.4611214,0.0399998,0.04,-8.535598,2.1539113521575928,-4.3377266,-0.002325544,-0.005626766011118889,-0.003596898
2758.6833333408485,0.19010603,-1.0475439,-0.32573605,-2.9631906,-0.22811528,1.4126844,0.46110338,0.039999794,0.04,-8.535225,2.154182195663452,-4.3379016,-0.0021549896,-0.005763371475040913,-0.0036420969
2758.7000000075154,0.1901158,-1.0475576,-0.32575276,-2.96322,-0.22812696,1.4126754,0.4610867,0.0399998,0.04,-8.534975,2.1544029712677,-4.3381057,-0.001996309,-0.005898124072700739,-0.0036863782
2758.7166666741823,0.19012481,-1.0475701,-0.3257681,-2.9632485,-0.22813772,1.4126691,0.4610714,0.039999805,0.04,-8.534078,2.1547441482543945,-4.338161,-0.0018536323,-0.006008620839565992,-0.0037232914
2758.733333340849,0.19013311,-1.0475817,-0.32578227,-2.9632764,-0.22814758,1.412663,0.46105728,0.039999798,0.04,-8.533796,2.154956579208374,-4.3383822,-0.0017208146,-0.006109478883445263,-0.0037550314
2758.750000007516,0.19014077,-1.0475924,-0.32579532,-2.9632998,-0.22815666,1.4126569,0.46104428,0.039999805,0.04,-8.533667,2.1551122665405273,-4.33853,-0.0015967118,-0.006209598854184151,-0.003788656
2758.766666674183,0.19014776,-1.0476023,-0.32580733,-2.9633212,-0.22816505,1.4126511,0.46103236,0.039999798,0.04,-8.533028,2.155363082885742,-4.3385773,-0.0014847887,-0.006293474230915308,-0.003816838
2758.78333334085,0.1901542,-1.0476111,-0.3258184,-2.9633422,-0.2281727,1.4126457,0.4610214,0.0399998,0.04,-8.532726,2.1555392742156982,-4.3386602,-0.0013822156,-0.006371608469635248,-0.0038429007
2758.8000000075167,0.19016014,-1.0476193,-0.32582855,-2.9633625,-0.22817978,1.4126403,0.46101123,0.039999798,0.04,-8.532562,2.1556811332702637,-4.3388014,-0.0012866233,-0.0064498307183384895,-0.0038690793
2758.8166666741836,0.19016561,-1.0476271,-0.32583788,-2.9633796,-0.22818635,1.412635,0.46100184,0.039999794,0.04,-8.532434,2.1558029651641846,-4.3389063,-0.0011972383,-0.0065275696106255054,-0.003894758
2758.8333333408505,0.19017065,-1.0476341,-0.3258464,-2.9633949,-0.22819239,1.4126298,0.46099326,0.03999981,0.04,-8.531993,2.155977487564087,-4.338944,-0.0011163034,-0.006593694910407066,-0.0039163074
2758.8500000075173,0.19017528,-1.0476406,-0.32585427,-2.9634087,-0.22819795,1.4126258,0.46098554,0.039999798,0.04,-8.531704,2.1561155319213867,-4.3390164,-0.0010426564,-0.006653620861470699,-0.0039359094
2758.866666674184,0.1901795,-1.0476466,-0.32586157,-2.963422,-0.22820304,1.4126235,0.46097824,0.039999794,0.04,-8.531434,2.156247138977051,-4.3390985,-0.0009759697,-0.006705056875944138,-0.003952701
2758.883333340851,0.19018343,-1.047652,-0.32586822,-2.9634352,-0.22820772,1.4126213,0.46097162,0.0399998,0.04,-8.531318,2.156343698501587,-4.3391995,-0.0009131213,-0.006747960112988949,-0.003967018
2758.900000007518,0.19018704,-1.0476569,-0.3258744,-2.9634478,-0.22821198,1.412619,0.4609655,0.0399998,0.04,-8.383647,2.1414995193481445,-4.310146,0.0,-0.0,0.0
2758.916666674185,0.19018704,-1.0476569,-0.3258744,-2.9634478,-0.22821198,1.412619,0.4609655,0.0399998,0.04,-8.529715,2.1566286087036133,-4.339243,0.0,-0.0,0.0
2758.9333333408517,0.19018704,-1.0476569,-0.3258744,-2.9634478,-0.22821198,1.412619,0.4609655,0.0399998,0.04,-8.529715,2.1566286087036133,-4.339243,0.0,-0.0,0.0
2758.9500000075186,0.19018704,-1.0476569,-0.3258744,-2.9634478,-0.22821198,1.412619,0.4609655,0.0399998,0.04,-8.529715,2.1566286087036133,-4.339243,0.0,-0.0,0.0
2758.9666666741855,0.19018704,-1.0476569,-0.3258744,-2.9634478,-0.22821198,1.412619,0.4609655,0.0399998,0.04,-8.529715,2.1566286087036133,-4.339243,0.0,-0.0,0.0
2758.9833333408524,0.19018704,-1.0476569,-0.3258744,-2.9634478,-0.22821198,1.412619,0.4609655,0.0399998,0.04,-8.529715,2.1566286087036133,-4.339243,0.0,-0.0,0.0
2759.0000000075192,0.19018704,-1.0476569,-0.3258744,-2.9634478,-0.22821198,1.412619,0.4609655,0.0399998,0.04,-8.529715,2.1566286087036133,-4.339243,0.0,-0.0,0.0
2759.016666674186,0.19018704,-1.0476569,-0.3258744,-2.9634478,-0.22821198,1.412619,0.4609655,0.0399998,0.04,-8.529715,2.1566286087036133,-4.339243,0.0,-0.0,0.0
2759.033333340853,0.19018704,-1.0476569,-0.3258744,-2.9634478,-0.22821198,1.412619,0.4609655,0.0399998,0.04,-8.529715,2.1566286087036133,-4.339243,0.0,-0.0,0.0
2759.05000000752,0.19018704,-1.0476569,-0.3258744,-2.9634478,-0.22821198,1.412619,0.4609655,0.0399998,0.04,-8.529715,2.1566286087036133,-4.339243,0.0,-0.0,0.0
2759.0666666741868,0.19018704,-1.0476569,-0.3258744,-2.9634478,-0.22821198,1.412619,0.4609655,0.0399998,0.04,-8.529715,2.1566286087036133,-4.339243,0.0,-0.0,0.0
2759.0833333408536,0.19018704,-1.0476569,-0.3258744,-2.9634478,-0.22821198,1.412619,0.4609655,0.0399998,0.04,-8.529715,2.1566286087036133,-4.339243,0.0,-0.0,0.0
2759.1000000075205,0.19018704,-1.0476569,-0.3258744,-2.9634478,-0.22821198,1.412619,0.4609655,0.0399998,0.04,-8.529715,2.1566286087036133,-4.339243,0.0,-0.0,0.0
2759.1166666741874,0.19018704,-1.0476569,-0.3258744,-2.9634478,-0.22821198,1.412619,0.4609655,0.0399998,0.04,-8.529715,2.1566286087036133,-4.339243,0.0,-0.0,0.0
2759.1333333408543,0.19018704,-1.0476569,-0.3258744,-2.9634478,-0.22821198,1.412619,0.4609655,0.0399998,0.04,-8.529715,2.1566286087036133,-4.339243,0.0,-0.0,0.0
2759.150000007521,0.19018704,-1.0476569,-0.3258744,-2.9634478,-0.22821198,1.412619,0.4609655,0.0399998,0.04,-8.529715,2.1566286087036133,-4.339243,0.0,-0.0,0.0
2759.166666674188,0.19018704,-1.0476569,-0.3258744,-2.9634478,-0.22821198,1.412619,0.4609655,0.0399998,0.04,-8.529715,2.1566286087036133,-4.339243,0.0,-0.0,0.0
2759.183333340855,0.19018704,-1.0476569,-0.3258744,-2.9634478,-0.22821198,1.412619,0.4609655,0.0399998,0.04,-8.529715,2.1566286087036133,-4.339243,0.0,-0.0,0.0
2759.200000007522,0.19018704,-1.0476569,-0.3258744,-2.9634478,-0.22821198,1.412619,0.4609655,0.0399998,0.04,-8.529715,2.1566286087036133,-4.339243,0.0,-0.0,0.0
2759.2166666741887,0.19018704,-1.0476569,-0.3258744,-2.9634478,-0.22821198,1.412619,0.4609655,0.0399998,0.04,-8.529715,2.1566286087036133,-4.339243,0.0,-0.0,0.0
2759.2333333408556,0.19018704,-1.0476569,-0.3258744,-2.9634478,-0.22821198,1.412619,0.4609655,0.0399998,0.04,-8.529715,2.1566286087036133,-4.339243,0.0,-0.0,0.0
2759.2500000075224,0.19018704,-1.0476569,-0.3258744,-2.9634478,-0.22821198,1.412619,0.4609655,0.0399998,0.04,-8.529715,2.1566286087036133,-4.339243,0.0,-0.0,0.0
2759.2666666741893,0.19018704,-1.0476569,-0.3258744,-2.9634478,-0.22821198,1.412619,0.4609655,0.0399998,0.04,-8.529715,2.1566286087036133,-4.339243,0.0,-0.0,0.0
2759.283333340856,0.19018704,-1.0476569,-0.3258744,-2.9634478,-0.22821198,1.412619,0.4609655,0.0399998,0.04,-8.529715,2.1566286087036133,-4.339243,0.0,-0.0,0.0
2759.300000007523,0.19018704,-1.0476569,-0.3258744,-2.9634478,-0.22821198,1.412619,0.4609655,0.0399998,0.04,-8.529715,2.1566286087036133,-4.339243,0.0,-0.0,0.0
2759.31666667419,0.19018704,-1.0476569,-0.3258744,-2.9634478,-0.22821198,1.412619,0.4609655,0.0399998,0.04,-8.529715,2.1566286087036133,-4.339243,0.0,-0.0,0.0
2759.333333340857,0.19018704,-1.0476569,-0.3258744,-2.9634478,-0.22821198,1.412619,0.4609655,0.0399998,0.04,-8.529715,2.1566286087036133,-4.339243,0.0,-0.0,0.0
2759.3500000075237,0.19018704,-1.0476569,-0.3258744,-2.9634478,-0.22821198,1.412619,0.4609655,0.0399998,0.04,-8.529715,2.1566286087036133,-4.339243,0.0,-0.0,0.0
2759.3666666741906,0.19018704,-1.0476569,-0.3258744,-2.9634478,-0.22821198,1.412619,0.4609655,0.0399998,0.04,-8.529715,2.1566286087036133,-4.339243,0.0,-0.0,0.0
2759.3833333408575,0.19018704,-1.0476569,-0.3258744,-2.9634478,-0.22821198,1.412619,0.4609655,0.0399998,0.04,-8.529715,2.1566286087036133,-4.339243,0.0,-0.0,0.0
2759.4000000075243,0.19018704,-1.0476569,-0.3258744,-2.9634478,-0.22821198,1.412619,0.4609655,0.0399998,0.04,-8.529715,2.1566286087036133,-4.339243,0.0,-0.0,0.0
2759.416666674191,0.19018704,-1.0476569,-0.3258744,-2.9634478,-0.22821198,1.412619,0.4609655,0.0399998,0.04,-8.529715,2.1566286087036133,-4.339243,0.0,-0.0,0.0
2759.433333340858,0.19018704,-1.0476569,-0.3258744,-2.9634478,-0.22821198,1.412619,0.4609655,0.0399998,0.04,-8.529715,2.1566286087036133,-4.339243,0.0,-0.0,0.0
2759.450000007525,0.19018704,-1.0476569,-0.3258744,-2.9634478,-0.22821198,1.412619,0.4609655,0.0399998,0.04,-8.529715,2.1566286087036133,-4.339243,0.0,-0.0,0.0
2759.466666674192,0.19018704,-1.0476569,-0.3258744,-2.9634478,-0.22821198,1.412619,0.4609655,0.0399998,0.04,-8.529715,2.1566286087036133,-4.339243,0.0,-0.0,0.0
2759.4833333408587,0.19018704,-1.0476569,-0.3258744,-2.9634478,-0.22821198,1.412619,0.4609655,0.0399998,0.04,-8.529715,2.1566286087036133,-4.339243,0.0,-0.0,0.0
2759.5000000075256,0.19018704,-1.0476569,-0.3258744,-2.9634478,-0.22821198,1.412619,0.4609655,0.0399998,0.04,-8.529715,2.1566286087036133,-4.339243,0.0,-0.0,0.0
2759.5166666741925,0.19018704,-1.0476569,-0.3258744,-2.9634478,-0.22821198,1.412619,0.4609655,0.0399998,0.04,-8.529715,2.1566286087036133,-4.339243,0.0,-0.0,0.0
2759.5333333408594,0.19018704,-1.0476569,-0.3258744,-2.9634478,-0.22821198,1.412619,0.4609655,0.0399998,0.04,-8.529715,2.1566286087036133,-4.339243,0.0,-0.0,0.0
2759.5500000075263,0.19018704,-1.0476569,-0.3258744,-2.9634478,-0.22821198,1.412619,0.4609655,0.0399998,0.04,-8.529715,2.1566286087036133,-4.339243,0.0,-0.0,0.0
2759.566666674193,0.19018704,-1.0476569,-0.3258744,-2.9634478,-0.22821198,1.412619,0.4609655,0.0399998,0.04,-8.529715,2.1566286087036133,-4.339243,0.0,-0.0,0.0
2759.58333334086,0.19018704,-1.0476569,-0.3258744,-2.9634478,-0.22821198,1.412619,0.4609655,0.0399998,0.04,-8.529715,2.1566286087036133,-4.339243,0.0,-0.0,0.0
2759.600000007527,0.19018704,-1.0476569,-0.3258744,-2.9634478,-0.22821198,1.412619,0.4609655,0.0399998,0.04,-8.529715,2.1566286087036133,-4.339243,0.0,-0.0,0.0
2759.6166666741938,0.19018704,-1.0476569,-0.3258744,-2.9634478,-0.22821198,1.412619,0.4609655,0.0399998,0.04,-8.529715,2.1566286087036133,-4.339243,0.0,-0.0,0.0
2759.6333333408606,0.19018704,-1.0476569,-0.3258744,-2.9634478,-0.22821198,1.412619,0.4609655,0.0399998,0.04,-8.529715,2.1566286087036133,-4.339243,0.0,-0.0,0.0
2759.6500000075275,0.19018704,-1.0476569,-0.3258744,-2.9634478,-0.22821198,1.412619,0.4609655,0.0399998,0.04,-8.529715,2.1566286087036133,-4.339243,0.0,-0.0,0.0
2759.6666666741944,0.19018704,-1.0476569,-0.3258744,-2.9634478,-0.22821198,1.412619,0.4609655,0.0399998,0.04,-8.529715,2.1566286087036133,-4.339243,0.0,-0.0,0.0
2759.6833333408613,0.19018704,-1.0476569,-0.3258744,-2.9634478,-0.22821198,1.412619,0.4609655,0.0399998,0.04,-8.529715,2.1566286087036133,-4.339243,0.0,-0.0,0.0
2759.700000007528,0.19018704,-1.0476569,-0.3258744,-2.9634478,-0.22821198,1.412619,0.4609655,0.0399998,0.04,-8.529715,2.1566286087036133,-4.339243,0.0,-0.0,0.0
2759.716666674195,0.19018704,-1.0476569,-0.3258744,-2.9634478,-0.22821198,1.412619,0.4609655,0.0399998,0.04,-8.529715,2.1566286087036133,-4.339243,0.0,-0.0,0.0
2759.733333340862,0.19018704,-1.0476569,-0.3258744,-2.9634478,-0.22821198,1.412619,0.4609655,0.0399998,0.04,-8.529715,2.1566286087036133,-4.339243,0.0,-0.0,0.0
2759.750000007529,0.19018704,-1.0476569,-0.3258744,-2.9634478,-0.22821198,1.412619,0.4609655,0.0399998,0.04,-8.529715,2.1566286087036133,-4.339243,0.0,-0.0,0.0
2759.7666666741957,0.19018704,-1.0476569,-0.3258744,-2.9634478,-0.22821198,1.412619,0.4609655,0.0399998,0.04,-8.529715,2.1566286087036133,-4.339243,0.0,-0.0,0.0
2759.7833333408626,0.19018704,-1.0476569,-0.3258744,-2.9634478,-0.22821198,1.412619,0.4609655,0.0399998,0.04,-8.529715,2.1566286087036133,-4.339243,0.0,-0.0,0.0
2759.8000000075294,0.19018704,-1.0476569,-0.3258744,-2.9634478,-0.22821198,1.412619,0.4609655,0.0399998,0.04,-8.529715,2.1566286087036133,-4.339243,0.0,-0.0,0.0
2759.8166666741963,0.19018704,-1.0476569,-0.3258744,-2.9634478,-0.22821198,1.412619,0.4609655,0.0399998,0.04,-8.529715,2.1566286087036133,-4.339243,0.0,-0.0,0.0
2759.833333340863,0.19018704,-1.0476569,-0.3258744,-2.9634478,-0.22821198,1.412619,0.4609655,0.0399998,0.04,-8.529715,2.1566286087036133,-4.339243,0.0,-0.0,0.0
2759.85000000753,0.19018704,-1.0476569,-0.3258744,-2.9634478,-0.22821198,1.412619,0.4609655,0.0399998,0.04,-8.529715,2.1566286087036133,-4.339243,0.0,-0.0,0.0
2759.866666674197,0.19018704,-1.0476569,-0.3258744,-2.9634478,-0.22821198,1.412619,0.4609655,0.0399998,0.04,-8.529715,2.1566286087036133,-4.339243,0.0,-0.0,0.0
2759.883333340864,0.19018704,-1.0476569,-0.3258744,-2.9634478,-0.22821198,1.412619,0.4609655,0.0399998,0.04,-8.529715,2.1566286087036133,-4.339243,0.0,-0.0,0.0
2759.9000000075307,0.19018704,-1.0476569,-0.3258744,-2.9634478,-0.22821198,1.412619,0.4609655,0.0399998,0.04,-8.529715,2.1566286087036133,-4.339243,0.0,-0.0,0.0
2759.9166666741976,0.19018704,-1.0476569,-0.3258744,-2.9634478,-0.22821198,1.412619,0.4609655,0.0399998,0.04,-8.529715,2.1566286087036133,-4.339243,0.0,-0.0,0.0
2759.9333333408645,0.19018704,-1.0476569,-0.3258744,-2.9634478,-0.22821198,1.412619,0.4609655,0.0399998,0.04,-8.529715,2.1566286087036133,-4.339243,0.0,-0.0,0.0
2759.9500000075313,0.19018704,-1.0476569,-0.3258744,-2.9634478,-0.22821198,1.412619,0.4609655,0.0399998,0.04,-8.529715,2.1566286087036133,-4.339243,0.0,-0.0,0.0
2759.966666674198,0.19018704,-1.0476569,-0.3258744,-2.9634478,-0.22821198,1.412619,0.4609655,0.0399998,0.04,-8.529715,2.1566286087036133,-4.339243,0.0,-0.0,0.0
2759.983333340865,0.19018704,-1.0476569,-0.3258744,-2.9634478,-0.22821198,1.412619,0.4609655,0.0399998,0.04,-8.529715,2.1566286087036133,-4.339243,0.0,-0.0,0.0
2760.000000007532,0.19018704,-1.0476569,-0.3258744,-2.9634478,-0.22821198,1.412619,0.4609655,0.0399998,0.04,-8.529715,2.1566286087036133,-4.339243,0.0,-0.0,0.0
2760.016666674199,0.19018704,-1.0476569,-0.3258744,-2.9634478,-0.22821198,1.412619,0.4609655,0.0399998,0.04,-8.529715,2.1566286087036133,-4.339243,0.0,-0.0,0.0
2760.0333333408657,0.19018704,-1.0476569,-0.3258744,-2.9634478,-0.22821198,1.412619,0.4609655,0.0399998,0.04,-8.529715,2.1566286087036133,-4.339243,0.0,-0.0,0.0
2760.0500000075326,0.19018704,-1.0476569,-0.3258744,-2.9634478,-0.22821198,1.412619,0.4609655,0.0399998,0.04,-8.529715,2.1566286087036133,-4.339243,0.0,-0.0,0.0
2760.0666666741995,0.19018704,-1.0476569,-0.3258744,-2.9634478,-0.22821198,1.412619,0.4609655,0.0399998,0.04,-8.529715,2.1566286087036133,-4.339243,0.0,-0.0,0.0
2760.0833333408664,0.19018704,-1.0476569,-0.3258744,-2.9634478,-0.22821198,1.412619,0.4609655,0.0399998,0.04,-8.529715,2.1566286087036133,-4.339243,0.0,-0.0,0.0
2760.1000000075333,0.19018704,-1.0476569,-0.3258744,-2.9634478,-0.22821198,1.412619,0.4609655,0.0399998,0.04,-8.529715,2.1566286087036133,-4.339243,0.0,-0.0,0.0
2760.1166666742,0.19018704,-1.0476569,-0.3258744,-2.9634478,-0.22821198,1.412619,0.4609655,0.0399998,0.04,-8.529715,2.1566286087036133,-4.339243,0.0,-0.0,0.0
2760.133333340867,0.19018704,-1.0476569,-0.3258744,-2.9634478,-0.22821198,1.412619,0.4609655,0.0399998,0.04,-8.529715,2.1566286087036133,-4.339243,0.0,-0.0,0.0
2760.150000007534,0.19018704,-1.0476569,-0.3258744,-2.9634478,-0.22821198,1.412619,0.4609655,0.0399998,0.04,-8.529715,2.1566286087036133,-4.339243,0.0,-0.0,0.0
2760.1666666742008,0.19018704,-1.0476569,-0.3258744,-2.9634478,-0.22821198,1.412619,0.4609655,0.0399998,0.04,-8.529715,2.1566286087036133,-4.339243,0.0,-0.0,0.0
2760.1833333408676,0.19018704,-1.0476569,-0.3258744,-2.9634478,-0.22821198,1.412619,0.4609655,0.0399998,0.04,-8.529715,2.1566286087036133,-4.339243,0.0,-0.0,0.0
2760.2000000075345,0.19018704,-1.0476569,-0.3258744,-2.9634478,-0.22821198,1.412619,0.4609655,0.0399998,0.04,-8.529715,2.1566286087036133,-4.339243,0.0,-0.0,0.0
2760.2166666742014,0.19018704,-1.0476569,-0.3258744,-2.9634478,-0.22821198,1.412619,0.4609655,0.0399998,0.04,-8.529715,2.1566286087036133,-4.339243,0.0,-0.0,0.0
2760.2333333408683,0.19018704,-1.0476569,-0.3258744,-2.9634478,-0.22821198,1.412619,0.4609655,0.0399998,0.04,-8.529715,2.1566286087036133,-4.339243,0.0,-0.0,0.0
2760.250000007535,0.19018704,-1.0476569,-0.3258744,-2.9634478,-0.22821198,1.412619,0.4609655,0.0399998,0.04,-8.529715,2.1566286087036133,-4.339243,0.0,-0.0,0.0
2760.266666674202,0.19018704,-1.0476569,-0.3258744,-2.9634478,-0.22821198,1.412619,0.4609655,0.0399998,0.04,-8.529715,2.1566286087036133,-4.339243,0.0,-0.0,0.0
2760.283333340869,0.19018704,-1.0476569,-0.3258744,-2.9634478,-0.22821198,1.412619,0.4609655,0.0399998,0.04,-8.529715,2.1566286087036133,-4.339243,0.0,-0.0,0.0
2760.300000007536,0.19018704,-1.0476569,-0.3258744,-2.9634478,-0.22821198,1.412619,0.4609655,0.0399998,0.04,-8.529715,2.1566286087036133,-4.339243,0.0,-0.0,0.0
2760.3166666742027,0.19018704,-1.0476569,-0.3258744,-2.9634478,-0.22821198,1.412619,0.4609655,0.0399998,0.04,-8.529715,2.1566286087036133,-4.339243,0.0,-0.0,0.0
2760.3333333408696,0.19018704,-1.0476569,-0.3258744,-2.9634478,-0.22821198,1.412619,0.4609655,0.0399998,0.04,-8.529715,2.1566286087036133,-4.339243,0.0,-0.0,0.0
2760.3500000075364,0.19018704,-1.0476569,-0.3258744,-2.9634478,-0.22821198,1.412619,0.4609655,0.0399998,0.04,-8.529715,2.1566286087036133,-4.339243,0.0,-0.0,0.0
2760.3666666742033,0.19018704,-1.0476569,-0.3258744,-2.9634478,-0.22821198,1.412619,0.4609655,0.0399998,0.04,-8.529715,2.1566286087036133,-4.339243,0.0,-0.0,0.0
2760.38333334087,0.19018704,-1.0476569,-0.3258744,-2.9634478,-0.22821198,1.412619,0.4609655,0.0399998,0.04,-8.529715,2.1566286087036133,-4.339243,0.0,-0.0,0.0
2760.400000007537,0.19018704,-1.0476569,-0.3258744,-2.9634478,-0.22821198,1.412619,0.4609655,0.0399998,0.04,-8.529715,2.1566286087036133,-4.339243,0.0,-0.0,0.0
2760.416666674204,0.19018704,-1.0476569,-0.3258744,-2.9634478,-0.22821198,1.412619,0.4609655,0.0399998,0.04,-8.529715,2.1566286087036133,-4.339243,0.0,-0.0,0.0
2760.433333340871,0.19018704,-1.0476569,-0.3258744,-2.9634478,-0.22821198,1.412619,0.4609655,0.0399998,0.04,-8.529715,2.1566286087036133,-4.339243,0.0,-0.0,0.0
2760.4500000075377,0.19018704,-1.0476569,-0.3258744,-2.9634478,-0.22821198,1.412619,0.4609655,0.0399998,0.04,-8.529715,2.1566286087036133,-4.339243,0.0,-0.0,0.0
2760.4666666742046,0.19018704,-1.0476569,-0.3258744,-2.9634478,-0.22821198,1.412619,0.4609655,0.0399998,0.04,-8.529715,2.1566286087036133,-4.339243,0.0,-0.0,0.0
2760.4833333408715,0.19018704,-1.0476569,-0.3258744,-2.9634478,-0.22821198,1.412619,0.4609655,0.0399998,0.04,-8.529715,2.1566286087036133,-4.339243,0.0,-0.0,0.0
2760.5000000075383,0.19018704,-1.0476569,-0.3258744,-2.9634478,-0.22821198,1.412619,0.4609655,0.0399998,0.04,-8.529715,2.1566286087036133,-4.339243,0.0,-0.0,0.0
