rsonawane2002/My_IMU/logs_2/traj_306/clean_306.csv
time,j1,j2,j3,j4,j5,j6,j7,gripper1,gripper2,imu_ax,imu_ay,imu_az,imu_gx,imu_gy,imu_gz,quat_x,quat_y,quat_z,quat_w
608.7833333331083,0.00016700293,-0.785875,4.0107683e-05,-2.3551247,9.29385e-05,1.570997,0.786,0.04,0.04,0.0,-0.0,0.0,2.875329272945135e-08,-0.0011641195053377316,4.421952117202833e-08,0.9999995971961153,0.00020320632366974898,0.0008736418299892524,3.263050917662294e-05
608.799999999775,0.0001670066,-0.78576016,4.0121267e-05,-2.3552213,9.296613e-05,1.5709941,0.786,0.04,0.04,-0.29199846095462334,-3.819930326331555e-05,0.020128407396247106,-5.696134186702436e-07,-0.0022390231886866546,-6.440715057458467e-07,0.9999996850595426,0.0002032044330115176,0.0007665025211424483,3.2598452143892255e-05
608.8166666664416,0.00016701614,-0.7856543,4.0180264e-05,-2.35531,9.293671e-05,1.5709913,0.786,0.04,0.04,0.02332871883350407,-1.7904489701053372e-05,-0.001670441230938735,-3.5031854317974556e-06,-0.003234092963633733,-5.619448023935031e-06,0.9999997558527304,0.00020318316883868013,0.0006677972749463742,3.252505203839063e-05
608.8333333331083,0.00016704343,-0.78555703,4.0360395e-05,-2.355391,9.2761395e-05,1.5709884,0.786,0.04,0.04,0.022460729551454506,-5.4387633849014867e-05,-0.0015249115006721325,-1.203649900028452e-05,-0.004162214942563947,-1.881462194914926e-05,0.9999998122713366,0.00020310984216875626,0.0005771982952628204,3.2339010951927736e-05
608.8499999997749,0.00016710677,-0.7854677,4.0770417e-05,-2.3554652,9.231331e-05,1.5709856,0.786,0.04,0.04,0.020518922102219506,-0.00010866511930932867,-0.0014590484416654448,-2.787675402020789e-05,-0.0050283617547599024,-4.3775358139784126e-05,0.9999998568703176,0.00020293685887818659,0.0004940201689832488,3.193819396078594e-05
608.8666666664416,0.00016723019,-0.7853859,4.1548607e-05,-2.355532,9.143142e-05,1.5709827,0.786,0.04,0.04,0.020932898969006075,-0.00017878618810330702,-0.0010318422606347966,-5.3383623799525415e-05,-0.005847233133988149,-8.369933477715204e-05,0.9999998914925609,0.00020260328574773408,0.0004183225507916331,3.119324644109265e-05
608.8833333331082,0.00016744291,-0.7853113,4.286006e-05,-2.3555932,8.992358e-05,1.5709832,0.786,0.04,0.04,0.01828804712227239,-0.0002632933132448343,0.0008485960712123486,-9.048543945928699e-05,-0.006620329625931265,-0.0001414424079831164,0.9999999176777475,0.00020203619851833366,0.00035061213957289413,2.9949961885121586e-05
608.8999999997749,0.00016777856,-0.7852431,4.4893626e-05,-2.3556507,8.7570734e-05,1.5709838,0.786,0.04,0.04,0.013638366837276372,-0.00035986757737006716,-0.0018823896311692678,-0.0001412419347620014,-0.00734942093594995,-0.0002195528503235178,0.9999999378788477,0.00020115195411136497,0.0002880875856508767,2.8030967364710723e-05
608.9166666664415,0.00016827513,-0.7851817,4.7859336e-05,-2.3557012,8.41354e-05,1.5709846,0.78599995,0.04,0.039999995,0.01933841355470367,-0.0004735457967705928,-0.0006030056897809999,-0.00020702989908034442,-0.008063446516642236,-0.00031957535834709863,0.9999999526791387,0.00019982731513253996,0.00023253710468773935,2.5244000515362852e-05
608.9333333331082,0.00016897418,-0.78512645,5.1986477e-05,-2.3557463,7.93344e-05,1.5709854,0.78599805,0.04,0.04,0.016106245165969924,-0.000579290331109277,-0.0010426404271957068,-0.00028937631067782937,-0.008750732765621813,-0.00044587391161912535,0.9999999636465358,0.00019706631195298295,0.00018279851489728808,2.1365832213080352e-05
608.9499999997748,0.00016992044,-0.7850771,5.7520803e-05,-2.3557882,7.2889365e-05,1.5709864,0.78599614,0.04,0.04,0.01182835185478126,-0.0007114105394200596,-0.0018815293077567574,-0.0003811981767857381,-0.009426574074525445,-0.0005978584695520664,0.9999999716429532,0.00019368351287215286,0.0001376201844782278,1.617017447304322e-05
608.9666666664415,0.00017116137,-0.7850335,6.472287e-05,-2.3558238,6.449639e-05,1.5709907,0.78599423,0.04,0.04,0.01838869092276596,-0.000846369011408345,0.0020837774040272095,-0.0004923098329885897,-0.010107667939081575,-0.0007779235290758261,0.9999999769665324,0.00018956287435844228,0.00010022086769780095,9.414285625494171e-06
608.9833333331081,0.00017274727,-0.7849958,7.386646e-05,-2.3558562,5.3838725e-05,1.5709953,0.7859923,0.04,0.04,0.011837085860499919,-0.00098855565321859,-0.001662261456081282,-0.00062420358576882,-0.01076703035364633,-0.000987472295602671,0.9999999806881209,0.000184582379076146,6.747143673654927e-05,8.417666356988497e-07
608.9999999997748,0.00017473023,-0.78496385,8.5236374e-05,-2.3558834,4.0583072e-05,1.5710001,0.7859885,0.04,0.04,0.015341873221830227,-0.0011347840954636533,-0.0008413648587834999,-0.0007780096885965389,-0.011438798515687463,-0.001227701143297493,0.9999999833581691,0.00017766142384609688,4.0295885464257e-05,-9.814356411643069e-06
609.0166666664414,0.00017716439,-0.7849375,9.912738e-05,-2.3559058,2.4396684e-05,1.5710082,0.7859847,0.04,0.039999995,0.015353580941024347,-0.00129573655970636,0.0014474876467440723,-0.0009454540654181803,-0.012118140594665604,-0.0014988966446951534,0.9999999851541581,0.00016962226795955686,1.9975845101700114e-05,-2.2824007249086673e-05
609.0333333331081,0.00018010536,-0.7849169,0.0001158425,-2.3559248,4.925298e-06,1.5710168,0.78598046,0.04,0.03999999,0.01214792020596267,-0.0014507617300169777,-0.001391256872507185,-0.0011368385216585007,-0.012795566679265971,-0.0018027569211785243,0.9999999864307388,0.0001601212731477467,4.425308868752588e-06,-3.847228179800461e-05
609.0499999997747,0.00018361048,-0.784902,0.00013569191,-2.3559375,-1.8209974e-05,1.5710267,0.78597474,0.04,0.039999995,0.01767925394799974,-0.001599698696576736,0.0006223581688002966,-0.0013506005047837584,-0.013496662376590201,-0.0021415586366012366,0.9999999873389224,0.00014848349557438457,-4.388619924043619e-06,-5.7057398449489256e-05
609.0666666664414,0.00018773798,-0.78489286,0.00015899191,-2.3559475,-4.5382487e-05,1.5710391,0.78596884,0.04,0.04,0.01164089759326803,-0.0017594963735820756,-0.000232684500067748,-0.00158292736662617,-0.014207153539423157,-0.0025150578536625246,0.999999987716383,0.00013522359727198812,-7.747219577758701e-06,-7.887834502418e-05
609.083333333108,0.0001925465,-0.78488976,0.00018606285,-2.3559518,-7.694221e-05,1.5710541,0.7859612,0.04,0.04,0.017209500618564633,-0.0019438630077814236,0.0011121511018119534,-0.0018403665002888264,-0.014940165955151241,-0.0029207514591205255,0.9999999874300911,0.0001194240164009595,-3.921802802732687e-06,-0.00010422255747216459
609.0999999997747,0.00019809614,-0.7848927,0.0002172295,-2.3559518,-0.00011326684,1.5710703,0.7859525,0.04,0.039999995,0.014326294915978366,-0.0021128105338185745,-0.0005952713056478487,-0.002116520471800563,-0.015685358557161275,-0.003361361607445796,0.9999999859593993,0.00010126778676991314,5.6573732406458065e-06,-0.0001333942677199793
609.1166666664413,0.00020444737,-0.7849017,0.00025281947,-2.355948,-0.00015474588,1.5710902,0.785943,0.04,0.039999995,0.014376048353748061,-0.0022784475811211263,0.0010223555843902332,-0.0024151010376187937,-0.016458814383831018,-0.003837993091593158,0.9999999826037269,8.072791959704226e-05,2.2033682229788474e-05,-0.00016670352614729452
609.133333333108,0.00021166097,-0.7849169,0.00029316236,-2.3559382,-0.00020176251,1.5711124,0.7859315,0.04,0.039999995,0.01770236798988023,-0.002451789168642088,0.0008504513261620161,-0.002737569281517525,-0.01725525125238323,-0.004350051647557394,0.9999999764262061,5.712119580497819e-05,4.5624572687068424e-05,-0.00020445819786703314
609.1499999997746,0.0002197979,-0.7849386,0.000338589,-2.355924,-0.00025471035,1.5711364,0.7859189,0.04,0.04,0.015451597899174274,-0.0026178713267670586,-0.00031671480418271614,-0.003079587941583386,-0.01807324003173188,-0.004898431862602429,0.9999999661727299,3.0658051108625155e-05,7.562578164799131e-05,-0.0002469723956952187
609.1666666664413,0.00022891925,-0.7849668,0.00038943058,-2.3559048,-0.0003139581,1.571164,0.7859051,0.04,0.039999995,0.016529243673191196,-0.0028055073515720124,0.0011756447821253957,-0.0034447492681151525,-0.018922686274467613,-0.005480848852827611,0.9999999502199209,1.2206428134720855e-06,0.00011314040317947112,-0.00029454696578676753
609.183333333108,0.00023908618,-0.7850018,0.00044601862,-2.3558803,-0.0003798991,1.5711955,0.7858898,0.04,0.039999995,0.01798303783524524,-0.0029753537627657547,0.0014809806794913172,-0.003834126406587605,-0.019799747880219945,-0.006099682205102495,0.9999999265368827,-3.154718623207002e-05,0.0001586754761587457,-0.0003474954638543655
609.1999999997746,0.00025035985,-0.78504366,0.000508684,-2.3558507,-0.0004529429,1.5712308,0.78587264,0.04,0.04,0.017307877186256704,-0.0031322095151098883,0.0011960207814132318,-0.004245476176605289,-0.020700615719532398,-0.006756362754081076,0.9999998927340727,-6.794171605304626e-05,0.0002120526375452616,-0.0004061396865390976
609.2166666664413,0.00026280055,-0.78509265,0.0005777559,-2.3558161,-0.0005334134,1.5712694,0.78585356,0.04,0.039999995,0.017489964330619223,-0.0033501633240893224,0.0006675215788121136,-0.004678450561532299,-0.02163049301264576,-0.007442907413535061,0.9999998460320006,-0.00010813866547057933,0.00027318299876223775,-0.00047075795603975033
609.2333333331079,0.0002764694,-0.7851489,0.00065356283,-2.355775,-0.0006217454,1.5713117,0.78583264,0.04,0.04,0.02017100018134599,-0.003488434063108768,0.0015018242493614054,-0.005132393146863807,-0.022593458920025723,-0.008169431574361737,0.9999997828672144,-0.0001522544153375139,0.0003430208832652968,-0.0005416832937254732
609.2499999997746,0.0002914262,-0.78521276,0.00073642994,-2.3557286,-0.000718296,1.5713578,0.7858099,0.04,0.04,0.01892270996854961,-0.00367758701469049,0.0009880739918255443,-0.005608544267473502,-0.023583659414688034,-0.008929331456394303,0.9999996994568723,-0.00020043313616853616,0.0004212987731015053,-0.0006192092268871838
609.2666666664412,0.00030773063,-0.7852843,0.00082668103,-2.3556764,-0.00082345057,1.5714079,0.7857851,0.039999995,0.04,0.01950354625741557,-0.0038456448898501134,0.001108700787177952,-0.006106485307928004,-0.02460604993939488,-0.009724695523822904,0.9999995913001536,-0.00025290774386045253,0.0005082558305148393,-0.0007036428138256402
609.2833333331079,0.00032544165,-0.7853638,0.0009246361,-2.3556185,-0.0009375834,1.5714624,0.7857581,0.03999999,0.04,0.019991255517592954,-0.004017780686808414,0.0012864686983693474,-0.006626049454614812,-0.025662141898165437,-0.010554394277695913,0.9999994531622166,-0.00030990939664523513,0.000604280298183443,-0.000795284071893409
609.2999999997745,0.00034461785,-0.7854513,0.0010306122,-2.3555543,-0.0010610598,1.5715212,0.78572893,0.039999988,0.04,0.02077171980858772,-0.004193796548292736,0.0014012716347266974,-0.007166213645897659,-0.0267520223411108,-0.011418077514918887,0.9999992792432894,-0.0003715485523026134,0.0007095519824463522,-0.0008944275036561085
609.3166666664412,0.00036531698,-0.7855474,0.001144923,-2.3554838,-0.0011942509,1.5715849,0.7856976,0.03999998,0.039999995,0.02207219350132128,-0.0043625117682157466,0.001691125852554265,-0.00772759594081111,-0.027873367326666478,-0.0123163041416319,0.9999990625240754,-0.0004379936665155746,0.0008248468081367969,-0.0010013691934102856
609.3333333331078,0.00038759632,-0.785652,0.0012678786,-2.3554065,-0.0013375045,1.5716532,0.785664,0.039999977,0.039999995,0.0222699566801543,-0.004543142580473356,0.0014636594526384883,-0.00830997736742348,-0.029024588122873573,-0.013245923159725144,0.9999987958324333,-0.000509381294042658,0.0009500169690612382,-0.0011163924663853504
609.3499999997745,0.0004115119,-0.7857656,0.001399784,-2.3553226,-0.001491179,1.5717264,0.7856279,0.03999997,0.039999988,0.022921880125581495,-0.004710827648445807,0.001445050968884587,-0.008913672947639895,-0.030209329914511484,-0.014208429698040271,0.9999984706195262,-0.0005860245205034775,0.0010854808221623254,-0.0012397843581970081
609.3666666664411,0.00043711928,-0.7858882,0.0015409408,-2.3552322,-0.0016556237,1.5718054,0.7855891,0.039999966,0.039999984,0.022794375699763947,-0.004882192915744402,0.001944536981435263,-0.009536500016895887,-0.03142525714450422,-0.015203165479458026,0.999998077512993,-0.0006681161372073953,0.0012315377294391185,-0.0013718257784413694
609.3833333331078,0.00046447333,-0.78602016,0.0016916458,-2.3551347,-0.001831184,1.5718893,0.7855479,0.03999996,0.03999998,0.024191805262629984,-0.005050611532506533,0.0015102717406678678,-0.010178762159911425,-0.03267313493758989,-0.01622971596979519,0.9999976064474934,-0.000755636751397103,0.0013883682743758275,-0.0015127940768215973
609.3999999997744,0.0004936278,-0.7861616,0.0018521916,-2.3550303,-0.0020181998,1.5719789,0.7855039,0.039999958,0.039999977,0.024160925803040634,-0.0052192991116194925,0.0018497339827838744,-0.010841266339837221,-0.03395313122550368,-0.01728755583171225,0.9999970459468112,-0.0008489236148076388,0.001556271898141347,-0.0016629624549265613
609.4166666664411,0.00052463537,-0.78631264,0.0020228652,-2.354919,-0.0022170055,1.572074,0.78545713,0.039999954,0.039999973,0.024232794096956667,-0.005383790133894873,0.0015840547939349747,-0.011522100394277847,-0.03526431036906106,-0.018376166584954248,0.9999963841665817,-0.0009481018870505887,0.0017351908346710182,-0.0018225996108762672
609.4333333331077,0.0005575483,-0.78647363,0.0022039493,-2.3548,-0.002427929,1.572175,0.7854076,0.03999995,0.03999997,0.02597671563213666,-0.005553003441365165,0.0019416997607768494,-0.012221501746291429,-0.03661004805730869,-0.019494983190396574,0.9999956069025181,-0.0010532650760686933,0.001925842406904513,-0.0019919687165453584
609.4499999997744,0.0005924176,-0.786645,0.002395721,-2.3546736,-0.0026512935,1.5722818,0.78535503,0.03999995,0.039999973,0.026051748219080295,-0.005715793262685829,0.001573118668529716,-0.012939766398165707,-0.037987233491669575,-0.020644320032299837,0.9999946995389105,-0.0011646824205757652,0.002128317903887845,-0.002171329510551189
609.466666666441,0.0006292936,-0.78682655,0.0025984508,-2.3545392,-0.0028874162,1.5723948,0.78529954,0.03999995,0.039999977,0.027206288426318004,-0.0058808031474493405,0.002231086226966994,-0.01367538665619525,-0.03939480195255606,-0.021823690528030334,0.999993645700238,-0.001282412383150239,0.002343066812920981,-0.0023609353096735084
609.4833333331077,0.0006682249,-0.7870188,0.0028124065,-2.354397,-0.0031366055,1.5725142,0.7852409,0.03999995,0.039999988,0.02698307404094269,-0.006043477866305336,0.0018071202256608743,-0.014428734369154619,-0.040831936613260775,-0.023032330050641488,0.9999924282946797,-0.0014066894417780094,0.0025701509725260183,-0.0025610353575478005
609.4999999997743,0.0007092593,-0.7872219,0.0030378485,-2.3542464,-0.0033991567,1.5726398,0.7851792,0.03999995,0.04,0.028894232839760114,-0.006214281891410585,0.0020605052746036634,-0.015198875190367795,-0.042299539222217075,-0.024267974517119477,0.9999910277529315,-0.0015375656778338685,0.002810169255225333,-0.0027718683553069018
609.516666666441,0.00075244426,-0.787436,0.0032750333,-2.3540874,-0.0036753595,1.5727721,0.7851143,0.039999947,0.039999995,0.028695532920042233,-0.0063826332219443695,0.0021521616802688825,-0.01598601314536574,-0.04379356613772889,-0.025529368200511163,0.9999894240591857,-0.0016752413438366736,0.003063213708985543,-0.002993669652959888
609.5333333331076,0.00079782563,-0.78766143,0.0035242091,-2.35392,-0.003965509,1.5729114,0.78504604,0.039999947,0.039999995,0.029196069784398482,-0.006537814383713019,0.0020876362494703926,-0.01678953550794022,-0.04531711976840326,-0.026817499157285103,0.9999875951544516,-0.0018198822825234648,0.003329585232017047,-0.003226674429993747
609.5499999997743,0.00084544823,-0.7878982,0.0037856218,-2.3537443,-0.004269889,1.5730575,0.7849745,0.039999947,0.039999995,0.029226309050289778,-0.006698943837581952,0.002048249736819052,-0.017608316810259435,-0.04686714455632303,-0.028131775236745836,0.9999855185814245,-0.001971563455522464,0.0036092871730786205,-0.0034711109291834623
609.5666666664409,0.0008953561,-0.7881466,0.004059511,-2.3535597,-0.0045887846,1.5732104,0.78489953,0.03999995,0.04,0.03038923772364921,-0.00685396239273532,0.0018333240235923753,-0.01844281701218102,-0.0484469365380235,-0.029471497392625372,0.999983169139408,-0.0021304747339683586,0.0039026207181918965,-0.003727206305537108
609.5833333331076,0.0009475918,-0.78840685,0.004346105,-2.3533669,-0.004922465,1.5733702,0.7848211,0.03999995,0.04,0.029858142314398428,-0.0070060092340480575,0.0017765780934375641,-0.0192921592390396,-0.050053611333080464,-0.03083606514738272,0.9999805213268392,-0.0022967135251854265,0.0042095895132274784,-0.003995175842963397
609.5999999997742,0.0010021969,-0.7886793,0.004645633,-2.3531656,-0.0052711875,1.5735373,0.78473914,0.039999947,0.039999995,0.030432535673474703,-0.0071704853705421585,0.0016666994454572759,-0.020156051180304693,-0.05169047955590247,-0.032224895044291005,0.9999775466754123,-0.002470405457528251,0.004530525131190648,-0.004275229109026143
609.6166666664409,0.0010592123,-0.78896385,0.004958316,-2.3529546,-0.0056352215,1.5737118,0.7846536,0.039999947,0.039999995,0.03277676469617408,-0.0073279694277640466,0.002308946880691387,-0.021034345782028573,-0.0533557456721851,-0.03363721657016722,0.9999742132027226,-0.0026516721984224333,0.0048660871854411146,-0.00456757700008894
609.6333333331075,0.0011186776,-0.78926104,0.005284371,-2.3527348,-0.006014814,1.5738937,0.7845644,0.039999947,0.039999995,0.03186320664017028,-0.007481729969225368,0.0017057802258690913,-0.021926126981862613,-0.05504305752102437,-0.035072502724079115,0.9999704903196022,-0.002840663118655993,0.005216190284664706,-0.004872420541678167
609.6499999997742,0.001180631,-0.78957057,0.005624003,-2.3525054,-0.0064102006,1.5740833,0.7844714,0.039999947,0.039999995,0.0328731659115844,-0.007646332853544985,0.002308208979551196,-0.022830813818579446,-0.056757711374129646,-0.03653014337574817,0.9999663437558363,-0.0030374939692604224,0.005581166578080299,-0.0051899485160196044
609.6666666664408,0.0012451096,-0.7898929,0.0059774173,-2.3522673,-0.0068216277,1.5742805,0.78437465,0.039999943,0.039999995,0.032149219679222796,-0.007786905262516328,0.0014849353550783206,-0.02374806614969243,-0.058495542281386995,-0.03801108345805299,0.9999617405461251,-0.0032422472870105197,0.005960782372475837,-0.005520357778454746
609.6833333331075,0.00131215,-0.7902282,0.0063448115,-2.3520184,-0.007249311,1.5744858,0.7842741,0.03999994,0.039999995,0.03577585896330504,-0.007974334091926261,0.0026184217172486868,-0.024677784511287937,-0.06026135907726447,-0.03951215865475119,0.9999566366082245,-0.0034550332397129766,0.006356353701827061,-0.0058638226522430914
609.6999999997741,0.0013817871,-0.7905766,0.006726378,-2.3517594,-0.0076934956,1.5746989,0.78416955,0.039999932,0.039999995,0.034727731821027064,-0.008105545012352701,0.0019581304507854114,-0.025619265064127407,-0.06204368778702978,-0.04103445367373014,0.9999509952056376,-0.003676017917907671,0.006767497779750796,-0.006220534810054573
609.7166666664408,0.0014540552,-0.7909384,0.007122299,-2.3514917,-0.008154379,1.57492,0.7840612,0.03999993,0.039999995,0.03311491663282595,-0.008256600238754942,0.0012882787648660354,-0.02657170709162547,-0.06384817837459458,-0.04257559355845376,0.9999447792360528,-0.0039051852259319396,0.007193833064429239,-0.006590657990943823
609.7333333331075,0.001528987,-0.79131335,0.007532757,-2.3512132,-0.008632185,1.5751492,0.7839489,0.039999925,0.04,0.03616122671261657,-0.008423627884544295,0.0021714399518479865,-0.027535513209927448,-0.06567698133617157,-0.044136639855944446,0.9999379405811151,-0.004142665769588256,0.007636199265532264,-0.00697436502464907
609.7499999997741,0.0016066141,-0.791702,0.007957924,-2.3509243,-0.009127118,1.5753863,0.78383255,0.039999917,0.04,0.036340484635122294,-0.008572165286602207,0.0017097922218045625,-0.02850979849920764,-0.06752787899021777,-0.04571602075281228,0.9999304336210522,-0.004388585171391139,0.008094720985024699,-0.007371820045475502
609.7666666664408,0.001686968,-0.7921044,0.0083979685,-2.3506267,-0.00963934,1.575632,0.783712,0.039999913,0.039999995,0.033536995778260525,-0.008730679185426325,0.0011487792303421784,-0.029494256803009645,-0.06939651030860833,-0.04731155285289079,0.9999222165994363,-0.00464307112597966,0.008568837493263726,-0.007783165513035818
609.7833333331074,0.0017700779,-0.79252064,0.00885305,-2.3503182,-0.010169065,1.575886,0.7835875,0.03999991,0.039999995,0.03752741795535197,-0.008892557830515648,0.0019370857176292944,-0.030487647379025016,-0.07129226771300037,-0.04892500747441144,0.9999132329803512,-0.004906092225362083,0.00905959876547768,-0.008208558951896617
609.7999999997741,0.0018559719,-0.7929509,0.009323327,-2.3499987,-0.010716465,1.5761485,0.7834589,0.039999906,0.039999995,0.03796317321163034,-0.009055815529088879,0.0017558933577133118,-0.03149067987501813,-0.07320380059891167,-0.05055504933826567,0.999903429667837,-0.005177766432024503,0.009567219395002971,-0.008648143518705517
609.8166666664407,0.0019446779,-0.79339534,0.009808948,-2.3496695,-0.011281722,1.5764194,0.783326,0.039999902,0.039999995,0.03602072212824936,-0.009185802713832219,0.001031414665075836,-0.03250275971879367,-0.07513216675942486,-0.05220093212655037,0.9998927595026933,-0.005458208849393065,0.010091079706585616,-0.009102063535304808
609.8333333331074,0.0020362225,-0.7938539,0.010310057,-2.3493288,-0.011864995,1.5766991,0.78318894,0.0399999,0.039999995,0.03914211523003974,-0.009377276270182248,0.0020750275971481713,-0.03352274169230361,-0.07708178999387137,-0.05386204704290392,0.9998811564176158,-0.005747472089483839,0.01063231891534865,-0.009570444087631413
609.849999999774,0.0021306302,-0.7943269,0.010826797,-2.3489785,-0.012466437,1.5769877,0.78304756,0.0399999,0.039999995,0.03631090418443339,-0.009511146386661888,0.0008686738110830206,-0.03455048257235753,-0.07904515406406439,-0.05553695052440685,0.9998685716264958,-0.006045637234226913,0.011190109337100615,-0.010053417182582163
609.8666666664407,0.0022279266,-0.7948144,0.011359295,-2.348617,-0.013086217,1.5772848,0.78290194,0.0399999,0.04,0.039122139596092786,-0.009670181766291419,0.001195907233242366,-0.03558533888895491,-0.08102952647962737,-0.05722667208474898,0.9998549391040273,-0.006352714569548799,0.01176511412616173,-0.010551106884020754
609.8833333331073,0.0023281346,-0.7953166,0.01190768,-2.3482451,-0.013724477,1.5775912,0.7827518,0.039999895,0.04,0.0384538414842428,-0.0098323951032089,0.00129175771099721,-0.03662755215038471,-0.08302924772608933,-0.058929789853700884,0.999840194391289,-0.006668901323654365,0.012357488060589032,-0.01106363066796474
609.899999999774,0.0024312753,-0.79583335,0.012472071,-2.3478618,-0.014381363,1.5779061,0.78259736,0.039999887,0.039999995,0.03986274783023269,-0.009986051298590398,0.001076767944008239,-0.037675375529222,-0.08504388742652544,-0.06064640971097743,0.9998242731390253,-0.0069941118393830465,0.012967329367592473,-0.011591100494357777
609.9166666664406,0.0025373707,-0.79636496,0.013052582,-2.3474677,-0.015057001,1.5782303,0.7824385,0.039999884,0.04,0.03918612341233807,-0.010143055950613544,0.0009531830470921321,-0.03872955288376474,-0.08707358549063628,-0.062375129843905,0.999807107977905,-0.0073284454565228675,0.01359470468365006,-0.01213361976546839
609.9333333331073,0.0026464397,-0.7969116,0.013649325,-2.3470623,-0.015751516,1.5785633,0.7822753,0.03999988,0.04,0.04020740684955726,-0.010308106997449634,0.0007388001720398663,-0.03978922131396326,-0.08911788199201942,-0.0641145668196049,0.999788627821401,-0.007671903041214399,0.01423983085871417,-0.012691288344427658
609.9499999997739,0.0027585025,-0.7974732,0.014262404,-2.3466458,-0.016465068,1.5789056,0.7821076,0.03999988,0.04,0.04031198915537271,-0.010442126731778634,0.0008153525666632078,-0.040854507392607,-0.09117428675077405,-0.0658664691978755,0.9997687595315242,-0.008024606716922216,0.014902804294455785,-0.01326422165064479
609.9666666664406,0.0028735767,-0.7980498,0.014891913,-2.3462186,-0.01719771,1.5792569,0.7819353,0.039999876,0.04,0.03961065400222008,-0.01062402072412802,0.0003586000610455997,-0.04192406852435512,-0.09324390171069137,-0.06762695766015439,0.9997474342547804,-0.008386611536949033,0.015583364354096012,-0.01385248004219662
609.9833333331072,0.0029916787,-0.79864144,0.015537951,-2.34578,-0.01794958,1.5796176,0.7817586,0.039999872,0.04,0.04105313409059619,-0.010789894014064279,0.0007701669955784141,-0.042997542207212795,-0.09532943063934757,-0.0693970589896351,0.9997245693131184,-0.00875782604330235,0.016282057401309648,-0.014456161367239928
609.9999999997739,0.0031128244,-0.79924834,0.0162006,-2.34533,-0.01872076,1.5799874,0.7815774,0.039999865,0.04,0.04088317351558235,-0.010943360835399644,0.0001181656464677161,-0.0440753532789286,-0.09742484296501537,-0.07117635050933258,0.9997000892604142,-0.009138355399518011,0.016998711793026085,-0.015075337166690597
610.0166666664405,0.0032370293,-0.7998708,0.016879948,-2.3448684,-0.019511385,1.5803668,0.7813914,0.039999858,0.04,0.04233568129343723,-0.011103276101293025,0.0004131793289507968,-0.04515683995529918,-0.09953339294360529,-0.07296490717817564,0.9996739004940006,-0.009528370133481632,0.017734019112489032,-0.015710105022831444
610.0333333331072,0.003364307,-0.80050874,0.017576067,-2.3443956,-0.020321522,1.5807554,0.781201,0.039999854,0.04,0.041348482811676135,-0.011250811732328551,-0.00034071910912647496,-0.04623995840478048,-0.10164680925260494,-0.07476127201867133,0.9996459325230812,-0.009927642421737737,0.01848742539591496,-0.016360519803349818
610.0499999997738,0.0034946697,-0.8011621,0.018289022,-2.3439116,-0.02115123,1.5811534,0.78100604,0.039999858,0.04,0.0415488516931628,-0.01142936540149582,-0.00011900703682510283,-0.047326635862115905,-0.10377296771464216,-0.07656323438084729,0.9996160962411045,-0.010336305377654616,0.0192591459577448,-0.017026632779653446
610.0666666664405,0.00362813,-0.8018308,0.019018894,-2.3434153,-0.0220006,1.5815606,0.78080636,0.03999985,0.04,0.04344882850224607,-0.011624693331612097,-6.592482160172608e-06,-0.048415651123685816,-0.10590972826935252,-0.07837372443372458,0.999584296846444,-0.010754428936022888,0.020049546149539653,-0.017708513643373495
610.0833333331071,0.003764699,-0.80251515,0.019765727,-2.3429084,-0.022869706,1.5819777,0.7806021,0.039999843,0.04,0.04085659648600526,-0.01172368785705008,-0.0005935038075000065,-0.04950565524021103,-0.1080511953535513,-0.08019020331291965,0.999550454394451,-0.011181961904466398,0.02085818867432841,-0.018406216695441208
610.0999999997738,0.0039043855,-0.8032151,0.020529583,-2.3423889,-0.023758624,1.5824039,0.7803931,0.03999983,0.04,0.04436828050997654,-0.01193015758719114,-0.0005417083523751032,-0.0505974535458111,-0.1102055568226296,-0.08201225733756859,0.9995144631751922,-0.011618956547446874,0.021685736825214855,-0.0191197952578819
610.1166666664404,0.004047201,-0.8039308,0.021310505,-2.3418581,-0.024667395,1.58284,0.78017944,0.039999824,0.04,0.04250879043965483,-0.012074773230214345,-0.0007900897993851075,-0.05168957034971239,-0.11236268031752888,-0.08383924847373295,0.9994762332630737,-0.012065421164640927,0.02253199061458205,-0.019849285965052345
610.1333333331071,0.0041931495,-0.8046622,0.02210854,-2.3413157,-0.025596095,1.5832852,0.77996117,0.039999824,0.04,0.043062818266870195,-0.012217960265811442,-0.0012449520918167423,-0.05278194884997658,-0.11452609686021431,-0.08567058524321983,0.9994356731335666,-0.012521285767233815,0.02339678136091017,-0.020594739443351606
610.1499999997737,0.00434224,-0.8054093,0.022923734,-2.3407624,-0.026544739,1.5837401,0.7797382,0.039999817,0.04,0.04211266048201878,-0.012400378290509592,-0.0013688234667741384,-0.05387500881972222,-0.1166978483425744,-0.0875058523289087,0.9993926872023553,-0.012986613800717257,0.024279997377994297,-0.021356178398085617
610.1666666664404,0.0044944785,-0.8061721,0.023756107,-2.3401968,-0.027513353,1.5842047,0.77951044,0.039999817,0.04,0.04428464638435159,-0.012599933950780892,-0.0011138021039469592,-0.05496784846519353,-0.1188780017491284,-0.08934261419952627,0.9993471608260351,-0.013461418965489845,0.025182242447676563,-0.02213361727518795
610.183333333107,0.004649872,-0.80695087,0.024605695,-2.3396192,-0.028502002,1.5846788,0.77927804,0.039999805,0.04,0.04476168764844246,-0.012749867124725936,-0.0016352782418183054,-0.05605928578384644,-0.12106131199516926,-0.09118473046440802,0.9992989879689709,-0.013945627508933559,0.02610364575738592,-0.022927097412136194
610.1999999997737,0.0048084217,-0.8077453,0.025472526,-2.3390307,-0.02951071,1.5851626,0.779041,0.039999798,0.04,0.042037984934673034,-0.012873267143535469,-0.0019568846135520346,-0.057149788613050034,-0.12324627134797361,-0.09302905370280204,0.9992480844314214,-0.014439236554709158,0.027043411576200486,-0.023736640414601756
610.2166666664403,0.004970133,-0.80855554,0.02635661,-2.33843,-0.03053949,1.5856558,0.77879906,0.039999794,0.04,0.0451350070790113,-0.013088157890869465,-0.002043228226011884,-0.05823935421088158,-0.12543819026271572,-0.09487309370896396,0.999194323361645,-0.01494233299927384,0.02800226048353144,-0.02456225262909965
610.233333333107,0.0051350044,-0.8093818,0.027257968,-2.3378177,-0.03158835,1.5861588,0.7785526,0.039999787,0.04,0.04391602804729722,-0.013242942418904835,-0.0023559575658360643,-0.05932602399237906,-0.12763318084382472,-0.09671920444054621,0.9991376028389821,-0.015454725617512662,0.028980026271225354,-0.02540393919412498
610.2499999997736,0.00530304,-0.81022376,0.028176602,-2.3371935,-0.032657318,1.5866715,0.7783013,0.039999776,0.04,0.04460275240107947,-0.013411296161919967,-0.0022605894370419932,-0.06041118444888858,-0.1298304110152315,-0.09856751743178929,0.9990778058308195,-0.01597654044136713,0.02997683271784379,-0.026261712663252376
610.2666666664403,0.005474241,-0.8110816,0.029112516,-2.3365583,-0.033746395,1.5871937,0.77804524,0.039999776,0.04,0.043128419282290054,-0.013531324679073517,-0.00309436202081681,-0.06149351042723277,-0.1320280858487295,-0.10041337789880936,0.9990148358153018,-0.016507720628970827,0.030992152370941894,-0.0271355757627815
610.283333333107,0.0056486055,-0.8119553,0.030065719,-2.335911,-0.034855556,1.5877259,0.77778447,0.039999776,0.04,0.04544599410114536,-0.013796130119829789,-0.002642511281392146,-0.06257269873197358,-0.13423129298534753,-0.10225872538731443,0.9989485550194482,-0.017048211909599025,0.03202676818254543,-0.028025506507881454
610.2999999997736,0.0058261347,-0.8128448,0.03103619,-2.3352509,-0.0359848,1.5882673,0.77751905,0.03999976,0.04,0.0465995256618168,-0.01395864279047851,-0.0030698152931663003,-0.06364792999738073,-0.13643269513763157,-0.104104720755777,0.9988788442490856,-0.017597937885389707,0.03308074829072504,-0.02893149125639414
610.3166666664403,0.006006825,-0.8137502,0.032023937,-2.3345802,-0.037134156,1.5888187,0.777249,0.03999975,0.04,0.04282266843644855,-0.014023576159928608,-0.003749879863024219,-0.06472012533789825,-0.1386301119000768,-0.10594935369849803,0.9988056124298574,-0.018156885842760526,0.03415320682384703,-0.029853551526712326
610.3333333331069,0.0061906725,-0.8146712,0.033028927,-2.3338969,-0.038303554,1.5893798,0.77697414,0.039999746,0.04,0.046359995498512774,-0.014316965277894403,-0.003177997019743195,-0.06578825775460734,-0.14083168268254417,-0.10778996300637358,0.9987287091832635,-0.018725067773231973,0.03524504245492992,-0.030791626660027452
610.3499999997736,0.006377673,-0.8156083,0.03405113,-2.3332026,-0.039493,1.5899502,0.77669454,0.039999742,0.04,0.043956731876404476,-0.014346944647971455,-0.004684347104011444,-0.06685166964468425,-0.14302904612118084,-0.10963007476779013,0.9986480403017953,-0.019302431390883515,0.036355428134635936,-0.031745717647131425
610.3666666664402,0.006567823,-0.81656104,0.03509054,-2.3324962,-0.040702462,1.5905303,0.7764102,0.03999973,0.04,0.04575762871805722,-0.014613072991037299,-0.003972486439796086,-0.06791009312407281,-0.14522686323178388,-0.1114670229597781,0.9985634630375099,-0.019888918356312187,0.03748490757958651,-0.032715790024109286
610.3833333331069,0.006761115,-0.8175295,0.036147118,-2.3317783,-0.041931905,1.5911196,0.7761212,0.03999973,0.04,0.044650253177191956,-0.014726621056019087,-0.004832818133282402,-0.06896353522318328,-0.14742253088815516,-0.1132993995233425,0.9984748692475488,-0.020484476404798155,0.03863301056732739,-0.03370181303752582
610.3999999997735,0.006957546,-0.8185137,0.03722085,-2.3310487,-0.043181255,1.5917189,0.7758275,0.03999972,0.04,0.045417070651110336,-0.014987162309181706,-0.004606068791579432,-0.07001112821402386,-0.149618655633391,-0.11512861743491597,0.9983821163095193,-0.02108904529105851,0.039800160791050226,-0.03470373471319031
610.4166666664402,0.0071571055,-0.81951356,0.038311686,-2.3303075,-0.04445052,1.5923276,0.775529,0.03999971,0.04,0.04531045395683719,-0.015078483138136756,-0.0051972139484046664,-0.07105299070317499,-0.1518086723971409,-0.11695344154733539,0.998285082872095,-0.021702650358772387,0.040986092977786735,-0.03572154062852346
610.4333333331068,0.0073597864,-0.82052904,0.03941957,-2.3295548,-0.04573964,1.5929458,0.77522594,0.039999705,0.04,0.0450078236656104,-0.015235535755238686,-0.005446715183476947,-0.07208782525478988,-0.15399528959837955,-0.11877225818722131,0.9981836449894779,-0.022325119611065893,0.04219072698295064,-0.036755169248988306
610.4499999997735,0.007565581,-0.8215604,0.040544458,-2.32879,-0.047048517,1.5935737,0.7749182,0.03999969,0.04,0.04669337569036536,-0.015493148825417719,-0.005583849756574111,-0.07311683457119234,-0.15617834681048884,-0.12058572169121828,0.9980776476831955,-0.022956424743077564,0.04341460216966336,-0.03780455100440073
610.4666666664401,0.0077744783,-0.8226071,0.041686315,-2.3280146,-0.04837713,1.594211,0.7746059,0.03999968,0.04,0.04330651078383596,-0.015538635393151992,-0.006293426958969839,-0.07413851593946116,-0.15835274673915622,-0.122395026790009,0.9979670078283299,-0.023596495069436417,0.044656533726836214,-0.03886966300486849
610.4833333331068,0.007986469,-0.8236693,0.042845074,-2.327227,-0.049725424,1.5948577,0.7742889,0.03999967,0.04,0.0464762600616897,-0.01579504003787445,-0.006134304474780805,-0.0751534991718707,-0.1605264001246926,-0.12419685549342604,0.9978515517767623,-0.02424528576299562,0.045917417516988454,-0.03995043808957217
610.4999999997734,0.00820154,-0.824747,0.04402067,-2.3264282,-0.051093295,1.5955135,0.77396727,0.039999668,0.04,0.04522531927473317,-0.01591927987508318,-0.006940424822854396,-0.07616078977165938,-0.16269188529624581,-0.12599110496449314,0.9977311680304893,-0.024902728372492706,0.047196720937703905,-0.04104680246803204
610.5166666664401,0.008419682,-0.8258401,0.04521304,-2.3256176,-0.052480664,1.596179,0.7736411,0.039999656,0.04,0.0459144327865868,-0.01614874483575647,-0.006598887013820054,-0.07715993458800921,-0.16485311134269265,-0.12777882303015398,0.9976057011178995,-0.025568713664019974,0.0484948658066717,-0.04215867608244517
610.5333333331067,0.008640879,-0.8269486,0.046422124,-2.3247964,-0.05388748,1.5968536,0.7733104,0.039999653,0.04,0.043693383605614144,-0.016185729607323673,-0.007807053790642726,-0.07815123452190541,-0.16700283218991585,-0.12955727184078925,0.9974750576205083,-0.026243168383456292,0.04981090266742278,-0.04328601984033608
610.5499999997734,0.008865121,-0.82807237,0.04764784,-2.3239632,-0.05531364,1.5975376,0.7729752,0.039999638,0.04,0.04680509865724325,-0.01649992110614798,-0.007324174508682724,-0.07913427105317475,-0.16915124287911354,-0.1313308121358845,0.9973390510770754,-0.02692602073704176,0.05114581537008474,-0.044428731402957354
610.56666666644,0.009092388,-0.82921124,0.048890106,-2.323119,-0.05675908,1.5982308,0.7726355,0.039999634,0.04,0.04449918116988805,-0.01653328803552373,-0.008038029353318876,-0.08010877800228865,-0.1712868248995511,-0.13309398843299122,0.9971975827955334,-0.02761716866754856,0.05249877345006961,-0.04558674859837916
610.5833333331067,0.009322673,-0.83036536,0.050148863,-2.3222635,-0.058223687,1.5989335,0.77229124,0.039999623,0.04,0.04533252141150079,-0.016791813464881594,-0.008260991099584558,-0.08107445880500092,-0.17341521939266524,-0.13484832353937992,0.9970504929328459,-0.028316610136389687,0.05387010226648484,-0.04675998518553506
610.5999999997733,0.009555954,-0.83153445,0.051424015,-2.3213966,-0.059707347,1.599645,0.7719425,0.03999961,0.04,0.04535751783003583,-0.01693327433895872,-0.008670623246587184,-0.08203043077217337,-0.17553484421220017,-0.1365928476218084,0.9968976558775824,-0.029024195151178666,0.055259536840547296,-0.04794834084486768
610.61666666644,0.009792216,-0.8327184,0.052715465,-2.320519,-0.061209988,1.6003661,0.7715893,0.039999608,0.04,0.04433638182907984,-0.01705652585757486,-0.008730940583712155,-0.08297692696317825,-0.17764419061437922,-0.1383275858404448,0.9967389343465807,-0.029739864223242304,0.05666695757242357,-0.04915173601319623
610.6333333331066,0.010031442,-0.83391726,0.054023124,-2.3196306,-0.0627315,1.6010954,0.7712315,0.0399996,0.04,0.04407060557967135,-0.017135754461133912,-0.010087621878818176,-0.0839135201343958,-0.17974340195668637,-0.14005190019367048,0.9965742181031186,-0.030463561138336537,0.05809176593938487,-0.05037009018229303
610.6499999997733,0.010273617,-0.835131,0.05534689,-2.3187308,-0.06427174,1.601834,0.77086943,0.03999959,0.04,0.04573439108943589,-0.017447413152831687,-0.00940766015669059,-0.08483952178536422,-0.18183693944004997,-0.14176431424261118,0.9964033216440127,-0.031195048141225895,0.059534801269539424,-0.05160326565287496
610.6666666664399,0.010518719,-0.83635914,0.056686673,-2.31782,-0.06583061,1.6025822,0.770503,0.03999958,0.04,0.044653802664695874,-0.01759508801733728,-0.009454938144215497,-0.0857556206514183,-0.18391573523301322,-0.14346678913426783,0.996226114968626,-0.031934350569762314,0.060995729469405305,-0.052851169284138855
610.6833333331066,0.010766727,-0.83760214,0.05804237,-2.3168988,-0.06740797,1.6033385,0.7701322,0.039999567,0.04,0.04382199841241885,-0.017617693073389284,-0.011250542272200903,-0.08666078230416698,-0.18598160999992097,-0.1451586165615113,0.996042500289984,-0.03268130546514716,0.062473805748091006,-0.054113708840928205
610.6999999997732,0.011017627,-0.8388596,0.059413865,-2.3159676,-0.06900372,1.6041042,0.7697571,0.039999552,0.04,0.04323075766645701,-0.01781620906162462,-0.010582208475695687,-0.08755543578836172,-0.18803972641260952,-0.14683820101641595,0.9958523184880893,-0.03343584112861617,0.06396926536208804,-0.055390769799253406
610.7166666664399,0.011271391,-0.84013146,0.06080108,-2.3150249,-0.07061774,1.6048782,0.7693777,0.03999955,0.04,0.04528628163669168,-0.018050252279974005,-0.011236433484862474,-0.08843884777898045,-0.19008694601111675,-0.14850534276275013,0.9956554167608356,-0.03419783724696557,0.0654822235865972,-0.05668224939601204
610.7333333331065,0.011528003,-0.8414176,0.062203843,-2.3140717,-0.0722499,1.605661,0.7689939,0.039999533,0.04,0.04384985798706609,-0.018088712114197603,-0.011501953186687786,-0.08931087403504875,-0.19211856745525996,-0.15015889936900956,0.9954516654701651,-0.034967261555801814,0.06701240302242764,-0.05798801749605172
610.7499999997732,0.01178744,-0.842718,0.063622065,-2.3131075,-0.07390003,1.6064526,0.7686061,0.03999952,0.04,0.04467732975017569,-0.01833616264180979,-0.011808149602510198,-0.09017039245872654,-0.1941370645611883,-0.15180183672945183,0.9952409157282104,-0.035743816282923814,0.06855995828058363,-0.059307936893559746
610.7666666664398,0.012049678,-0.8440323,0.065055646,-2.312133,-0.07556799,1.6072524,0.768214,0.03999952,0.04,0.042928822777366094,-0.018417396152096976,-0.012458667935710821,-0.09101912873954252,-0.19614006040159776,-0.15342797839494982,0.9950230674908775,-0.0365275909238223,0.07012409984433855,-0.0606419069898686
610.7833333331065,0.012314699,-0.84536076,0.066504404,-2.3111491,-0.07725363,1.6080608,0.76781774,0.039999496,0.04,0.04229676387135228,-0.018467384133863396,-0.012911151902805784,-0.09185508640042891,-0.1981313047591532,-0.15504267226684845,0.9947979801122478,-0.03731835952757977,0.07170485544287537,-0.061989777485312876
610.7999999997731,0.012582473,-0.8467032,0.06796824,-2.3101544,-0.07895684,1.6088779,0.7674174,0.039999492,0.04,0.04418023588090847,-0.018737018158433705,-0.012920693682372253,-0.09267915758625822,-0.2001097203776987,-0.15664213338206742,0.9945654773588403,-0.03811602273427704,0.07330263324312027,-0.06335143263200006
610.8166666664398,0.012852977,-0.84805924,0.069447026,-2.3091497,-0.080677435,1.6097031,0.7670129,0.039999478,0.04,0.04248167280151982,-0.018793773168444133,-0.013610901748872806,-0.09349071089885157,-0.20207062154418406,-0.15822627461343902,0.9943254687314548,-0.03892047697705374,0.07491668113044504,-0.06472673012172372
610.8333333331065,0.013126189,-0.8494285,0.07094062,-2.3081346,-0.08241526,1.6105366,0.7666043,0.039999466,0.04,0.042982677668312874,-0.019016442370670822,-0.01338591029260705,-0.09428949129554305,-0.20401697946576647,-0.15979554434876334,0.9940778012020935,-0.03973163860900499,0.07654710799111303,-0.06611552245011185
610.8499999997731,0.013402077,-0.85081106,0.07244889,-2.3071098,-0.08417015,1.6113783,0.7661917,0.039999455,0.04,0.04153451510124917,-0.01904247445663268,-0.014227473582861805,-0.09507482728828665,-0.20594707936256332,-0.1613509812679314,0.9938223673649297,-0.0405493366387515,0.07819346040134696,-0.06751767304778084
610.8666666664398,0.013680617,-0.85220724,0.073971696,-2.3060753,-0.08594192,1.612228,0.7657751,0.03999945,0.04,0.042197001196431216,-0.019213441325532238,-0.01491976045009391,-0.0958476389156677,-0.207863795439027,-0.16288815383791044,0.9935590144794059,-0.04137348006434012,0.07985584302231392,-0.06893304163659768
610.8833333331064,0.0139617855,-0.85361683,0.07550888,-2.3050306,-0.08773044,1.613086,0.7653546,0.03999943,0.04,0.04302373807818505,-0.019375365797669186,-0.014932239047849016,-0.09660581087737186,-0.209764155538956,-0.16441269323120083,0.9932875814322693,-0.042203870547807575,0.081534516057822,-0.07036147080919805
610.8999999997731,0.014245552,-0.85503936,0.077060275,-2.303976,-0.089535534,1.6139517,0.76493025,0.039999418,0.04,0.041524194291842065,-0.01940266704706789,-0.0154243066375237,-0.09735128312785779,-0.2116423788583328,-0.16591847278396837,0.9930079846198642,-0.043040367091847734,0.08322875592444057,-0.0718028096181794
610.9166666664397,0.014531888,-0.85647494,0.078625776,-2.302912,-0.091357015,1.6148252,0.7645021,0.0399994,0.04,0.041351646131682074,-0.019580564938392192,-0.01590359839260813,-0.09808292852849518,-0.21350479332656444,-0.1674109255095923,0.9927200820841925,-0.04388287200527791,0.08493854783251538,-0.07325691273474595
610.9333333331064,0.014820768,-0.8579233,0.080205195,-2.3018384,-0.09319472,1.6157064,0.7640702,0.039999392,0.04,0.04105210898219802,-0.01963249566780262,-0.016302863408257373,-0.09880111528713241,-0.21534865450368235,-0.16888481183772966,0.9924237557082298,-0.044731229927840364,0.08666364123459128,-0.07472362051638363
610.949999999773,0.015112164,-0.85938436,0.08179839,-2.3007555,-0.09504845,1.6165954,0.7636345,0.039999377,0.04,0.04054036403937644,-0.01978618598480683,-0.016558104580655097,-0.0995049124773798,-0.21717418979972752,-0.17034295459963936,0.9921188778413867,-0.04558537476809816,0.08840386890867276,-0.07620276766612745
610.9666666664397,0.015406041,-0.8608578,0.083405204,-2.2996633,-0.096917994,1.617492,0.763195,0.03999937,0.04,0.04027809355684475,-0.019906408036283324,-0.01687895859621147,-0.10019526114632413,-0.21898106436551662,-0.17178007792440886,0.9918053268636036,-0.04644519136047628,0.09015903504939622,-0.07769418384558097
610.9833333331063,0.015702374,-0.8623436,0.085025474,-2.298562,-0.09880318,1.618396,0.7627518,0.03999936,0.04,0.03985537486319579,-0.019980753251686023,-0.0174292536109677,-0.10086994445053349,-0.2207696227262707,-0.17320175129616808,0.9914829856230764,-0.047310472148625736,0.09192895029071195,-0.0791977054179744
610.999999999773,0.016001133,-0.86384165,0.086659014,-2.2974517,-0.10070383,1.6193075,0.762305,0.039999332,0.04,0.03965351626895597,-0.020043985305897433,-0.017794923041902777,-0.1015304081189713,-0.22253860584628915,-0.17460516718395658,0.9911517325728948,-0.048181091586279,0.09371344718123216,-0.08071316651398194
611.0166666664396,0.016302284,-0.86535186,0.08830567,-2.2963321,-0.10261975,1.6202263,0.7618546,0.03999932,0.04,0.03999826775911153,-0.02018579039331364,-0.01821549723497462,-0.10217622425574084,-0.22428629183319615,-0.17598898801522161,0.9908114303675548,-0.0490569251497259,0.09551253504834101,-0.08224039881040084
611.0333333331063,0.016605793,-0.8668738,0.08996526,-2.2952037,-0.10455072,1.6211524,0.7614006,0.039999306,0.04,0.0387764501620147,-0.020272588897010668,-0.018327515235649905,-0.10280680271808003,-0.22601226402488633,-0.1773542769380284,0.9904619843408159,-0.04993784724053971,0.09732580920963206,-0.08377920893828157
611.0499999997729,0.016911628,-0.86840755,0.09163759,-2.2940671,-0.106496505,1.6220855,0.76094306,0.0399993,0.04,0.037388160930440506,-0.020192667388274632,-0.019237930539794945,-0.10342242147664053,-0.2277175184722645,-0.17869829181735536,0.9901033226928896,-0.050823678912375894,0.09915268631394346,-0.0853294137507128
611.0666666664396,0.01721976,-0.86995286,0.09332252,-2.2929227,-0.10845697,1.6230258,0.7604822,0.039999273,0.04,0.03689110154039277,-0.020324774217962693,-0.01927064192039918,-0.10402264407456713,-0.229405419816361,-0.18002749585115435,0.9897353222188828,-0.05171425190832335,0.10099309282689752,-0.08689087007910694
611.0833333331062,0.017530153,-0.87150955,0.09501988,-2.2917695,-0.11043189,1.6239729,0.7600178,0.03999927,0.04,0.03819055787452896,-0.020495727467506608,-0.01971625786034714,-0.10460851645050541,-0.2310728004485919,-0.18133298280166665,0.9893578395264525,-0.052609501826909696,0.10284714575971442,-0.0884633839176106
611.0999999997729,0.017842773,-0.8730775,0.09672941,-2.2906077,-0.112421006,1.6249269,0.7595502,0.039999247,0.04,0.03770017220086075,-0.020527130334900556,-0.020012600641261535,-0.10517781205553871,-0.23271768469298051,-0.1826220012283999,0.9889707725883153,-0.0535091474396191,0.10471471293254468,-0.09004671566365216
611.1166666664395,0.018157588,-0.8746563,0.09845098,-2.289438,-0.11442418,1.6258878,0.7590793,0.039999247,0.04,0.035930110943294125,-0.020503600523488763,-0.02028998978291785,-0.10573297788488692,-0.23433843011252375,-0.18388665456038292,0.9885740537682315,-0.05441315323425792,0.10659514310215613,-0.09164073569314958
611.1333333331062,0.018474558,-0.87624633,0.10018442,-2.2882602,-0.1164411,1.626855,0.7586051,0.039999228,0.04,0.03657569635682201,-0.020651037580339537,-0.02120891909795919,-0.10627164771573958,-0.23593903241120076,-0.18513518964469844,0.9881675565768879,-0.05532130332267336,0.1084885321502265,-0.09324522464680532
611.1499999997728,0.018793652,-0.8778469,0.10192953,-2.2870736,-0.11847161,1.6278291,0.7581278,0.039999213,0.04,0.03729439392348155,-0.020857307103051836,-0.020777292404372538,-0.10679508383382239,-0.23751613258786042,-0.1863601973849742,0.9877511379348897,-0.05623347396181493,0.1103950632138286,-0.09485998066904253
611.1666666664395,0.019114837,-0.8794581,0.103686124,-2.2858794,-0.12051545,1.6288096,0.75764734,0.0399992,0.04,0.03512843081541206,-0.020723078704106,-0.021701047516375915,-0.1073022062146102,-0.23906567616035168,-0.18756432265594974,0.9873247570234601,-0.057149529131581084,0.11231399682853606,-0.09648482577588859
611.1833333331061,0.01943808,-0.88107955,0.105453975,-2.2846773,-0.12257239,1.6297964,0.7571638,0.039999176,0.04,0.03495711636198884,-0.020790803367545796,-0.021780638202417713,-0.10779328551333506,-0.24059113980527766,-0.18874812150895565,0.9868883250366516,-0.05806928356532547,0.11424513202792572,-0.09811952925123575
611.1999999997728,0.019763347,-0.88271123,0.107232906,-2.2834678,-0.12464227,1.6307888,0.7566772,0.03999917,0.04,0.033826702281647414,-0.02065688217299938,-0.02277064029032605,-0.10826842229353664,-0.24209165392493823,-0.18990889570023348,0.9864417889861382,-0.058992607829011307,0.11618787552086665,-0.09976395514065778
611.2166666664394,0.020090587,-0.88435286,0.10902268,-2.282251,-0.12672475,1.6317874,0.7561876,0.039999146,0.04,0.03373632139367366,-0.020802214867216007,-0.022557818197577184,-0.10872761929358697,-0.24357220318311423,-0.19104991996708015,0.985985032793793,-0.059919335393141454,0.1181423463048992,-0.10141782073304628
611.2333333331061,0.02041977,-0.8860043,0.110823125,-2.2810268,-0.1288197,1.6327921,0.75569516,0.03999912,0.04,0.03310540996297462,-0.020786308113401875,-0.022977608436547392,-0.10917039669305548,-0.2450268750077821,-0.19216937506616355,0.9855179730099511,-0.060849290129617636,0.12010828378095954,-0.10308098239865306
611.2499999997727,0.020750862,-0.8876655,0.11263404,-2.279796,-0.13092686,1.6338027,0.7551999,0.039999112,0.04,0.032393444868095145,-0.02077807099841178,-0.02347142857233031,-0.10959779219225482,-0.2464572420105184,-0.19326477023117955,0.9850405442659186,-0.061782305766981314,0.12208536242075516,-0.10475322013671412
611.2666666664394,0.02108382,-0.8893361,0.11445522,-2.2785583,-0.13304593,1.6348189,0.7547017,0.03999909,0.04,0.031529177742628534,-0.020810949756802644,-0.02373205047898619,-0.1100087938494355,-0.24786271840327606,-0.19433838500845646,0.9845526819190855,-0.06271835104819892,0.1240732136576514,-0.10643431129289856
611.283333333106,0.021418609,-0.8910159,0.11628647,-2.2773132,-0.13517673,1.6358409,0.7542009,0.03999907,0.04,0.032506244457763955,-0.020923458329723255,-0.02387384412321225,-0.1104031138816117,-0.24924374188072373,-0.19538832964868635,0.9840542677069095,-0.06365708640430695,0.1260720624299747,-0.10812404280725564
611.2999999997727,0.021755189,-0.89270484,0.118127584,-2.2760623,-0.13731894,1.6368685,0.75369734,0.039999053,0.04,0.02982142792427034,-0.020774705852774633,-0.024484057095763845,-0.110781347352455,-0.25059685533911397,-0.19641660388931328,0.9835452980644186,-0.06459848589350468,0.12808109415159574,-0.1098221999259289
611.3166666664393,0.022093525,-0.89440274,0.11997831,-2.2748044,-0.13947241,1.6379013,0.75319123,0.039999027,0.04,0.03104883369768885,-0.020777210603156737,-0.024824771887344,-0.11114287532856758,-0.25192669938883083,-0.19742247795047196,0.9830256629134991,-0.06554228772966654,0.13010046166862238,-0.11152858129756925
611.333333333106,0.022433575,-0.8961092,0.12183844,-2.27354,-0.14163685,1.6389394,0.75268245,0.039999016,0.04,0.029726899275761554,-0.020766290399902576,-0.024957384544599392,-0.11148788525332756,-0.25322829921404044,-0.19840414083511348,0.9824953223711115,-0.06648844500633094,0.1321297076646043,-0.11324296248329145
611.3499999997726,0.022775307,-0.89782417,0.12370779,-2.2722692,-0.14381203,1.6399826,0.7521712,0.039998993,0.04,0.029467376584424443,-0.020780161843234057,-0.02532755433222178,-0.11181673964741204,-0.25450346867514595,-0.19936159897722833,0.981954209962813,-0.06743671426572216,0.13416869088574154,-0.11496513163284479
611.3666666664393,0.023118667,-0.8995474,0.12558614,-2.270992,-0.14599763,1.6410307,0.75165755,0.03999898,0.04,0.029062161011328413,-0.020779283999960985,-0.025719666563306376,-0.11212887781436687,-0.25575094180357827,-0.20029614146497676,0.9814022749605503,-0.06838694834718462,0.13621716500426573,-0.11669483260288968
611.383333333106,0.023463616,-0.9012787,0.1274732,-2.269709,-0.14819345,1.6420839,0.7511412,0.03999896,0.04,0.027564466701557322,-0.020583605971517815,-0.0257820511352147,-0.11242384051488008,-0.25696994665326756,-0.20120877026392744,0.9808394737877378,-0.06933914643654743,0.1382747217313313,-0.11843188236859016
611.3999999997726,0.023810122,-0.903018,0.12936887,-2.2684207,-0.15039921,1.6431417,0.7506227,0.039998937,0.04,0.026800926980508066,-0.020606900681978402,-0.026477872793706503,-0.11270147935608987,-0.25816202965759133,-0.20209451195142286,0.9802657923700342,-0.07029292356096101,0.1403410013810397,-0.12017605642460147
611.4166666664393,0.02415814,-0.9047647,0.13127285,-2.2671266,-0.15261471,1.6442043,0.7501018,0.03999892,0.04,0.026426991017913792,-0.02051613596148888,-0.0262521183133968,-0.11296342433593999,-0.25932765019125864,-0.20295677492708003,0.979681178972136,-0.07124826891863414,0.14241574421532935,-0.12192714030705959
611.4333333331059,0.024507632,-0.9065192,0.13318491,-2.265826,-0.15483963,1.6452713,0.74957883,0.039998896,0.04,0.027924453200567356,-0.020633875413114677,-0.02700559124224622,-0.11320795562018776,-0.26046777728705023,-0.20379597769557656,0.9790855135178335,-0.07220485489892381,0.1444993956824946,-0.12368484464937361
611.4499999997726,0.024858551,-0.9082808,0.13510492,-2.264521,-0.15707375,1.6463428,0.7490537,0.039998878,0.04,0.023688598832505292,-0.020348560745847566,-0.02697126580215592,-0.11343644926505456,-0.261571405311793,-0.20460904678080138,0.9784788977360207,-0.07316267056679956,0.14659061787685546,-0.12544903774568278
611.4666666664392,0.025210857,-0.9100495,0.13703255,-2.2632105,-0.15931672,1.6474185,0.7485264,0.03999886,0.04,0.024721246111392148,-0.02032713330297753,-0.027323842365301054,-0.11364806135819018,-0.2626517318031361,-0.20539740843705143,0.9778612444602365,-0.07412155462276208,0.14868962657387505,-0.12721940367846465
611.4833333331059,0.025564516,-0.91182506,0.13896757,-2.2618945,-0.16156837,1.6484983,0.74799705,0.039998837,0.04,0.025093598188563604,-0.020286650678837115,-0.027604117624302482,-0.11384203419706702,-0.26370292929255706,-0.20616265793154895,0.9772324948434765,-0.07508127496643364,0.15079639278957235,-0.12899574060046437
611.4999999997725,0.025919473,-0.913607,0.1409098,-2.2605739,-0.16382842,1.649582,0.7474658,0.03999881,0.04,0.02224165579511883,-0.020071266803889376,-0.027603676666432264,-0.11402011960889583,-0.2647227665094553,-0.20690126184284652,0.9765927251459057,-0.07604169558791929,0.1529099990484013,-0.13077783418923014
611.5166666664392,0.02627569,-0.91539556,0.14285897,-2.2592494,-0.16609655,1.6506697,0.7469326,0.039998796,0.04,0.021082511686820737,-0.01981579561391167,-0.02814906009185325,-0.11418124415678052,-0.26571610607693785,-0.20761626223051932,0.9759419248088705,-0.07700266251784493,0.15503016318890156,-0.13256544748592033
611.5333333331058,0.026633136,-0.9171903,0.14481482,-2.2579188,-0.16837254,1.651761,0.74639755,0.03999877,0.04,0.024651994137236954,-0.020183707782754634,-0.028264394569621487,-0.1143265448829977,-0.26668291694501867,-0.20830386319085475,0.975279918867584,-0.07796400750865472,0.15715769660187376,-0.13435829630366125
611.5499999997725,0.026991753,-0.918991,0.1467772,-2.2565844,-0.17065609,1.6528561,0.7458607,0.03999875,0.04,0.01996425437567062,-0.01973620348649785,-0.02835596787995609,-0.11445382360310803,-0.26761399809418235,-0.20896925391481397,0.9746068571421387,-0.07892561753086358,0.1592912681563969,-0.13615620734296974
611.5666666664391,0.027351502,-0.9207976,0.1487458,-2.2552452,-0.17294686,1.6539549,0.74532217,0.039998725,0.04,0.02139047988896081,-0.01981486894619411,-0.02858210009830664,-0.11456508903261779,-0.26851641635935664,-0.20960623000507322,0.9739226498706924,-0.07988727025065041,0.16143124990419344,-0.13795886225653622
611.5833333331058,0.027712345,-0.92260975,0.15072046,-2.253902,-0.17524473,1.6550567,0.74478203,0.039998703,0.04,0.019415929150845557,-0.01944989947459952,-0.029008877667391353,-0.11465888026802204,-0.2693860498257279,-0.21021892142573054,0.97322736893876,-0.08084880877788234,0.16357684277815512,-0.13976614387778846
611.5999999997724,0.028074233,-0.9244272,0.15270089,-2.2525554,-0.17754932,1.6561621,0.74424034,0.03999868,0.04,0.01787447908805362,-0.0193249495879122,-0.028721586359847784,-0.11473677724218556,-0.27022600959596005,-0.2108061260155285,0.9725210359425782,-0.0818101234157879,0.16572773571719787,-0.14157773825682768
611.6166666664391,0.028437125,-0.9262498,0.15468685,-2.2512043,-0.17986031,1.6572704,0.74369705,0.039998658,0.04,0.019280780221997418,-0.019382095623440843,-0.02932252277987324,-0.11479853561278736,-0.2710357109618621,-0.21136487426977124,0.9718036022807615,-0.0827710572166258,0.16788402852766654,-0.14339338773701985
611.6333333331057,0.028800972,-0.9280774,0.15667807,-2.24985,-0.1821775,1.6583816,0.7431523,0.039998636,0.04,0.01643358603997669,-0.018833545636481874,-0.02942076916150338,-0.11484301344555989,-0.27181443754528123,-0.2119002309725188,0.9710751731742457,-0.08373140103109027,0.1700449229801497,-0.1452128943815055
611.6499999997724,0.029165732,-0.92990965,0.15867437,-2.2484915,-0.18450065,1.6594956,0.74260616,0.039998606,0.04,0.018015936656912146,-0.01909554698255045,-0.029432144681229566,-0.11487109320921884,-0.2725635523468406,-0.21241042635516463,0.9703356513238769,-0.08469105431615669,0.17221078645480398,-0.1470360299970843
611.666666666439,0.029531369,-0.9317463,0.1606755,-2.247131,-0.18682934,1.6606125,0.74205875,0.039998587,0.04,0.013276225693203969,-0.018496080167562656,-0.029324235612548932,-0.11488348730070455,-0.27327636677785455,-0.21289086274132474,0.9695852534656981,-0.08564986310641386,0.17438029230813262,-0.14886252337724437
611.6833333331057,0.029897822,-0.93358713,0.1626812,-2.2457678,-0.1891634,1.6617318,0.7415101,0.039998557,0.04,0.01438220808807067,-0.018446462339491432,-0.029602550962315455,-0.11487912024597208,-0.2739654040081151,-0.21334808010764145,0.9688239356936656,-0.08660766312534905,0.17655357276039294,-0.15069217053497697
611.6999999997723,0.030265065,-0.93543214,0.16469125,-2.2444007,-0.19150247,1.6628537,0.7409602,0.039998546,0.04,0.015891781549903783,-0.018585837686230233,-0.029939043957782907,-0.1148604846054394,-0.2746247443011183,-0.21377399620714133,0.9680516157325119,-0.08756431107529063,0.17873104795235745,-0.15252466423970626
611.716666666439,0.030633043,-0.93728083,0.1667054,-2.2430303,-0.19384627,1.6639777,0.74040914,0.039998513,0.04,0.014146411220439248,-0.01826287530099502,-0.02989223478444547,-0.11482232859167818,-0.27524659963970566,-0.21417933154718694,0.967268405478429,-0.08851963764819543,0.180912037872412,-0.15435977476888404
611.7333333331056,0.031001711,-0.939133,0.16872336,-2.241659,-0.19619462,1.6651038,0.73985726,0.039998498,0.04,0.009376708463282313,-0.017421024620578596,-0.029718653314247945,-0.11476869936627285,-0.2758357121108158,-0.21455632817950004,0.9664745506161151,-0.0894734155854169,0.18309517296087638,-0.156197338496161
611.7499999997723,0.031371027,-0.9409887,0.17074488,-2.2402842,-0.19854718,1.666232,0.7393042,0.039998468,0.04,0.013640645202572799,-0.017861936551444302,-0.030217521057362973,-0.11470194462008003,-0.2764015922885239,-0.21490524281910284,0.9656698190041442,-0.09042563560166024,0.18528166291018594,-0.1580370541353373
611.7666666664389,0.03174095,-0.9428474,0.17276977,-2.2389061,-0.20090361,1.6673621,0.7387503,0.039998442,0.04,0.01258946348849932,-0.017796935493183397,-0.02994126220137172,-0.11461685810193974,-0.2769291941175166,-0.2152282521088984,0.9648543143863362,-0.09137605615806478,0.1874710533825034,-0.1598786180661005
611.7833333331056,0.03211142,-0.94470906,0.17479774,-2.2375274,-0.20326367,1.668494,0.7381955,0.039998416,0.04,0.007758799244683701,-0.016865763107959397,-0.03002421742945849,-0.11451602039891148,-0.2774216830851921,-0.21552541911676668,0.9640282759090335,-0.09232460314983217,0.1896620034608741,-0.1617219074346143
611.7999999997722,0.032482408,-0.9465734,0.1768286,-2.2361453,-0.20562705,1.6696275,0.7376399,0.03999839,0.04,0.011738643706671326,-0.017383844531196346,-0.030180222212949914,-0.11439986606029388,-0.2778862692864822,-0.21579399091433554,0.9631915422345925,-0.09327107633722485,0.19185550203721993,-0.163566578568756
611.8166666664389,0.032853864,-0.94844013,0.17886207,-2.2347622,-0.20799354,1.6707623,0.73708373,0.03999836,0.04,0.006816118404895377,-0.016465108823660035,-0.030144361216577487,-0.11426677809916819,-0.2783121857997897,-0.21603825883033995,0.9623444144303365,-0.0942152967960402,0.19405003030403215,-0.16541248926054866
611.8333333331055,0.033225726,-0.95030904,0.1808979,-2.233377,-0.21036273,1.6718986,0.7365268,0.039998345,0.04,0.008594891201951782,-0.016696668429774797,-0.02996886345745242,-0.11411973687081314,-0.2787104162569743,-0.21625365054734885,0.9614868042334531,-0.09515724700042186,0.1962461353108841,-0.16725931365333377
611.8499999997722,0.033597957,-0.9521801,0.18293583,-2.2319908,-0.21273439,1.673036,0.7359693,0.039998315,0.04,0.005991968009766424,-0.01602297999551139,-0.03021816087036555,-0.11395572174344032,-0.2790731934397336,-0.21644253077612685,0.9606189094879719,-0.09609667318345623,0.19844297472924993,-0.16910684763727954
611.8666666664388,0.03397052,-0.9540527,0.1849756,-2.2306037,-0.2151082,1.6741745,0.7354113,0.039998285,0.04,0.005204794868696183,-0.01587017529419421,-0.02967725372249319,-0.11377709434761644,-0.2794047063747374,-0.2166049537800639,0.9597408112140837,-0.09703352044219447,0.20064027163146916,-0.17095482619796668
611.8833333331055,0.034343377,-0.9559271,0.18701698,-2.2292154,-0.21748391,1.6753141,0.7348528,0.039998263,0.04,0.005535066067485772,-0.01570193137687137,-0.030229415980009833,-0.11358379774928645,-0.2797048686686861,-0.21673867938840213,0.9588525237294302,-0.0979676130467154,0.20283810181152323,-0.17280303523124185
611.8999999997721,0.034716472,-0.9578025,0.18905964,-2.227825,-0.2198612,1.6764541,0.73429406,0.03999824,0.04,0.005943085068871312,-0.015502169588110792,-0.029960016344210416,-0.11337516001558691,-0.2799699114760362,-0.21684435559956908,0.9579541482044756,-0.09889868784077913,0.20503629901051257,-0.1746511253020764
611.9166666664388,0.035089754,-0.9596792,0.19110352,-2.2264338,-0.22223978,1.6775948,0.7337349,0.03999821,0.04,0.0035826983140196944,-0.015204362084203504,-0.030043538305357664,-0.11315025361794441,-0.28019967219981656,-0.2169271946852057,0.9570457842778095,-0.09982680310946035,0.2072343625918521,-0.17649899472282107
611.9333333331055,0.035463188,-0.96155673,0.19314821,-2.2250423,-0.22461945,1.6787361,0.73317546,0.03999818,0.04,0.0019679872995226333,-0.01459010794977178,-0.029600028677334578,-0.1129105237857886,-0.28039428982661785,-0.21698076689050103,0.9561276011396491,-0.10075178596202651,0.20943173584036504,-0.1783463932556356
611.9499999997721,0.035836708,-0.9634348,0.19519347,-2.223651,-0.22699977,1.6798776,0.7326158,0.03999815,0.04,0.0007661962148741708,-0.014267803396500467,-0.029512103400075596,-0.11265574854015185,-0.2805570639338115,-0.21700749741515296,0.9551997672562316,-0.10167346791187204,0.21162794796726467,-0.180193013725781
611.9666666664388,0.036210287,-0.9653133,0.19723907,-2.2222595,-0.2293805,1.6810193,0.7320561,0.039998136,0.04,0.0003525561670603139,-0.014023553573358494,-0.029519406005196203,-0.1123883249897982,-0.280688286852223,-0.2170038220929283,0.9542623648020662,-0.10259172734895722,0.21382284754824066,-0.18203864004185316
611.9833333331054,0.036583867,-0.967192,0.19928476,-2.2208679,-0.23176137,1.6821611,0.73149645,0.039998103,0.04,0.00030568731665958637,-0.013804711156170657,-0.029370392733474304,-0.11210445951155298,-0.2807889244972668,-0.21697678736769804,0.953315469915521,-0.10350634772149327,0.2160164123252759,-0.18388300739117575
611.9999999997721,0.036957417,-0.9690704,0.20133026,-2.2194762,-0.23414207,1.6833028,0.73093677,0.039998077,0.04,-0.0009821243118768308,-0.013407009846586049,-0.02898380989053706,-0.11180780544150899,-0.28085395013954173,-0.2169215215974627,0.9523592448090584,-0.1044173344313416,0.2182081232943097,-0.18572588410167462
612.0166666664387,0.037330877,-0.9709486,0.20337543,-2.2180846,-0.23652229,1.6844443,0.73037726,0.03999804,0.04,-0.0011073430660424322,-0.013305504691230041,-0.029167768755478107,-0.11149588523703229,-0.28088613173478677,-0.21683983513517863,0.9513937509748673,-0.10532449209860761,0.22039801640330423,-0.18756704490829784
612.0333333331054,0.03770421,-0.97282624,0.20541991,-2.2166932,-0.23890176,1.6855856,0.7298181,0.039998017,0.04,-0.0021876993924418997,-0.012783990576686888,-0.028807105155692625,-0.11117000998450821,-0.28088291550506983,-0.2167312396712703,0.950419157932171,-0.10622762642227161,0.2225857194213469,-0.18940621196221302
612.049999999772,0.038077377,-0.97470313,0.20746343,-2.2153018,-0.24128026,1.6867263,0.7292592,0.039998002,0.04,-0.0024247994492299085,-0.012402111403078675,-0.02880048394411361,-0.11083084601178136,-0.28084516332822784,-0.2165942062340256,0.9494355796949538,-0.10712666305420235,0.2247710102195196,-0.1912431725240802
612.0666666664387,0.038450304,-0.97657907,0.20950581,-2.2139125,-0.2436574,1.6878662,0.7287006,0.03999797,0.04,-0.006845316107950694,-0.011617186545243019,-0.02822000962949822,-0.11047706659159648,-0.28076918604885787,-0.21643285838963314,0.9484433739360328,-0.10802155520065153,0.22695260778875323,-0.1930777663708371
612.0833333331053,0.038822982,-0.9784535,0.21154685,-2.2125242,-0.24603286,1.6890055,0.7281422,0.039997943,0.04,-0.00537656613230908,-0.011847737296882821,-0.027782073886828407,-0.11011172139692688,-0.28066875550843395,-0.21624200453692588,0.9474425294838806,-0.10891230485496235,0.22913090760160423,-0.1949096979578767
612.099999999772,0.039195355,-0.9803266,0.21358621,-2.2111366,-0.24840645,1.6901438,0.72758424,0.039997913,0.04,-0.0052260301050655045,-0.011306332077201664,-0.028113392463202658,-0.10973111719911618,-0.2805334565372832,-0.21602452411738685,0.9464331554421258,-0.10979863475159264,0.23130588633469018,-0.1967387329263631
612.1166666664386,0.039567348,-0.982198,0.21562362,-2.2097497,-0.25077784,1.6912811,0.7270268,0.039997887,0.04,-0.005840616489249939,-0.010946243077608608,-0.02780778969591058,-0.10933729591341987,-0.28036344121832546,-0.21577978545929152,0.9454154082130506,-0.11068039319645272,0.23347731311692582,-0.19856460091096437
612.1333333331053,0.039938934,-0.98406756,0.21765888,-2.208365,-0.25314668,1.6924168,0.72647,0.03999786,0.04,-0.009101688139168118,-0.01023452387411139,-0.027424339338644188,-0.10892999311657142,-0.2801579008328652,-0.21550890810003587,0.9443896212196007,-0.11155750791202998,0.23564415120201518,-0.20038712474966586
612.1499999997719,0.040310085,-0.9859349,0.21969172,-2.2069807,-0.25551268,1.6935514,0.7259138,0.03999783,0.04,-0.006443003319267504,-0.010526709132024914,-0.027183646563933017,-0.10851080022707055,-0.2799213704746043,-0.21521063697137777,0.9433557037951853,-0.11242988807426406,0.2378072364467397,-0.2022059709263393
612.1666666664386,0.040680725,-0.9877999,0.2217219,-2.2055998,-0.25787562,1.6946847,0.7253584,0.039997797,0.04,-0.012074331517419878,-0.009252225204081643,-0.02620587228299165,-0.10807719665184211,-0.2796461826541515,-0.21488696214107914,0.9423141295917055,-0.11329745468005148,0.2399649554483819,-0.20402104815803732
612.1833333331052,0.04105083,-0.98966235,0.22374916,-2.20422,-0.26023528,1.6958164,0.72480386,0.03999777,0.04,-0.008775574640162986,-0.009398156620882281,-0.026765705851095056,-0.10763249465000752,-0.279342606219223,-0.21453500569551737,0.9412648286201984,-0.11416000443864685,0.24211809581532515,-0.20583207589663377
612.1999999997719,0.041420363,-0.991522,0.22577327,-2.2028427,-0.26259124,1.6969463,0.72425,0.039997745,0.04,-0.01153643332183485,-0.008825727078989876,-0.026046139521973544,-0.10717464952012341,-0.2790017007163767,-0.21415680535620474,0.9402081000311582,-0.11501758732675482,0.24426583437722274,-0.20763883402998434
612.2166666664385,0.04178924,-0.99337846,0.22779396,-2.2014666,-0.2649433,1.6980741,0.7236973,0.039997723,0.04,-0.010169968303497257,-0.008635815523258539,-0.025918866489860193,-0.1067041838016321,-0.27862999844837755,-0.2137519586271255,0.9391440310916843,-0.11586986850036295,0.24640844351312433,-0.20944102130196338
612.2333333331052,0.042157464,-0.9952317,0.22981104,-2.2000935,-0.26729113,1.6992,0.72314537,0.03999769,0.04,-0.013733850503649947,-0.007940530623154474,-0.025166269261323038,-0.10622162611147123,-0.2782192159858295,-0.21332239708670564,0.938072916122412,-0.11671705450835979,0.24854499125929008,-0.21123853943919943
612.2499999997718,0.042524975,-0.99708134,0.23182419,-2.198724,-0.2696344,1.7003237,0.7225947,0.039997663,0.04,-0.015366003709837983,-0.007241904936278187,-0.024598972564504606,-0.10572748177208326,-0.27777744693780704,-0.2128632344574643,0.9369950696590733,-0.11755883031362308,0.2506749242177037,-0.21303108509869975
612.2666666664385,0.042891715,-0.99892735,0.23383327,-2.1973572,-0.27197275,1.7014451,0.72204506,0.039997634,0.04,-0.013979307517564266,-0.007368482358421913,-0.024694262295210656,-0.10522251729445835,-0.27730771607450383,-0.212379331116581,0.9359105048967272,-0.11839521383084747,0.2527986259366287,-0.21481842307040058
612.2833333331051,0.043257643,-1.0007694,0.2358379,-2.195992,-0.27430603,1.7025641,0.7214967,0.039997604,0.04,-0.012868268058729981,-0.007000214592040033,-0.0244751610866345,-0.10470487016923642,-0.2768018539447812,-0.21186895430725844,0.9348193142530286,-0.11922598667996884,0.25491632043737883,-0.21660028479748794
612.2999999997718,0.043622714,-1.0026071,0.23783793,-2.1946304,-0.27663398,1.7036806,0.7209496,0.039997574,0.04,-0.01683555143094928,-0.006130079120414411,-0.02337131638758816,-0.10417430687953291,-0.27625792348072853,-0.21133513766604783,0.9337218972739874,-0.12005118224607067,0.25702686303917066,-0.21837656437591788
612.3166666664384,0.04398689,-1.0044404,0.23983306,-2.1932719,-0.27895632,1.7047944,0.7204038,0.03999755,0.04,-0.01644102377600376,-0.00579343728960291,-0.023307992365162455,-0.10363383752560607,-0.2756817556712256,-0.21077329340613932,0.932618389945168,-0.12087066662280592,0.25913029503866614,-0.22014702105505526
612.3333333331051,0.044350125,-1.0062692,0.24182309,-2.1919172,-0.2812727,1.7059052,0.71985936,0.03999752,0.04,-0.018195222065031658,-0.005224286981395099,-0.0228236594328024,-0.10308221837664128,-0.27507283894438594,-0.21018507169310408,0.9315090749631812,-0.12168437060801728,0.2612260827962323,-0.22191144828040088
612.3499999997717,0.044712372,-1.0080931,0.24380778,-2.1905663,-0.28358293,1.7070131,0.7193163,0.03999749,0.04,-0.01865314877478319,-0.004836948730721491,-0.022116888081558095,-0.1025194264445675,-0.2744330934349216,-0.20957257713341343,0.9303941212890053,-0.12249226918669479,0.2633140900776131,-0.22366965155548646
612.3666666664384,0.04507359,-1.0099121,0.24578685,-2.189219,-0.28588656,1.7081181,0.718775,0.03999746,0.04,-0.01852952828773624,-0.004534596472766106,-0.02203329444174784,-0.10194672810220348,-0.27375859345067066,-0.20893139761053348,0.9292737061486377,-0.12329411026804829,0.26539438893037104,-0.22542129393262916
612.383333333105,0.045433737,-1.0117259,0.24776009,-2.1878755,-0.28818345,1.7092195,0.71823514,0.039997436,0.04,-0.019811273170766697,-0.0038643606909416484,-0.021545784319076944,-0.10136251599886924,-0.2730498272269217,-0.2082675919730776,0.9281481058701709,-0.12408992933743335,0.26746637135875495,-0.22716628975009834
612.3999999997717,0.04579277,-1.0135335,0.24972726,-2.1865363,-0.29047322,1.7103176,0.71769696,0.039997403,0.04,-0.021608465697164903,-0.0035657115693588093,-0.019800169707218096,-0.10076905709155551,-0.27231041892707175,-0.20757779503248322,0.9270176299143981,-0.12487975874271627,0.2695295277363034,-0.2289043323366736
612.4166666664383,0.046150632,-1.0153356,0.25168815,-2.1852005,-0.29275584,1.7114121,0.7171605,0.039997373,0.04,-0.019593097984049734,-0.003131948236057003,-0.020978676029748122,-0.10016544538773221,-0.27153901409371706,-0.20686132383771194,0.9258822697237687,-0.12566332036872832,0.2715844164879558,-0.23063533390607188
612.433333333105,0.046507288,-1.0171318,0.2536425,-2.1838703,-0.2950307,1.712503,0.71662587,0.03999734,0.04,-0.024359915275340427,-0.0022207534720153355,-0.01927330893660706,-0.09955158756743504,-0.27073197513037406,-0.20612059123726628,0.9247425514560487,-0.12644069207419034,0.27362976389291294,-0.23235902656506732
612.4499999997716,0.046862703,-1.018922,0.25559005,-2.1825442,-0.29729772,1.7135901,0.71609306,0.039997313,0.04,-0.021835033100003898,-0.0022053169761337976,-0.019410421543075707,-0.09892929673219009,-0.2698969114848325,-0.20535339532325428,0.92359846896172,-0.12721173094209187,0.27566619728803543,-0.23407518303963276
612.4666666664383,0.047216833,-1.0207056,0.25753054,-2.181223,-0.29955664,1.7146734,0.71556216,0.039997276,0.04,-0.023843953408109186,-0.001428726451147,-0.018330842050673368,-0.09829569388604391,-0.269026471996136,-0.20456394635526104,0.9224503760284,-0.127976396678276,0.27769303090034464,-0.23578364287559925
612.483333333105,0.04756962,-1.0224825,0.2594639,-2.1799066,-0.30180714,1.7157527,0.7150333,0.039997254,0.04,-0.024594354724793988,-0.0012639605848963065,-0.01780048032533621,-0.09765287128797427,-0.2681251516757769,-0.20374997698381206,0.9212984820617002,-0.1287346682798131,0.2797100957459955,-0.23748421941564812
612.4999999997716,0.047921047,-1.0242529,0.26138976,-2.1785953,-0.3040489,1.7168279,0.7145064,0.039997224,0.04,-0.024753410292310818,-0.000560010242578457,-0.017706148898666285,-0.0970017203830672,-0.26719183150426107,-0.20290924021543305,0.9201429973251384,-0.1294864384275449,0.2817173132470433,-0.23917667560556
612.5166666664383,0.04827106,-1.0260162,0.26330793,-2.1772892,-0.3062817,1.7178986,0.7139816,0.039997198,0.04,-0.02592826396985437,-7.316907479903989e-05,-0.0167873787215278,-0.09634135314796086,-0.26622597712137114,-0.20204483894019845,0.9189842267071578,-0.1302316322614764,0.2837142475756826,-0.2408608285805787
612.5333333331049,0.048619613,-1.0277722,0.26521805,-2.1759884,-0.30850542,1.7189648,0.713459,0.039997164,0.04,-0.02640637810613633,0.000675716964282369,-0.01601606432037883,-0.09567253181480895,-0.2652288525303901,-0.20115698466166237,0.9178224109214543,-0.13097017285564597,0.28570066577645903,-0.24253652386265342
612.5499999997716,0.048966676,-1.0295211,0.26712012,-2.1746933,-0.3107195,1.7200266,0.71293855,0.03999713,0.04,-0.027109824913340574,0.0006576540497182926,-0.015901286710962026,-0.09499577681190742,-0.2642009534314165,-0.20024454693467217,0.9166577288000076,-0.13170211496844836,0.28767655254444124,-0.24420352630581443
612.5666666664382,0.0493122,-1.0312622,0.2690138,-2.1734033,-0.31292385,1.7210838,0.7124204,0.039997105,0.04,-0.026847647636252248,0.0012093368935262028,-0.014888763918152748,-0.09431060204350719,-0.26314042457640696,-0.1993069647932143,0.9154904244498993,-0.1324273205437965,0.28964176641926187,-0.2458616168897936
612.5833333331049,0.049656156,-1.0329952,0.27089897,-2.1721194,-0.31511822,1.7221361,0.7119047,0.039997075,0.04,-0.029273147663078092,0.001824409795136983,-0.013891165317825305,-0.09361464535488992,-0.26204771307116337,-0.19835008632702492,0.914320858956966,-0.13314579850883743,0.2915956403348913,-0.2475106982603468
612.5999999997715,0.04999849,-1.0347205,0.27277514,-2.170842,-0.31730232,1.7231834,0.7113914,0.03999705,0.04,-0.02974936092230429,0.002907450725525562,-0.01377687315369247,-0.09291310160076072,-0.2609240358336132,-0.19736598017664778,0.9131493142406908,-0.13385737254285224,0.293537983081361,-0.24915052921117176
612.6166666664382,0.05033915,-1.0364376,0.2746425,-2.16957,-0.319476,1.7242255,0.71088046,0.039997023,0.04,-0.028680893622468062,0.00243897156800843,-0.013306483832997706,-0.09220495872954391,-0.2597724114029382,-0.1963592671782013,0.9119758413908625,-0.1345621581345962,0.295469038057696,-0.2507810556378777
612.6333333331048,0.050678127,-1.0381461,0.27650046,-2.1683047,-0.32163888,1.7252629,0.71037227,0.03999698,0.04,-0.03098690135563409,0.003531967256314994,-0.01167477363404057,-0.09148668909685119,-0.2585878972763389,-0.1953315478890239,0.9108008741526507,-0.13525999605535383,0.297388270186835,-0.2524018975070416
612.6499999997715,0.051015373,-1.039846,0.2783489,-2.1670456,-0.32379067,1.7262948,0.7098665,0.03999696,0.04,-0.030812954262904313,0.0039344765822346695,-0.011639156999199152,-0.09076348291743694,-0.2573735429269322,-0.1942793757852026,0.9096246397042086,-0.13595093084276766,0.29929548633849107,-0.2540129349135193
612.6666666664381,0.051350843,-1.0415369,0.28018767,-2.1657934,-0.32593137,1.7273213,0.7093635,0.03999693,0.04,-0.032125079999367756,0.004549551245486283,-0.010670666944445628,-0.09003131158352094,-0.256128971821311,-0.19320647287630338,0.9084473987992003,-0.13663486480335044,0.3011903884492412,-0.25561413740427574
612.6833333331048,0.051684503,-1.0432191,0.28201652,-2.1645477,-0.3280605,1.7283422,0.70886326,0.039996903,0.04,-0.031590841039896844,0.004847838127430837,-0.010572146799803228,-0.08929381974832698,-0.2548562287889816,-0.19210991764187613,0.9072693533007202,-0.13731172583984927,0.30307309205748967,-0.257205193141366
612.6999999997714,0.052016314,-1.0448916,0.28383523,-2.1633086,-0.3301778,1.7293577,0.70836574,0.039996877,0.04,-0.0327429014477687,0.005185953480096872,-0.008846111148597124,-0.08855081596413501,-0.25355167929784317,-0.1909904025250169,0.9060908131835533,-0.13798164370659197,0.3049432143225455,-0.2587858966462976
612.7166666664381,0.052346237,-1.0465552,0.2856436,-2.1620767,-0.3322831,1.7303673,0.70787096,0.039996844,0.04,-0.03330177465707962,0.006081856304274158,-0.009311100016806684,-0.08779883603582617,-0.25221710569874867,-0.18985081645451168,0.9049120225643359,-0.13864444114505028,0.3068005868392431,-0.2603561988376603
612.7333333331047,0.05267423,-1.048209,0.28744152,-2.1608517,-0.33437636,1.731371,0.707379,0.039996814,0.04,-0.03361417758700469,0.006308029898527412,-0.00786479926644379,-0.08704047311020456,-0.2508537081311901,-0.1886907138949949,0.9037332102610314,-0.13930019866754625,0.30864501473344125,-0.2619160060070147
612.7499999997714,0.05300026,-1.0498526,0.28922868,-2.1596344,-0.336457,1.7323691,0.70689,0.03999679,0.04,-0.03527372638898463,0.0068546331550845,-0.006497755987866505,-0.08627771516161012,-0.249461622087276,-0.18750543115225,0.902554773487848,-0.13994890965823512,0.3104760743085104,-0.26346497076793185
612.766666666438,0.05332429,-1.0514865,0.29100496,-2.1584241,-0.338525,1.7333606,0.70640385,0.039996754,0.04,-0.034547650351290926,0.007381292860031419,-0.00703622340032517,-0.0855056688272087,-0.24804384817098196,-0.18630438332853572,0.9013768649205222,-0.1405904690480591,0.31229382589409743,-0.2650030824487231
612.7833333331047,0.053646274,-1.0531105,0.29277015,-2.1572213,-0.34057993,1.734346,0.7059211,0.039996736,0.04,-0.03502918421047774,0.00771388010827323,-0.006191198760263639,-0.08473110251746328,-0.2465956261334242,-0.18507700445175088,0.9001997533537333,-0.14122468189880766,0.31409828811764395,-0.26653003336589304
612.7999999997713,0.053966187,-1.0547241,0.294524,-2.1560264,-0.34262168,1.7353251,0.70544124,0.039996702,0.04,-0.036363235821657014,0.008429195370246445,-0.004856151840249012,-0.0839504459818846,-0.2451177337638146,-0.1838326272265628,0.8990237490390299,-0.14185183055032907,0.3158889059419544,-0.26804580939854894
612.816666666438,0.054284003,-1.0563272,0.29626632,-2.154839,-0.34465015,1.7362977,0.7049645,0.039996672,0.04,-0.036115823276405834,0.008924652069763894,-0.004379896910355896,-0.08316364990207831,-0.2436134314349758,-0.1825676816657468,0.8978490686202634,-0.14247174069133853,0.3176657377954232,-0.2695502404246658
612.8333333331046,0.05459966,-1.0579196,0.2979969,-2.1536598,-0.34666488,1.7372638,0.70449114,0.03999665,0.04,-0.037347894945893856,0.009357515024494,-0.003350624312203898,-0.08237369853496053,-0.2420789455987734,-0.1812799483141347,0.8966760725865711,-0.14308438878280158,0.3194284290646166,-0.2710430911177879
612.8499999997713,0.05491315,-1.0595012,0.29971564,-2.152489,-0.34866583,1.7382232,0.7040208,0.03999662,0.04,-0.03789740383468576,0.009918381948947896,-0.0026081977152037084,-0.08157855401057519,-0.2405203187678229,-0.17997411253611262,0.8955049793781974,-0.1436899202343442,0.3211767401144574,-0.27252438485638714
612.8666666664379,0.05522443,-1.0610715,0.3014223,-2.1513264,-0.35065275,1.7391763,0.70355374,0.03999659,0.04,-0.0380323551512074,0.010164728041422988,-0.001491700091049708,-0.08077843195989039,-0.23893483113283648,-0.17864773345009008,0.8943360096997772,-0.14428831630610617,0.3229107187947585,-0.2739938890181339
612.8833333331046,0.055533454,-1.0626308,0.30311665,-2.150172,-0.35262546,1.7401223,0.70309013,0.039996564,0.04,-0.03792420290524845,0.010906947987676663,-0.001520701946366998,-0.07997260728203005,-0.2373238131683258,-0.17730262755042575,0.8931694518541009,-0.14487934706102756,0.3246302468699453,-0.2754514619437941
612.8999999997712,0.05584021,-1.0641782,0.30479857,-2.149026,-0.35458356,1.7410612,0.7026301,0.039996553,0.04,-0.039141007835663544,0.011169179114589589,3.193180879712543e-05,-0.07916382184484648,-0.23568403497879237,-0.17593764067588935,0.8920056926777493,-0.14546310715819596,0.32633487450123844,-0.27689687316875333
612.9166666664379,0.05614466,-1.065714,0.30646774,-2.1478882,-0.356527,1.7419931,0.70217335,0.039996516,0.04,-0.0388575630088539,0.011863414456603216,0.0004663043984942661,-0.07834999450715761,-0.23402203517179748,-0.1745567402328727,0.8908448771579874,-0.1460396590024945,0.3280246858696989,-0.27833007077908556
612.9333333331045,0.056446757,-1.0672385,0.30812418,-2.1467593,-0.3584556,1.7429178,0.7017202,0.039996486,0.04,-0.03944364809891354,0.012198962220277831,0.0007031961004488885,-0.07753328675921634,-0.23233428631675462,-0.17315625046943,0.8896872249239116,-0.14660889015599649,0.3296996291255286,-0.27975101374062084
612.9499999997712,0.056746494,-1.0687507,0.30976763,-2.1456394,-0.36036906,1.7438352,0.7012704,0.039996464,0.04,-0.04067648289716175,0.012746273780250839,0.0024825697493735532,-0.07671279998019834,-0.23061948711288055,-0.17173713449985017,0.8885331365217985,-0.1471709892168189,0.3313591609601527,-0.281159512880965
612.9666666664378,0.057043817,-1.0702505,0.311398,-2.1445284,-0.3622671,1.7447454,0.7008243,0.039996438,0.04,-0.040605777688274,0.012874959155656507,0.003345720460579127,-0.07588896232261706,-0.2288811744879075,-0.1702993677463554,0.8873828529442501,-0.14772589865832536,0.3330032979929076,-0.28255536571079387
612.9833333331045,0.057338703,-1.0717391,0.313015,-2.1434262,-0.3641497,1.745648,0.7003819,0.03999641,0.04,-0.03945285083308825,0.013698965494068904,0.002015425899570822,-0.07506031760888059,-0.2271229536693174,-0.1688461684874667,0.8862364009785876,-0.1482733796553192,0.3346325361912397,-0.283938571152861
612.9999999997711,0.057631116,-1.0732149,0.31461853,-2.1423335,-0.36601654,1.7465432,0.6999432,0.03999639,0.04,-0.04206939875861515,0.014157425928484901,0.005119532674791039,-0.07422980593479762,-0.22533323498971033,-0.1673744588965024,0.8850943480407547,-0.1488136655073116,0.3362458874803527,-0.2853089398829611
613.0166666664378,0.057921033,-1.0746777,0.31620833,-2.14125,-0.3678676,1.7474308,0.69950825,0.039996367,0.04,-0.04135642100937531,0.014493639367574307,0.005697822608330405,-0.0733967749654628,-0.22352283909753404,-0.1658861203539132,0.8839568493612422,-0.14934675550814625,0.337843498845525,-0.28666636596285566
613.0333333331045,0.05820843,-1.0761286,0.3177844,-2.1401758,-0.3697025,1.748311,0.69907707,0.03999634,0.04,-0.04117510744401365,0.014768294064110288,0.005061074094014906,-0.07255981154614873,-0.22169115857888455,-0.16438247129315356,0.8828239814164759,-0.1498726003877624,0.3394257071731187,-0.288010782435311
613.0499999997711,0.05849327,-1.0775657,0.31934643,-2.1391106,-0.3715212,1.7491835,0.6986497,0.03999631,0.04,-0.04173128910234247,0.01520097365461659,0.007694881170250412,-0.07172023524251162,-0.21983390475263256,-0.16286157464706136,0.881696211035652,-0.15039133403218724,0.3409918747883016,-0.2893419765981997
613.0666666664378,0.05877554,-1.0789908,0.32089442,-2.1380556,-0.37332344,1.7500478,0.6982261,0.039996285,0.04,-0.04276917151355697,0.016120288564264174,0.006322420670701323,-0.07087739461126505,-0.2179526815981574,-0.16132517741282276,0.8805737147702887,-0.15090278017202294,0.3425419908263439,-0.2906600562731891
613.0833333331044,0.059055198,-1.080402,0.32242802,-2.1370103,-0.37510902,1.7509041,0.6978064,0.039996255,0.04,-0.0434942630879398,0.01639923500226237,0.009509612113567378,-0.0700339247957019,-0.21605113561261235,-0.15977189450931925,0.8794569511849377,-0.1514071210781663,0.34407553580336525,-0.29196469026398103
613.0999999997711,0.059332207,-1.081801,0.32394722,-2.1359746,-0.37687784,1.7517524,0.6973906,0.039996233,0.04,-0.04142808365119599,0.016637334776758994,0.007363630663326237,-0.06918823273269123,-0.21413167445581716,-0.15820412042333126,0.8783457452390963,-0.1519041498122172,0.34559344100339584,-0.29325595411796246
613.1166666664377,0.05960657,-1.0831861,0.32545197,-2.1349487,-0.37862968,1.7525924,0.69697905,0.039996196,0.04,-0.043531761375614764,0.016831598648348045,0.010457219362036696,-0.06833865774072366,-0.21218540964454585,-0.1566237908966706,0.8772406812457224,-0.15239403833974405,0.3470947870434497,-0.29453361956372276
613.1333333331044,0.05987823,-1.0845578,0.3269419,-2.1339335,-0.38036445,1.7534244,0.69657147,0.03999618,0.04,-0.04447457852116976,0.01794779449804662,0.011078360557514877,-0.06749042719184263,-0.21021967247894482,-0.1550254681215041,0.8761420088600645,-0.15287680287493713,0.34857938132868244,-0.29579769837830233
613.149999999771,0.060147185,-1.0859158,0.328417,-2.1329277,-0.38208187,1.754248,0.696168,0.03999615,0.04,-0.04227948921204927,0.017612004321432284,0.010711748509595331,-0.06664006443997185,-0.20823734021016665,-0.15341520211102377,0.8750497649960225,-0.1533523895283368,0.3500477926201475,-0.29704796967513064
613.1666666664377,0.060413405,-1.08726,0.32987702,-2.1319318,-0.383782,1.7550634,0.6957686,0.039996125,0.04,-0.043415637579835575,0.01843919184256193,0.012132715678925265,-0.06578768836318992,-0.20623094883252874,-0.1517911736291133,0.8739642476463249,-0.15382087585599305,0.3514996588315667,-0.29828446461084884
613.1833333331043,0.06067686,-1.0885909,0.33132198,-2.1309466,-0.3854644,1.7558701,0.69537324,0.0399961,0.04,-0.044551409689796984,0.01886534134020179,0.012309043932523522,-0.0649324261813907,-0.20420500448077375,-0.15015605724046843,0.8728857792268815,-0.15428226802384595,0.35293468127867017,-0.2995071100118018
613.199999999771,0.06093752,-1.0899074,0.33275178,-2.1299722,-0.38712913,1.7566686,0.6949821,0.03999607,0.04,-0.04490237314369594,0.019019667383046723,0.014351904586762387,-0.06407873377811525,-0.20216090477612897,-0.14850506235786473,0.8718145967500427,-0.15473670679375562,0.3543527150565301,-0.30071583562601006
613.2166666664376,0.06119537,-1.0912095,0.33416614,-2.1290083,-0.38877577,1.7574582,0.6945951,0.039996047,0.04,-0.044919336327353676,0.019590520327461558,0.014752485480318267,-0.06322443464225012,-0.20009960812786984,-0.14684010671711153,0.8707510350881495,-0.1551841834611018,0.35575357209541486,-0.3019104172395841
613.2333333331043,0.06145039,-1.0924978,0.335565,-2.128054,-0.39040446,1.7582393,0.6942124,0.03999602,0.04,-0.04243664928660351,0.019568970919503492,0.013815992052812476,-0.06236883609026732,-0.19802290985866597,-0.14516444933593473,0.8696949404431968,-0.1556245257857593,0.3571381338298529,-0.3030908624587554
613.2499999997709,0.061702557,-1.0937717,0.33694822,-2.1271112,-0.392015,1.7590116,0.693834,0.03999599,0.04,-0.04653061969528416,0.020684820845262575,0.01669150469810754,-0.06151091069510413,-0.19592264798991507,-0.14347829914078292,0.8686469734340404,-0.1560579263977149,0.3585051320307709,-0.3042571765134331
613.2666666664376,0.06195185,-1.095031,0.33831573,-2.1261787,-0.3936073,1.759775,0.6934598,0.039995972,0.04,-0.044256084859206624,0.020488171122856613,0.01629840882935163,-0.06065541452697161,-0.1938096584757385,-0.1417794228059245,0.8676071268949211,-0.15648442270517013,0.35985509012230993,-0.30540925481202097
613.2833333331042,0.062198244,-1.0962757,0.33966738,-2.1252573,-0.39518115,1.76053,0.69309,0.039995942,0.04,-0.045132231063593764,0.020888987329331643,0.017659046443530002,-0.05979816419503957,-0.19168152732695107,-0.14007041281941734,0.8665756461635353,-0.1569040524708213,0.3611879071081467,-0.30654700056161366
613.2999999997709,0.06244173,-1.0975058,0.34100312,-2.1243463,-0.39673647,1.7612758,0.6927245,0.039995924,0.04,-0.04454440607331023,0.02125907873340438,0.017445923615044823,-0.05894169015244836,-0.1895346700892624,-0.13834844237737443,0.8655527270110931,-0.1573167785672681,0.3625035681869402,-0.30767039343526986
613.3166666664375,0.06268228,-1.0987214,0.34232274,-2.1234457,-0.39827302,1.7620127,0.6923635,0.039995912,0.04,-0.04420665260291834,0.021510696518661776,0.01809373456612695,-0.0580857911709106,-0.1873728260794235,-0.13661635223751836,0.8645385215231017,-0.15772257878117937,0.3638022938389466,-0.30877924791472744
613.3333333331042,0.0629199,-1.0999222,0.34362626,-2.122557,-0.39979067,1.7627404,0.69200695,0.039995883,0.04,-0.04659127523067852,0.022193683274063236,0.019655067299428897,-0.057228293649928895,-0.18519158741460762,-0.1348767446106229,0.8635334979335785,-0.15812158215475075,0.3650832655707609,-0.3098736394139815
613.3499999997708,0.06315454,-1.1011081,0.34491345,-2.1216788,-0.40128955,1.7634587,0.6916549,0.03999585,0.04,-0.04481891578587138,0.022502979329530604,0.019689375856424274,-0.05637261660351334,-0.1830011160182783,-0.1331274285953003,0.8625376896829914,-0.1585136779861357,0.36634691986374157,-0.3109535046819457
613.3666666664375,0.06338621,-1.102279,0.34618437,-2.1208124,-0.40276933,1.7641689,0.6913072,0.039995827,0.04,-0.04583769194130838,0.022242493168689315,0.02133379626216847,-0.05551920028902619,-0.18079463017768183,-0.13136847429418225,0.8615512072593722,-0.1588993126224319,0.3675932412197714,-0.31201880508645596
613.3833333331041,0.06361487,-1.1034344,0.34743884,-2.119957,-0.40423003,1.7648696,0.690964,0.03999581,0.04,-0.04544348732475889,0.0229900671406158,0.021527573717849968,-0.054664211929845746,-0.1785755859192309,-0.12960013057541953,0.8605744104327105,-0.15927822378431106,0.36882196122096184,-0.31306946906019284
613.3999999997708,0.06384051,-1.1045749,0.34867677,-2.1191127,-0.4056714,1.7655606,0.6906253,0.039995782,0.04,-0.045596530586822226,0.023393480203171002,0.021622961850042977,-0.05381023412118848,-0.17634456885274535,-0.12782417645701138,0.8596075078927939,-0.1596503906779329,0.3700330642377564,-0.31410542259174695
613.4166666664374,0.064063124,-1.1057004,0.34989813,-2.11828,-0.40709355,1.7662427,0.6902911,0.039995763,0.04,-0.04531580992610529,0.023449558617383293,0.02247376946979962,-0.052958980225920695,-0.17410144817964868,-0.12603991088898903,0.8586505001755234,-0.16001598406005968,0.3712267894910648,-0.31512675887295105
613.4333333331041,0.064282686,-1.1068102,0.35110277,-2.117458,-0.4084962,1.7669152,0.6899615,0.039995737,0.04,-0.04537649044031866,0.023797083891941018,0.02330918898376666,-0.05210784317917629,-0.17184625836757583,-0.12424813933488316,0.8577037697991305,-0.16037496343410776,0.3724028447189433,-0.31613325611378995
613.4499999997707,0.06449918,-1.1079049,0.35229075,-2.1166484,-0.40987933,1.7675785,0.68963635,0.03999572,0.04,-0.04650658796507834,0.02413329344084225,0.024102803679526552,-0.051258980686317956,-0.16957951393932827,-0.12245000291084546,0.8567674357520437,-0.16072750797799776,0.3735611202712034,-0.31712508358023944
613.4666666664374,0.06471262,-1.1089839,0.35346204,-2.1158495,-0.41124296,1.7682323,0.68931603,0.0399957,0.04,-0.04458097285890972,0.023848956819194633,0.024268913018810068,-0.05041329328239215,-0.16730445783439968,-0.1206427895143937,0.8558415651703402,-0.1610735127723103,0.3747020253507153,-0.31810207639693655
613.483333333104,0.06492299,-1.1100473,0.3546162,-2.115063,-0.41258696,1.7688769,0.6890002,0.03999568,0.04,-0.04682016227439689,0.025283834883260692,0.025823447915318543,-0.04956620006658351,-0.16501866698688386,-0.1188324593331904,0.8549265663583984,-0.16141310903814965,0.37582491731893775,-0.31906426607737065
613.4999999997707,0.06513025,-1.1110955,0.35575342,-2.1142867,-0.4139112,1.769512,0.6886891,0.039995655,0.04,-0.04308012201370559,0.02431395367911149,0.024173154427153953,-0.048723358446676183,-0.16272635277618433,-0.11701511362591158,0.8540221908104432,-0.16174612859116994,0.37693093510686454,-0.32001149611938084
613.5166666664373,0.06533441,-1.112128,0.35687363,-2.113523,-0.4152157,1.7701374,0.68838257,0.039995644,0.04,-0.04741711651083946,0.025630379472085796,0.027108963557254118,-0.047880376603992886,-0.16041759729859173,-0.11519425561145778,0.8531290976923889,-0.1620728656450818,0.378018624248292,-0.3209439960703271
613.533333333104,0.06553545,-1.1131446,0.3579769,-2.1127696,-0.41650027,1.7707534,0.6880808,0.039995622,0.04,-0.04329391202579913,0.024454875152402078,0.02592832520816879,-0.047041618622786496,-0.1581078265837751,-0.11336808291728573,0.8522469921976005,-0.16239326336592932,0.3790892736564136,-0.32186148403025794
613.5499999997706,0.06573336,-1.1141456,0.359063,-2.1120288,-0.41776484,1.7713599,0.68778366,0.0399956,0.04,-0.04679306811308237,0.025936203567433758,0.02796080843598947,-0.04620366853123005,-0.15578441472606894,-0.11153774337584393,0.8513763911481061,-0.16270743428096343,0.3801419044642871,-0.32276409945283224
613.5666666664373,0.065928124,-1.1151309,0.36013198,-2.1112998,-0.4190096,1.7719569,0.6874912,0.039995577,0.04,-0.045164336952741024,0.025711593111998887,0.027758537420152773,-0.04536745916631483,-0.15345830643023484,-0.1097054524596386,0.8505172496956409,-0.16301539234307966,0.3811769025895315,-0.32365190986868203
613.583333333104,0.066119775,-1.1161002,0.36118385,-2.110582,-0.4202343,1.7725441,0.68720347,0.039995562,0.04,-0.04503137134301838,0.025693247969793553,0.028274524149596303,-0.04453696132608223,-0.1511240765525434,-0.10786596826003199,0.849669773640157,-0.1633171797457251,0.38219424228694016,-0.32452478445397415
613.5999999997706,0.066308275,-1.1170539,0.3622184,-2.109877,-0.42143908,1.773122,0.6869204,0.039995547,0.04,-0.04617302794027722,0.026598076375294877,0.0292692425642338,-0.04370758779832352,-0.1487861464510439,-0.10602550635393793,0.8488341424317146,-0.16361285486791816,0.3831936985679546,-0.3253828848326179
613.6166666664373,0.066493645,-1.1179917,0.3632358,-2.109183,-0.4226237,1.77369,0.6866421,0.03999553,0.04,-0.04382237553675061,0.025831249540764212,0.028556242473265492,-0.042881713061328784,-0.1464457434314662,-0.10418264744885829,0.8480103204447065,-0.16390241314446322,0.3841758558340865,-0.3262260062883322
613.6333333331039,0.06667586,-1.1189134,0.36423585,-2.1085012,-0.42378825,1.7742484,0.68636847,0.03999551,0.04,-0.04561576285300184,0.026712430102232565,0.03036319301655821,-0.04205890323607151,-0.14409780397899985,-0.10233768427668831,0.8471986388059175,-0.1641859988603789,0.38514013162199723,-0.32705428172982326
613.6499999997706,0.06685494,-1.1198195,0.3652187,-2.1078305,-0.42493254,1.7747972,0.6860995,0.0399955,0.04,-0.04354928652814394,0.026080439684034173,0.029247664535070328,-0.041239570598524046,-0.1417481602978188,-0.10049068430511693,0.8463989345108824,-0.16446361037426332,0.3860872828540525,-0.3278676174004991
613.6666666664372,0.06703085,-1.1207098,0.3661843,-2.1071715,-0.4260567,1.7753363,0.6858353,0.039995484,0.04,-0.044413684303101775,0.026681455036320356,0.030350002799039988,-0.04042168068720944,-0.139393385109551,-0.09864408702482569,0.845611472316604,-0.16473527959020196,0.38701692201491994,-0.328666133970296
613.6833333331039,0.06720359,-1.1215836,0.36713243,-2.1065247,-0.42716065,1.7758657,0.6855759,0.03999546,0.04,-0.045406742113485166,0.02714626540781251,0.03210588374338297,-0.03960867619040856,-0.13703345088539834,-0.09679528628171526,0.84483658404048,-0.16500110483123245,0.38792868586185497,-0.32944971749385343
613.6999999997705,0.067373164,-1.1224419,0.36806324,-2.1058893,-0.4282446,1.7763854,0.6853214,0.039995436,0.04,-0.04324253752754359,0.02695597487333279,0.030408478704857522,-0.03880034647814449,-0.13467614768338898,-0.09494718938782601,0.8440740096824446,-0.16526092766022088,0.38882336955742774,-0.3302185325712222
613.7166666664372,0.06753961,-1.1232841,0.36897683,-2.1052668,-0.42930833,1.7768955,0.68507147,0.03999542,0.04,-0.046001274038776074,0.027259066206763993,0.03282460773840201,-0.03799491809017641,-0.13231471979806048,-0.09310129739445636,0.8433241831422481,-0.1655151857724062,0.38970006159262915,-0.3309726686614573
613.7333333331038,0.06770288,-1.1241103,0.369873,-2.1046548,-0.4303519,1.777396,0.68482643,0.039995413,0.04,-0.041747922993007336,0.026894516140929525,0.031098686895458805,-0.037194358724669155,-0.12995924752188756,-0.09125479404182751,0.8425868302198223,-0.1657635475418115,0.3905599894868399,-0.3317118847109724
613.7499999997705,0.06786297,-1.124921,0.37075198,-2.1040552,-0.43137538,1.7778867,0.6845858,0.0399954,0.04,-0.044481271206375794,0.027324670559913944,0.03242453900565989,-0.036396750016692535,-0.12759832903291068,-0.08941149249364747,0.8418622036390511,-0.16600639686738608,0.39140239630139007,-0.332436566058306
613.7666666664371,0.068019934,-1.1257154,0.37161365,-2.1034675,-0.43237865,1.7783678,0.68435013,0.03999538,0.04,-0.04407076220438455,0.02740921689914355,0.033270986705691286,-0.03560136833195521,-0.1252406267140901,-0.08756998538036534,0.8411505297529848,-0.16624359987936083,0.3922273319077637,-0.3331464721409201
613.7833333331038,0.06817372,-1.1264939,0.37245804,-2.1028912,-0.43336174,1.7788391,0.6841191,0.03999537,0.04,-0.042767819944300456,0.027306290470313632,0.03270415015679262,-0.03481427588258999,-0.12288481466335555,-0.08572864601455961,0.8404516913598392,-0.16647524412042952,0.39303520317934026,-0.33384169399163405
613.7999999997704,0.06832438,-1.1272566,0.3732851,-2.102327,-0.43432486,1.7793014,0.6838929,0.03999535,0.04,-0.04330738303051085,0.027509415048221353,0.03375572347431577,-0.034029360374736445,-0.12053270456452377,-0.08389321745405963,0.8397657524394925,-0.16670141411928607,0.3938260133680011,-0.33452233222167754
613.8166666664371,0.06847189,-1.128004,0.37409514,-2.1017742,-0.43526784,1.7797536,0.6836713,0.03999534,0.04,-0.042035943275831045,0.027273848728620598,0.03223961334297698,-0.03324917566379729,-0.11818104767904113,-0.08205989787891806,0.8390927286935217,-0.16692206615745664,0.394599947294537,-0.33518845158885496
613.8333333331037,0.068616256,-1.1287348,0.37488788,-2.1012335,-0.43619084,1.7801961,0.6834544,0.039995316,0.04,-0.043828620231112225,0.027888496146832864,0.035169873675855445,-0.032473008770603634,-0.11583275762308773,-0.08023199610469484,0.8384329913311324,-0.16713740738330973,0.39535636818567044,-0.3358400634762795
613.8499999997704,0.06875749,-1.1294498,0.3756634,-2.100704,-0.43709385,1.7806292,0.6832421,0.039995305,0.04,-0.04153893450729029,0.027426887623327456,0.03378823689247357,-0.03170312318742413,-0.11349355541120168,-0.07840768370185601,0.837786275056189,-0.16734743756527923,0.3960960908794423,-0.3364771600834673
613.866666666437,0.068895616,-1.1301496,0.3764218,-2.100186,-0.4379769,1.7810526,0.6830346,0.039995298,0.04,-0.04186255022671226,0.02766883905721551,0.03348729936237804,-0.030937558842821754,-0.11115706367070763,-0.07658896220515128,0.8371526680727185,-0.16755203217742515,0.3968191313944476,-0.3370998424967003
613.8833333331037,0.06903062,-1.1308337,0.37716317,-2.0996807,-0.43884015,1.7814667,0.6828317,0.03999529,0.04,-0.04287855809335106,0.027814147993299176,0.03500416820620966,-0.030176514422338666,-0.1088257594688821,-0.07477838929186569,0.836532298845756,-0.16775148592111674,0.3975251581763056,-0.33770830693957676
613.8999999997703,0.06916252,-1.1315019,0.37788752,-2.0991862,-0.43968362,1.7818712,0.6826336,0.03999528,0.04,-0.04091995534576398,0.027424969879363825,0.034514271695551546,-0.029423206892276864,-0.10650339707080485,-0.07297086044930212,0.8359251443091861,-0.16794570985853685,0.3982145925383446,-0.33830242378868486
613.916666666437,0.069291316,-1.1321545,0.37859496,-2.098704,-0.4405074,1.7822664,0.6824399,0.039995268,0.04,-0.04258077107470726,0.027763281645865057,0.035517681590424566,-0.028674268335871965,-0.10418710285373667,-0.07117221052083211,0.8353313102006246,-0.16813497153018805,0.3988870712167234,-0.3388824840017484
613.9333333331036,0.069417045,-1.1327915,0.37928554,-2.0982325,-0.4413115,1.7826521,0.6822513,0.03999525,0.04,-0.03935596263402452,0.027094413143780027,0.033908526664117034,-0.027929988788190904,-0.10188546443528458,-0.06938080581205106,0.8347505793188883,-0.16831895993102117,0.3995435978515828,-0.339448245643327
