rsonawane2002/My_IMU/logs_2/traj_306/imu_306.csv
time,j1,j2,j3,j4,j5,j6,j7,gripper1,gripper2,imu_ax,imu_ay,imu_az,imu_gx,imu_gy,imu_gz
608.7833333331083,0.00016700293,-0.785875,4.0107683e-05,-2.3551247,9.29385e-05,1.570997,0.786,0.04,0.04,-9.503744,-0.04725748300552368,0.093447685,-7.0228515e-07,-0.0011641265591606498,1.3890278e-06
608.799999999775,0.0001670066,-0.78576016,4.0121267e-05,-2.3552213,9.296613e-05,1.5709941,0.786,0.04,0.04,-9.834416,0.0006367149180732667,0.00908219,-7.158141e-07,-0.002239079214632511,2.6577985e-07
608.8166666664416,0.00016701614,-0.7856543,4.0180264e-05,-2.35531,9.293671e-05,1.5709913,0.786,0.04,0.04,-9.832571,0.0006876601255498827,0.0075492146,-3.720267e-06,-0.0032340579200536013,-4.301492e-06
608.8333333331083,0.00016704343,-0.78555703,4.0360395e-05,-2.355391,9.2761395e-05,1.5709884,0.786,0.04,0.04,-9.830969,0.0007742438465356827,0.0061587254,-1.2327229e-05,-0.004162238445132971,-1.7110653e-05
608.8499999997749,0.00016710677,-0.7854677,4.0770417e-05,-2.3554652,9.231331e-05,1.5709856,0.786,0.04,0.04,-9.829468,0.0008966734167188406,0.004871661,-2.824194e-05,-0.005028316285461187,-4.1706455e-05
608.8666666664416,0.00016723019,-0.7853859,4.1548607e-05,-2.355532,9.143142e-05,1.5709827,0.786,0.04,0.04,-9.828286,0.0010513982269912958,0.0036805244,-5.3823584e-05,-0.005847272463142872,-8.1282655e-05
608.8833333331082,0.00016744291,-0.7853113,4.286006e-05,-2.3555932,8.992358e-05,1.5709832,0.786,0.04,0.04,-9.827091,0.001227308064699173,0.0025702273,-9.099016e-05,-0.006620422471314669,-0.00013869788
608.8999999997749,0.00016777856,-0.7852431,4.4893626e-05,-2.3556507,8.7570734e-05,1.5709838,0.786,0.04,0.04,-9.82623,0.001422086264938116,0.0014891536,-0.00014179609,-0.007349533494561911,-0.00021650615
608.9166666664415,0.00016827513,-0.7851817,4.7859336e-05,-2.3557012,8.41354e-05,1.5709846,0.78599995,0.04,0.039999995,-9.825774,0.0016299542039632797,0.0005376721,-0.00020760793,-0.008063477464020252,-0.00031624315
608.9333333331082,0.00016897418,-0.78512645,5.1986477e-05,-2.3557463,7.93344e-05,1.5709854,0.78599805,0.04,0.04,-9.824974,0.0018318085931241512,-0.00028638588,-0.00028994653,-0.008750843815505505,-0.00044228393
608.9499999997748,0.00016992044,-0.7850771,5.7520803e-05,-2.3557882,7.2889365e-05,1.5709864,0.78599614,0.04,0.04,-9.824496,0.002042518462985754,-0.001046249,-0.0003817131,-0.009426794946193695,-0.00059405854
608.9666666664415,0.00017116137,-0.7850335,6.472287e-05,-2.3558238,6.449639e-05,1.5709907,0.78599423,0.04,0.04,-9.824454,0.0022413828410208225,-0.0017434307,-0.0004927128,-0.010108014568686485,-0.0007739416
608.9833333331081,0.00017274727,-0.7849958,7.386646e-05,-2.3558562,5.3838725e-05,1.5709953,0.7859923,0.04,0.04,-9.823891,0.002416674280539155,-0.0024134966,-0.00062443,-0.010767380706965923,-0.0009833507
608.9999999997748,0.00017473023,-0.78496385,8.5236374e-05,-2.3558834,4.0583072e-05,1.5710001,0.7859885,0.04,0.04,-9.824036,0.0025795192923396826,-0.0029341383,-0.0007779746,-0.01143923494964838,-0.0012234804
609.0166666664414,0.00017716439,-0.7849375,9.912738e-05,-2.3559058,2.4396684e-05,1.5710082,0.7859847,0.04,0.039999995,-9.823928,0.002716628136113286,-0.0033513135,-0.0009450695,-0.012118701823055744,-0.0014946443
609.0333333331081,0.00018010536,-0.7849169,0.0001158425,-2.3559248,4.925298e-06,1.5710168,0.78598046,0.04,0.03999999,-9.823854,0.0028096691239625216,-0.0037692538,-0.0011360048,-0.012796242721378803,-0.0017985262
609.0499999997747,0.00018361048,-0.784902,0.00013569191,-2.3559375,-1.8209974e-05,1.5710267,0.78597474,0.04,0.039999995,-9.824162,0.0028473790735006332,-0.004001916,-0.0013492012,-0.013497482985258102,-0.0021374095
609.0666666664414,0.00018773798,-0.78489286,0.00015899191,-2.3559475,-4.5382487e-05,1.5710391,0.78596884,0.04,0.04,-9.824104,0.002843754831701517,-0.004153008,-0.0015808367,-0.014208115637302399,-0.00251107
609.083333333108,0.0001925465,-0.78488976,0.00018606285,-2.3559518,-7.694221e-05,1.5710541,0.7859612,0.04,0.04,-9.824517,0.0027972927782684565,-0.0042324625,-0.0018374434,-0.014941247180104256,-0.0029169885
609.0999999997747,0.00019809614,-0.7848927,0.0002172295,-2.3559518,-0.00011326684,1.5710703,0.7859525,0.04,0.039999995,-9.824628,0.002673888811841607,-0.004194195,-0.0021126287,-0.015686526894569397,-0.0033579187
609.1166666664413,0.00020444737,-0.7849017,0.00025281947,-2.355948,-0.00015474588,1.5710902,0.785943,0.04,0.039999995,-9.825003,0.0024680746719241142,-0.0039990796,-0.0024100651,-0.016460198909044266,-0.0038349577
609.133333333108,0.00021166097,-0.7849169,0.00029316236,-2.3559382,-0.00020176251,1.5711124,0.7859315,0.04,0.039999995,-9.825455,0.002189681399613619,-0.0037588365,-0.0027312273,-0.017256755381822586,-0.0043475195
609.1499999997746,0.0002197979,-0.7849386,0.000338589,-2.355924,-0.00025471035,1.5711364,0.7859189,0.04,0.04,-9.825694,0.0018241917714476585,-0.0033564032,-0.003071769,-0.01807503215968609,-0.0048965015
609.1666666664413,0.00022891925,-0.7849668,0.00038943058,-2.3559048,-0.0003139581,1.571164,0.7859051,0.04,0.039999995,-9.826155,0.0013729273341596127,-0.0027978928,-0.0034352436,-0.018924655392766,-0.005479638
609.183333333108,0.00023908618,-0.7850018,0.00044601862,-2.3558803,-0.0003798991,1.5711955,0.7858898,0.04,0.039999995,-9.826646,0.0008148122578859329,-0.0021571496,-0.0038227492,-0.01980198360979557,-0.006099289
609.1999999997746,0.00025035985,-0.78504366,0.000508684,-2.3558507,-0.0004529429,1.5712308,0.78587264,0.04,0.04,-9.827044,0.00013706320896744728,-0.0013710936,-0.004232019,-0.020703135058283806,-0.0067569013
609.2166666664413,0.00026280055,-0.78509265,0.0005777559,-2.3558161,-0.0005334134,1.5712694,0.78585356,0.04,0.039999995,-9.827551,-0.0006066914647817612,-0.0004266519,-0.0046626944,-0.02163327857851982,-0.0074445074
609.2333333331079,0.0002764694,-0.7851489,0.00065356283,-2.355775,-0.0006217454,1.5713117,0.78583264,0.04,0.04,-9.828047,-0.001558074727654457,0.00070392014,-0.005114124,-0.022596441209316254,-0.008172224
609.2499999997746,0.0002914262,-0.78521276,0.00073642994,-2.3557286,-0.000718296,1.5713578,0.7858099,0.04,0.04,-9.828525,-0.002548293210566044,0.0019406904,-0.005587519,-0.02358700893819332,-0.008933432
609.2666666664412,0.00030773063,-0.7852843,0.00082668103,-2.3556764,-0.00082345057,1.5714079,0.7857851,0.039999995,0.04,-9.829054,-0.0037054894492030144,0.0033835657,-0.0060824687,-0.024609584361314774,-0.009730255
609.2833333331079,0.00032544165,-0.7853638,0.0009246361,-2.3556185,-0.0009375834,1.5714624,0.7857581,0.03999999,0.04,-9.82964,-0.005001191049814224,0.004971071,-0.0065987697,-0.0256660059094429,-0.010561552
609.2999999997745,0.00034461785,-0.7854513,0.0010306122,-2.3555543,-0.0010610598,1.5715212,0.78572893,0.039999988,0.04,-9.830236,-0.006445589475333691,0.006745496,-0.007135415,-0.026756172999739647,-0.011427001
609.3166666664412,0.00036531698,-0.7855474,0.001144923,-2.3554838,-0.0011942509,1.5715849,0.7856976,0.03999998,0.039999995,-9.830767,-0.008045986294746399,0.008676434,-0.0076930085,-0.02787797525525093,-0.01232713
609.3333333331078,0.00038759632,-0.785652,0.0012678786,-2.3554065,-0.0013375045,1.5716532,0.785664,0.039999977,0.039999995,-9.831287,-0.009786846116185188,0.010829269,-0.008271338,-0.029029395431280136,-0.01325881
609.3499999997745,0.0004115119,-0.7857656,0.001399784,-2.3553226,-0.001491179,1.5717264,0.7856279,0.03999997,0.039999988,-9.831856,-0.011706502176821232,0.013152576,-0.008870675,-0.0302145816385746,-0.014223528
609.3666666664411,0.00043711928,-0.7858882,0.0015409408,-2.3552322,-0.0016556237,1.5718054,0.7855891,0.039999966,0.039999984,-9.832378,-0.013792520388960838,0.0157121,-0.009488871,-0.03143095597624779,-0.015220649
609.3833333331078,0.00046447333,-0.78602016,0.0016916458,-2.3551347,-0.001831184,1.5718893,0.7855479,0.03999996,0.03999998,-9.832986,-0.016055285930633545,0.018427443,-0.010126209,-0.032679200172424316,-0.01624977
609.3999999997744,0.0004936278,-0.7861616,0.0018521916,-2.3550303,-0.0020181998,1.5719789,0.7855039,0.039999958,0.039999977,-9.833526,-0.018500063568353653,0.021392468,-0.01078348,-0.03395954892039299,-0.017310333
609.4166666664411,0.00052463537,-0.78631264,0.0020228652,-2.354919,-0.0022170055,1.572074,0.78545713,0.039999954,0.039999973,-9.834089,-0.021135352551937103,0.024549946,-0.011458746,-0.03527117893099785,-0.018401857
609.4333333331077,0.0005575483,-0.78647363,0.0022039493,-2.3548,-0.002427929,1.572175,0.7854076,0.03999995,0.03999997,-9.834699,-0.023963090032339096,0.027931832,-0.012152265,-0.03661729022860527,-0.019523798
609.4499999997744,0.0005924176,-0.786645,0.002395721,-2.3546736,-0.0026512935,1.5722818,0.78535503,0.03999995,0.039999973,-9.835238,-0.026992494240403175,0.03154545,-0.012864311,-0.03799492120742798,-0.020676423
609.466666666441,0.0006292936,-0.78682655,0.0025984508,-2.3545392,-0.0028874162,1.5723948,0.78529954,0.03999995,0.039999977,-9.83577,-0.03023456037044525,0.03540825,-0.013593365,-0.03940291702747345,-0.021859301
609.4833333331077,0.0006682249,-0.7870188,0.0028124065,-2.354397,-0.0031366055,1.5725142,0.7852409,0.03999995,0.039999988,-9.836174,-0.0337226465344429,0.039501905,-0.014339833,-0.040840502828359604,-0.023071645
609.4999999997743,0.0007092593,-0.7872219,0.0030378485,-2.3542464,-0.0033991567,1.5726398,0.7851792,0.03999995,0.04,-9.836808,-0.037326812744140625,0.043809477,-0.015102733,-0.042308561503887177,-0.02431121
609.516666666441,0.00075244426,-0.787436,0.0032750333,-2.3540874,-0.0036753595,1.5727721,0.7851143,0.039999947,0.039999995,-9.837212,-0.04119216278195381,0.0483991,-0.015882289,-0.04380305856466293,-0.025576683
609.5333333331076,0.00079782563,-0.78766143,0.0035242091,-2.35392,-0.003965509,1.5729114,0.78504604,0.039999947,0.039999995,-9.837736,-0.04528838023543358,0.05323136,-0.016677883,-0.04532710090279579,-0.026869146
609.5499999997743,0.00084544823,-0.7878982,0.0037856218,-2.3537443,-0.004269889,1.5730575,0.7849745,0.039999947,0.039999995,-9.838178,-0.049620121717453,0.058333114,-0.01748837,-0.04687763750553131,-0.028187944
609.5666666664409,0.0008953561,-0.7881466,0.004059511,-2.3535597,-0.0045887846,1.5732104,0.78489953,0.03999995,0.04,-9.838687,-0.054182205349206924,0.06368109,-0.018314201,-0.04845774173736572,-0.029532438
609.5833333331076,0.0009475918,-0.78840685,0.004346105,-2.3533669,-0.004922465,1.5733702,0.7848211,0.03999995,0.04,-9.839091,-0.058985352516174316,0.06931753,-0.019154485,-0.050065070390701294,-0.030901985
609.5999999997742,0.0010021969,-0.7886793,0.004645633,-2.3531656,-0.0052711875,1.5735373,0.78473914,0.039999947,0.039999995,-9.839602,-0.06402888149023056,0.0752268,-0.020008886,-0.05170245096087456,-0.032296035
609.6166666664409,0.0010592123,-0.78896385,0.004958316,-2.3529546,-0.0056352215,1.5737118,0.7846536,0.039999947,0.039999995,-9.840085,-0.06932984292507172,0.0814071,-0.020877257,-0.05336815491318703,-0.033713896
609.6333333331075,0.0011186776,-0.78926104,0.005284371,-2.3527348,-0.006014814,1.5738937,0.7845644,0.039999947,0.039999995,-9.840354,-0.07487399876117706,0.08785966,-0.021758785,-0.05505594238638878,-0.035154898
609.6499999997742,0.001180631,-0.78957057,0.005624003,-2.3525054,-0.0064102006,1.5740833,0.7844714,0.039999947,0.039999995,-9.840804,-0.08068002760410309,0.094620794,-0.022652782,-0.056771036237478256,-0.036618553
609.6666666664408,0.0012451096,-0.7898929,0.0059774173,-2.3522673,-0.0068216277,1.5742805,0.78437465,0.039999943,0.039999995,-9.841109,-0.086756631731987,0.10163044,-0.02355893,-0.058509256690740585,-0.03810575
609.6833333331075,0.00131215,-0.7902282,0.0063448115,-2.3520184,-0.007249311,1.5744858,0.7842741,0.03999994,0.039999995,-9.841538,-0.09307700395584106,0.108973354,-0.024477122,-0.060275573283433914,-0.0396134
609.6999999997741,0.0013817871,-0.7905766,0.006726378,-2.3517594,-0.0076934956,1.5746989,0.78416955,0.039999932,0.039999995,-9.841663,-0.09968089312314987,0.11658516,-0.025406748,-0.062058351933956146,-0.041142456
609.7166666664408,0.0014540552,-0.7909384,0.007122299,-2.3514917,-0.008154379,1.57492,0.7840612,0.03999993,0.039999995,-9.841926,-0.10654710233211517,0.12453117,-0.026346877,-0.0638633742928505,-0.042690612
609.7333333331075,0.001528987,-0.79131335,0.007532757,-2.3512132,-0.008632185,1.5751492,0.7839489,0.039999925,0.04,-9.842117,-0.1137637346982956,0.13280621,-0.027297916,-0.06569255143404007,-0.04425903
609.7499999997741,0.0016066141,-0.791702,0.007957924,-2.3509243,-0.009127118,1.5753863,0.78383255,0.039999917,0.04,-9.842433,-0.12113488465547562,0.14130566,-0.028258992,-0.06754384934902191,-0.04584603
609.7666666664408,0.001686968,-0.7921044,0.0083979685,-2.3506267,-0.00963934,1.575632,0.783712,0.039999913,0.039999995,-9.842521,-0.12884387373924255,0.15017368,-0.029229764,-0.06941276043653488,-0.047449496
609.7833333331074,0.0017700779,-0.79252064,0.00885305,-2.3503182,-0.010169065,1.575886,0.7835875,0.03999991,0.039999995,-9.842892,-0.13685020804405212,0.15935458,-0.030208953,-0.07130889594554901,-0.049071282
609.7999999997741,0.0018559719,-0.7929509,0.009323327,-2.3499987,-0.010716465,1.5761485,0.7834589,0.039999906,0.039999995,-9.842905,-0.1451452374458313,0.16883646,-0.031197403,-0.07322082668542862,-0.05070987
609.8166666664407,0.0019446779,-0.79339534,0.009808948,-2.3496695,-0.011281722,1.5764194,0.783326,0.039999902,0.039999995,-9.842918,-0.15372557938098907,0.17865776,-0.0321945,-0.07514950633049011,-0.052364606
609.8333333331074,0.0020362225,-0.7938539,0.010310057,-2.3493288,-0.011864995,1.5766991,0.78318894,0.0399999,0.039999995,-9.843026,-0.1626197248697281,0.18878345,-0.033198863,-0.0770992785692215,-0.054035008
609.849999999774,0.0021306302,-0.7943269,0.010826797,-2.3489785,-0.012466437,1.5769877,0.78304756,0.0399999,0.039999995,-9.842943,-0.1717986762523651,0.19923715,-0.0342106,-0.07906293869018555,-0.055719446
609.8666666664407,0.0022279266,-0.7948144,0.011359295,-2.348617,-0.013086217,1.5772848,0.78290194,0.0399999,0.04,-9.843026,-0.18129625916481018,0.21003526,-0.03522895,-0.08104739338159561,-0.05741908
609.8833333331073,0.0023281346,-0.7953166,0.01190768,-2.3482451,-0.013724477,1.5775912,0.7827518,0.039999895,0.04,-9.842877,-0.1910952925682068,0.22115314,-0.036254153,-0.08304715156555176,-0.05913252
609.899999999774,0.0024312753,-0.79583335,0.012472071,-2.3478618,-0.014381363,1.5779061,0.78259736,0.039999887,0.039999995,-9.842786,-0.20120647549629211,0.23259751,-0.037284486,-0.08506175130605698,-0.060859837
609.9166666664406,0.0025373707,-0.79636496,0.013052582,-2.3474677,-0.015057001,1.5782303,0.7824385,0.039999884,0.04,-9.842559,-0.2116284966468811,0.24438493,-0.038320657,-0.08709148317575455,-0.062599614
609.9333333331073,0.0026464397,-0.7969116,0.013649325,-2.3470623,-0.015751516,1.5785633,0.7822753,0.03999988,0.04,-9.842354,-0.22235843539237976,0.2565098,-0.03936181,-0.08913566172122955,-0.06435049
609.9499999997739,0.0027585025,-0.7974732,0.014262404,-2.3466458,-0.016465068,1.5789056,0.7821076,0.03999988,0.04,-9.842021,-0.23342666029930115,0.26897916,-0.04040814,-0.09119188785552979,-0.066114195
609.9666666664406,0.0028735767,-0.7980498,0.014891913,-2.3462186,-0.01719771,1.5792569,0.7819353,0.039999876,0.04,-9.841692,-0.24478945136070251,0.28177822,-0.041458137,-0.0932612344622612,-0.06788694
609.9833333331072,0.0029916787,-0.79864144,0.015537951,-2.34578,-0.01794958,1.5796176,0.7817586,0.039999872,0.04,-9.841217,-0.25655245780944824,0.29495654,-0.04251145,-0.09534633159637451,-0.06966978
609.9999999997739,0.0031128244,-0.79924834,0.0162006,-2.34533,-0.01872076,1.5799874,0.7815774,0.039999865,0.04,-9.84088,-0.26851320266723633,0.3083867,-0.043568555,-0.09744130820035934,-0.07146225
610.0166666664405,0.0032370293,-0.7998708,0.016879948,-2.3448684,-0.019511385,1.5803668,0.7813914,0.039999858,0.04,-9.84039,-0.2808676064014435,0.32222113,-0.044628844,-0.09954915195703506,-0.073264435
610.0333333331072,0.003364307,-0.80050874,0.017576067,-2.3443956,-0.020321522,1.5807554,0.781201,0.039999854,0.04,-9.839688,-0.2935449779033661,0.33640498,-0.045690376,-0.10166191309690475,-0.07507483
610.0499999997738,0.0034946697,-0.8011621,0.018289022,-2.3439116,-0.02115123,1.5811534,0.78100604,0.039999858,0.04,-9.839082,-0.3065476715564728,0.3509464,-0.046754736,-0.1037871390581131,-0.076891325
610.0666666664405,0.00362813,-0.8018308,0.019018894,-2.3434153,-0.0220006,1.5815606,0.78080636,0.03999985,0.04,-9.838407,-0.3199043869972229,0.36580414,-0.047820922,-0.1059228703379631,-0.078716844
610.0833333331071,0.003764699,-0.80251515,0.019765727,-2.3429084,-0.022869706,1.5819777,0.7806021,0.039999843,0.04,-9.83746,-0.3335803151130676,0.38101208,-0.048887633,-0.10806331038475037,-0.08054886
610.0999999997738,0.0039043855,-0.8032151,0.020529583,-2.3423889,-0.023758624,1.5824039,0.7803931,0.03999983,0.04,-9.836756,-0.34760409593582153,0.39657983,-0.049955443,-0.11021634936332703,-0.082386985
610.1166666664404,0.004047201,-0.8039308,0.021310505,-2.3418581,-0.024667395,1.58284,0.78017944,0.039999824,0.04,-9.835618,-0.36195218563079834,0.4124897,-0.05102315,-0.11237186193466187,-0.084230594
610.1333333331071,0.0041931495,-0.8046622,0.02210854,-2.3413157,-0.025596095,1.5832852,0.77996117,0.039999824,0.04,-9.8346,-0.37665244936943054,0.42875254,-0.052090548,-0.11453358829021454,-0.08607905
610.1499999997737,0.00434224,-0.8054093,0.022923734,-2.3407624,-0.026544739,1.5837401,0.7797382,0.039999817,0.04,-9.833495,-0.3916914761066437,0.44537097,-0.05315791,-0.11670354008674622,-0.08793206
610.1666666664404,0.0044944785,-0.8061721,0.023756107,-2.3401968,-0.027513353,1.5842047,0.77951044,0.039999817,0.04,-9.832356,-0.4070713222026825,0.462317,-0.0542242,-0.11888156831264496,-0.08978728
610.183333333107,0.004649872,-0.80695087,0.024605695,-2.3396192,-0.028502002,1.5846788,0.77927804,0.039999805,0.04,-9.830984,-0.4228106439113617,0.47960144,-0.0552888,-0.12106253206729889,-0.09164843
610.1999999997737,0.0048084217,-0.8077453,0.025472526,-2.3390307,-0.02951071,1.5851626,0.779041,0.039999798,0.04,-9.829485,-0.43888014554977417,0.4972793,-0.056351956,-0.12324485182762146,-0.093512274
610.2166666664403,0.004970133,-0.80855554,0.02635661,-2.33843,-0.03053949,1.5856558,0.77879906,0.039999794,0.04,-9.828083,-0.455294132232666,0.5152554,-0.05741327,-0.12543408572673798,-0.095376626
610.233333333107,0.0051350044,-0.8093818,0.027257968,-2.3378177,-0.03158835,1.5861588,0.7785526,0.039999787,0.04,-9.826258,-0.4721299409866333,0.5336341,-0.058471106,-0.12762588262557983,-0.09724374
610.2499999997736,0.00530304,-0.81022376,0.028176602,-2.3371935,-0.032657318,1.5866715,0.7783013,0.039999776,0.04,-9.824693,-0.489199161529541,0.55229574,-0.059526917,-0.1298198103904724,-0.09911371
610.2666666664403,0.005474241,-0.8110816,0.029112516,-2.3365583,-0.033746395,1.5871937,0.77804524,0.039999776,0.04,-9.822814,-0.5066477060317993,0.5713167,-0.060579207,-0.13201379776000977,-0.10098195
610.283333333107,0.0056486055,-0.8119553,0.030065719,-2.335911,-0.034855556,1.5877259,0.77778447,0.039999776,0.04,-9.820955,-0.5244709849357605,0.5906927,-0.06162739,-0.13421295583248138,-0.10285054
610.2999999997736,0.0058261347,-0.8128448,0.03103619,-2.3352509,-0.0359848,1.5882673,0.77751905,0.03999976,0.04,-9.818831,-0.542652428150177,0.6103963,-0.06267137,-0.13641004264354706,-0.104720555
610.3166666664403,0.006006825,-0.8137502,0.032023937,-2.3345802,-0.037134156,1.5888187,0.777249,0.03999975,0.04,-9.8164625,-0.56116783618927,0.6304647,-0.063711874,-0.13860273361206055,-0.10658962
610.3333333331069,0.0061906725,-0.8146712,0.033028927,-2.3338969,-0.038303554,1.5893798,0.77697414,0.039999746,0.04,-9.814292,-0.5800416469573975,0.6508598,-0.064747326,-0.1407993882894516,-0.10845564
610.3499999997736,0.006377673,-0.8156083,0.03405113,-2.3332026,-0.039493,1.5899502,0.77669454,0.039999742,0.04,-9.81173,-0.5992759466171265,0.67157835,-0.06577773,-0.14299124479293823,-0.11032197
610.3666666664402,0.006567823,-0.81656104,0.03509054,-2.3324962,-0.040702462,1.5905303,0.7764102,0.03999973,0.04,-9.809166,-0.6188622117042542,0.69268245,-0.066802226,-0.14518338441848755,-0.11218604
610.3833333331069,0.006761115,-0.8175295,0.036147118,-2.3317783,-0.041931905,1.5911196,0.7761212,0.03999973,0.04,-9.806407,-0.6387830972671509,0.7140661,-0.0678211,-0.14737272262573242,-0.11404648
610.3999999997735,0.006957546,-0.8185137,0.03722085,-2.3310487,-0.043181255,1.5917189,0.7758275,0.03999972,0.04,-9.803562,-0.6590881943702698,0.7358126,-0.0688333,-0.14956210553646088,-0.11590476
610.4166666664402,0.0071571055,-0.81951356,0.038311686,-2.3303075,-0.04445052,1.5923276,0.775529,0.03999971,0.04,-9.800488,-0.6797298789024353,0.7578684,-0.06983931,-0.15174487233161926,-0.11775941
610.4333333331068,0.0073597864,-0.82052904,0.03941957,-2.3295548,-0.04573964,1.5929458,0.77522594,0.039999705,0.04,-9.797286,-0.7007172107696533,0.78026813,-0.07083754,-0.15392379462718964,-0.11960909
610.4499999997735,0.007565581,-0.8215604,0.040544458,-2.32879,-0.047048517,1.5935737,0.7749182,0.03999969,0.04,-9.793949,-0.7220693826675415,0.8029829,-0.07182919,-0.15609870851039886,-0.12145439
610.4666666664401,0.0077744783,-0.8226071,0.041686315,-2.3280146,-0.04837713,1.594211,0.7746059,0.03999968,0.04,-9.79035,-0.7437723875045776,0.826036,-0.07281338,-0.1582641452550888,-0.12329633
610.4833333331068,0.007986469,-0.8236693,0.042845074,-2.327227,-0.049725424,1.5948577,0.7742889,0.03999967,0.04,-9.786632,-0.765897810459137,0.8494253,-0.07378955,-0.1604287028312683,-0.12513208
610.4999999997734,0.00820154,-0.824747,0.04402067,-2.3264282,-0.051093295,1.5955135,0.77396727,0.039999668,0.04,-9.782862,-0.7882286310195923,0.8730655,-0.07475764,-0.16258414089679718,-0.12696119
610.5166666664401,0.008419682,-0.8258401,0.04521304,-2.3256176,-0.052480664,1.596179,0.7736411,0.039999656,0.04,-9.778848,-0.8110013008117676,0.8970767,-0.075716674,-0.1647350937128067,-0.12878503
610.5333333331067,0.008640879,-0.8269486,0.046422124,-2.3247964,-0.05388748,1.5968536,0.7733104,0.039999653,0.04,-9.774567,-0.8340913653373718,0.9213733,-0.07666756,-0.16687363386154175,-0.13060042
610.5499999997734,0.008865121,-0.82807237,0.04764784,-2.3239632,-0.05531364,1.5975376,0.7729752,0.039999638,0.04,-9.770296,-0.8575916290283203,0.94599825,-0.07760918,-0.1690102368593216,-0.13241237
610.56666666644,0.009092388,-0.82921124,0.048890106,-2.323119,-0.05675908,1.5982308,0.7726355,0.039999634,0.04,-9.765591,-0.8813801407814026,0.9709063,-0.078541815,-0.17113348841667175,-0.13421476
610.5833333331067,0.009322673,-0.83036536,0.050148863,-2.3222635,-0.058223687,1.5989335,0.77229124,0.039999623,0.04,-9.760841,-0.9055330157279968,0.9961256,-0.07946501,-0.17324867844581604,-0.13600957
610.5999999997733,0.009555954,-0.83153445,0.051424015,-2.3213966,-0.059707347,1.599645,0.7719425,0.03999961,0.04,-9.755882,-0.9300470948219299,1.0216589,-0.08037773,-0.17535455524921417,-0.13779579
610.61666666644,0.009792216,-0.8327184,0.052715465,-2.320519,-0.061209988,1.6003661,0.7715893,0.039999608,0.04,-9.7506485,-0.954896867275238,1.0474608,-0.081280254,-0.1774492859840393,-0.13957359
610.6333333331066,0.010031442,-0.83391726,0.054023124,-2.3196306,-0.0627315,1.6010954,0.7712315,0.0399996,0.04,-9.745291,-0.9800886511802673,1.0735612,-0.08217242,-0.17953304946422577,-0.14134215
610.6499999997733,0.010273617,-0.835131,0.05534689,-2.3187308,-0.06427174,1.601834,0.77086943,0.03999959,0.04,-9.739711,-1.0056281089782715,1.0999691,-0.08305254,-0.18161028623580933,-0.14310059
610.6666666664399,0.010518719,-0.83635914,0.056686673,-2.31782,-0.06583061,1.6025822,0.770503,0.03999958,0.04,-9.733821,-1.031507134437561,1.1266378,-0.083922654,-0.18367207050323486,-0.14485005
610.6833333331066,0.010766727,-0.83760214,0.05804237,-2.3168988,-0.06740797,1.6033385,0.7701322,0.039999567,0.04,-9.727774,-1.0577305555343628,1.1535511,-0.08478145,-0.18571995198726654,-0.14659016
610.6999999997732,0.011017627,-0.8388596,0.059413865,-2.3159676,-0.06900372,1.6041042,0.7697571,0.039999552,0.04,-9.721549,-1.0842998027801514,1.1808162,-0.08562851,-0.1877591460943222,-0.14831965
610.7166666664399,0.011271391,-0.84013146,0.06080108,-2.3150249,-0.07061774,1.6048782,0.7693777,0.03999955,0.04,-9.715118,-1.1112060546875,1.2082996,-0.08646356,-0.1897866576910019,-0.1500384
610.7333333331065,0.011528003,-0.8414176,0.062203843,-2.3140717,-0.0722499,1.605661,0.7689939,0.039999533,0.04,-9.70809,-1.138464331626892,1.2360784,-0.087286755,-0.19179768860340118,-0.15174466
610.7499999997732,0.01178744,-0.842718,0.063622065,-2.3131075,-0.07390003,1.6064526,0.7686061,0.03999952,0.04,-9.701272,-1.1659983396530151,1.2640692,-0.0880971,-0.19379422068595886,-0.15344204
610.7666666664398,0.012049678,-0.8440323,0.065055646,-2.312133,-0.07556799,1.6072524,0.768214,0.03999952,0.04,-9.694003,-1.1938743591308594,1.2923678,-0.088895805,-0.19577474892139435,-0.15512367
610.7833333331065,0.012314699,-0.84536076,0.066504404,-2.3111491,-0.07725363,1.6080608,0.76781774,0.039999496,0.04,-9.6865225,-1.2221101522445679,1.3208758,-0.0896811,-0.19774211943149567,-0.15679587
610.7999999997731,0.012582473,-0.8467032,0.06796824,-2.3101544,-0.07895684,1.6088779,0.7674174,0.039999492,0.04,-9.678864,-1.2506588697433472,1.3496693,-0.09045349,-0.19969569146633148,-0.15845448
610.8166666664398,0.012852977,-0.84805924,0.069447026,-2.3091497,-0.080677435,1.6097031,0.7670129,0.039999478,0.04,-9.670806,-1.2795215845108032,1.3786865,-0.091213,-0.2016306221485138,-0.1600993
610.8333333331065,0.013126189,-0.8494285,0.07094062,-2.3081346,-0.08241526,1.6105366,0.7666043,0.039999466,0.04,-9.662534,-1.308719515800476,1.4079443,-0.09195879,-0.20354987680912018,-0.16173092
610.8499999997731,0.013402077,-0.85081106,0.07244889,-2.3071098,-0.08417015,1.6113783,0.7661917,0.039999455,0.04,-9.653972,-1.3382362127304077,1.4373813,-0.09269092,-0.20545169711112976,-0.16335042
610.8666666664398,0.013680617,-0.85220724,0.073971696,-2.3060753,-0.08594192,1.612228,0.7657751,0.03999945,0.04,-9.645228,-1.3680564165115356,1.4670775,-0.09340902,-0.20733903348445892,-0.16495359
610.8833333331064,0.0139617855,-0.85361683,0.07550888,-2.3050306,-0.08773044,1.613086,0.7653546,0.03999943,0.04,-9.636146,-1.398220419883728,1.4970287,-0.094112456,-0.20920856297016144,-0.16654602
610.8999999997731,0.014245552,-0.85503936,0.077060275,-2.303976,-0.089535534,1.6139517,0.76493025,0.039999418,0.04,-9.626662,-1.4286377429962158,1.527175,-0.094802946,-0.21105487644672394,-0.16812094
610.9166666664397,0.014531888,-0.85647494,0.078625776,-2.302912,-0.091357015,1.6148252,0.7645021,0.0399994,0.04,-9.616995,-1.459409236907959,1.5575346,-0.09547937,-0.2128838747739792,-0.16968438
610.9333333331064,0.014820768,-0.8579233,0.080205195,-2.3018384,-0.09319472,1.6157064,0.7640702,0.039999392,0.04,-9.607042,-1.4904613494873047,1.5880924,-0.09614145,-0.21469321846961975,-0.17123088
610.949999999773,0.015112164,-0.85938436,0.08179839,-2.3007555,-0.09504845,1.6165954,0.7636345,0.039999377,0.04,-9.596771,-1.5218349695205688,1.6188546,-0.09678889,-0.21648281812667847,-0.17276368
610.9666666664397,0.015406041,-0.8608578,0.083405204,-2.2996633,-0.096917994,1.617492,0.763195,0.03999937,0.04,-9.586231,-1.5534694194793701,1.6498172,-0.09742168,-0.2182527333498001,-0.17427704
610.9833333331063,0.015702374,-0.8623436,0.085025474,-2.298562,-0.09880318,1.618396,0.7627518,0.03999936,0.04,-9.575221,-1.5854655504226685,1.6809539,-0.09803877,-0.2200024425983429,-0.17577727
610.999999999773,0.016001133,-0.86384165,0.086659014,-2.2974517,-0.10070383,1.6193075,0.762305,0.039999332,0.04,-9.564204,-1.6176698207855225,1.7122616,-0.09864109,-0.22173120081424713,-0.17726108
611.0166666664396,0.016302284,-0.86535186,0.08830567,-2.2963321,-0.10261975,1.6202263,0.7618546,0.03999932,0.04,-9.552692,-1.6501896381378174,1.7437555,-0.09922814,-0.22343753278255463,-0.17872708
611.0333333331063,0.016605793,-0.8668738,0.08996526,-2.2952037,-0.10455072,1.6211524,0.7614006,0.039999306,0.04,-9.540844,-1.6829826831817627,1.7754276,-0.09979992,-0.22512033581733704,-0.18017638
611.0499999997729,0.016911628,-0.86840755,0.09163759,-2.2940671,-0.106496505,1.6220855,0.76094306,0.0399993,0.04,-9.5287485,-1.7160612344741821,1.8072412,-0.10035583,-0.22678114473819733,-0.1816065
611.0666666664396,0.01721976,-0.86995286,0.09332252,-2.2929227,-0.10845697,1.6230258,0.7604822,0.039999273,0.04,-9.516367,-1.7494523525238037,1.8392389,-0.10089601,-0.22842273116111755,-0.18302429
611.0833333331062,0.017530153,-0.87150955,0.09501988,-2.2917695,-0.11043189,1.6239729,0.7600178,0.03999927,0.04,-9.503665,-1.783064603805542,1.8713593,-0.101420514,-0.23004241287708282,-0.18442038
611.0999999997729,0.017842773,-0.8730775,0.09672941,-2.2906077,-0.112421006,1.6249269,0.7595502,0.039999247,0.04,-9.4905205,-1.816973090171814,1.9036267,-0.10192895,-0.23163774609565735,-0.18580206
611.1166666664395,0.018157588,-0.8746563,0.09845098,-2.289438,-0.11442418,1.6258878,0.7590793,0.039999247,0.04,-9.477037,-1.8510868549346924,1.9360358,-0.10242225,-0.23320788145065308,-0.18716109
611.1333333331062,0.018474558,-0.87624633,0.10018442,-2.2882602,-0.1164411,1.626855,0.7586051,0.039999228,0.04,-9.463322,-1.8855348825454712,1.9685569,-0.10289913,-0.23475565016269684,-0.18850647
611.1499999997728,0.018793652,-0.8778469,0.10192953,-2.2870736,-0.11847161,1.6278291,0.7581278,0.039999213,0.04,-9.449173,-1.9201823472976685,2.0012481,-0.10336007,-0.2362785041332245,-0.18983026
611.1666666664395,0.019114837,-0.8794581,0.103686124,-2.2858794,-0.12051545,1.6288096,0.75764734,0.0399992,0.04,-9.43462,-1.9550724029541016,2.0340152,-0.103805386,-0.23777233064174652,-0.19113462
611.1833333331061,0.01943808,-0.88107955,0.105453975,-2.2846773,-0.12257239,1.6297964,0.7571638,0.039999176,0.04,-9.41979,-1.9902255535125732,2.0669205,-0.104234524,-0.2392401099205017,-0.19242077
611.1999999997728,0.019763347,-0.88271123,0.107232906,-2.2834678,-0.12464227,1.6307888,0.7566772,0.03999917,0.04,-9.404604,-2.025601863861084,2.0999124,-0.104647435,-0.24068139493465424,-0.19368598
611.2166666664394,0.020090587,-0.88435286,0.10902268,-2.282251,-0.12672475,1.6317874,0.7561876,0.039999146,0.04,-9.389132,-2.0612382888793945,2.1330326,-0.1050436,-0.24210093915462494,-0.1949341
611.2333333331061,0.02041977,-0.8860043,0.110823125,-2.2810268,-0.1288197,1.6327921,0.75569516,0.03999912,0.04,-9.373094,-2.097095489501953,2.166207,-0.10542355,-0.24349237978458405,-0.19616257
611.2499999997727,0.020750862,-0.8876655,0.11263404,-2.279796,-0.13092686,1.6338027,0.7551999,0.039999112,0.04,-9.357037,-2.1331450939178467,2.1994934,-0.10578742,-0.24485833942890167,-0.19736908
611.2666666664394,0.02108382,-0.8893361,0.11445522,-2.2785583,-0.13304593,1.6348189,0.7547017,0.03999909,0.04,-9.34044,-2.1694300174713135,2.2328424,-0.10613469,-0.24619734287261963,-0.198556
611.283333333106,0.021418609,-0.8910159,0.11628647,-2.2773132,-0.13517673,1.6358409,0.7542009,0.03999907,0.04,-9.323529,-2.2059340476989746,2.2662609,-0.106464736,-0.24751019477844238,-0.19972181
611.2999999997727,0.021755189,-0.89270484,0.118127584,-2.2760623,-0.13731894,1.6368685,0.75369734,0.039999053,0.04,-9.306135,-2.2426280975341797,2.299735,-0.106779404,-0.24879318475723267,-0.20086758
611.3166666664393,0.022093525,-0.89440274,0.11997831,-2.2748044,-0.13947241,1.6379013,0.75319123,0.039999027,0.04,-9.288537,-2.2795591354370117,2.3332891,-0.107076675,-0.2500511407852173,-0.2019935
611.333333333106,0.022433575,-0.8961092,0.12183844,-2.27354,-0.14163685,1.6389394,0.75268245,0.039999016,0.04,-9.27043,-2.3166468143463135,2.3668797,-0.107357614,-0.25127890706062317,-0.20309731
611.3499999997726,0.022775307,-0.89782417,0.12370779,-2.2722692,-0.14381203,1.6399826,0.7521712,0.039998993,0.04,-9.251992,-2.35392689704895,2.40051,-0.10762203,-0.2524787187576294,-0.20417884
611.3666666664393,0.023118667,-0.8995474,0.12558614,-2.270992,-0.14599763,1.6410307,0.75165755,0.03999898,0.04,-9.233154,-2.391403913497925,2.4341733,-0.10787017,-0.2536485493183136,-0.20523949
611.383333333106,0.023463616,-0.9012787,0.1274732,-2.269709,-0.14819345,1.6420839,0.7511412,0.03999896,0.04,-9.213927,-2.429058790206909,2.4678724,-0.10810188,-0.25478798151016235,-0.20628035
611.3999999997726,0.023810122,-0.903018,0.12936887,-2.2684207,-0.15039921,1.6431417,0.7506227,0.039998937,0.04,-9.194401,-2.466857671737671,2.501596,-0.10831579,-0.2558983564376831,-0.20729676
611.4166666664393,0.02415814,-0.9047647,0.13127285,-2.2671266,-0.15261471,1.6442043,0.7501018,0.03999892,0.04,-9.174512,-2.504870653152466,2.535346,-0.108513504,-0.2569809556007385,-0.20829193
611.4333333331059,0.024507632,-0.9065192,0.13318491,-2.265826,-0.15483963,1.6452713,0.74957883,0.039998896,0.04,-9.154235,-2.5430333614349365,2.5690649,-0.10869404,-0.25803524255752563,-0.20926656
611.4499999997726,0.024858551,-0.9082808,0.13510492,-2.264521,-0.15707375,1.6463428,0.7490537,0.039998878,0.04,-9.13335,-2.5812864303588867,2.6028311,-0.1088601,-0.2590518295764923,-0.21021558
611.4666666664392,0.025210857,-0.9100495,0.13703255,-2.2632105,-0.15931672,1.6474185,0.7485264,0.03999886,0.04,-9.112416,-2.6197798252105713,2.6365757,-0.1090082,-0.2600432336330414,-0.21114308
611.4833333331059,0.025564516,-0.91182506,0.13896757,-2.2618945,-0.16156837,1.6484983,0.74799705,0.039998837,0.04,-9.090819,-2.658364772796631,2.6702838,-0.109139666,-0.26100286841392517,-0.21204957
611.4999999997725,0.025919473,-0.913607,0.1409098,-2.2605739,-0.16382842,1.649582,0.7474658,0.03999881,0.04,-9.069054,-2.6970746517181396,2.7040117,-0.1092553,-0.261929988861084,-0.21293092
611.5166666664392,0.02627569,-0.91539556,0.14285897,-2.2592494,-0.16609655,1.6506697,0.7469326,0.039998796,0.04,-9.046902,-2.7359559535980225,2.7376814,-0.10935407,-0.26282814145088196,-0.21379116
611.5333333331058,0.026633136,-0.9171903,0.14481482,-2.2579188,-0.16837254,1.651761,0.74639755,0.03999877,0.04,-9.024396,-2.774932861328125,2.771338,-0.10943622,-0.2636980712413788,-0.2146266
611.5499999997725,0.026991753,-0.918991,0.1467772,-2.2565844,-0.17065609,1.6528561,0.7458607,0.03999875,0.04,-9.001229,-2.8139994144439697,2.8049383,-0.10950307,-0.2645300030708313,-0.21544068
611.5666666664391,0.027351502,-0.9207976,0.1487458,-2.2552452,-0.17294686,1.6539549,0.74532217,0.039998725,0.04,-8.977938,-2.853203535079956,2.8385077,-0.10955333,-0.2653316259384155,-0.21622863
611.5833333331058,0.027712345,-0.92260975,0.15072046,-2.253902,-0.17524473,1.6550567,0.74478203,0.039998703,0.04,-8.954157,-2.892504930496216,2.8720129,-0.10958769,-0.26609858870506287,-0.21699362
611.5999999997724,0.028074233,-0.9244272,0.15270089,-2.2525554,-0.17754932,1.6561621,0.74424034,0.03999868,0.04,-8.930023,-2.9319021701812744,2.9054794,-0.109606415,-0.26683393120765686,-0.21773504
611.6166666664391,0.028437125,-0.9262498,0.15468685,-2.2512043,-0.17986031,1.6572704,0.74369705,0.039998658,0.04,-8.905605,-2.971403121948242,2.9388635,-0.10960857,-0.2675377130508423,-0.21844995
611.6333333331057,0.028800972,-0.9280774,0.15667807,-2.24985,-0.1821775,1.6583816,0.7431523,0.039998636,0.04,-8.880671,-3.0109646320343018,2.972174,-0.10959515,-0.2682077884674072,-0.21914332
611.6499999997724,0.029165732,-0.92990965,0.15867437,-2.2484915,-0.18450065,1.6594956,0.74260616,0.039998606,0.04,-8.85547,-3.050628423690796,3.0054157,-0.10956586,-0.26884645223617554,-0.21981353
611.666666666439,0.029531369,-0.9317463,0.1606755,-2.247131,-0.18682934,1.6606125,0.74205875,0.039998587,0.04,-8.829719,-3.0902953147888184,3.0385642,-0.10952143,-0.2694478929042816,-0.22045462
611.6833333331057,0.029897822,-0.93358713,0.1626812,-2.2457678,-0.1891634,1.6617318,0.7415101,0.039998557,0.04,-8.803941,-3.1301443576812744,3.071617,-0.10946003,-0.27002277970314026,-0.22107573
611.6999999997723,0.030265065,-0.93543214,0.16469125,-2.2444007,-0.19150247,1.6628537,0.7409602,0.039998546,0.04,-8.777642,-3.169959783554077,3.1045635,-0.10938265,-0.2705673277378082,-0.22166735
611.716666666439,0.030633043,-0.93728083,0.1667054,-2.2430303,-0.19384627,1.6639777,0.74040914,0.039998513,0.04,-8.750737,-3.2098424434661865,3.1373985,-0.10929074,-0.2710709571838379,-0.22223924
611.7333333331056,0.031001711,-0.939133,0.16872336,-2.241659,-0.19619462,1.6651038,0.73985726,0.039998498,0.04,-8.723524,-3.249725580215454,3.170113,-0.10918339,-0.2715407907962799,-0.22278418
611.7499999997723,0.031371027,-0.9409887,0.17074488,-2.2402842,-0.19854718,1.666232,0.7393042,0.039998468,0.04,-8.696386,-3.289762496948242,3.20275,-0.109060295,-0.2719862759113312,-0.22330375
611.7666666664389,0.03174095,-0.9428474,0.17276977,-2.2389061,-0.20090361,1.6673621,0.7387503,0.039998442,0.04,-8.6684065,-3.3297054767608643,3.2352355,-0.10892239,-0.27239125967025757,-0.22379811
611.7833333331056,0.03211142,-0.94470906,0.17479774,-2.2375274,-0.20326367,1.668494,0.7381955,0.039998416,0.04,-8.640141,-3.3696963787078857,3.2675781,-0.10877059,-0.27275967597961426,-0.22426698
611.7999999997722,0.032482408,-0.9465734,0.1768286,-2.2361453,-0.20562705,1.6696275,0.7376399,0.03999839,0.04,-8.611745,-3.4097416400909424,3.2998204,-0.10860245,-0.27309849858283997,-0.22470973
611.8166666664389,0.032853864,-0.94844013,0.17886207,-2.2347622,-0.20799354,1.6707623,0.73708373,0.03999836,0.04,-8.582672,-3.4497389793395996,3.3318784,-0.108421244,-0.273396760225296,-0.22512816
611.8333333331055,0.033225726,-0.95030904,0.1808979,-2.233377,-0.21036273,1.6718986,0.7365268,0.039998345,0.04,-8.553552,-3.4897987842559814,3.3638258,-0.10822446,-0.27366650104522705,-0.22551985
611.8499999997722,0.033597957,-0.9521801,0.18293583,-2.2319908,-0.21273439,1.673036,0.7359693,0.039998315,0.04,-8.523907,-3.5298047065734863,3.3955781,-0.10801295,-0.2738986611366272,-0.22588585
611.8666666664388,0.03397052,-0.9540527,0.1849756,-2.2306037,-0.2151082,1.6741745,0.7354113,0.039998285,0.04,-8.494016,-3.5698256492614746,3.4272203,-0.10778735,-0.27409854531288147,-0.22622651
611.8833333331055,0.034343377,-0.9559271,0.18701698,-2.2292154,-0.21748391,1.6753141,0.7348528,0.039998263,0.04,-8.463799,-3.6098062992095947,3.458649,-0.10754699,-0.27426567673683167,-0.22653998
611.8999999997721,0.034716472,-0.9578025,0.18905964,-2.227825,-0.2198612,1.6764541,0.73429406,0.03999824,0.04,-8.433169,-3.649758815765381,3.4899428,-0.10729283,-0.27439653873443604,-0.22682594
611.9166666664388,0.035089754,-0.9596792,0.19110352,-2.2264338,-0.22223978,1.6775948,0.7337349,0.03999821,0.04,-8.402109,-3.6896591186523438,3.5210145,-0.107025966,-0.2744901776313782,-0.22708921
611.9333333331055,0.035463188,-0.96155673,0.19314821,-2.2250423,-0.22461945,1.6787361,0.73317546,0.03999818,0.04,-8.370812,-3.7295422554016113,3.55196,-0.10674511,-0.2745477557182312,-0.22732371
611.9499999997721,0.035836708,-0.9634348,0.19519347,-2.223651,-0.22699977,1.6798776,0.7326158,0.03999815,0.04,-8.33926,-3.7693800926208496,3.5826995,-0.106450036,-0.27457213401794434,-0.22753258
611.9666666664388,0.036210287,-0.9653133,0.19723907,-2.2222595,-0.2293805,1.6810193,0.7320561,0.039998136,0.04,-8.307424,-3.8091564178466797,3.61324,-0.10614111,-0.27456462383270264,-0.22771196
611.9833333331054,0.036583867,-0.967192,0.19928476,-2.2208679,-0.23176137,1.6821611,0.73149645,0.039998103,0.04,-8.275218,-3.848876953125,3.6435556,-0.10581786,-0.2745242118835449,-0.22786947
611.9999999997721,0.036957417,-0.9690704,0.20133026,-2.2194762,-0.23414207,1.6833028,0.73093677,0.039998077,0.04,-8.24269,-3.8885250091552734,3.6737168,-0.10548316,-0.27444785833358765,-0.22799833
612.0166666664387,0.037330877,-0.9709486,0.20337543,-2.2180846,-0.23652229,1.6844443,0.73037726,0.03999804,0.04,-8.209872,-3.928100824356079,3.7036326,-0.10513453,-0.27433741092681885,-0.22810163
612.0333333331054,0.03770421,-0.97282624,0.20541991,-2.2166932,-0.23890176,1.6855856,0.7298181,0.039998017,0.04,-8.176707,-3.967593193054199,3.733353,-0.10477387,-0.2741908133029938,-0.22817759
612.049999999772,0.038077377,-0.97470313,0.20746343,-2.2153018,-0.24128026,1.6867263,0.7292592,0.039998002,0.04,-8.143286,-4.006974697113037,3.762859,-0.10440104,-0.2740094065666199,-0.22822483
612.0666666664387,0.038450304,-0.97657907,0.20950581,-2.2139125,-0.2436574,1.6878662,0.7287006,0.03999797,0.04,-8.109451,-4.046248435974121,3.7921333,-0.10401749,-0.2737886607646942,-0.22824673
612.0833333331053,0.038822982,-0.9784535,0.21154685,-2.2125242,-0.24603286,1.6890055,0.7281422,0.039997943,0.04,-8.07569,-4.085511684417725,3.821223,-0.10361897,-0.2735430598258972,-0.22824131
612.099999999772,0.039195355,-0.9803266,0.21358621,-2.2111366,-0.24840645,1.6901438,0.72758424,0.039997913,0.04,-8.041413,-4.124603271484375,3.8500187,-0.10320774,-0.27326127886772156,-0.22820978
612.1166666664386,0.039567348,-0.982198,0.21562362,-2.2097497,-0.25077784,1.6912811,0.7270268,0.039997887,0.04,-8.006852,-4.163568496704102,3.8786068,-0.10278452,-0.27294453978538513,-0.2281505
612.1333333331053,0.039938934,-0.98406756,0.21765888,-2.208365,-0.25314668,1.6924168,0.72647,0.03999786,0.04,-7.972001,-4.202403545379639,3.9069688,-0.10235025,-0.272591769695282,-0.22806416
612.1499999997719,0.040310085,-0.9859349,0.21969172,-2.2069807,-0.25551268,1.6935514,0.7259138,0.03999783,0.04,-7.9370136,-4.241140842437744,3.9350812,-0.10190421,-0.2722075879573822,-0.22795057
612.1666666664386,0.040680725,-0.9877999,0.2217219,-2.2055998,-0.25787562,1.6946847,0.7253584,0.039997797,0.04,-7.901591,-4.2797040939331055,3.9629402,-0.101447485,-0.27178433537483215,-0.22781025
612.1833333331052,0.04105083,-0.98966235,0.22374916,-2.20422,-0.26023528,1.6958164,0.72480386,0.03999777,0.04,-7.866231,-4.318202018737793,3.9905703,-0.10097831,-0.27133285999298096,-0.22764237
612.1999999997719,0.041420363,-0.991522,0.22577327,-2.2028427,-0.26259124,1.6969463,0.72425,0.039997745,0.04,-7.8303533,-4.356470108032227,4.0179257,-0.10049901,-0.27084389328956604,-0.22744656
612.2166666664385,0.04178924,-0.99337846,0.22779396,-2.2014666,-0.2649433,1.6980741,0.7236973,0.039997723,0.04,-7.794402,-4.394649982452393,4.045056,-0.10000745,-0.2703234553337097,-0.22722445
612.2333333331052,0.042157464,-0.9952317,0.22981104,-2.2000935,-0.26729113,1.6992,0.72314537,0.03999769,0.04,-7.758013,-4.4325337409973145,4.07185,-0.09950806,-0.2697644531726837,-0.2269747
612.2499999997718,0.042524975,-0.99708134,0.23182419,-2.198724,-0.2696344,1.7003237,0.7225947,0.039997663,0.04,-7.7216673,-4.470444202423096,4.0984893,-0.0989958,-0.26917481422424316,-0.22669579
612.2666666664385,0.042891715,-0.99892735,0.23383327,-2.1973572,-0.27197275,1.7014451,0.72204506,0.039997634,0.04,-7.6851516,-4.508146286010742,4.124813,-0.09847259,-0.268557071685791,-0.22639234
612.2833333331051,0.043257643,-1.0007694,0.2358379,-2.195992,-0.27430603,1.7025641,0.7214967,0.039997604,0.04,-7.6482453,-4.5456132888793945,4.150868,-0.097939454,-0.26790326833724976,-0.22606082
612.2999999997718,0.043622714,-1.0026071,0.23783793,-2.1946304,-0.27663398,1.7036806,0.7209496,0.039997574,0.04,-7.6110573,-4.582864761352539,4.1766253,-0.097398214,-0.26721131801605225,-0.22570321
612.3166666664384,0.04398689,-1.0044404,0.23983306,-2.1932719,-0.27895632,1.7047944,0.7204038,0.03999755,0.04,-7.57388,-4.61998176574707,4.202146,-0.09684665,-0.266488254070282,-0.22531635
612.3333333331051,0.044350125,-1.0062692,0.24182309,-2.1919172,-0.2812727,1.7059052,0.71985936,0.03999752,0.04,-7.5364804,-4.65690279006958,4.2273793,-0.09628479,-0.265733003616333,-0.22490206
612.3499999997717,0.044712372,-1.0080931,0.24380778,-2.1905663,-0.28358293,1.7070131,0.7193163,0.03999749,0.04,-7.498947,-4.6936421394348145,4.2523484,-0.09571327,-0.26494696736335754,-0.22446284
612.3666666664384,0.04507359,-1.0099121,0.24578685,-2.189219,-0.28588656,1.7081181,0.718775,0.03999746,0.04,-7.4611964,-4.730144500732422,4.277021,-0.09513201,-0.2641277015209198,-0.22399278
612.383333333105,0.045433737,-1.0117259,0.24776009,-2.1878755,-0.28818345,1.7092195,0.71823514,0.039997436,0.04,-7.423283,-4.766452789306641,4.301426,-0.094542995,-0.26327455043792725,-0.22349773
612.3999999997717,0.04579277,-1.0135335,0.24972726,-2.1865363,-0.29047322,1.7103176,0.71769696,0.039997403,0.04,-7.3852587,-4.802543640136719,4.325552,-0.09394466,-0.26239141821861267,-0.2229755
612.4166666664383,0.046150632,-1.0153356,0.25168815,-2.1852005,-0.29275584,1.7114121,0.7171605,0.039997373,0.04,-7.347141,-4.838428020477295,4.349321,-0.0933364,-0.2614777982234955,-0.2224252
612.433333333105,0.046507288,-1.0171318,0.2536425,-2.1838703,-0.2950307,1.712503,0.71662587,0.03999734,0.04,-7.308721,-4.874034881591797,4.372872,-0.09272101,-0.26052966713905334,-0.22184747
612.4499999997716,0.046862703,-1.018922,0.25559005,-2.1825442,-0.29729772,1.7135901,0.71609306,0.039997313,0.04,-7.270452,-4.909509658813477,4.3961368,-0.09209555,-0.2595547139644623,-0.22124262
612.4666666664383,0.047216833,-1.0207056,0.25753054,-2.181223,-0.29955664,1.7146734,0.71556216,0.039997276,0.04,-7.2318177,-4.944675445556641,4.4191008,-0.09146329,-0.2585451304912567,-0.22061238
612.483333333105,0.04756962,-1.0224825,0.2594639,-2.1799066,-0.30180714,1.7157527,0.7150333,0.039997254,0.04,-7.193264,-4.979577541351318,4.44173,-0.09082258,-0.2575056552886963,-0.2199559
612.4999999997716,0.047921047,-1.0242529,0.26138976,-2.1785953,-0.3040489,1.7168279,0.7145064,0.039997224,0.04,-7.1545053,-5.014339447021484,4.464114,-0.090173416,-0.2564362585544586,-0.21927014
612.5166666664383,0.04827106,-1.0260162,0.26330793,-2.1772892,-0.3062817,1.7178986,0.7139816,0.039997198,0.04,-7.1156654,-5.048801898956299,4.4862156,-0.08951673,-0.25533583760261536,-0.21855809
612.5333333331049,0.048619613,-1.0277722,0.26521805,-2.1759884,-0.30850542,1.7189648,0.713459,0.039997164,0.04,-7.0767813,-5.083008289337158,4.5080047,-0.088853136,-0.25420594215393066,-0.21782003
612.5499999997716,0.048966676,-1.0295211,0.26712012,-2.1746933,-0.3107195,1.7200266,0.71293855,0.03999713,0.04,-7.0378313,-5.116944313049316,4.5294766,-0.088181935,-0.25304707884788513,-0.21705477
612.5666666664382,0.0493122,-1.0312622,0.2690138,-2.1734033,-0.31292385,1.7210838,0.7124204,0.039997105,0.04,-6.9987874,-5.150642395019531,4.550704,-0.08750347,-0.25185760855674744,-0.21626125
612.5833333331049,0.049656156,-1.0329952,0.27089897,-2.1721194,-0.31511822,1.7221361,0.7119047,0.039997075,0.04,-6.959636,-5.184066295623779,4.571587,-0.08681895,-0.2506362795829773,-0.21544553
612.5999999997715,0.04999849,-1.0347205,0.27277514,-2.170842,-0.31730232,1.7231834,0.7113914,0.03999705,0.04,-6.920575,-5.217238903045654,4.5921645,-0.0861268,-0.2493876814842224,-0.21459945
612.6166666664382,0.05033915,-1.0364376,0.2746425,-2.16957,-0.319476,1.7242255,0.71088046,0.039997023,0.04,-6.881493,-5.250130653381348,4.612516,-0.085428335,-0.24811339378356934,-0.21372809
612.6333333331048,0.050678127,-1.0381461,0.27650046,-2.1683047,-0.32163888,1.7252629,0.71037227,0.03999698,0.04,-6.842198,-5.282761573791504,4.632511,-0.0847235,-0.24680691957473755,-0.2128325
612.6499999997715,0.051015373,-1.039846,0.2783489,-2.1670456,-0.32379067,1.7262948,0.7098665,0.03999696,0.04,-6.8030934,-5.315086841583252,4.6522207,-0.08401326,-0.24547439813613892,-0.2119085
612.6666666664381,0.051350843,-1.0415369,0.28018767,-2.1657934,-0.32593137,1.7273213,0.7093635,0.03999693,0.04,-6.763861,-5.347135543823242,4.6716404,-0.08329647,-0.24411295354366302,-0.21096095
612.6833333331048,0.051684503,-1.0432191,0.28201652,-2.1645477,-0.3280605,1.7283422,0.70886326,0.039996903,0.04,-6.724719,-5.378928184509277,4.6907563,-0.08257364,-0.24272628128528595,-0.20998664
612.6999999997714,0.052016314,-1.0448916,0.28383523,-2.1633086,-0.3301778,1.7293577,0.70836574,0.039996877,0.04,-6.685511,-5.410389423370361,4.7096024,-0.0818459,-0.24131186306476593,-0.20898443
612.7166666664381,0.052346237,-1.0465552,0.2856436,-2.1620767,-0.3322831,1.7303673,0.70787096,0.039996844,0.04,-6.6463246,-5.441588878631592,4.7280946,-0.08111242,-0.2398683875799179,-0.20795928
612.7333333331047,0.05267423,-1.048209,0.28744152,-2.1608517,-0.33437636,1.731371,0.707379,0.039996814,0.04,-6.607267,-5.472434043884277,4.7463403,-0.08037415,-0.23839859664440155,-0.20690958
612.7499999997714,0.05300026,-1.0498526,0.28922868,-2.1596344,-0.336457,1.7323691,0.70689,0.03999679,0.04,-6.5681105,-5.503091812133789,4.7642927,-0.07962929,-0.236904114484787,-0.20583129
612.766666666438,0.05332429,-1.0514865,0.29100496,-2.1584241,-0.338525,1.7333606,0.70640385,0.039996754,0.04,-6.529109,-5.533450603485107,4.78192,-0.07887934,-0.23538416624069214,-0.20473497
612.7833333331047,0.053646274,-1.0531105,0.29277015,-2.1572213,-0.34057993,1.734346,0.7059211,0.039996736,0.04,-6.49008,-5.563416004180908,4.799289,-0.07812411,-0.23383919894695282,-0.20360723
612.7999999997713,0.053966187,-1.0547241,0.294524,-2.1560264,-0.34262168,1.7353251,0.70544124,0.039996702,0.04,-6.451115,-5.593135833740234,4.8163753,-0.07736674,-0.23226723074913025,-0.20245722
612.816666666438,0.054284003,-1.0563272,0.29626632,-2.154839,-0.34465015,1.7362977,0.7049645,0.039996672,0.04,-6.4122777,-5.622547626495361,4.8331437,-0.07660339,-0.23067137598991394,-0.20128374
612.8333333331046,0.05459966,-1.0579196,0.2979969,-2.1536598,-0.34666488,1.7372638,0.70449114,0.03999665,0.04,-6.373482,-5.651586055755615,4.8496375,-0.07583661,-0.22905027866363525,-0.20008156
612.8499999997713,0.05491315,-1.0595012,0.29971564,-2.152489,-0.34866583,1.7382232,0.7040208,0.03999662,0.04,-6.33487,-5.680417060852051,4.865838,-0.075065136,-0.22740760445594788,-0.19885837
612.8666666664379,0.05522443,-1.0610715,0.3014223,-2.1513264,-0.35065275,1.7391763,0.70355374,0.03999659,0.04,-6.296283,-5.708885669708252,4.881767,-0.07428865,-0.22574123740196228,-0.19761081
612.8833333331046,0.055533454,-1.0626308,0.30311665,-2.150172,-0.35262546,1.7401223,0.70309013,0.039996564,0.04,-6.257871,-5.737067699432373,4.897381,-0.07350772,-0.2240518182516098,-0.196341
612.8999999997712,0.05584021,-1.0641782,0.30479857,-2.149026,-0.35458356,1.7410612,0.7026301,0.039996553,0.04,-6.219485,-5.764888763427734,4.912721,-0.07272404,-0.22233839333057404,-0.19504546
612.9166666664379,0.05614466,-1.065714,0.30646774,-2.1478882,-0.356527,1.7419931,0.70217335,0.039996516,0.04,-6.1813107,-5.792440414428711,4.9277673,-0.07193681,-0.22060492634773254,-0.19373089
612.9333333331045,0.056446757,-1.0672385,0.30812418,-2.1467593,-0.3584556,1.7429178,0.7017202,0.039996486,0.04,-6.143239,-5.819626808166504,4.9425416,-0.07114597,-0.2188500165939331,-0.19239184
612.9499999997712,0.056746494,-1.0687507,0.30976763,-2.1456394,-0.36036906,1.7438352,0.7012704,0.039996464,0.04,-6.1052647,-5.846514701843262,4.9570823,-0.07035226,-0.2170722633600235,-0.19102909
612.9666666664378,0.057043817,-1.0702505,0.311398,-2.1445284,-0.3622671,1.7447454,0.7008243,0.039996438,0.04,-6.0675178,-5.8730974197387695,4.971299,-0.06955432,-0.21527434885501862,-0.18964392
612.9833333331045,0.057338703,-1.0717391,0.313015,-2.1434262,-0.3641497,1.745648,0.7003819,0.03999641,0.04,-6.030133,-5.899345874786377,4.9851985,-0.06875229,-0.2134586125612259,-0.18824075
612.9999999997711,0.057631116,-1.0732149,0.31461853,-2.1423335,-0.36601654,1.7465432,0.6999432,0.03999639,0.04,-5.992378,-5.925255298614502,4.99898,-0.06795019,-0.211617574095726,-0.18681078
613.0166666664378,0.057921033,-1.0746777,0.31620833,-2.14125,-0.3678676,1.7474308,0.69950825,0.039996367,0.04,-5.9552093,-5.950891494750977,5.01238,-0.067144535,-0.20975936949253082,-0.18536067
613.0333333331045,0.05820843,-1.0761286,0.3177844,-2.1401758,-0.3697025,1.748311,0.69907707,0.03999634,0.04,-5.918148,-5.976186752319336,5.0254984,-0.06633577,-0.20788247883319855,-0.18389155
613.0499999997711,0.05849327,-1.0775657,0.31934643,-2.1391106,-0.3715212,1.7491835,0.6986497,0.03999631,0.04,-5.881231,-6.001138687133789,5.0384398,-0.06552514,-0.20598478615283966,-0.18239944
613.0666666664378,0.05877554,-1.0789908,0.32089442,-2.1380556,-0.37332344,1.7500478,0.6982261,0.039996285,0.04,-5.844524,-6.025735855102539,5.050988,-0.06471247,-0.20406700670719147,-0.18088685
613.0833333331044,0.059055198,-1.080402,0.32242802,-2.1370103,-0.37510902,1.7509041,0.6978064,0.039996255,0.04,-5.808067,-6.050084590911865,5.0634584,-0.063896924,-0.2021333873271942,-0.17935295
613.0999999997711,0.059332207,-1.081801,0.32394722,-2.1359746,-0.37687784,1.7517524,0.6973906,0.039996233,0.04,-5.7719193,-6.074075698852539,5.075495,-0.063078426,-0.200185164809227,-0.17780128
613.1166666664377,0.05960657,-1.0831861,0.32545197,-2.1349487,-0.37862968,1.7525924,0.69697905,0.039996196,0.04,-5.7357025,-6.097700595855713,5.0874414,-0.062260717,-0.19821400940418243,-0.17623004
613.1333333331044,0.05987823,-1.0845578,0.3269419,-2.1339335,-0.38036445,1.7534244,0.69657147,0.03999618,0.04,-5.700015,-6.121058940887451,5.0990033,-0.06144011,-0.1962294578552246,-0.17463595
613.149999999771,0.060147185,-1.0859158,0.328417,-2.1329277,-0.38208187,1.754248,0.696168,0.03999615,0.04,-5.6645384,-6.144093990325928,5.110377,-0.060617644,-0.19423094391822815,-0.17302656
613.1666666664377,0.060413405,-1.08726,0.32987702,-2.1319318,-0.383782,1.7550634,0.6957686,0.039996125,0.04,-5.6291265,-6.166732311248779,5.121494,-0.059795193,-0.19221340119838715,-0.17139679
613.1833333331043,0.06067686,-1.0885909,0.33132198,-2.1309466,-0.3854644,1.7558701,0.69537324,0.0399961,0.04,-5.5940566,-6.189074993133545,5.1323647,-0.05897222,-0.19017909467220306,-0.16975108
613.199999999771,0.06093752,-1.0899074,0.33275178,-2.1299722,-0.38712913,1.7566686,0.6949821,0.03999607,0.04,-5.559312,-6.211127758026123,5.1430483,-0.05814699,-0.18813243508338928,-0.16808473
613.2166666664376,0.06119537,-1.0912095,0.33416614,-2.1290083,-0.38877577,1.7574582,0.6945951,0.039996047,0.04,-5.524877,-6.2328691482543945,5.153421,-0.057319555,-0.18607279658317566,-0.16640048
613.2333333331043,0.06145039,-1.0924978,0.335565,-2.128054,-0.39040446,1.7582393,0.6942124,0.03999602,0.04,-5.4908566,-6.254213333129883,5.163546,-0.05649101,-0.18400104343891144,-0.16470163
613.2499999997709,0.061702557,-1.0937717,0.33694822,-2.1271112,-0.392015,1.7590116,0.693834,0.03999599,0.04,-5.456577,-6.2752556800842285,5.173516,-0.055664234,-0.18190999329090118,-0.16298518
613.2666666664376,0.06195185,-1.095031,0.33831573,-2.1261787,-0.3936073,1.759775,0.6934598,0.039995972,0.04,-5.423067,-6.296050548553467,5.1832347,-0.054835666,-0.17981140315532684,-0.16125214
613.2833333331042,0.062198244,-1.0962757,0.33966738,-2.1252573,-0.39518115,1.76053,0.69309,0.039995942,0.04,-5.389711,-6.316463470458984,5.1926985,-0.054005947,-0.17770035564899445,-0.15950531
613.2999999997709,0.06244173,-1.0975058,0.34100312,-2.1243463,-0.39673647,1.7612758,0.6927245,0.039995924,0.04,-5.356661,-6.336546421051025,5.201951,-0.053175967,-0.17557616531848907,-0.15773982
613.3166666664375,0.06268228,-1.0987214,0.34232274,-2.1234457,-0.39827302,1.7620127,0.6923635,0.039995912,0.04,-5.3239255,-6.356322288513184,5.210996,-0.052345827,-0.17344139516353607,-0.15595922
613.3333333331042,0.0629199,-1.0999222,0.34362626,-2.122557,-0.39979067,1.7627404,0.69200695,0.039995883,0.04,-5.291382,-6.375726699829102,5.2198234,-0.051518254,-0.17129114270210266,-0.1541646
613.3499999997708,0.06315454,-1.1011081,0.34491345,-2.1216788,-0.40128955,1.7634587,0.6916549,0.03999585,0.04,-5.2594223,-6.394931793212891,5.228469,-0.050689127,-0.16913555562496185,-0.15235728
613.3666666664375,0.06338621,-1.102279,0.34618437,-2.1208124,-0.40276933,1.7641689,0.6913072,0.039995827,0.04,-5.227602,-6.413700103759766,5.2368746,-0.04986149,-0.1669696867465973,-0.15053405
613.3833333331041,0.06361487,-1.1034344,0.34743884,-2.119957,-0.40423003,1.7648696,0.690964,0.03999581,0.04,-5.196258,-6.432256698608398,5.245062,-0.0490323,-0.16479380428791046,-0.14869884
613.3999999997708,0.06384051,-1.1045749,0.34867677,-2.1191127,-0.4056714,1.7655606,0.6906253,0.039995782,0.04,-5.16518,-6.450440406799316,5.2530417,-0.04820365,-0.16260963678359985,-0.14685138
613.4166666664374,0.064063124,-1.1057004,0.34989813,-2.11828,-0.40709355,1.7662427,0.6902911,0.039995763,0.04,-5.1344414,-6.468304634094238,5.2608604,-0.047375895,-0.1604188084602356,-0.14499056
613.4333333331041,0.064282686,-1.1068102,0.35110277,-2.117458,-0.4084962,1.7669152,0.6899615,0.039995737,0.04,-5.104064,-6.485886573791504,5.268469,-0.046548493,-0.15821924805641174,-0.14311817
613.4499999997707,0.06449918,-1.1079049,0.35229075,-2.1166484,-0.40987933,1.7675785,0.68963635,0.03999572,0.04,-5.0740104,-6.503105640411377,5.275857,-0.045722898,-0.15601280331611633,-0.14123416
613.4666666664374,0.06471262,-1.1089839,0.35346204,-2.1158495,-0.41124296,1.7682323,0.68931603,0.0399957,0.04,-5.0444627,-6.520108699798584,5.283096,-0.044896316,-0.1538025140762329,-0.13933787
613.483333333104,0.06492299,-1.1100473,0.3546162,-2.115063,-0.41258696,1.7688769,0.6890002,0.03999568,0.04,-5.015302,-6.536704063415527,5.2900705,-0.044071864,-0.15158365666866302,-0.13743441
613.4999999997707,0.06513025,-1.1110955,0.35575342,-2.1142867,-0.4139112,1.769512,0.6886891,0.039995655,0.04,-4.9863195,-6.553086280822754,5.29696,-0.043247703,-0.14936311542987823,-0.13552023
613.5166666664373,0.06533441,-1.112128,0.35687363,-2.113523,-0.4152157,1.7701374,0.68838257,0.039995644,0.04,-4.957574,-6.569031238555908,5.303614,-0.042428367,-0.1471303105354309,-0.13359503
613.533333333104,0.06553545,-1.1131446,0.3579769,-2.1127696,-0.41650027,1.7707534,0.6880808,0.039995622,0.04,-4.929587,-6.584826946258545,5.3101315,-0.041608084,-0.14490003883838654,-0.13166311
613.5499999997706,0.06573336,-1.1141456,0.359063,-2.1120288,-0.41776484,1.7713599,0.68778366,0.0399956,0.04,-4.9016733,-6.600192546844482,5.3164134,-0.0407915,-0.14266030490398407,-0.12972054
613.5666666664373,0.065928124,-1.1151309,0.36013198,-2.1112998,-0.4190096,1.7719569,0.6874912,0.039995577,0.04,-4.8744063,-6.615371227264404,5.322572,-0.039975796,-0.1404201239347458,-0.12777418
613.583333333104,0.066119775,-1.1161002,0.36118385,-2.110582,-0.4202343,1.7725441,0.68720347,0.039995562,0.04,-4.8474393,-6.630187034606934,5.328552,-0.039161466,-0.13817797601222992,-0.12581539
613.5999999997706,0.066308275,-1.1170539,0.3622184,-2.109877,-0.42143908,1.773122,0.6869204,0.039995547,0.04,-4.820854,-6.644738674163818,5.3343534,-0.038349003,-0.13593409955501556,-0.123852946
613.6166666664373,0.066493645,-1.1179917,0.3632358,-2.109183,-0.4226237,1.77369,0.6866421,0.03999553,0.04,-4.794774,-6.6590352058410645,5.3400316,-0.03753783,-0.13369104266166687,-0.12188552
613.6333333331039,0.06667586,-1.1189134,0.36423585,-2.1085012,-0.42378825,1.7742484,0.68636847,0.03999551,0.04,-4.768917,-6.672937870025635,5.345516,-0.0367303,-0.13144470751285553,-0.11991072
613.6499999997706,0.06685494,-1.1198195,0.3652187,-2.1078305,-0.42493254,1.7747972,0.6860995,0.0399955,0.04,-4.7436175,-6.68662166595459,5.3508344,-0.035924006,-0.12919962406158447,-0.11793148
613.6666666664372,0.06703085,-1.1207098,0.3661843,-2.1071715,-0.4260567,1.7753363,0.6858353,0.039995484,0.04,-4.7185936,-6.69998836517334,5.3560314,-0.03512146,-0.12695202231407166,-0.11594855
613.6833333331039,0.06720359,-1.1215836,0.36713243,-2.1065247,-0.42716065,1.7758657,0.6855759,0.03999546,0.04,-4.694017,-6.713067531585693,5.361075,-0.034322068,-0.12470415979623795,-0.113958575
613.6999999997705,0.067373164,-1.1224419,0.36806324,-2.1058893,-0.4282446,1.7763854,0.6853214,0.039995436,0.04,-4.6700253,-6.725902080535889,5.3659415,-0.03352475,-0.12246164679527283,-0.11196739
613.7166666664372,0.06753961,-1.1232841,0.36897683,-2.1052668,-0.42930833,1.7768955,0.68507147,0.03999542,0.04,-4.6462407,-6.73840856552124,5.370725,-0.032732584,-0.12021821737289429,-0.109973565
613.7333333331038,0.06770288,-1.1241103,0.369873,-2.1046548,-0.4303519,1.777396,0.68482643,0.039995413,0.04,-4.62335,-6.750731945037842,5.375317,-0.031940065,-0.1179826483130455,-0.10797959
613.7499999997705,0.06786297,-1.124921,0.37075198,-2.1040552,-0.43137538,1.7778867,0.6845858,0.0399954,0.04,-4.600155,-6.762653827667236,5.3797746,-0.03115404,-0.11574545502662659,-0.10598271
613.7666666664371,0.068019934,-1.1257154,0.37161365,-2.1034675,-0.43237865,1.7783678,0.68435013,0.03999538,0.04,-4.577738,-6.774406909942627,5.3841333,-0.030369433,-0.11351203173398972,-0.103987165
613.7833333331038,0.06817372,-1.1264939,0.37245804,-2.1028912,-0.43336174,1.7788391,0.6841191,0.03999537,0.04,-4.555824,-6.785856246948242,5.388331,-0.029588323,-0.11128611117601395,-0.10198792
613.7999999997704,0.06832438,-1.1272566,0.3732851,-2.102327,-0.43432486,1.7793014,0.6838929,0.03999535,0.04,-4.5342503,-6.797030448913574,5.392409,-0.028811522,-0.10906429588794708,-0.099992774
613.8166666664371,0.06847189,-1.128004,0.37409514,-2.1017742,-0.43526784,1.7797536,0.6836713,0.03999534,0.04,-4.513138,-6.807938098907471,5.3963475,-0.02803869,-0.10684644430875778,-0.09799627
613.8333333331037,0.068616256,-1.1287348,0.37488788,-2.1012335,-0.43619084,1.7801961,0.6834544,0.039995316,0.04,-4.492346,-6.818585395812988,5.4002233,-0.027270589,-0.10463394969701767,-0.09600255
613.8499999997704,0.06875749,-1.1294498,0.3756634,-2.100704,-0.43709385,1.7806292,0.6832421,0.039995305,0.04,-4.4722233,-6.828993320465088,5.4038997,-0.026504653,-0.10243241488933563,-0.094012275
613.866666666437,0.068895616,-1.1301496,0.3764218,-2.100186,-0.4379769,1.7810526,0.6830346,0.039995298,0.04,-4.4523497,-6.839076042175293,5.407468,-0.025744108,-0.1002359688282013,-0.09202418
613.8833333331037,0.06903062,-1.1308337,0.37716317,-2.0996807,-0.43884015,1.7814667,0.6828317,0.03999529,0.04,-4.4329166,-6.848949909210205,5.410985,-0.024989868,-0.09804667532444,-0.09004129
613.8999999997703,0.06916252,-1.1315019,0.37788752,-2.0991862,-0.43968362,1.7818712,0.6826336,0.03999528,0.04,-4.4140763,-6.858617782592773,5.414362,-0.024238031,-0.09586919099092484,-0.08806056
613.916666666437,0.069291316,-1.1321545,0.37859496,-2.098704,-0.4405074,1.7822664,0.6824399,0.039995268,0.04,-4.3955026,-6.867953300476074,5.417596,-0.023492595,-0.09369940310716629,-0.08608607
613.9333333331036,0.069417045,-1.1327915,0.37928554,-2.0982325,-0.4413115,1.7826521,0.6822513,0.03999525,0.04,-4.3775744,-6.877175331115723,5.4207416,-0.02274886,-0.09154340624809265,-0.084121205
613.9499999997703,0.06953971,-1.1334133,0.37995926,-2.0977728,-0.44209602,1.7830282,0.6820668,0.03999524,0.04,-4.359803,-6.885976791381836,5.4237823,-0.022014486,-0.08939395844936371,-0.08216142
613.9666666664369,0.06965933,-1.1340195,0.3806163,-2.0973241,-0.44286105,1.7833952,0.6818873,0.039995223,0.04,-4.3426228,-6.89461088180542,5.4267454,-0.02128345,-0.08725730329751968,-0.080206014
613.9833333331036,0.06977593,-1.1346103,0.3812567,-2.096887,-0.44360673,1.7837527,0.6817121,0.039995216,0.04,-4.3260546,-6.902994155883789,5.4295716,-0.020559847,-0.08513177186250687,-0.078261
613.9999999997702,0.0698895,-1.1351857,0.3818805,-2.0964608,-0.4443331,1.7841011,0.6815414,0.0399952,0.04,-4.3096056,-6.911208152770996,5.4323173,-0.01983903,-0.08302202820777893,-0.07632445
614.0166666664369,0.07000006,-1.1357462,0.38248786,-2.0960464,-0.44504037,1.7844404,0.6813755,0.039995197,0.04,-4.293621,-6.919084548950195,5.434951,-0.019125832,-0.0809219554066658,-0.07439712
614.0333333331035,0.07010767,-1.1362916,0.3830789,-2.0956428,-0.44572854,1.7847704,0.6812138,0.039995193,0.04,-4.2782288,-6.926834583282471,5.437545,-0.01841908,-0.07883822917938232,-0.0724807
614.0499999997702,0.07021225,-1.1368222,0.3836537,-2.0952506,-0.44639787,1.7850913,0.6810564,0.039995186,0.04,-4.263183,-6.934290409088135,5.4400115,-0.017716987,-0.07676909863948822,-0.07057371
614.0666666664368,0.070313916,-1.1373378,0.38421234,-2.094869,-0.44704834,1.7854031,0.6809036,0.03999518,0.04,-4.2486205,-6.941555023193359,5.4423966,-0.01702023,-0.07471669465303421,-0.068678126
614.0833333331035,0.07041267,-1.1378384,0.38475496,-2.0944989,-0.4476801,1.785706,0.6807554,0.039995167,0.04,-4.2344027,-6.948554515838623,5.4446797,-0.016332287,-0.07267828285694122,-0.06679692
614.0999999997701,0.0705085,-1.1383247,0.38528168,-2.0941393,-0.4482934,1.7859999,0.6806114,0.039995156,0.04,-4.2207956,-6.955417633056641,5.4468756,-0.015649455,-0.07066038995981216,-0.064931944
614.1166666664368,0.07060146,-1.138796,0.38579267,-2.0937908,-0.44888824,1.7862853,0.6804714,0.039995145,0.04,-4.2073994,-6.961958885192871,5.4490438,-0.014974835,-0.0686584934592247,-0.06307606
614.1333333331035,0.07069154,-1.1392534,0.38628796,-2.0934525,-0.44946498,1.7865618,0.6803359,0.039995134,0.04,-4.194619,-6.968391418457031,5.4510446,-0.014303804,-0.06667687743902206,-0.06123791
614.1499999997701,0.07077882,-1.1396964,0.38676777,-2.093125,-0.4500236,1.7868296,0.680205,0.039995126,0.04,-4.182041,-6.974495887756348,5.453045,-0.013642968,-0.06471068412065506,-0.05941416
614.1666666664368,0.07086328,-1.1401252,0.3872322,-2.092808,-0.45056427,1.7870889,0.6800781,0.039995123,0.04,-4.1700516,-6.980480670928955,5.454956,-0.012990774,-0.0627666637301445,-0.057605866
614.1833333331034,0.07094498,-1.1405398,0.38768148,-2.092501,-0.4510873,1.7873397,0.6799553,0.039995115,0.04,-4.158429,-6.986227512359619,5.4567633,-0.012345031,-0.060843199491500854,-0.05581521
614.1999999997701,0.07102395,-1.1409408,0.38811585,-2.0922046,-0.4515927,1.7875822,0.67983663,0.03999511,0.04,-4.1471767,-6.991755485534668,5.458496,-0.011707405,-0.05893895402550697,-0.054042168
614.2166666664367,0.0711002,-1.141328,0.38853502,-2.0919185,-0.45208088,1.7878163,0.67972195,0.039995104,0.04,-4.136384,-6.997152805328369,5.460206,-0.011077143,-0.057057272642850876,-0.052289467
614.2333333331034,0.07117375,-1.1417016,0.38893962,-2.0916424,-0.45255196,1.7880423,0.67961127,0.039995097,0.04,-4.1262364,-7.002263069152832,5.461818,-0.010454997,-0.055200524628162384,-0.050555572
614.24999999977,0.071244664,-1.1420617,0.3893298,-2.091376,-0.4530062,1.78826,0.6795044,0.03999509,0.04,-4.1160393,-7.007251262664795,5.4633603,-0.0098409215,-0.05336637422442436,-0.04884222
614.2666666664367,0.07131299,-1.142409,0.38970557,-2.0911195,-0.4534437,1.7884699,0.6794015,0.03999508,0.04,-4.106456,-7.012037754058838,5.464839,-0.009233996,-0.05155811458826065,-0.047148064
614.2833333331033,0.07137872,-1.1427429,0.39006725,-2.090872,-0.4538647,1.7886719,0.6793026,0.039995074,0.04,-4.097176,-7.016603469848633,5.4662743,-0.008638012,-0.04977087303996086,-0.04547676
614.29999999977,0.0714419,-1.1430641,0.39041492,-2.0906348,-0.4542694,1.7888659,0.67920744,0.039995067,0.04,-4.0883274,-7.020992279052734,5.4676123,-0.008051222,-0.04800892248749733,-0.04382762
614.3166666664366,0.07150256,-1.1433725,0.3907488,-2.0904071,-0.45465815,1.7890522,0.67911613,0.039995063,0.04,-4.079994,-7.025254249572754,5.468942,-0.0074731614,-0.04627731442451477,-0.04220268
614.3333333331033,0.07156076,-1.1436684,0.3910692,-2.090188,-0.45503113,1.789231,0.6790286,0.039995056,0.04,-4.0719657,-7.029295444488525,5.470164,-0.0069043976,-0.04457322135567665,-0.040602192
614.3499999997699,0.07161652,-1.1439521,0.39137623,-2.0899777,-0.45538855,1.7894021,0.6789447,0.039995052,0.04,-4.064231,-7.03314733505249,5.471351,-0.0063466583,-0.042895663529634476,-0.039026726
614.3666666664366,0.07166989,-1.1442239,0.3916702,-2.0897768,-0.45573077,1.7895663,0.67886424,0.03999505,0.04,-4.056896,-7.0368266105651855,5.4724903,-0.00579967,-0.04124638810753822,-0.03747697
614.3833333331032,0.07172093,-1.1444839,0.39195135,-2.0895846,-0.45605797,1.7897233,0.67878723,0.039995044,0.04,-4.0499706,-7.040388584136963,5.4735856,-0.0052620107,-0.03962644562125206,-0.035954736
614.3999999997699,0.07176965,-1.1447318,0.3922199,-2.0894017,-0.4563705,1.7898734,0.6787138,0.03999504,0.04,-4.0434065,-7.04376745223999,5.474607,-0.00473389,-0.03803751990199089,-0.034458496
614.4166666664365,0.07181612,-1.1449679,0.392476,-2.0892274,-0.45666867,1.7900164,0.6786439,0.03999504,0.04,-4.0372953,-7.047036647796631,5.47556,-0.004214641,-0.03648283705115318,-0.032992005
614.4333333331032,0.071860366,-1.1451931,0.39271995,-2.0890613,-0.45695266,1.7901525,0.6785771,0.039995033,0.04,-4.031495,-7.050110816955566,5.4764752,-0.0037064448,-0.03496231883764267,-0.031556953
614.4499999997698,0.07190246,-1.1454078,0.39295205,-2.0889027,-0.45722285,1.7902821,0.67851365,0.03999503,0.04,-4.0259356,-7.053001403808594,5.4773736,-0.003209402,-0.033474430441856384,-0.030151442
614.4666666664365,0.071942426,-1.1456121,0.3931726,-2.0887518,-0.45747948,1.7904052,0.6784534,0.039995026,0.04,-4.0206203,-7.055708885192871,5.478225,-0.0027261118,-0.03201629966497421,-0.028776601
614.4833333331031,0.07198033,-1.1458056,0.3933817,-2.0886087,-0.45772296,1.7905221,0.67839617,0.039995022,0.04,-4.015825,-7.058283805847168,5.4790397,-0.0022556314,-0.03059093840420246,-0.027431577
614.4999999997698,0.072016224,-1.1459888,0.39357984,-2.0884733,-0.45795357,1.7906326,0.67834204,0.03999502,0.04,-4.0111957,-7.0607757568359375,5.4797764,-0.0017958727,-0.02920253574848175,-0.026119396
614.5166666664364,0.07205014,-1.1461619,0.39376715,-2.0883455,-0.45817155,1.790737,0.6782907,0.03999502,0.04,-4.0069866,-7.063112735748291,5.4804792,-0.0013482011,-0.02785172127187252,-0.024842262
614.5333333331031,0.07208214,-1.1463257,0.39394405,-2.0882244,-0.45837733,1.7908357,0.67824244,0.03999502,0.04,-4.003113,-7.06532621383667,5.4811482,-0.000912095,-0.026539655402302742,-0.023599783
614.5499999997697,0.07211229,-1.1464797,0.3941107,-2.0881102,-0.4585714,1.7909286,0.6781967,0.039995015,0.04,-3.9993997,-7.067365646362305,5.4817915,-0.0004904059,-0.025262976065278053,-0.022392267
614.5666666664364,0.07214064,-1.1466248,0.39426747,-2.0880032,-0.45875388,1.7910161,0.678154,0.03999501,0.04,-3.9960985,-7.0692925453186035,5.4823523,-8.076098e-05,-0.024025576189160347,-0.021222427
614.583333333103,0.07216724,-1.1467612,0.39441472,-2.087903,-0.45892528,1.7910982,0.6781138,0.039995003,0.04,-3.993109,-7.071126937866211,5.482941,0.0003151326,-0.022829879075288773,-0.020088531
614.5999999997697,0.07219217,-1.1468886,0.39455274,-2.0878088,-0.4590859,1.7911754,0.6780761,0.039995007,0.04,-3.9903703,-7.072852611541748,5.4834695,0.00069834595,-0.02167578600347042,-0.018993331
614.6166666664363,0.07221546,-1.1470076,0.39468175,-2.0877206,-0.4592362,1.7912476,0.67804086,0.039995007,0.04,-3.9878895,-7.074423789978027,5.483933,0.00106843,-0.020562900230288506,-0.017936973
614.633333333103,0.07223716,-1.1471189,0.39480227,-2.0876384,-0.4593765,1.7913147,0.6780079,0.039995003,0.04,-3.9856715,-7.07588529586792,5.484354,0.0014236905,-0.019492225721478462,-0.01692207
614.6499999997696,0.072257385,-1.1472228,0.3949146,-2.0875611,-0.4595072,1.7913773,0.6779771,0.039995003,0.04,-3.9836733,-7.07724666595459,5.484813,0.001764826,-0.018466029316186905,-0.015946466
614.6666666664363,0.07227616,-1.1473193,0.39501908,-2.0874898,-0.45962876,1.7914357,0.6779486,0.039995003,0.04,-3.9818323,-7.078469753265381,5.485217,0.002090098,-0.01748095080256462,-0.01501176
614.683333333103,0.07229359,-1.1474092,0.39511597,-2.0874236,-0.45974162,1.7914901,0.67792207,0.039995,0.04,-3.9804137,-7.079695701599121,5.485581,0.002401312,-0.01654263399541378,-0.014122317
614.6999999997696,0.07230969,-1.1474925,0.39520577,-2.0873616,-0.4598462,1.7915405,0.6778975,0.039994996,0.04,-3.9790714,-7.080721855163574,5.4859424,0.0026964773,-0.015648439526557922,-0.013274341
614.7166666664363,0.07232457,-1.1475694,0.39528874,-2.087305,-0.45994288,1.7915871,0.67787486,0.039994996,0.04,-3.977949,-7.081676959991455,5.486263,0.0029748618,-0.014799710363149643,-0.012469243
614.7333333331029,0.07233825,-1.1476406,0.39536536,-2.0872526,-0.46003217,1.79163,0.67785394,0.039994996,0.04,-3.9772704,-7.082609176635742,5.4865694,0.0032386493,-0.014002108946442604,-0.01171083
614.7499999997696,0.072350875,-1.1477062,0.3954361,-2.087205,-0.46011442,1.7916695,0.67783445,0.039995,0.04,-3.9764533,-7.083406925201416,5.4868493,0.0034853485,-0.013252218253910542,-0.010997578
614.7666666664362,0.07236249,-1.1477665,0.39550117,-2.0871603,-0.46019015,1.7917055,0.6778166,0.039995,0.04,-3.976093,-7.084230899810791,5.4871025,0.0037188197,-0.012556487694382668,-0.010333005
614.7833333331029,0.07237315,-1.147822,0.39556113,-2.0871198,-0.46025985,1.7917385,0.6778003,0.039995,0.04,-3.9756966,-7.084843158721924,5.48733,0.0039331242,-0.011909418739378452,-0.009716188
614.7999999997695,0.07238292,-1.1478728,0.39561623,-2.087082,-0.46032396,1.7917695,0.6777853,0.039995,0.04,-3.975595,-7.085496425628662,5.4875584,0.004131291,-0.011315837502479553,-0.00914824
614.8166666664362,0.0723919,-1.1479194,0.39566675,-2.087047,-0.460383,1.7917978,0.6777714,0.039994992,0.04,-3.9754179,-7.0860185623168945,5.487714,0.004312703,-0.01076569128781557,-0.008626549
614.8333333331028,0.07240015,-1.1479622,0.3957133,-2.0870156,-0.46043727,1.7918236,0.6777587,0.039994996,0.04,-3.975346,-7.086506366729736,5.4879055,0.00447961,-0.010261895135045052,-0.008145052
614.8499999997695,0.07240769,-1.1480017,0.39575616,-2.0869858,-0.46048725,1.7918477,0.67774683,0.039994996,0.04,-3.9753137,-7.087037563323975,5.4880795,0.0046343585,-0.009801303036510944,-0.00770386
614.8666666664361,0.072414644,-1.1480385,0.39579573,-2.0869586,-0.4605332,1.7918696,0.67773616,0.039994992,0.04,-3.9750865,-7.087421894073486,5.4882145,0.0047756336,-0.009372561238706112,-0.0072975536
614.8833333331028,0.07242103,-1.1480727,0.3958321,-2.0869348,-0.46057552,1.79189,0.67772615,0.039994992,0.04,-3.9749572,-7.087834358215332,5.488405,0.0049044304,-0.008978290483355522,-0.0069214725
614.8999999997694,0.07242688,-1.1481037,0.3958656,-2.086912,-0.46061447,1.7919085,0.67771715,0.039994996,0.04,-3.974977,-7.088260650634766,5.4885716,0.005025129,-0.008618507534265518,-0.0065748147
614.9166666664361,0.07243226,-1.1481315,0.3958965,-2.0868902,-0.46065027,1.7919258,0.67770875,0.039994992,0.04,-3.9748425,-7.088567733764648,5.488643,0.005134622,-0.00828621443361044,-0.0062578716
614.9333333331027,0.07243718,-1.1481583,0.39592478,-2.086871,-0.46068308,1.7919416,0.67770106,0.039994992,0.04,-3.974767,-7.088863372802734,5.48869,0.0052365945,-0.00797905120998621,-0.005965415
614.9499999997694,0.07244171,-1.1481819,0.39595097,-2.0868537,-0.46071345,1.791956,0.677694,0.039994992,0.04,-3.9746451,-7.0891432762146,5.4888964,0.005327854,-0.007695403881371021,-0.0056965793
614.966666666436,0.07244588,-1.1482049,0.3959749,-2.0868378,-0.4607413,1.7919695,0.67768747,0.039994992,0.04,-3.9747865,-7.089496612548828,5.4889235,0.0054161637,-0.007441434543579817,-0.0054494375
614.9833333331027,0.072449684,-1.1482247,0.3959969,-2.0868227,-0.460767,1.7919818,0.67768145,0.039994992,0.04,-3.9745703,-7.089658260345459,5.489095,0.005493661,-0.0072011882439255714,-0.0052202274
614.9999999997693,0.07245318,-1.1482439,0.39601725,-2.0868082,-0.4607907,1.791993,0.6776759,0.03999499,0.04,-3.9746363,-7.089917182922363,5.4890738,0.0055674016,-0.006984440144151449,-0.005013192
615.016666666436,0.0724564,-1.1482612,0.39603594,-2.0867949,-0.4608125,1.7920035,0.67767084,0.03999499,0.04,-3.9743617,-7.090049743652344,5.4892063,0.0056320135,-0.006779137998819351,-0.004818217
615.0333333331026,0.072459355,-1.1482769,0.39605308,-2.086783,-0.4608325,1.7920134,0.67766607,0.03999499,0.04,-3.974376,-7.090251445770264,5.48925,0.005692088,-0.006590953562408686,-0.0046397196
615.0499999997693,0.072462074,-1.1482923,0.39606887,-2.0867724,-0.46085083,1.7920222,0.6776616,0.039994985,0.04,-3.9743993,-7.090450286865234,5.489304,0.0057487255,-0.0064186230301856995,-0.004476462
615.0666666664359,0.07246456,-1.1483055,0.39608338,-2.0867639,-0.46086776,1.7920305,0.6776577,0.039994985,0.04,-3.9743135,-7.090620517730713,5.489442,0.0058000796,-0.006260449532419443,-0.0043249954
615.0833333331026,0.072466835,-1.1483175,0.39609674,-2.0867553,-0.46088335,1.7920372,0.6776541,0.039994985,0.04,-3.9745374,-7.090865135192871,5.4894333,0.0058504846,-0.00612186873331666,-0.0041884705
615.0999999997692,0.07246893,-1.1483291,0.39610907,-2.0867474,-0.46089768,1.7920439,0.6776508,0.039994985,0.04,-3.9744606,-7.090963840484619,5.48947,0.005896277,-0.005995770916342735,-0.0040631965
615.1166666664359,0.07247085,-1.1483405,0.39612043,-2.0867398,-0.46091083,1.7920506,0.67764765,0.039994985,0.04,-3.9743273,-7.091068744659424,5.4895444,0.005936833,-0.005875695031136274,-0.003945736
615.1333333331025,0.072472624,-1.1483498,0.39613086,-2.0867329,-0.46092296,1.7920568,0.6776447,0.039994985,0.04,-3.974168,-7.091132640838623,5.4896026,0.005972618,-0.005759282968938351,-0.003835969
615.1499999997692,0.07247425,-1.1483579,0.39614043,-2.086726,-0.4609342,1.7920623,0.67764205,0.039994985,0.04,-3.9742966,-7.091285228729248,5.489563,0.0060083503,-0.005656047258526087,-0.0037377272
615.1666666664358,0.072475724,-1.148366,0.39614922,-2.086719,-0.46094447,1.7920672,0.6776396,0.039994985,0.04,-3.9742665,-7.09135627746582,5.489572,0.0060410644,-0.005561410449445248,-0.0036477235
615.1833333331025,0.072477095,-1.1483737,0.39615744,-2.0867124,-0.46095386,1.7920717,0.6776375,0.039994985,0.04,-3.9740925,-7.0913896560668945,5.489645,0.0060683596,-0.005470613949000835,-0.0035630343
615.1999999997691,0.07247833,-1.1483815,0.39616486,-2.0867066,-0.46096247,1.7920755,0.67763555,0.039994985,0.04,-3.813911,-6.9103102684021,5.517029,0.0,-0.0,0.0
615.2166666664358,0.07247833,-1.1483815,0.39616486,-2.0867066,-0.46096247,1.7920755,0.67763555,0.039994985,0.04,-3.9764159,-7.0913496017456055,5.4897165,0.0,-0.0,0.0
615.2333333331025,0.07247833,-1.1483815,0.39616486,-2.0867066,-0.46096247,1.7920755,0.67763555,0.039994985,0.04,-3.9764159,-7.0913496017456055,5.4897165,0.0,-0.0,0.0
615.2499999997691,0.07247833,-1.1483815,0.39616486,-2.0867066,-0.46096247,1.7920755,0.67763555,0.039994985,0.04,-3.9764159,-7.0913496017456055,5.4897165,0.0,-0.0,0.0
615.2666666664358,0.07247833,-1.1483815,0.39616486,-2.0867066,-0.46096247,1.7920755,0.67763555,0.039994985,0.04,-3.9764159,-7.0913496017456055,5.4897165,0.0,-0.0,0.0
615.2833333331024,0.07247833,-1.1483815,0.39616486,-2.0867066,-0.46096247,1.7920755,0.67763555,0.039994985,0.04,-3.9764159,-7.0913496017456055,5.4897165,0.0,-0.0,0.0
615.299999999769,0.07247833,-1.1483815,0.39616486,-2.0867066,-0.46096247,1.7920755,0.67763555,0.039994985,0.04,-3.9764159,-7.0913496017456055,5.4897165,0.0,-0.0,0.0
615.3166666664357,0.07247833,-1.1483815,0.39616486,-2.0867066,-0.46096247,1.7920755,0.67763555,0.039994985,0.04,-3.9764159,-7.0913496017456055,5.4897165,0.0,-0.0,0.0
615.3333333331024,0.07247833,-1.1483815,0.39616486,-2.0867066,-0.46096247,1.7920755,0.67763555,0.039994985,0.04,-3.9764159,-7.0913496017456055,5.4897165,0.0,-0.0,0.0
615.349999999769,0.07247833,-1.1483815,0.39616486,-2.0867066,-0.46096247,1.7920755,0.67763555,0.039994985,0.04,-3.9764159,-7.0913496017456055,5.4897165,0.0,-0.0,0.0
615.3666666664357,0.07247833,-1.1483815,0.39616486,-2.0867066,-0.46096247,1.7920755,0.67763555,0.039994985,0.04,-3.9764159,-7.0913496017456055,5.4897165,0.0,-0.0,0.0
615.3833333331023,0.07247833,-1.1483815,0.39616486,-2.0867066,-0.46096247,1.7920755,0.67763555,0.039994985,0.04,-3.9764159,-7.0913496017456055,5.4897165,0.0,-0.0,0.0
615.399999999769,0.07247833,-1.1483815,0.39616486,-2.0867066,-0.46096247,1.7920755,0.67763555,0.039994985,0.04,-3.9764159,-7.0913496017456055,5.4897165,0.0,-0.0,0.0
615.4166666664356,0.07247833,-1.1483815,0.39616486,-2.0867066,-0.46096247,1.7920755,0.67763555,0.039994985,0.04,-3.9764159,-7.0913496017456055,5.4897165,0.0,-0.0,0.0
615.4333333331023,0.07247833,-1.1483815,0.39616486,-2.0867066,-0.46096247,1.7920755,0.67763555,0.039994985,0.04,-3.9764159,-7.0913496017456055,5.4897165,0.0,-0.0,0.0
615.4499999997689,0.07247833,-1.1483815,0.39616486,-2.0867066,-0.46096247,1.7920755,0.67763555,0.039994985,0.04,-3.9764159,-7.0913496017456055,5.4897165,0.0,-0.0,0.0
615.4666666664356,0.07247833,-1.1483815,0.39616486,-2.0867066,-0.46096247,1.7920755,0.67763555,0.039994985,0.04,-3.9764159,-7.0913496017456055,5.4897165,0.0,-0.0,0.0
615.4833333331022,0.07247833,-1.1483815,0.39616486,-2.0867066,-0.46096247,1.7920755,0.67763555,0.039994985,0.04,-3.9764159,-7.0913496017456055,5.4897165,0.0,-0.0,0.0
615.4999999997689,0.07247833,-1.1483815,0.39616486,-2.0867066,-0.46096247,1.7920755,0.67763555,0.039994985,0.04,-3.9764159,-7.0913496017456055,5.4897165,0.0,-0.0,0.0
615.5166666664355,0.07247833,-1.1483815,0.39616486,-2.0867066,-0.46096247,1.7920755,0.67763555,0.039994985,0.04,-3.9764159,-7.0913496017456055,5.4897165,0.0,-0.0,0.0
615.5333333331022,0.07247833,-1.1483815,0.39616486,-2.0867066,-0.46096247,1.7920755,0.67763555,0.039994985,0.04,-3.9764159,-7.0913496017456055,5.4897165,0.0,-0.0,0.0
615.5499999997688,0.07247833,-1.1483815,0.39616486,-2.0867066,-0.46096247,1.7920755,0.67763555,0.039994985,0.04,-3.9764159,-7.0913496017456055,5.4897165,0.0,-0.0,0.0
615.5666666664355,0.07247833,-1.1483815,0.39616486,-2.0867066,-0.46096247,1.7920755,0.67763555,0.039994985,0.04,-3.9764159,-7.0913496017456055,5.4897165,0.0,-0.0,0.0
615.5833333331021,0.07247833,-1.1483815,0.39616486,-2.0867066,-0.46096247,1.7920755,0.67763555,0.039994985,0.04,-3.9764159,-7.0913496017456055,5.4897165,0.0,-0.0,0.0
615.5999999997688,0.07247833,-1.1483815,0.39616486,-2.0867066,-0.46096247,1.7920755,0.67763555,0.039994985,0.04,-3.9764159,-7.0913496017456055,5.4897165,0.0,-0.0,0.0
615.6166666664354,0.07247833,-1.1483815,0.39616486,-2.0867066,-0.46096247,1.7920755,0.67763555,0.039994985,0.04,-3.9764159,-7.0913496017456055,5.4897165,0.0,-0.0,0.0
615.6333333331021,0.07247833,-1.1483815,0.39616486,-2.0867066,-0.46096247,1.7920755,0.67763555,0.039994985,0.04,-3.9764159,-7.0913496017456055,5.4897165,0.0,-0.0,0.0
615.6499999997687,0.07247833,-1.1483815,0.39616486,-2.0867066,-0.46096247,1.7920755,0.67763555,0.039994985,0.04,-3.9764159,-7.0913496017456055,5.4897165,0.0,-0.0,0.0
615.6666666664354,0.07247833,-1.1483815,0.39616486,-2.0867066,-0.46096247,1.7920755,0.67763555,0.039994985,0.04,-3.9764159,-7.0913496017456055,5.4897165,0.0,-0.0,0.0
615.683333333102,0.07247833,-1.1483815,0.39616486,-2.0867066,-0.46096247,1.7920755,0.67763555,0.039994985,0.04,-3.9764159,-7.0913496017456055,5.4897165,0.0,-0.0,0.0
615.6999999997687,0.07247833,-1.1483815,0.39616486,-2.0867066,-0.46096247,1.7920755,0.67763555,0.039994985,0.04,-3.9764159,-7.0913496017456055,5.4897165,0.0,-0.0,0.0
615.7166666664353,0.07247833,-1.1483815,0.39616486,-2.0867066,-0.46096247,1.7920755,0.67763555,0.039994985,0.04,-3.9764159,-7.0913496017456055,5.4897165,0.0,-0.0,0.0
615.733333333102,0.07247833,-1.1483815,0.39616486,-2.0867066,-0.46096247,1.7920755,0.67763555,0.039994985,0.04,-3.9764159,-7.0913496017456055,5.4897165,0.0,-0.0,0.0
615.7499999997686,0.07247833,-1.1483815,0.39616486,-2.0867066,-0.46096247,1.7920755,0.67763555,0.039994985,0.04,-3.9764159,-7.0913496017456055,5.4897165,0.0,-0.0,0.0
615.7666666664353,0.07247833,-1.1483815,0.39616486,-2.0867066,-0.46096247,1.7920755,0.67763555,0.039994985,0.04,-3.9764159,-7.0913496017456055,5.4897165,0.0,-0.0,0.0
615.783333333102,0.07247833,-1.1483815,0.39616486,-2.0867066,-0.46096247,1.7920755,0.67763555,0.039994985,0.04,-3.9764159,-7.0913496017456055,5.4897165,0.0,-0.0,0.0
615.7999999997686,0.07247833,-1.1483815,0.39616486,-2.0867066,-0.46096247,1.7920755,0.67763555,0.039994985,0.04,-3.9764159,-7.0913496017456055,5.4897165,0.0,-0.0,0.0
615.8166666664353,0.07247833,-1.1483815,0.39616486,-2.0867066,-0.46096247,1.7920755,0.67763555,0.039994985,0.04,-3.9764159,-7.0913496017456055,5.4897165,0.0,-0.0,0.0
615.8333333331019,0.07247833,-1.1483815,0.39616486,-2.0867066,-0.46096247,1.7920755,0.67763555,0.039994985,0.04,-3.9764159,-7.0913496017456055,5.4897165,0.0,-0.0,0.0
615.8499999997686,0.07247833,-1.1483815,0.39616486,-2.0867066,-0.46096247,1.7920755,0.67763555,0.039994985,0.04,-3.9764159,-7.0913496017456055,5.4897165,0.0,-0.0,0.0
615.8666666664352,0.07247833,-1.1483815,0.39616486,-2.0867066,-0.46096247,1.7920755,0.67763555,0.039994985,0.04,-3.9764159,-7.0913496017456055,5.4897165,0.0,-0.0,0.0
615.8833333331019,0.07247833,-1.1483815,0.39616486,-2.0867066,-0.46096247,1.7920755,0.67763555,0.039994985,0.04,-3.9764159,-7.0913496017456055,5.4897165,0.0,-0.0,0.0
615.8999999997685,0.07247833,-1.1483815,0.39616486,-2.0867066,-0.46096247,1.7920755,0.67763555,0.039994985,0.04,-3.9764159,-7.0913496017456055,5.4897165,0.0,-0.0,0.0
615.9166666664352,0.07247833,-1.1483815,0.39616486,-2.0867066,-0.46096247,1.7920755,0.67763555,0.039994985,0.04,-3.9764159,-7.0913496017456055,5.4897165,0.0,-0.0,0.0
615.9333333331018,0.07247833,-1.1483815,0.39616486,-2.0867066,-0.46096247,1.7920755,0.67763555,0.039994985,0.04,-3.9764159,-7.0913496017456055,5.4897165,0.0,-0.0,0.0
615.9499999997685,0.07247833,-1.1483815,0.39616486,-2.0867066,-0.46096247,1.7920755,0.67763555,0.039994985,0.04,-3.9764159,-7.0913496017456055,5.4897165,0.0,-0.0,0.0
615.9666666664351,0.07247833,-1.1483815,0.39616486,-2.0867066,-0.46096247,1.7920755,0.67763555,0.039994985,0.04,-3.9764159,-7.0913496017456055,5.4897165,0.0,-0.0,0.0
615.9833333331018,0.07247833,-1.1483815,0.39616486,-2.0867066,-0.46096247,1.7920755,0.67763555,0.039994985,0.04,-3.9764159,-7.0913496017456055,5.4897165,0.0,-0.0,0.0
615.9999999997684,0.07247833,-1.1483815,0.39616486,-2.0867066,-0.46096247,1.7920755,0.67763555,0.039994985,0.04,-3.9764159,-7.0913496017456055,5.4897165,0.0,-0.0,0.0
616.0166666664351,0.07247833,-1.1483815,0.39616486,-2.0867066,-0.46096247,1.7920755,0.67763555,0.039994985,0.04,-3.9764159,-7.0913496017456055,5.4897165,0.0,-0.0,0.0
616.0333333331017,0.07247833,-1.1483815,0.39616486,-2.0867066,-0.46096247,1.7920755,0.67763555,0.039994985,0.04,-3.9764159,-7.0913496017456055,5.4897165,0.0,-0.0,0.0
616.0499999997684,0.07247833,-1.1483815,0.39616486,-2.0867066,-0.46096247,1.7920755,0.67763555,0.039994985,0.04,-3.9764159,-7.0913496017456055,5.4897165,0.0,-0.0,0.0
616.066666666435,0.07247833,-1.1483815,0.39616486,-2.0867066,-0.46096247,1.7920755,0.67763555,0.039994985,0.04,-3.9764159,-7.0913496017456055,5.4897165,0.0,-0.0,0.0
616.0833333331017,0.07247833,-1.1483815,0.39616486,-2.0867066,-0.46096247,1.7920755,0.67763555,0.039994985,0.04,-3.9764159,-7.0913496017456055,5.4897165,0.0,-0.0,0.0
616.0999999997683,0.07247833,-1.1483815,0.39616486,-2.0867066,-0.46096247,1.7920755,0.67763555,0.039994985,0.04,-3.9764159,-7.0913496017456055,5.4897165,0.0,-0.0,0.0
616.116666666435,0.07247833,-1.1483815,0.39616486,-2.0867066,-0.46096247,1.7920755,0.67763555,0.039994985,0.04,-3.9764159,-7.0913496017456055,5.4897165,0.0,-0.0,0.0
616.1333333331016,0.07247833,-1.1483815,0.39616486,-2.0867066,-0.46096247,1.7920755,0.67763555,0.039994985,0.04,-3.9764159,-7.0913496017456055,5.4897165,0.0,-0.0,0.0
616.1499999997683,0.07247833,-1.1483815,0.39616486,-2.0867066,-0.46096247,1.7920755,0.67763555,0.039994985,0.04,-3.9764159,-7.0913496017456055,5.4897165,0.0,-0.0,0.0
616.1666666664349,0.07247833,-1.1483815,0.39616486,-2.0867066,-0.46096247,1.7920755,0.67763555,0.039994985,0.04,-3.9764159,-7.0913496017456055,5.4897165,0.0,-0.0,0.0
616.1833333331016,0.07247833,-1.1483815,0.39616486,-2.0867066,-0.46096247,1.7920755,0.67763555,0.039994985,0.04,-3.9764159,-7.0913496017456055,5.4897165,0.0,-0.0,0.0
616.1999999997682,0.07247833,-1.1483815,0.39616486,-2.0867066,-0.46096247,1.7920755,0.67763555,0.039994985,0.04,-3.9764159,-7.0913496017456055,5.4897165,0.0,-0.0,0.0
616.2166666664349,0.07247833,-1.1483815,0.39616486,-2.0867066,-0.46096247,1.7920755,0.67763555,0.039994985,0.04,-3.9764159,-7.0913496017456055,5.4897165,0.0,-0.0,0.0
616.2333333331015,0.07247833,-1.1483815,0.39616486,-2.0867066,-0.46096247,1.7920755,0.67763555,0.039994985,0.04,-3.9764159,-7.0913496017456055,5.4897165,0.0,-0.0,0.0
616.2499999997682,0.07247833,-1.1483815,0.39616486,-2.0867066,-0.46096247,1.7920755,0.67763555,0.039994985,0.04,-3.9764159,-7.0913496017456055,5.4897165,0.0,-0.0,0.0
616.2666666664348,0.07247833,-1.1483815,0.39616486,-2.0867066,-0.46096247,1.7920755,0.67763555,0.039994985,0.04,-3.9764159,-7.0913496017456055,5.4897165,0.0,-0.0,0.0
616.2833333331015,0.07247833,-1.1483815,0.39616486,-2.0867066,-0.46096247,1.7920755,0.67763555,0.039994985,0.04,-3.9764159,-7.0913496017456055,5.4897165,0.0,-0.0,0.0
616.2999999997681,0.07247833,-1.1483815,0.39616486,-2.0867066,-0.46096247,1.7920755,0.67763555,0.039994985,0.04,-3.9764159,-7.0913496017456055,5.4897165,0.0,-0.0,0.0
616.3166666664348,0.07247833,-1.1483815,0.39616486,-2.0867066,-0.46096247,1.7920755,0.67763555,0.039994985,0.04,-3.9764159,-7.0913496017456055,5.4897165,0.0,-0.0,0.0
616.3333333331015,0.07247833,-1.1483815,0.39616486,-2.0867066,-0.46096247,1.7920755,0.67763555,0.039994985,0.04,-3.9764159,-7.0913496017456055,5.4897165,0.0,-0.0,0.0
616.3499999997681,0.07247833,-1.1483815,0.39616486,-2.0867066,-0.46096247,1.7920755,0.67763555,0.039994985,0.04,-3.9764159,-7.0913496017456055,5.4897165,0.0,-0.0,0.0
616.3666666664348,0.07247833,-1.1483815,0.39616486,-2.0867066,-0.46096247,1.7920755,0.67763555,0.039994985,0.04,-3.9764159,-7.0913496017456055,5.4897165,0.0,-0.0,0.0
616.3833333331014,0.07247833,-1.1483815,0.39616486,-2.0867066,-0.46096247,1.7920755,0.67763555,0.039994985,0.04,-3.9764159,-7.0913496017456055,5.4897165,0.0,-0.0,0.0
616.399999999768,0.07247833,-1.1483815,0.39616486,-2.0867066,-0.46096247,1.7920755,0.67763555,0.039994985,0.04,-3.9764159,-7.0913496017456055,5.4897165,0.0,-0.0,0.0
616.4166666664347,0.07247833,-1.1483815,0.39616486,-2.0867066,-0.46096247,1.7920755,0.67763555,0.039994985,0.04,-3.9764159,-7.0913496017456055,5.4897165,0.0,-0.0,0.0
616.4333333331014,0.07247833,-1.1483815,0.39616486,-2.0867066,-0.46096247,1.7920755,0.67763555,0.039994985,0.04,-3.9764159,-7.0913496017456055,5.4897165,0.0,-0.0,0.0
616.449999999768,0.07247833,-1.1483815,0.39616486,-2.0867066,-0.46096247,1.7920755,0.67763555,0.039994985,0.04,-3.9764159,-7.0913496017456055,5.4897165,0.0,-0.0,0.0
616.4666666664347,0.07247833,-1.1483815,0.39616486,-2.0867066,-0.46096247,1.7920755,0.67763555,0.039994985,0.04,-3.9764159,-7.0913496017456055,5.4897165,0.0,-0.0,0.0
616.4833333331013,0.07247833,-1.1483815,0.39616486,-2.0867066,-0.46096247,1.7920755,0.67763555,0.039994985,0.04,-3.9764159,-7.0913496017456055,5.4897165,0.0,-0.0,0.0
616.499999999768,0.07247833,-1.1483815,0.39616486,-2.0867066,-0.46096247,1.7920755,0.67763555,0.039994985,0.04,-3.9764159,-7.0913496017456055,5.4897165,0.0,-0.0,0.0
616.5166666664346,0.07247833,-1.1483815,0.39616486,-2.0867066,-0.46096247,1.7920755,0.67763555,0.039994985,0.04,-3.9764159,-7.0913496017456055,5.4897165,0.0,-0.0,0.0
616.5333333331013,0.07247833,-1.1483815,0.39616486,-2.0867066,-0.46096247,1.7920755,0.67763555,0.039994985,0.04,-3.9764159,-7.0913496017456055,5.4897165,0.0,-0.0,0.0
616.5499999997679,0.07247833,-1.1483815,0.39616486,-2.0867066,-0.46096247,1.7920755,0.67763555,0.039994985,0.04,-3.9764159,-7.0913496017456055,5.4897165,0.0,-0.0,0.0
616.5666666664346,0.07247833,-1.1483815,0.39616486,-2.0867066,-0.46096247,1.7920755,0.67763555,0.039994985,0.04,-3.9764159,-7.0913496017456055,5.4897165,0.0,-0.0,0.0
616.5833333331012,0.07247833,-1.1483815,0.39616486,-2.0867066,-0.46096247,1.7920755,0.67763555,0.039994985,0.04,-3.9764159,-7.0913496017456055,5.4897165,0.0,-0.0,0.0
616.5999999997679,0.07247833,-1.1483815,0.39616486,-2.0867066,-0.46096247,1.7920755,0.67763555,0.039994985,0.04,-3.9764159,-7.0913496017456055,5.4897165,0.0,-0.0,0.0
616.6166666664345,0.07247833,-1.1483815,0.39616486,-2.0867066,-0.46096247,1.7920755,0.67763555,0.039994985,0.04,-3.9764159,-7.0913496017456055,5.4897165,0.0,-0.0,0.0
616.6333333331012,0.07247833,-1.1483815,0.39616486,-2.0867066,-0.46096247,1.7920755,0.67763555,0.039994985,0.04,-3.9764159,-7.0913496017456055,5.4897165,0.0,-0.0,0.0
616.6499999997678,0.07247833,-1.1483815,0.39616486,-2.0867066,-0.46096247,1.7920755,0.67763555,0.039994985,0.04,-3.9764159,-7.0913496017456055,5.4897165,0.0,-0.0,0.0
616.6666666664345,0.07247833,-1.1483815,0.39616486,-2.0867066,-0.46096247,1.7920755,0.67763555,0.039994985,0.04,-3.9764159,-7.0913496017456055,5.4897165,0.0,-0.0,0.0
616.6833333331011,0.07247833,-1.1483815,0.39616486,-2.0867066,-0.46096247,1.7920755,0.67763555,0.039994985,0.04,-3.9764159,-7.0913496017456055,5.4897165,0.0,-0.0,0.0
616.6999999997678,0.07247833,-1.1483815,0.39616486,-2.0867066,-0.46096247,1.7920755,0.67763555,0.039994985,0.04,-3.9764159,-7.0913496017456055,5.4897165,0.0,-0.0,0.0
616.7166666664344,0.07247833,-1.1483815,0.39616486,-2.0867066,-0.46096247,1.7920755,0.67763555,0.039994985,0.04,-3.9764159,-7.0913496017456055,5.4897165,0.0,-0.0,0.0
616.7333333331011,0.07247833,-1.1483815,0.39616486,-2.0867066,-0.46096247,1.7920755,0.67763555,0.039994985,0.04,-3.9764159,-7.0913496017456055,5.4897165,0.0,-0.0,0.0
616.7499999997677,0.07247833,-1.1483815,0.39616486,-2.0867066,-0.46096247,1.7920755,0.67763555,0.039994985,0.04,-3.9764159,-7.0913496017456055,5.4897165,0.0,-0.0,0.0
616.7666666664344,0.07247833,-1.1483815,0.39616486,-2.0867066,-0.46096247,1.7920755,0.67763555,0.039994985,0.04,-3.9764159,-7.0913496017456055,5.4897165,0.0,-0.0,0.0
616.783333333101,0.07247833,-1.1483815,0.39616486,-2.0867066,-0.46096247,1.7920755,0.67763555,0.039994985,0.04,-3.9764159,-7.0913496017456055,5.4897165,0.0,-0.0,0.0
616.7999999997677,0.07247833,-1.1483815,0.39616486,-2.0867066,-0.46096247,1.7920755,0.67763555,0.039994985,0.04,-3.9764159,-7.0913496017456055,5.4897165,0.0,-0.0,0.0
