rsonawane2002/My_IMU/logs_2/traj_318/imu_400hz_318.csv
time,j1,j2,j3,j4,j5,j6,j7,gripper1,gripper2,imu_ax,imu_ay,imu_az,imu_gx,imu_gy,imu_gz
0.0,0.00016700293,-0.785875,4.0107683e-05,-2.3551247,9.29385e-05,1.570997,0.786,0.04,0.04,-9.543085,0.0395036712288856,0.0830875,-1.384282e-07,-0.0011641274904832,5.2878625e-07
0.0025,0.000167002354,-0.785857774,4.010832035e-05,-2.35513919,9.294544050000001e-05,1.570996565,0.786,0.04,0.04,-9.58678375000004,0.03367228783899383,0.0719871458499899,-9.473339049996026e-08,-0.0013253154174891516,7.073794375001624e-07
0.005,0.000167001778,-0.785840548,4.01089577e-05,-2.3551536800000004,9.295238100000002e-05,1.57099613,0.786,0.04,0.04,-9.63048250000008,0.027840904449102054,0.060886791699979806,-5.1038580999920525e-08,-0.0014865033444951031,8.859726250003249e-07
0.0075,0.000167001202,-0.7858233219999999,4.010959505e-05,-2.3551681700000002,9.295932150000002e-05,1.570995695,0.786,0.04,0.04,-9.67418125000012,0.02200952105921028,0.04978643754996971,-7.343771499880788e-09,-0.0016476912715010549,1.0645658125004872e-06
0.01,0.00016700062599999999,-0.785806096,4.01102324e-05,-2.35518266,9.296626200000003e-05,1.5709952600000001,0.786,0.04,0.04,-9.717880000000159,0.016178137669318506,0.03868608339995962,3.635103800015896e-08,-0.0018088791985070064,1.2431590000006498e-06
0.0125,0.00016700004999999998,-0.78578887,4.011086975e-05,-2.3551971500000004,9.297320250000004e-05,1.570994825,0.786,0.04,0.04,-9.761578750000199,0.010346754279426728,0.027585729249949523,8.004584750019871e-08,-0.001970067125512958,1.4217521875008124e-06
0.015,0.00016699947399999998,-0.785771644,4.01115071e-05,-2.3552116400000003,9.298014300000005e-05,1.57099439,0.786,0.04,0.04,-9.805277500000239,0.004515370889534957,0.01648537509993943,1.2374065700023844e-07,-0.0021312550525189097,1.6003453750009746e-06
0.0175,0.00016699659699999996,-0.7857548645,4.011119659999998e-05,-2.3552257350000003,9.299063050000011e-05,1.57099396,0.786,0.04,0.04,-9.834314649999998,0.0006255710264666878,0.009011688164998598,2.4688000850179574e-07,-0.0022884252830417296,1.9916615550052007e-06
0.02,0.00016698911799999995,-0.7857389779999999,4.0108990399999984e-05,-2.3552390400000003,9.300821200000013e-05,1.5709935400000001,0.786,0.04,0.04,-9.834028599999998,0.0006189382169394718,0.008791335659998397,5.289084440020521e-07,-0.002437560120598505,2.808423720005943e-06
0.0225,0.00016698163899999993,-0.7857230914999999,4.010678419999998e-05,-2.3552523450000002,9.302579350000015e-05,1.57099312,0.786,0.04,0.04,-9.833742549999998,0.0006123054074122557,0.008570983154998197,8.109368795023084e-07,-0.0025866949581552804,3.625185885006685e-06
0.025,0.00016697415999999992,-0.7857072049999999,4.010457799999998e-05,-2.35526565,9.304337500000017e-05,1.5709927,0.786,0.04,0.04,-9.833456499999999,0.0006056725978850397,0.008350630649997996,1.0929653150025653e-06,-0.0027358297957120565,4.441948050007429e-06
0.0275,0.00016696668099999994,-0.7856913184999998,4.010237179999998e-05,-2.355278955,9.306095650000018e-05,1.57099228,0.786,0.04,0.04,-9.833170449999997,0.0005990397883578237,0.008130278144997796,1.3749937505028216e-06,-0.0028849646332688317,5.258710215008172e-06
0.03,0.00016695920199999992,-0.7856754319999998,4.010016559999997e-05,-2.35529226,9.30785380000002e-05,1.57099186,0.786,0.04,0.04,-9.832884399999998,0.0005924069788306077,0.007909925639997595,1.6570221860030779e-06,-0.0030340994708256074,6.075472380008914e-06
0.0325,0.0001669517229999999,-0.7856595454999998,4.0097959399999975e-05,-2.355305565,9.30961195000002e-05,1.57099144,0.786,0.04,0.04,-9.832598349999998,0.0005857741693033916,0.007689573134997395,1.9390506215033346e-06,-0.003183234308382383,6.892234545009656e-06
0.035,0.0001669319439999997,-0.7856445099999998,4.009080409999988e-05,-2.3553181,9.313288340000059e-05,1.57099101,0.786,0.04,0.04,-9.832325499999998,0.0005751556891480594,0.007487133169997536,2.504293930009001e-06,-0.0033252090914192424,8.52668474002602e-06
0.0375,0.00016690601499999965,-0.7856298999999998,4.008117424999987e-05,-2.35533025,9.317923850000063e-05,1.570990575,0.786,0.04,0.04,-9.832059249999997,0.0005625443736787779,0.00729364947499736,3.2111446750096426e-06,-0.003463603847196338,1.0569978950027875e-05
0.04,0.00016688008599999963,-0.7856152899999997,4.007154439999986e-05,-2.3553424,9.322559360000067e-05,1.57099014,0.786,0.04,0.04,-9.831792999999998,0.0005499330582094965,0.007100165779997184,3.917995420010286e-06,-0.003601998602973434,1.2613273160029736e-05
0.0425,0.00016685415699999962,-0.7856006799999997,4.006191454999985e-05,-2.35535455,9.327194870000071e-05,1.5709897050000001,0.786,0.04,0.04,-9.831526749999997,0.000537321742740215,0.0069066820849970085,4.62484616501093e-06,-0.00374039335875053,1.4656567370031596e-05
0.045,0.00016682822799999957,-0.7855860699999997,4.0052284699999844e-05,-2.3553667000000003,9.331830380000076e-05,1.57098927,0.786,0.04,0.04,-9.831260499999996,0.0005247104272709335,0.006713198389996833,5.331696910011571e-06,-0.0038787881145276254,1.669986158003345e-05
0.0475,0.00016680229899999956,-0.7855714599999998,4.0042654849999835e-05,-2.35537885,9.33646589000008e-05,1.570988835,0.786,0.04,0.04,-9.830994249999996,0.000512099111801652,0.006519714694996657,6.038547655012215e-06,-0.004017182870304722,1.874315579003531e-05
0.05,0.0001667763699999989,-0.7855568499999998,4.0033024999999576e-05,-2.355391,9.341101400000185e-05,1.5709884,0.786,0.04,0.04,-9.830727999999995,0.0004994877963322985,0.006326230999996944,6.745398400023714e-06,-0.004155577626081645,2.0786450000069167e-05
0.0525,0.00016671527649999885,-0.7855433874999997,4.000937164999955e-05,-2.3554021300000003,9.351211190000193e-05,1.57098798,0.786,0.04,0.04,-9.830470899999996,0.0004829152108864535,0.006158254954996792,8.049038590024898e-06,-0.004284455464223966,2.4588645050072617e-05
0.055,0.00016665418299999877,-0.7855299249999997,3.998571829999953e-05,-2.35541326,9.361320980000202e-05,1.57098756,0.786,0.04,0.04,-9.830213799999996,0.0004663426254406084,0.005990278909996639,9.352678780026084e-06,-0.0044133333023662884,2.839084010007608e-05
0.0575,0.00016659308949999873,-0.7855164624999997,3.996206494999951e-05,-2.35542439,9.371430770000212e-05,1.57098714,0.786,0.04,0.04,-9.829956699999995,0.0004497700399947633,0.005822302864996486,1.0656318970027272e-05,-0.004542211140508611,3.2193035150079545e-05
0.06,0.00016653199599999869,-0.7855029999999997,3.993841159999948e-05,-2.3554355200000003,9.381540560000222e-05,1.57098672,0.786,0.04,0.04,-9.829699599999994,0.0004331974545489183,0.005654326819996333,1.1959959160028456e-05,-0.004671088978650933,3.599523020008299e-05
0.0625,0.0001664709024999986,-0.7854895374999996,3.991475824999946e-05,-2.35544665,9.39165035000023e-05,1.5709863,0.786,0.04,0.04,-9.829442499999995,0.0004166248691030732,0.00548635077499618,1.3263599350029644e-05,-0.0047999668167932556,3.979742525008646e-05
0.065,0.00016640980899999857,-0.7854760749999996,3.989110489999944e-05,-2.35545778,9.40176014000024e-05,1.57098588,0.786,0.04,0.04,-9.829185399999995,0.0004000522836572281,0.005318374729996028,1.4567239540030831e-05,-0.004928844654935578,4.359962030008992e-05
0.0675,0.00016632990399999712,-0.7854629699999996,3.985998299999887e-05,-2.35546854,9.414779625000463e-05,1.57098563,0.786,0.04,0.04,-9.828944699999996,0.00038159398682118906,0.005154941649996209,1.611456735004997e-05,-0.005055086268114941,4.8117771650146125e-05
0.07,0.000166212375999997,-0.7854505799999997,3.981392399999883e-05,-2.3554785600000003,9.43361850000048e-05,1.57098572,0.786,0.04,0.04,-9.828736799999996,0.0003593642672051738,0.0050005944999960686,1.8149270400051822e-05,-0.005176055431368961,5.406783560015154e-05
0.0725,0.00016609484799999692,-0.7854381899999997,3.976786499999879e-05,-2.3554885800000003,9.452457375000498e-05,1.57098581,0.786,0.04,0.04,-9.828528899999995,0.0003371345475891587,0.0048462473499959295,2.018397345005366e-05,-0.00529702459462298,6.001789955015692e-05
0.075,0.0001659773199999968,-0.7854257999999996,3.9721805999998746e-05,-2.3554986,9.471296250000514e-05,1.5709859000000002,0.786,0.04,0.04,-9.828320999999995,0.00031490482797314346,0.004691900199995789,2.2218676500055515e-05,-0.005417993757877001,6.596796350016235e-05
0.0775,0.0001658597919999967,-0.7854134099999996,3.96757469999987e-05,-2.35550862,9.490135125000531e-05,1.57098599,0.786,0.04,0.04,-9.828113099999994,0.00029267510835712823,0.004537553049995648,2.4253379550057365e-05,-0.005538962921131021,7.191802745016776e-05
0.08,0.0001657422639999966,-0.7854010199999997,3.9629687999998657e-05,-2.3555186400000006,9.508974000000548e-05,1.5709860800000002,0.786,0.04,0.04,-9.827905199999995,0.000270445388741113,0.004383205899995508,2.6288082600059218e-05,-0.005659932084385041,7.786809140017318e-05
0.0825,0.00016562473599999647,-0.7853886299999997,3.9583628999998615e-05,-2.3555286600000005,9.527812875000566e-05,1.57098617,0.786,0.04,0.04,-9.827697299999995,0.00024821566912509776,0.004228858749995367,2.832278565006107e-05,-0.005780901247639061,8.381815535017859e-05
0.085,0.00016545255399999384,-0.7853768739999997,3.951592039999757e-05,-2.3555382900000006,9.555254150000981e-05,1.57098628,0.786,0.04,0.0399999995,-9.827473699999993,0.00022571360168441534,0.004081947729995572,3.088376550008734e-05,-0.005895332759249618,9.174372900027564e-05
0.08750000000000001,0.00016525304499999367,-0.7853654349999997,3.94373869999975e-05,-2.3555477250000005,9.58699662500101e-05,1.5709864,0.786,0.04,0.03999999875,-9.827242249999994,0.00020307536033141793,0.003938754774995441,3.370788375008991e-05,-0.006006495445038889,0.00010065705750028376
0.09,0.0001650535359999935,-0.7853539959999997,3.9358853599997426e-05,-2.3555571600000005,9.61873910000104e-05,1.57098652,0.786,0.04,0.039999998,-9.827010799999993,0.00018043711897842063,0.0037955618199953115,3.653200200009246e-05,-0.00611765813082816,0.00010957038600029183
0.0925,0.0001648540269999933,-0.7853425569999997,3.928032019999735e-05,-2.3555665950000004,9.650481575001068e-05,1.57098664,0.786,0.04,0.03999999725,-9.826779349999994,0.0001577988776254232,0.0036523688649951814,3.935612025009504e-05,-0.006228820816617431,0.00011848371450029995
0.095,0.0001646545179999931,-0.7853311179999997,3.9201786799997285e-05,-2.3555760300000004,9.682224050001097e-05,1.57098676,0.786,0.04,0.0399999965,-9.826547899999992,0.00013516063627242575,0.0035091759099950513,4.218023850009761e-05,-0.006339983502406702,0.00012739704300030805
0.0975,0.00016445500899999293,-0.7853196789999995,3.912325339999721e-05,-2.3555854650000003,9.713966525001127e-05,1.57098688,0.786,0.04,0.03999999575,-9.826316449999993,0.00011252239491942834,0.003365982954994921,4.500435675010018e-05,-0.006451146188195973,0.0001363103715003162
0.1,0.0001642554999999887,-0.7853082399999997,3.9044719999995545e-05,-2.3555949000000003,9.745709000001775e-05,1.570987,0.786,0.04,0.039999995,-9.826084999999996,8.988415356618662e-05,0.0032227899999958563,4.7828475000136883e-05,-0.006562308873985092,0.00014522370000042353
0.10250000000000001,0.00016394489499998844,-0.7852976889999996,3.892228999999543e-05,-2.355603615,9.794467700001819e-05,1.570987135,0.785999715,0.04,0.03999999575,-9.825943999999994,6.05308770889667e-05,0.003108898254995753,5.1590696250140305e-05,-0.006669275369499109,0.00015686469900043413
0.105,0.00016363428999998815,-0.7852871379999996,3.879985999999532e-05,-2.3556123300000005,9.843226400001863e-05,1.57098727,0.78599943,0.04,0.0399999965,-9.825802999999995,3.117760061174696e-05,0.0029950065099956496,5.535291750014371e-05,-0.006776241865013126,0.00016850569800044466
0.1075,0.00016332368499998785,-0.7852765869999996,3.8677429999995215e-05,-2.3556210450000004,9.891985100001908e-05,1.570987405,0.785999145,0.04,0.03999999725,-9.825661999999994,1.8243241345270545e-06,0.0028811147649955462,5.911513875014713e-05,-0.006883208360527143,0.00018014669700045527
0.11,0.00016301307999998758,-0.7852660359999996,3.85549999999951e-05,-2.3556297600000002,9.940743800001952e-05,1.57098754,0.78599886,0.04,0.039999998,-9.825520999999995,-2.7528952342692863e-05,0.0027672230199954424,6.287736000015055e-05,-0.006990174856041161,0.00019178769600046585
0.1125,0.0001627024749999873,-0.7852554849999996,3.843256999999499e-05,-2.3556384750000006,9.989502500001996e-05,1.570987675,0.785998575,0.04,0.03999999875,-9.825379999999994,-5.688222881991277e-05,0.0026533312749953387,6.663958125015399e-05,-0.007097141351555178,0.00020342869500047646
0.115,0.00016239186999998702,-0.7852449339999996,3.831013999999488e-05,-2.3556471900000004,0.0001003826120000204,1.57098781,0.78599829,0.04,0.0399999995,-9.825238999999993,-8.623550529713268e-05,0.002539439529995235,7.040180250015741e-05,-0.007204107847069195,0.00021506969400048704
0.11750000000000001,0.0001620333759999806,-0.7852346649999996,3.8168794499992344e-05,-2.3556555750000006,0.0001009447062500304,1.570988125,0.785998005,0.04,0.03999999975,-9.825098249999993,-0.0001149857882421925,0.0024310546149958374,7.491442130025707e-05,-0.007309886603620585,0.00022792164000065294
0.12,0.00016157910399998017,-0.7852249599999996,3.798961799999218e-05,-2.3556633000000007,0.00010165581500003105,1.5709888,0.78599772,0.04,0.039999999,-9.824957999999993,-0.0001425300841231624,0.0023336833599957494,8.092783520026251e-05,-0.007413289882247174,0.00024319548000066677
0.1225,0.00016112483199997977,-0.7852152549999996,3.7810441499992014e-05,-2.3556710250000004,0.0001023669237500317,1.570989475,0.785997435,0.04,0.03999999825,-9.824817749999994,-0.0001700743800041325,0.002236312104995661,8.694124910026798e-05,-0.007516693160873763,0.0002584693200006807
0.125,0.00016067055999997935,-0.7852055499999996,3.763126499999185e-05,-2.3556787500000005,0.00010307803250003235,1.57099015,0.78599715,0.04,0.0399999975,-9.824677499999993,-0.00019761867588510257,0.002138940849995572,9.295466300027346e-05,-0.007620096439500353,0.00027374316000069456
0.1275,0.00016021628799997893,-0.7851958449999996,3.745208849999169e-05,-2.355686475,0.00010378914125003298,1.570990825,0.785996865,0.04,0.03999999675,-9.824537249999993,-0.00022516297176607266,0.0020415695949954835,9.896807690027893e-05,-0.007723499718126942,0.00028901700000070845
0.13,0.00015976201599997853,-0.7851861399999995,3.727291199999152e-05,-2.3556942000000003,0.00010450025000003363,1.5709915,0.7859965800000001,0.04,0.039999996,-9.824396999999994,-0.00025270726764704273,0.001944198339995395,0.0001049814908002844,-0.00782690299675353,0.0003042908400007224
0.1325,0.0001593077439999781,-0.7851764349999996,3.709373549999136e-05,-2.3557019250000004,0.00010521135875003428,1.570992175,0.785996295,0.04,0.03999999525,-9.824256749999995,-0.0002802515635280128,0.001846827084995306,0.00011099490470028988,-0.00793030627538012,0.00031956468000073627
0.135,0.0001587340779999689,-0.7851672199999996,3.6867467999987726e-05,-2.3557094600000004,0.00010610504850004838,1.57099287,0.78599601,0.04,0.0399999955,-9.824081399999992,-0.00030971750966421447,0.0017533068399955012,0.00011763794340034173,-0.008029038645331775,0.0003370928600009163
0.1375,0.00015810071499996832,-0.7851582499999995,3.66176549999875e-05,-2.3557169000000004,0.00010709002875004928,1.570993575,0.785995725,0.04,0.03999999625,-9.823888499999992,-0.00034014428092782214,0.0016617120999954178,0.00012459579450034808,-0.008125435560946474,0.0003557482100009332
0.14,0.00015746735199996775,-0.7851492799999995,3.636784199998728e-05,-2.35572434,0.00010807500900005017,1.57099428,0.78599544,0.04,0.039999997,-9.82369559999999,-0.0003705710521914299,0.0015701173599953345,0.00013155364560035442,-0.00822183247656117,0.0003744035600009502
0.14250000000000002,0.00015683398899996718,-0.7851403099999995,3.6118028999987045e-05,-2.35573178,0.00010905998925005107,1.570994985,0.7859951550000001,0.04,0.03999999775,-9.82350269999999,-0.0004009978234550376,0.001478522619995251,0.00013851149670036073,-0.008318229392175868,0.0003930589100009672
0.145,0.0001562006259999666,-0.7851313399999995,3.586821599998682e-05,-2.3557392200000002,0.00011004496950005195,1.57099569,0.78599487,0.04,0.0399999985,-9.82330979999999,-0.0004314245947186449,0.0013869278799951686,0.000145469347800367,-0.008414626307790565,0.000411714260000984
0.1475,0.00015556726299996603,-0.7851223699999995,3.5618402999986596e-05,-2.3557466600000003,0.00011102994975005285,1.570996395,0.785994585,0.04,0.03999999925,-9.82311689999999,-0.00046185136598225263,0.0012953331399950853,0.00015242719890037334,-0.008511023223405263,0.000430369610001001
0.15,0.0001549338999999536,-0.7851133999999995,3.5368589999981695e-05,-2.3557541000000004,0.00011201493000007202,1.5709971,0.7859943,0.04,0.04,-9.822923999999997,-0.0004922781372456329,0.0012037383999963676,0.00015938505000043042,-0.008607420139019937,0.00044902496000125125
0.1525,0.0001540833084999528,-0.7851051049999995,3.503314349998139e-05,-2.35576058,0.00011333479800007322,1.570998375,0.7859937300000001,0.04,0.04,-9.822850199999996,-0.0005185368063407818,0.001137172185996307,0.0001672729830004376,-0.008703403128316346,0.0004719559250012721
0.155,0.00015323271699995203,-0.7850968099999995,3.4697696999981084e-05,-2.3557670600000002,0.00011465466600007443,1.57099965,0.78599316,0.04,0.04,-9.822776399999995,-0.0005447954754359307,0.0010706059719962464,0.0001751609160004448,-0.008799386117612752,0.000494886890001293
0.1575,0.00015238212549995126,-0.7850885149999995,3.436225049998078e-05,-2.3557735400000004,0.00011597453400007563,1.571000925,0.78599259,0.04,0.04,-9.822702599999996,-0.0005710541445310796,0.0010040397579961858,0.00018304884900045197,-0.008895369106909159,0.000517817855001314
0.16,0.00015153153399995048,-0.7850802199999994,3.402680399998047e-05,-2.35578002,0.00011729440200007683,1.5710022000000001,0.78599202,0.04,0.04,-9.822628799999995,-0.0005973128136262285,0.0009374735439961252,0.00019093678200045915,-0.008991352096205567,0.0005407488200013348
0.1625,0.0001506809424999497,-0.7850719249999994,3.369135749998017e-05,-2.3557865000000002,0.00011861427000007803,1.571003475,0.78599145,0.04,0.04,-9.822554999999996,-0.0006235714827213774,0.0008709073299960646,0.00019882471500046634,-0.009087335085501974,0.0005636797850013557
0.165,0.00014983035099994893,-0.7850636299999995,3.335591099997986e-05,-2.3557929800000004,0.00011993413800007923,1.57100475,0.78599088,0.04,0.04,-9.822481199999995,-0.0006498301518165263,0.0008043411159960041,0.00020671264800047352,-0.009183318074798382,0.0005866107500013765
0.1675,0.00014889389599993246,-0.7850555269999995,3.298663699997337e-05,-2.3557993600000002,0.0001213861745001046,1.5710061,0.78599027,0.03999999975,0.04,-9.82237784999999,-0.00067693561141088,0.0007386321739961002,0.0002153647425006204,-0.00927764540538746,0.0006108725695016408
0.17,0.00014778571399993144,-0.7850478079999995,3.2549707999972976e-05,-2.3558055400000004,0.00012310254800010616,1.5710076,0.78598958,0.039999999,0.04,-9.822215399999989,-0.0007057346520031812,0.0006746377759960419,0.00022554516000062967,-0.009368661418562789,0.0006377960980016652
0.17250000000000001,0.00014667753199993044,-0.7850400889999994,3.2112778999972574e-05,-2.35581172,0.00012481892150010773,1.5710091,0.7859888899999999,0.03999999825,0.04,-9.82205294999999,-0.0007345336925954825,0.0006106433779959837,0.00023572557750063894,-0.009459677431738117,0.0006647196265016897
0.17500000000000002,0.00014556934999992944,-0.7850323699999995,3.167584999997218e-05,-2.3558179000000004,0.0001265352950001093,1.5710106,0.7859882,0.0399999975,0.04,-9.82189049999999,-0.0007633327331877837,0.0005466489799959254,0.0002459059950006482,-0.009550693444913445,0.0006916431550017143
0.1775,0.00014446116799992845,-0.7850246509999995,3.1238920999971784e-05,-2.35582408,0.00012825166850011083,1.5710121000000001,0.78598751,0.03999999675,0.04,-9.821728049999988,-0.0007921317737800847,0.00048265458199586784,0.00025608641250065737,-0.009641709458088772,0.0007185666835017385
0.18,0.00014335298599992745,-0.7850169319999994,3.080199199997139e-05,-2.3558302600000003,0.0001299680420001124,1.5710136000000001,0.78598682,0.039999996,0.04,-9.821565599999989,-0.0008209308143723858,0.0004186601839958096,0.00026626683000066664,-0.0097327254712641,0.0007454902120017631
0.1825,0.00014224480399992642,-0.7850092129999995,3.036506299997099e-05,-2.3558364400000005,0.00013168441550011396,1.5710151,0.78598613,0.03999999525,0.04,-9.82140314999999,-0.0008497298549646871,0.00035466578599575133,0.00027644724750067586,-0.009823741484439426,0.0007724137405017875
0.185,0.00014093660799990523,-0.7850018719999995,2.984936119996264e-05,-2.3558420300000003,0.0001337086680001466,1.5710168400000002,0.7859853269999999,0.039999994500000004,0.039999999,-9.821311249999995,-0.0008744133228916828,0.00030608747699724934,0.00028756745300078003,-0.009915080759680438,0.0008024583650021271
0.1875,0.00013952840499990396,-0.7849947199999995,2.9294272999962135e-05,-2.3558473250000005,0.0001358868600001486,1.5710187000000002,0.7859844675,0.039999993750000004,0.0399999975,-9.821254624999996,-0.0008970390044866433,0.00026521721249721215,0.0002991575525007906,-0.01000658166595424,0.0008340635375021559
0.19,0.00013812020199990266,-0.7849875679999995,2.873918479996163e-05,-2.3558526200000003,0.00013806505200015056,1.5710205600000002,0.7859836079999999,0.039999993000000005,0.039999996,-9.821197999999995,-0.000919664686081604,0.00022434694799717492,0.0003107476520008011,-0.010098082572228044,0.0008656687100021846
0.1925,0.00013671199899990138,-0.7849804159999995,2.8184096599961123e-05,-2.355857915,0.00014024324400015257,1.5710224200000003,0.7859827484999999,0.03999999225,0.0399999945,-9.821141374999996,-0.0009422903676765646,0.00018347668349713773,0.0003223377515008117,-0.010189583478501848,0.0008972738825022134
0.195,0.00013530379599990008,-0.7849732639999994,2.7629008399960617e-05,-2.3558632100000003,0.00014242143600015454,1.5710242800000003,0.7859818889999999,0.0399999915,0.039999993,-9.821084749999997,-0.0009649160492715251,0.0001426064189971005,0.00033392785100082225,-0.010281084384775652,0.0009288790550022422
0.1975,0.0001338955929998988,-0.7849661119999994,2.7073920199960115e-05,-2.355868505,0.00014459962800015652,1.5710261400000003,0.7859810294999999,0.03999999075,0.0399999915,-9.821028124999996,-0.0009875417308664858,0.00010173615449706331,0.00034551795050083276,-0.010372585291049454,0.0009604842275022709
0.2,0.0001324873899998725,-0.7849589599999995,2.651883199994975e-05,-2.3558738000000004,0.000146777820000197,1.5710280000000003,0.7859801699999999,0.03999999,0.03999999,-9.82097149999999,-0.0010101674124613845,6.086588999784891e-05,0.00035710805000096135,-0.010464086197323075,0.0009920894000026252
0.2025,0.00013073500149987088,-0.7849522759999995,2.582823484994912e-05,-2.3558789600000005,0.00014948524950019948,1.5710304300000002,0.7859790254999999,0.0399999897,0.0399999897,-9.82083072499999,-0.0010319427237861544,3.1303354497822e-05,0.00037031998250097335,-0.010553081892437286,0.001028168120002658
0.20500000000000002,0.0001289826129998693,-0.7849455919999995,2.513763769994849e-05,-2.3558841200000002,0.00015219267900020195,1.5710328600000003,0.7859778809999999,0.0399999894,0.0399999894,-9.82068994999999,-0.001053718035110924,1.7408189977950858e-06,0.0003835319150009854,-0.010642077587551497,0.001064246840002691
0.20750000000000002,0.0001272302244998677,-0.7849389079999995,2.444704054994786e-05,-2.3558892800000004,0.0001549001085002044,1.5710352900000002,0.7859767364999999,0.0399999891,0.0399999891,-9.82054917499999,-0.001075493346435694,-2.782171650223183e-05,0.0003967438475009974,-0.01073107328266571,0.0011003255600027238
0.21,0.00012547783599986613,-0.7849322239999995,2.375644339994724e-05,-2.35589444,0.00015760753800020684,1.5710377200000003,0.7859755919999999,0.0399999888,0.0399999888,-9.82040839999999,-0.0010972686577604635,-5.738425200225841e-05,0.0004099557800010093,-0.010820068977779918,0.0011364042800027562
0.2125,0.00012372544749986454,-0.7849255399999995,2.3065846249946613e-05,-2.3558996000000003,0.00016031496750020929,1.5710401500000002,0.7859744474999999,0.0399999885,0.0399999885,-9.820267624999989,-0.0011190439690852334,-8.694678750228532e-05,0.0004231677125010213,-0.010909064672894129,0.001172483000002789
0.215,0.00012197305899986294,-0.7849188559999994,2.2375249099945984e-05,-2.3559047600000005,0.00016302239700021176,1.5710425800000003,0.7859733029999999,0.0399999882,0.0399999882,-9.820126849999989,-0.001140819280410003,-0.00011650932300231223,0.00043637964500103335,-0.010998060368008341,0.0012085617200028218
0.2175,0.0001200907069998305,-0.7849123214999996,2.1633502649933213e-05,-2.35590963,0.00016592959400026165,1.5710452150000003,0.7859720629999999,0.0399999878,0.0399999878,-9.820025049999998,-0.001160660566530504,-0.00014378055200179525,0.00045027819250120836,-0.011087433435029881,0.0012462275450032315
0.22,0.00011794842799982855,-0.7849060859999996,2.0789457599932444e-05,-2.3559139200000003,0.00016923632600026467,1.5710482600000002,0.785970632,0.0399999872,0.0399999872,-9.820001199999998,-0.0011766338022438385,-0.0001664691680018159,0.00046554997000122225,-0.011177561245865813,0.0012870675800032687
0.2225,0.00011580614899982659,-0.7848998504999994,1.9945412549931675e-05,-2.3559182100000005,0.00017254305800026767,1.5710513050000003,0.7859692009999999,0.0399999866,0.0399999866,-9.819977349999998,-0.001192607037957173,-0.00018915778400183656,0.0004808217475012362,-0.011267689056701745,0.0013279076150033058
0.225,0.00011366386999982465,-0.7848936149999994,1.910136749993091e-05,-2.3559225,0.0001758497900002707,1.5710543500000003,0.7859677699999998,0.039999986,0.039999986,-9.819953499999999,-0.0012085802736705076,-0.0002118464000018572,0.0004960935250012501,-0.011357816867537677,0.001368747650003343
0.2275,0.0001115215909998227,-0.7848873794999994,1.825732244993014e-05,-2.3559267900000003,0.00017915652200027368,1.5710573950000004,0.7859663389999999,0.0399999854,0.0399999854,-9.819929649999999,-0.0012245535093838422,-0.00023453501600187785,0.000511365302501264,-0.011447944678373609,0.0014095876850033803
0.23,0.00010937931199982075,-0.7848811439999994,1.7413277399929373e-05,-2.3559310800000004,0.0001824632540002767,1.5710604400000003,0.7859649079999999,0.0399999848,0.0399999848,-9.819905799999999,-0.0012405267450971767,-0.0002572236320018985,0.0005266370800012779,-0.01153807248920954,0.0014504277200034174
0.2325,0.0001072370329998188,-0.7848749084999994,1.6569232349928604e-05,-2.35593537,0.00018576998600027973,1.5710634850000003,0.7859634769999998,0.039999984200000005,0.039999984200000005,-9.81988195,-0.0012564999808105113,-0.00027991224800191913,0.0005419088575012918,-0.011628200300045473,0.0014912677550034546
0.23500000000000001,0.00010480350399977948,-0.7848689169999995,1.5610577099913136e-05,-2.3559394900000004,0.00018952419500034012,1.5710671200000004,0.7859618999999999,0.039999983600000004,0.039999983600000004,-9.81978959999999,-0.0012692586286002835,-0.00029099506300045143,0.0005585359810014796,-0.011716930195696716,0.0015353691400039101
0.23750000000000002,0.00010222434999977714,-0.7848630474999995,1.4594616749912212e-05,-2.3559435250000003,0.00019350214250034374,1.5710710500000005,0.7859602499999998,0.039999983,0.039999983,-9.81966299999999,-0.0012804099824288886,-0.0002962749775004562,0.0005758407775014952,-0.011804961133755882,0.0015811012000039517
0.24,9.964519599977483e-05,-0.7848571779999994,1.3578656399911299e-05,-2.35594756,0.00019748009000034733,1.5710749800000003,0.7859585999999998,0.0399999824,0.0399999824,-9.81953639999999,-0.0012915613362574937,-0.00030155489200046096,0.0005931455740015108,-0.011892992071815047,0.0016268332600039928
0.2425,9.706604199977247e-05,-0.7848513084999994,1.2562696049910374e-05,-2.3559515950000005,0.00020145803750035095,1.5710789100000004,0.7859569499999999,0.0399999818,0.0399999818,-9.819409799999988,-0.0013027126900860989,-0.00030683480650046577,0.0006104503705015266,-0.011981023009874211,0.0016725653200040343
0.245,9.448688799977013e-05,-0.7848454389999995,1.1546735699909448e-05,-2.3559556300000004,0.00020543598500035457,1.5710828400000003,0.7859552999999998,0.0399999812,0.0399999812,-9.819283199999989,-0.001313864043914704,-0.0003121147210004706,0.0006277551670015424,-0.012069053947933376,0.001718297380004076
0.2475,9.190773399976777e-05,-0.7848395694999994,1.0530775349908524e-05,-2.3559596650000003,0.0002094139325003582,1.5710867700000004,0.7859536499999998,0.0399999806,0.0399999806,-9.819156599999989,-0.0013250153977433091,-0.00031739463550047535,0.0006450599635015582,-0.012157084885992542,0.0017640294400041176
0.25,8.932857999972132e-05,-0.7848336999999994,9.514814999890245e-06,-2.3559637000000007,0.00021339188000042955,1.5710907000000005,0.7859519999999998,0.03999998,0.03999998,-9.819029999999996,-0.0013361667515711716,-0.00032267455000000117,0.0006623647600017211,-0.012245115824051713,0.0018097615000046263
0.2525,8.626445799971853e-05,-0.7848281949999995,8.308050704889147e-06,-2.3559672400000005,0.00021811476800043386,1.5710954250000004,0.7859500499999998,0.03999998,0.039999979549999995,-9.818985899999996,-0.0013391529268121294,-0.0003226877995000012,0.0006812879455017384,-0.012333224434413604,0.0018606289750046727
0.255,8.320033599971574e-05,-0.7848226899999995,7.101286409888048e-06,-2.3559707800000003,0.00022283765600043814,1.5711001500000006,0.7859480999999998,0.03999998,0.0399999791,-9.818941799999996,-0.0013421391020530871,-0.0003227010490000012,0.0007002111310017555,-0.012421333044775494,0.001911496450004719
0.2575,8.013621399971295e-05,-0.7848171849999994,5.89452211488695e-06,-2.3559743200000005,0.00022756054400044245,1.5711048750000005,0.7859461499999998,0.03999998,0.03999997865,-9.818897699999996,-0.0013451252772940447,-0.00032271429850000123,0.0007191343165017728,-0.012509441655137383,0.0019623639250047654
0.26,7.707209199971016e-05,-0.7848116799999995,4.6877578198858514e-06,-2.3559778600000003,0.00023228343200044677,1.5711096000000004,0.7859441999999999,0.03999998,0.0399999782,-9.818853599999995,-0.0013481114525350025,-0.00032272754800000125,0.0007380575020017899,-0.012597550265499274,0.0020132314000048117
0.2625,7.400796999970737e-05,-0.7848061749999995,3.480993524884753e-06,-2.3559814,0.00023700632000045105,1.5711143250000006,0.7859422499999998,0.03999998,0.03999997775,-9.818809499999995,-0.0013510976277759602,-0.0003227407975000013,0.0007569806875018072,-0.012685658875861164,0.002064098875004858
0.265,7.094384799970458e-05,-0.7848006699999994,2.2742292298836546e-06,-2.3559849400000004,0.00024172920800045536,1.5711190500000005,0.7859402999999998,0.03999998,0.039999977299999996,-9.818765399999995,-0.0013540838030169178,-0.00032275404700000124,0.0007759038730018244,-0.012773767486223053,0.002114966350004904
0.2675,6.770172984964983e-05,-0.7847952629999995,9.97442664862111e-07,-2.3559883,0.00024672536650053944,1.5711239800000005,0.7859382349999998,0.03999997985,0.039999976799999996,-9.818716549999994,-0.0013551305513825644,-0.0003148830324976993,0.0007954438835020217,-0.012862025294461442,0.0021674907300054344
0.27,6.410361939964656e-05,-0.7847900519999995,-4.193884401391789e-07,-2.3559913,0.0002522680660005445,1.5711293200000005,0.7859359399999998,0.039999979399999996,0.0399999762,-9.818658199999994,-0.0013522984459992818,-0.0002912434899976778,0.0008162175440020406,-0.012950581498452698,0.002223328920005485
0.2725,6.050550894964328e-05,-0.7847848409999995,-1.8362195451404685e-06,-2.3559943000000003,0.00025781076550054953,1.5711346600000005,0.7859336449999998,0.03999997895,0.0399999756,-9.818599849999993,-0.001349466340615999,-0.0002676039474976563,0.0008369912045020595,-0.013039137702443955,0.002279167110005536
0.275,5.690739849964e-05,-0.7847796299999995,-3.2530506501417588e-06,-2.3559973000000003,0.0002633534650005546,1.5711400000000004,0.7859313499999998,0.0399999785,0.039999975,-9.818541499999993,-0.0013466342352327165,-0.00024396440499763476,0.0008577648650020784,-0.013127693906435211,0.0023350053000055866
0.2775,5.330928804963672e-05,-0.7847744189999994,-4.669881755143048e-06,-2.3560003000000003,0.0002688961645005596,1.5711453400000006,0.7859290549999998,0.039999978049999996,0.0399999744,-9.818483149999993,-0.001343802129849434,-0.00022032486249761325,0.0008785385255020973,-0.013216250110426465,0.0023908434900056378
0.28,4.9711177599633444e-05,-0.7847692079999995,-6.086712860144338e-06,-2.3560033000000002,0.0002744388640005647,1.5711506800000006,0.7859267599999997,0.0399999776,0.0399999738,-9.818424799999994,-0.0013409700244661515,-0.00019668531999759173,0.0008993121860021163,-0.013304806314417722,0.0024466816800056885
0.28250000000000003,4.611306714963017e-05,-0.7847639969999995,-7.503543965145628e-06,-2.3560063,0.0002799815635005697,1.5711560200000005,0.7859244649999998,0.03999997715,0.039999973200000004,-9.818366449999994,-0.001338137919082869,-0.0001730457774975702,0.0009200858465021352,-0.013393362518408978,0.0025025198700057392
0.28500000000000003,4.2125806099566364e-05,-0.7847589579999995,-9.073437800170726e-06,-2.3560092100000003,0.00028612158700066766,1.5711620800000006,0.7859219849999998,0.0399999766,0.039999972700000004,-9.818305599999993,-0.0013290186645449683,-0.0001389686054959252,0.0009421565500023558,-0.013482749462136923,0.0025618083000063267
0.28750000000000003,3.794396974956256e-05,-0.7847540049999995,-1.0719863000172225e-05,-2.356012075,0.00029256027250067353,1.5711685000000006,0.7859194124999997,0.039999976,0.03999997225,-9.818243499999992,-0.0013167558354312172,-9.967261874588944e-05,0.0009648757750023765,-0.01357255177573302,0.002622821850006382
0.29,3.376213339955885e-05,-0.7847490519999994,-1.2366288200173687e-05,-2.35601494,0.00029899895800067925,1.5711749200000007,0.7859168399999997,0.0399999754,0.0399999718,-9.818181399999993,-0.0013044930063174664,-6.037663199585454e-05,0.0009875950000023967,-0.013662354089329113,0.0026838354000064367
0.2925,2.9580297049555036e-05,-0.7847440989999995,-1.4012713400175188e-05,-2.3560178050000005,0.0003054376435006851,1.5711813400000008,0.7859142674999997,0.0399999748,0.03999997135,-9.818119299999992,-0.0012922301772037151,-2.108064524581878e-05,0.0010103142250024173,-0.01375215640292521,0.002744848950006492
0.295,2.539846069955123e-05,-0.7847391459999995,-1.5659138600176685e-05,-2.3560206700000004,0.000311876329000691,1.5711877600000008,0.7859116949999997,0.0399999742,0.0399999709,-9.818057199999993,-0.0012799673480899639,1.8215341504216996e-05,0.0010330334500024381,-0.013841958716521307,0.0028058625000065476
0.2975,2.1216624349547423e-05,-0.7847341929999995,-1.7305563800178186e-05,-2.3560235350000003,0.00031831501450069687,1.5711941800000007,0.7859091224999997,0.0399999736,0.039999970450000005,-9.817995099999994,-0.0012677045189762128,5.751132825425277e-05,0.0010557526750024587,-0.013931761030117404,0.0028668760500066034
0.3,1.7034787999474415e-05,-0.7847292399999994,-1.8951989000206897e-05,-2.3560264000000006,0.0003247537000008089,1.571200600000001,0.7859065499999996,0.039999973,0.03999997,-9.817932999999998,-0.0012554416898610929,9.680731500482944e-05,0.0010784719000026517,-0.014021563343713676,0.00292788960000723
0.3025,1.221887974947003e-05,-0.7847244834999995,-2.0847782150208623e-05,-2.3560287400000006,0.00033216543250081564,1.571207950000001,0.7859035649999997,0.03999997255,0.0399999694,-9.817912299999998,-0.0012306364951627903,0.00014105940675486974,0.0011027688550026738,-0.014112970232973573,0.0029941367400072904
0.305,7.402971499465646e-06,-0.7847197269999995,-2.2743575300210352e-05,-2.35603108,0.0003395771650008224,1.5712153000000009,0.7859005799999996,0.0399999721,0.0399999688,-9.817891599999998,-0.0012058313004644876,0.00018531149850491,0.0011270658100026958,-0.014204377122233472,0.0030603838800073507
0.3075,2.587063249461262e-06,-0.7847149704999995,-2.4639368450212078e-05,-2.35603342,0.00034698889750082914,1.5712226500000008,0.7858975949999997,0.03999997165,0.0399999682,-9.817870899999997,-0.001181026105766185,0.0002295635902549503,0.001151362765002718,-0.01429578401149337,0.003126631020007411
0.31,-2.228845000543122e-06,-0.7847102139999994,-2.6535161600213804e-05,-2.35603576,0.0003544006300008359,1.5712300000000008,0.7858946099999997,0.039999971200000005,0.0399999676,-9.817850199999997,-0.0011562209110678825,0.0002738156820049906,0.00117565972000274,-0.014387190900753268,0.0031928781600074714
0.3125,-7.044753250547506e-06,-0.7847054574999994,-2.843095475021553e-05,-2.3560381,0.00036181236250084264,1.571237350000001,0.7858916249999996,0.03999997075,0.039999967,-9.817829499999998,-0.00113141571636958,0.00031806777375503086,0.0011999566750027623,-0.014478597790013167,0.0032591253000075317
0.315,-1.186066150055189e-05,-0.7847007009999994,-3.0326747900217256e-05,-2.35604044,0.0003692240950008494,1.571244700000001,0.7858886399999997,0.0399999703,0.039999966399999996,-9.817808799999998,-0.0011066105216712774,0.00036231986550507115,0.0012242536300027843,-0.014570004679273064,0.003325372440007592
0.3175,-1.690485735063538e-05,-0.7846960099999994,-3.231231400025009e-05,-2.3560426150000002,0.0003769860825009775,1.571252410000001,0.7858855124999996,0.0399999698,0.0399999657,-9.817779899999994,-0.0010796767193787622,0.0004128125220072739,0.00124922470500304,-0.014661859534691507,0.0033933785000082616
0.32,-2.2405628400640388e-05,-0.7846914499999994,-3.447742600025206e-05,-2.35604446,0.0003854485800009852,1.571260840000001,0.7858820999999996,0.0399999692,0.039999964799999996,-9.817734599999994,-0.0010484857019000288,0.0004757863080073313,0.001275544020003064,-0.014754610322426578,0.003464902400008327
0.3225,-2.7906399450645396e-05,-0.7846868899999995,-3.664253800025403e-05,-2.356046305,0.0003939110775009929,1.571269270000001,0.7858786874999996,0.0399999686,0.0399999639,-9.817689299999994,-0.0010172946844212954,0.0005387600940073886,0.001301863335003088,-0.014847361110161647,0.003536426300008392
0.325,-3.34071705006504e-05,-0.7846823299999994,-3.8807650000256e-05,-2.35604815,0.0004023735750010006,1.5712777000000009,0.7858752749999995,0.039999968,0.039999963,-9.817643999999994,-0.000986103666942562,0.000601733880007446,0.001328182650003112,-0.014940111897896716,0.003607950200008457
0.3275,-3.890794155065541e-05,-0.7846777699999995,-4.097276200025797e-05,-2.3560499950000002,0.0004108360725010083,1.571286130000001,0.7858718624999995,0.0399999674,0.0399999621,-9.817598699999996,-0.0009549126494638286,0.0006647076660075033,0.001354501965003136,-0.015032862685631787,0.003679474100008522
0.33,-4.440871260066042e-05,-0.7846732099999995,-4.3137874000259946e-05,-2.35605184,0.00041929857000101603,1.571294560000001,0.7858684499999996,0.0399999668,0.0399999612,-9.817553399999996,-0.0009237216319850952,0.0007276814520075607,0.00138082128000316,-0.015125613473366856,0.003750998000008587
0.3325,-4.990948365066542e-05,-0.7846686499999994,-4.5302986000261914e-05,-2.356053685,0.00042776106750102373,1.571302990000001,0.7858650374999996,0.0399999662,0.0399999603,-9.817508099999996,-0.0008925306145063618,0.000790655238007618,0.0014071405950031837,-0.015218364261101925,0.003822521900008652
0.335,-5.590089820076013e-05,-0.7846641919999995,-4.7661031600299156e-05,-2.35605545,0.000436976200001169,1.571312160000001,0.7858613199999995,0.039999966399999996,0.0399999606,-9.817465199999996,-0.0008527967380305665,0.0008633197400094469,0.0014347980900034525,-0.015312023554008701,0.0038975829800093637
0.3375,-6.213763450076582e-05,-0.7846597849999994,-5.011554400030139e-05,-2.356057175,0.00044656765000117776,1.5713217000000013,0.7858574499999995,0.039999967,0.0399999615,-9.817423499999995,-0.0008087914320585715,0.0009408296000095175,0.0014631246750034784,-0.015406137099501081,0.0039744126500094335
0.34,-6.837437080077148e-05,-0.7846553779999994,-5.2570056400303623e-05,-2.3560589000000003,0.00045615910000118646,1.5713312400000012,0.7858535799999995,0.0399999676,0.0399999624,-9.817381799999994,-0.0007647861260865764,0.001018339460009588,0.001491451260003504,-0.015500250644993462,0.004051242320009504
0.3425,-7.461110710077716e-05,-0.7846509709999995,-5.5024568800305854e-05,-2.356060625,0.0004657505500011952,1.5713407800000012,0.7858497099999995,0.0399999682,0.0399999633,-9.817340099999994,-0.0007207808201145814,0.0010958493200096586,0.0015197778450035298,-0.015594364190485842,0.004128071990009574
0.34500000000000003,-8.084784340078284e-05,-0.7846465639999994,-5.747908120030809e-05,-2.35606235,0.0004753420000012039,1.5713503200000012,0.7858458399999995,0.0399999688,0.0399999642,-9.817298399999995,-0.0006767755141425864,0.001173359180009729,0.0015481044300035556,-0.015688477735978222,0.004204901660009644
0.34750000000000003,-8.708457970078852e-05,-0.7846421569999995,-5.993359360031033e-05,-2.3560640750000004,0.0004849334500012126,1.5713598600000012,0.7858419699999994,0.0399999694,0.0399999651,-9.817256699999994,-0.0006327702081705914,0.0012508690400097997,0.0015764310150035814,-0.015782591281470602,0.004281731330009714
0.35000000000000003,-9.332131600089445e-05,-0.7846377499999995,-6.238810600035198e-05,-2.3560658,0.0004945249000013752,1.5713694000000014,0.7858380999999994,0.03999997,0.039999966,-9.817215,-0.0005887649021966639,0.001328378900011793,0.0016047576000038487,-0.015876704826963347,0.004358561000010478
0.3525,-0.0001003453396009007,-0.7846334374999995,-6.515218660035443e-05,-2.3560670750000003,0.0005053238800013847,1.5713801700000014,0.7858337349999994,0.03999997,0.0399999651,-9.817209899999998,-0.0005295852431950813,0.0014209873400118753,0.0016349808900038756,-0.015973675902945284,0.004440844100010551
0.355,-0.00010736936320090709,-0.7846291249999995,-6.791626720035695e-05,-2.35606835,0.0005161228600013946,1.5713909400000015,0.7858293699999994,0.03999997,0.0399999642,-9.817204799999999,-0.00047040558419349747,0.0015135957800119595,0.001665204180003903,-0.01607064697892722,0.004523127200010626
0.3575,-0.00011439338680091348,-0.7846248124999995,-7.068034780035947e-05,-2.3560696250000004,0.0005269218400014044,1.5714017100000015,0.7858250049999994,0.03999997,0.0399999633,-9.817199699999998,-0.0004112259251919136,0.001606204220012044,0.0016954274700039305,-0.016167618054909162,0.004605410300010701
0.36,-0.00012141741040091988,-0.7846204999999995,-7.344442840036199e-05,-2.3560709,0.0005377208200014143,1.5714124800000013,0.7858206399999994,0.03999997,0.0399999624,-9.817194599999999,-0.0003520462661903297,0.0016988126600121281,0.001725650760003958,-0.0162645891308911,0.004687693400010776
0.3625,-0.00012844143400092626,-0.7846161874999994,-7.620850900036451e-05,-2.356072175,0.0005485198000014241,1.5714232500000014,0.7858162749999994,0.03999997,0.0399999615,-9.8171895,-0.00029286660718874587,0.0017914211000122126,0.0017558740500039855,-0.016361560206873037,0.004769976500010851
0.365,-0.00013546545760093266,-0.7846118749999994,-7.897258960036703e-05,-2.3560734500000002,0.0005593187800014339,1.5714340200000014,0.7858119099999994,0.03999997,0.0399999606,-9.817184399999999,-0.00023368694818716202,0.0018840295400122968,0.0017860973400040132,-0.016458531282854977,0.004852259600010926
0.3675,-0.0001427690340010512,-0.7846075949999994,-8.184658750041362e-05,-2.356074565,0.0005705464315016157,1.5714452050000016,0.7858073749999993,0.0399999698,0.0399999599,-9.817172049999996,-0.00017090656328003394,0.0019805675900139573,0.001817024765004323,-0.016556194052113362,0.004936275500011696
0.37,-0.00015063171600105833,-0.7846033799999994,-8.494042000041644e-05,-2.35607536,0.0005826314260016267,1.5714572200000017,0.7858024999999993,0.0399999692,0.0399999596,-9.817145199999997,-0.00010092472656614022,0.002084964860014052,0.0018493604600043525,-0.016655240207923812,0.0050237570000117755
0.3725,-0.0001584943980010655,-0.7845991649999995,-8.803425250041926e-05,-2.3560761550000002,0.0005947164205016378,1.5714692350000017,0.7857976249999993,0.0399999686,0.0399999593,-9.817118349999996,-3.09428898522465e-05,0.0021893621300141473,0.001881696155004382,-0.01675428636373426,0.0051112385000118546
0.375,-0.00016635708000107267,-0.7845949499999995,-9.112808500042208e-05,-2.3560769500000003,0.0006068014150016487,1.5714812500000015,0.7857927499999994,0.039999968,0.039999959,-9.817091499999997,3.9038946861647195e-05,0.0022937594000142425,0.0019140318500044113,-0.01685333251954471,0.0051987200000119345
0.3775,-0.0001742197620010798,-0.7845907349999994,-9.422191750042488e-05,-2.3560777450000003,0.0006188864095016597,1.5714932650000015,0.7857878749999994,0.0399999674,0.039999958700000005,-9.817064649999997,0.00010902078357554092,0.0023981566700143377,0.001946367545004441,-0.01695237867535516,0.005286201500012014
0.38,-0.00018208244400108698,-0.7845865199999994,-9.73157500004277e-05,-2.3560785400000004,0.0006309714040016707,1.5715052800000016,0.7857829999999993,0.0399999668,0.0399999584,-9.817037799999996,0.0001790026202894346,0.0025025539400144324,0.0019787032400044703,-0.01705142483116561,0.005373683000012093
0.3825,-0.00018994512600109412,-0.7845823049999995,-0.00010040958250043052,-2.3560793350000004,0.0006430563985016818,1.5715172950000016,0.7857781249999993,0.0399999662,0.0399999581,-9.817010949999997,0.00024898445700332836,0.0026069512100145276,0.0020110389350044998,-0.01715047098697606,0.005461164500012173
0.385,-0.00019840116600122596,-0.7845781199999995,-0.00010373670400048235,-2.35607998,0.0006560512010018839,1.5715302400000017,0.7857728899999993,0.0399999654,0.039999957600000004,-9.816977399999995,0.00033003874124303836,0.0027241176500173055,0.002044618930004791,-0.01725083999337177,0.005552194750012999
0.3875,-0.00020715388500123393,-0.7845739499999994,-0.00010718047000048548,-2.35608055,0.0006695009075018961,1.5715436500000017,0.7857674749999992,0.0399999645,0.039999957,-9.816940499999996,0.0004166292492421822,0.0028476686750174176,0.002078821075004822,-0.01735187042505969,0.0056449993750130835
0.39,-0.0002159066040012419,-0.7845697799999994,-0.00011062423600048862,-2.3560811200000003,0.0006829506140019083,1.5715570600000017,0.7857620599999993,0.0399999636,0.0399999564,-9.816903599999995,0.000503219757241326,0.0029712197000175303,0.0021130232200048528,-0.017452900856747614,0.005737804000013167
0.3925,-0.00022465932300124987,-0.7845656099999995,-0.00011406800200049175,-2.3560816900000003,0.0006964003205019206,1.5715704700000017,0.7857566449999992,0.0399999627,0.0399999558,-9.816866699999995,0.0005898102652404699,0.003094770725017643,0.002147225365004884,-0.017553931288435538,0.005830608625013252
0.395,-0.00023341204200125784,-0.7845614399999994,-0.00011751176800049489,-2.3560822600000004,0.0007098500270019327,1.571583880000002,0.7857512299999992,0.0399999618,0.0399999552,-9.816829799999995,0.0006764007732396137,0.003218321750017755,0.002181427510004915,-0.017654961720123458,0.005923413250013337
0.3975,-0.0002421647610012658,-0.7845572699999994,-0.00012095553400049802,-2.35608283,0.000723299733501945,1.571597290000002,0.7857458149999992,0.0399999609,0.0399999546,-9.816792899999994,0.0007629912812387575,0.0033418727750178677,0.0022156296550049463,-0.01775599215181138,0.006016217875013421
0.4,-0.00025091748000141077,-0.7845530999999994,-0.00012439930000055502,-2.3560834,0.0007367494400021673,1.5716107000000021,0.7857403999999991,0.03999996,0.039999954,-9.816756,0.0008495817892403604,0.0034654238000201044,0.0022498318000052603,-0.017857022583499763,0.006109022500014278
0.4025,-0.0002606115180014196,-0.7845489794999994,-0.0001282131490005585,-2.356083715,0.0007516422485021808,1.5716255350000021,0.7857343849999991,0.03999996,0.039999954,-9.816759600000001,0.0009530697949381746,0.00360357350002023,0.002285976655005293,-0.017961202655002784,0.006207132625014367
0.405,-0.0002703055560014284,-0.7845448589999994,-0.00013202699800056195,-2.3560840300000003,0.0007665350570021944,1.5716403700000021,0.7857283699999992,0.03999996,0.039999954,-9.8167632,0.0010565578006359888,0.003741723200020356,0.002322121510005326,-0.0180653827265058,0.006305242750014457
0.40750000000000003,-0.00027999959400143724,-0.7845407384999994,-0.00013584084700056544,-2.356084345,0.000781427865502208,1.571655205000002,0.7857223549999991,0.03999996,0.039999954,-9.8167668,0.001160045806333803,0.003879872900020482,0.0023582663650053588,-0.018169562798008822,0.006403352875014546
0.41000000000000003,-0.00028969363200144607,-0.7845366179999994,-0.0001396546960005689,-2.35608466,0.0007963206740022215,1.571670040000002,0.7857163399999991,0.03999996,0.039999954,-9.816770400000001,0.0012635338120316174,0.004018022600020607,0.002394411220005392,-0.01827374286951184,0.006501463000014635
0.41250000000000003,-0.00029938767000145484,-0.7845324974999993,-0.00014346854500057237,-2.356084975,0.0008112134825022351,1.571684875000002,0.7857103249999992,0.03999996,0.039999954,-9.816774,0.0013670218177294314,0.004156172300020734,0.0024305560750054246,-0.01837792294101486,0.006599573125014724
0.41500000000000004,-0.00030908170800146367,-0.7845283769999993,-0.00014728239400057586,-2.3560852899999998,0.0008261062910022486,1.571699710000002,0.7857043099999991,0.03999996,0.039999954,-9.8167776,0.0014705098234272457,0.00429432200002086,0.0024667009300054577,-0.018482103012517882,0.006697683250014814
0.4175,-0.000319106551501623,-0.7845242564999994,-0.00015122629800063848,-2.356085465,0.0008415061985024929,1.5717150550000023,0.785698094999999,0.03999996,0.039999954,-9.81677895,0.0015793175203906266,0.004438230225023606,0.002503531535005802,-0.018587303254769597,0.006797554075015704
0.42,-0.0003297930060016328,-0.7845201359999994,-0.00015543031200064233,-2.35608536,0.0008579203040025078,1.5717314200000023,0.785691479999999,0.03999996,0.039999954,-9.816775799999998,0.0016987645998778902,0.0045936555000237475,0.002541733640005837,-0.018694543838517326,0.006900946300015798
0.4225,-0.0003404794605016425,-0.7845160154999994,-0.00015963432600064615,-2.356085255,0.0008743344095025228,1.5717477850000023,0.785684864999999,0.03999996,0.039999954,-9.816772649999999,0.0018182116793651541,0.004749080775023889,0.002579935745005872,-0.018801784422265055,0.007004338525015892
0.425,-0.0003511659150016522,-0.7845118949999994,-0.00016383834000064997,-2.3560851499999997,0.0008907485150025377,1.5717641500000024,0.785678249999999,0.03999996,0.039999954,-9.8167695,0.0019376587588524178,0.00490450605002403,0.0026181378500059064,-0.01890902500601278,0.0071077307500159856
0.4275,-0.000361852369501662,-0.7845077744999994,-0.0001680423540006538,-2.356085045,0.0009071626205025526,1.5717805150000024,0.785671634999999,0.03999996,0.039999954,-9.816766349999998,0.0020571058383396816,0.005059931325024172,0.0026563399550059413,-0.01901626558976051,0.0072111229750160795
0.43,-0.0003725388240016717,-0.7845036539999994,-0.00017224636800065765,-2.35608494,0.0009235767260025676,1.5717968800000024,0.7856650199999989,0.03999996,0.039999954,-9.816763199999999,0.002176552917826945,0.005215356600024313,0.002694542060005976,-0.019123506173508237,0.0073145152000161735
0.4325,-0.0003832252785016814,-0.7844995334999995,-0.00017645038200066147,-2.356084835,0.0009399908315025825,1.5718132450000024,0.785658404999999,0.03999996,0.039999954,-9.81676005,0.002295999997314209,0.0053707818750244555,0.0027327441650060106,-0.019230746757255966,0.0074179074250162675
0.435,-0.0003946072420018562,-0.7844953879999994,-0.00018092781400073018,-2.35608447,0.0009574710200028506,1.5718306800000028,0.7856513699999988,0.0399999606,0.039999954399999996,-9.816745099999997,0.0024272634182342175,0.005536552770027053,0.0027721983300063426,-0.019339562393742245,0.007524797650017193
0.4375,-0.00040633696000186694,-0.7844912299999994,-0.0001855419550007344,-2.356083975,0.000975484250002867,1.5718486500000028,0.7856441249999989,0.0399999615,0.039999955,-9.816724249999996,0.0025644350098664075,0.005707496475027208,0.002812278525006379,-0.019449165556597245,0.007633436875017292
0.44,-0.0004180666780018776,-0.7844870719999993,-0.00019015609600073858,-2.35608348,0.0009934974800028834,1.5718666200000029,0.7856368799999989,0.0399999624,0.0399999556,-9.816703399999996,0.002701606601498597,0.005878440180027363,0.0028523587200064158,-0.019558768719452245,0.007742076100017391
0.4425,-0.00042979639600188827,-0.7844829139999994,-0.0001947702370007428,-2.356082985,0.0010115107100028998,1.5718845900000027,0.7856296349999988,0.0399999633,0.0399999562,-9.816682549999996,0.002838778193130787,0.0060493838850275185,0.0028924389150064523,-0.019668371882307245,0.00785071532501749
0.445,-0.00044152611400189893,-0.7844787559999994,-0.00019938437800074698,-2.35608249,0.0010295239400029163,1.5719025600000027,0.7856223899999989,0.0399999642,0.0399999568,-9.816661699999997,0.002975949784762977,0.006220327590027675,0.002932519110006489,-0.019777975045162245,0.007959354550017589
0.4475,-0.0004532558320019096,-0.7844745979999993,-0.0002039985190007512,-2.3560819950000003,0.0010475371700029326,1.5719205300000028,0.7856151449999988,0.0399999651,0.0399999574,-9.816640849999997,0.0031131213763951667,0.00639127129502783,0.002972599305006525,-0.019887578208017245,0.008067993775017688
0.45,-0.0004649855500020994,-0.7844704399999993,-0.00020861266000082578,-2.3560815,0.0010655504000032236,1.571938500000003,0.7856078999999987,0.039999966,0.039999958,-9.816619999999999,0.0032502929680306284,0.006562215000030649,0.003012679500006879,-0.019997181370872703,0.00817663300001866
0.4525,-0.00047780902750211104,-0.7844662339999993,-0.00021365678500083037,-2.35608093,0.0010852399700032416,1.571958150000003,0.7855999499999987,0.0399999666,0.039999958,-9.816607699999999,0.0034074487630536164,0.006749426550030819,0.0030546985050069176,-0.02010957710446771,0.008290607500018764
0.455,-0.0004906325050021227,-0.7844620279999993,-0.00021870091000083497,-2.35608036,0.0011049295400032595,1.571977800000003,0.7855919999999987,0.0399999672,0.039999958,-9.816595399999999,0.0035646045580766048,0.00693663810003099,0.0030967175100069556,-0.020221972838062718,0.008404582000018868
0.4575,-0.0005034559825021343,-0.7844578219999992,-0.00022374503500083957,-2.35607979,0.0011246191100032774,1.5719974500000031,0.7855840499999986,0.0399999678,0.039999958,-9.816583099999997,0.0037217603530995927,0.007123849650031161,0.003138736515006994,-0.020334368571657723,0.00851855650001897
0.46,-0.000516279460002146,-0.7844536159999993,-0.00022878916000084414,-2.3560792200000003,0.0011443086800032953,1.5720171000000032,0.7855760999999987,0.0399999684,0.039999958,-9.816570799999997,0.003878916148122581,0.007311061200031331,0.003180755520007032,-0.020446764305252732,0.008632531000019076
0.4625,-0.0005291029375021578,-0.7844494099999992,-0.00023383328500084874,-2.35607865,0.0011639982500033133,1.5720367500000032,0.7855681499999986,0.039999969,0.039999958,-9.816558499999998,0.004036071943145569,0.007498272750031501,0.0032227745250070707,-0.020559160038847737,0.008746505500019179
0.465,-0.0005419264150021694,-0.7844452039999993,-0.00023887741000085333,-2.35607808,0.0011836878200033312,1.5720564000000032,0.7855601999999986,0.039999969600000004,0.039999958,-9.816546199999998,0.004193227738168557,0.007685484300031672,0.0032647935300071087,-0.020671555772442746,0.008860480000019282
0.4675,-0.0005551311620023756,-0.7844409799999993,-0.00024407142700093442,-2.356077355,0.0012039616950036472,1.5720766400000037,0.7855520234999985,0.0399999698,0.0399999578,-9.816547625000004,0.0043562065577431065,0.00787959240003536,0.0033074917400074937,-0.020785353332777774,0.008976131750020242
0.47000000000000003,-0.0005690984480023883,-0.7844367199999992,-0.0002495652280009394,-2.35607632,0.0012254041800036667,1.5720980600000036,0.7855433939999985,0.0399999692,0.0399999572,-9.816576500000005,0.0045308314264118806,0.00808749360003555,0.0033515483600075335,-0.020901954546590697,0.00909513800002035
0.47250000000000003,-0.0005830657340024011,-0.7844324599999992,-0.0002550590290009444,-2.3560752849999997,0.0012468466650036863,1.5721194800000036,0.7855347644999985,0.0399999686,0.0399999566,-9.816605375000005,0.004705456295080655,0.00829539480003574,0.0033956049800075738,-0.021018555760403623,0.009214144250020458
0.47500000000000003,-0.0005970330200024137,-0.7844281999999992,-0.0002605528300009494,-2.35607425,0.0012682891500037058,1.5721409000000037,0.7855261349999985,0.039999968,0.039999955999999996,-9.816634250000005,0.004880081163749429,0.008503296000035928,0.003439661600007614,-0.02113515697421655,0.009333150500020567
0.47750000000000004,-0.0006110003060024265,-0.7844239399999993,-0.00026604663100095443,-2.356073215,0.0012897316350037253,1.5721623200000037,0.7855175054999984,0.0399999674,0.0399999554,-9.816663125000005,0.005054706032418202,0.008711197200036118,0.003483718220007654,-0.021251758188029476,0.009452156750020674
0.48,-0.000624967592002439,-0.7844196799999992,-0.00027154043200095933,-2.35607218,0.0013111741200037442,1.5721837400000036,0.7855088759999984,0.0399999668,0.0399999548,-9.816692000000005,0.005229330901086972,0.008919098400036303,0.003527774840007693,-0.0213683594018424,0.009571163000020779
0.4825,-0.0006389348780024516,-0.7844154199999992,-0.00027703423300096434,-2.3560711449999996,0.0013326166050037637,1.5722051600000038,0.7855002464999985,0.0399999662,0.0399999542,-9.816720875000005,0.0054039557697557455,0.009126999600036491,0.003571831460007733,-0.021484960615655326,0.009690169250020888
0.485,-0.0006536978160026749,-0.7844110969999992,-0.00028284081700105207,-2.3560698399999995,0.001355278420004106,1.572227780000004,0.7854911129999983,0.039999966399999996,0.039999954399999996,-9.816718549999997,0.005593388620798699,0.009345285000039429,0.003617092060008092,-0.021603154949864815,0.009812575800021896
0.4875,-0.0006688585800026887,-0.7844067424999992,-0.00028880379250105753,-2.3560684,0.0013785499000041272,1.572251000000004,0.7854817274999983,0.039999967,0.039999955,-9.816700624999998,0.0057902254630228835,0.009568762500039633,0.0036629546500081336,-0.021722145844271953,0.009936682500022009
0.49,-0.0006840193440027025,-0.7844023879999992,-0.00029476676800106294,-2.3560669599999997,0.0014018213800041483,1.572274220000004,0.7854723419999983,0.0399999676,0.0399999556,-9.816682699999998,0.005987062305247068,0.009792240000039837,0.0037088172400081753,-0.02184113673867909,0.010060789200022123
0.4925,-0.0006991801080027163,-0.7843980334999991,-0.00030072974350106834,-2.3560655199999996,0.0014250928600041696,1.572297440000004,0.7854629564999983,0.0399999682,0.0399999562,-9.816664774999996,0.006183899147471252,0.01001571750004004,0.003754679830008217,-0.02196012763308623,0.010184895900022235
0.495,-0.0007143408720027302,-0.7843936789999991,-0.0003066927190010738,-2.35606408,0.0014483643400041908,1.5723206600000041,0.7854535709999982,0.0399999688,0.0399999568,-9.816646849999996,0.006380735989695436,0.010239195000040243,0.0038005424200082587,-0.022079118527493367,0.010309002600022349
0.4975,-0.000729501636002744,-0.7843893244999992,-0.0003126556945010792,-2.3560626399999998,0.0014716358200042119,1.572343880000004,0.7854441854999983,0.0399999694,0.0399999574,-9.816628924999996,0.00657757283191962,0.010462672500040448,0.0038464050100083004,-0.022198109421900505,0.010433109300022461
0.5,-0.0007446624000029837,-0.7843849699999992,-0.0003186186700011735,-2.3560611999999996,0.0014949073000045795,1.5723671000000046,0.7854347999999981,0.03999997,0.039999958,-9.816610999999998,0.006774409674147633,0.010686150000044912,0.00389226760000871,-0.022317100316308222,0.010557216000023491
0.5025000000000001,-0.0007610658150029991,-0.7843804894999992,-0.00032507014150117954,-2.35605949,0.001520082925004603,1.5723922250000044,0.7854246449999981,0.039999970450000005,0.0399999583,-9.8166047,0.006992294872219436,0.010933054050045143,0.003940151110008754,-0.02243926767262062,0.010686364050023612
0.505,-0.0007774692300030136,-0.7843760089999992,-0.0003315216130011852,-2.3560577799999995,0.0015452585500046253,1.5724173500000045,0.7854144899999981,0.0399999709,0.0399999586,-9.816598399999998,0.0072101800702912295,0.011179958100045361,0.0039880346200087975,-0.022561435028933013,0.010815512100023726
0.5075000000000001,-0.0007938726450030289,-0.7843715284999991,-0.0003379730845011913,-2.3560560699999997,0.0015704341750046487,1.5724424750000046,0.7854043349999981,0.03999997135,0.0399999589,-9.8165921,0.0074280652683630325,0.011426862150045592,0.004035918130008842,-0.022683602385245413,0.010944660150023848
0.51,-0.0008102760600030435,-0.7843670479999991,-0.000344424556001197,-2.35605436,0.001595609800004671,1.5724676000000046,0.785394179999998,0.0399999718,0.039999959200000004,-9.816585799999999,0.007645950466434826,0.01167376620004581,0.004083801640008884,-0.022805769741557805,0.011073808200023962
0.5125,-0.000826679475003058,-0.7843625674999991,-0.0003508760275012027,-2.3560526499999996,0.0016207854250046934,1.5724927250000047,0.785384024999998,0.03999997225,0.0399999595,-9.816579499999998,0.00786383566450662,0.01192067025004603,0.004131685150008927,-0.0229279370978702,0.011202956250024076
0.515,-0.0008430828900030733,-0.7843580869999991,-0.00035732749900120874,-2.35605094,0.001645961050004717,1.5725178500000048,0.785373869999998,0.039999972700000004,0.0399999598,-9.816573199999999,0.008081720862578422,0.012167574300046259,0.004179568660008972,-0.0230501044541826,0.011332104300024197
0.5175,-0.000859916730003331,-0.7843535649999991,-0.00036394817300131006,-2.3560491649999995,0.0016717961650051117,1.572543640000005,0.7853634449999979,0.039999973200000004,0.0399999603,-9.8165711,0.008307248726532468,0.012419499850049314,0.004228087800009373,-0.023173391353362563,0.011462910900025249
0.52,-0.0008776114200033475,-0.7843489599999991,-0.00037090725200131653,-2.3560472599999995,0.001698950260005137,1.5725707600000052,0.7853524799999979,0.0399999738,0.0399999612,-9.8165774,0.008548061922238098,0.012681468400049559,0.004277878200009419,-0.023298917338275785,0.011597034600025374
0.5225,-0.0008953061100033632,-0.7843443549999991,-0.00037786633100132274,-2.3560453549999996,0.0017261043550051611,1.572597880000005,0.7853415149999979,0.0399999744,0.0399999621,-9.8165837,0.008788875117943715,0.012943436950049791,0.004327668600009464,-0.023424443323189003,0.011731158300025493
0.525,-0.0009130008000033797,-0.7843397499999991,-0.0003848254100013292,-2.3560434499999996,0.0017532584500051865,1.5726250000000053,0.785330549999998,0.039999975,0.039999963,-9.816590000000001,0.009029688313649345,0.013205405500050036,0.00437745900000951,-0.023549969308102225,0.011865282000025618
0.5275,-0.0009306954900033954,-0.7843351449999991,-0.0003917844890013354,-2.3560415449999996,0.0017804125450052105,1.5726521200000052,0.7853195849999979,0.0399999756,0.0399999639,-9.8165963,0.009270501509354965,0.013467374050050268,0.004427249400009554,-0.023675495293015443,0.011999405700025738
0.53,-0.0009483901800034119,-0.7843305399999991,-0.0003987435680013419,-2.3560396399999997,0.001807566640005236,1.5726792400000054,0.7853086199999979,0.0399999762,0.039999964799999996,-9.816602600000001,0.009511314705060595,0.013729342600050513,0.004477039800009601,-0.023801021277928665,0.012133529400025864
0.5325,-0.0009660848700034277,-0.7843259349999991,-0.0004057026470013481,-2.3560377349999997,0.0018347207350052602,1.5727063600000053,0.7852976549999979,0.039999976799999996,0.0399999657,-9.8166089,0.009752127900766214,0.013991311150050745,0.004526830200009645,-0.02392654726284188,0.012267653100025982
0.535,-0.000984672390003705,-0.7843212399999991,-0.000413012710001457,-2.3560356,0.0018632428700056849,1.5727348600000057,0.7852861399999977,0.039999977299999996,0.039999966,-9.816627900000006,0.010009286552719186,0.014267827600055238,0.004577891560010062,-0.024054648354674673,0.012405132200027086
0.5375,-0.0010037063250037217,-0.7843164999999991,-0.0004204982650014637,-2.3560333499999997,0.0018924490250057109,1.5727640500000057,0.7852743499999977,0.03999997775,0.039999966,-9.816653250000005,0.010274617932788681,0.01455161800005549,0.004629588400010108,-0.024184036999966123,0.012544289000027211
0.54,-0.0010227402600037395,-0.7843117599999991,-0.00042798382000147064,-2.3560310999999996,0.001921655180005738,1.5727932400000058,0.7852625599999977,0.0399999782,0.039999966,-9.816678600000005,0.010539949312858189,0.014835408400055754,0.004681285240010156,-0.02431342564525758,0.01268344580002734
0.5425,-0.0010417741950037563,-0.7843070199999991,-0.0004354693750014773,-2.3560288499999995,0.001950861335005764,1.5728224300000058,0.7852507699999977,0.03999997865,0.039999966,-9.816703950000004,0.010805280692927684,0.015119198800056006,0.004732982080010203,-0.02444281429054903,0.012822602600027464
0.545,-0.0010608081300037741,-0.7843022799999991,-0.0004429549300014843,-2.3560265999999994,0.001980067490005791,1.5728516200000058,0.7852389799999977,0.0399999791,0.039999966,-9.816729300000004,0.011070612072997192,0.01540298920005627,0.004784678920010251,-0.024572202935840486,0.012961759400027592
0.5475,-0.001079842065003791,-0.7842975399999991,-0.00045044048500149093,-2.3560243499999998,0.002009273645005817,1.5728808100000058,0.7852271899999976,0.039999979549999995,0.039999966,-9.816754650000005,0.011335943453066688,0.015686779600056523,0.004836375760010296,-0.024701591581131936,0.013100916200027717
0.55,-0.0010988760000040863,-0.784292799999999,-0.000457926040001607,-2.3560220999999997,0.0020384798000062693,1.5729100000000062,0.7852153999999975,0.03999998,0.039999966,-9.81678,0.011601274833141714,0.01597057000006042,0.004888072600010727,-0.024830980226424028,0.013240073000028786
0.5525,-0.0011192965500041044,-0.784287902499999,-0.0004659566680016141,-2.3560193849999997,0.002069810330006297,1.5729413200000064,0.7852027639999974,0.03999998,0.039999966,-9.816776549999998,0.011894178902789173,0.016272503350060686,0.0049416838150107755,-0.0249635495245723,0.013383925700028913
0.555,-0.0011397171000041234,-0.784283004999999,-0.0004739872960016216,-2.3560166699999994,0.0021011408600063266,1.5729726400000064,0.7851901279999974,0.03999998,0.039999966,-9.816773099999999,0.012187082972436647,0.01657443670006097,0.004995295030010826,-0.02509611882272058,0.013527778400029047
0.5575,-0.0011601376500041415,-0.784278107499999,-0.00048201792400162874,-2.3560139549999994,0.0021324713900063544,1.5730039600000063,0.7851774919999974,0.03999998,0.039999966,-9.81676965,0.012479987042084107,0.016876370050061238,0.005048906245010873,-0.025228688120868852,0.013671631100029176
0.56,-0.0011805582000041608,-0.784273209999999,-0.0004900485520016362,-2.3560112399999995,0.0021638019200063835,1.5730352800000065,0.7851648559999974,0.03999998,0.039999966,-9.8167662,0.012772891111731579,0.017178303400061518,0.0051025174600109234,-0.02536125741901713,0.01381548380002931
0.5625,-0.0012009787500041789,-0.7842683124999991,-0.0004980791800016434,-2.3560085249999996,0.0021951324500064113,1.5730666000000064,0.7851522199999974,0.03999998,0.039999966,-9.81676275,0.01306579518137904,0.017480236750061787,0.005156128675010971,-0.0254938267171654,0.013959336500029437
0.5650000000000001,-0.0012213993000041979,-0.7842634149999991,-0.0005061098080016509,-2.3560058099999996,0.0022264629800064404,1.5730979200000064,0.7851395839999975,0.03999998,0.039999966,-9.8167593,0.013358699251026512,0.01778217010006207,0.005209739890011021,-0.02562639601531368,0.014103189200029571
0.5675,-0.0012422976000045118,-0.784258457499999,-0.0005143282620017743,-2.3560030499999995,0.002258525465006922,1.573129960000007,0.7851266534999972,0.0399999802,0.0399999662,-9.8167537,0.01365666687494916,0.01809314905006794,0.005263948640011439,-0.025759809091715075,0.01424862360003068
0.5700000000000001,-0.0012641514000045324,-0.784253379999999,-0.0005229223680017824,-2.3560001999999995,0.002292051860006953,1.573163440000007,0.7851131339999973,0.0399999808,0.0399999668,-9.8167438,0.013964761607412796,0.018422219200068247,0.00531935246001149,-0.02589490972462116,0.014397221400030817
0.5725,-0.0012860052000045518,-0.784248302499999,-0.00053151647400179,-2.3559973499999995,0.0023255782550069826,1.573196920000007,0.7850996144999972,0.0399999814,0.0399999674,-9.8167339,0.014272856339876419,0.018751289350068538,0.00537475628001154,-0.026030010357527233,0.01454581920003095
0.5750000000000001,-0.001307859000004572,-0.784243224999999,-0.000540110580001798,-2.3559944999999995,0.002359104650007014,1.573230400000007,0.7850860949999973,0.039999982,0.039999968000000004,-9.816723999999999,0.014580951072340058,0.019080359500068846,0.005430160100011591,-0.026165110990433314,0.01469441700003109
0.5775,-0.0013297128000045915,-0.784238147499999,-0.0005487046860018056,-2.3559916499999995,0.0023926310450070438,1.5732638800000072,0.7850725754999972,0.0399999826,0.0399999686,-9.816714099999999,0.01488904580480368,0.019409429650069136,0.00548556392001164,-0.02630021162333939,0.01484301480003122
0.58,-0.0013515666000046109,-0.784233069999999,-0.0005572987920018132,-2.3559887999999996,0.0024261574400070733,1.573297360000007,0.7850590559999971,0.0399999832,0.0399999692,-9.816704199999998,0.015197140537267305,0.019738499800069427,0.005540967740011689,-0.026435312256245465,0.014991612600031352
0.5825,-0.0013734204000046314,-0.784227992499999,-0.0005658928980018213,-2.3559859499999996,0.0024596838350071045,1.5733308400000072,0.7850455364999972,0.0399999838,0.0399999698,-9.816694299999998,0.015505235269730942,0.020067569950069735,0.005596371560011741,-0.026570412889151546,0.015140210400031492
0.585,-0.0013962604200049656,-0.784222789999999,-0.0005748746800019527,-2.3559828199999995,0.002494721070007617,1.5733658500000076,0.7850314169999969,0.0399999844,0.0399999703,-9.816716800000009,0.015834481362325677,0.020411481900074767,0.0056529653800121695,-0.026708594709664465,0.015291917100032616
0.5875,-0.0014195935500049873,-0.7842175249999989,-0.0005840503000019612,-2.3559795499999994,0.00253051372500765,1.5734016250000076,0.7850169974999969,0.039999985,0.03999997075,-9.816755500000008,0.016174303134975886,0.020762814750075093,0.005710154200012223,-0.02684831712397934,0.015445178250032759
0.59,-0.001442926680005008,-0.7842122599999989,-0.0005932259200019693,-2.3559762799999993,0.002566306380007682,1.5734374000000078,0.785002577999997,0.0399999856,0.039999971200000005,-9.816794200000007,0.016514124907626077,0.021114147600075406,0.005767343020012274,-0.02698803953829421,0.015598439400032894
0.5925,-0.0014662598100050298,-0.7842069949999989,-0.0006024015400019779,-2.3559730099999996,0.0026020990350077156,1.5734731750000077,0.7849881584999969,0.039999986200000004,0.03999997165,-9.816832900000009,0.016853946680276285,0.021465480450075732,0.005824531840012327,-0.027127761952609082,0.015751700550033037
0.595,-0.0014895929400050504,-0.7842017299999988,-0.000611577160001986,-2.3559697399999995,0.0026378916900077474,1.5735089500000077,0.7849737389999969,0.0399999868,0.0399999721,-9.816871600000008,0.017193768452926476,0.021816813300076045,0.005881720660012378,-0.02726748436692395,0.015904961700033176
0.5975,-0.0015129260700050722,-0.7841964649999988,-0.0006207527800019947,-2.3559664699999994,0.0026736843450077805,1.5735447250000079,0.7849593194999969,0.0399999874,0.03999997255,-9.816910300000007,0.017533590225576684,0.02216814615007637,0.005938909480012432,-0.027407206781238827,0.01605822285003332
0.6,-0.0015362592000054257,-0.7841911999999988,-0.0006299284000021336,-2.3559631999999993,0.0027094770000083224,1.5735805000000083,0.7849448999999966,0.039999988,0.039999973,-9.816949,0.017873411998232842,0.022519479000080632,0.005996098300012882,-0.027546929195554303,0.016211484000034478
0.6025,-0.0015611169600054488,-0.7841857399999987,-0.0006397033750021427,-2.3559595849999995,0.002747605395008358,1.5736185850000084,0.7849295249999966,0.0399999883,0.039999973,-9.816945849999998,0.01824057903148829,0.022888900950080976,0.006055116805012937,-0.027689432445944726,0.016369441800034627
0.605,-0.0015859747200054708,-0.7841802799999988,-0.0006494783500021514,-2.3559559699999992,0.002785733790008392,1.5736566700000083,0.7849141499999966,0.0399999886,0.039999973,-9.816942699999998,0.018607746064743722,0.023258322900081306,0.006114135310012989,-0.027831935696335144,0.016527399600034767
0.6075,-0.001610832480005494,-0.7841748199999988,-0.0006592533250021605,-2.3559523549999994,0.0028238621850084273,1.5736947550000084,0.7848987749999966,0.0399999889,0.039999973,-9.816939549999999,0.018974913097999167,0.02362774485008165,0.006173153815013044,-0.027974438946725567,0.016685357400034913
0.61,-0.001635690240005516,-0.7841693599999988,-0.0006690283000021692,-2.355948739999999,0.002861990580008461,1.5737328400000083,0.7848833999999966,0.0399999892,0.039999973,-9.8169364,0.0193420801312546,0.023997166800081977,0.006232172320013097,-0.028116942197115982,0.016843315200035052
0.6125,-0.0016605480000055394,-0.7841638999999988,-0.0006788032750021783,-2.3559451249999994,0.002900118975008497,1.5737709250000085,0.7848680249999966,0.0399999895,0.039999973,-9.81693325,0.019709247164510047,0.024366588750082324,0.006291190825013152,-0.028259445447506408,0.017001273000035202
0.615,-0.0016854057600055614,-0.7841584399999988,-0.000688578250002187,-2.355941509999999,0.0029382473700085305,1.5738090100000084,0.7848526499999966,0.039999989799999996,0.039999973,-9.8169301,0.02007641419776548,0.02473601070008265,0.006350209330013204,-0.028401948697896823,0.01715923080003534
0.6175,-0.001710786555005937,-0.7841528999999987,-0.0006985588425023347,-2.3559377649999993,0.002977176930009106,1.573847895000009,0.7848369549999964,0.03999999025,0.039999973200000004,-9.816929425000001,0.02045237021529575,0.02511441705008905,0.006409849175013678,-0.028545542620155115,0.017318639100036465
0.62,-0.0017372134200059606,-0.7841471999999987,-0.0007089506700023439,-2.355933759999999,0.0030177088200091418,1.5738883800000092,0.7848206199999963,0.039999991,0.0399999738,-9.816933700000002,0.020845904201357904,0.025510792200089404,0.006470731700013732,-0.02869131788614694,0.01748094840003661
0.6225,-0.0017636402850059853,-0.7841414999999987,-0.0007193424975023536,-2.355929754999999,0.0030582407100091798,1.5739288650000092,0.7848042849999963,0.03999999175,0.0399999744,-9.816937975000002,0.021239438187420075,0.025907167350089775,0.006531614225013789,-0.02883709315213877,0.01764325770003676
0.625,-0.0017900671500060087,-0.7841357999999987,-0.0007297343250023628,-2.355925749999999,0.0030987726000092156,1.5739693500000091,0.7847879499999963,0.039999992500000005,0.039999975,-9.816942250000002,0.02163297217348223,0.026303542500090125,0.0065924967500138425,-0.028982868418130598,0.017805567000036906
0.6275000000000001,-0.0018164940150060334,-0.7841300999999987,-0.0007401261525023725,-2.355921744999999,0.0031393044900092535,1.5740098350000091,0.7847716149999963,0.039999993250000004,0.0399999756,-9.816946525,0.0220265061595444,0.026699917650090495,0.0066533792750139,-0.029128643684122428,0.017967876300037055
0.63,-0.0018429208800060568,-0.7841243999999986,-0.0007505179800023818,-2.355917739999999,0.0031798363800092893,1.574050320000009,0.7847552799999963,0.039999994000000004,0.0399999762,-9.8169508,0.022420040145606557,0.02709629280009085,0.0067142618000139535,-0.02927441895011425,0.0181301856000372
0.6325000000000001,-0.0018693477450060815,-0.7841186999999986,-0.0007609098075023914,-2.355913734999999,0.0032203682700093273,1.5740908050000093,0.7847389449999962,0.039999994750000004,0.039999976799999996,-9.816955075000001,0.022813574131668728,0.02749266795009122,0.006775144325014011,-0.029420194216106085,0.01829249490003735
0.635,-0.0018968498300064775,-0.7841128299999985,-0.0007717243250025471,-2.355909619999999,0.003262547170009934,1.5741329500000099,0.784721939999996,0.0399999955,0.039999977299999996,-9.81695865,0.023226486519076658,0.02790365270009663,0.006837157790014457,-0.029568123817478243,0.01845772820003851
0.6375000000000001,-0.0019248895250065037,-0.7841068749999985,-0.0007827501875025575,-2.355905449999999,0.003305549575009974,1.5741759250000098,0.784704599999996,0.03999999625,0.03999997775,-9.816961875,0.023649088107147446,0.028321942250097022,0.006899736725014515,-0.029717130586539464,0.018624423500038664
0.64,-0.0019529292200065286,-0.7841009199999985,-0.0007937760500025672,-2.355901279999999,0.0033485519800100123,1.57421890000001,0.7846872599999959,0.039999997,0.0399999782,-9.8169651,0.024071689695218217,0.028740231800097393,0.00696231566001457,-0.029866137355600675,0.018791118800038812
0.6425,-0.0019809689150065537,-0.7840949649999985,-0.000804801912502577,-2.355897109999999,0.0033915543850100505,1.57426187500001,0.7846699199999959,0.03999999775,0.03999997865,-9.816968325000001,0.024494291283288987,0.029158521350097763,0.007024894595014626,-0.030015144124661886,0.01895781410003896
0.645,-0.0020090086100065796,-0.7840890099999985,-0.0008158277750025873,-2.355892939999999,0.003434556790010091,1.57430485000001,0.7846525799999959,0.0399999985,0.0399999791,-9.816971550000002,0.024916892871359776,0.029576810900098154,0.0070874735300146844,-0.030164150893723107,0.019124509400039114
0.6475,-0.0020370483050066047,-0.7840830549999985,-0.000826853637502597,-2.355888769999999,0.003477559195010129,1.57434782500001,0.7846352399999958,0.03999999925,0.039999979549999995,-9.816974775000002,0.025339494459430546,0.029995100450098525,0.00715005246501474,-0.030313157662784317,0.019291204700039265
0.65,-0.0020650880000070222,-0.7840770999999985,-0.0008378795000027612,-2.355884599999999,0.0035205616000107687,1.5743908000000106,0.7846178999999956,0.04,0.03999998,-9.81697800000001,0.025762096047508225,0.03041339000010431,0.007212631400015227,-0.030462164431846545,0.01945790000004045
0.6525,-0.002094783425007049,-0.7840709139999985,-0.0008495562575027716,-2.355880084999999,0.0035661002800108092,1.5744362800000107,0.7845995399999957,0.04,0.039999979549999995,-9.81701445000001,0.0262138208375453,0.030854500400104703,0.0072770227400152845,-0.03061543647203499,0.019628960600040605
0.655,-0.0021244788500070764,-0.7840647279999985,-0.0008612330150027825,-2.355875569999999,0.003611638960010852,1.574481760000011,0.7845811799999957,0.04,0.0399999791,-9.817050900000009,0.026665545627582395,0.031295610800105116,0.007341414080015344,-0.030768708512223443,0.019800021200040763
0.6575,-0.0021541742750071026,-0.7840585419999985,-0.0008729097725027929,-2.355871054999999,0.003657177640010892,1.574527240000011,0.7845628199999956,0.04,0.03999997865,-9.817087350000008,0.027117270417619473,0.031736721200105504,0.0074058054200154015,-0.03092198055241189,0.019971081800040917
0.66,-0.0021838697000071306,-0.7840523559999986,-0.0008845865300028038,-2.3558665399999987,0.003702716320010935,1.574572720000011,0.7845444599999956,0.04,0.0399999782,-9.81712380000001,0.027568995207656568,0.03217783160010592,0.007470196760015461,-0.03107525259260034,0.020142142400041075
0.6625,-0.0022135651250071568,-0.7840461699999985,-0.0008962632875028142,-2.355862024999999,0.0037482550000109754,1.574618200000011,0.7845260999999956,0.04,0.03999997775,-9.81716025000001,0.028020719997693642,0.03261894200010631,0.0075345881000155185,-0.031228524632788787,0.02031320300004123
0.665,-0.0022432605500071843,-0.7840399839999985,-0.0009079400450028251,-2.355857509999999,0.0037937936800110177,1.5746636800000111,0.7845077399999956,0.04,0.039999977299999996,-9.817196700000009,0.028472444787730738,0.03306005240010672,0.007598979440015578,-0.03138179667297724,0.020484263600041387
0.6675,-0.002273521935007623,-0.7840337169999985,-0.0009198392925029975,-2.355852854999999,0.00384019929001169,1.5747100300000116,0.7844890299999953,0.04,0.039999977,-9.817224050000002,0.028934212960419786,0.03351017690011368,0.007663959300016065,-0.03153615389023042,0.02065669965004254
0.67,-0.0023049152400076525,-0.7840272879999984,-0.000932183520003009,-2.3558479199999987,0.003888338760011735,1.5747581200000118,0.7844696199999953,0.04,0.039999977,-9.817233200000002,0.029416067898390876,0.03397832960011411,0.0077301162000161265,-0.031692681461610715,0.020831886600042704
0.6725,-0.00233630854500768,-0.7840208589999985,-0.00094452774750302,-2.355842984999999,0.003936478230011777,1.5748062100000118,0.7844502099999953,0.04,0.039999977,-9.817242350000003,0.029897922836361942,0.03444648230011453,0.007796273100016185,-0.031849209032991,0.02100707355004286
0.675,-0.0023677018500077095,-0.7840144299999985,-0.0009568719750030315,-2.3558380499999987,0.003984617700011822,1.574854300000012,0.7844307999999952,0.04,0.039999977,-9.817251500000003,0.030379777774333032,0.03491463500011497,0.007862430000016248,-0.03200573660437129,0.021182260500043022
0.6775,-0.0023990951550077375,-0.7840080009999985,-0.0009692162025030425,-2.355833114999999,0.0040327571700118645,1.5749023900000119,0.7844113899999952,0.04,0.039999977,-9.817260650000003,0.0308616327123041,0.03538278770011539,0.007928586900016306,-0.032162264175751576,0.021357447450043178
0.68,-0.002430488460007767,-0.7840015719999984,-0.000981560430003054,-2.3558281799999987,0.0040808966400119094,1.574950480000012,0.7843919799999952,0.04,0.039999977,-9.817269800000002,0.03134348765027519,0.03585094040011582,0.007994743800016368,-0.03231879174713187,0.021532634400043344
0.6825,-0.0024618817650077945,-0.7839951429999985,-0.0009939046575030651,-2.355823244999999,0.004129036110011953,1.574998570000012,0.7843725699999952,0.04,0.039999977,-9.817278950000002,0.03182534258824626,0.03631909310011624,0.008060900700016426,-0.03247531931851215,0.021707821350043496
0.685,-0.0024944344900082573,-0.7839885299999984,-0.001006704690003247,-2.3558181699999987,0.004178951490012661,1.5750484400000127,0.7843524399999948,0.04,0.039999977299999996,-9.8172829,0.03232711367321843,0.03680446960012312,0.008128202700016917,-0.03263392746452491,0.021885730700044678
0.6875,-0.0025275669250082867,-0.7839818249999984,-0.0010197326250032585,-2.355813024999999,0.004229754825012706,1.5750992000000128,0.7843319499999949,0.04,0.03999997775,-9.81728425,0.03283884283167999,0.037298458000123554,0.008196077250016977,-0.03279357589785273,0.02206500125004484
0.6900000000000001,-0.0025606993600083175,-0.7839751199999984,-0.0010327605600032707,-2.3558078799999986,0.004280558160012753,1.5751499600000127,0.7843114599999949,0.04,0.0399999782,-9.817285600000002,0.03335057199014156,0.03779244640012401,0.008263951800017039,-0.03295322433118056,0.022244271800045005
0.6925,-0.0025938317950083473,-0.7839684149999984,-0.0010457884950032823,-2.355802734999999,0.004331361495012799,1.5752007200000129,0.7842909699999948,0.04,0.03999997865,-9.817286950000002,0.03386230114860312,0.038286434800124454,0.0083318263500171,-0.03311287276450838,0.022423542350045164
0.6950000000000001,-0.002626964230008378,-0.7839617099999984,-0.0010588164300032944,-2.3557975899999986,0.004382164830012846,1.5752514800000128,0.7842704799999948,0.04,0.0399999791,-9.817288300000001,0.03437403030706469,0.03878042320012491,0.008399700900017163,-0.033272521197836205,0.02260281290004533
0.6975,-0.0026600966650084075,-0.7839550049999984,-0.001071844365003306,-2.3557924449999987,0.004432968165012891,1.575302240000013,0.7842499899999948,0.04,0.039999979549999995,-9.817289650000001,0.03488575946552625,0.039274411600125354,0.008467575450017223,-0.03343216963116403,0.02278208345004549
0.7000000000000001,-0.002693229100008892,-0.7839482999999983,-0.0010848723000034962,-2.3557872999999985,0.004483771500013633,1.5753530000000135,0.7842294999999945,0.04,0.03999998,-9.817291000000008,0.03539748862399596,0.03976840000013222,0.008535450000017722,-0.03359181806449281,0.022961354000046685
0.7025,-0.0027281411350089228,-0.7839412949999982,-0.0010985998650035085,-2.3557817049999983,0.004537300425013681,1.5754064750000136,0.7842078999999945,0.04,0.03999997895,-9.817319050000007,0.035941137187321844,0.04028755960013269,0.008605035450017784,-0.03375521712009312,0.02314466240004685
0.705,-0.0027630531700089537,-0.7839342899999983,-0.0011123274300035206,-2.3557761099999985,0.004590829350013728,1.5754599500000137,0.7841862999999945,0.04,0.0399999779,-9.817347100000008,0.03648478575064773,0.040806719200133144,0.008674620900017846,-0.033918616175693424,0.02332797080004701
0.7075,-0.0027979652050089863,-0.7839272849999982,-0.0011260549950035334,-2.3557705149999983,0.004644358275013778,1.5755134250000138,0.7841646999999945,0.04,0.03999997685,-9.817375150000007,0.037028434313973645,0.04132587880013363,0.008744206350017911,-0.034082015231293734,0.023511279200047183
0.71,-0.002832877240009017,-0.7839202799999982,-0.0011397825600035457,-2.3557649199999986,0.004697887200013825,1.5755669000000139,0.7841430999999944,0.04,0.0399999758,-9.817403200000006,0.03757208287729953,0.041845038400134094,0.008813791800017973,-0.03424541428689404,0.023694587600047345
0.7125,-0.0028677892750090497,-0.7839132749999982,-0.0011535101250035585,-2.3557593249999984,0.004751416125013876,1.575620375000014,0.7841214999999944,0.04,0.03999997475,-9.817431250000007,0.038115731440625446,0.04236419800013458,0.008883377250018037,-0.034408813342494356,0.023877896000047517
0.715,-0.0029027013100090806,-0.7839062699999981,-0.0011672376900035706,-2.3557537299999987,0.004804945050013923,1.575673850000014,0.7840998999999944,0.04,0.039999973700000004,-9.817459300000007,0.03865938000395133,0.042883357600135036,0.008952962700018099,-0.03457221239809466,0.024061204400047678
0.7175,-0.002938219735009588,-0.783899159999998,-0.00118120365000377,-2.3557480149999983,0.0048594028350147,1.5757282500000147,0.7840779349999941,0.03999999975,0.03999997285,-9.81747945,0.03921378403917087,0.04341034380014165,0.00902314230001863,-0.034736687503798526,0.024245782800048844
0.72,-0.0029749509400096206,-0.7838918399999981,-0.001195646400003783,-2.3557420599999985,0.00491571834001475,1.5757845000000148,0.784055239999994,0.039999999,0.0399999724,-9.817483800000002,0.03978969901815239,0.04395298320014213,0.009094510200018693,-0.034903314709706985,0.02443290120004901
0.7225,-0.003011682145009655,-0.7838845199999981,-0.0012100891500037964,-2.3557361049999983,0.004972033845014803,1.575840750000015,0.7840325449999941,0.03999999825,0.039999971950000004,-9.81748815,0.040365613997133926,0.044495622600142636,0.00916587810001876,-0.035069941915615445,0.024620019600049184
0.725,-0.0030484133500096877,-0.783877199999998,-0.0012245319000038092,-2.3557301499999985,0.005028349350014853,1.575897000000015,0.784009849999994,0.0399999975,0.0399999715,-9.817492500000002,0.04094152897611544,0.04503826200014312,0.009237246000018823,-0.0352365691215239,0.024807138000049352
0.7275,-0.003085144555009722,-0.783869879999998,-0.0012389746500038228,-2.3557241949999987,0.005084664855014905,1.575953250000015,0.783987154999994,0.03999999675,0.03999997105,-9.817496850000001,0.04151744395509699,0.04558090140014363,0.00930861390001889,-0.03540319632743236,0.024994256400049524
0.73,-0.0031218757600097544,-0.7838625599999981,-0.0012534174000038356,-2.3557182399999985,0.005140980360014955,1.576009500000015,0.783964459999994,0.039999996,0.039999970600000004,-9.817501200000002,0.042093358934078506,0.04612354080014411,0.009379981800018953,-0.03556982353334081,0.025181374800049693
0.7325,-0.0031586069650097887,-0.7838552399999981,-0.001267860150003849,-2.3557122849999987,0.005197295865015009,1.576065750000015,0.783941764999994,0.03999999525,0.03999997015,-9.817505550000002,0.042669273913060045,0.04666618020014462,0.00945134970001902,-0.035736450739249276,0.025368493200049868
0.735,-0.003196576690010318,-0.7838477229999979,-0.0012827898100040572,-2.3557060999999986,0.005255508230015819,1.5761239200000159,0.7839182949999937,0.039999994500000004,0.039999969600000004,-9.817510900000002,0.0432666227223114,0.04722900900015319,0.009523767900019504,-0.035905145481274194,0.02555812170005104
0.7375,-0.0032351656750103544,-0.783840107499998,-0.0012979629250040713,-2.3556997999999982,0.005314669025015874,1.576183050000016,0.7838944374999937,0.039999993750000004,0.039999969,-9.817516750000003,0.04387468844668483,0.04780193250015373,0.009596711250019572,-0.036074873991356116,0.025749005250051218
0.74,-0.0032737546600103886,-0.7838324919999979,-0.0013131360400040848,-2.3556934999999983,0.005373829820015927,1.576242180000016,0.7838705799999935,0.039999993000000005,0.0399999684,-9.817522600000002,0.044482754171058236,0.04837485600015424,0.009669654600019636,-0.03624460250143804,0.025939888800051387
0.7425,-0.0033123436450104246,-0.783824876499998,-0.001328309155004099,-2.3556871999999984,0.005432990615015982,1.576301310000016,0.7838467224999935,0.03999999225,0.0399999678,-9.817528450000003,0.04509081989543167,0.04894777950015477,0.009742597950019706,-0.03641433101151996,0.026130772350051564
0.745,-0.0033509326300104588,-0.7838172609999979,-0.0013434822700041124,-2.3556808999999985,0.005492151410016035,1.576360440000016,0.7838228649999935,0.0399999915,0.0399999672,-9.817534300000002,0.04569888561980508,0.04952070300015528,0.00981554130001977,-0.036584059521601875,0.026321655900051734
0.7475,-0.0033895216150104947,-0.783809645499998,-0.0013586553850041265,-2.355674599999998,0.00555131220501609,1.576419570000016,0.7837990074999935,0.03999999075,0.0399999666,-9.817540150000001,0.046306951344178504,0.05009362650015581,0.009888484650019838,-0.0367537880316838,0.026512539450051914
0.75,-0.0034281106000110463,-0.7838020299999978,-0.0013738285000043434,-2.3556682999999983,0.005610473000016935,1.5764787000000169,0.7837751499999931,0.03999999,0.039999966,-9.817546000000005,0.04691501706856122,0.05066655000016375,0.009961428000020362,-0.036923516541766635,0.026703423000053107
0.7525000000000001,-0.003468595330011084,-0.7837940814999979,-0.0013897469050043582,-2.355661609999998,0.005672537225016992,1.576540710000017,0.7837501224999931,0.0399999897,0.039999964799999996,-9.817563100000005,0.0475572200493782,0.05126671050016431,0.010036056600020432,-0.0370966156945106,0.02689806165005329
0.755,-0.0035090800600111197,-0.7837861329999979,-0.0014056653100043724,-2.3556549199999983,0.005734601450017047,1.576602720000017,0.7837250949999931,0.0399999894,0.0399999636,-9.817580200000005,0.04819942303019514,0.05186687100016484,0.010110685200020498,-0.03726971484725457,0.027092700300053462
0.7575000000000001,-0.0035495647900111575,-0.7837781844999978,-0.0014215837150043872,-2.355648229999998,0.005796665675017105,1.5766647300000172,0.7837000674999931,0.0399999891,0.0399999624,-9.817597300000005,0.04884162601101212,0.052467031500165406,0.010185313800020569,-0.03744281399999854,0.027287338950053645
0.76,-0.0035900495200111935,-0.7837702359999978,-0.0014375021200044014,-2.3556415399999984,0.00585872990001716,1.5767267400000171,0.7836750399999931,0.0399999888,0.0399999612,-9.817614400000005,0.049483828991829064,0.053067192000165936,0.010259942400020634,-0.0376159131527425,0.027481977600053817
0.7625000000000001,-0.0036305342500112313,-0.7837622874999978,-0.0014534205250044162,-2.355634849999998,0.005920794125017218,1.5767887500000173,0.7836500124999931,0.0399999885,0.03999996,-9.817631500000005,0.050126031972646035,0.0536673525001665,0.010334571000020705,-0.03778901230548647,0.027676616250054
0.765,-0.0036710189800112673,-0.7837543389999978,-0.0014693389300044304,-2.3556281599999984,0.005982858350017273,1.5768507600000172,0.7836249849999931,0.0399999882,0.0399999588,-9.817648600000005,0.050768234953462985,0.05426751300016703,0.01040919960002077,-0.03796211145823044,0.02787125490005417
0.7675000000000001,-0.0037121478950118444,-0.7837462864999977,-0.0014855105950046573,-2.3556213749999984,0.006045909240018158,1.5769137600000183,0.7835995649999927,0.0399999881,0.0399999581,-9.8176606,0.051421428285727676,0.0548773593501757,0.010484374000021297,-0.03813622687016869,0.028067027450055303
0.77,-0.003754565180011882,-0.7837380259999976,-0.0015021887800046722,-2.355614399999998,0.006110933460018215,1.5769787400000181,0.7835733599999927,0.0399999884,0.0399999584,-9.8176624,0.0520966023208602,0.05550657740017626,0.010560640000021364,-0.038312374800492925,0.028265067800055478
0.7725,-0.00379698246501192,-0.7837297654999976,-0.0015188669650046868,-2.3556074249999983,0.006175957680018273,1.5770437200000182,0.7835471549999926,0.0399999887,0.039999958700000005,-9.817664200000001,0.052771776355992714,0.05613579545017682,0.010636906000021432,-0.03848852273081717,0.028463108150055653
0.775,-0.00383939975001196,-0.7837215049999977,-0.0015355451500047024,-2.355600449999998,0.006240981900018334,1.5771087000000183,0.7835209499999926,0.039999989,0.039999959,-9.817666000000001,0.053446950391125264,0.05676501350017741,0.010713172000021504,-0.03866467066114142,0.028661148500055838
0.7775,-0.0038818170350119973,-0.7837132444999977,-0.0015522233350047173,-2.3555934749999983,0.006306006120018391,1.5771736800000185,0.7834947449999926,0.0399999893,0.0399999593,-9.8176678,0.05412212442625779,0.05739423155017797,0.010789438000021571,-0.03884081859146566,0.028859188850056013
0.78,-0.003924234320012037,-0.7837049839999977,-0.0015689015200047328,-2.355586499999998,0.006371030340018452,1.5772386600000186,0.7834685399999926,0.0399999896,0.0399999596,-9.8176696,0.05479729846139034,0.05802344960017855,0.010865704000021643,-0.03901696652178991,0.029057229200056198
0.7825,-0.003966651605012075,-0.7836967234999976,-0.0015855797050047474,-2.355579524999998,0.00643605456001851,1.5773036400000184,0.7834423349999925,0.0399999899,0.0399999599,-9.8176714,0.05547247249652285,0.05865266765017911,0.010941970000021709,-0.03919311445211415,0.029255269550056376
0.785,-0.004010381380012677,-0.7836882429999975,-0.0016027738700049841,-2.355572279999998,0.006503088770019432,1.5773706200000195,0.7834153029999921,0.0399999905,0.03999996,-9.817685900000006,0.05617203079184347,0.05930159930018814,0.011019266200022223,-0.03937164470558528,0.029455683300057576
0.7875,-0.0040547674000127164,-0.7836796524999975,-0.0016202260250049996,-2.355564899999998,0.006571127975019492,1.5774386000000196,0.7833878574999921,0.03999999125,0.03999996,-9.817706750000006,0.056883781217242455,0.05996038775018873,0.011097077500022291,-0.03955136612062832,0.029657283750057755
0.79,-0.0040991534200127576,-0.7836710619999975,-0.001637678180005016,-2.355557519999998,0.006639167180019555,1.5775065800000196,0.7833604119999921,0.039999992,0.03999996,-9.817727600000007,0.057595531642641466,0.06061917620018934,0.011174888800022363,-0.03973108753567136,0.029858884200057945
0.7925,-0.004143539440012797,-0.7836624714999975,-0.0016551303350050314,-2.355550139999998,0.006707206385019616,1.5775745600000195,0.7833329664999921,0.039999992750000005,0.03999996,-9.817748450000007,0.05830728206804045,0.06127796465018993,0.011252700100022432,-0.03991080895071439,0.03006048465005812
0.795,-0.004187925460012838,-0.7836538809999974,-0.0016725824900050478,-2.355542759999998,0.006775245590019679,1.5776425400000196,0.783305520999992,0.039999993500000004,0.03999996,-9.817769300000007,0.05901903249343946,0.06193675310019054,0.011330511400022506,-0.04009053036575744,0.03026208510005831
0.7975,-0.004232311480012877,-0.7836452904999974,-0.0016900346450050632,-2.355535379999998,0.00684328479501974,1.5777105200000197,0.783278075499992,0.039999994250000004,0.03999996,-9.817790150000008,0.059730782918838446,0.06259554155019113,0.011408322700022575,-0.040270251780800466,0.03046368555005849
0.8,-0.004276697500013502,-0.7836366999999974,-0.001707486800005309,-2.355527999999998,0.006911324000020696,1.5777785000000206,0.7832506299999916,0.039999995,0.03999996,-9.817811000000003,0.060442533344249406,0.06325433000019849,0.011486134000023155,-0.040449973195844445,0.0306652860000596
0.8025,-0.004323087175013543,-0.7836277659999974,-0.0017257267850053252,-2.3555202149999976,0.006982432130020759,1.5778495550000207,0.7832219604999916,0.03999999575,0.0399999609,-9.817814300000002,0.0611953316258601,0.0639363155001991,0.011565688600023227,-0.040632893703931285,0.030870058650059783
0.805,-0.004369476850013586,-0.7836188319999974,-0.001743966770005342,-2.355512429999998,0.007053540260020826,1.577920610000021,0.7831932909999916,0.0399999965,0.0399999618,-9.817817600000001,0.061948129907470825,0.06461830100019973,0.0116452432000233,-0.04081581421201814,0.031074831300059974
0.8075,-0.004415866525013627,-0.7836098979999974,-0.0017622067550053582,-2.3555046449999977,0.007124648390020889,1.577991665000021,0.7831646214999916,0.03999999725,0.0399999627,-9.817820900000001,0.06270092818908152,0.06530028650020034,0.01172479780002337,-0.04099873472010498,0.03127960395006016
0.81,-0.004462256200013671,-0.7836009639999973,-0.0017804467400053753,-2.355496859999998,0.007195756520020955,1.578062720000021,0.7831359519999915,0.039999998,0.0399999636,-9.817824200000002,0.06345372647069224,0.06598227200020097,0.011804352400023446,-0.041181655228191824,0.03148437660006035
0.8125,-0.004508645875013712,-0.7835920299999973,-0.0017986867250053915,-2.3554890749999977,0.007266864650021018,1.578133775000021,0.7831072824999915,0.03999999875,0.0399999645,-9.817827500000002,0.06420652475230294,0.06666425750020158,0.011883907000023515,-0.04136457573627867,0.03168914925006053
0.8150000000000001,-0.004555035550013755,-0.7835830959999973,-0.0018169267100054084,-2.355481289999998,0.007337972780021085,1.578204830000021,0.7830786129999915,0.0399999995,0.0399999654,-9.817830800000001,0.06495932303391366,0.06734624300020221,0.01196346160002359,-0.04154749624436552,0.03189392190006072
0.8175,-0.004602104465014402,-0.7835740494999972,-0.0018354337500056629,-2.355473409999998,0.007410121340022076,1.5782769400000223,0.7830495199999911,0.04,0.039999966,-9.817834750000001,0.06571905761980176,0.06804181400021495,0.012043514000024104,-0.04173134714370523,0.03209975165006185
0.8200000000000001,-0.004650531860014448,-0.7835647779999972,-0.0018544749000056807,-2.3554653399999976,0.007484350760022145,1.5783511600000222,0.7830195799999911,0.04,0.039999966,-9.817840000000002,0.06649266481422615,0.06876455600021562,0.01212456200002418,-0.041917058825548206,0.03230769560006204
0.8225,-0.00469895925501449,-0.7835555064999972,-0.0018735160500056977,-2.355457269999998,0.007558580180022211,1.5784253800000223,0.782989639999991,0.04,0.039999966,-9.817845250000001,0.06726627200865051,0.06948729800021626,0.012205610000024252,-0.04210277050739117,0.032515639550062224
0.8250000000000001,-0.004747386650014535,-0.7835462349999972,-0.0018925572000057156,-2.3554491999999976,0.00763280960002228,1.5784996000000222,0.782959699999991,0.04,0.039999966,-9.817850500000002,0.0680398792030749,0.07021004000021694,0.012286658000024328,-0.04228848218923414,0.032723583500062416
0.8275,-0.004795814045014579,-0.7835369634999971,-0.0019115983500057323,-2.3554411299999973,0.007707039020022346,1.5785738200000223,0.782929759999991,0.04,0.039999966,-9.817855750000001,0.06881348639749926,0.07093278200021759,0.0123677060000244,-0.04247419387107711,0.0329315274500626
0.8300000000000001,-0.004844241440014624,-0.7835276919999972,-0.0019306395000057502,-2.3554330599999975,0.007781268440022415,1.5786480400000225,0.782899819999991,0.04,0.039999966,-9.817861000000002,0.06958709359192365,0.07165552400021825,0.012448754000024476,-0.042659905552920076,0.03313947140006279
0.8325,-0.004892668835014667,-0.7835184204999972,-0.0019496806500057672,-2.3554249899999973,0.007855497860022482,1.5787222600000224,0.782869879999991,0.04,0.039999966,-9.817866250000002,0.07036070078634801,0.0723782660002189,0.012529802000024548,-0.042845617234763045,0.03334741535006298
0.835,-0.004942477120015339,-0.783508876999997,-0.001969264680006031,-2.3554166499999973,0.00793184200002351,1.5787985500000234,0.7828390939999905,0.04,0.039999966399999996,-9.817876700000005,0.07116452008510667,0.07311786900022722,0.01261194810002512,-0.043033383041677524,0.03355748200006413
0.8375,-0.004992975850015386,-0.783499197499997,-0.0019891201500060497,-2.3554081749999973,0.008009243500023583,1.5788758750000236,0.7828078849999905,0.04,0.039999967,-9.817889750000004,0.0719834454360119,0.07386590250022793,0.012694643250025197,-0.04322217591112637,0.03376861000006433
0.84,-0.005043474580015431,-0.783489517999997,-0.0020089756200060674,-2.3553996999999973,0.008086645000023653,1.5789532000000235,0.7827766759999905,0.04,0.0399999676,-9.817902800000004,0.07280237078691709,0.07461393600022859,0.01277733840002527,-0.04341096878057521,0.03397973800006451
0.8425,-0.0050939733100154785,-0.783479838499997,-0.002028831090006086,-2.3553912249999973,0.008164046500023725,1.5790305250000236,0.7827454669999905,0.04,0.0399999682,-9.817915850000004,0.07362129613782231,0.07536196950022928,0.012860033550025346,-0.043599761650024056,0.03419086600006471
