rsonawane2002/My_IMU/logs_2/traj_318/imu_318.csv
time,j1,j2,j3,j4,j5,j6,j7,gripper1,gripper2,imu_ax,imu_ay,imu_az,imu_gx,imu_gy,imu_gz
741.3833333329877,0.00016700293,-0.785875,4.0107683e-05,-2.3551247,9.29385e-05,1.570997,0.786,0.04,0.04,-9.543085,0.03950367122888565,0.0830875,-1.384282e-07,-0.0011641274904832244,5.2878625e-07
741.3999999996544,0.00016699909,-0.78576016,4.0111932e-05,-2.3552213,9.298477e-05,1.5709941,0.786,0.04,0.04,-9.83441,0.0006277819629758596,0.009085139,1.5287053e-07,-0.0022387136705219746,1.7194075e-06
741.416666666321,0.00016694923,-0.78565425,4.0097224e-05,-2.35531,9.310198e-05,1.5709913,0.786,0.04,0.04,-9.832503,0.000583563232794404,0.0076161223,2.0330601e-06,-0.0032329459208995104,7.1644886e-06
741.4333333329877,0.00016677637,-0.78555685,4.0033025e-05,-2.355391,9.3411014e-05,1.5709884,0.786,0.04,0.04,-9.830728,0.0004994877963326871,0.006326231,6.7453984e-06,-0.004155577626079321,2.078645e-05
741.4499999996543,0.00016636908,-0.7854671,3.9875336e-05,-2.3554652,9.4085e-05,1.5709856,0.786,0.04,0.04,-9.829014,0.00038900389336049557,0.0052063907,1.5436333e-05,-0.005014763213694096,4.6134417e-05
741.466666666321,0.00016558556,-0.7853845,3.9568276e-05,-2.355532,9.5340925e-05,1.5709862,0.786,0.04,0.04,-9.827628,0.00024080576258711517,0.0041774097,2.900102e-05,-0.0058212243020534515,8.580151e-05
741.4833333329876,0.0001642555,-0.78530824,3.904472e-05,-2.3555949,9.745709e-05,1.570987,0.786,0.04,0.039999995,-9.826085,8.988415356725454e-05,0.00322279,4.7828475e-05,-0.006562308873981237,0.0001452237
741.4999999996543,0.0001621848,-0.7852379,3.822852e-05,-2.355653,0.00010070767,1.5709879,0.7859981,0.04,0.04,-9.825145,-0.00010580435628071427,0.0024635117,7.290995e-05,-0.007275418844074011,0.00022283036
741.5166666663209,0.00015915632,-0.7851732,3.703401e-05,-2.3557045,0.000105448395,1.5709924,0.7859962,0.04,0.039999995,-9.82421,-0.0002894329954870045,0.00181437,0.000112999376,-0.007964774034917355,0.00032465596
741.5333333329876,0.0001549339,-0.7851134,3.536859e-05,-2.3557541,0.00011201493,1.5709971,0.7859943,0.04,0.04,-9.822924,-0.0004922781372442842,0.0012037384,0.00015938505,-0.008607420139014721,0.00044902496
741.5499999996542,0.00014926329,-0.7850581,3.313228e-05,-2.3557973,0.00012081405,1.5710056,0.7859905,0.04,0.04,-9.822432,-0.00066733593121171,0.00075996364,0.00021197127,-0.009247306734323502,0.00060189806
741.5666666663209,0.00014187541,-0.78500664,3.021942e-05,-2.3558385,0.00013225654,1.5710156,0.7859859,0.039999995,0.04,-9.821349,-0.0008593295351602137,0.00033333432,0.00027984072,-0.009854080155491829,0.00078138825
741.5833333329875,0.00013248739,-0.78495896,2.6518832e-05,-2.3558738,0.00014677782,1.571028,0.78598017,0.03999999,0.03999999,-9.8209715,-0.0010101674124598503,6.086589e-05,0.00035710805,-0.010464086197316647,0.0009920894
741.5999999996542,0.0001208048,-0.7849144,2.1914851e-05,-2.3559082,0.00016482735,1.5710442,0.78597254,0.039999988,0.039999988,-9.820033,-0.0011553361546248198,-0.00013621768,0.0004451876,-0.011057390831410885,0.0012326142
741.6166666663208,0.00010652294,-0.78487283,1.6287884e-05,-2.3559368,0.00018687223,1.5710645,0.785963,0.039999984,0.039999984,-9.819874,-0.0012618243927136064,-0.00028747512,0.00054699945,-0.011658242903649807,0.0015048811
741.6333333329875,8.932858e-05,-0.7848337,9.514815e-06,-2.3559637,0.00021339188,1.5710907,0.785952,0.03999998,0.03999998,-9.81903,-0.0013361667515709996,-0.00032267455,0.00066236476,-0.01224511582404375,0.0018097615
741.6499999996541,6.89011e-05,-0.784797,1.4697197e-06,-2.3559873,0.0002448778,1.5711222,0.785939,0.03999998,0.039999977,-9.818736,-0.0013560745865106583,-0.00032276288,0.00078851933,-0.01283250655978918,0.002148878
741.6666666663208,4.4913697e-05,-0.78476226,-7.975821e-06,-2.3560073,0.00028182913,1.5711578,0.7859237,0.039999977,0.039999973,-9.818347,-0.0013371938839554787,-0.00016516593,0.0009270104,-0.013422881253063679,0.0025211326
741.6833333329874,1.7034788e-05,-0.78472924,-1.8951989e-05,-2.3560264,0.0003247537,1.5712006,0.78590655,0.039999973,0.03999997,-9.817933,-0.001255441689863801,9.6807315e-05,0.0010784719,-0.014021563343703747,0.0029278896
741.6999999996541,-1.5071267e-05,-0.78469753,-3.159061e-05,-2.356042,0.00037416525,1.5712496,0.78588665,0.03999997,0.039999966,-9.817795,-0.00109007372520864,0.00039182126,0.0012404516,-0.014630942605435848,0.0033695372
741.7166666663207,-5.1743074e-05,-0.78466713,-4.602469e-05,-2.3560543,0.0004305819,1.5713058,0.7858639,0.039999966,0.03999996,-9.817493,-0.0008821336086839437,0.0008116465,0.0014159137,-0.01524928119033575,0.0038463632
741.7333333329874,-9.3321316e-05,-0.78463775,-6.2388106e-05,-2.3560658,0.0004945249,1.5713694,0.7858381,0.03999997,0.039999966,-9.817215,-0.0005887649022042751,0.0013283789,0.0016047576,-0.015876704826951027,0.004358561
741.749999999654,-0.00014014814,-0.784609,-8.081531e-05,-2.3560743,0.0005665181,1.5714412,0.785809,0.03999997,0.03999996,-9.817181,-0.00019423384219408035,0.0019457685,0.0018062462,-0.016523178666830063,0.004907115
741.7666666663207,-0.00019256602,-0.7845809,-0.00010144086,-2.3560796,0.00064708473,1.5715213,0.7857765,0.039999966,0.039999958,-9.817002,0.0002723117358982563,0.0026417503,0.0020218175,-0.017183486372232437,0.005490325
741.7833333329874,-0.00025091748,-0.7845531,-0.0001243993,-2.3560834,0.00073674944,1.5716107,0.7857404,0.03999996,0.039999954,-9.816756,0.0008495817892253399,0.0034654238,0.0022498318,-0.01785702258348465,0.0061090225
741.799999999654,-0.0003155444,-0.78452563,-0.00014982496,-2.3560855,0.00083603483,1.5717096,0.7857003,0.03999996,0.039999954,-9.81678,0.001539501827210188,0.0043864218,0.0024907975,-0.018551556393504143,0.00676309
741.8166666663207,-0.00038678743,-0.78449816,-0.00017785172,-2.3560848,0.0009454622,1.5718187,0.7856562,0.03999996,0.039999954,-9.816759,0.002335815690457821,0.0054225903,0.0027454782,-0.019266493618488312,0.0074523715
741.8333333329873,-0.00046498555,-0.78447044,-0.00020861266,-2.3560815,0.0010655504,1.5719385,0.7856079,0.039999966,0.039999958,-9.81662,0.003250292968004942,0.006562215,0.0030126795,-0.019997181370854378,0.008176633
741.849999999654,-0.0005504754,-0.7844424,-0.00024224016,-2.3560777,0.0011968142,1.5720695,0.7855549,0.03999997,0.039999958,-9.816538,0.004297998268157244,0.007810292,0.0032928062,-0.020746486261487007,0.008936463
741.8666666663206,-0.00064359064,-0.784414,-0.0002788655,-2.3560708,0.0013397641,1.5722123,0.78549737,0.039999966,0.039999954,-9.8167305,0.005462164059281349,0.0091963,0.003586517,-0.02152382768690586,0.009729838
741.8833333329873,-0.0007446624,-0.78438497,-0.00031861867,-2.3560612,0.0014949073,1.5723671,0.7854348,0.03999997,0.039999958,-9.816611,0.006774409674108028,0.01068615,0.0038922676,-0.022317100316286087,0.010557216
741.8999999996539,-0.0008540185,-0.7843551,-0.00036162848,-2.3560498,0.0016627448,1.5725346,0.7853671,0.039999973,0.03999996,-9.816569,0.008226977661252022,0.012332177,0.004211491,-0.02313154935836792,0.011418203
741.9166666663206,-0.0009719831,-0.7843244,-0.00040802234,-2.3560371,0.0018437721,1.5727154,0.785294,0.039999977,0.039999966,-9.816611,0.00983239896595478,0.014078634,0.004543427,-0.023968389257788658,0.012312361
741.9333333329872,-0.001098876,-0.7842928,-0.00045792604,-2.3560221,0.0020384798,1.57291,0.7852154,0.03999998,0.039999966,-9.81678,0.011601274833083153,0.01597057,0.0048880726,-0.024830980226397514,0.013240073
741.9499999996539,-0.001235013,-0.78426015,-0.00051146356,-2.356004,0.00224735,1.5731188,0.78513116,0.03999998,0.039999966,-9.816757,0.013553968630731106,0.017983459,0.0052454807,-0.025714775547385216,0.014199091
741.9666666663205,-0.001380705,-0.7842263,-0.0005687576,-2.355985,0.0024708593,1.573342,0.78504103,0.039999984,0.03999997,-9.816691,0.015607933513820171,0.02017726,0.0056148395,-0.02661544643342495,0.015189743
741.9833333329872,-0.0015362592,-0.7841912,-0.0006299284,-2.3559632,0.002709477,1.5735805,0.7849449,0.039999988,0.039999973,-9.816949,0.017873411998152733,0.022519479,0.0059960983,-0.027546929195523262,0.016211484
741.9999999996538,-0.0017019776,-0.7841548,-0.0006950949,-2.3559391,0.0029636663,1.5738344,0.7848424,0.03999999,0.039999973,-9.816928,0.0203211922198534,0.024982292,0.006389555,-0.02849695086479187,0.017264536
742.0166666663205,-0.0018781567,-0.7841168,-0.00076437375,-2.3559124,0.0032338789,1.5741043,0.7847335,0.039999995,0.039999977,-9.8169565,0.022944752126932144,0.027624793,0.0067954385,-0.029468785971403122,0.018346598
742.0333333329871,-0.002065088,-0.7840771,-0.0008378795,-2.3558846,0.0035205616,1.5743908,0.7846179,0.04,0.03999998,-9.816978,0.025762096047401428,0.03041339,0.0072126314,-0.03046216443181038,0.0194579
742.0499999996538,-0.0022630575,-0.78403586,-0.00091572455,-2.3558545,0.0038241528,1.574694,0.7844955,0.04,0.039999977,-9.817221,0.02877359464764595,0.033354126,0.007641907,-0.031483978033065796,0.020598304
742.0666666663204,-0.0024723462,-0.783993,-0.0009980194,-2.3558216,0.0041450826,1.5750146,0.7843661,0.04,0.039999977,-9.817282,0.03198596090078354,0.036475144,0.008082953,-0.03252749517560005,0.021766217
742.0833333329871,-0.0026932291,-0.7839483,-0.0010848723,-2.3557873,0.0044837715,1.575353,0.7842295,0.04,0.03999998,-9.817291,0.0353974886238575,0.0397684,0.00853545,-0.03359181806445122,0.022961354
742.0999999996537,-0.002925976,-0.7839016,-0.0011763894,-2.35575,0.004840631,1.5757095,0.7840855,0.04,0.039999973,-9.817478,0.0390218123793602,0.043229464,0.008999353,-0.03468114510178566,0.02418341
742.1166666663204,-0.0031708507,-0.7838528,-0.0012726744,-2.3557103,0.0052160677,1.5760845,0.7839342,0.039999995,0.03999997,-9.817507,0.042861245572566986,0.04684706,0.009475139,-0.035791993141174316,0.025430866
742.133333332987,-0.0034281106,-0.78380203,-0.0013738285,-2.3556683,0.005610473,1.5764787,0.78377515,0.03999999,0.039999966,-9.817546,0.04691501706838608,0.05066655,0.009961428,-0.03692351654171944,0.026703423
742.1499999996537,-0.0036980088,-0.78374904,-0.0014799512,-2.3556237,0.0060242345,1.5768921,0.7836083,0.039999988,0.039999958,-9.81766,0.051196370273828506,0.05466762,0.010458952,-0.03807751089334488,0.028001014
742.1666666663203,-0.0039807907,-0.78369397,-0.0015911391,-2.3555772,0.0064577293,1.5773253,0.7834336,0.03999999,0.03999996,-9.817672,0.05569753050804138,0.058862407,0.010967392,-0.03925183042883873,0.029321283
742.183333332987,-0.0042766975,-0.7836367,-0.0017074868,-2.355528,0.006911324,1.5777785,0.78325063,0.039999995,0.03999996,-9.817811,0.06044253334403038,0.06325433,0.011486134,-0.040449973195791245,0.030665286
742.1999999996536,-0.004585962,-0.78357714,-0.0018290867,-2.3554761,0.0073853782,1.5782522,0.7830595,0.04,0.039999966,-9.817833,0.0654611885547638,0.0678009,0.012016498,-0.041669443249702454,0.032030437
742.2166666663203,-0.0049088113,-0.78351533,-0.0019560277,-2.3554223,0.007880241,1.578747,0.7828599,0.04,0.039999966,-9.817868,0.07061856985092163,0.07261918,0.012556818,-0.04290752112865448,0.03341673
742.233333332987,-0.0052454695,-0.7834508,-0.0020883975,-2.3553658,0.008396251,1.5792625,0.78265184,0.04,0.03999997,-9.817955,0.07607807219028473,0.07760607,0.013108119,-0.044166140258312225,0.03482425
742.2499999996536,-0.0055961516,-0.78338397,-0.0022262817,-2.3553061,0.008933738,1.5797995,0.7824351,0.04,0.03999997,-9.8180485,0.081778384745121,0.082789354,0.013669483,-0.04544975981116295,0.036251094
742.2666666663202,-0.005961068,-0.78331476,-0.0023697622,-2.3552449,0.009493023,1.5803583,0.7822096,0.04,0.039999958,-9.817963,0.0877305269241333,0.08819275,0.014240936,-0.04674871265888214,0.03769728
742.2833333329869,-0.0063404217,-0.7832429,-0.0025189202,-2.3551812,0.010074419,1.5809393,0.7819751,0.04,0.03999996,-9.818115,0.09393677115440369,0.09382502,0.0148229245,-0.04807288572192192,0.039161168
742.2999999996536,-0.0067344108,-0.7831683,-0.0026738315,-2.355114,0.010678227,1.5815427,0.7817316,0.04,0.039999966,-9.818127,0.10039503872394562,0.09963132,0.01541514,-0.049415912479162216,0.040642556
742.3166666663202,-0.0071432265,-0.7830912,-0.0028345722,-2.3550444,0.011304744,1.5821686,0.7814788,0.04,0.03999997,-9.8180485,0.10711520910263062,0.10568081,0.016017035,-0.050775617361068726,0.042140525
742.3333333329869,-0.0075670523,-0.7830113,-0.0030012152,-2.3549728,0.011954244,1.5828178,0.78121686,0.04,0.03999996,-9.81803,0.1140972226858139,0.1119632,0.01662938,-0.052155718207359314,0.043653976
742.3499999996535,-0.008006067,-0.7829287,-0.0031738305,-2.3548977,0.012627012,1.5834903,0.78094554,0.04,0.039999966,-9.818113,0.12134571373462677,0.11845159,0.017251255,-0.05355680733919144,0.04518274
742.3666666663202,-0.008460447,-0.7828434,-0.0033524875,-2.3548203,0.013323309,1.584186,0.7806648,0.04,0.039999958,-9.817955,0.12886524200439453,0.12517282,0.017882688,-0.054972197860479355,0.04672517
742.3833333329868,-0.008930359,-0.78275526,-0.0035372507,-2.3547406,0.014043383,1.5849059,0.78037447,0.04,0.039999954,-9.817929,0.13665278255939484,0.13214788,0.018523322,-0.05640849098563194,0.048281003
742.3999999996535,-0.009415961,-0.7826643,-0.0037281846,-2.3546572,0.014787487,1.5856491,0.7800744,0.04,0.03999996,-9.817929,0.14472050964832306,0.13932605,0.019173456,-0.057864367961883545,0.04984953
742.4166666663201,-0.009917406,-0.7825705,-0.003925349,-2.3545716,0.015555857,1.5864172,0.7797646,0.04,0.039999958,-9.817702,0.15305188298225403,0.14677037,0.019833066,-0.05933528020977974,0.05142947
742.4333333329868,-0.010434846,-0.78247374,-0.004128804,-2.3544827,0.016348727,1.5872096,0.77944493,0.04,0.039999958,-9.817657,0.16166742146015167,0.15443513,0.020502131,-0.06082441657781601,0.053020447
742.4499999996534,-0.010968424,-0.78237414,-0.004338604,-2.3543913,0.01716631,1.5880269,0.77911526,0.04,0.039999958,-9.817388,0.17062444984912872,0.16230737,0.021180311,-0.062328606843948364,0.054621227
742.4666666663201,-0.011518276,-0.7822712,-0.004554802,-2.3542979,0.01800881,1.5888691,0.7787755,0.04,0.03999995,-9.817337,0.17973925173282623,0.17050675,0.021867825,-0.06385079771280289,0.056230806
742.4833333329867,-0.012084532,-0.7821657,-0.0047774515,-2.3542004,0.018876435,1.5897363,0.7784256,0.04,0.039999947,-9.817239,0.18920405209064484,0.17888777,0.022564413,-0.06539347767829895,0.057849534
742.4999999996534,-0.012667321,-0.78205657,-0.005006601,-2.3541005,0.019769363,1.5906287,0.77806556,0.04,0.039999947,-9.816856,0.19894447922706604,0.1875701,0.02327069,-0.0669463649392128,0.05947528
742.51666666632,-0.013266755,-0.7819448,-0.0052422984,-2.3539984,0.020687787,1.5915467,0.77769536,0.04,0.03999995,-9.8167,0.20898424088954926,0.19644289,0.023984859,-0.0685201957821846,0.061108567
742.5333333329867,-0.013882947,-0.7818298,-0.005484586,-2.353892,0.021631878,1.5924903,0.7773146,0.04,0.039999943,-9.816507,0.21930263936519623,0.2056278,0.024707463,-0.0701114684343338,0.06274677
742.5499999996533,-0.014516013,-0.781712,-0.005733507,-2.3537838,0.022601806,1.5934598,0.7769234,0.04,0.03999995,-9.816032,0.22991134226322174,0.21502875,0.025440082,-0.07171254605054855,0.06439084
742.56666666632,-0.015166044,-0.78159076,-0.005989102,-2.3536716,0.023597715,1.5944552,0.77652174,0.04,0.03999995,-9.8157835,0.24081376194953918,0.22473492,0.026181346,-0.07333147525787354,0.06603871
742.5833333329866,-0.015833138,-0.78146607,-0.006251409,-2.3535566,0.024619756,1.5954767,0.7761096,0.04,0.039999943,-9.815287,0.2520133852958679,0.23464796,0.026931478,-0.074961356818676,0.0676907
742.5999999996533,-0.01651739,-0.7813389,-0.006520462,-2.35344,0.025668062,1.5965245,0.7756868,0.04,0.03999994,-9.814933,0.2634999752044678,0.24483082,0.0276897,-0.07660907506942749,0.06934501
742.6166666663199,-0.017218882,-0.7812081,-0.0067962934,-2.3533187,0.026742771,1.5975987,0.7752535,0.04,0.039999947,-9.814586,0.27528300881385803,0.25534576,0.028456304,-0.07827363163232803,0.07100105
742.6333333329866,-0.01793769,-0.7810745,-0.007078937,-2.3531954,0.027843997,1.5986992,0.7748093,0.04,0.039999943,-9.8139105,0.28735077381134033,0.26604512,0.029231232,-0.07994630932807922,0.07265791
742.6499999996532,-0.018673886,-0.78093755,-0.0073684175,-2.3530688,0.028971853,1.5998266,0.77435446,0.04,0.039999943,-9.813473,0.29973772168159485,0.2770954,0.030015107,-0.08163672685623169,0.07431619
742.6666666663199,-0.019427538,-0.780797,-0.0076647657,-2.352939,0.030126443,1.6009806,0.7738888,0.04,0.03999994,-9.812845,0.31239593029022217,0.28834197,0.030806879,-0.08333782106637955,0.07597399
742.6833333329865,-0.020198708,-0.7806538,-0.007968004,-2.3528073,0.031307857,1.6021615,0.7734124,0.04,0.03999994,-9.812191,0.3253515958786011,0.29985857,0.03160686,-0.08505227416753769,0.07762968
742.6999999996532,-0.020987453,-0.780507,-0.008278156,-2.3526711,0.032516204,1.6033692,0.77292514,0.04,0.039999936,-9.811584,0.3386944830417633,0.3116726,0.032414608,-0.08678320050239563,0.07928433
742.7166666663198,-0.021793827,-0.7803567,-0.008595238,-2.3525326,0.033751506,1.6046039,0.772427,0.04,0.039999932,-9.810751,0.35217055678367615,0.32378918,0.033230633,-0.0885220319032669,0.08093538
742.7333333329865,-0.022617873,-0.7802035,-0.008919273,-2.352391,0.035013895,1.6058656,0.77191794,0.04,0.03999993,-9.810063,0.36602962017059326,0.33614275,0.034054067,-0.09027762711048126,0.08258358
742.7499999996531,-0.02345963,-0.7800469,-0.009250271,-2.3522458,0.03630339,1.6071544,0.77139795,0.04,0.039999932,-9.809158,0.38017189502716064,0.34881696,0.034885753,-0.09204229712486267,0.084226534
742.7666666663198,-0.024319135,-0.779887,-0.009588254,-2.3520982,0.037620064,1.6084706,0.77086693,0.04,0.039999932,-9.808197,0.3946155905723572,0.3617291,0.03572485,-0.09381726384162903,0.085865594
742.7833333329864,-0.02519642,-0.77972406,-0.009933224,-2.3519468,0.038963944,1.6098137,0.77032495,0.04,0.039999932,-9.807298,0.40935325622558594,0.37493894,0.036571942,-0.0956052616238594,0.08749765
742.7999999996531,-0.0260915,-0.77955765,-0.010285196,-2.3517933,0.040335085,1.6111841,0.769772,0.04,0.039999925,-9.806139,0.4243869185447693,0.3884512,0.037426855,-0.0974002331495285,0.08912427
742.8166666663197,-0.027004395,-0.7793878,-0.010644177,-2.351636,0.04173352,1.6125818,0.769208,0.04,0.03999993,-9.805204,0.4397130310535431,0.40221745,0.03828878,-0.09921237826347351,0.09074267
742.8333333329864,-0.027935125,-0.77921474,-0.011010171,-2.3514757,0.04315924,1.6140069,0.76863307,0.04,0.03999993,-9.8039055,0.4553375840187073,0.4162514,0.03915835,-0.10103034228086472,0.092353866
742.849999999653,-0.02888369,-0.7790383,-0.011383187,-2.3513124,0.044612296,1.6154592,0.768047,0.04,0.039999932,-9.802714,0.4712486267089844,0.4306065,0.040034674,-0.10286051034927368,0.09395561
742.8666666663197,-0.029850096,-0.7788586,-0.011763219,-2.3511457,0.046092663,1.6169384,0.7674499,0.04,0.039999925,-9.801358,0.48745888471603394,0.4452168,0.04091886,-0.10469909757375717,0.09554891
742.8833333329864,-0.03083435,-0.7786756,-0.01215027,-2.3509772,0.047600362,1.6184447,0.76684177,0.04,0.039999917,-9.7999325,0.5039472579956055,0.4601472,0.041810058,-0.10654868930578232,0.09713115
742.899999999653,-0.031836443,-0.77848923,-0.012544336,-2.3508043,0.04913539,1.6199789,0.76622266,0.04,0.03999993,-9.79861,0.5207492709159851,0.4753473,0.042708118,-0.10841304808855057,0.098703064
742.9166666663197,-0.032856353,-0.7782997,-0.012945414,-2.3506289,0.0506977,1.6215404,0.7655926,0.04,0.039999913,-9.79688,0.5378100872039795,0.49078545,0.043612905,-0.11027821898460388,0.100263335
742.9333333329863,-0.033894077,-0.77810675,-0.013353499,-2.3504505,0.052287262,1.6231291,0.7649515,0.04,0.03999993,-9.79528,0.5551674962043762,0.50658166,0.044523988,-0.11215385794639587,0.101810485
742.949999999653,-0.034949597,-0.7779106,-0.013768584,-2.3502684,0.05390408,1.6247454,0.7642996,0.04,0.039999917,-9.793532,0.5729062557220459,0.52257955,0.04544157,-0.11404003947973251,0.103345975
742.9666666663196,-0.03602288,-0.7777111,-0.014190652,-2.3500843,0.055548083,1.6263887,0.76363665,0.04,0.03999993,-9.791612,0.5907398462295532,0.53897893,0.04636548,-0.11592806875705719,0.10486657
742.9833333329863,-0.037113886,-0.7775083,-0.0146197025,-2.3498967,0.05721924,1.6280589,0.76296276,0.04,0.039999932,-9.789846,0.6089761257171631,0.55562186,0.04729536,-0.11782972514629364,0.10637518
742.9999999996529,-0.038222596,-0.7773022,-0.0150557095,-2.349706,0.058917496,1.6297565,0.76227784,0.04,0.03999993,-9.7877445,0.6274606585502625,0.5725415,0.048231304,-0.11973720043897629,0.10786817
743.0166666663196,-0.03934896,-0.7770929,-0.015498663,-2.3495119,0.060642783,1.6314809,0.761582,0.04,0.03999995,-9.78561,0.6462262272834778,0.589745,0.04917399,-0.1216505914926529,0.10934436
743.0333333329862,-0.040492933,-0.7768802,-0.015948549,-2.349315,0.06239506,1.6332324,0.76087517,0.04,0.039999966,-9.783322,0.6652708649635315,0.6072491,0.050122414,-0.12356927245855331,0.110805385
743.0499999996529,-0.04165447,-0.77666444,-0.016405344,-2.3491151,0.0641742,1.6350106,0.7601576,0.04,0.03999995,-9.780996,0.6845940947532654,0.62503356,0.05107725,-0.12549512088298798,0.11224936
743.0666666663195,-0.04283353,-0.7764454,-0.016869023,-2.3489122,0.065980166,1.6368159,0.7594295,0.04,0.03999996,-9.778567,0.704179048538208,0.64312804,0.052037034,-0.12742774188518524,0.113674596
743.0833333329862,-0.04403003,-0.7762228,-0.017339567,-2.348707,0.06781286,1.6386478,0.7586903,0.04,0.039999954,-9.775978,0.7240471839904785,0.6614852,0.053000625,-0.1293647438287735,0.115082726
743.0999999996528,-0.045243938,-0.77599716,-0.01781696,-2.3484976,0.06967217,1.6405063,0.7579406,0.04,0.039999947,-9.773395,0.7441822290420532,0.6801286,0.0539709,-0.13131175935268402,0.11647245
743.1166666663195,-0.04647515,-0.77576834,-0.018301167,-2.3482854,0.07155801,1.6423914,0.7571801,0.04,0.039999954,-9.770405,0.7645736336708069,0.6990537,0.05494547,-0.13325701653957367,0.117844485
743.1333333329861,-0.047723614,-0.77553636,-0.01879216,-2.3480709,0.073470265,1.6443028,0.75640893,0.04,0.039999947,-9.767503,0.7852193713188171,0.7182899,0.055925377,-0.13520725071430206,0.11919454
743.1499999996528,-0.048989262,-0.7753011,-0.019289913,-2.3478532,0.07540883,1.6462405,0.75562704,0.04,0.039999943,-9.764526,0.8061429262161255,0.737817,0.05690957,-0.13716571033000946,0.12052532
743.1666666663194,-0.050271995,-0.7750627,-0.01979439,-2.3476326,0.07737356,1.6482043,0.75483465,0.04,0.039999947,-9.761298,0.8273026943206787,0.75760055,0.057899036,-0.13912677764892578,0.12183378
743.1833333329861,-0.051571757,-0.7748211,-0.020305557,-2.3474088,0.079364374,1.650194,0.75403184,0.04,0.03999994,-9.758001,0.8487333655357361,0.7776764,0.05889245,-0.14109265804290771,0.12312169
743.1999999996527,-0.052888438,-0.77457625,-0.020823391,-2.3471823,0.08138105,1.6522096,0.75321853,0.04,0.039999932,-9.754432,0.8704916834831238,0.7979911,0.059889585,-0.1430605947971344,0.12438806
743.2166666663194,-0.054221965,-0.7743286,-0.02134785,-2.346953,0.083423525,1.654251,0.75239474,0.04,0.039999943,-9.750927,0.8923349976539612,0.8186713,0.060890503,-0.14503292739391327,0.12563133
743.233333332986,-0.05557222,-0.7740776,-0.0218789,-2.3467205,0.08549162,1.6563182,0.7515606,0.04,0.039999936,-9.747144,0.9145095944404602,0.83962333,0.061895598,-0.14700652658939362,0.12685324
743.2499999996527,-0.056939118,-0.7738233,-0.022416493,-2.3464856,0.087585196,1.6584107,0.7507163,0.04,0.03999993,-9.743224,0.9369054436683655,0.8607976,0.062904365,-0.14898040890693665,0.1280499
743.2666666663193,-0.05832256,-0.77356637,-0.0229606,-2.3462472,0.08970409,1.6605287,0.7498617,0.04,0.03999994,-9.73929,0.9595624208450317,0.8822751,0.06391518,-0.1509608030319214,0.1292228
743.283333332986,-0.05972244,-0.7733062,-0.023511168,-2.3460062,0.091848135,1.662672,0.7489971,0.04,0.03999993,-9.734954,0.9824422597885132,0.9040502,0.06493026,-0.15293651819229126,0.13037296
743.2999999996526,-0.06113863,-0.773043,-0.024068154,-2.345762,0.09401714,1.66484,0.7481222,0.04,0.03999993,-9.730607,1.0055546760559082,0.9260665,0.06594694,-0.15491293370723724,0.1314974
743.3166666663193,-0.06257101,-0.7727768,-0.024631513,-2.3455155,0.096210994,1.6670327,0.7472374,0.04,0.039999925,-9.726095,1.0288903713226318,0.9483954,0.06696739,-0.15689155459403992,0.132595
743.333333332986,-0.06401947,-0.77250755,-0.02520121,-2.3452663,0.09842946,1.66925,0.7463426,0.04,0.03999992,-9.721411,1.0524678230285645,0.97098076,0.067989714,-0.15887035429477692,0.1336691
743.3499999996526,-0.065483905,-0.7722354,-0.025777189,-2.3450143,0.100672334,1.6714921,0.74543804,0.04,0.039999925,-9.716633,1.0762532949447632,0.9938273,0.069013804,-0.16085141897201538,0.1347165
743.3666666663192,-0.06696414,-0.7719602,-0.0263594,-2.3447595,0.10293946,1.6737581,0.7445237,0.04,0.039999913,-9.711575,1.100255012512207,1.0169377,0.070039704,-0.1628294587135315,0.13573647
743.3833333329859,-0.06846012,-0.7716822,-0.026947785,-2.3445024,0.10523064,1.6760482,0.74359965,0.04,0.039999913,-9.706369,1.1244641542434692,1.0403191,0.071067005,-0.16480669379234314,0.13672934
743.3999999996526,-0.06997165,-0.7714012,-0.027542295,-2.344242,0.10754564,1.6783623,0.74266607,0.04,0.03999991,-9.701061,1.148908257484436,1.0639753,0.07209513,-0.16678473353385925,0.13769706
743.4166666663192,-0.071498625,-0.77111745,-0.028142886,-2.3439794,0.10988431,1.6807001,0.7417229,0.04,0.03999991,-9.69546,1.173521637916565,1.0878698,0.07312422,-0.16875773668289185,0.13863513
743.4333333329859,-0.07304091,-0.77083075,-0.028749492,-2.3437135,0.11224637,1.6830612,0.74077016,0.04,0.0399999,-9.689718,1.1983582973480225,1.1120447,0.074154615,-0.17072804272174835,0.139546
743.4499999996525,-0.07459835,-0.7705414,-0.02936207,-2.3434453,0.11463162,1.6854455,0.73980814,0.04,0.039999895,-9.683693,1.2234703302383423,1.136413,0.07518542,-0.17269426584243774,0.14042963
743.4666666663192,-0.07617077,-0.77024925,-0.029980548,-2.3431752,0.11703986,1.6878527,0.73883677,0.04,0.039999895,-9.677678,1.2486015558242798,1.1611637,0.07621639,-0.17465786635875702,0.14128265
743.4833333329858,-0.07775805,-0.76995426,-0.030604878,-2.3429017,0.119470835,1.690283,0.7378563,0.04,0.0399999,-9.671462,1.2740259170532227,1.186098,0.07724731,-0.17662110924720764,0.1421077
743.4999999996525,-0.07936004,-0.7696565,-0.03123499,-2.3426256,0.1219243,1.6927353,0.7368668,0.04,0.039999887,-9.664885,1.2996107339859009,1.2112644,0.078277275,-0.1785764992237091,0.14290354
743.5166666663191,-0.08097659,-0.7693561,-0.031870823,-2.3423476,0.12440006,1.6952101,0.73586816,0.04,0.03999989,-9.65819,1.3253787755966187,1.2366898,0.07930682,-0.18052808940410614,0.14366896
743.5333333329858,-0.0826075,-0.769053,-0.032512322,-2.3420672,0.1268978,1.6977069,0.7348608,0.04,0.03999988,-9.651355,1.3513437509536743,1.2623748,0.080335386,-0.1824759691953659,0.1444056
743.5499999996524,-0.08425263,-0.7687473,-0.033159424,-2.3417838,0.12941737,1.7002254,0.73384464,0.04,0.039999872,-9.644282,1.3774597644805908,1.2882775,0.08136191,-0.18441887199878693,0.14511076
743.5666666663191,-0.08591182,-0.76843905,-0.033812054,-2.3414981,0.13195847,1.7027652,0.73281974,0.04,0.039999865,-9.636863,1.4037537574768066,1.3144313,0.082387194,-0.18635280430316925,0.14578836
743.5833333329857,-0.08758493,-0.76812816,-0.034470163,-2.3412104,0.13452075,1.7053266,0.73178625,0.04,0.039999854,-9.629431,1.43019437789917,1.3408242,0.08341087,-0.18828251957893372,0.14643249
743.5999999996524,-0.08927173,-0.7678147,-0.03513367,-2.3409202,0.13710403,1.7079089,0.73074436,0.04,0.039999843,-9.621703,1.4568331241607666,1.3674233,0.08443155,-0.19020506739616394,0.14704955
743.616666666319,-0.09097206,-0.7674987,-0.035802502,-2.3406277,0.13970804,1.7105118,0.7296941,0.04,0.03999983,-9.613808,1.4835892915725708,1.3942645,0.08544972,-0.1921212077140808,0.14763293
743.6333333329857,-0.092685744,-0.76718026,-0.0364766,-2.3403323,0.14233248,1.7131351,0.7286356,0.04,0.039999835,-9.605623,1.510486364364624,1.4213258,0.08646475,-0.19402910768985748,0.14818363
743.6499999996523,-0.09441261,-0.76685935,-0.037155885,-2.3400347,0.14497715,1.7157786,0.7275689,0.04,0.03999981,-9.597161,1.5375406742095947,1.4486077,0.08747723,-0.19592544436454773,0.14870596
743.666666666319,-0.0961525,-0.766536,-0.03784029,-2.3397353,0.1476417,1.718442,0.7264944,0.04,0.039999817,-9.588625,1.5647467374801636,1.4761221,0.088485785,-0.19781528413295746,0.14919643
743.6833333329856,-0.09790519,-0.7662101,-0.038529735,-2.3394332,0.15032585,1.7211251,0.7254119,0.04,0.039999805,-9.579832,1.5920919179916382,1.503826,0.089489475,-0.19969654083251953,0.149656
743.6999999996523,-0.09967051,-0.7658821,-0.03922416,-2.339129,0.15302938,1.7238275,0.7243215,0.04,0.039999794,-9.57066,1.6196167469024658,1.5316814,0.09048926,-0.20156556367874146,0.15008417
743.7166666663189,-0.10144826,-0.7655517,-0.039923474,-2.338823,0.15575193,1.7265489,0.7232234,0.04,0.039999794,-9.561483,1.6471351385116577,1.5598907,0.09148518,-0.20342564582824707,0.15047976
743.7333333329856,-0.10323828,-0.765219,-0.040627606,-2.3385155,0.1584932,1.7292889,0.7221177,0.04,0.03999979,-9.552014,1.674860954284668,1.5882058,0.092475414,-0.20527581870555878,0.15084492
743.7499999996522,-0.10504032,-0.7648841,-0.04133648,-2.3382049,0.1612529,1.7320476,0.7210046,0.04,0.039999787,-9.542336,1.7026841640472412,1.6167403,0.09346046,-0.20711687207221985,0.1511771
743.7666666663189,-0.10685419,-0.76454705,-0.042050023,-2.337892,0.16403072,1.7348243,0.71988434,0.04,0.039999787,-9.532225,1.7306065559387207,1.6454309,0.0944404,-0.20894086360931396,0.15147793
743.7833333329855,-0.108679734,-0.7642078,-0.042768147,-2.3375778,0.16682637,1.7376188,0.71875656,0.04,0.03999978,-9.522039,1.7586570978164673,1.6743511,0.095413886,-0.21075323224067688,0.15174729
743.7999999996522,-0.11051672,-0.76386636,-0.043490786,-2.3372617,0.16963956,1.7404308,0.71762186,0.04,0.039999776,-9.511624,1.7868093252182007,1.7034447,0.096381955,-0.2125544250011444,0.15198493
743.8166666663188,-0.11236493,-0.7635229,-0.04421786,-2.3369434,0.1724699,1.74326,0.71648043,0.04,0.03999977,-9.500974,1.8150615692138672,1.7327123,0.0973424,-0.21434332430362701,0.15219048
743.8333333329855,-0.11422417,-0.76317745,-0.044949263,-2.3366232,0.17531715,1.7461061,0.7153322,0.04,0.03999977,-9.490031,1.8433940410614014,1.7621577,0.09829496,-0.2161177396774292,0.15236452
743.8499999996521,-0.116094254,-0.7628299,-0.045684934,-2.3363013,0.17818093,1.7489687,0.71417725,0.04,0.03999977,-9.478823,1.8718065023422241,1.7917665,0.09924057,-0.21787597239017487,0.152507
743.8666666663188,-0.11797493,-0.76248044,-0.046424773,-2.3359776,0.18106095,1.7518473,0.7130156,0.04,0.039999753,-9.467457,1.9003212451934814,1.821538,0.100178026,-0.2196216881275177,0.15261765
743.8833333329854,-0.11986597,-0.7621289,-0.04716871,-2.3356516,0.18395689,1.7547424,0.71184766,0.04,0.03999975,-9.45579,1.9289026260375977,1.8514882,0.10110801,-0.22135286033153534,0.15269665
743.8999999996521,-0.12176721,-0.76177543,-0.04791664,-2.3353243,0.18686837,1.7576531,0.7106735,0.04,0.03999974,-9.443853,1.9575510025024414,1.88155,0.10202973,-0.22306428849697113,0.15274408
743.9166666663187,-0.12367839,-0.76142025,-0.048668522,-2.3349953,0.1897951,1.7605793,0.70949304,0.04,0.03999974,-9.431732,1.986272931098938,1.9118,0.10294171,-0.22476032376289368,0.15275918
743.9333333329854,-0.12559932,-0.7610633,-0.049424235,-2.3346643,0.19273677,1.7635208,0.7083066,0.04,0.039999735,-9.41931,2.015059471130371,1.9421959,0.103845544,-0.2264375537633896,0.15274261
743.949999999652,-0.12752977,-0.76070464,-0.05018368,-2.3343318,0.195693,1.7664752,0.7071143,0.04,0.03999974,-9.406545,2.043961524963379,1.9726799,0.10473975,-0.2280944585800171,0.15269585
743.9666666663187,-0.12946948,-0.76034427,-0.05094679,-2.3339975,0.19866338,1.769444,0.7059162,0.039999995,0.039999727,-9.393737,2.0727882385253906,2.003443,0.105624035,-0.2297406941652298,0.15261707
743.9833333329854,-0.13141826,-0.7599821,-0.051713467,-2.3336618,0.20164765,1.7724279,0.70471257,0.039999995,0.039999723,-9.38059,2.101743221282959,2.0342274,0.106498316,-0.2313678115606308,0.1525096
743.999999999652,-0.1333759,-0.75961846,-0.05248362,-2.333325,0.20464541,1.7754242,0.70350343,0.03999999,0.039999716,-9.367165,2.1307294368743896,2.0651078,0.10736218,-0.23297019302845,0.15237054
744.0166666663187,-0.13534215,-0.7592531,-0.05325717,-2.3329864,0.20765637,1.7784337,0.70228887,0.039999984,0.039999705,-9.3535795,2.1597633361816406,2.0962133,0.108214624,-0.23455968499183655,0.15220058
744.0333333329853,-0.13731676,-0.75888604,-0.054034032,-2.332646,0.21068013,1.7814565,0.7010693,0.039999988,0.03999971,-9.339672,2.188817024230957,2.1273448,0.10905637,-0.2361295521259308,0.15199748
744.049999999652,-0.13929948,-0.75851744,-0.054814093,-2.3323038,0.21371636,1.7844918,0.6998448,0.03999998,0.039999697,-9.325407,2.217905282974243,2.1585746,0.10988646,-0.23767338693141937,0.15176857
744.0666666663186,-0.14129013,-0.75814754,-0.055597275,-2.3319607,0.21676467,1.7875389,0.6986152,0.039999988,0.0399997,-9.311006,2.247007369995117,2.1899457,0.110704325,-0.23919643461704254,0.15150818
744.0833333329853,-0.14328845,-0.7577762,-0.056383487,-2.3316169,0.21982475,1.7905977,0.6973811,0.039999973,0.039999682,-9.29637,2.276137590408325,2.221437,0.1115106,-0.2406998872756958,0.15121599
744.0999999996519,-0.14529419,-0.75740343,-0.057172615,-2.331271,0.22289616,1.7936679,0.69614226,0.039999966,0.03999967,-9.281514,2.3053038120269775,2.253006,0.11230281,-0.24218334257602692,0.15089661
744.1166666663186,-0.14730713,-0.7570293,-0.05796459,-2.330924,0.22597861,1.7967492,0.69489884,0.03999996,0.039999664,-9.266261,2.3344526290893555,2.284635,0.113083474,-0.2436414659023285,0.15054946
744.1333333329852,-0.14932702,-0.75665396,-0.058759302,-2.3305762,0.22907166,1.799841,0.6936513,0.03999994,0.039999638,-9.250849,2.3636081218719482,2.3163562,0.11385128,-0.24507643282413483,0.15017167
744.1499999996519,-0.15135364,-0.7562774,-0.059556648,-2.3302274,0.232175,1.8029435,0.69239974,0.039999913,0.039999608,-9.235241,2.392784357070923,2.3481743,0.11460436,-0.24648991227149963,0.14976548
744.1666666663185,-0.15338673,-0.75589955,-0.06035655,-2.329877,0.23528822,1.806055,0.6911441,0.03999989,0.039999582,-9.219321,2.421947717666626,2.3800402,0.115343206,-0.24787874519824982,0.14933105
744.1833333329852,-0.15542595,-0.75552064,-0.061158914,-2.3295257,0.23841095,1.8091767,0.68988454,0.039999858,0.03999955,-9.203088,2.451077938079834,2.4119685,0.11606834,-0.24924378097057343,0.14886746
744.1999999996518,-0.15747131,-0.75514066,-0.06196364,-2.3291728,0.24154282,1.812307,0.68862134,0.03999982,0.039999507,-9.186648,2.4802749156951904,2.4439318,0.116779834,-0.2505822479724884,0.14837734
744.2166666663185,-0.15952231,-0.7547595,-0.06277062,-2.3288193,0.24468347,1.8154465,0.6873547,0.039999783,0.039999466,-9.169968,2.509337902069092,2.4760044,0.117476076,-0.2518947720527649,0.14785992
744.2333333329851,-0.16157877,-0.75437737,-0.06357975,-2.3284647,0.24783249,1.8185945,0.68608457,0.039999742,0.039999425,-9.153095,2.5384387969970703,2.5080938,0.1181566,-0.2531810998916626,0.14731447
744.2499999996518,-0.16364047,-0.7539942,-0.064390965,-2.3281095,0.2509895,1.8217502,0.6848112,0.039999697,0.039999377,-9.135937,2.5675058364868164,2.5402253,0.11882268,-0.25444090366363525,0.14674352
744.2666666663184,-0.16570717,-0.7536102,-0.065204136,-2.327753,0.25415415,1.8249135,0.6835347,0.039999653,0.039999336,-9.118555,2.596543312072754,2.5724013,0.11947277,-0.2556752860546112,0.14614448
744.2833333329851,-0.1677786,-0.7532254,-0.06601918,-2.327396,0.25732607,1.8280842,0.68225545,0.03999959,0.03999927,-9.100856,2.6255390644073486,2.6045816,0.12010744,-0.2568801939487457,0.14552152
744.2999999996517,-0.16985449,-0.7528397,-0.066835985,-2.327038,0.2605048,1.8312619,0.6809733,0.039999533,0.039999213,-9.082991,2.6545040607452393,2.6368186,0.12072504,-0.25805720686912537,0.1448721
744.3166666663184,-0.17193465,-0.75245315,-0.06765448,-2.3266795,0.26369005,1.8344462,0.6796885,0.03999948,0.039999157,-9.064856,2.683422327041626,2.6690402,0.121327095,-0.2592054605484009,0.14419883
744.333333332985,-0.17401877,-0.7520658,-0.06847455,-2.3263202,0.26688138,1.8376364,0.6784013,0.03999942,0.039999098,-9.046532,2.712315559387207,2.7012923,0.121911384,-0.260325163602829,0.1435009
744.3499999996517,-0.17610657,-0.751678,-0.069296084,-2.3259597,0.2700784,1.8408322,0.6771118,0.039999366,0.039999038,-9.0279045,2.7411203384399414,2.7335284,0.122479424,-0.2614157795906067,0.14277802
744.3666666663183,-0.17819788,-0.7512892,-0.070118986,-2.325599,0.27328065,1.8440334,0.67582023,0.039999306,0.039998975,-9.009026,2.7698566913604736,2.7657962,0.12303031,-0.26247453689575195,0.14203191
744.383333332985,-0.1802924,-0.7509,-0.07094316,-2.325237,0.27648777,1.8472394,0.6745267,0.039999258,0.039998926,-8.9900255,2.7985804080963135,2.7980213,0.12356317,-0.2635054886341095,0.14126225
744.3999999996516,-0.1823899,-0.75051016,-0.0717685,-2.3248749,0.27969944,1.8504502,0.6732313,0.039999202,0.03999887,-8.970659,2.8271939754486084,2.8302557,0.12407854,-0.26450327038764954,0.14047086
744.4166666663183,-0.18449004,-0.75012,-0.0725949,-2.3245122,0.28291535,1.8536649,0.6719341,0.039999142,0.039998807,-8.95116,2.8557677268981934,2.862466,0.12457594,-0.2654695510864258,0.13965724
744.433333332985,-0.18659268,-0.7497293,-0.07342228,-2.3241494,0.2861349,1.8568833,0.6706356,0.039999083,0.039998747,-8.9314375,2.8842499256134033,2.894671,0.12505575,-0.2664054334163666,0.13882002
744.4499999996516,-0.1886975,-0.7493382,-0.07425054,-2.3237863,0.28935775,1.8601052,0.66933566,0.039999016,0.039998677,-8.911442,2.9127116203308105,2.926814,0.12551597,-0.2673100233078003,0.13796304
744.4666666663182,-0.19080426,-0.7489466,-0.07507956,-2.3234231,0.2925835,1.8633301,0.6680347,0.039998956,0.039998617,-8.891332,2.9410221576690674,2.9589624,0.12595789,-0.26818257570266724,0.13708414
744.4833333329849,-0.19291268,-0.7485549,-0.07590921,-2.3230593,0.29581183,1.8665572,0.6667324,0.03999889,0.039998546,-8.871036,2.969306707382202,2.9910474,0.12637931,-0.269025057554245,0.13618629
744.4999999996515,-0.19502251,-0.748163,-0.076739475,-2.3226953,0.29904228,1.8697867,0.6654293,0.039998826,0.039998483,-8.850343,2.997433662414551,3.0230775,0.1267838,-0.2698323130607605,0.13526721
744.5166666663182,-0.19713353,-0.7477707,-0.07757017,-2.3223312,0.30227447,1.8730177,0.66412574,0.039998755,0.03999841,-8.82954,3.0255203247070312,3.0550618,0.12716843,-0.27060550451278687,0.13432978
744.5333333329849,-0.19924542,-0.74737835,-0.078401215,-2.3219671,0.30550817,1.8762504,0.6628215,0.039998684,0.039998338,-8.808591,3.0535190105438232,3.0870023,0.12753226,-0.27134859561920166,0.13337304
744.5499999996515,-0.20135792,-0.7469859,-0.079232536,-2.3216028,0.30874276,1.8794838,0.6615167,0.039998632,0.03999828,-8.787391,3.0813918113708496,3.118839,0.12787667,-0.2720560133457184,0.13239719
744.5666666663182,-0.20347077,-0.7465934,-0.08006401,-2.321238,0.3119779,1.8827178,0.6602118,0.039998565,0.039998215,-8.765957,3.109161853790283,3.1506317,0.12820217,-0.27272939682006836,0.13140368
744.5833333329848,-0.20558372,-0.74620086,-0.080895506,-2.3208733,0.3152132,1.885952,0.6589069,0.039998498,0.039998148,-8.744307,3.136826276779175,3.1823251,0.12850817,-0.27336570620536804,0.13039389
744.5999999996515,-0.20769654,-0.74580824,-0.08172696,-2.3205085,0.3184483,1.889186,0.65760195,0.039998434,0.039998084,-8.722513,3.164374351501465,3.2139535,0.12879372,-0.2739679515361786,0.1293665
744.6166666663181,-0.20980896,-0.7454158,-0.08255825,-2.3201437,0.3216827,1.8924195,0.65629727,0.039998375,0.03999802,-8.700554,3.1918375492095947,3.2454767,0.1290589,-0.27453386783599854,0.12832293
744.6333333329848,-0.21192072,-0.7450234,-0.083389305,-2.319779,0.32491612,1.8956519,0.654993,0.039998304,0.03999795,-8.678394,3.2191731929779053,3.2769413,0.12930413,-0.2750648260116577,0.12726511
744.6499999996514,-0.21403158,-0.7446312,-0.08422,-2.3194144,0.32814813,1.8988829,0.6536895,0.03999824,0.039997887,-8.656041,3.2463932037353516,3.3082836,0.12952843,-0.27555885910987854,0.12619194
744.6666666663181,-0.21614122,-0.7442393,-0.08505023,-2.3190498,0.33137825,1.902112,0.6523866,0.039998177,0.03999782,-8.633534,3.2734827995300293,3.3395157,0.12973133,-0.27601686120033264,0.12510322
744.6833333329847,-0.21824938,-0.74384737,-0.08587989,-2.3186855,0.33460623,1.9053389,0.6510847,0.039998114,0.039997756,-8.610837,3.3004438877105713,3.3706787,0.12991436,-0.2764382064342499,0.12400057
744.6999999996514,-0.22035587,-0.74345607,-0.086708896,-2.3183212,0.3378316,1.908563,0.64978373,0.039998055,0.039997697,-8.58798,3.327293634414673,3.401664,0.13007571,-0.2768232524394989,0.122884475
744.716666666318,-0.2224604,-0.743065,-0.08753715,-2.3179574,0.34105393,1.9117843,0.6484842,0.03999799,0.03999763,-8.564926,3.3539841175079346,3.432587,0.13021746,-0.27716925740242004,0.121755235
744.7333333329847,-0.22456275,-0.7426744,-0.08836452,-2.3175938,0.3442728,1.9150022,0.6471858,0.039997928,0.039997566,-8.54182,3.3805830478668213,3.463375,0.1303366,-0.2774796783924103,0.12061518
744.7499999996513,-0.22666264,-0.74228424,-0.08919092,-2.3172307,0.34748796,1.9182163,0.64588886,0.039997876,0.039997514,-8.518442,3.4070019721984863,3.494009,0.13043603,-0.2777497172355652,0.11946263
744.766666666318,-0.22875974,-0.7418947,-0.09001625,-2.316868,0.3506989,1.9214263,0.6445937,0.03999782,0.03999746,-8.495033,3.433321952819824,3.5245519,0.13051358,-0.2779842019081116,0.118298344
744.7833333329846,-0.23085384,-0.74150574,-0.09084042,-2.316506,0.3539052,1.9246316,0.6433004,0.039997764,0.039997403,-8.471386,3.459470748901367,3.554937,0.13057056,-0.2781796455383301,0.1171235
744.7999999996513,-0.2329447,-0.7411172,-0.09166332,-2.3161445,0.35710657,1.927832,0.6420092,0.039997704,0.03999734,-8.447668,3.4854822158813477,3.585181,0.1306057,-0.2783380150794983,0.11593969
744.8166666663179,-0.23503207,-0.7407295,-0.09248484,-2.3157837,0.36030254,1.931027,0.64072,0.039997645,0.03999728,-8.423825,3.511368989944458,3.615257,0.13061887,-0.27845847606658936,0.11474567
744.8333333329846,-0.23711568,-0.74034244,-0.09330489,-2.315424,0.36349276,1.9342164,0.63943326,0.0399976,0.039997235,-8.399798,3.537081241607666,3.6452165,0.13061093,-0.27853986620903015,0.11354246
744.8499999996512,-0.23919527,-0.7399559,-0.09412336,-2.3150647,0.36667687,1.937399,0.6381489,0.039997548,0.039997183,-8.375738,3.562666654586792,3.67499,0.13058057,-0.2785841226577759,0.11233125
744.8666666663179,-0.24127057,-0.7395703,-0.09494018,-2.314706,0.36985445,1.9405758,0.6368672,0.039997496,0.03999713,-8.351515,3.588083028793335,3.7046063,0.1305289,-0.2785928547382355,0.111111805
744.8833333329845,-0.2433414,-0.7391855,-0.09575522,-2.3143477,0.37302506,1.9437455,0.6355884,0.03999743,0.03999706,-8.327142,3.6133463382720947,3.734041,0.13045579,-0.2785591185092926,0.10988644
744.8999999996512,-0.24540742,-0.73880166,-0.09656839,-2.3139904,0.37618828,1.9469078,0.63431245,0.03999738,0.03999701,-8.302619,3.6384150981903076,3.7632887,0.13036126,-0.2784847915172577,0.10865319
744.9166666663178,-0.24746853,-0.7384187,-0.09737961,-2.3136334,0.3793439,1.9500624,0.63303965,0.039997336,0.039996967,-8.278062,3.663349151611328,3.7924082,0.13024583,-0.2783721089363098,0.10741405
744.9333333329845,-0.2495243,-0.7380368,-0.09818876,-2.313277,0.38249144,1.9532089,0.6317702,0.039997287,0.039996915,-8.2533865,3.6881399154663086,3.8213165,0.13010833,-0.27821916341781616,0.106170446
744.9499999996511,-0.25157452,-0.7376557,-0.09899573,-2.312922,0.38563055,1.9563466,0.6305041,0.03999723,0.03999686,-8.2285385,3.712677478790283,3.8500438,0.12995042,-0.2780241072177887,0.10492036
744.9666666663178,-0.25361893,-0.73727584,-0.09980042,-2.3125684,0.3887607,1.959476,0.62924147,0.03999718,0.039996807,-8.203828,3.7371819019317627,3.8786216,0.1297698,-0.27779462933540344,0.103665784
744.9833333329844,-0.2556574,-0.73689723,-0.10060275,-2.3122163,0.39188173,1.9625958,0.6279826,0.039997138,0.039996766,-8.178955,3.7614645957946777,3.9070046,0.12956811,-0.2775256633758545,0.10240783
744.9999999996511,-0.2576896,-0.73651963,-0.10140263,-2.311865,0.39499313,1.9657063,0.62672776,0.0399971,0.039996732,-8.153996,3.785583734512329,3.9351928,0.12934402,-0.2772189676761627,0.101144865
745.0166666663177,-0.25971532,-0.73614335,-0.10219995,-2.3115146,0.39809465,1.9688065,0.6254769,0.039997064,0.03999669,-8.128942,3.8095219135284424,3.963139,0.1290978,-0.276872456073761,0.09988172
745.0333333329844,-0.26173422,-0.73576844,-0.10299462,-2.311165,0.40118584,1.9718966,0.6242302,0.039997023,0.03999665,-8.103766,3.833256244659424,3.990897,0.12883127,-0.27648478746414185,0.09861447
745.049999999651,-0.26374623,-0.73539466,-0.103786565,-2.3108168,0.40426627,1.9749761,0.62298787,0.039996985,0.039996617,-8.078584,3.8568315505981445,4.0184565,0.12854326,-0.276056170463562,0.09734524
745.0666666663177,-0.26575094,-0.7350221,-0.104575664,-2.3104696,0.4073356,1.9780444,0.6217498,0.039996948,0.03999658,-8.05335,3.880234718322754,4.045808,0.12823437,-0.2755886912345886,0.096074075
745.0833333329844,-0.26774818,-0.7346511,-0.10536183,-2.3101242,0.4103935,1.9811013,0.62051654,0.039996922,0.039996553,-8.028077,3.9034583568573,4.072924,0.12790494,-0.2750808000564575,0.09480331
745.099999999651,-0.26973772,-0.73428154,-0.10614495,-2.30978,0.41343954,1.9841461,0.6192878,0.03999689,0.039996523,-8.00282,3.9265241622924805,4.099887,0.12755343,-0.2745361924171448,0.09353108
745.1166666663177,-0.27171928,-0.7339133,-0.106924966,-2.3094368,0.4164735,1.9871786,0.6180639,0.039996848,0.03999648,-7.9774833,3.9493846893310547,4.1266,0.12718204,-0.2739528715610504,0.092261255
745.1333333329843,-0.2736927,-0.73354656,-0.107701756,-2.3090947,0.41949493,1.9901989,0.6168453,0.03999681,0.039996445,-7.9520974,3.9720373153686523,4.1530576,0.12678999,-0.27333030104637146,0.090989165
745.149999999651,-0.2756577,-0.7331815,-0.10847527,-2.3087542,0.4225035,1.9932065,0.6156318,0.03999678,0.039996415,-7.9266315,3.9945247173309326,4.1792903,0.12637731,-0.27266502380371094,0.08972123
745.1666666663176,-0.2776141,-0.732818,-0.10924536,-2.3084157,0.42549872,1.9962008,0.61442375,0.03999676,0.039996397,-7.901271,4.016855716705322,4.205349,0.12594339,-0.2719610929489136,0.08845339
745.1833333329843,-0.2795616,-0.7324562,-0.110011995,-2.3080785,0.42848042,1.9991815,0.61322117,0.039996732,0.039996367,-7.875858,4.038971424102783,4.23116,0.12548867,-0.27121859788894653,0.087187245
745.1999999996509,-0.2814999,-0.7320961,-0.110775046,-2.307742,0.43144816,2.0021496,0.6120242,0.039996706,0.039996345,-7.850476,4.060882568359375,4.256758,0.12501304,-0.2704385817050934,0.08592449
745.2166666663176,-0.28342888,-0.73173773,-0.11153442,-2.3074079,0.4344016,2.0051026,0.6108329,0.039996687,0.039996326,-7.824895,4.082611560821533,4.282019,0.124519266,-0.2696099579334259,0.08466516
745.2333333329842,-0.28534827,-0.73138124,-0.11229004,-2.3070755,0.43734056,2.0080407,0.6096477,0.039996658,0.0399963,-7.79951,4.104166030883789,4.3071675,0.124005,-0.26874661445617676,0.08340794
745.2499999996509,-0.28725794,-0.7310264,-0.11304182,-2.306745,0.44026443,2.0109634,0.6084683,0.03999664,0.03999628,-7.774165,4.125545978546143,4.3320794,0.12346961,-0.26784849166870117,0.08215485
745.2666666663175,-0.28915775,-0.7306735,-0.11378967,-2.3064158,0.44317305,2.0138707,0.60729504,0.039996613,0.039996255,-7.7488446,4.146739959716797,4.3567157,0.12291456,-0.2669159770011902,0.08090654
745.2833333329842,-0.29104745,-0.7303224,-0.11453349,-2.3060882,0.44606608,2.0167623,0.6061283,0.039996598,0.03999624,-7.7234135,4.167697429656982,4.3810835,0.12234058,-0.26594340801239014,0.07966295
745.2999999996508,-0.29292658,-0.7299734,-0.11527323,-2.3057625,0.44894305,2.019638,0.6049679,0.039996583,0.03999623,-7.6980567,4.188471794128418,4.4051957,0.1217455,-0.2649311423301697,0.07842324
745.3166666663175,-0.2947951,-0.7296262,-0.116008796,-2.305439,0.4518037,2.0224981,0.6038141,0.03999657,0.039996218,-7.672776,4.2090535163879395,4.4291115,0.121132374,-0.26388227939605713,0.07719016
745.3333333329841,-0.29665273,-0.7292811,-0.11674008,-2.3051167,0.45464775,2.0253422,0.602667,0.039996557,0.039996207,-7.64755,4.229465007781982,4.4527445,0.12049883,-0.26279422640800476,0.075962834
745.3499999996508,-0.29849926,-0.72893816,-0.117467016,-2.3047965,0.45747483,2.028168,0.6015267,0.039996542,0.03999619,-7.6222057,4.249614715576172,4.4761014,0.119848944,-0.26166173815727234,0.0747431
745.3666666663174,-0.30033448,-0.72859716,-0.11818952,-2.3044782,0.46028462,2.0309763,0.60039324,0.039996535,0.039996188,-7.597158,4.269618511199951,4.499313,0.11917895,-0.2605017125606537,0.07352814
745.3833333329841,-0.30215827,-0.7282583,-0.11890752,-2.3041625,0.4630769,2.033768,0.5992672,0.03999653,0.039996184,-7.5720353,4.289402008056641,4.5221844,0.11849142,-0.25930365920066833,0.07232126
745.3999999996507,-0.30397025,-0.7279217,-0.119620904,-2.3038476,0.46585125,2.0365405,0.5981484,0.039996523,0.039996177,-7.547069,4.309042930603027,4.5448413,0.11778292,-0.25806912779808044,0.071122356
745.4166666663174,-0.30577034,-0.7275874,-0.12032965,-2.3035352,0.46860743,2.039296,0.59703636,0.03999652,0.039996177,-7.5219803,4.3283491134643555,4.567191,0.11705889,-0.2567973732948303,0.06992869
745.433333332984,-0.30755833,-0.7272551,-0.121033624,-2.3032253,0.47134504,2.0420327,0.5959322,0.039996523,0.03999618,-7.4971395,4.347581386566162,4.589335,0.1163184,-0.2554878890514374,0.06874487
745.4499999996507,-0.30933413,-0.7269251,-0.12173274,-2.3029168,0.4740639,2.0447505,0.5948357,0.03999653,0.03999619,-7.472429,4.3665385246276855,4.6112413,0.115557626,-0.25414466857910156,0.06756895
745.4666666663173,-0.31109744,-0.72659755,-0.12242699,-2.30261,0.4767636,2.0474494,0.59374684,0.039996523,0.039996188,-7.447582,4.38534688949585,4.632809,0.114780515,-0.25276511907577515,0.06640128
745.483333332984,-0.3128481,-0.7262725,-0.12311624,-2.302307,0.479444,2.050129,0.59266573,0.039996527,0.03999619,-7.4228516,4.403909683227539,4.6541305,0.11398719,-0.2513447701931,0.06524398
745.4999999996506,-0.3145859,-0.72594965,-0.12380042,-2.3020058,0.4821046,2.0527885,0.59159255,0.039996535,0.0399962,-7.3985157,4.4223952293396,4.675348,0.11317463,-0.2498973160982132,0.064096175
745.5166666663173,-0.31631064,-0.72562927,-0.124479525,-2.3017058,0.48474523,2.0554283,0.59052765,0.03999654,0.039996207,-7.3740954,4.440569877624512,4.696177,0.11234504,-0.2484171986579895,0.06295684
745.533333332984,-0.31802216,-0.7253114,-0.12515338,-2.3014088,0.48736575,2.0580478,0.58947074,0.039996546,0.039996218,-7.3496046,4.458487510681152,4.7166796,0.11150068,-0.24689607322216034,0.06182739
745.5499999996506,-0.31972033,-0.7249958,-0.12582195,-2.3011143,0.48996577,2.0606465,0.58842206,0.039996553,0.039996225,-7.3254623,4.476297855377197,4.7370443,0.110639594,-0.2453433871269226,0.060708947
745.5666666663172,-0.32140484,-0.7246828,-0.1264852,-2.300821,0.49254492,2.063225,0.5873819,0.03999656,0.039996237,-7.3014603,4.493910789489746,4.757133,0.10976126,-0.2437625527381897,0.059599433
745.5833333329839,-0.3230756,-0.72437245,-0.12714304,-2.3005307,0.495103,2.0657818,0.58634996,0.039996576,0.039996255,-7.2773395,4.511221408843994,4.776861,0.10886935,-0.24214087426662445,0.058501102
745.5999999996505,-0.32473245,-0.7240646,-0.1277954,-2.3002434,0.49763975,2.0683172,0.58532685,0.03999659,0.03999627,-7.253554,4.528415679931641,4.796442,0.10796251,-0.2404906153678894,0.057414494
745.6166666663172,-0.32637516,-0.7237596,-0.12844223,-2.2999578,0.50015485,2.0708313,0.5843125,0.039996605,0.039996285,-7.229935,4.545429229736328,4.8157635,0.10703802,-0.23881278932094574,0.05633912
745.6333333329839,-0.3280036,-0.723457,-0.12908342,-2.2996747,0.50264823,2.073324,0.58330697,0.039996628,0.03999631,-7.2062593,4.562137603759766,4.8347497,0.10609984,-0.2370983511209488,0.05527356
745.6499999996505,-0.32961762,-0.7231571,-0.12971894,-2.2993946,0.5051194,2.075794,0.5823102,0.039996643,0.03999633,-7.182871,4.578717231750488,4.853502,0.10514648,-0.23535214364528656,0.054219794
745.6666666663172,-0.33121702,-0.7228599,-0.13034873,-2.2991161,0.5075682,2.0782418,0.5813225,0.039996672,0.039996363,-7.15965,4.595096588134766,4.8720365,0.10417891,-0.2335798293352127,0.053178072
745.6833333329838,-0.33280167,-0.72256553,-0.1309727,-2.2988412,0.5099945,2.0806673,0.5803438,0.0399967,0.039996393,-7.136422,4.611197471618652,4.8902225,0.10319865,-0.23177261650562286,0.052147932
745.6999999996505,-0.33437142,-0.7222739,-0.13159083,-2.298569,0.51239806,2.0830698,0.57937455,0.03999673,0.039996427,-7.113614,4.627106666564941,4.9082937,0.10220358,-0.22993938624858856,0.051129695
745.7166666663171,-0.33592615,-0.7219851,-0.13220303,-2.2982986,0.5147786,2.0854492,0.5784144,0.039996758,0.039996456,-7.0907817,4.6429595947265625,4.925989,0.101193026,-0.22807720303535461,0.050125163
745.7333333329838,-0.33746567,-0.72169906,-0.13280925,-2.2980318,0.5171358,2.0878055,0.5774636,0.039996788,0.03999649,-7.068047,4.658444881439209,4.9434075,0.10017167,-0.22618354856967926,0.049130913
745.7499999996504,-0.33898988,-0.72141594,-0.1334094,-2.2977664,0.5194695,2.0901384,0.5765223,0.03999682,0.039996527,-7.045738,4.6738667488098145,4.9606824,0.099135004,-0.22426700592041016,0.04815048
745.7666666663171,-0.3404985,-0.72113556,-0.13400355,-2.297504,0.5217797,2.0924475,0.5755908,0.03999685,0.03999656,-7.023251,4.688902854919434,4.977541,0.09808949,-0.22231531143188477,0.047182914
745.7833333329837,-0.34199163,-0.7208582,-0.13459156,-2.2972448,0.5240659,2.0947332,0.5746689,0.039996874,0.039996583,-7.001218,4.7038774490356445,4.9942656,0.097028136,-0.22034011781215668,0.046226278
745.7999999996504,-0.34346902,-0.72058386,-0.13517328,-2.2969875,0.52632797,2.0969937,0.5737566,0.039996907,0.03999662,-6.9792895,4.718624114990234,5.010712,0.095955126,-0.21833635866641998,0.04528355
745.816666666317,-0.34493047,-0.7203125,-0.13574879,-2.2967334,0.52856565,2.0992305,0.57285404,0.039996948,0.039996665,-6.9575076,4.733095645904541,5.026884,0.0948725,-0.216309055685997,0.04435264
745.8333333329837,-0.34637594,-0.72004396,-0.13631798,-2.2964823,0.53077894,2.1014428,0.5719616,0.03999698,0.039996702,-6.935988,4.7474541664123535,5.0428357,0.093777955,-0.21425507962703705,0.04343658
745.8499999996503,-0.34780517,-0.7197784,-0.13688084,-2.2962337,0.53296715,2.10363,0.57107913,0.039997026,0.03999675,-6.9146914,4.7615861892700195,5.058533,0.0926703,-0.21217872202396393,0.042532075
745.866666666317,-0.3492183,-0.719516,-0.13743733,-2.295988,0.535131,2.1057925,0.5702065,0.039997067,0.039996795,-6.893499,4.775482177734375,5.073935,0.091553785,-0.2100776731967926,0.041641876
745.8833333329836,-0.35061494,-0.7192566,-0.13798736,-2.295745,0.5372696,2.1079302,0.56934404,0.0399971,0.039996833,-6.872557,4.789214134216309,5.089121,0.09042605,-0.20795202255249023,0.040763125
745.8999999996503,-0.35199517,-0.71900016,-0.13853094,-2.2955046,0.539383,2.110042,0.56849176,0.039997138,0.03999687,-6.8517756,4.802694320678711,5.104025,0.08928989,-0.20580226182937622,0.039898083
745.9166666663169,-0.35335875,-0.71874684,-0.13906795,-2.2952676,0.541471,2.1121292,0.56764984,0.03999719,0.039996926,-6.8312745,4.816033363342285,5.1187315,0.08814273,-0.20363251864910126,0.03904607
745.9333333329836,-0.3547056,-0.71849656,-0.13959838,-2.295033,0.5435334,2.1141908,0.5668181,0.039997216,0.03999696,-6.810992,4.829158306121826,5.1331644,0.086985216,-0.20144088566303253,0.03820778
745.9499999996502,-0.3560357,-0.7182495,-0.14012223,-2.2948017,0.54557,2.1162267,0.56599677,0.039997265,0.039997008,-6.790907,4.841943264007568,5.1473694,0.08582084,-0.1992250680923462,0.0373828
745.9666666663169,-0.35734892,-0.7180056,-0.14063944,-2.2945735,0.54758084,2.118236,0.56518596,0.039997302,0.03999705,-6.7710156,4.854793548583984,5.1613092,0.0846465,-0.19699102640151978,0.03657184
745.9833333329835,-0.35864523,-0.7177648,-0.14114995,-2.294348,0.5495657,2.12022,0.56438553,0.039997358,0.03999711,-6.751385,4.867299556732178,5.175026,0.08346328,-0.19474075734615326,0.035773482
745.9999999996502,-0.35992444,-0.71752715,-0.14165376,-2.2941256,0.5515243,2.1221774,0.5635958,0.03999741,0.039997164,-6.7319083,4.879610061645508,5.188458,0.082272686,-0.19246794283390045,0.034989696
746.0166666663168,-0.3611866,-0.7172926,-0.14215076,-2.2939057,0.5534567,2.1241088,0.56281644,0.039997462,0.039997216,-6.7127814,4.891745567321777,5.201719,0.08107307,-0.19018079340457916,0.034218334
746.0333333329835,-0.3624313,-0.7170613,-0.14264101,-2.2936893,0.5553626,2.1260135,0.5620478,0.03999751,0.039997272,-6.693755,4.903628349304199,5.214655,0.07986805,-0.18787173926830292,0.033460315
746.0499999996501,-0.36365873,-0.71683323,-0.1431245,-2.2934756,0.5572421,2.127892,0.56128955,0.03999757,0.03999733,-6.675069,4.91534423828125,5.227425,0.07865652,-0.18554840981960297,0.032715596
746.0666666663168,-0.36486885,-0.7166084,-0.14360115,-2.2932656,0.55909526,2.1297448,0.5605425,0.039997615,0.03999738,-6.656588,4.926878929138184,5.239945,0.07743859,-0.18320828676223755,0.031983532
746.0833333329834,-0.36606157,-0.7163869,-0.1440709,-2.2930577,0.5609216,2.1315699,0.5598058,0.039997667,0.039997436,-6.638357,4.938239097595215,5.252235,0.07621085,-0.1808500736951828,0.03126497
746.0999999996501,-0.36723664,-0.7161686,-0.1445338,-2.292853,0.5627213,2.1333687,0.55908024,0.03999771,0.03999749,-6.620296,4.949316024780273,5.2642694,0.07498088,-0.17847757041454315,0.03055866
746.1166666663167,-0.36839426,-0.7159534,-0.14498976,-2.292652,0.5644939,2.1351404,0.5583652,0.039997756,0.039997537,-6.602555,4.960261821746826,5.2760954,0.073743545,-0.17609019577503204,0.029865213
746.1333333329834,-0.3695343,-0.71574163,-0.14543876,-2.2924533,0.56623954,2.1368852,0.55766135,0.03999782,0.0399976,-6.585085,4.9710164070129395,5.28771,0.07250229,-0.17369218170642853,0.029185763
746.14999999965,-0.3706566,-0.71553326,-0.14588083,-2.2922583,0.567958,2.138603,0.5569681,0.039997887,0.03999767,-6.567785,4.981550693511963,5.2990675,0.07125558,-0.17127902805805206,0.02851924
746.1666666663167,-0.37176123,-0.715328,-0.14631596,-2.2920659,0.5696494,2.1402938,0.556286,0.03999794,0.03999773,-6.550803,4.991904258728027,5.310243,0.07000569,-0.1688554883003235,0.027865164
746.1833333329834,-0.372848,-0.71512604,-0.14674406,-2.2918768,0.5713137,2.141957,0.5556149,0.03999799,0.039997786,-6.534054,5.002079010009766,5.32115,0.06875033,-0.16641932725906372,0.02722467
746.19999999965,-0.37391707,-0.7149273,-0.14716516,-2.2916906,0.57295096,2.1435933,0.5549547,0.039998043,0.039997842,-6.5176806,5.01192045211792,5.331943,0.06749163,-0.1639760136604309,0.026595507
746.2166666663167,-0.3749683,-0.71473193,-0.14757931,-2.2915077,0.5745606,2.1452024,0.55430555,0.039998095,0.039997898,-6.5012994,5.021786212921143,5.3423405,0.06622983,-0.16152074933052063,0.025978146
746.2333333329833,-0.37600172,-0.71454,-0.14798644,-2.2913277,0.576143,2.1467838,0.5536676,0.03999815,0.039997954,-6.4853773,5.031410217285156,5.352646,0.06496484,-0.15905804932117462,0.025375273
746.24999999965,-0.37701726,-0.71435153,-0.1483865,-2.29115,0.577698,2.1483388,0.5530406,0.039998207,0.039998014,-6.4696264,5.04078483581543,5.3627057,0.06369657,-0.15658657252788544,0.024783617
746.2666666663166,-0.3780149,-0.71416605,-0.14877951,-2.290977,0.57922566,2.1498663,0.5524246,0.03999826,0.039998073,-6.4540377,5.049915313720703,5.372487,0.062429402,-0.15410089492797852,0.024204342
746.2833333329833,-0.3789947,-0.71398395,-0.14916548,-2.290806,0.58072597,2.151366,0.5518195,0.039998308,0.039998125,-6.439082,5.059064865112305,5.38224,0.061156653,-0.15161734819412231,0.02363822
746.2999999996499,-0.3799566,-0.7138053,-0.14954445,-2.2906387,0.5821989,2.1528387,0.5512254,0.039998364,0.039998185,-6.424027,5.06781005859375,5.391612,0.05988547,-0.14912545680999756,0.023082614
746.3166666663166,-0.3809006,-0.7136299,-0.14991634,-2.2904742,0.58364457,2.1542835,0.5506426,0.03999842,0.039998244,-6.409411,5.076503276824951,5.4008746,0.058612302,-0.14662794768810272,0.02253969
746.3333333329832,-0.38182664,-0.7134579,-0.15028116,-2.2903128,0.585063,2.1557007,0.5500708,0.03999847,0.0399983,-6.395008,5.084932804107666,5.4098897,0.057338078,-0.14412923157215118,0.022006841
746.3499999996499,-0.38273478,-0.71328926,-0.15063894,-2.290155,0.58645386,2.15709,0.54950994,0.03999853,0.03999836,-6.380904,5.093202590942383,5.4187365,0.056063455,-0.14162816107273102,0.02148445
746.3666666663165,-0.383625,-0.71312386,-0.15098971,-2.2899992,0.58781713,2.1584523,0.5489601,0.03999859,0.039998427,-6.367107,5.101315021514893,5.427406,0.05478944,-0.13912886381149292,0.020974027
746.3833333329832,-0.38449743,-0.71296155,-0.15133347,-2.289848,0.58915335,2.1597874,0.5484214,0.03999865,0.039998487,-6.3534203,5.109171390533447,5.4357553,0.053518698,-0.13662315905094147,0.020476405
746.3999999996498,-0.38535208,-0.71280277,-0.15167017,-2.2896993,0.5904621,2.1610954,0.54789364,0.039998703,0.03999854,-6.340277,5.117002010345459,5.4440713,0.05224446,-0.1341220587491989,0.01998991
746.4166666663165,-0.38618883,-0.71264756,-0.15199986,-2.2895532,0.59174347,2.1623766,0.5473768,0.03999876,0.039998595,-6.32716,5.124507904052734,5.4520817,0.050973926,-0.13161930441856384,0.01951464
746.4333333329831,-0.3870079,-0.7124951,-0.15232259,-2.2894108,0.59299785,2.16363,0.54687095,0.03999881,0.039998654,-6.314277,5.13179349899292,5.45989,0.04970845,-0.12911108136177063,0.019047836
746.4499999996498,-0.38780925,-0.71234626,-0.15263835,-2.2892704,0.5942251,2.1648564,0.54637605,0.039998867,0.03999871,-6.302056,5.138990879058838,5.467684,0.048440926,-0.12661407887935638,0.018593904
746.4666666663164,-0.38859296,-0.71220076,-0.15294713,-2.2891343,0.59542507,2.1660562,0.54589206,0.03999892,0.039998762,-6.289535,5.14599609375,5.4750175,0.04717971,-0.12411234527826309,0.018149186
746.4833333329831,-0.38935882,-0.71205807,-0.15324898,-2.2890005,0.5965982,2.1672282,0.5454191,0.03999897,0.039998814,-6.2777214,5.152914047241211,5.4824,0.045919847,-0.12161919474601746,0.017716764
746.4999999996497,-0.3901072,-0.711919,-0.15354392,-2.2888703,0.5977444,2.1683743,0.5449569,0.03999902,0.039998863,-6.2660356,5.159521102905273,5.4894648,0.044663567,-0.11913210153579712,0.017291397
746.5166666663164,-0.39083815,-0.71178347,-0.15383199,-2.2887433,0.59886384,2.1694932,0.54450554,0.039999075,0.039998922,-6.254629,5.166047096252441,5.4964423,0.04341071,-0.11664882302284241,0.016877372
746.533333332983,-0.39155167,-0.7116505,-0.15411316,-2.2886183,0.59995663,2.1705847,0.5440648,0.03999914,0.039998986,-6.243447,5.172335624694824,5.503209,0.042163014,-0.11417239904403687,0.016472971
746.5499999996497,-0.39224783,-0.71152115,-0.15438747,-2.288497,0.6010228,2.1716506,0.54363483,0.039999187,0.039999034,-6.232583,5.178455352783203,5.509732,0.040921118,-0.11170488595962524,0.016077807
746.5666666663163,-0.39292672,-0.7113953,-0.15465501,-2.2883785,0.60206234,2.1726894,0.5432156,0.03999923,0.039999083,-6.2219906,5.184450626373291,5.516192,0.039683852,-0.10924385488033295,0.01569187
746.583333332983,-0.39358842,-0.711272,-0.15491578,-2.2882636,0.60307574,2.1737027,0.54280704,0.03999928,0.039999127,-6.211614,5.190215587615967,5.522444,0.038453266,-0.10679293423891068,0.015315715
746.5999999996496,-0.39423296,-0.7111523,-0.1551698,-2.2881513,0.6040629,2.1746888,0.54240894,0.039999332,0.039999187,-6.2016788,5.195919036865234,5.528525,0.037225433,-0.10435391217470169,0.014946382
746.6166666663163,-0.39486048,-0.7110358,-0.15541711,-2.2880414,0.60502386,2.1756494,0.54202133,0.03999939,0.039999247,-6.191826,5.201325416564941,5.5344505,0.03600694,-0.10192740708589554,0.014585235
746.6333333329829,-0.39547116,-0.71092194,-0.15565781,-2.2879353,0.605959,2.1765838,0.5416442,0.03999944,0.039999306,-6.1822205,5.206576347351074,5.5401454,0.034797344,-0.09950906783342361,0.014231758
746.6499999996496,-0.396065,-0.71081185,-0.15589187,-2.2878318,0.60686857,2.1774929,0.5412776,0.039999485,0.03999936,-6.173109,5.2118024826049805,5.545788,0.03359193,-0.09710930287837982,0.013886005
746.6666666663162,-0.3966421,-0.71070457,-0.15611944,-2.2877316,0.60775256,2.1783757,0.5409212,0.03999954,0.03999944,-6.1640115,5.216700553894043,5.5511966,0.032395303,-0.09471821784973145,0.013541051
746.6833333329829,-0.3972027,-0.7106002,-0.15634039,-2.2876337,0.60861105,2.1792338,0.5405751,0.039999586,0.039999515,-6.1553807,5.221555233001709,5.556511,0.031205729,-0.09234853088855743,0.013201764
746.6999999996495,-0.39774674,-0.7104992,-0.15655486,-2.2875385,0.6094447,2.1800666,0.54023916,0.039999634,0.039999597,-6.146916,5.226068019866943,5.5616217,0.03002685,-0.08999022096395493,0.0128716305
746.7166666663162,-0.39827457,-0.71040094,-0.15676297,-2.2874467,0.6102532,2.1808743,0.5399131,0.039999686,0.039999705,-6.1385756,5.230600357055664,5.5665216,0.028857507,-0.08764546364545822,0.012538694
746.7333333329829,-0.3987861,-0.7103058,-0.15696466,-2.2873573,0.6110366,2.1816576,0.5395972,0.03999973,0.039999843,-6.1307425,5.234986782073975,5.5713825,0.027696365,-0.0853230282664299,0.012204875
746.7499999996495,-0.3992817,-0.7102137,-0.15716006,-2.287271,0.61179584,2.1824162,0.5392911,0.039999764,0.039999973,-6.122963,5.239133358001709,5.576014,0.026547901,-0.08301720768213272,0.011887896
746.7666666663162,-0.39976147,-0.7101245,-0.1573492,-2.2871873,0.61253077,2.183151,0.5389946,0.039999776,0.04,-6.115538,5.243268013000488,5.580577,0.025408925,-0.0807369276881218,0.011601047
746.7833333329828,-0.40022534,-0.7100383,-0.15753219,-2.2871063,0.6132417,2.183861,0.5387079,0.03999979,0.04,-6.1083546,5.2471747398376465,5.5849576,0.02428184,-0.07847689092159271,0.011327848
746.7999999996495,-0.4006738,-0.70995504,-0.157709,-2.2870286,0.61392885,2.1845477,0.53843075,0.03999979,0.04,-6.1013937,5.250838756561279,5.589198,0.023166964,-0.0762406587600708,0.011056301
746.8166666663161,-0.40110692,-0.7098745,-0.15787975,-2.286953,0.6145925,2.185211,0.5381631,0.039999787,0.04,-6.0947504,5.254467487335205,5.5933375,0.022063265,-0.07402794808149338,0.010791639
746.8333333329828,-0.40152484,-0.709797,-0.1580446,-2.28688,0.6152329,2.1858509,0.537905,0.03999978,0.04,-6.088271,5.257869243621826,5.5972843,0.020972831,-0.0718378946185112,0.010532704
746.8499999996494,-0.4019279,-0.70972204,-0.1582035,-2.28681,0.6158502,2.186468,0.537656,0.03999978,0.04,-6.082032,5.261171340942383,5.6011324,0.019894877,-0.06967249512672424,0.01028147
746.8666666663161,-0.40231603,-0.70965004,-0.15835652,-2.2867417,0.6164448,2.1870625,0.5374162,0.03999976,0.04,-6.076144,5.26435661315918,5.6048565,0.018829547,-0.06753528863191605,0.01003667
746.8833333329827,-0.40268952,-0.7095805,-0.15850382,-2.2866764,0.6170169,2.1876345,0.5371854,0.039999764,0.04,-6.07029,5.267271041870117,5.6083856,0.01778147,-0.06542045623064041,0.009797805
746.8999999996494,-0.4030485,-0.7095139,-0.15864547,-2.286614,0.61756706,2.1881847,0.53696364,0.039999764,0.04,-6.0648828,5.2701921463012695,5.6118784,0.016747054,-0.0633377954363823,0.00956723
746.916666666316,-0.40339333,-0.7094498,-0.15878151,-2.2865534,0.61809564,2.1887128,0.5367507,0.03999976,0.04,-6.059619,5.272912979125977,5.6152406,0.01572652,-0.061283499002456665,0.009340936
746.9333333329827,-0.40372416,-0.7093881,-0.15891205,-2.2864957,0.6186026,2.1892192,0.5365462,0.03999975,0.04,-6.054561,5.275485992431641,5.618428,0.014721739,-0.059259653091430664,0.009119886
746.9499999996493,-0.40404123,-0.70932925,-0.15903711,-2.2864408,0.6190885,2.1897044,0.53635025,0.03999975,0.04,-6.0499287,5.277915000915527,5.621616,0.013732951,-0.057271718978881836,0.008906043
746.966666666316,-0.4043448,-0.70927274,-0.1591569,-2.2863877,0.61955374,2.1901689,0.5361627,0.039999742,0.04,-6.045284,5.280328273773193,5.6245837,0.012760483,-0.05531732365489006,0.008698915
746.9833333329826,-0.404635,-0.7092186,-0.15927142,-2.2863367,0.61999846,2.1906133,0.5359833,0.039999742,0.04,-6.040896,5.282514572143555,5.627411,0.011805103,-0.05339575931429863,0.008495792
746.9999999996493,-0.4049122,-0.7091672,-0.15938081,-2.2862892,0.62042326,2.1910377,0.535812,0.039999735,0.04,-6.0367312,5.2845659255981445,5.630148,0.010868503,-0.05150676891207695,0.008299333
747.0166666663159,-0.40517652,-0.709118,-0.15948512,-2.2862427,0.62082845,2.1914427,0.5356485,0.039999735,0.04,-6.032921,5.286599636077881,5.6329007,0.009947689,-0.049659013748168945,0.008109991
747.0333333329826,-0.40542838,-0.7090711,-0.15958454,-2.2861984,0.6212144,2.1918283,0.53549284,0.039999723,0.04,-6.0290723,5.288332462310791,5.635357,0.009048731,-0.047842688858509064,0.007925353
747.0499999996492,-0.405668,-0.7090264,-0.15967913,-2.2861564,0.62158155,2.1921952,0.5353447,0.039999727,0.04,-6.025554,5.290047645568848,5.637803,0.008168641,-0.04606473445892334,0.007745601
747.0666666663159,-0.40589556,-0.708984,-0.15976895,-2.2861168,0.6219305,2.1925435,0.53520405,0.039999727,0.04,-6.0222797,5.291670799255371,5.6401734,0.00730705,-0.04432717710733414,0.007571659
747.0833333329825,-0.40611145,-0.7089439,-0.1598542,-2.2860787,0.6222615,2.1928744,0.5350706,0.039999735,0.04,-6.0192065,5.293158531188965,5.642464,0.006464804,-0.04263297840952873,0.007403366
747.0999999996492,-0.40631583,-0.7089058,-0.15993492,-2.286043,0.622575,2.1931872,0.5349443,0.039999723,0.04,-6.0161486,5.294464111328125,5.644543,0.0056452276,-0.04097247123718262,0.0072393063
747.1166666663158,-0.4065091,-0.7088698,-0.16001126,-2.2860096,0.6228714,2.193483,0.53482485,0.039999716,0.04,-6.0135293,5.2957682609558105,5.6466913,0.0048452667,-0.039362162351608276,0.007082829
747.1333333329825,-0.40669152,-0.70883584,-0.16008337,-2.2859774,0.6231512,2.1937633,0.5347121,0.03999972,0.04,-6.0110073,5.296932220458984,5.648691,0.0040663444,-0.0377957858145237,0.0069297054
747.1499999996491,-0.40686345,-0.70880395,-0.16015129,-2.285947,0.62341493,2.1940272,0.5346058,0.039999712,0.04,-6.008524,5.2979350090026855,5.650511,0.0033115004,-0.03626690059900284,0.0067825643
747.1666666663158,-0.40702513,-0.7087739,-0.16021521,-2.2859187,0.62366295,2.1942754,0.53450584,0.039999712,0.04,-6.0063133,5.298864364624023,5.6523433,0.0025799705,-0.03478424251079559,0.006640494
747.1833333329824,-0.40717697,-0.7087457,-0.16027524,-2.2858922,0.623896,2.1945086,0.53441185,0.03999971,0.04,-6.004316,5.29972505569458,5.654103,0.0018709416,-0.03335079178214073,0.00650489
747.1999999996491,-0.40731925,-0.70871925,-0.1603315,-2.2858675,0.6241144,2.1947267,0.53432363,0.0399997,0.04,-6.0024905,5.3004069328308105,5.6558027,0.0011863892,-0.03196528181433678,0.0063736974
747.2166666663157,-0.40745226,-0.70869446,-0.16038413,-2.2858436,0.6243188,2.1949308,0.53424114,0.0399997,0.04,-6.0007744,5.301122665405273,5.6573772,0.00052670087,-0.03063192404806614,0.006247024
747.2333333329824,-0.40757653,-0.7086713,-0.1604333,-2.2858214,0.62450933,2.195121,0.53416425,0.039999705,0.04,-5.999142,5.30163049697876,5.658844,-0.0001069184,-0.029345164075493813,0.0061258255
747.249999999649,-0.40769234,-0.7086495,-0.16047916,-2.2858012,0.624687,2.1952984,0.53409266,0.039999697,0.04,-5.997763,5.3021240234375,5.660316,-0.00071566587,-0.028113091364502907,0.006009664
747.2666666663157,-0.40779996,-0.7086294,-0.1605218,-2.2857828,0.62485224,2.1954632,0.534026,0.039999697,0.04,-5.996572,5.3025689125061035,5.66174,-0.0013004822,-0.02693519927561283,0.0059004175
747.2833333329824,-0.40789977,-0.70861095,-0.16056135,-2.2857654,0.62500566,2.1956165,0.53396416,0.039999694,0.04,-5.9954896,5.302884578704834,5.6630955,-0.001858625,-0.025813579559326172,0.0057950136
747.299999999649,-0.40799227,-0.70859385,-0.16059797,-2.2857492,0.6251478,2.1957586,0.5339069,0.039999697,0.04,-5.9944057,5.303051471710205,5.6643214,-0.002387572,-0.024742338806390762,0.005694569
747.3166666663157,-0.40807757,-0.7085777,-0.16063185,-2.2857335,0.62527925,2.1958897,0.53385395,0.039999694,0.04,-5.9935403,5.303218364715576,5.6655326,-0.0028895696,-0.023726603016257286,0.0056020194
747.3333333329823,-0.40815637,-0.7085631,-0.16066311,-2.2857194,0.6254005,2.1960108,0.5338054,0.039999694,0.04,-5.9927707,5.303239345550537,5.6666536,-0.003360933,-0.022768737748265266,0.005511715
747.349999999649,-0.408229,-0.70854956,-0.16069192,-2.2857065,0.62551224,2.1961224,0.5337606,0.039999694,0.04,-5.9921417,5.3032732009887695,5.66781,-0.0038056714,-0.021868836134672165,0.0054288073
747.3666666663156,-0.40829587,-0.708537,-0.16071847,-2.285695,0.62561524,2.1962252,0.53371894,0.039999694,0.04,-5.991662,5.303241729736328,5.6689067,-0.004220983,-0.021031063050031662,0.005351689
747.3833333329823,-0.4083574,-0.7085256,-0.16074291,-2.2856853,0.62571,2.1963198,0.53368044,0.039999682,0.04,-5.991281,5.303150177001953,5.66996,-0.004605487,-0.02025550790131092,0.0052790027
747.3999999996489,-0.40841398,-0.70851487,-0.16076538,-2.2856755,0.6257973,2.196407,0.5336455,0.03999969,0.04,-5.990997,5.303032398223877,5.6710024,-0.0049602813,-0.01954261213541031,0.0052137882
747.4166666663156,-0.40846604,-0.7085051,-0.16078606,-2.2856667,0.62587744,2.1964877,0.53361285,0.039999686,0.04,-5.990645,5.30282735824585,5.671849,-0.0052878736,-0.018884101882576942,0.005153454
747.4333333329822,-0.40851375,-0.7084962,-0.16080508,-2.2856581,0.62595123,2.1965613,0.5335836,0.03999969,0.04,-5.99036,5.302681922912598,5.672698,-0.0055867285,-0.018276767805218697,0.0050978786
747.4499999996489,-0.40855768,-0.7084877,-0.1608226,-2.2856498,0.6260191,2.1966286,0.53355646,0.039999686,0.04,-5.990084,5.302465438842773,5.673478,-0.005863605,-0.017718574032187462,0.005046146
747.4666666663155,-0.40859818,-0.70848024,-0.16083871,-2.285642,0.62608176,2.1966906,0.53353125,0.039999686,0.04,-5.989837,5.302359104156494,5.6741548,-0.006117338,-0.017206650227308273,0.0049983226
747.4833333329822,-0.40863538,-0.70847327,-0.1608535,-2.2856348,0.62613916,2.1967487,0.5335081,0.039999686,0.04,-5.9895473,5.302208423614502,5.67481,-0.00634912,-0.01673242449760437,0.0049523637
747.4999999996488,-0.4086695,-0.7084666,-0.16086715,-2.2856283,0.6261922,2.1968005,0.5334869,0.039999682,0.04,-5.9893456,5.302127361297607,5.6753974,-0.006562058,-0.016292395070195198,0.0049144006
747.5166666663155,-0.40870112,-0.70846075,-0.16087969,-2.2856226,0.626241,2.1968503,0.5334674,0.039999682,0.04,-5.9892693,5.302039623260498,5.6760187,-0.006759781,-0.01589706726372242,0.0048757833
747.5333333329821,-0.40873,-0.7084553,-0.16089122,-2.2856176,0.6262859,2.1968944,0.5334492,0.039999682,0.04,-5.989009,5.3019819259643555,5.67649,-0.006942119,-0.01552247628569603,0.0048431926
747.5499999996488,-0.4087567,-0.70845026,-0.16090183,-2.285613,0.62632746,2.1969368,0.5334321,0.039999682,0.04,-5.988952,5.3018798828125,5.6770334,-0.007108479,-0.01518701110035181,0.004808739
747.5666666663154,-0.40878114,-0.70844537,-0.16091162,-2.285609,0.62636524,2.1969733,0.5334168,0.039999682,0.04,-5.988761,5.301846981048584,5.6774244,-0.007261682,-0.014870420098304749,0.0047808397
747.5833333329821,-0.40880358,-0.70844096,-0.16092062,-2.2856057,0.62639964,2.1970081,0.533403,0.03999968,0.04,-5.9887524,5.301774978637695,5.6778965,-0.0074036466,-0.014592740684747696,0.004754847
747.5999999996487,-0.4088243,-0.70843714,-0.16092889,-2.2856026,0.6264317,2.1970403,0.53338975,0.03999968,0.04,-5.988636,5.3017377853393555,5.678248,-0.007535024,-0.014333292841911316,0.0047328467
747.6166666663154,-0.4088433,-0.7084336,-0.16093652,-2.2856004,0.62646145,2.1970692,0.5333782,0.039999675,0.04,-5.988475,5.301649570465088,5.6785793,-0.0076541975,-0.014092284254729748,0.0047110245
747.633333332982,-0.40886065,-0.7084304,-0.16094354,-2.2855983,0.6264885,2.1970963,0.53336686,0.03999968,0.04,-5.9884706,5.3016438484191895,5.6789455,-0.007768857,-0.013876521959900856,0.004689619
747.6499999996487,-0.40887675,-0.70842725,-0.16094998,-2.2855961,0.62651294,2.197123,0.533357,0.039999675,0.04,-5.9883466,5.301569938659668,5.679193,-0.007869523,-0.013675137422978878,0.004671209
747.6666666663153,-0.4088916,-0.70842427,-0.1609559,-2.285594,0.6265355,2.1971443,0.53334755,0.03999968,0.04,-5.988212,5.301543712615967,5.679388,-0.0079639675,-0.01348255667835474,0.004658387
747.683333332982,-0.4089052,-0.7084215,-0.16096136,-2.2855918,0.6265566,2.197165,0.53333896,0.03999968,0.04,-5.9882107,5.301462173461914,5.679699,-0.008048904,-0.0133195286616683,0.0046416074
747.6999999996486,-0.40891767,-0.708419,-0.16096637,-2.2855897,0.6265762,2.1971846,0.5333313,0.03999968,0.04,-5.9880967,5.301410675048828,5.6798644,-0.00812821,-0.013163439929485321,0.0046281302
747.7166666663153,-0.4089291,-0.70841706,-0.160971,-2.2855875,0.6265943,2.1972039,0.53332376,0.03999968,0.04,-5.987989,5.301357269287109,5.680042,-0.008201945,-0.013016792945563793,0.0046131597
747.7333333329819,-0.40893966,-0.70841515,-0.16097523,-2.2855856,0.6266109,2.1972206,0.5333171,0.03999968,0.04,-5.987824,5.301302433013916,5.680193,-0.008267019,-0.012874023988842964,0.00460097
747.7499999996486,-0.40894943,-0.7084134,-0.16097917,-2.2855837,0.6266258,2.1972342,0.5333112,0.03999968,0.04,-5.9878173,5.301268100738525,5.68041,-0.008327946,-0.012748000212013721,0.004588063
747.7666666663152,-0.40895846,-0.7084118,-0.16098279,-2.285582,0.62663984,2.1972473,0.53330547,0.039999675,0.04,-5.9877872,5.301243305206299,5.6805987,-0.008384162,-0.012639590539038181,0.0045775347
747.7833333329819,-0.40896666,-0.7084103,-0.16098608,-2.2855806,0.6266526,2.1972594,0.53330016,0.03999968,0.04,-5.987737,5.301226615905762,5.680726,-0.0084358705,-0.012536780908703804,0.0045653787
747.7999999996485,-0.40897402,-0.70840895,-0.16098912,-2.2855794,0.6266645,2.1972713,0.53329533,0.039999675,0.04,-5.6521897,5.020724296569824,5.6081696,0.0,-0.0,0.0
747.8166666663152,-0.40897402,-0.70840895,-0.16098912,-2.2855794,0.6266645,2.1972713,0.53329533,0.039999675,0.04,-5.9886837,5.300128936767578,5.681585,0.0,-0.0,0.0
747.8333333329819,-0.40897402,-0.70840895,-0.16098912,-2.2855794,0.6266645,2.1972713,0.53329533,0.039999675,0.04,-5.9886837,5.300128936767578,5.681585,0.0,-0.0,0.0
747.8499999996485,-0.40897402,-0.70840895,-0.16098912,-2.2855794,0.6266645,2.1972713,0.53329533,0.039999675,0.04,-5.9886837,5.300128936767578,5.681585,0.0,-0.0,0.0
747.8666666663152,-0.40897402,-0.70840895,-0.16098912,-2.2855794,0.6266645,2.1972713,0.53329533,0.039999675,0.04,-5.9886837,5.300128936767578,5.681585,0.0,-0.0,0.0
747.8833333329818,-0.40897402,-0.70840895,-0.16098912,-2.2855794,0.6266645,2.1972713,0.53329533,0.039999675,0.04,-5.9886837,5.300128936767578,5.681585,0.0,-0.0,0.0
747.8999999996485,-0.40897402,-0.70840895,-0.16098912,-2.2855794,0.6266645,2.1972713,0.53329533,0.039999675,0.04,-5.9886837,5.300128936767578,5.681585,0.0,-0.0,0.0
747.9166666663151,-0.40897402,-0.70840895,-0.16098912,-2.2855794,0.6266645,2.1972713,0.53329533,0.039999675,0.04,-5.9886837,5.300128936767578,5.681585,0.0,-0.0,0.0
747.9333333329818,-0.40897402,-0.70840895,-0.16098912,-2.2855794,0.6266645,2.1972713,0.53329533,0.039999675,0.04,-5.9886837,5.300128936767578,5.681585,0.0,-0.0,0.0
747.9499999996484,-0.40897402,-0.70840895,-0.16098912,-2.2855794,0.6266645,2.1972713,0.53329533,0.039999675,0.04,-5.9886837,5.300128936767578,5.681585,0.0,-0.0,0.0
747.9666666663151,-0.40897402,-0.70840895,-0.16098912,-2.2855794,0.6266645,2.1972713,0.53329533,0.039999675,0.04,-5.9886837,5.300128936767578,5.681585,0.0,-0.0,0.0
747.9833333329817,-0.40897402,-0.70840895,-0.16098912,-2.2855794,0.6266645,2.1972713,0.53329533,0.039999675,0.04,-5.9886837,5.300128936767578,5.681585,0.0,-0.0,0.0
747.9999999996484,-0.40897402,-0.70840895,-0.16098912,-2.2855794,0.6266645,2.1972713,0.53329533,0.039999675,0.04,-5.9886837,5.300128936767578,5.681585,0.0,-0.0,0.0
748.016666666315,-0.40897402,-0.70840895,-0.16098912,-2.2855794,0.6266645,2.1972713,0.53329533,0.039999675,0.04,-5.9886837,5.300128936767578,5.681585,0.0,-0.0,0.0
748.0333333329817,-0.40897402,-0.70840895,-0.16098912,-2.2855794,0.6266645,2.1972713,0.53329533,0.039999675,0.04,-5.9886837,5.300128936767578,5.681585,0.0,-0.0,0.0
748.0499999996483,-0.40897402,-0.70840895,-0.16098912,-2.2855794,0.6266645,2.1972713,0.53329533,0.039999675,0.04,-5.9886837,5.300128936767578,5.681585,0.0,-0.0,0.0
748.066666666315,-0.40897402,-0.70840895,-0.16098912,-2.2855794,0.6266645,2.1972713,0.53329533,0.039999675,0.04,-5.9886837,5.300128936767578,5.681585,0.0,-0.0,0.0
748.0833333329816,-0.40897402,-0.70840895,-0.16098912,-2.2855794,0.6266645,2.1972713,0.53329533,0.039999675,0.04,-5.9886837,5.300128936767578,5.681585,0.0,-0.0,0.0
748.0999999996483,-0.40897402,-0.70840895,-0.16098912,-2.2855794,0.6266645,2.1972713,0.53329533,0.039999675,0.04,-5.9886837,5.300128936767578,5.681585,0.0,-0.0,0.0
748.1166666663149,-0.40897402,-0.70840895,-0.16098912,-2.2855794,0.6266645,2.1972713,0.53329533,0.039999675,0.04,-5.9886837,5.300128936767578,5.681585,0.0,-0.0,0.0
748.1333333329816,-0.40897402,-0.70840895,-0.16098912,-2.2855794,0.6266645,2.1972713,0.53329533,0.039999675,0.04,-5.9886837,5.300128936767578,5.681585,0.0,-0.0,0.0
748.1499999996482,-0.40897402,-0.70840895,-0.16098912,-2.2855794,0.6266645,2.1972713,0.53329533,0.039999675,0.04,-5.9886837,5.300128936767578,5.681585,0.0,-0.0,0.0
748.1666666663149,-0.40897402,-0.70840895,-0.16098912,-2.2855794,0.6266645,2.1972713,0.53329533,0.039999675,0.04,-5.9886837,5.300128936767578,5.681585,0.0,-0.0,0.0
748.1833333329815,-0.40897402,-0.70840895,-0.16098912,-2.2855794,0.6266645,2.1972713,0.53329533,0.039999675,0.04,-5.9886837,5.300128936767578,5.681585,0.0,-0.0,0.0
748.1999999996482,-0.40897402,-0.70840895,-0.16098912,-2.2855794,0.6266645,2.1972713,0.53329533,0.039999675,0.04,-5.9886837,5.300128936767578,5.681585,0.0,-0.0,0.0
748.2166666663148,-0.40897402,-0.70840895,-0.16098912,-2.2855794,0.6266645,2.1972713,0.53329533,0.039999675,0.04,-5.9886837,5.300128936767578,5.681585,0.0,-0.0,0.0
748.2333333329815,-0.40897402,-0.70840895,-0.16098912,-2.2855794,0.6266645,2.1972713,0.53329533,0.039999675,0.04,-5.9886837,5.300128936767578,5.681585,0.0,-0.0,0.0
748.2499999996481,-0.40897402,-0.70840895,-0.16098912,-2.2855794,0.6266645,2.1972713,0.53329533,0.039999675,0.04,-5.9886837,5.300128936767578,5.681585,0.0,-0.0,0.0
748.2666666663148,-0.40897402,-0.70840895,-0.16098912,-2.2855794,0.6266645,2.1972713,0.53329533,0.039999675,0.04,-5.9886837,5.300128936767578,5.681585,0.0,-0.0,0.0
748.2833333329814,-0.40897402,-0.70840895,-0.16098912,-2.2855794,0.6266645,2.1972713,0.53329533,0.039999675,0.04,-5.9886837,5.300128936767578,5.681585,0.0,-0.0,0.0
748.2999999996481,-0.40897402,-0.70840895,-0.16098912,-2.2855794,0.6266645,2.1972713,0.53329533,0.039999675,0.04,-5.9886837,5.300128936767578,5.681585,0.0,-0.0,0.0
748.3166666663147,-0.40897402,-0.70840895,-0.16098912,-2.2855794,0.6266645,2.1972713,0.53329533,0.039999675,0.04,-5.9886837,5.300128936767578,5.681585,0.0,-0.0,0.0
748.3333333329814,-0.40897402,-0.70840895,-0.16098912,-2.2855794,0.6266645,2.1972713,0.53329533,0.039999675,0.04,-5.9886837,5.300128936767578,5.681585,0.0,-0.0,0.0
748.349999999648,-0.40897402,-0.70840895,-0.16098912,-2.2855794,0.6266645,2.1972713,0.53329533,0.039999675,0.04,-5.9886837,5.300128936767578,5.681585,0.0,-0.0,0.0
748.3666666663147,-0.40897402,-0.70840895,-0.16098912,-2.2855794,0.6266645,2.1972713,0.53329533,0.039999675,0.04,-5.9886837,5.300128936767578,5.681585,0.0,-0.0,0.0
748.3833333329814,-0.40897402,-0.70840895,-0.16098912,-2.2855794,0.6266645,2.1972713,0.53329533,0.039999675,0.04,-5.9886837,5.300128936767578,5.681585,0.0,-0.0,0.0
748.399999999648,-0.40897402,-0.70840895,-0.16098912,-2.2855794,0.6266645,2.1972713,0.53329533,0.039999675,0.04,-5.9886837,5.300128936767578,5.681585,0.0,-0.0,0.0
748.4166666663147,-0.40897402,-0.70840895,-0.16098912,-2.2855794,0.6266645,2.1972713,0.53329533,0.039999675,0.04,-5.9886837,5.300128936767578,5.681585,0.0,-0.0,0.0
748.4333333329813,-0.40897402,-0.70840895,-0.16098912,-2.2855794,0.6266645,2.1972713,0.53329533,0.039999675,0.04,-5.9886837,5.300128936767578,5.681585,0.0,-0.0,0.0
748.449999999648,-0.40897402,-0.70840895,-0.16098912,-2.2855794,0.6266645,2.1972713,0.53329533,0.039999675,0.04,-5.9886837,5.300128936767578,5.681585,0.0,-0.0,0.0
748.4666666663146,-0.40897402,-0.70840895,-0.16098912,-2.2855794,0.6266645,2.1972713,0.53329533,0.039999675,0.04,-5.9886837,5.300128936767578,5.681585,0.0,-0.0,0.0
748.4833333329813,-0.40897402,-0.70840895,-0.16098912,-2.2855794,0.6266645,2.1972713,0.53329533,0.039999675,0.04,-5.9886837,5.300128936767578,5.681585,0.0,-0.0,0.0
748.4999999996479,-0.40897402,-0.70840895,-0.16098912,-2.2855794,0.6266645,2.1972713,0.53329533,0.039999675,0.04,-5.9886837,5.300128936767578,5.681585,0.0,-0.0,0.0
748.5166666663146,-0.40897402,-0.70840895,-0.16098912,-2.2855794,0.6266645,2.1972713,0.53329533,0.039999675,0.04,-5.9886837,5.300128936767578,5.681585,0.0,-0.0,0.0
748.5333333329812,-0.40897402,-0.70840895,-0.16098912,-2.2855794,0.6266645,2.1972713,0.53329533,0.039999675,0.04,-5.9886837,5.300128936767578,5.681585,0.0,-0.0,0.0
748.5499999996479,-0.40897402,-0.70840895,-0.16098912,-2.2855794,0.6266645,2.1972713,0.53329533,0.039999675,0.04,-5.9886837,5.300128936767578,5.681585,0.0,-0.0,0.0
748.5666666663145,-0.40897402,-0.70840895,-0.16098912,-2.2855794,0.6266645,2.1972713,0.53329533,0.039999675,0.04,-5.9886837,5.300128936767578,5.681585,0.0,-0.0,0.0
748.5833333329812,-0.40897402,-0.70840895,-0.16098912,-2.2855794,0.6266645,2.1972713,0.53329533,0.039999675,0.04,-5.9886837,5.300128936767578,5.681585,0.0,-0.0,0.0
748.5999999996478,-0.40897402,-0.70840895,-0.16098912,-2.2855794,0.6266645,2.1972713,0.53329533,0.039999675,0.04,-5.9886837,5.300128936767578,5.681585,0.0,-0.0,0.0
748.6166666663145,-0.40897402,-0.70840895,-0.16098912,-2.2855794,0.6266645,2.1972713,0.53329533,0.039999675,0.04,-5.9886837,5.300128936767578,5.681585,0.0,-0.0,0.0
748.6333333329811,-0.40897402,-0.70840895,-0.16098912,-2.2855794,0.6266645,2.1972713,0.53329533,0.039999675,0.04,-5.9886837,5.300128936767578,5.681585,0.0,-0.0,0.0
748.6499999996478,-0.40897402,-0.70840895,-0.16098912,-2.2855794,0.6266645,2.1972713,0.53329533,0.039999675,0.04,-5.9886837,5.300128936767578,5.681585,0.0,-0.0,0.0
748.6666666663144,-0.40897402,-0.70840895,-0.16098912,-2.2855794,0.6266645,2.1972713,0.53329533,0.039999675,0.04,-5.9886837,5.300128936767578,5.681585,0.0,-0.0,0.0
748.6833333329811,-0.40897402,-0.70840895,-0.16098912,-2.2855794,0.6266645,2.1972713,0.53329533,0.039999675,0.04,-5.9886837,5.300128936767578,5.681585,0.0,-0.0,0.0
748.6999999996477,-0.40897402,-0.70840895,-0.16098912,-2.2855794,0.6266645,2.1972713,0.53329533,0.039999675,0.04,-5.9886837,5.300128936767578,5.681585,0.0,-0.0,0.0
748.7166666663144,-0.40897402,-0.70840895,-0.16098912,-2.2855794,0.6266645,2.1972713,0.53329533,0.039999675,0.04,-5.9886837,5.300128936767578,5.681585,0.0,-0.0,0.0
748.733333332981,-0.40897402,-0.70840895,-0.16098912,-2.2855794,0.6266645,2.1972713,0.53329533,0.039999675,0.04,-5.9886837,5.300128936767578,5.681585,0.0,-0.0,0.0
748.7499999996477,-0.40897402,-0.70840895,-0.16098912,-2.2855794,0.6266645,2.1972713,0.53329533,0.039999675,0.04,-5.9886837,5.300128936767578,5.681585,0.0,-0.0,0.0
748.7666666663143,-0.40897402,-0.70840895,-0.16098912,-2.2855794,0.6266645,2.1972713,0.53329533,0.039999675,0.04,-5.9886837,5.300128936767578,5.681585,0.0,-0.0,0.0
748.783333332981,-0.40897402,-0.70840895,-0.16098912,-2.2855794,0.6266645,2.1972713,0.53329533,0.039999675,0.04,-5.9886837,5.300128936767578,5.681585,0.0,-0.0,0.0
748.7999999996476,-0.40897402,-0.70840895,-0.16098912,-2.2855794,0.6266645,2.1972713,0.53329533,0.039999675,0.04,-5.9886837,5.300128936767578,5.681585,0.0,-0.0,0.0
748.8166666663143,-0.40897402,-0.70840895,-0.16098912,-2.2855794,0.6266645,2.1972713,0.53329533,0.039999675,0.04,-5.9886837,5.300128936767578,5.681585,0.0,-0.0,0.0
748.8333333329809,-0.40897402,-0.70840895,-0.16098912,-2.2855794,0.6266645,2.1972713,0.53329533,0.039999675,0.04,-5.9886837,5.300128936767578,5.681585,0.0,-0.0,0.0
748.8499999996476,-0.40897402,-0.70840895,-0.16098912,-2.2855794,0.6266645,2.1972713,0.53329533,0.039999675,0.04,-5.9886837,5.300128936767578,5.681585,0.0,-0.0,0.0
748.8666666663142,-0.40897402,-0.70840895,-0.16098912,-2.2855794,0.6266645,2.1972713,0.53329533,0.039999675,0.04,-5.9886837,5.300128936767578,5.681585,0.0,-0.0,0.0
748.8833333329809,-0.40897402,-0.70840895,-0.16098912,-2.2855794,0.6266645,2.1972713,0.53329533,0.039999675,0.04,-5.9886837,5.300128936767578,5.681585,0.0,-0.0,0.0
748.8999999996475,-0.40897402,-0.70840895,-0.16098912,-2.2855794,0.6266645,2.1972713,0.53329533,0.039999675,0.04,-5.9886837,5.300128936767578,5.681585,0.0,-0.0,0.0
748.9166666663142,-0.40897402,-0.70840895,-0.16098912,-2.2855794,0.6266645,2.1972713,0.53329533,0.039999675,0.04,-5.9886837,5.300128936767578,5.681585,0.0,-0.0,0.0
748.9333333329809,-0.40897402,-0.70840895,-0.16098912,-2.2855794,0.6266645,2.1972713,0.53329533,0.039999675,0.04,-5.9886837,5.300128936767578,5.681585,0.0,-0.0,0.0
748.9499999996475,-0.40897402,-0.70840895,-0.16098912,-2.2855794,0.6266645,2.1972713,0.53329533,0.039999675,0.04,-5.9886837,5.300128936767578,5.681585,0.0,-0.0,0.0
748.9666666663142,-0.40897402,-0.70840895,-0.16098912,-2.2855794,0.6266645,2.1972713,0.53329533,0.039999675,0.04,-5.9886837,5.300128936767578,5.681585,0.0,-0.0,0.0
748.9833333329808,-0.40897402,-0.70840895,-0.16098912,-2.2855794,0.6266645,2.1972713,0.53329533,0.039999675,0.04,-5.9886837,5.300128936767578,5.681585,0.0,-0.0,0.0
748.9999999996475,-0.40897402,-0.70840895,-0.16098912,-2.2855794,0.6266645,2.1972713,0.53329533,0.039999675,0.04,-5.9886837,5.300128936767578,5.681585,0.0,-0.0,0.0
749.0166666663141,-0.40897402,-0.70840895,-0.16098912,-2.2855794,0.6266645,2.1972713,0.53329533,0.039999675,0.04,-5.9886837,5.300128936767578,5.681585,0.0,-0.0,0.0
749.0333333329808,-0.40897402,-0.70840895,-0.16098912,-2.2855794,0.6266645,2.1972713,0.53329533,0.039999675,0.04,-5.9886837,5.300128936767578,5.681585,0.0,-0.0,0.0
749.0499999996474,-0.40897402,-0.70840895,-0.16098912,-2.2855794,0.6266645,2.1972713,0.53329533,0.039999675,0.04,-5.9886837,5.300128936767578,5.681585,0.0,-0.0,0.0
749.0666666663141,-0.40897402,-0.70840895,-0.16098912,-2.2855794,0.6266645,2.1972713,0.53329533,0.039999675,0.04,-5.9886837,5.300128936767578,5.681585,0.0,-0.0,0.0
749.0833333329807,-0.40897402,-0.70840895,-0.16098912,-2.2855794,0.6266645,2.1972713,0.53329533,0.039999675,0.04,-5.9886837,5.300128936767578,5.681585,0.0,-0.0,0.0
749.0999999996474,-0.40897402,-0.70840895,-0.16098912,-2.2855794,0.6266645,2.1972713,0.53329533,0.039999675,0.04,-5.9886837,5.300128936767578,5.681585,0.0,-0.0,0.0
749.116666666314,-0.40897402,-0.70840895,-0.16098912,-2.2855794,0.6266645,2.1972713,0.53329533,0.039999675,0.04,-5.9886837,5.300128936767578,5.681585,0.0,-0.0,0.0
749.1333333329807,-0.40897402,-0.70840895,-0.16098912,-2.2855794,0.6266645,2.1972713,0.53329533,0.039999675,0.04,-5.9886837,5.300128936767578,5.681585,0.0,-0.0,0.0
749.1499999996473,-0.40897402,-0.70840895,-0.16098912,-2.2855794,0.6266645,2.1972713,0.53329533,0.039999675,0.04,-5.9886837,5.300128936767578,5.681585,0.0,-0.0,0.0
749.166666666314,-0.40897402,-0.70840895,-0.16098912,-2.2855794,0.6266645,2.1972713,0.53329533,0.039999675,0.04,-5.9886837,5.300128936767578,5.681585,0.0,-0.0,0.0
749.1833333329806,-0.40897402,-0.70840895,-0.16098912,-2.2855794,0.6266645,2.1972713,0.53329533,0.039999675,0.04,-5.9886837,5.300128936767578,5.681585,0.0,-0.0,0.0
749.1999999996473,-0.40897402,-0.70840895,-0.16098912,-2.2855794,0.6266645,2.1972713,0.53329533,0.039999675,0.04,-5.9886837,5.300128936767578,5.681585,0.0,-0.0,0.0
749.2166666663139,-0.40897402,-0.70840895,-0.16098912,-2.2855794,0.6266645,2.1972713,0.53329533,0.039999675,0.04,-5.9886837,5.300128936767578,5.681585,0.0,-0.0,0.0
749.2333333329806,-0.40897402,-0.70840895,-0.16098912,-2.2855794,0.6266645,2.1972713,0.53329533,0.039999675,0.04,-5.9886837,5.300128936767578,5.681585,0.0,-0.0,0.0
749.2499999996472,-0.40897402,-0.70840895,-0.16098912,-2.2855794,0.6266645,2.1972713,0.53329533,0.039999675,0.04,-5.9886837,5.300128936767578,5.681585,0.0,-0.0,0.0
749.2666666663139,-0.40897402,-0.70840895,-0.16098912,-2.2855794,0.6266645,2.1972713,0.53329533,0.039999675,0.04,-5.9886837,5.300128936767578,5.681585,0.0,-0.0,0.0
749.2833333329805,-0.40897402,-0.70840895,-0.16098912,-2.2855794,0.6266645,2.1972713,0.53329533,0.039999675,0.04,-5.9886837,5.300128936767578,5.681585,0.0,-0.0,0.0
749.2999999996472,-0.40897402,-0.70840895,-0.16098912,-2.2855794,0.6266645,2.1972713,0.53329533,0.039999675,0.04,-5.9886837,5.300128936767578,5.681585,0.0,-0.0,0.0
749.3166666663138,-0.40897402,-0.70840895,-0.16098912,-2.2855794,0.6266645,2.1972713,0.53329533,0.039999675,0.04,-5.9886837,5.300128936767578,5.681585,0.0,-0.0,0.0
749.3333333329805,-0.40897402,-0.70840895,-0.16098912,-2.2855794,0.6266645,2.1972713,0.53329533,0.039999675,0.04,-5.9886837,5.300128936767578,5.681585,0.0,-0.0,0.0
749.3499999996471,-0.40897402,-0.70840895,-0.16098912,-2.2855794,0.6266645,2.1972713,0.53329533,0.039999675,0.04,-5.9886837,5.300128936767578,5.681585,0.0,-0.0,0.0
749.3666666663138,-0.40897402,-0.70840895,-0.16098912,-2.2855794,0.6266645,2.1972713,0.53329533,0.039999675,0.04,-5.9886837,5.300128936767578,5.681585,0.0,-0.0,0.0
749.3833333329804,-0.40897402,-0.70840895,-0.16098912,-2.2855794,0.6266645,2.1972713,0.53329533,0.039999675,0.04,-5.9886837,5.300128936767578,5.681585,0.0,-0.0,0.0
749.3999999996471,-0.40897402,-0.70840895,-0.16098912,-2.2855794,0.6266645,2.1972713,0.53329533,0.039999675,0.04,-5.9886837,5.300128936767578,5.681585,0.0,-0.0,0.0
