rsonawane2002/My_IMU/logs_2/traj_475/imu_400hz_475.csv
time,j1,j2,j3,j4,j5,j6,j7,gripper1,gripper2,imu_ax,imu_ay,imu_az,imu_gx,imu_gy,imu_gz
0.0,0.00016700293,-0.785875,4.0107683e-05,-2.3551247,9.29385e-05,1.570997,0.786,0.04,0.04,-9.5516615,0.0429079607129097,0.08947073,-2.446233e-07,-0.0011641276068985,2.4500483e-07
0.0025,0.000167004268,-0.7858577740000002,4.0107553100000005e-05,-2.35513919,9.294489299999992e-05,1.570996565,0.786,0.04,0.04,-9.59408682499946,0.03656604201832013,0.07740614975015361,-2.245470765002556e-07,-0.0013251909753286793,4.661070904971847e-07
0.005,0.00016700560599999995,-0.7858405480000005,4.010742320000001e-05,-2.35515368,9.295128599999984e-05,1.57099613,0.786,0.04,0.04,-9.63651214999892,0.030224123323730562,0.06534156950030723,-2.0447085300051124e-07,-0.0014862543437588584,6.872093509943695e-07
0.0075,0.00016700694399999995,-0.7858233220000007,4.0107293300000004e-05,-2.35516817,9.295767899999976e-05,1.5709956950000001,0.786,0.04,0.04,-9.67893747499838,0.023882204629140997,0.05327698925046086,-1.8439462950076687e-07,-0.0016473177121890377,9.083116114915541e-07
0.01,0.00016700828199999991,-0.785806096000001,4.0107163400000006e-05,-2.3551826599999997,9.296407199999968e-05,1.5709952600000001,0.786,0.04,0.04,-9.72136279999784,0.017540285934551425,0.04121240900061447,-1.643184060010225e-07,-0.001808381080619217,1.129413871988739e-06
0.0125,0.0001670096199999999,-0.7857888700000011,4.010703350000001e-05,-2.355197149999999,9.297046499999959e-05,1.570994825,0.786,0.04,0.04,-9.7637881249973,0.011198367239961857,0.029147828750768087,-1.4424218250127812e-07,-0.001969444449049396,1.3505161324859236e-06
0.015,0.0001670109579999999,-0.7857716440000013,4.010690360000001e-05,-2.355211639999999,9.297685799999951e-05,1.57099439,0.786,0.04,0.04,-9.80621344999676,0.004856448545372295,0.017083248500921716,-1.2416595900153378e-07,-0.002130507817479575,1.5716183929831083e-06
0.0175,0.00016701440599999932,-0.7857548670000014,4.010406635000074e-05,-2.355225734999999,9.298554399999882e-05,1.57099396,0.786,0.04,0.04,-9.834396900000028,0.0006280968489591586,0.008962987870020643,-1.0600214365127804e-07,-0.0022871657973023525,1.991024189927269e-06
0.02,0.0001670220739999992,-0.7857389880000016,4.009581440000084e-05,-2.355239039999999,9.299881599999866e-05,1.5709935400000001,0.786,0.04,0.04,-9.83409660000003,0.000626879150513624,0.008731366480023593,-9.166314460146062e-08,-0.00243501299990696,2.8070370599168783e-06
0.0225,0.0001670297419999991,-0.7857231090000019,4.0087562450000946e-05,-2.3552523449999985,9.301208799999848e-05,1.57099312,0.786,0.04,0.04,-9.833796300000035,0.0006256614520680896,0.008499745090026543,-7.732414555164321e-08,-0.002582860202511567,3.623049929906488e-06
0.025,0.00016703740999999902,-0.7857072300000021,4.007931050000105e-05,-2.3552656499999984,9.302535999999832e-05,1.5709927000000001,0.786,0.04,0.04,-9.83349600000004,0.0006244437536225551,0.008268123700029491,-6.298514650182576e-08,-0.0027307074051161747,4.439062799896098e-06
0.0275,0.00016704507799999893,-0.7856913510000022,4.0071058550001154e-05,-2.355278954999998,9.303863199999814e-05,1.57099228,0.786,0.04,0.04,-9.833195700000042,0.0006232260551770206,0.008036502310032442,-4.864614745200835e-08,-0.002878554607720782,5.255075669885707e-06
0.03,0.00016705274599999883,-0.7856754720000024,4.006280660000126e-05,-2.355292259999998,9.305190399999797e-05,1.5709918600000001,0.786,0.04,0.04,-9.832895400000046,0.0006220083567314861,0.00780488092003539,-3.4307148402190935e-08,-0.0030264018103253894,6.0710885398753165e-06
0.0325,0.00016706041399999871,-0.7856595930000027,4.005455465000136e-05,-2.3553055649999974,9.306517599999781e-05,1.57099144,0.786,0.04,0.04,-9.832595100000049,0.0006207906582859515,0.007573259530038339,-1.9968149352373496e-08,-0.003174249012929997,6.887101409864927e-06
0.035,0.0001670791129999957,-0.7856445730000027,4.0032066100005276e-05,-2.3553180999999976,9.309086599999431e-05,1.57099101,0.786,0.04,0.04,-9.832311700000048,0.000617714237888034,0.007352033560038509,-7.562307038590302e-10,-0.0033138216938581374,8.434429529658992e-06
0.0375,0.00016710332749999537,-0.7856299825000028,4.0002459250005654e-05,-2.3553302499999975,9.31227649999939e-05,1.5709905750000002,0.786,0.04,0.04,-9.832036750000052,0.0006137084565132151,0.00713600530004126,2.0892147745865284e-08,-0.0034492571139448825,1.034741527463463e-05
0.04,0.00016712754199999506,-0.785615392000003,3.997285240000603e-05,-2.3553423999999974,9.31546639999935e-05,1.5709901400000001,0.786,0.04,0.04,-9.831761800000056,0.0006097026751383961,0.0069199770400440105,4.254052619558966e-08,-0.0035846925340316284,1.2260401019610274e-05
0.0425,0.00016715175649999477,-0.7856008015000031,3.994324555000641e-05,-2.3553545499999973,9.31865629999931e-05,1.5709897050000001,0.786,0.04,0.04,-9.83148685000006,0.0006056968937635771,0.006703948780046761,6.418890464531404e-08,-0.003720127954118374,1.4173386764585918e-05
0.045,0.00016717597099999445,-0.7855862110000034,3.9913638700006785e-05,-2.355366699999997,9.321846199999269e-05,1.57098927,0.786,0.04,0.04,-9.831211900000064,0.000601691112388758,0.0064879205200495125,8.583728309503835e-08,-0.0038555633742051194,1.6086372509561556e-05
0.0475,0.00016720018549999413,-0.7855716205000035,3.988403185000716e-05,-2.355378849999997,9.325036099999229e-05,1.570988835,0.786,0.04,0.04,-9.830936950000067,0.0005976853310139391,0.006271892260052263,1.0748566154476273e-07,-0.003990998794291865,1.79993582545372e-05
0.05,0.00016722439999999384,-0.7855570300000037,3.985442500000754e-05,-2.355390999999997,9.328225999999188e-05,1.5709884,0.786,0.04,0.04,-9.83066200000007,0.0005936795496391201,0.0060558640000550135,1.291340399944871e-07,-0.00412643421437861,1.9912343999512844e-05
0.0525,0.0001672796914999837,-0.785543615500004,3.97845065500206e-05,-2.3554021299999968,9.33521734999794e-05,1.5709879800000002,0.786,0.04,0.03999999925,-9.830344150000094,0.0005919104442004763,0.00586793260005538,1.838153789838867e-07,-0.004249279107862205,2.39509973988099e-05
0.055,0.00016733498299998148,-0.7855302010000045,3.97145881000234e-05,-2.355413259999996,9.34220869999766e-05,1.5709875600000003,0.786,0.04,0.0399999985,-9.830026300000107,0.0005901413387624021,0.0056800012000629,2.384967179816985e-07,-0.004372124001342594,2.7989650798648288e-05
0.0575,0.0001673902744999793,-0.785516786500005,3.96446696500262e-05,-2.3554243899999956,9.349200049997379e-05,1.5709871400000002,0.786,0.04,0.03999999775,-9.829708450000119,0.0005883722333243278,0.00549206980007042,2.9317805697951035e-07,-0.004494968894822983,3.202830419848667e-05
0.06,0.00016744556599997706,-0.7855033720000056,3.9574751200029e-05,-2.3554355199999955,9.3561913999971e-05,1.5709867200000003,0.786,0.04,0.039999997,-9.829390600000131,0.0005866031278862537,0.005304138400077941,3.4785939597732204e-07,-0.004617813788303372,3.606695759832505e-05
0.0625,0.00016750085749997484,-0.7854899575000062,3.9504832750031794e-05,-2.355446649999995,9.36318274999682e-05,1.5709863000000002,0.786,0.04,0.03999999625,-9.829072750000144,0.0005848340224481795,0.005116207000085461,4.025407349751339e-07,-0.004740658681783761,4.010561099816343e-05
0.065,0.00016755614899997264,-0.7854765430000067,3.94349143000346e-05,-2.3554577799999943,9.370174099996541e-05,1.5709858800000003,0.786,0.04,0.0399999955,-9.828754900000158,0.0005830649170101052,0.004928275600092982,4.5722207397294573e-07,-0.0048635035752641505,4.4144264398001813e-05
0.0675,0.00016762795199994583,-0.7854635035000064,3.9343525750069395e-05,-2.3554685699999944,9.379089319993407e-05,1.5709854500000002,0.786,0.04,0.039999995,-9.828472850000109,0.0005796809651689315,0.004733269000108049,5.456817949194033e-07,-0.004982413095364643,4.8844226496888785e-05
0.07,0.00016773277799994737,-0.7854512140000062,3.920919700006744e-05,-2.3554786799999947,9.391852279993593e-05,1.5709850000000003,0.786,0.04,0.039999995,-9.828262400000105,0.0005730673205139803,0.004524112000105005,7.016982799216737e-07,-0.005093451868686874,5.4866805996976436e-05
0.0725,0.0001678376039999489,-0.7854389245000061,3.9074868250065485e-05,-2.355488789999995,9.404615239993778e-05,1.5709845500000001,0.786,0.04,0.039999995,-9.828051950000102,0.0005664536758590291,0.004314955000101962,8.577147649239434e-07,-0.005204490642009105,6.0889385497064045e-05
0.075,0.0001679424299999504,-0.7854266350000059,3.894053950006353e-05,-2.3554988999999953,9.417378199993964e-05,1.5709841000000002,0.786,0.04,0.039999995,-9.8278415000001,0.0005598400312040779,0.004105798000098918,1.013731249926214e-06,-0.0053155294153313356,6.69119649971517e-05
0.0775,0.00016804725599995195,-0.7854143455000057,3.8806210750061575e-05,-2.3555090099999956,9.43014115999415e-05,1.5709836500000003,0.786,0.04,0.039999995,-9.827631050000097,0.0005532263865491267,0.003896641000095875,1.1697477349284842e-06,-0.005426568188653566,7.293454449723933e-05
0.08,0.00016815208199995348,-0.7854020560000055,3.867188200005962e-05,-2.3555191199999954,9.442904119994336e-05,1.5709832000000001,0.786,0.04,0.039999995,-9.827420600000094,0.0005466127418941754,0.0036874840000928307,1.3257642199307545e-06,-0.005537606961975797,7.895712399732698e-05
0.0825,0.00016825690799995502,-0.7853897665000054,3.8537553250057665e-05,-2.3555292299999957,9.455667079994522e-05,1.5709827500000002,0.786,0.04,0.039999995,-9.82721015000009,0.0005399990972392242,0.003478327000089787,1.481780704933025e-06,-0.005648645735298028,8.497970349741462e-05
0.085,0.0001684093599999237,-0.7853781730000049,3.8341108300098494e-05,-2.355539109999996,9.474009759990852e-05,1.5709823000000003,0.786,0.04,0.039999995,-9.826975000000107,0.0005345759564099801,0.0032859974300796205,1.6419151099297836e-06,-0.005751882959114146,9.277806099623958e-05
0.08750000000000001,0.00016858562499992146,-0.785366927500005,3.8113605250101386e-05,-2.3555488749999958,9.495142299990582e-05,1.5709818500000001,0.786,0.04,0.039999995,-9.82672750000011,0.0005297480674947266,0.0031020815750819617,1.8041084749277186e-06,-0.005851219408169756,0.00010146430749612899
0.09,0.00016876188999991921,-0.7853556820000052,3.7886102200104285e-05,-2.3555586399999955,9.516274839990313e-05,1.5709814000000002,0.786,0.04,0.039999995,-9.826480000000114,0.000524920178579473,0.0029181657200843046,1.9663018399256526e-06,-0.005950555857225365,0.00011015055399601835
0.0925,0.00016893815499991697,-0.7853444365000053,3.7658599150107184e-05,-2.3555684049999956,9.537407379990045e-05,1.5709809500000003,0.786,0.04,0.039999995,-9.826232500000117,0.0005200922896642195,0.002734249865086646,2.1284952049235878e-06,-0.006049892306280976,0.00011883680049590775
0.095,0.00016911441999991472,-0.7853331910000054,3.7431096100110076e-05,-2.3555781699999954,9.558539919989775e-05,1.5709805000000003,0.786,0.04,0.039999995,-9.82598500000012,0.000515264400748966,0.002550334010088988,2.2906885699215226e-06,-0.006149228755336586,0.00012752304699579717
0.0975,0.00016929068499991248,-0.7853219455000056,3.7203593050112975e-05,-2.355587934999995,9.579672459989506e-05,1.5709800500000002,0.786,0.04,0.039999995,-9.825737500000123,0.0005104365118337124,0.002366418155091329,2.4528819349194574e-06,-0.006248565204392196,0.00013620929349568656
0.1,0.00016946694999991023,-0.7853107000000058,3.697609000011587e-05,-2.3555976999999952,9.600804999989236e-05,1.5709796000000003,0.786,0.04,0.039999995,-9.825490000000126,0.0005056086229184588,0.0021825023000936706,2.6150752999173926e-06,-0.006347901653447807,0.00014489553999557598
0.10250000000000001,0.0001697397084998576,-0.7853004250000054,3.662255740018456e-05,-2.3556064599999957,9.633088209983146e-05,1.5709791200000003,0.786,0.04,0.03999999575,-9.825328000000084,0.0004996707211861198,0.002004152660093107,2.8949437998538954e-06,-0.0064382710027967825,0.00015642371799398175
0.105,0.00017001246699985414,-0.7852901500000055,3.6269024800189064e-05,-2.3556152199999953,9.665371419982736e-05,1.5709786400000003,0.786,0.04,0.0399999965,-9.825166000000086,0.0004937328194532154,0.0018258030200953785,3.1748122998503308e-06,-0.006528640352141192,0.0001679518959938349
0.1075,0.00017028522549985067,-0.7852798750000056,3.5915492200193564e-05,-2.3556239799999954,9.697654629982324e-05,1.5709781600000003,0.786,0.04,0.03999999725,-9.825004000000089,0.0004877949177203111,0.0016474533800976492,3.454680799846767e-06,-0.006619009701485601,0.00017948007399368814
0.11,0.00017055798399984718,-0.7852696000000058,3.5561959600198064e-05,-2.355632739999995,9.729937839981913e-05,1.5709776800000002,0.786,0.04,0.039999998,-9.824842000000091,0.0004818570159874067,0.00146910374009992,3.734549299843204e-06,-0.006709379050830011,0.00019100825199354137
0.1125,0.00017083074249984372,-0.785259325000006,3.520842700020256e-05,-2.355641499999995,9.762221049981502e-05,1.5709772000000002,0.786,0.04,0.03999999875,-9.824680000000093,0.0004759191142545023,0.0012907541001021907,4.014417799839641e-06,-0.00679974840017442,0.00020253642999339458
0.115,0.00017110350099984022,-0.785249050000006,3.485489440020707e-05,-2.355650259999995,9.794504259981091e-05,1.5709767200000002,0.786,0.04,0.0399999995,-9.824518000000095,0.0004699812125215979,0.0011124044601044615,4.2942862998360775e-06,-0.006890117749518829,0.0002140646079932478
0.11750000000000001,0.00017141768749976238,-0.7852390900000056,3.4447130900308934e-05,-2.355658904999995,9.831693504971872e-05,1.5709760650000006,0.786,0.04,0.04,-9.824319300000163,0.000465550828085602,0.0009397412615965232,4.609857834768415e-06,-0.006976569700007732,0.0002268255539908878
0.12,0.00017181472999975732,-0.7852297600000057,3.393090560031551e-05,-2.355667319999995,9.878694819971273e-05,1.5709750600000005,0.786,0.04,0.04,-9.824047200000166,0.00046413547825148503,0.0007784509460985777,4.9968354397634855e-06,-0.00705518685276467,0.00024205203599069386
0.1225,0.00017221177249975229,-0.7852204300000059,3.341468030032208e-05,-2.355675734999995,9.925696134970675e-05,1.5709740550000006,0.786,0.04,0.04,-9.82377510000017,0.00046272012841736806,0.0006171606306006312,5.383813044758559e-06,-0.00713380400552161,0.0002572785179905
0.125,0.00017260881499974723,-0.7852111000000059,3.2898455000328656e-05,-2.3556841499999948,9.972697449970077e-05,1.5709730500000005,0.786,0.04,0.04,-9.823503000000175,0.00046130477858325104,0.00045587031510268487,5.770790649753632e-06,-0.007212421158278548,0.00027250499999030613
0.1275,0.00017300585749974217,-0.785201770000006,3.2382229700335225e-05,-2.3556925649999947,0.00010019698764969478,1.5709720450000006,0.786,0.04,0.04,-9.823230900000178,0.00045988942874913407,0.0002945799996047384,6.157768254748705e-06,-0.007291038311035488,0.00028773148199011226
0.13,0.0001734028999997371,-0.7851924400000062,3.18660044003418e-05,-2.3557009799999946,0.0001006670007996888,1.5709710400000008,0.786,0.04,0.04,-9.822958800000182,0.0004584740789150171,0.00013328968410679203,6.544745859743778e-06,-0.0073696554637924265,0.0003029579639899184
0.1325,0.00017379994249973205,-0.7851831100000063,3.134977910034837e-05,-2.3557093949999945,0.0001011370139496828,1.5709700350000007,0.786,0.04,0.04,-9.822686700000185,0.00045705872908090013,-2.800063139115445e-05,6.931723464738851e-06,-0.007448272616549366,0.00031818444598972454
0.135,0.00017430003599962072,-0.7851743900000058,3.069851380049422e-05,-2.355717279999995,0.00010172875949955128,1.5709690200000008,0.786,0.04,0.04,-9.822517700000082,0.0004547391028627458,-0.00019409852288414258,7.3830319996675755e-06,-0.007522376906077279,0.0003358123559870539
0.1375,0.0001748516549996137,-0.7851659750000058,2.9979728500503373e-05,-2.355724899999995,0.00010238137124954297,1.5709680000000008,0.786,0.04,0.04,-9.822400250000083,0.00045196733845119107,-0.0003626002023819972,7.86650599966142e-06,-0.007594224763983784,0.00035464097998681417
0.14,0.00017540327399960667,-0.785157560000006,2.9260943200512523e-05,-2.355732519999995,0.00010303398299953466,1.5709669800000008,0.786,0.04,0.04,-9.822282800000085,0.00044919557403963635,-0.0005311018818798519,8.349979999655264e-06,-0.00766607262189029,0.0003734696039865745
0.14250000000000002,0.00017595489299959964,-0.7851491450000061,2.8542157900521673e-05,-2.3557401399999947,0.00010368659474952634,1.5709659600000008,0.786,0.04,0.04,-9.822165350000086,0.00044642380962808164,-0.0006996035613777065,8.833453999649108e-06,-0.007737920479796795,0.00039229822798633474
0.145,0.00017650651199959262,-0.7851407300000062,2.7823372600530834e-05,-2.3557477599999945,0.00010433920649951804,1.5709649400000008,0.786,0.04,0.04,-9.822047900000088,0.000443652045216527,-0.0008681052408755594,9.316927999642947e-06,-0.007809768337703299,0.0004111268519860948
0.1475,0.0001770581309995856,-0.7851323150000064,2.7104587300539984e-05,-2.3557553799999944,0.00010499181824950972,1.5709639200000007,0.786,0.04,0.04,-9.821930450000089,0.00044088028080497226,-0.001036606920373414,9.800401999636791e-06,-0.007881616195609804,0.0004299554759858551
0.15,0.00017760974999957857,-0.7851239000000064,2.6385802000549134e-05,-2.3557629999999943,0.00010564442999950141,1.570962900000001,0.786,0.04,0.04,-9.821813000000091,0.00043810851639341754,-0.0012051085998712686,1.0283875999630635e-05,-0.00795346405351631,0.00044878409998561536
0.1525,0.00017834842649942626,-0.7851163400000059,2.5421612950748893e-05,-2.3557704249999945,0.00010651850699932109,1.5709618350000008,0.786,0.04,0.04,-9.821589800000174,0.0004394459800085162,-0.0013696324098722127,1.0895466199524972e-05,-0.00801379559556922,0.0004715761499822972
0.155,0.00017908710299941686,-0.785108780000006,2.4457423900761172e-05,-2.355777849999994,0.00010739258399930996,1.5709607700000008,0.786,0.04,0.04,-9.821366600000177,0.00044078344362675413,-0.001534156219870118,1.1507056399517184e-05,-0.008074127137613333,0.000494368199982007
0.1575,0.00017982577949940745,-0.785101220000006,2.3493234850773445e-05,-2.355785274999994,0.00010826666099929884,1.5709597050000008,0.786,0.04,0.04,-9.82114340000018,0.00044212090724499213,-0.0016986800298680231,1.2118646599509398e-05,-0.008134458679657444,0.0005171602499817168
0.16,0.00018056445599939805,-0.7850936600000061,2.252904580078572e-05,-2.355792699999994,0.00010914073799928771,1.5709586400000008,0.786,0.04,0.04,-9.820920200000183,0.0004434583708632301,-0.0018632038398659284,1.2730236799501611e-05,-0.008194790221701555,0.0005399522999814266
0.1625,0.00018130313249938864,-0.7850861000000062,2.1564856750797997e-05,-2.355800124999994,0.00011001481499927658,1.5709575750000009,0.786,0.04,0.04,-9.820697000000186,0.0004447958344814681,-0.0020277276498638338,1.3341826999493825e-05,-0.008255121763745668,0.0005627443499811364
0.165,0.00018204180899937923,-0.7850785400000063,2.0600667700810274e-05,-2.3558075499999935,0.00011088889199926545,1.570956510000001,0.786,0.04,0.04,-9.820473800000189,0.00044613329809970603,-0.002192251459861739,1.3953417199486038e-05,-0.00831545330578978,0.0005855363999808462
0.1675,0.0001828543069991809,-0.7850712550000057,1.9539543451070638e-05,-2.355814774999994,0.00011185091949902924,1.5709552750000013,0.786,0.04,0.03999999975,-9.820281400000113,0.0004483934681011925,-0.0023553870598631973,1.461888254934037e-05,-0.008373036282092591,0.0006097676274768728
0.17,0.00018381444799916869,-0.7850645200000058,1.8284548801086616e-05,-2.355821599999994,0.00011298884799901474,1.5709537000000013,0.786,0.04,0.039999999,-9.820150600000114,0.00045249905087622525,-0.0025157462398611554,1.5392098199330524e-05,-0.008425122126891803,0.0006368772099765276
0.17250000000000001,0.00018477458899915646,-0.7850577850000059,1.7029554151102595e-05,-2.355828424999994,0.00011412677649900026,1.5709521250000014,0.786,0.04,0.03999999825,-9.820019800000114,0.000456604633651258,-0.002676105419859114,1.616531384932068e-05,-0.008477207971691015,0.0006639867924761824
0.17500000000000002,0.00018573472999914423,-0.785051050000006,1.5774559501118574e-05,-2.355835249999994,0.00011526470499898577,1.5709505500000014,0.786,0.04,0.0399999975,-9.819889000000117,0.0004607102164262907,-0.0028364645998570723,1.6938529499310835e-05,-0.008529293816490226,0.0006910963749758373
0.1775,0.000186694870999132,-0.785044315000006,1.4519564851134566e-05,-2.3558420749999938,0.00011640263349897126,1.5709489750000014,0.786,0.04,0.03999999675,-9.819758200000118,0.00046481579920132343,-0.0029968237798550287,1.7711745149300983e-05,-0.008581379661289438,0.0007182059574754919
0.18,0.00018765501199911977,-0.7850375800000061,1.3264570201150545e-05,-2.3558488999999936,0.00011754056199895677,1.5709474000000014,0.786,0.04,0.039999996,-9.819627400000119,0.0004689213819763561,-0.003157182959852987,1.848496079929114e-05,-0.008633465506088648,0.0007453155399751467
0.1825,0.00018861515299910755,-0.7850308450000062,1.2009575551166525e-05,-2.355855724999994,0.00011867849049894229,1.5709458250000015,0.786,0.04,0.03999999525,-9.819496600000122,0.0004730269647513889,-0.0033175421398509456,1.9258176449281294e-05,-0.00868555135088786,0.0007724251224748015
0.185,0.0001897470439988526,-0.7850246400000056,1.0528961951501383e-05,-2.3558623199999937,0.00012001874799864184,1.5709441300000015,0.7860000799999999,0.04,0.0399999955,-9.81931820000019,0.0004797973291638653,-0.003462785419870268,2.013297849912787e-05,-0.008731896523345255,0.0008023207249705188
0.1875,0.00019096480999883708,-0.7850187000000056,8.935538876521671e-06,-2.355868799999994,0.00012146016999862349,1.5709423750000018,0.7860001999999999,0.04,0.03999999625,-9.819116000000193,0.0004879000844006621,-0.0036004707498685147,2.1058573749116086e-05,-0.008775371359619682,0.0008336093374701203
0.19,0.00019218257599882158,-0.7850127600000057,7.342115801541958e-06,-2.3558752799999936,0.00012290159199860513,1.5709406200000018,0.78600032,0.04,0.039999997,-9.818913800000194,0.000496002839637459,-0.0037381560798667615,2.19841689991043e-05,-0.00881884619589411,0.000864897949969722
0.1925,0.00019340034199880608,-0.7850068200000059,5.748692726562246e-06,-2.3558817599999937,0.00012434301399858678,1.5709388650000018,0.7860004399999999,0.04,0.03999999775,-9.818711600000197,0.0005041055948742558,-0.0038758414098650088,2.2909764249092515e-05,-0.008862321032168536,0.0008961865624693237
0.195,0.00019461810799879057,-0.7850008800000059,4.155269651582533e-06,-2.3558882399999934,0.00012578443599856843,1.5709371100000018,0.78600056,0.04,0.0399999985,-9.8185094000002,0.0005122083501110527,-0.004013526739863256,2.383535949908073e-05,-0.008905795868442963,0.0009274751749689253
0.1975,0.00019583587399877504,-0.784994940000006,2.561846576602821e-06,-2.3558947199999936,0.00012722585799855007,1.5709353550000018,0.7860006799999999,0.04,0.03999999925,-9.818307200000202,0.0005203111053478494,-0.0041512120698615025,2.4760954749068945e-05,-0.008949270704717389,0.000958763787468527
0.2,0.00019705363999875954,-0.784989000000006,9.684235016231083e-07,-2.3559011999999933,0.00012866727999853172,1.5709336000000018,0.7860007999999999,0.04,0.04,-9.818105000000205,0.0005284138605846463,-0.004288897399859749,2.568654999905716e-05,-0.008992745540991815,0.0009900523999681287
0.2025,0.00019856656699843964,-0.7849838550000053,-1.0130859479563473e-06,-2.355907649999993,0.00013046031249815072,1.5709313950000023,0.7860010849999998,0.04,0.03999999925,-9.817964900000144,0.0005420413944961702,-0.004455088639828597,2.626383489940461e-05,-0.009027085360104157,0.0010261719949627478
0.20500000000000002,0.00020007949399842036,-0.7849787100000054,-2.994595397931118e-06,-2.3559140999999935,0.00013225334499812792,1.5709291900000022,0.7860013699999998,0.04,0.0399999985,-9.817824800000146,0.0005556689284133216,-0.004621279879826481,2.684111979939726e-05,-0.009061425179207196,0.0010622915899622877
0.20750000000000002,0.0002015924209984011,-0.7849735650000055,-4.97610484790589e-06,-2.3559205499999933,0.0001340463774981051,1.5709269850000023,0.7860016549999997,0.04,0.03999999775,-9.817684700000148,0.0005692964623304731,-0.004787471119824365,2.741840469938991e-05,-0.009095764998310232,0.0010984111849618278
0.21,0.00020310534799838182,-0.7849684200000056,-6.95761429788064e-06,-2.355926999999993,0.00013583940999808224,1.5709247800000024,0.7860019399999998,0.04,0.039999997,-9.817544600000149,0.0005829239962476245,-0.004953662359822247,2.7995689599382553e-05,-0.00913010481741327,0.0011345307799613675
0.2125,0.00020461827499836257,-0.7849632750000056,-8.939123747855411e-06,-2.355933449999993,0.0001376324424980594,1.5709225750000022,0.7860022249999997,0.04,0.03999999625,-9.817404500000151,0.000596551530164776,-0.005119853599820131,2.8572974499375204e-05,-0.00916444463651631,0.0011706503749609079
0.215,0.0002061312019983433,-0.7849581300000057,-1.0920633197830181e-05,-2.355939899999993,0.00013942547499803658,1.5709203700000023,0.7860025099999998,0.04,0.0399999955,-9.817264400000154,0.0006101790640819275,-0.005286044839818015,2.9150259399367855e-05,-0.009198784455619346,0.0012067699699604478
0.2175,0.00020775549549795395,-0.7849532470000048,-1.3048596822318242e-05,-2.355946319999993,0.00014134975349757757,1.570917990000003,0.7860027949999997,0.03999999975,0.03999999525,-9.817132650000127,0.0006245632277392444,-0.0054461409498361545,2.9527027200026882e-05,-0.00923086381514292,0.0012443546299551191
0.22,0.00020960252199793043,-0.7849488880000048,-1.5469468797287418e-05,-2.355952679999993,0.00014353652399754974,1.570915260000003,0.7860030799999997,0.039999999,0.039999996,-9.81701760000013,0.0006404606508844071,-0.005594046799834272,2.950276080002719e-05,-0.00925842225548512,0.0012848694199546033
0.2225,0.0002114495484979069,-0.7849445290000049,-1.7890340772256597e-05,-2.355959039999993,0.0001457232944975219,1.570912530000003,0.7860033649999997,0.03999999825,0.03999999675,-9.81690255000013,0.0006563580740295696,-0.005741952649832388,2.94784944000275e-05,-0.00928598069582732,0.0013253842099540875
0.225,0.00021329657499788337,-0.7849401700000049,-2.0311212747225773e-05,-2.355965399999993,0.00014791006499749405,1.570909800000003,0.7860036499999997,0.0399999975,0.0399999975,-9.816787500000132,0.0006722554971747322,-0.0058898584998305055,2.945422800002781e-05,-0.00931353913616952,0.0013658989999535717
0.2275,0.00021514360149785987,-0.7849358110000051,-2.273208472219495e-05,-2.3559717599999925,0.00015009683549746622,1.5709070700000032,0.7860039349999998,0.03999999675,0.03999999825,-9.816672450000134,0.0006881529203198948,-0.006037764349828622,2.942996160002812e-05,-0.009341097576511718,0.001406413789953056
0.23,0.00021699062799783634,-0.7849314520000051,-2.515295669716413e-05,-2.3559781199999925,0.00015228360599743837,1.5709043400000031,0.7860042199999997,0.039999996,0.039999999,-9.816557400000136,0.0007040503434650574,-0.006185670199826739,2.9405695200028428e-05,-0.009368656016853917,0.00144692857995254
0.2325,0.00021883765449781282,-0.7849270930000052,-2.7573828672133305e-05,-2.3559844799999925,0.00015447037649741054,1.570901610000003,0.7860045049999997,0.03999999525,0.03999999975,-9.816442350000136,0.0007199477666102199,-0.006333576049824856,2.9381428800028737e-05,-0.009396214457196118,0.0014874433699520243
0.23500000000000001,0.00022093403399730123,-0.7849232360000044,-3.0322817596460415e-05,-2.3559907999999923,0.00015695316299680338,1.570898490000004,0.7860047899999997,0.039999994500000004,0.0399999995,-9.816320300000152,0.0007442918896793583,-0.006473073739835607,2.9526914999720094e-05,-0.009419399965528935,0.0015313834899445284
0.23750000000000002,0.00022315508999721237,-0.7849196300000045,-3.323586499634384e-05,-2.355997099999992,0.00015958395749669812,1.570895175000004,0.7860050749999997,0.039999993750000004,0.03999999875,-9.816194750000157,0.0007728593627330701,-0.006608367349830193,2.9757277499710873e-05,-0.009440399007845369,0.0015770362749427014
0.24,0.00022537614599712347,-0.7849160240000046,-3.614891239622724e-05,-2.356003399999992,0.0001622147519965928,1.5708918600000041,0.7860053599999997,0.039999993000000005,0.039999998,-9.816069200000163,0.0008014268357867816,-0.006743660959824778,2.998763999970165e-05,-0.009461398050161805,0.001622689059940874
0.2425,0.0002275972019970346,-0.7849124180000048,-3.906195979611067e-05,-2.3560096999999915,0.00016484554649648752,1.5708885450000043,0.7860056449999997,0.039999992250000005,0.03999999725,-9.815943650000168,0.0008299943088404935,-0.006878954569819364,3.0218002499692433e-05,-0.009482397092478239,0.0016683418449390472
0.245,0.0002298182579969457,-0.784908812000005,-4.19750071959941e-05,-2.3560159999999915,0.00016747634099638226,1.5708852300000045,0.7860059299999996,0.0399999915,0.0399999965,-9.815818100000172,0.0008585617818942052,-0.00701424817981395,3.0448364999683215e-05,-0.009503396134794673,0.0017139946299372202
0.2475,0.00023203931399685683,-0.7849052060000051,-4.488805459587752e-05,-2.3560222999999914,0.00017010713549627698,1.5708819150000046,0.7860062149999997,0.03999999075,0.03999999575,-9.815692550000177,0.000887129254947917,-0.007149541789808536,3.0678727499673994e-05,-0.009524395177111107,0.0017596474149353934
0.25,0.00023426036999676795,-0.7849016000000052,-4.780110199576096e-05,-2.356028599999991,0.0001727379299961717,1.5708786000000048,0.7860064999999996,0.03999999,0.039999995,-9.815567000000183,0.0009156967280016288,-0.007284835399803122,3.0909089999664776e-05,-0.009545394219427543,0.0018053001999335664
0.2525,0.00023689631699620257,-0.7848987650000041,-5.1260350095016474e-05,-2.3560348849999913,0.00017586137999550024,1.5708747300000054,0.7860067849999997,0.0399999897,0.039999994250000004,-9.815454350000163,0.0009471010474500777,-0.00744862408976404,3.134588159937074e-05,-0.009559367271120075,0.0018559552149270244
0.255,0.00023953226399624092,-0.784895930000004,-5.4719598195066814e-05,-2.3560411699999912,0.0001789848299955457,1.5708708600000054,0.7860070699999997,0.0399999894,0.039999993500000004,-9.815341700000161,0.0009785053669026547,-0.007612412779766423,3.17826731993771e-05,-0.009573340322802383,0.0019066102299277615
0.2575,0.00024216821099627928,-0.784893095000004,-5.817884629511715e-05,-2.3560474549999912,0.00018210827999559116,1.5708669900000054,0.7860073549999996,0.0399999891,0.039999992750000005,-9.815229050000159,0.0010099096863552318,-0.007776201469768807,3.2219464799383455e-05,-0.009587313374484692,0.0019572652449284986
0.26,0.00024480415799631763,-0.784890260000004,-6.16380943951675e-05,-2.3560537399999912,0.00018523172999563661,1.5708631200000054,0.7860076399999997,0.0399999888,0.039999992000000005,-9.815116400000157,0.0010413140058078089,-0.00793999015977119,3.265625639938981e-05,-0.009601286426167,0.002007920259929236
0.2625,0.000247440104996356,-0.784887425000004,-6.509734249521783e-05,-2.3560600249999912,0.00018835517999568206,1.5708592500000054,0.7860079249999996,0.0399999885,0.03999999125,-9.815003750000155,0.0010727183252603857,-0.008103778849773573,3.309304799939617e-05,-0.009615259477849308,0.0020585752749299733
0.265,0.00025007605199639434,-0.7848845900000039,-6.855659059526818e-05,-2.3560663099999912,0.00019147862999572751,1.5708553800000051,0.7860082099999997,0.0399999882,0.0399999905,-9.814891100000155,0.0011041226447129628,-0.008267567539775958,3.3529839599402525e-05,-0.009629232529531616,0.00210923028993071
0.2675,0.0002528641824957867,-0.7848820150000029,-7.221625169446792e-05,-2.356072599999991,0.00019478281099500588,1.5708513000000062,0.7860084949999997,0.039999987800000004,0.0399999899,-9.81477940000015,0.0011386232799295288,-0.00842810774979013,3.404745869907455e-05,-0.009640952385952117,0.002161583944924044
0.27,0.0002559566799957473,-0.7848799600000028,-7.627673879441623e-05,-2.356078899999991,0.00019844845399495922,1.5708468000000062,0.7860087799999996,0.0399999872,0.0399999896,-9.814669600000151,0.0011793165467119207,-0.008582150999788167,3.47267327990659e-05,-0.00964816585182146,0.0022173348799233343
0.2725,0.000259049177495708,-0.7848779050000029,-8.033722589436453e-05,-2.3560851999999914,0.00020211409699491252,1.5708423000000062,0.7860090649999997,0.0399999866,0.0399999893,-9.814559800000152,0.0012200098134943127,-0.008736194249786207,3.5406006899057246e-05,-0.009655379317690803,0.0022730858149226244
0.275,0.0002621416749956686,-0.7848758500000029,-8.439771299431283e-05,-2.3560914999999913,0.00020577973999486585,1.5708378000000063,0.7860093499999996,0.039999986,0.039999989,-9.814450000000154,0.0012607030802767045,-0.008890237499784246,3.60852809990486e-05,-0.009662592783560147,0.0023288367499219144
0.2775,0.0002652341724956292,-0.784873795000003,-8.845820009426113e-05,-2.3560977999999912,0.00020944538299481918,1.5708333000000063,0.7860096349999997,0.0399999854,0.0399999887,-9.814340200000155,0.0013013963470590963,-0.009044280749782283,3.676455509903995e-05,-0.00966980624942949,0.0023845876849212045
0.28,0.00026832666999558987,-0.7848717400000029,-9.251868719420944e-05,-2.356104099999991,0.0002131110259947725,1.5708288000000064,0.7860099199999997,0.039999984800000006,0.0399999884,-9.814230400000156,0.0013420896138414884,-0.009198323999780322,3.7443829199031304e-05,-0.009677019715298833,0.002440338619920495
0.28250000000000003,0.0002714191674955505,-0.784869685000003,-9.657917429415773e-05,-2.356110399999991,0.00021677666899472584,1.5708243000000064,0.7860102049999996,0.039999984200000005,0.0399999881,-9.814120600000157,0.0013827828806238802,-0.009352367249778362,3.812310329902266e-05,-0.009684233181168176,0.002496089554919785
0.28500000000000003,0.000274844226994787,-0.784868120000002,-0.00010107772799315223,-2.356116689999991,0.000220837364993819,1.5708193800000074,0.7860104929999996,0.03999998330000001,0.0399999872,-9.814003200000176,0.0014305319287069194,-0.00950688849977536,3.8986435898613255e-05,-0.009686681535094865,0.0025552903399115637
0.28750000000000003,0.0002784355674947413,-0.784866800000002,-0.00010579531499309217,-2.356122974999991,0.0002250955874937648,1.5708142500000075,0.7860107824999996,0.03999998225,0.039999986,-9.813882000000177,0.0014818088674631916,-0.00966164874977339,3.994179774860109e-05,-0.009686747333034753,0.002616216049910788
0.29,0.0002820269079946955,-0.784865480000002,-0.000110512901993032,-2.3561292599999906,0.0002293538099937105,1.5708091200000076,0.7860110719999996,0.0399999812,0.0399999848,-9.813760800000178,0.0015330858062194625,-0.009816408999771415,4.089715959858891e-05,-0.009686813130974643,0.002677141759910011
0.2925,0.00028561824849464973,-0.784864160000002,-0.00011523048899297193,-2.3561355449999906,0.00023361203249365627,1.5708039900000077,0.7860113614999996,0.03999998015,0.039999983600000004,-9.81363960000018,0.0015843627449757347,-0.009971169249769445,4.185252144857674e-05,-0.009686878928914532,0.002738067469909235
0.295,0.00028920958899460403,-0.784862840000002,-0.00011994807599291187,-2.3561418299999906,0.00023787025499360205,1.5707988600000078,0.7860116509999996,0.0399999791,0.0399999824,-9.813518400000182,0.0016356396837320067,-0.010125929499767474,4.280788329856458e-05,-0.009686944726854422,0.0027989931799084597
0.2975,0.0002928009294945583,-0.784861520000002,-0.00012466566299285182,-2.3561481149999906,0.00024212847749354783,1.5707937300000077,0.7860119404999996,0.03999997805,0.0399999812,-9.813397200000184,0.001686916622488279,-0.010280689749765504,4.376324514855241e-05,-0.00968701052479431,0.002859918889907684
0.3,0.00029639226999451256,-0.784860200000002,-0.00012938324999279174,-2.35615439999999,0.00024638669999349364,1.5707886000000078,0.7860122299999995,0.039999977,0.03999998,-9.813276000000185,0.0017381935612445511,-0.010435449999763534,4.471860699854025e-05,-0.0096870763227342,0.002920844599906908
0.3025,0.00030052518249363246,-0.7848596600000008,-0.00013481448449163217,-2.35616077499999,0.0002512885574924478,1.570782720000009,0.7860125164999996,0.0399999764,0.03999997895,-9.81315915000018,0.0018018126777789227,-0.01058209284977407,4.5946438448108295e-05,-0.00968026518822761,0.0029871352098978666
0.305,0.0003046580949935798,-0.7848591200000008,-0.000140245718991563,-2.35616714999999,0.00025619041499238534,1.570776840000009,0.7860128029999995,0.039999975800000004,0.0399999779,-9.813042300000182,0.0018654317943321526,-0.010728735699772202,4.7174269898092664e-05,-0.009673454053710511,0.003053425819897023
0.3075,0.0003087910074935272,-0.7848585800000009,-0.00014567695349149387,-2.3561735249999898,0.0002610922724923229,1.5707709600000093,0.7860130894999996,0.0399999752,0.03999997685,-9.812925450000183,0.0019290509108853826,-0.010875378549770335,4.840210134807703e-05,-0.009666642919193412,0.003119716429896179
0.31,0.0003129239199934746,-0.7848580400000008,-0.0001511081879914247,-2.35617989999999,0.00026599412999226053,1.5707650800000093,0.7860133759999995,0.0399999746,0.039999975800000004,-9.812808600000185,0.001992670027438613,-0.011022021399768468,4.96299327980614e-05,-0.009659831784676314,0.0031860070398953347
0.3125,0.000317056832493422,-0.7848575000000009,-0.00015653942249135557,-2.35618627499999,0.0002708959874921981,1.5707592000000092,0.7860136624999996,0.039999974,0.03999997475,-9.812691750000186,0.0020562891439918425,-0.011168664249766602,5.0857764248045766e-05,-0.009653020650159216,0.0032522976498944906
0.315,0.00032118974499336934,-0.7848569600000009,-0.0001619706569912864,-2.35619264999999,0.0002757978449921357,1.5707533200000094,0.7860139489999995,0.0399999734,0.039999973700000004,-9.812574900000188,0.0021199082605450727,-0.011315307099764733,5.208559569803013e-05,-0.009646209515642117,0.003318588259893647
0.3175,0.0003255175839923711,-0.7848566874999996,-0.00016765878098997102,-2.3561990449999897,0.00028093130099094977,1.5707471350000108,0.7860143304999991,0.03999997285,0.039999973,-9.812460500000178,0.0021852188975370066,-0.011471143799718265,5.340104599758944e-05,-0.009637130703799086,0.0033865540348846763
0.32,0.00033023527599231105,-0.7848569499999996,-0.00017386068398989206,-2.3562054799999896,0.0002865279539908785,1.570740340000011,0.7860149019999991,0.0399999724,0.039999973,-9.812351000000179,0.002253912575430902,-0.011645368199716047,5.489173399757045e-05,-0.00962351653727127,0.0034578701398837682
0.3225,0.000334952967992251,-0.7848572124999996,-0.0001800625869898131,-2.3562119149999896,0.0002921246069908072,1.570733545000011,0.7860154734999991,0.039999971950000004,0.039999973,-9.81224150000018,0.0023226062533247974,-0.011819592599713828,5.6382421997551476e-05,-0.009609902370743452,0.00352918624488286
0.325,0.0003396706599921909,-0.7848574749999996,-0.00018626448998973415,-2.3562183499999896,0.000297721259990736,1.5707267500000113,0.786016044999999,0.0399999715,0.039999973,-9.812132000000181,0.002391299931218693,-0.01199381699971161,5.78731099975325e-05,-0.009596288204215635,0.003600502349881952
0.3275,0.00034438835199213086,-0.7848577374999995,-0.00019246639298965516,-2.356224784999989,0.00030331791299066473,1.5707199550000113,0.786016616499999,0.039999971050000006,0.039999973,-9.812022500000182,0.0024599936091125882,-0.012168041399709392,5.936379799751352e-05,-0.00958267403768782,0.003671818454881044
0.33,0.0003491060439920708,-0.7848579999999996,-0.0001986682959895762,-2.356231219999989,0.0003089145659905935,1.5707131600000113,0.786017187999999,0.039999970600000004,0.039999973,-9.811913000000184,0.0025286872870064836,-0.012342265799707174,6.085448599749454e-05,-0.009569059871160003,0.003743134559880136
0.3325,0.00035382373599201073,-0.7848582624999996,-0.00020487019898949725,-2.356237654999989,0.00031451121899052223,1.5707063650000115,0.786017759499999,0.03999997015,0.039999973,-9.811803500000185,0.002597380964900379,-0.012516490199704956,6.234517399747555e-05,-0.009555445704632185,0.003814450664879228
0.335,0.00035896019499087893,-0.7848590289999983,-0.00021162415998800542,-2.3562441399999887,0.0003206057509891767,1.570699030000013,0.7860183319999989,0.039999969600000004,0.039999972300000006,-9.811695900000181,0.0026767228728577625,-0.012682088599724814,6.318707799911702e-05,-0.009537723846767283,0.0038894847698688045
0.3375,0.00036430603749081086,-0.7848600474999983,-0.0002186541499879159,-2.3562506499999887,0.000326949222489096,1.570691425000013,0.7860189049999989,0.039999969,0.03999997125,-9.811589250000184,0.0027613888958875643,-0.01284337399972276,6.370458999911042e-05,-0.009517948143218144,0.003966377874867826
0.34,0.0003696518799907428,-0.7848610659999983,-0.00022568413998782637,-2.3562571599999886,0.00033329269398901524,1.5706838200000133,0.7860194779999989,0.0399999684,0.0399999702,-9.811482600000184,0.0028460549189173664,-0.013004659399720706,6.422210199910385e-05,-0.009498172439669005,0.004043270979866846
0.3425,0.0003749977224906747,-0.7848620844999982,-0.00023271412998773688,-2.3562636699999886,0.00033963616548893444,1.5706762150000133,0.7860200509999989,0.0399999678,0.03999996915,-9.811375950000187,0.0029307209419471686,-0.013165944799718653,6.473961399909726e-05,-0.009478396736119868,0.004120164084865868
0.34500000000000003,0.00038034356499060665,-0.7848631029999982,-0.00023974411998764738,-2.3562701799999886,0.0003459796369888537,1.5706686100000133,0.786020623999999,0.0399999672,0.0399999681,-9.811269300000188,0.003015386964976971,-0.0133272301997166,6.525712599909067e-05,-0.00945862103257073,0.004197057189864889
0.34750000000000003,0.0003856894074905386,-0.7848641214999982,-0.00024677410998755786,-2.3562766899999885,0.0003523231084887729,1.5706610050000136,0.786021196999999,0.0399999666,0.03999996705,-9.81116265000019,0.0031000529880067726,-0.013488515599714547,6.577463799908408e-05,-0.00943884532902159,0.00427395029486391
0.35000000000000003,0.0003910352499904705,-0.7848651399999982,-0.00025380409998746834,-2.3562831999999885,0.00035866657998869216,1.5706534000000136,0.786021769999999,0.039999966,0.039999966,-9.81105600000019,0.003184719011036575,-0.013649800999712493,6.629214999907748e-05,-0.009419069625472452,0.004350843399862931
0.3525,0.00039705281948919634,-0.7848669489999968,-0.00026171978898578853,-2.3562901749999874,0.0003658085824871776,1.5706448050000155,0.786022344499999,0.0399999651,0.0399999651,-9.810937650000213,0.0032814085248983934,-0.013821296149692106,6.714458499846958e-05,-0.009392265696126598,0.004432945989852597
0.355,0.0004030703889891197,-0.7848687579999967,-0.00026963547798568776,-2.356297149999987,0.0003729505849870867,1.5706362100000155,0.7860229189999989,0.0399999642,0.0399999642,-9.810819300000214,0.0033780980387816475,-0.013992791299689923,6.799701999845873e-05,-0.009365461766768213,0.004515048579851552
0.3575,0.0004090879584890431,-0.7848705669999967,-0.000277551166985587,-2.3563041249999874,0.00038009258748699574,1.5706276150000156,0.7860234934999989,0.039999963300000003,0.039999963300000003,-9.810700950000216,0.0034747875526649013,-0.01416428644968774,6.884945499844789e-05,-0.009338657837409831,0.004597151169850507
0.36,0.0004151055279889665,-0.7848723759999967,-0.0002854668559854862,-2.3563110999999872,0.0003872345899869048,1.5706190200000159,0.7860240679999989,0.0399999624,0.0399999624,-9.810582600000217,0.003571477066548155,-0.014335781599685555,6.970188999843702e-05,-0.009311853908051447,0.004679253759849461
0.3625,0.0004211230974888899,-0.7848741849999967,-0.0002933825449853854,-2.356318074999987,0.00039437659248681384,1.570610425000016,0.7860246424999989,0.0399999615,0.0399999615,-9.81046425000022,0.003668166580431409,-0.014507276749683372,7.055432499842618e-05,-0.009285049978693062,0.0047613563498484154
0.365,0.0004271406669888133,-0.7848759939999966,-0.0003012982339852846,-2.356325049999987,0.00040151859498672294,1.570601830000016,0.7860252169999989,0.0399999606,0.0399999606,-9.81034590000022,0.003764856094314663,-0.014678771899681189,7.140675999841532e-05,-0.009258246049334678,0.00484345893984737
0.3675,0.00043339669448739767,-0.7848780749999952,-0.00030952839598341803,-2.356332199999986,0.00040894413848503985,1.5705929000000178,0.786025789999999,0.039999959700000004,0.039999959700000004,-9.810247450000109,0.0038675475164963247,-0.014845594749705242,7.236823349779218e-05,-0.009229925787134954,0.004927344614836312
0.37,0.00044012963798731195,-0.7848806999999951,-0.00031838750398330523,-2.3563396999999857,0.0004169367639849381,1.570583300000018,0.7860263599999989,0.0399999588,0.0399999588,-9.81018880000011,0.00398224275537568,-0.015003072999703238,7.354778399777717e-05,-0.009198572859227063,0.005014796459835199
0.3725,0.00044686258148722623,-0.784883324999995,-0.0003272466119831924,-2.356347199999986,0.0004249293894848363,1.5705737000000182,0.7860269299999989,0.0399999579,0.0399999579,-9.810130150000111,0.004096937994255034,-0.015160551249701231,7.472733449776215e-05,-0.009167219931319172,0.005102248304834086
0.375,0.0004535955249871405,-0.784885949999995,-0.0003361057199830797,-2.3563546999999856,0.00043292201498473456,1.5705641000000183,0.7860274999999989,0.039999957,0.039999957,-9.810071500000111,0.00421163323313439,-0.015318029499699227,7.590688499774714e-05,-0.009135867003411282,0.005189700149832973
0.3775,0.0004603284684870548,-0.784888574999995,-0.00034496482798296687,-2.3563621999999858,0.0004409146404846328,1.5705545000000185,0.7860280699999989,0.0399999561,0.0399999561,-9.810012850000112,0.004326328472013744,-0.015475507749697222,7.708643549773211e-05,-0.009104514075503391,0.005277151994831859
0.38,0.00046706141198696907,-0.7848911999999949,-0.00035382393598285407,-2.3563696999999855,0.0004489072659845311,1.5705449000000187,0.7860286399999988,0.0399999552,0.0399999552,-9.809954200000114,0.004441023710893098,-0.015632985999695218,7.826598599771709e-05,-0.0090731611475955,0.005364603839830746
0.3825,0.00047379435548688335,-0.7848938249999948,-0.0003626830439827413,-2.3563771999999856,0.0004568998914844293,1.5705353000000188,0.7860292099999989,0.0399999543,0.0399999543,-9.809895550000114,0.004555718949772454,-0.01579046424969321,7.944553649770208e-05,-0.00904180821968761,0.005452055684829632
0.385,0.00048103331798530927,-0.7848970199999932,-0.00037220955798066544,-2.3563847799999853,0.00046549418498255786,1.570524990000021,0.7860299099999984,0.0399999533,0.0399999536,-9.809836700000115,0.004675554763285658,-0.015975308299610715,8.083893339705808e-05,-0.009007365349750737,0.00554298846981828
0.3875,0.0004885252899852139,-0.7849004999999931,-0.0003820697749805399,-2.356392399999985,0.00047438931248244457,1.570514325000021,0.7860306749999985,0.03999995225,0.039999953,-9.809777750000116,0.00479796086413837,-0.01617383524960819,8.233925349703896e-05,-0.0089713775087858,0.005635661724817101
0.39,0.0004960172619851185,-0.7849039799999931,-0.0003919299919804144,-2.356400019999985,0.00048328443998233133,1.5705036600000213,0.7860314399999985,0.0399999512,0.0399999524,-9.809718800000116,0.004920366964991081,-0.01637236219960566,8.383957359701987e-05,-0.008935389667820865,0.005728334979815921
0.3925,0.0005035092339850231,-0.784907459999993,-0.0004017902089802888,-2.356407639999985,0.000492179567482218,1.5704929950000215,0.7860322049999985,0.039999950150000005,0.0399999518,-9.809659850000118,0.005042773065843793,-0.016570889149603134,8.533989369700077e-05,-0.008899401826855927,0.0058210082348147405
0.395,0.0005110012059849278,-0.784910939999993,-0.00041165042598016326,-2.356415259999985,0.0005010746949821048,1.5704823300000215,0.7860329699999984,0.0399999491,0.0399999512,-9.809600900000119,0.0051651791666965045,-0.016769416099600604,8.684021379698167e-05,-0.008863413985890991,0.005913681489813561
0.3975,0.0005184931779848324,-0.7849144199999929,-0.00042151064298003775,-2.3564228799999847,0.0005099698224819916,1.5704716650000217,0.7860337349999984,0.039999948050000005,0.0399999506,-9.809541950000119,0.0052875852675492154,-0.016967943049598075,8.834053389696255e-05,-0.008827426144926053,0.00600635474481238
0.4,0.000525985149984737,-0.7849178999999928,-0.0004313708599799122,-2.3564304999999846,0.0005188649499818783,1.5704610000000219,0.7860344999999984,0.039999947,0.03999995,-9.809483000000121,0.005409991368401926,-0.01716646999959555,8.984085399694345e-05,-0.008791438303961117,0.006099027999811201
0.4025,0.0005342796099829964,-0.7849222199999911,-0.00044228980097761627,-2.356438764999983,0.0005287146549798081,1.5704492250000242,0.7860353624999982,0.039999945950000004,0.03999994895,-9.809361650000248,0.005552451521797418,-0.017355364399612768,9.083521629796156e-05,-0.008748512761755327,0.006197170809798808
0.405,0.0005425740699828909,-0.7849265399999911,-0.00045320874197747726,-2.356447029999983,0.0005385643599796827,1.5704374500000244,0.7860362249999981,0.0399999449,0.039999947900000006,-9.809240300000251,0.005694911675233764,-0.017544258799610364,9.182957859794891e-05,-0.008705587219535404,0.006295313619797559
0.40750000000000003,0.0005508685299827852,-0.784930859999991,-0.00046412768297733826,-2.356455294999983,0.0005484140649795573,1.5704256750000245,0.7860370874999982,0.039999943850000004,0.03999994685,-9.809118950000252,0.00583737182867011,-0.017733153199607957,9.282394089793624e-05,-0.00866266167731548,0.006393456429796309
0.41000000000000003,0.0005591629899826796,-0.784935179999991,-0.00047504662397719925,-2.356463559999983,0.0005582637699794319,1.5704139000000246,0.7860379499999982,0.0399999428,0.039999945800000006,-9.808997600000254,0.005979831982106457,-0.017922047599605553,9.381830319792358e-05,-0.008619736135095557,0.0064915992397950595
0.41250000000000003,0.000567457449982574,-0.7849394999999909,-0.0004859655649770602,-2.3564718249999825,0.0005681134749793065,1.5704021250000249,0.7860388124999982,0.039999941750000004,0.03999994475,-9.808876250000255,0.006122292135542802,-0.01811094199960315,9.481266549791093e-05,-0.008576810592875633,0.00658974204979381
0.41500000000000004,0.0005757519099824684,-0.7849438199999909,-0.0004968845059769212,-2.3564800899999825,0.0005779631799791811,1.570390350000025,0.7860396749999982,0.0399999407,0.039999943700000005,-9.808754900000256,0.006264752288979149,-0.01829983639960074,9.580702779789826e-05,-0.008533885050655709,0.00668788485979256
0.4175,0.0005843283574805638,-0.784948424999989,-0.0005081754949744085,-2.3564885099999815,0.0005881483024769158,1.5703781750000276,0.7860405359999981,0.03999994,0.039999943,-9.80865690000011,0.006412676954304123,-0.018491360699581558,9.677976769802352e-05,-0.008489529136668686,0.006787802629779985
0.42,0.0005934687799804473,-0.7849535999999889,-0.0005202105799742553,-2.3564972399999813,0.0005990042599767776,1.5703652000000277,0.7860413939999982,0.03999994,0.039999943,-9.80860560000011,0.00657153064351073,-0.018688144799579053,9.770926279801169e-05,-0.008442312479120143,0.0068912703197786685
0.4225,0.0006026092024803309,-0.7849587749999889,-0.000532245664974102,-2.356505969999981,0.0006098602174766394,1.570352225000028,0.7860422519999981,0.03999994,0.039999943,-9.808554300000111,0.006730384332717337,-0.018884928899576547,9.863875789799985e-05,-0.008395095821571599,0.006994738009777351
0.425,0.0006117496249802146,-0.7849639499999889,-0.0005442807499739488,-2.356514699999981,0.0006207161749765012,1.570339250000028,0.7860431099999982,0.03999994,0.039999943,-9.808503000000112,0.006889238021923945,-0.019081712999574042,9.956825299798802e-05,-0.008347879164023055,0.007098205699776034
0.4275,0.0006208900474800982,-0.7849691249999887,-0.0005563158349737956,-2.356523429999981,0.0006315721324763629,1.5703262750000282,0.7860439679999981,0.03999994,0.039999943,-9.808451700000111,0.007048091711130552,-0.019278497099571537,0.00010049774809797618,-0.008300662506474512,0.007201673389774716
0.43,0.0006300304699799819,-0.7849742999999887,-0.0005683509199736423,-2.356532159999981,0.0006424280899762247,1.5703133000000284,0.7860448259999981,0.03999994,0.039999943,-9.808400400000112,0.0072069454003371594,-0.019475281199569032,0.00010142724319796435,-0.008253445848925968,0.007305141079773399
0.4325,0.0006391708924798655,-0.7849794749999887,-0.0005803860049734891,-2.3565408899999807,0.0006532840474760865,1.5703003250000285,0.7860456839999981,0.03999994,0.039999943,-9.808349100000113,0.0073657990895437675,-0.019672065299566523,0.00010235673829795251,-0.008206229191377423,0.007408608769772082
0.435,0.0006489040499777792,-0.7849852399999866,-0.0005932032439707366,-2.35654984999998,0.0006648450569736053,1.5702865400000314,0.786046552999998,0.03999994069999999,0.0399999437,-9.808283500000162,0.007539692660391723,-0.019864262199579263,0.000103541602997092,-0.008155467547592641,0.0075156065997590326
0.4375,0.0006589335749776515,-0.7849912999999865,-0.0006064115599705685,-2.3565589249999794,0.0006767585924734535,1.5702723500000315,0.786047427499998,0.03999994175,0.03999994475,-9.808210750000162,0.007721106172135038,-0.020054165499576847,0.0001048541524970753,-0.008102933410672135,0.007624369499757648
0.44,0.0006689630999775239,-0.7849973599999864,-0.0006196198759704002,-2.3565679999999793,0.0006886721279733019,1.5702581600000318,0.786048301999998,0.039999942799999993,0.0399999458,-9.808138000000163,0.007902519683878353,-0.020244068799574428,0.00010616670199705859,-0.008050399273751629,0.007733132399756263
0.4425,0.0006789926249773962,-0.7850034199999864,-0.000632828191970232,-2.3565770749999793,0.0007005856634731502,1.570243970000032,0.786049176499998,0.03999994385,0.039999946849999996,-9.808065250000164,0.008083933195621668,-0.02043397209957201,0.00010747925149704187,-0.007997865136831123,0.007841895299754879
0.445,0.0006890221499772685,-0.7850094799999863,-0.0006460365079700639,-2.356586149999979,0.0007124991989729985,1.5702297800000322,0.786050050999998,0.0399999449,0.0399999479,-9.807992500000166,0.008265346707364984,-0.020623875399569593,0.00010879180099702516,-0.007945330999910617,0.007950658199753494
0.4475,0.0006990516749771408,-0.7850155399999862,-0.0006592448239698958,-2.356595224999979,0.0007244127344728468,1.5702155900000323,0.786050925499998,0.03999994595,0.039999948949999996,-9.807919750000167,0.008446760219108299,-0.020813778699567173,0.00011010435049700845,-0.00789279686299011,0.008059421099752108
0.45,0.0007090811999770131,-0.7850215999999861,-0.0006724531399697276,-2.356604299999979,0.0007363262699726952,1.5702014000000324,0.786051799999998,0.039999947,0.03999995,-9.807847000000168,0.008628173730851615,-0.021003681999564757,0.00011141689999699173,-0.007840262726069604,0.008168183999750724
0.4525,0.0007200427649747374,-0.785028559999984,-0.0006868914139667247,-2.356614169999977,0.0007493485094699883,1.5701858600000358,0.7860529459999973,0.03999994745,0.0399999506,-9.807754900000212,0.008819314930147436,-0.02123671014946295,0.00011306303149620624,-0.007782216649636217,0.008282213549737202
0.455,0.0007310043299745978,-0.7850355199999839,-0.0007013296879665409,-2.356624039999977,0.0007623707489698224,1.570170320000036,0.7860540919999973,0.0399999479,0.039999951199999995,-9.807662800000214,0.009010456129465553,-0.021469738299459983,0.00011470916299618528,-0.007724170573190196,0.00839624309973575
0.4575,0.0007419658949744583,-0.7850424799999838,-0.0007157679619663571,-2.356633909999977,0.0007753929884696567,1.5701547800000362,0.7860552379999973,0.03999994835,0.039999951799999996,-9.807570700000214,0.00920159732878367,-0.02170276644945702,0.00011635529449616432,-0.007666124496744175,0.008510272649734299
0.46,0.0007529274599743187,-0.7850494399999837,-0.0007302062359661733,-2.356643779999977,0.0007884152279694908,1.5701392400000365,0.7860563839999973,0.0399999488,0.0399999524,-9.807478600000216,0.009392738528101786,-0.02193579459945405,0.00011800142599614336,-0.007608078420298154,0.008624302199732847
0.4625,0.0007638890249741792,-0.7850563999999836,-0.0007446445099659895,-2.3566536499999766,0.0008014374674693251,1.5701237000000368,0.7860575299999973,0.03999994925,0.039999953,-9.807386500000217,0.009583879727419902,-0.022168822749451082,0.00011964755749612242,-0.0075500323438521325,0.008738331749731395
0.465,0.0007748505899740396,-0.7850633599999836,-0.0007590827839658056,-2.3566635199999766,0.0008144597069691592,1.5701081600000368,0.7860586759999973,0.039999949699999995,0.0399999536,-9.807294400000218,0.009775020926738019,-0.022401850899448118,0.00012129368899610146,-0.007491986267406112,0.008852361299729944
0.4675,0.0007861369999714711,-0.7850706349999811,-0.0007739498149624161,-2.3566735449999756,0.0008278684329661037,1.5700921550000406,0.7860598214999973,0.039999950199999995,0.03999995419999999,-9.807218700000103,0.009973711380223975,-0.022632299849461524,0.0001226501894981423,-0.00743265973884502,0.008968133599714958
0.47000000000000003,0.0007980730999709935,-0.7850785399999808,-0.0007896743599617868,-2.356683879999975,0.0008420501319655362,1.5700752200000412,0.7860609659999973,0.039999950799999996,0.039999954799999994,-9.807175800000104,0.0101875003422071,-0.02285759039945251,0.0001234274279981112,-0.007370772306026396,0.009087391399710185
0.47250000000000003,0.0008100091999705157,-0.7850864449999805,-0.0008053989049611576,-2.356694214999975,0.0008562318309649688,1.570058285000042,0.7860621104999972,0.0399999514,0.039999955399999995,-9.807132900000106,0.010401289304190224,-0.023082880949443493,0.00012420466649808008,-0.007308884873207773,0.009206649199705413
0.47500000000000003,0.0008219452999700381,-0.7850943499999802,-0.0008211234499605284,-2.356704549999974,0.0008704135299644013,1.5700413500000425,0.7860632549999972,0.039999952,0.039999955999999996,-9.807090000000107,0.010615078266173349,-0.02330817149943448,0.000124981904998049,-0.0072469974403891494,0.00932590699970064
0.47750000000000004,0.0008338813999695605,-0.7851022549999799,-0.0008368479949598991,-2.356714884999974,0.0008845952289638337,1.570024415000043,0.7860643994999971,0.0399999526,0.0399999566,-9.807047100000108,0.010828867228156474,-0.023533462049425462,0.00012575914349801788,-0.0071851100075705256,0.009445164799695868
0.48,0.0008458174999690825,-0.7851101599999796,-0.0008525725399592695,-2.3567252199999733,0.0008987769279632659,1.5700074800000439,0.7860655439999971,0.039999953199999994,0.0399999572,-9.80700420000011,0.011042656190139595,-0.02375875259941644,0.00012653638199798677,-0.007123222574751904,0.009564422599691093
0.4825,0.0008577535999686049,-0.7851180649999792,-0.0008682970849586402,-2.356735554999973,0.0009129586269626984,1.5699905450000444,0.786066688499997,0.039999953799999995,0.0399999578,-9.806961300000111,0.01125644515212272,-0.023984043149407427,0.00012731362049795566,-0.00706133514193328,0.00968368039968632
0.485,0.0008703674899658837,-0.7851266029999767,-0.0008849163299550482,-2.356746369999971,0.0009279468039594606,1.5699726600000483,0.7860678629999969,0.039999954399999996,0.0399999582,-9.806894300000208,0.011488305590412303,-0.024201587199437213,0.00012838363299679613,-0.006995875574825458,0.009806392999672238
0.4875,0.0008833202749660722,-0.7851354574999768,-0.0009019829249552966,-2.356757424999971,0.0009433382199596845,1.569954300000048,0.7860690524999968,0.039999955,0.0399999585,-9.806815250000206,0.01172920176696261,-0.02441525799944032,0.0001296000324968138,-0.00692862994055179,0.009930832999674049
0.49,0.0008962730599662606,-0.7851443119999769,-0.000919049519955545,-2.356768479999971,0.0009587296359599085,1.5699359400000477,0.7860702419999969,0.0399999556,0.0399999588,-9.806736200000206,0.011970097943512914,-0.02462892879944343,0.00013081643199683153,-0.006861384306278121,0.01005527299967586
0.4925,0.0009092258449664492,-0.785153166499977,-0.0009361161149557933,-2.3567795349999714,0.0009741210519601325,1.5699175800000476,0.7860714314999969,0.0399999562,0.0399999591,-9.806657150000204,0.012210994120063219,-0.02484259959944654,0.00013203283149684924,-0.006794138672004452,0.01017971299967767
0.495,0.0009221786299666377,-0.7851620209999771,-0.0009531827099560417,-2.3567905899999713,0.0009895124679603563,1.5698992200000472,0.7860726209999969,0.0399999568,0.0399999594,-9.806578100000204,0.012451890296613526,-0.02505627039944965,0.00013324923099686692,-0.006726893037730784,0.01030415299967948
0.4975,0.0009351314149668262,-0.7851708754999773,-0.0009702493049562901,-2.3568016449999716,0.0010049038839605804,1.569880860000047,0.7860738104999969,0.0399999574,0.0399999597,-9.806499050000202,0.012692786473163832,-0.02526994119945276,0.00013446563049688464,-0.006659647403457115,0.010428592999681291
0.5,0.0009480841999670147,-0.7851797299999774,-0.0009873158999565384,-2.356812699999972,0.0010202952999608043,1.5698625000000468,0.786074999999997,0.039999958,0.03999996,-9.8064200000002,0.012933682649714137,-0.02548361199945587,0.00013568202999690232,-0.0065924017691834464,0.010553032999683102
0.5025000000000001,0.0009620954149641412,-0.7851895564999748,-0.0010057798049527453,-2.356824744999969,0.0010369461549573854,1.5698426250000508,0.7860764294999963,0.039999958,0.03999996,-9.80635700000016,0.013185732764478094,-0.025752820899311014,0.0001370810079964196,-0.006520967907455085,0.010682605249668386
0.505,0.0009761066299639625,-0.7851993829999747,-0.00102424370995251,-2.356836789999969,0.0010535970099571732,1.569822750000051,0.7860778589999963,0.039999958,0.03999996,-9.806294000000161,0.013437782879270443,-0.02602202979930758,0.00013847998599640174,-0.006449534045716061,0.010812177499666734
0.5075000000000001,0.0009901178449637845,-0.7852092094999745,-0.0010427076149522752,-2.3568488349999686,0.0010702478649569614,1.5698028750000514,0.7860792884999963,0.039999958,0.03999996,-9.806231000000162,0.013689832994062805,-0.026291238699304158,0.00013987896399638398,-0.006378100183977034,0.010941749749665088
0.51,0.0010041290599636058,-0.7852190359999744,-0.0010611715199520398,-2.3568608799999686,0.0010868987199567492,1.5697830000000517,0.7860807179999962,0.039999958,0.03999996,-9.806168000000163,0.013941883108855156,-0.026560447599300725,0.00014127794199636612,-0.00630666632223801,0.011071321999663434
0.5125,0.001018140274963427,-0.7852288624999743,-0.0010796354249518042,-2.3568729249999683,0.0011035495749565367,1.5697631250000519,0.7860821474999963,0.039999958,0.03999996,-9.806105000000164,0.014193933223647506,-0.02682965649929729,0.00014267691999634828,-0.0062352324604989864,0.011200894249661782
0.515,0.001032151489963249,-0.7852386889999742,-0.0010980993299515695,-2.3568849699999683,0.0011202004299563251,1.569743250000052,0.7860835769999962,0.039999958,0.03999996,-9.806042000000165,0.014445983338439867,-0.02709886539929387,0.0001440758979963305,-0.00616379859875996,0.011330466499660135
0.5175,0.0010465293049601715,-0.7852488459999715,-0.0011170471899475073,-2.3568971299999673,0.0011372875149526635,1.5697228650000565,0.7860850069999963,0.0399999581,0.0399999603,-9.805993700000048,0.014706945185745992,-0.02736535384931195,0.00014525682049803686,-0.006091376929739981,0.011461731849645095
0.52,0.0010616403199599795,-0.7852596639999713,-0.0011369629599472543,-2.356909519999967,0.001155247059952435,1.5697014600000567,0.7860864379999962,0.0399999584,0.039999961199999996,-9.80597480000005,0.014985730498290733,-0.02762640139930863,0.0001460016319980274,-0.006016979646134697,0.011596383399643383
0.5225,0.0010767513349597868,-0.7852704819999712,-0.0011568787299470003,-2.356921909999967,0.0011732066049522062,1.569680055000057,0.7860878689999962,0.0399999587,0.039999962099999994,-9.805955900000049,0.015264515810835462,-0.0278874489493053,0.0001467464434980179,-0.005942582362529416,0.011731034949641665
0.525,0.0010918623499595946,-0.785281299999971,-0.001176794499946747,-2.356934299999967,0.001191166149951978,1.5696586500000573,0.7860892999999962,0.039999959,0.039999963,-9.80593700000005,0.015543301123380204,-0.028148496499301984,0.00014749125499800844,-0.005868185078924132,0.011865686499639955
0.5275,0.001106973364959402,-0.7852921179999709,-0.001196710269946493,-2.3569466899999667,0.0012091256949517488,1.5696372450000575,0.7860907309999962,0.0399999593,0.0399999639,-9.80591810000005,0.015822086435924934,-0.028409544049298654,0.00014823606649799894,-0.005793787795318851,0.012000338049638237
0.53,0.00112208437995921,-0.7853029359999708,-0.0012166260399462398,-2.3569590799999665,0.0012270852399515206,1.5696158400000577,0.7860921619999961,0.0399999596,0.039999964799999996,-9.80589920000005,0.016100871748469674,-0.028670591599295338,0.00014898087799798947,-0.005719390511713566,0.012134989599636525
0.5325,0.0011371953949590172,-0.7853137539999706,-0.001236541809945986,-2.3569714699999667,0.0012450447849512915,1.5695944350000581,0.7860935929999961,0.0399999599,0.039999965699999994,-9.80588030000005,0.016379657061014404,-0.028931639149292008,0.00014972568949798,-0.005644993228108285,0.012269641149634808
0.535,0.0011530667199557176,-0.7853252579999677,-0.0012574614699416295,-2.356984489999964,0.0012639090899473652,1.5695719600000626,0.7860951129999957,0.03999996,0.039999966,-9.805796300000317,0.016674211061666794,-0.029201973199250733,0.000150746848996841,-0.00556632666870615,0.012407638299619422
0.5375,0.0011693181999555102,-0.7853371049999676,-0.0012788830749413565,-2.3569978249999637,0.0012832257749471189,1.569548950000063,0.7860966774999957,0.03999996,0.039999966,-9.80567975000032,0.016976649406469372,-0.029476950499247225,0.00015190618249682624,-0.0054855254713795,0.01254730824961764
0.54,0.0011855696799553037,-0.7853489519999675,-0.001300304679941084,-2.3570111599999635,0.0013025424599468734,1.5695259400000632,0.7860982419999957,0.03999996,0.039999966,-9.80556320000032,0.017279087751271963,-0.02975192779924373,0.0001530655159968115,-0.005404724274052848,0.012686978199615865
0.5425,0.0012018211599550963,-0.7853607989999672,-0.001321726284940811,-2.3570244949999632,0.0013218591449466268,1.5695029300000636,0.7860998064999957,0.03999996,0.039999966,-9.805446650000322,0.01758152609607454,-0.030026905099240223,0.0001542248494967967,-0.005323923076726198,0.012826648149614085
0.545,0.0012180726399548898,-0.7853726459999671,-0.0013431478899405388,-2.357037829999963,0.0013411758299463814,1.5694799200000638,0.7861013709999957,0.03999996,0.039999966,-9.805330100000324,0.017883964440877132,-0.03030188239923673,0.00015538418299678198,-0.005243121879399545,0.012966318099612309
0.5475,0.0012343241199546827,-0.7853844929999669,-0.0013645694949402656,-2.357051164999963,0.001360492514946135,1.5694569100000642,0.7861029354999957,0.03999996,0.039999966,-9.805213550000325,0.01818640278567971,-0.03057685969923322,0.00015654351649676719,-0.005162320682072896,0.013105988049610528
0.55,0.001250575599954476,-0.7853963399999668,-0.0013859910999399934,-2.3570644999999626,0.0013798091999458896,1.5694339000000643,0.7861044999999957,0.03999996,0.039999966,-9.805097000000327,0.0184888411304823,-0.030851836999229727,0.00015770284999675244,-0.005081519484746243,0.013245657999608753
0.5525,0.0012680078199509461,-0.7854092339999638,-0.0014089718049353328,-2.3570788699999596,0.0014005310249416891,1.5694091950000695,0.7861062159999952,0.0399999615,0.039999967049999995,-9.805080950000045,0.01882021045219034,-0.03111263494926612,0.0001586414149973589,-0.004997622920436253,0.013390286349593019
0.555,0.0012854400399507245,-0.7854221279999636,-0.0014319525099350408,-2.3570932399999593,0.0014212528499414259,1.5693844900000697,0.7861079319999952,0.039999963,0.0399999681,-9.805064900000046,0.01915157977397944,-0.0313734328992628,0.00015957997999734697,-0.00491372635611759,0.01353491469959118
0.5575,0.0013028722599505022,-0.7854350219999634,-0.0014549332149347476,-2.357107609999959,0.0014419746749411615,1.56935978500007,0.786109647999995,0.0399999645,0.039999969149999995,-9.805048850000045,0.019482949095768524,-0.03163423084925948,0.000160518544997335,-0.00482982979179893,0.013679543049589335
0.56,0.0013203044799502807,-0.7854479159999632,-0.0014779139199344554,-2.3571219799999588,0.001462696499940898,1.5693350800000705,0.786111363999995,0.039999966,0.0399999702,-9.805032800000046,0.019814318417557625,-0.03189502879925617,0.00016145710999732307,-0.004745933227480266,0.013824171399587498
0.5625,0.0013377366999500584,-0.785460809999963,-0.0015008946249341624,-2.357136349999959,0.0014834183249406339,1.5693103750000708,0.786113079999995,0.0399999675,0.039999971249999995,-9.805016750000046,0.020145687739346708,-0.03215582674925284,0.0001623956749973111,-0.004662036663161606,0.013968799749585653
0.5650000000000001,0.0013551689199498367,-0.7854737039999629,-0.0015238753299338702,-2.3571507199999586,0.0015041401499403704,1.569285670000071,0.786114795999995,0.039999968999999996,0.0399999723,-9.805000700000047,0.020477057061135808,-0.032416624699249524,0.00016333423999729917,-0.004578140098842942,0.014113428099583814
0.5675,0.001373007929946087,-0.7854869574999596,-0.0015473932199289192,-2.357165214999957,0.0015253461449359078,1.5692603900000763,0.7861165214999949,0.03999997015,0.0399999732,-9.804975550000126,0.02081315768782743,-0.032698234349065734,0.00016419512799796074,-0.00449319437637001,0.014259686349567837
0.5700000000000001,0.0013916605199458501,-0.7855009299999594,-0.0015719854799286065,-2.357179959999957,0.0015475204799356261,1.5692339600000766,0.7861182659999949,0.039999970600000004,0.0399999738,-9.804932200000126,0.021158720924447042,-0.03302146739906163,0.0001649006619979518,-0.004406150337561276,0.014409204399565936
0.5725,0.0014103131099456121,-0.7855149024999593,-0.001596577739928293,-2.357194704999957,0.0015696948149353433,1.569207530000077,0.7861200104999949,0.03999997105,0.0399999744,-9.804888850000127,0.02150428416106664,-0.033344700449057504,0.00016560619599794278,-0.004319106298752547,0.01455872244956403
0.5750000000000001,0.001428965699945375,-0.785528874999959,-0.0016211699999279805,-2.357209449999957,0.0015918691499350614,1.5691811000000775,0.7861217549999948,0.0399999715,0.039999975,-9.804845500000127,0.02184984739768625,-0.0336679334990534,0.0001663117299979338,-0.004232062259943813,0.014708240499562129
0.5775,0.0014476182899451373,-0.7855428474999588,-0.001645762259927667,-2.3572241949999566,0.0016140434849347786,1.5691546700000778,0.7861234994999948,0.03999997195,0.0399999756,-9.804802150000127,0.02219541063430585,-0.033991166549049275,0.0001670172639979248,-0.004145018221135083,0.014857758549560222
0.58,0.0014662708799448993,-0.7855568199999586,-0.001670354519927353,-2.3572389399999567,0.0016362178199344959,1.5691282400000781,0.7861252439999948,0.0399999724,0.039999976199999995,-9.804758800000128,0.022540973870925445,-0.03431439959904515,0.0001677227979979158,-0.0040579741823263535,0.015007276599558316
0.5825,0.0014849234699446621,-0.7855707924999585,-0.0016949467799270406,-2.3572536849999564,0.001658392154934214,1.5691018100000784,0.7861269884999948,0.03999997285,0.039999976799999996,-9.804715450000128,0.022886537107545058,-0.034637632649041045,0.00016842833199790685,-0.00397093014351762,0.015156794649556415
0.585,0.0015044157399406715,-0.7855854849999551,-0.001720647899921771,-2.357269109999953,0.001681565809929465,1.5690741600000844,0.7861288929999941,0.039999973,0.0399999766,-9.804626200000333,0.023253061434993335,-0.034955157299062435,0.00016935929099689035,-0.003879873268583454,0.01530961249953976
0.5875,0.0015243278499404184,-0.785600537499955,-0.0017469034499214375,-2.357284874999953,0.0017052391249291641,1.5690459000000847,0.7861308774999941,0.039999973,0.039999976,-9.804514000000335,0.02363006630799609,-0.03526982774905844,0.0001704029624968771,-0.003786809975559742,0.015464080249537797
0.59,0.0015442399599401645,-0.7856155899999547,-0.0017731589999211027,-2.357300639999953,0.0017289124399288622,1.569017640000085,0.786132861999994,0.039999973,0.0399999754,-9.804401800000337,0.024007071180998825,-0.035584498199054425,0.00017144663399686378,-0.0036937466825360337,0.015618547999535826
0.5925,0.0015641520699399114,-0.7856306424999546,-0.001799414549920769,-2.3573164049999527,0.0017525857549285614,1.5689893800000854,0.786134846499994,0.039999973,0.039999974800000004,-9.804289600000338,0.02438407605400158,-0.03589916864905043,0.00017249030549685052,-0.0036006833895123216,0.015773015749533863
0.595,0.0015840641799396574,-0.7856456949999544,-0.001825670099920434,-2.3573321699999523,0.0017762590699282594,1.5689611200000857,0.786136830999994,0.039999973,0.0399999742,-9.80417740000034,0.02476108092700432,-0.03621383909904641,0.0001735339769968372,-0.0035076200964886135,0.015927483499531894
0.5975,0.0016039762899394043,-0.7856607474999542,-0.0018519256499201003,-2.357347934999952,0.0017999323849279584,1.568932860000086,0.786138815499994,0.039999973,0.0399999736,-9.804065200000341,0.025138085800007072,-0.03652850954904241,0.00017457764849682395,-0.0034145568034649014,0.01608195124952993
0.6,0.0016238883999391504,-0.7856757999999541,-0.0018781811999197655,-2.357363699999952,0.0018236056999276565,1.5689046000000864,0.7861407999999939,0.039999973,0.039999973,-9.803953000000343,0.02551509067300981,-0.0368431799990384,0.00017562131999681064,-0.0033214935104411932,0.01623641899952796
0.6025,0.0016450983699349145,-0.7856919699999504,-0.0019061508149141719,-2.3573805449999483,0.0018488236399226159,1.5688745400000923,0.7861428024999938,0.0399999736,0.03999997405,-9.803919100000105,0.02591797718654621,-0.037172587498989176,0.000175952417998984,-0.0032253453278138625,0.01639537984951221
0.605,0.001666308339934644,-0.7857081399999503,-0.0019341204299138152,-2.357397389999948,0.0018740415799222941,1.5688444800000927,0.7861448049999938,0.039999974199999996,0.039999975099999995,-9.803885200000105,0.026320863700161685,-0.037501994998984975,0.00017628351599897977,-0.003129197145177109,0.01655434069951018
0.6075,0.0016875183099343744,-0.78572430999995,-0.0019620900449134598,-2.357414234999948,0.0018992595199219735,1.568814420000093,0.7861468074999938,0.0399999748,0.03999997615,-9.803851300000105,0.02672375021377718,-0.03783140249898079,0.00017661461399897556,-0.003033048962540351,0.01671330154950816
0.61,0.001708728279934104,-0.7857404799999498,-0.001990059659913103,-2.3574310799999476,0.001924477459921652,1.5687843600000935,0.7861488099999938,0.0399999754,0.039999977199999995,-9.803817400000105,0.027126636727392656,-0.038160809998976586,0.00017694571199897133,-0.002936900779903597,0.016872262399506132
0.6125,0.0017299382499338344,-0.7857566499999495,-0.0020180292749127473,-2.3574479249999474,0.0019496953999213313,1.5687543000000939,0.7861508124999937,0.039999976,0.03999997825,-9.803783500000106,0.02752952324100815,-0.0384902174989724,0.00017727680999896713,-0.002840752597266839,0.017031223249504113
0.615,0.0017511482199335639,-0.7857728199999494,-0.0020459988899123906,-2.357464769999947,0.0019749133399210098,1.5687242400000942,0.7861528149999937,0.0399999766,0.039999979299999995,-9.803749600000106,0.02793240975462363,-0.0388196249989682,0.00017760790799896292,-0.0027446044146300854,0.017190184099502084
0.6175,0.0017728034299292984,-0.7857893749999457,-0.002074556574906757,-2.357481969999944,0.0020006612949159323,1.5686935500001002,0.7861548824999931,0.03999997715,0.03999998,-9.803720900000057,0.028347017987188878,-0.03914572599899811,0.00017805498499787062,-0.002647400158768898,0.017350788699486048
0.62,0.001795349119929626,-0.7858066999999459,-0.0021042903999071894,-2.3574998799999443,0.002027469279916322,1.5686616000000997,0.7861570799999932,0.0399999776,0.03999998,-9.803702600000058,0.02878506965798495,-0.039465213999002755,0.00017873401999788047,-0.002548083756429005,0.017514680799488428
0.6225,0.0018178948099299547,-0.7858240249999462,-0.0021340242249076225,-2.3575177899999447,0.0020542772649167125,1.5686296500000994,0.7861592774999931,0.039999978049999996,0.03999998,-9.803684300000057,0.029223121328781045,-0.03978470199900741,0.00017941305499789037,-0.0024487673540891076,0.01767857289949082
0.625,0.0018404404999302823,-0.7858413499999464,-0.0021637580499080547,-2.3575356999999446,0.002081085249917102,1.5685977000000988,0.7861614749999932,0.0399999785,0.03999998,-9.803666000000057,0.029661172999577122,-0.04010418999901205,0.00018009208999790024,-0.002349450951749214,0.0178424649994932
0.6275000000000001,0.001862986189930611,-0.7858586749999467,-0.002193491874908488,-2.357553609999945,0.002107893234917493,1.5685657500000982,0.7861636724999932,0.039999978949999994,0.03999998,-9.803647700000056,0.030099224670373216,-0.04042367799901671,0.00018077112499791014,-0.0022501345494093166,0.01800635709949559
0.63,0.0018855318799309386,-0.785875999999947,-0.00222322569990892,-2.3575715199999454,0.0021347012199178826,1.568533800000098,0.7861658699999933,0.039999979399999996,0.03999998,-9.803629400000055,0.03053727634116929,-0.04074316599902136,0.00018145015999792,-0.0021508181470694236,0.01817024919949797
0.6325000000000001,0.0019080775699312673,-0.7858933249999471,-0.0022529595249093535,-2.3575894299999454,0.002161509204918273,1.5685018500000973,0.7861680674999934,0.03999997985,0.03999998,-9.803611100000055,0.030975328011965383,-0.04106265399902601,0.0001821291949979299,-0.002051501744729526,0.01833414129950036
0.635,0.0019315384499265596,-0.7859114299999431,-0.0022839023199031356,-2.3576080899999416,0.0021894065299126702,1.568468610000104,0.7861703299999929,0.0399999793,0.0399999797,-9.803573600000144,0.03142203371833351,-0.04142732549881093,0.00018250820799929686,-0.0019501223930507873,0.01850092709948345
0.6375000000000001,0.001955456924925603,-0.7859299249999424,-0.002315449599901874,-2.357627124999941,0.0022178485249115328,1.5684347250001054,0.7861726249999929,0.03999997825,0.03999997925,-9.803526500000146,0.03187306644254696,-0.04181458874879544,0.0001827372099992877,-0.0018477115666884932,0.01866915974947672
0.64,0.0019793753999246453,-0.7859484199999417,-0.0023469968799006108,-2.35764615999994,0.002246290519910394,1.5684008400001068,0.7861749199999928,0.0399999772,0.0399999788,-9.803479400000148,0.032324099166760385,-0.04220185199877993,0.00018296621199927852,-0.0017453007403262037,0.018837392399469986
0.6425,0.0020032938749236875,-0.785966914999941,-0.002378544159899348,-2.357665194999939,0.0022747325149092552,1.568366955000108,0.7861772149999927,0.039999976150000005,0.03999997835,-9.80343230000015,0.032775131890973815,-0.04258911524876443,0.00018319521399926935,-0.0016428899139639141,0.01900562504946325
0.645,0.002027212349922731,-0.7859854099999403,-0.002410091439898086,-2.3576842299999385,0.0023031745099081177,1.5683330700001095,0.7861795099999926,0.0399999751,0.0399999779,-9.803385200000152,0.03322616461518726,-0.04297637849874894,0.0001834242159992602,-0.00154047908760162,0.019173857699456523
0.6475,0.0020511308249217732,-0.7860039049999396,-0.002441638719896823,-2.3577032649999374,0.002331616504906979,1.568299185000111,0.7861818049999926,0.039999974050000005,0.03999997745,-9.803338100000154,0.03367719733940069,-0.04336364174873343,0.00018365321799925104,-0.0014380682612393305,0.019342090349449784
0.65,0.0020750492999208167,-0.7860223999999388,-0.002473185999895561,-2.3577222999999368,0.0023600584999058415,1.568265300000112,0.7861840999999925,0.03999997300000001,0.039999977,-9.803291000000156,0.03412823006361413,-0.04375090499871794,0.00018388221999924187,-0.0013356574348770364,0.019510322999443056
0.6525,0.002100377114915137,-0.786042079999934,-0.00250659504988806,-2.357742174999933,0.0023901782448990812,1.5682294500001202,0.7861865539999918,0.039999973,0.0399999764,-9.80325815000011,0.034617721474020674,-0.044132164198722554,0.0001841373639991451,-0.0012302152059314089,0.01968333194942032
0.655,0.002125704929914124,-0.7860617599999333,-0.0025400040998867237,-2.3577620499999323,0.0024202979898978764,1.5681936000001215,0.7861890079999917,0.039999973,0.039999975800000004,-9.803225300000111,0.03510721288455455,-0.04451342339870731,0.0001843925079991349,-0.001124772976975741,0.019856340899413398
0.6575,0.0021510327449131097,-0.7860814399999325,-0.002573413149885386,-2.357781924999932,0.0024504177348966707,1.568157750000123,0.7861914619999916,0.039999973,0.0399999752,-9.803192450000113,0.03559670429508842,-0.044894682598692046,0.0001846476519991247,-0.0010193307480200777,0.02002934984940647
0.66,0.0021763605599120967,-0.7861011199999317,-0.00260682219988405,-2.357801799999931,0.002480537479895466,1.5681219000001245,0.7861939159999914,0.039999973,0.0399999746,-9.803159600000114,0.0360861957056223,-0.04527594179867679,0.0001849027959991145,-0.0009138885190644098,0.02020235879939955
0.6625,0.002201688374911083,-0.7861207999999309,-0.002640231249882712,-2.35782167499993,0.00251065722489426,1.568086050000126,0.7861963699999914,0.039999973,0.039999974,-9.803126750000116,0.036575687116156164,-0.04565720099866153,0.00018515793999910427,-0.0008084462901087466,0.020375367749392623
0.665,0.00222701618991007,-0.7861404799999301,-0.002673640299881376,-2.3578415499999297,0.0025407769698930554,1.5680502000001273,0.7861988239999913,0.039999973,0.039999973400000007,-9.803093900000118,0.03706517852669004,-0.04603846019864628,0.00018541308399909408,-0.0007030040611530787,0.020548376699385702
0.6675,0.0022528257599043534,-0.7861605624999254,-0.002707685669873826,-2.3578616799999264,0.0025714700798862523,1.5680136500001356,0.7862013184999908,0.0399999732,0.039999973349999995,-9.803049900000238,0.03756350278670031,-0.04642533064857781,0.00018555056500034955,-0.0005961680697787538,0.02072277909936699
0.67,0.0022795988399047433,-0.7861814499999257,-0.002743003679874341,-2.3578823199999266,0.002603309919886716,1.567975700000135,0.7862038939999908,0.0399999738,0.0399999744,-9.802983600000235,0.03807949274594778,-0.046823423598583616,0.00018545272000034812,-0.00048654455352222686,0.020899968399369574
0.6725,0.0023063719199051323,-0.786202337499926,-0.002778321689874854,-2.357902959999927,0.002635149759887179,1.5679377500001346,0.7862064694999908,0.0399999744,0.039999975449999996,-9.802917300000235,0.038595482705195236,-0.0472215165485894,0.0001853548750003467,-0.0003769210372657047,0.021077157699372146
0.675,0.0023331449999055226,-0.7862232249999264,-0.002813639699875369,-2.357923599999927,0.002666989599887643,1.567899800000134,0.7862090449999909,0.039999975,0.03999997649999999,-9.802851000000235,0.03911147266444271,-0.0476196094985952,0.00018525703000034526,-0.0002672975210091777,0.02125434699937473
0.6775,0.0023599180799059117,-0.7862441124999267,-0.002848957709875882,-2.3579442399999277,0.0026988294398881054,1.5678618500001333,0.7862116204999909,0.039999975599999994,0.039999977549999996,-9.802784700000233,0.039627462623690164,-0.048017702448600985,0.00018515918500034385,-0.00015767400475265558,0.021431536299377305
0.68,0.002386691159906302,-0.7862649999999269,-0.002884275719876397,-2.357964879999928,0.0027306692798885696,1.5678239000001328,0.786214195999991,0.039999976199999995,0.03999997859999999,-9.802718400000233,0.04014345258293764,-0.04841579539860679,0.00018506134000034242,-4.805048849612853e-05,0.021608725599379888
0.6825,0.0024134642399066906,-0.7862858874999272,-0.00291959372987691,-2.3579855199999282,0.002762509119889032,1.5677859500001323,0.786216771499991,0.039999976799999996,0.039999979649999996,-9.802652100000232,0.04065944254218509,-0.04881388834861257,0.000184963495000341,6.157302776039358e-05,0.021785914899382464
0.685,0.0024412240199014304,-0.7863075949999229,-0.0029562153198699607,-2.3580068999999244,0.0027955236898827697,1.5677466000001397,0.7862194539999905,0.039999977,0.03999998,-9.802583700000243,0.041201782597153395,-0.0492044009986508,0.0001847867210007544,0.0001742882599152713,0.02196609159936619
0.6875,0.00246947714990107,-0.7863297124999226,-0.002993488699869485,-2.358028649999924,0.002829125624882341,1.5677065500001404,0.7862221899999904,0.039999977,0.03999998,-9.802514250000243,0.041757297700188434,-0.04959112349864587,0.00018457048250075715,0.00028854935004352973,0.02214776199936387
0.6900000000000001,0.0024977302799007108,-0.7863518299999223,-0.0030307620798690114,-2.3580503999999234,0.0028627275598819136,1.5676665000001409,0.7862249259999904,0.039999977,0.03999998,-9.802444800000245,0.04231281280322349,-0.049977845998640955,0.0001843542440007599,0.00040281044017179325,0.02232943239936156
0.6925,0.0025259834099003505,-0.786373947499922,-0.003068035459868536,-2.358072149999923,0.002896329494881485,1.5676264500001413,0.7862276619999903,0.039999977,0.03999998,-9.802375350000245,0.042868327906258524,-0.05036456849863603,0.00018413800550076266,0.0005170715303000517,0.022511102799359244
0.6950000000000001,0.0025542365398999916,-0.7863960649999218,-0.0031053088398680624,-2.358093899999923,0.002929931429881058,1.5675864000001418,0.7862303979999903,0.039999977,0.03999998,-9.802305900000247,0.04342384300929359,-0.050751290998631106,0.00018392176700076542,0.0006313326204283152,0.022692773199356937
0.6975,0.0025824896698996313,-0.7864181824999215,-0.003142582219867587,-2.3581156499999225,0.0029635333648806296,1.5675463500001423,0.7862331339999903,0.039999977,0.03999998,-9.802236450000247,0.04397935811232862,-0.05113801349862618,0.0001837055285007682,0.0007455937105565737,0.02287444359935462
0.7000000000000001,0.002610742799899272,-0.7864402999999212,-0.003179855599867113,-2.3581373999999222,0.0029971352998802024,1.5675063000001428,0.7862358699999902,0.039999977,0.03999998,-9.802167000000248,0.04453487321536368,-0.051524735998621264,0.00018348929000077093,0.0008598548006848373,0.02305611399935231
0.7025,0.0026405105698934926,-0.7864636999999163,-0.0032191299198594783,-2.358160289999918,0.003032540144873323,1.567464120000151,0.7862387304999897,0.039999977449999995,0.0399999806,-9.802112100000198,0.04510743375662739,-0.05198236109836264,0.00018296689400186913,0.0009770106781970926,0.0232420578993347
0.705,0.0026702783398931127,-0.786487099999916,-0.0032584042398589776,-2.358183179999918,0.0030679449898728716,1.5674219400001514,0.7862415909999897,0.0399999779,0.0399999812,-9.802057200000197,0.045679994297951866,-0.052439986198356804,0.00018244449800187577,0.0010941665557196683,0.02342800179933233
0.7075,0.0027000461098927345,-0.7865104999999157,-0.0032976785598584787,-2.3582060699999174,0.0031033498348724217,1.567379760000152,0.7862444514999897,0.03999997835,0.0399999818,-9.802002300000199,0.04625255483927637,-0.05289761129835099,0.00018192210200188242,0.0012113224332422493,0.023613945699329966
0.71,0.0027298138798923545,-0.7865338999999154,-0.0033369528798579775,-2.3582289599999173,0.00313875467987197,1.5673375800001526,0.7862473119999897,0.039999978799999995,0.039999982399999995,-9.801947400000198,0.04682511538060084,-0.05335523639834515,0.0001813997060018891,0.001328478310764825,0.023799889599327596
0.7125,0.0027595816498919763,-0.7865572999999151,-0.0033762271998574785,-2.358251849999917,0.00317415952487152,1.567295400000153,0.7862501724999896,0.03999997925,0.039999982999999996,-9.801892500000198,0.04739767592192535,-0.05381286149833933,0.0001808773100018957,0.001445634188287406,0.023985833499325232
0.715,0.0027893494198915967,-0.7865806999999148,-0.0034155015198569774,-2.3582747399999167,0.003209564369871069,1.5672532200001534,0.7862530329999895,0.039999979699999993,0.0399999836,-9.8018376000002,0.04797023646324983,-0.054270486598333494,0.00018035491400190238,0.0015627900658099817,0.02417177739932286
0.7175,0.002819633214885561,-0.7866045224999099,-0.003455457614849004,-2.3582980199999124,0.0032455834998638845,1.5672103050001622,0.7862559504999889,0.03999997985,0.0399999842,-9.801785650000168,0.04855514783189444,-0.05472541349835726,0.0001797658125026403,0.0016810657102867166,0.024358988449306607
0.72,0.0028509490598851617,-0.7866291899999096,-0.003496777259848477,-2.358322079999912,0.003282831199863409,1.5671659200001626,0.7862589819999889,0.039999979399999996,0.0399999848,-9.801739600000168,0.049164760855584994,-0.05517494399835153,0.00017904330000264953,0.0018015808887085396,0.024548733799304185
0.7225,0.0028822649048847637,-0.7866538574999092,-0.003538096904847952,-2.3583461399999117,0.003320078899862936,1.5671215350001633,0.7862620134999888,0.03999997895,0.0399999854,-9.801693550000168,0.049774373879275566,-0.055624474498345816,0.00017832078750265872,0.001922096067130368,0.024738479149301773
0.725,0.0029135807498843645,-0.786678524999909,-0.0035794165498474247,-2.358370199999911,0.003357326599862461,1.567077150000164,0.7862650449999888,0.0399999785,0.039999986,-9.80164750000017,0.05038398690296612,-0.05607400499834008,0.0001775982750026679,0.0020426112455521907,0.024928224499299354
0.7275,0.002944896594883966,-0.7867031924999086,-0.0036207361948468997,-2.358394259999911,0.0033945742998619873,1.5670327650001643,0.7862680764999888,0.03999997805,0.039999986599999995,-9.80160145000017,0.050993599926656696,-0.056523535498334374,0.0001768757625026771,0.002163126423974019,0.025117969849296942
0.73,0.002976212439883567,-0.7867278599999084,-0.0036620558398463726,-2.358418319999911,0.0034318219998615124,1.566988380000165,0.7862711079999888,0.0399999776,0.039999987199999996,-9.80155540000017,0.05160321295034725,-0.05697306599832864,0.00017615325000268632,0.002283641602395842,0.025307715199294523
0.7325,0.003007528284883169,-0.786752527499908,-0.003703375484845847,-2.3584423799999104,0.003469069699861039,1.5669439950001656,0.7862741394999887,0.03999997715,0.0399999878,-9.801509350000172,0.05221282597403783,-0.057422596498322924,0.0001754307375026955,0.0024041567808176702,0.02549746054929211
0.735,0.003039898169876851,-0.7867780649999028,-0.0037460877298375007,-2.3584672799999056,0.0035075723698535168,1.5668981200001744,0.7862772649999882,0.039999977,0.0399999872,-9.801481000000074,0.052853099626828666,-0.057866060598351254,0.00017450736800383258,0.0025265254075679056,0.025690454299271453
0.7375,0.0030727950748764324,-0.7868040374999025,-0.003789496274836949,-2.358492599999905,0.0035467025248530197,1.566851500000175,0.7862804374999881,0.039999977,0.039999986,-9.801461500000073,0.05350870359442735,-0.05830649149834566,0.00017348357000384558,0.0026498207584979283,0.02588507224926898
0.74,0.003105691979876013,-0.786830009999902,-0.003832904819836395,-2.3585179199999047,0.0035858326798525204,1.5668048800001757,0.786283609999988,0.039999977,0.039999984800000006,-9.801442000000073,0.054164307562026004,-0.05874692239834004,0.00017245977200385865,0.002773116109427946,0.026079690199266495
0.7425,0.003138588884875595,-0.7868559824999017,-0.0038763133648358435,-2.3585432399999045,0.0036249628348520233,1.5667582600001764,0.786286782499988,0.039999977,0.039999983600000004,-9.801422500000074,0.05481991152962469,-0.05918735329833444,0.00017143597400387164,0.002896411460357969,0.02627430814926402
0.745,0.003171485789875175,-0.7868819549999014,-0.00391972190983529,-2.3585685599999042,0.003664092989851524,1.5667116400001768,0.7862899549999879,0.039999977,0.0399999824,-9.801403000000073,0.05547551549722334,-0.05962778419832882,0.0001704121760038847,0.003019706811287986,0.02646892609926154
0.7475,0.003204382694874757,-0.7869079274999011,-0.003963130454834738,-2.3585938799999036,0.003703223144851027,1.5666650200001775,0.7862931274999879,0.039999977,0.0399999812,-9.801383500000075,0.05613111946482202,-0.060068215098323226,0.0001693883780038977,0.003143002162218009,0.026663544049259066
0.75,0.0032372795998743377,-0.7869338999999007,-0.004006538999834185,-2.3586191999999033,0.0037423532998505276,1.5666184000001782,0.7862962999999878,0.039999977,0.039999980000000004,-9.801364000000074,0.05678672343242067,-0.06050864599831761,0.00016836458000391076,0.0032662975131480267,0.026858161999256586
0.7525000000000001,0.0032717896348667956,-0.7869612299998945,-0.004052079149824221,-2.3586457199998976,0.00378340390484155,1.566569500000189,0.7862996449999871,0.039999977,0.03999998,-9.801318850000174,0.05745475161562793,-0.061029085097991174,0.00016702097600518613,0.003392074151876063,0.027056409949234788
0.755,0.0033062996698654135,-0.7869885599998934,-0.004097619299822397,-2.3586722399998967,0.003824454509839906,1.5665206000001908,0.7863029899999869,0.039999977,0.03999998,-9.801273700000175,0.05812277979888261,-0.061549524197970336,0.00016567737200523993,0.0035178507906135723,0.02725465789922685
0.7575000000000001,0.0033408097048640336,-0.7870158899998922,-0.004143159449820576,-2.3586987599998954,0.0038655051148382643,1.5664717000001926,0.7863063349999868,0.039999977,0.03999998,-9.801228550000177,0.05879080798213732,-0.06206996329794952,0.00016433376800529365,0.0036436274293510868,0.027452905849218924
0.76,0.003375319739862652,-0.7870432199998912,-0.0041886995998187525,-2.3587252799998946,0.003906555719836621,1.5664228000001947,0.7863096799999867,0.039999977,0.03999998,-9.801183400000179,0.05945883616539201,-0.06259040239792868,0.00016299016400534745,0.003769404068088596,0.027651153799210983
0.7625000000000001,0.0034098297748612716,-0.7870705499998901,-0.004234239749816931,-2.3587517999998933,0.003947606324834979,1.5663739000001966,0.7863130249999866,0.039999977,0.03999998,-9.80113825000018,0.06012686434864672,-0.06311084149790787,0.0001616465600054012,0.0038951807068261105,0.027849401749203057
0.765,0.00344433980985989,-0.787097879999889,-0.004279779899815108,-2.3587783199998924,0.0039886569298333355,1.5663250000001985,0.7863163699999864,0.039999977,0.03999998,-9.801093100000182,0.0607948925319014,-0.06363128059788703,0.000160302956005455,0.00402095734556362,0.02804764969919512
0.7675000000000001,0.0034793979998524248,-0.7871256599998829,-0.004326044249805246,-2.3588052699998863,0.0040303601748244485,1.566275320000209,0.7863197684999856,0.0399999768,0.03999997985,-9.801045200000218,0.061477403526084246,-0.06414786049792294,0.00015883317500702936,0.004147820011185909,0.028247205749174775
0.77,0.00351555249985295,-0.7871543399998834,-0.00437375699980594,-2.358833079999887,0.004073368699825074,1.5662240800002085,0.7863232739999857,0.0399999762,0.039999979399999996,-9.800991800000217,0.062188880142655986,-0.06465672199793034,0.00015711104000700434,0.004276854730617684,0.028449377999177714
0.7725,0.0035517069998534756,-0.7871830199998838,-0.004421469749806633,-2.358860889999887,0.004116377224825698,1.5661728400002077,0.7863267794999858,0.0399999756,0.03999997895,-9.800938400000216,0.06290035675922773,-0.06516558349793773,0.00015538890500697933,0.004405889450049458,0.028651550249180653
0.775,0.0035878614998540027,-0.7872116999998842,-0.004469182499807329,-2.3588886999998877,0.004159385749826325,1.566121600000207,0.7863302849999858,0.039999975,0.0399999785,-9.800885000000214,0.06361183337579951,-0.06567444499794514,0.00015366677000695422,0.004534924169481239,0.0288537224991836
0.7775,0.003624015999854528,-0.7872403799998846,-0.004516895249808021,-2.358916509999888,0.00420239427482695,1.5660703600002062,0.7863337904999859,0.039999974400000006,0.03999997805,-9.800831600000214,0.06432330999237125,-0.06618330649795254,0.0001519446350069292,0.004663958888913014,0.029055894749186535
0.78,0.003660170499855055,-0.7872690599998851,-0.004564607999808718,-2.3589443199998885,0.004245402799827577,1.5660191200002054,0.7863372959999859,0.039999973800000005,0.0399999776,-9.800778200000213,0.06503478660894303,-0.06669216799795996,0.0001502225000069041,0.004792993608344794,0.029258066999189484
0.7825,0.0036963249998555802,-0.7872977399998855,-0.00461232074980941,-2.3589721299998887,0.0042884113248282014,1.5659678800002046,0.786340801499986,0.039999973200000004,0.03999997715,-9.800724800000213,0.06574626322551477,-0.06720102949796736,0.00014850036500687908,0.004922028327776569,0.02946023924919242
0.785,0.003733596299848752,-0.78732732299988,-0.004661509399800387,-2.359000779999884,0.0043327493198200735,1.5659150700002142,0.7863444069999853,0.0399999734,0.039999977299999996,-9.800691250000094,0.06648113429247862,-0.0677242989978791,0.00014656360400817244,0.005052443686348473,0.029664973299176327
0.7875,0.0037714259998482694,-0.7873573574998796,-0.00471143599979975,-2.3590298499998834,0.0043777520498195,1.5658614750002149,0.7863480624999853,0.039999974,0.03999997775,-9.800667625000095,0.06722770258484849,-0.06825477249787233,0.00014451953000819853,0.0051835493645028255,0.029870988249173697
0.79,0.0038092556998477888,-0.7873873919998792,-0.004761362599799116,-2.359058919999883,0.004422754779818927,1.5658078800002158,0.7863517179999853,0.039999974599999995,0.039999978199999994,-9.800644000000094,0.06797427087721837,-0.06878524599786559,0.00014247545600822451,0.005314655042657184,0.03007700319917108
0.7925,0.0038470853998473064,-0.7874174264998788,-0.004811289199798479,-2.3590879899998827,0.0044677575098183535,1.5657542850002164,0.7863553734999853,0.039999975199999996,0.03999997865,-9.800620375000095,0.06872083916958824,-0.06931571949785882,0.00014043138200825058,0.005445760720811537,0.03028301814916845
0.795,0.0038849150998468258,-0.7874474609998784,-0.004861215799797845,-2.3591170599998823,0.004512760239817781,1.565700690000217,0.7863590289999852,0.0399999758,0.0399999791,-9.800596750000096,0.06946740746195813,-0.06984619299785208,0.00013838730800827656,0.005576866398965896,0.030489033099165834
0.7975,0.003922744799846343,-0.787477495499878,-0.004911142399797208,-2.359146129999882,0.004557762969817207,1.5656470950002177,0.7863626844999851,0.0399999764,0.039999979549999995,-9.800573125000096,0.070213975754328,-0.07037666649784531,0.00013634323400830265,0.005707972077120249,0.030695048049163207
0.8,0.003960574499845862,-0.7875075299998776,-0.0049610689997965736,-2.3591751999998816,0.004602765699816635,1.5655935000002184,0.7863663399999852,0.039999977,0.03999998,-9.800549500000097,0.0709605440466979,-0.07090713999783857,0.00013429916000832863,0.005839077755274607,0.030901062999160588
0.8025,0.004000109174838411,-0.7875389744998714,-0.005013248599786728,-2.3592056649998754,0.004649798154807766,1.565537490000229,0.7863701664999844,0.039999977,0.03999998,-9.80052272500011,0.07174971475874684,-0.07143207249785445,0.0001318763480099027,0.005973192257258462,0.031110822549142655
0.805,0.004039643849837909,-0.787570418999871,-0.005065428199786065,-2.359236129999875,0.004696830609807167,1.5654814800002297,0.7863739929999843,0.039999977,0.03999998,-9.80049595000011,0.07253888547096939,-0.07195700499784778,0.00012945353600993348,0.006107306759254583,0.03132058209913999
0.8075,0.004079178524837405,-0.7876018634998707,-0.005117607799785399,-2.3592665949998746,0.004743863064806568,1.5654254700002304,0.7863778194999843,0.039999977,0.03999998,-9.80046917500011,0.07332805618319191,-0.07248193749784108,0.0001270307240099644,0.006241421261250697,0.03153034164913732
0.81,0.004118713199836902,-0.7876333079998703,-0.005169787399784736,-2.359297059999874,0.00479089551980597,1.565369460000231,0.7863816459999843,0.039999977,0.03999998,-9.800442400000112,0.07411722689541447,-0.07300686999783441,0.0001246079120099952,0.006375535763246817,0.031740101199134646
0.8125,0.004158247874836398,-0.7876647524998699,-0.00522196699978407,-2.3593275249998737,0.004837927974805371,1.5653134500002317,0.7863854724999841,0.039999977,0.03999998,-9.800415625000111,0.074906397607637,-0.07353180249782772,0.00012218510001002608,0.006509650265242932,0.031949860749131975
0.8150000000000001,0.004197782549835895,-0.7876961969998695,-0.005274146599783407,-2.3593579899998733,0.004884960429804772,1.5652574400002324,0.7863892989999841,0.039999977,0.03999998,-9.800388850000111,0.07569556831985956,-0.07405673499782105,0.00011976228801005688,0.006643764767239053,0.03215962029912931
0.8175,0.004237895184828171,-0.7877281219998631,-0.005327089949773202,-2.3593888849998677,0.004932681044795577,1.5652006050002434,0.7863931794999834,0.039999977,0.03999998019999999,-9.800356300000184,0.0764911789413406,-0.07460886974747458,0.00011720504801176691,0.006778562184787541,0.03237051219911249
0.8200000000000001,0.004279163739827647,-0.7877610079998627,-0.005381560799772509,-2.3594206399998674,0.004981777979794953,1.5651421200002442,0.7863971679999834,0.039999977,0.039999980799999994,-9.800312200000183,0.07729966938157976,-0.07521540899746686,0.00011437895201180284,0.006914725433466351,0.03258366879910978
0.8225,0.004320432294827121,-0.7877938939998622,-0.0054360316497718145,-2.3594523949998667,0.0050308749147943265,1.565083635000245,0.7864011564999833,0.039999977,0.039999981399999995,-9.800268100000185,0.07810815982181889,-0.07582194824745912,0.00011155285601183888,0.0070508886821451545,0.03279682539910706
0.8250000000000001,0.004361700849826596,-0.7878267799998618,-0.0054905024997711225,-2.3594841499998664,0.005079971849793702,1.5650251500002457,0.7864051449999833,0.039999977,0.039999981999999996,-9.800224000000185,0.07891665026205805,-0.07642848749745142,0.00010872676001187481,0.007187051930823964,0.03300998199910435
0.8275,0.00440296940482607,-0.7878596659998613,-0.005544973349770428,-2.359515904999866,0.0051290687847930765,1.5649666650002465,0.7864091334999832,0.039999977,0.0399999826,-9.800179900000186,0.07972514070229718,-0.07703502674744368,0.00010590066401191084,0.007323215179502767,0.03322313859910163
