rsonawane2002/My_IMU/logs_2/traj_475/imu_475.csv
time,j1,j2,j3,j4,j5,j6,j7,gripper1,gripper2,imu_ax,imu_ay,imu_az,imu_gx,imu_gy,imu_gz
2476.233333337252,0.00016700293,-0.785875,4.0107683e-05,-2.3551247,9.29385e-05,1.570997,0.786,0.04,0.04,-9.5516615,0.0429079607129097,0.08947073,-2.446233e-07,-0.0011641276068985462,2.4500483e-07
2476.250000003919,0.00016701185,-0.78576016,4.0106817e-05,-2.3552213,9.298112e-05,1.5709941,0.786,0.04,0.04,-9.834497,0.0006285027484409511,0.009040195,-1.1078181e-07,-0.002237883396446705,1.7190199e-06
2476.266666670586,0.00016706297,-0.7856543,4.0051804e-05,-2.35531,9.30696e-05,1.5709913,0.786,0.04,0.04,-9.832495,0.0006203847588039935,0.0074960524,-1.5188483e-08,-0.003223531413823366,7.1591057e-06
2476.2833333372528,0.0001672244,-0.78555703,3.9854425e-05,-2.355391,9.328226e-05,1.5709884,0.786,0.04,0.04,-9.830662,0.0005936795496381819,0.006055864,1.2913404e-07,-0.004126434214413166,1.9912344e-05
2476.3000000039196,0.00016759301,-0.7854676,3.9388302e-05,-2.3554652,9.374835e-05,1.5709856,0.786,0.04,0.039999995,-9.828543,0.0005818855133838952,0.004802988,4.936763e-07,-0.004945400170981884,4.68367e-05
2476.3166666705865,0.00016829185,-0.78538567,3.8492777e-05,-2.3555326,9.4599214e-05,1.5709826,0.786,0.04,0.039999995,-9.82714,0.0005377945490181446,0.003408608,1.5337862e-06,-0.005685658659785986,8.698723e-05
2476.3333333372534,0.00016946695,-0.7853107,3.697609e-05,-2.3555977,9.600805e-05,1.5709796,0.786,0.04,0.039999995,-9.82549,0.0005056086229160428,0.0021825023,2.6150753e-06,-0.006347901653498411,0.00014489554
2476.3500000039203,0.00017128534,-0.7852422,3.4619206e-05,-2.3556561,9.8160264e-05,1.5709764,0.786,0.04,0.04,-9.82441,0.0004660226113628596,0.0009935047,4.4808653e-06,-0.0069503639824688435,0.00022175006
2476.366666670587,0.00017393229,-0.78518,3.1177704e-05,-2.3557122,0.000101293685,1.5709697,0.786,0.04,0.04,-9.822596,0.00045658694580197334,-8.176407e-05,7.060716e-06,-0.007474478334188461,0.00032325994
2476.383333337254,0.00017760975,-0.7851239,2.6385802e-05,-2.355763,0.00010564443,1.5709629,0.786,0.04,0.04,-9.821813,0.0004381085163913667,-0.0012051086,1.0283876e-05,-0.007953464053571224,0.0004487841
2476.400000003921,0.00018253426,-0.7850735,1.9957875e-05,-2.3558125,0.00011147161,1.5709558,0.786,0.04,0.04,-9.820325,0.0004470249405130744,-0.002301934,1.4361144e-05,-0.008355674333870411,0.0006007311
2476.416666670588,0.0001889352,-0.7850286,1.1591244e-05,-2.355858,0.0001190578,1.5709453,0.786,0.04,0.039999995,-9.819453,0.0004743954923469573,-0.0033709952,1.9515915e-05,-0.008702913299202919,0.00078146165
2476.4333333372547,0.00019705364,-0.784989,9.684235e-07,-2.3559012,0.00012866728,1.5709336,0.7860008,0.04,0.04,-9.818105,0.0005284138605929911,-0.0042888974,2.568655e-05,-0.008992745541036129,0.0009900524
2476.4500000039216,0.00020713982,-0.7849547,-1.22416395e-05,-2.3559442,0.00014062083,1.5709189,0.7860027,0.04,0.039999995,-9.817171,0.0006192640867084265,-0.005396839,2.9535116e-05,-0.009221677668392658,0.0012308497
2476.4666666705884,0.00021945333,-0.78492564,-2.8380786e-05,-2.3559866,0.0001551993,1.5709007,0.7860046,0.039999995,0.04,-9.816404,0.0007252469076775014,-0.006382878,2.937334e-05,-0.009405400604009628,0.0015009483
2476.4833333372553,0.00023426037,-0.7849016,-4.7801102e-05,-2.3560286,0.00017273793,1.5708786,0.7860065,0.03999999,0.039999995,-9.815567,0.0009156967280432582,-0.0072848354,3.090909e-05,-0.009545394219458103,0.0018053002
2476.500000003922,0.00025183335,-0.7848827,-7.0862756e-05,-2.3560705,0.00019356093,1.5708528,0.7860084,0.039999988,0.03999999,-9.814816,0.0011250588577240705,-0.00837676,3.3821034e-05,-0.009638547897338867,0.0021430003
2476.516666670589,0.00027245,-0.784869,-9.793267e-05,-2.3561125,0.00021799855,1.5708228,0.7860103,0.039999984,0.039999988,-9.814084,0.001396347302943468,-0.009403715,3.8349528e-05,-0.009686637669801712,0.0025146732
2476.533333337256,0.00029639227,-0.7848602,-0.00012938325,-2.3561544,0.0002463867,1.5707886,0.78601223,0.039999977,0.03999998,-9.813276,0.001738193561322987,-0.01043545,4.4718607e-05,-0.009687076322734356,0.0029208446
2476.550000003923,0.00032394502,-0.7848566,-0.00016559148,-2.3561969,0.00027906575,1.5707494,0.78601414,0.039999973,0.039999973,-9.812497,0.0021623210050165653,-0.011413069,5.290415e-05,-0.009641668759286404,0.003362782
2476.5666666705897,0.0003553963,-0.78485835,-0.0002069375,-2.3562398,0.00031637677,1.5707041,0.78601795,0.03999997,0.039999973,-9.811767,0.0026202788576483727,-0.012574565,6.284207e-05,-0.009550907649099827,0.0038382227
2476.5833333372566,0.00039103525,-0.78486514,-0.0002538041,-2.3562832,0.00035866658,1.5706534,0.78602177,0.039999966,0.039999966,-9.811056,0.0031847190111875534,-0.013649801,6.629215e-05,-0.00941906962543726,0.0043508434
2476.6000000039235,0.00043115238,-0.7848772,-0.00030657536,-2.3563297,0.00040627993,1.5705961,0.7860256,0.03999996,0.03999996,-9.810267,0.003829315770417452,-0.014793102,7.197505e-05,-0.009240376763045788,0.004898194
2476.6166666705903,0.00047603867,-0.7848947,-0.00036563608,-2.3563797,0.0004595641,1.5705321,0.7860294,0.039999954,0.039999954,-9.809876,0.004593950696289539,-0.015842957,7.983872e-05,-0.009031357243657112,0.0054812063
2476.633333337257,0.00052598515,-0.7849179,-0.00043137086,-2.3564305,0.00051886495,1.570461,0.7860345,0.039999947,0.03999995,-9.809483,0.00540999136865139,-0.01716647,8.9840854e-05,-0.008791438303887844,0.006099028
2476.650000003924,0.00058128155,-0.7849467,-0.0005041638,-2.3564856,0.00058452965,1.5703825,0.78604025,0.03999994,0.039999943,-9.808674,0.006359725724905729,-0.018425766,9.6469936e-05,-0.008505268022418022,0.0067533134
2476.666666670591,0.0006422177,-0.7849812,-0.0005843977,-2.3565438,0.0006569027,1.570296,0.78604597,0.03999994,0.039999943,-9.808332,0.007418750319629908,-0.01973766,0.00010266657,-0.008190490305423737,0.007443098
2476.683333337258,0.0007090812,-0.7850216,-0.00067245314,-2.3566043,0.00073632627,1.5702014,0.7860518,0.039999947,0.03999995,-9.807847,0.008628173731267452,-0.021003682,0.0001114169,-0.007840262725949287,0.008168184
2476.7000000039247,0.0007821583,-0.785068,-0.0007687083,-2.3566701,0.0008231412,1.5700978,0.78605944,0.03999995,0.039999954,-9.807233,0.009902448393404484,-0.022557203,0.00012239111,-0.00745328888297081,0.008928381
2476.7166666705916,0.0008617323,-0.7851207,-0.0008735386,-2.356739,0.00091768586,1.5699849,0.78606707,0.039999954,0.039999958,-9.806947,0.011327708140015602,-0.02405914,0.0001275727,-0.007040705997496843,0.009723433
2476.7333333372585,0.0009480842,-0.78517973,-0.0009873159,-2.3568127,0.0010202953,1.5698625,0.786075,0.039999958,0.03999996,-9.80642,0.012933682650327682,-0.025483612,0.00013568203,-0.006592401769012213,0.010553033
2476.7500000039254,0.0010414923,-0.78524524,-0.0011104086,-2.356893,0.001131301,1.56973,0.78608453,0.039999958,0.03999996,-9.806,0.014614016748964787,-0.027278338,0.00014500855,-0.006116176024079323,0.011416848
2476.7666666705923,0.0011422324,-0.78531736,-0.0012431804,-2.3569756,0.0012510313,1.5695873,0.78609407,0.03999996,0.039999966,-9.805874,0.01647258549928665,-0.029018655,0.00014997396,-0.005620194133371115,0.012314525
2476.783333337259,0.0012505756,-0.78539634,-0.0013859911,-2.3570645,0.0013798092,1.5694339,0.7861045,0.03999996,0.039999966,-9.805097,0.018488841131329536,-0.030851837,0.00015770285,-0.0050815194845199585,0.013245658
2476.800000003926,0.0013667904,-0.7854823,-0.0015391958,-2.3571603,0.0015179547,1.5692692,0.78611594,0.03999997,0.039999973,-9.80499,0.02069796994328499,-0.03259049,0.00016395995,-0.00452220905572176,0.014209847
2476.816666670593,0.001491141,-0.78557545,-0.0017031442,-2.3572586,0.0016657836,1.569093,0.78612757,0.039999973,0.039999977,-9.804701,0.02300172485411167,-0.034745377,0.00016866351,-0.003941915463656187,0.015206634
2476.83333333726,0.0016238884,-0.7856758,-0.0018781812,-2.3573637,0.0018236057,1.5689046,0.7861408,0.039999973,0.039999973,-9.803953,0.02551509067416191,-0.03684318,0.00017562132,-0.00332149351015687,0.016236419
2476.8500000039267,0.0017652882,-0.7857836,-0.0020646453,-2.357476,0.0019917253,1.5687042,0.78615415,0.039999977,0.03999998,-9.803727,0.02820100076496601,-0.03903923,0.00017782864,-0.0026805056259036064,0.017296158
2476.8666666705935,0.0019155928,-0.7858991,-0.0022628708,-2.3575954,0.0021704452,1.5684912,0.7861688,0.03999998,0.03999998,-9.803605,0.03112134523689747,-0.04116915,0.00018235554,-0.0020183962769806385,0.018388772
2476.8833333372604,0.0020750493,-0.7860224,-0.002473186,-2.3577223,0.0023600585,1.5682653,0.7861841,0.039999973,0.039999977,-9.803291,0.034128230065107346,-0.043750905,0.00018388222,-0.0013356574345380068,0.019510323
2476.9000000039273,0.0022439014,-0.7861536,-0.002695913,-2.3578548,0.0025608568,1.5680263,0.78620046,0.039999973,0.039999973,-9.803072,0.037391506135463715,-0.046292633,0.00018558318,-0.0006327092414721847,0.020663716
2476.916666670594,0.0024223886,-0.78629285,-0.0029313664,-2.3579924,0.0027731224,1.5677733,0.78621763,0.039999977,0.03999998,-9.80263,0.040831439197063446,-0.048946586,0.00018493088,9.811420022742823e-05,0.021844978
2476.933333337261,0.0026107428,-0.7864403,-0.0031798556,-2.3581374,0.0029971353,1.5675063,0.78623587,0.039999977,0.03999998,-9.802167,0.044534873217344284,-0.051524736,0.00018348929,0.0008598548010922968,0.023056114
2476.950000003928,0.0028091946,-0.7865963,-0.0034416844,-2.35829,0.0032331676,1.5672251,0.78625494,0.03999998,0.039999984,-9.801801,0.048351943492889404,-0.05457557,0.00018000665,0.0016408939845860004,0.02429574
2476.966666670595,0.0030179669,-0.78676075,-0.0037171487,-2.3584504,0.0034814856,1.5669292,0.78627515,0.039999977,0.039999988,-9.801494,0.05241603031754494,-0.05757244,0.0001751899,0.0024443285074084997,0.025560709
2476.9833333372617,0.0032372796,-0.7869339,-0.004006539,-2.3586192,0.0037423533,1.5666184,0.7862963,0.039999977,0.03999998,-9.801364,0.05678672343492508,-0.060508646,0.00016836458,0.0032662975136190653,0.026858162
2477.0000000039286,0.0034673465,-0.7871161,-0.00431014,-2.358796,0.004016024,1.5662924,0.7863186,0.039999977,0.03999998,-9.801063,0.061240244656801224,-0.06397824,0.00015940722,0.004104808438569307,0.028179815
2477.0166666705954,0.0037083765,-0.7873073,-0.004628225,-2.3589814,0.0043027475,1.5659508,0.78634197,0.039999973,0.039999977,-9.800707,0.06598342210054398,-0.06737065,0.00014792632,0.004965039901435375,0.02952763
2477.0333333372623,0.0039605745,-0.78750753,-0.004961069,-2.3591752,0.0046027657,1.5655935,0.78636634,0.039999977,0.03999998,-9.8005495,0.07096054404973984,-0.07090714,0.00013429916,0.00583907775580883,0.030901063
2477.050000003929,0.004224139,-0.78771716,-0.005308933,-2.3593783,0.0049163154,1.5652201,0.78639185,0.039999977,0.03999998,-9.800371,0.07622168213129044,-0.07440669,0.00011814708,0.0067331744357943535,0.03229946
2477.066666670596,0.0044992627,-0.7879364,-0.005672072,-2.35959,0.0052436283,1.5648302,0.78641844,0.039999977,0.039999984,-9.800077,0.08161161839962006,-0.078450285,9.930644e-05,0.0076409294269979,0.033720504
2477.083333337263,0.0047861366,-0.78816515,-0.0060507366,-2.35981,0.005584931,1.5644234,0.7864462,0.039999977,0.03999998,-9.799757,0.08733151108026505,-0.0824261,7.76335e-05,0.008566612377762794,0.035168916
2477.10000000393,0.005084942,-0.7884037,-0.006445172,-2.3600392,0.0059404424,1.5640001,0.7864753,0.039999977,0.03999998,-9.799418,0.09326378256082535,-0.086569495,5.272175e-05,0.00951030571013689,0.036638793
2477.1166666705967,0.0053958585,-0.7886519,-0.006855611,-2.3602767,0.00631037,1.5635595,0.7865053,0.039999977,0.039999984,-9.799276,0.09950951486825943,-0.09063244,2.4197216e-05,0.010471860878169537,0.03813027
2477.1333333372636,0.0057190577,-0.7889102,-0.007282283,-2.3605242,0.006694924,1.5631015,0.78653663,0.039999977,0.039999984,-9.798771,0.1059117540717125,-0.09531515,-6.7861374e-06,0.01145016960799694,0.039643895
2477.1500000039305,0.006054708,-0.78917885,-0.007725412,-2.3607807,0.0070943055,1.5626258,0.7865691,0.03999998,0.039999988,-9.798535,0.11263574659824371,-0.09990555,-4.202944e-05,0.012441940605640411,0.041180626
2477.1666666705974,0.006402973,-0.78945756,-0.008185213,-2.361047,0.0075087026,1.5621324,0.78660274,0.03999998,0.039999995,-9.798174,0.11959824711084366,-0.10464893,-8.0883634e-05,0.013450977392494678,0.04273478
2477.1833333372642,0.0067640096,-0.78974676,-0.008661898,-2.3613226,0.00793831,1.5616208,0.7866378,0.03999998,0.039999995,-9.798048,0.12690812349319458,-0.10936109,-0.00012318439,0.014474003575742245,0.0443117
2477.200000003931,0.0071379696,-0.79004616,-0.009155659,-2.3616083,0.008383301,1.5610907,0.78667396,0.039999977,0.04,-9.797539,0.13435542583465576,-0.11467246,-0.00017054703,0.015512028709053993,0.045905735
2477.216666670598,0.0075250003,-0.7903564,-0.009666694,-2.3619032,0.008843859,1.5605421,0.78671134,0.03999998,0.04,-9.797241,0.1421629786491394,-0.11994695,-0.00022170189,0.0165615975856781,0.04752206
2477.233333337265,0.007925243,-0.79067725,-0.010195195,-2.3622084,0.009320151,1.5599748,0.7867502,0.039999988,0.04,-9.796981,0.1502828299999237,-0.12510724,-0.00027708674,0.017627466470003128,0.04915608
2477.2500000039317,0.008338836,-0.791009,-0.01074134,-2.3625243,0.009812344,1.5593885,0.7867902,0.03999999,0.04,-9.7964945,0.15857543051242828,-0.13095525,-0.00033827586,0.018705356866121292,0.050807863
2477.2666666705986,0.00876591,-0.7913517,-0.011305306,-2.3628495,0.010320603,1.558783,0.78683144,0.039999988,0.04,-9.796203,0.16721023619174957,-0.13673678,-0.00040360366,0.019792741164565086,0.052476794
2477.2833333372655,0.009206589,-0.79170525,-0.011887257,-2.363185,0.010845057,1.5581585,0.7868741,0.03999999,0.04,-9.795695,0.17612263560295105,-0.14267603,-0.00047386138,0.02089679427444935,0.054162346
2477.3000000039324,0.009660994,-0.7920699,-0.012487353,-2.3635314,0.011385865,1.5575144,0.7869181,0.039999995,0.04,-9.795482,0.18539924919605255,-0.14856267,-0.0005502367,0.02201256901025772,0.055864826
2477.3166666705993,0.010129243,-0.7924458,-0.013105754,-2.363888,0.011943168,1.5568506,0.7869634,0.039999995,0.04,-9.7949505,0.19483500719070435,-0.15512125,-0.0006317838,0.02313811518251896,0.057581823
2477.333333337266,0.010611446,-0.79283285,-0.0137426015,-2.3642554,0.012517092,1.556167,0.78701,0.039999995,0.04,-9.794483,0.20462724566459656,-0.16160473,-0.0007191836,0.024274645373225212,0.05931372
2477.350000003933,0.011107715,-0.7932315,-0.014398034,-2.364634,0.013107746,1.5554634,0.787058,0.04,0.04,-9.794082,0.2147250920534134,-0.16829017,-0.0008127334,0.02542029693722725,0.06106075
2477.3666666706,0.01161814,-0.79364145,-0.015072188,-2.3650227,0.013715284,1.5547397,0.7871074,0.04,0.04,-9.793804,0.2251661717891693,-0.17487112,-0.00091218937,0.026576241478323936,0.062820606
2477.383333337267,0.012142827,-0.79406285,-0.015765192,-2.365422,0.014339799,1.5539962,0.7871583,0.04,0.04,-9.793074,0.23580610752105713,-0.18218972,-0.001018352,0.02774355746805668,0.06459362
2477.4000000039337,0.012681867,-0.7944961,-0.016477164,-2.3658323,0.014981407,1.5532318,0.7872104,0.04,0.04,-9.79252,0.24680182337760925,-0.18943445,-0.0011316123,0.028922583907842636,0.066379935
2477.4166666706005,0.013235337,-0.79494077,-0.017208219,-2.3662536,0.015640192,1.5524471,0.78726393,0.04,0.04,-9.791978,0.2580992579460144,-0.1968281,-0.0012510872,0.030109882354736328,0.068177454
2477.4333333372674,0.0138033265,-0.79539716,-0.017958464,-2.3666863,0.016316276,1.5516418,0.78731894,0.04,0.04,-9.791596,0.26977062225341797,-0.20419829,-0.0013776082,0.031305499374866486,0.06998638
2477.4500000039343,0.014385908,-0.79586536,-0.018728,-2.3671298,0.01700974,1.5508157,0.7873754,0.04,0.04,-9.790896,0.28164106607437134,-0.21226943,-0.0015118858,0.03250681236386299,0.07180689
2477.466666670601,0.014983157,-0.79634535,-0.019516926,-2.3675847,0.017720662,1.5499688,0.787433,0.04,0.04,-9.790172,0.293871134519577,-0.22027197,-0.0016537126,0.03371938318014145,0.07363689
2477.483333337268,0.015595132,-0.79683745,-0.020325324,-2.3680503,0.018449115,1.5491014,0.7874922,0.04,0.04,-9.789758,0.3064649701118469,-0.22821598,-0.0018020258,0.03493772819638252,0.075475715
2477.500000003935,0.016221901,-0.7973412,-0.02115328,-2.3685274,0.019195179,1.5482126,0.787553,0.04,0.04,-9.788766,0.31926682591438293,-0.23686156,-0.0019590028,0.03616838902235031,0.07732294
2477.516666670602,0.016863521,-0.79785705,-0.022000864,-2.3690157,0.019958928,1.547303,0.7876152,0.04,0.04,-9.788099,0.33244723081588745,-0.24546377,-0.0021247533,0.03740263357758522,0.07917956
2477.5333333372687,0.01752004,-0.7983849,-0.022868155,-2.3695157,0.020740416,1.5463723,0.7876787,0.04,0.04,-9.787323,0.3459457755088806,-0.25425708,-0.0022985984,0.03864463046193123,0.08104419
2477.5500000039356,0.018191513,-0.7989247,-0.023755208,-2.3700264,0.021539694,1.5454202,0.7877436,0.04,0.04,-9.786703,0.359809011220932,-0.26298398,-0.002480674,0.039893779903650284,0.08291469
2477.5666666706024,0.018877978,-0.7994767,-0.024662083,-2.370549,0.02235684,1.5444467,0.78781015,0.04,0.04,-9.785622,0.3739076554775238,-0.272438,-0.0026711267,0.04114895313978195,0.084795356
2477.5833333372693,0.019579478,-0.8000408,-0.025588835,-2.3710825,0.023191877,1.5434518,0.78787804,0.04,0.04,-9.78474,0.38835427165031433,-0.28183135,-0.00287105,0.04240988567471504,0.08667998
2477.600000003936,0.020296037,-0.8006168,-0.026535504,-2.3716285,0.024044855,1.5424358,0.78794736,0.04,0.04,-9.783781,0.40314584970474243,-0.29142383,-0.00307992,0.04367576912045479,0.08857196
2477.616666670603,0.021027701,-0.8012051,-0.027502121,-2.3721855,0.024915786,1.5413985,0.78801817,0.04,0.04,-9.783093,0.4182955026626587,-0.3009838,-0.0032979,0.044944342225790024,0.090466835
2477.63333333727,0.021774478,-0.8018054,-0.028488735,-2.3727543,0.025804743,1.5403396,0.7880904,0.04,0.04,-9.781743,0.4336868226528168,-0.31126162,-0.0035255859,0.04622292518615723,0.09236974
2477.650000003937,0.022536404,-0.80241793,-0.029495364,-2.3733344,0.026711721,1.5392593,0.78816414,0.04,0.04,-9.780757,0.4494306445121765,-0.32147998,-0.0037627139,0.047500599175691605,0.094274275
2477.6666666706037,0.023313485,-0.8030432,-0.030522028,-2.3739264,0.027636766,1.5381576,0.78823936,0.04,0.04,-9.779523,0.4655308723449707,-0.33189884,-0.004009909,0.04878649860620499,0.09618575
2477.6833333372706,0.024105733,-0.80368066,-0.031568747,-2.3745294,0.028579852,1.5370345,0.78831613,0.04,0.04,-9.778555,0.48196348547935486,-0.3422204,-0.004266964,0.05007634311914444,0.09809539
2477.7000000039375,0.024913162,-0.80433005,-0.03263554,-2.3751442,0.029541027,1.5358897,0.7883943,0.04,0.04,-9.776993,0.49867209792137146,-0.3533181,-0.0045346464,0.05137401074171066,0.10001154
2477.7166666706044,0.02573576,-0.8049917,-0.0337224,-2.3757703,0.030520264,1.5347234,0.7884738,0.04,0.04,-9.775729,0.5157305002212524,-0.36435938,-0.004812261,0.0526714101433754,0.101928875
2477.7333333372712,0.026573537,-0.8056655,-0.034829322,-2.3764079,0.031517584,1.5335354,0.78855485,0.04,0.04,-9.774497,0.5331753492355347,-0.375333,-0.005100228,0.05397386848926544,0.10384852
2477.750000003938,0.027426489,-0.8063516,-0.0359563,-2.377057,0.032532986,1.5323261,0.7886375,0.04,0.04,-9.772803,0.5508467555046082,-0.38704732,-0.0053990334,0.05527942627668381,0.10576915
2477.766666670605,0.028294608,-0.8070497,-0.037103333,-2.377718,0.03356644,1.5310951,0.7887216,0.04,0.04,-9.771273,0.5688869953155518,-0.398696,-0.0057091555,0.05658910796046257,0.10768922
2477.783333337272,0.029177874,-0.8077603,-0.038270377,-2.3783903,0.034617946,1.5298427,0.78880703,0.04,0.04,-9.769732,0.5872738361358643,-0.4105714,-0.006030652,0.05789763107895851,0.10961
2477.8000000039387,0.030076275,-0.808483,-0.039457425,-2.379074,0.035687473,1.5285686,0.78889394,0.04,0.04,-9.768186,0.6060199737548828,-0.42236182,-0.006361848,0.05921212583780289,0.11153015
2477.8166666706056,0.030989781,-0.80921763,-0.04066446,-2.3797696,0.036774997,1.5272734,0.78898245,0.04,0.04,-9.766251,0.6250067353248596,-0.43488953,-0.0067048594,0.0605265349149704,0.11344914
2477.8333333372725,0.031918366,-0.80996466,-0.04189143,-2.3804767,0.03788048,1.5259567,0.78907233,0.04,0.04,-9.764404,0.6443646550178528,-0.44740382,-0.007060039,0.061843276023864746,0.11536549
2477.8500000039394,0.03286201,-0.81072384,-0.043138303,-2.3811946,0.039003886,1.5246186,0.78916365,0.04,0.04,-9.762507,0.6640598177909851,-0.4600671,-0.007426189,0.0631614476442337,0.11728051
2477.8666666706063,0.033820678,-0.81149495,-0.044405024,-2.3819246,0.04014519,1.5232589,0.78925645,0.04,0.04,-9.760607,0.6841120719909668,-0.47270396,-0.0078036967,0.06448429822921753,0.11919271
2477.883333337273,0.034794323,-0.81227815,-0.045691554,-2.3826656,0.04130432,1.5218785,0.7893506,0.04,0.04,-9.758423,0.7044085264205933,-0.48607036,-0.008193309,0.06580211222171783,0.1211009
2477.90000000394,0.035782915,-0.81307346,-0.04699785,-2.3834183,0.04248126,1.5204767,0.7894463,0.04,0.04,-9.756133,0.7250764966011047,-0.4993806,-0.008594337,0.0671258494257927,0.12300605
2477.916666670607,0.036786392,-0.81388056,-0.048323825,-2.384182,0.043675907,1.5190532,0.7895434,0.04,0.04,-9.753914,0.7460566163063049,-0.51288223,-0.009007701,0.06844787299633026,0.12490365
2477.933333337274,0.037804723,-0.8146998,-0.049669426,-2.3849576,0.04488821,1.5176096,0.789642,0.04,0.04,-9.751715,0.767381489276886,-0.5263617,-0.009433289,0.06976904720067978,0.1267911
2477.9500000039407,0.038837846,-0.8155308,-0.051034566,-2.3857436,0.046118103,1.5161439,0.789742,0.04,0.04,-9.749029,0.7890083193778992,-0.5405271,-0.0098708635,0.07109317183494568,0.12867811
2477.9666666706075,0.039885707,-0.8163739,-0.052419193,-2.3865416,0.04736555,1.5146586,0.78984344,0.04,0.04,-9.746415,0.8109794855117798,-0.5546405,-0.010320856,0.07241391390562057,0.1305619
2477.9833333372744,0.040948253,-0.81722873,-0.053823225,-2.38735,0.048630487,1.5131518,0.7899463,0.04,0.04,-9.743934,0.8333058953285217,-0.56874293,-0.010782677,0.07373980432748795,0.13243984
2478.0000000039413,0.0420254,-0.81809545,-0.055246577,-2.3881702,0.04991284,1.5116241,0.79005057,0.04,0.04,-9.740888,0.8558757901191711,-0.58348876,-0.011257386,0.07506318390369415,0.13431191
2478.016666670608,0.0431171,-0.8189739,-0.05668915,-2.389001,0.05121251,1.5100763,0.7901562,0.04,0.04,-9.738003,0.8788015842437744,-0.598204,-0.011744164,0.07638426125049591,0.13617653
2478.033333337275,0.04422326,-0.81986386,-0.05815086,-2.389843,0.052529424,1.5085078,0.7902632,0.04,0.04,-9.734896,0.9020329713821411,-0.61314183,-0.012242777,0.0777091383934021,0.13803247
2478.050000003942,0.045343824,-0.82076544,-0.059631597,-2.3906956,0.053863484,1.506919,0.7903716,0.04,0.04,-9.732005,0.9256255626678467,-0.6280447,-0.012754141,0.07903071492910385,0.1398809
2478.066666670609,0.04647872,-0.8216787,-0.061131272,-2.3915594,0.05521459,1.5053097,0.7904814,0.04,0.04,-9.728487,0.949465811252594,-0.64359134,-0.013278073,0.08035136014223099,0.14172052
2478.0833333372757,0.04762784,-0.8226032,-0.062649764,-2.3924344,0.056582686,1.5036801,0.7905926,0.04,0.04,-9.725089,0.9736453890800476,-0.65908843,-0.013814618,0.08167052268981934,0.14355072
2478.1000000039426,0.048791114,-0.82353926,-0.06418695,-2.3933196,0.05796761,1.5020305,0.79070526,0.04,0.04,-9.721636,0.9981461763381958,-0.67482156,-0.01436398,0.08298433572053909,0.14537105
2478.1166666706094,0.049968466,-0.8244866,-0.06574275,-2.3942156,0.059369285,1.500361,0.79081917,0.04,0.04,-9.7181015,1.0229655504226685,-0.6905018,-0.014925796,0.0842992439866066,0.14717957
2478.1333333372763,0.051159784,-0.82544506,-0.06731702,-2.3951225,0.060787596,1.4986714,0.79093456,0.04,0.04,-9.7141,1.04805326461792,-0.7068145,-0.015499771,0.0856122300028801,0.14897811
2478.150000003943,0.052364983,-0.8264147,-0.068909615,-2.3960397,0.062222436,1.4969624,0.79105127,0.04,0.04,-9.7102165,1.0734797716140747,-0.7231131,-0.016087195,0.08691991865634918,0.15076539
2478.16666667061,0.053583976,-0.8273955,-0.07052043,-2.3969674,0.063673705,1.495234,0.79116935,0.04,0.04,-9.706114,1.099187970161438,-0.7395966,-0.016686926,0.08822648972272873,0.15253939
2478.183333337277,0.054816637,-0.8283875,-0.07214934,-2.397906,0.065141246,1.4934859,0.7912886,0.04,0.04,-9.702074,1.1252399682998657,-0.75605655,-0.017298987,0.08953209221363068,0.15430185
2478.200000003944,0.05606289,-0.82939035,-0.073796205,-2.398854,0.06662493,1.4917186,0.7914092,0.04,0.04,-9.697566,1.1515352725982666,-0.7730926,-0.01792316,0.0908312052488327,0.15605007
2478.2166666706107,0.05732261,-0.8304039,-0.07546088,-2.3998125,0.06812466,1.4899323,0.79153115,0.04,0.04,-9.692924,1.1781460046768188,-0.790135,-0.018559344,0.0921318531036377,0.1577852
2478.2333333372776,0.058595687,-0.83142823,-0.077143185,-2.400782,0.06964029,1.4881271,0.7916544,0.04,0.04,-9.688524,1.2050801515579224,-0.80716604,-0.01920821,0.09342679381370544,0.15950574
2478.2500000039445,0.05988202,-0.8324633,-0.07884302,-2.401761,0.071171686,1.4863032,0.79177886,0.04,0.04,-9.683591,1.2322944402694702,-0.8247717,-0.019870069,0.09471426904201508,0.16121548
2478.2666666706114,0.06118147,-0.833509,-0.08056017,-2.40275,0.07271873,1.4844606,0.7919046,0.04,0.04,-9.678479,1.2597830295562744,-0.8423366,-0.02054309,0.09600283205509186,0.16291057
2478.2833333372782,0.06249394,-0.834565,-0.08229453,-2.4037492,0.07428125,1.4825996,0.7920316,0.04,0.04,-9.673334,1.2875711917877197,-0.8600771,-0.02122824,0.09728659689426422,0.16459152
2478.300000003945,0.06381929,-0.83563143,-0.08404594,-2.4047577,0.075859115,1.4807202,0.7921599,0.04,0.04,-9.668309,1.3156709671020508,-0.8778607,-0.021925349,0.09856316447257996,0.16625707
2478.316666670612,0.06515741,-0.83670837,-0.08581422,-2.4057755,0.077452205,1.4788228,0.7922895,0.04,0.04,-9.662508,1.3439998626708984,-0.89611197,-0.022634823,0.09983775019645691,0.16790648
2478.333333337279,0.06650817,-0.8377953,-0.087599196,-2.4068038,0.07906031,1.4769074,0.7924202,0.04,0.04,-9.656801,1.3726052045822144,-0.9143667,-0.02335571,0.10111090540885925,0.16953696
2478.3500000039458,0.06787145,-0.8388923,-0.089400664,-2.4078414,0.08068334,1.474974,0.7925523,0.04,0.04,-9.651062,1.4015285968780518,-0.9328123,-0.024088353,0.1023746132850647,0.17115147
2478.3666666706126,0.06924709,-0.8399992,-0.09121853,-2.408888,0.08232107,1.4730232,0.7926854,0.04,0.04,-9.645256,1.4307109117507935,-0.95125234,-0.024833085,0.1036318838596344,0.17274804
2478.3833333372795,0.070634946,-0.8411159,-0.093052514,-2.4099443,0.083973385,1.4710553,0.79281974,0.04,0.04,-9.6388,1.460155725479126,-0.97018164,-0.02558833,0.10488614439964294,0.17432755
2478.4000000039464,0.07203493,-0.8422424,-0.09490249,-2.41101,0.08564012,1.4690697,0.7929553,0.04,0.04,-9.632439,1.4898738861083984,-0.9891127,-0.026355064,0.10613453388214111,0.17588986
2478.4166666706133,0.07344687,-0.84337866,-0.096768275,-2.412085,0.08732106,1.4670672,0.793092,0.04,0.04,-9.62591,1.519857406616211,-1.0081797,-0.027132872,0.10737402737140656,0.17743282
2478.43333333728,0.07487062,-0.84452415,-0.098649666,-2.413168,0.08901608,1.4650484,0.79322976,0.04,0.04,-9.619377,1.5501209497451782,-1.0272653,-0.027921956,0.10860680043697357,0.17895806
2478.450000003947,0.076306075,-0.8456792,-0.100546464,-2.4142606,0.09072498,1.4630128,0.7933687,0.04,0.04,-9.612085,1.5805917978286743,-1.0468304,-0.028720386,0.10983923822641373,0.18046324
2478.466666670614,0.07775303,-0.84684366,-0.10245851,-2.4153616,0.0924476,1.4609609,0.7935087,0.04,0.04,-9.605012,1.6113147735595703,-1.0663434,-0.029530061,0.11106172949075699,0.1819434
2478.483333337281,0.07921132,-0.84801733,-0.10438557,-2.4164724,0.09418371,1.458893,0.79364985,0.04,0.04,-9.59782,1.6423537731170654,-1.0858791,-0.030349582,0.11227903515100479,0.18340765
2478.5000000039477,0.08068085,-0.8491999,-0.106327444,-2.4175909,0.095933214,1.456809,0.7937921,0.04,0.04,-9.590204,1.6736197471618652,-1.105845,-0.03117999,0.1134849339723587,0.18485199
2478.5166666706145,0.08216145,-0.8503915,-0.108283915,-2.4187171,0.09769586,1.4547095,0.79393554,0.04,0.04,-9.582328,1.7050954103469849,-1.1258198,-0.032019768,0.11468763649463654,0.18627529
2478.5333333372814,0.083652936,-0.85159177,-0.11025479,-2.4198518,0.09947148,1.4525945,0.79407984,0.04,0.04,-9.574246,1.736809492111206,-1.1458907,-0.032868963,0.11588721722364426,0.1876765
2478.5500000039483,0.08515515,-0.85280067,-0.11223986,-2.4209952,0.10125989,1.4504642,0.7942253,0.04,0.04,-9.566314,1.7687784433364868,-1.1660093,-0.033727217,0.1170772835612297,0.18905503
2478.566666670615,0.08666795,-0.8540181,-0.114238895,-2.4221466,0.103060886,1.4483188,0.7943716,0.04,0.04,-9.557805,1.800977349281311,-1.1865014,-0.034595337,0.11825647205114365,0.19040996
2478.583333337282,0.08819117,-0.85524404,-0.11625168,-2.4233057,0.104874276,1.4461586,0.7945192,0.04,0.04,-9.54915,1.83341383934021,-1.2069756,-0.035471264,0.11942876875400543,0.19174582
2478.600000003949,0.08972464,-0.8564781,-0.11827802,-2.4244726,0.106699884,1.4439844,0.79466766,0.04,0.04,-9.540322,1.8660494089126587,-1.2275766,-0.03635695,0.12059304863214493,0.19305736
2478.616666670616,0.09126822,-0.8577204,-0.12031765,-2.425647,0.10853749,1.4417956,0.7948171,0.04,0.04,-9.531438,1.8989249467849731,-1.2482234,-0.037250496,0.12175143510103226,0.1943469
2478.6333333372827,0.092821695,-0.8589705,-0.122370355,-2.426829,0.11038689,1.439593,0.7949676,0.04,0.04,-9.521949,1.9320038557052612,-1.2691481,-0.038151573,0.12290133535861969,0.19561265
2478.6500000039496,0.094384916,-0.86022854,-0.12443591,-2.4280183,0.11224792,1.4373764,0.7951189,0.04,0.04,-9.51248,1.9652913808822632,-1.2901208,-0.03906106,0.12404217571020126,0.19685374
2478.6666666706165,0.09595768,-0.8614943,-0.12651409,-2.429215,0.11412026,1.4351462,0.7952711,0.04,0.04,-9.502729,1.998769998550415,-1.3111734,-0.03997732,0.12517425417900085,0.19806862
2478.6833333372833,0.09753981,-0.8627676,-0.12860473,-2.4304187,0.11600379,1.432903,0.79542416,0.04,0.04,-9.492948,2.0324866771698,-1.3322477,-0.040900204,0.1262970268726349,0.19926158
2478.70000000395,0.09913117,-0.8640483,-0.13070752,-2.4316297,0.117898256,1.4306465,0.79557824,0.04,0.04,-9.482568,2.066359519958496,-1.353611,-0.04183033,0.12741176784038544,0.20042321
2478.716666670617,0.100731544,-0.8653363,-0.13282219,-2.432847,0.11980344,1.428377,0.79573315,0.04,0.04,-9.472172,2.1004862785339355,-1.3749741,-0.042767126,0.12851490080356598,0.20156421
2478.733333337284,0.10234076,-0.8666313,-0.1349485,-2.4340718,0.121719144,1.4260951,0.79588884,0.04,0.04,-9.461644,2.134718179702759,-1.3963412,-0.04370997,0.12960897386074066,0.20267561
2478.750000003951,0.103958644,-0.86793345,-0.13708624,-2.435303,0.12364514,1.4238011,0.79604554,0.04,0.04,-9.450657,2.169224739074707,-1.4179899,-0.044658236,0.13069000840187073,0.20376478
2478.7666666706177,0.105584994,-0.8692423,-0.13923517,-2.4365408,0.1255812,1.4214951,0.79620284,0.04,0.04,-9.43949,2.203871726989746,-1.4396183,-0.045612935,0.13176243007183075,0.20482822
2478.7833333372846,0.107219644,-0.87055796,-0.14139502,-2.4377854,0.12752719,1.4191773,0.79636115,0.04,0.04,-9.428131,2.238696336746216,-1.461349,-0.046571445,0.13282355666160583,0.20586525
2478.8000000039515,0.10886238,-0.87188,-0.14356558,-2.4390357,0.1294828,1.416848,0.79652023,0.04,0.04,-9.416701,2.273667573928833,-1.4830756,-0.047535922,0.13387276232242584,0.20687416
2478.8166666706184,0.11051302,-0.87320846,-0.14574654,-2.4402914,0.1314478,1.4145072,0.79668,0.04,0.04,-9.404632,2.308830499649048,-1.5050081,-0.04850478,0.13491110503673553,0.20785604
2478.8333333372852,0.11217136,-0.87454313,-0.1479377,-2.4415536,0.13342199,1.4121559,0.7968406,0.04,0.04,-9.392437,2.3441414833068848,-1.5269288,-0.04947656,0.135940819978714,0.208812
2478.850000003952,0.113837235,-0.87588394,-0.15013875,-2.4428213,0.13540506,1.4097939,0.7970018,0.04,0.04,-9.380153,2.379605531692505,-1.5489509,-0.050452966,0.1369577795267105,0.20973714
2478.866666670619,0.115510404,-0.8772305,-0.15234947,-2.444095,0.13739689,1.4074214,0.7971638,0.04,0.04,-9.367638,2.415224075317383,-1.5709518,-0.051431283,0.13796475529670715,0.21063763
2478.883333337286,0.117190726,-0.8785828,-0.15456963,-2.4453738,0.1393972,1.4050387,0.7973264,0.04,0.04,-9.35469,2.4510104656219482,-1.5931249,-0.052413654,0.13895699381828308,0.21150795
2478.9000000039528,0.11887796,-0.8799407,-0.15679893,-2.4466577,0.14140573,1.4026462,0.79748964,0.04,0.04,-9.341552,2.4869158267974854,-1.6152989,-0.053397894,0.13993717730045319,0.21234988
2478.9166666706196,0.12057195,-0.8813045,-0.15903705,-2.4479475,0.14342229,1.4002441,0.79765373,0.04,0.04,-9.328152,2.522946834564209,-1.6375023,-0.054383673,0.1409061849117279,0.21316253
2478.9333333372865,0.12227247,-0.882673,-0.16128382,-2.4492414,0.14544655,1.397833,0.79781836,0.04,0.04,-9.314731,2.5590972900390625,-1.6597081,-0.055371605,0.14186160266399384,0.21394458
2478.9500000039534,0.12397929,-0.88404703,-0.16353889,-2.4505403,0.1474784,1.3954127,0.7979834,0.04,0.04,-9.300654,2.5954220294952393,-1.6820704,-0.056360707,0.14280545711517334,0.2146993
2478.9666666706203,0.1256922,-0.8854257,-0.16580202,-2.4518435,0.14951749,1.392984,0.7981492,0.04,0.04,-9.286493,2.6318228244781494,-1.7043569,-0.05734911,0.14373764395713806,0.2154239
2478.983333337287,0.12741113,-0.8868089,-0.16807298,-2.453151,0.1515636,1.3905467,0.79831564,0.04,0.04,-9.272257,2.668342113494873,-1.7267257,-0.05833915,0.14465655386447906,0.21611999
2479.000000003954,0.12913568,-0.8881971,-0.17035152,-2.4544635,0.15361658,1.3881013,0.79848254,0.04,0.04,-9.257436,2.705003261566162,-1.7491233,-0.05932856,0.14556202292442322,0.21678755
2479.016666670621,0.13086575,-0.88958997,-0.17263725,-2.45578,0.15567605,1.3856483,0.7986501,0.04,0.04,-9.242619,2.741774082183838,-1.7715002,-0.06031783,0.1464521288871765,0.21742474
2479.033333337288,0.13260116,-0.89098716,-0.17492996,-2.4571009,0.15774181,1.3831875,0.7988181,0.04,0.04,-9.227415,2.7785959243774414,-1.7938986,-0.06130589,0.1473311185836792,0.21803139
2479.0500000039547,0.13434169,-0.8923882,-0.17722937,-2.4584255,0.1598136,1.3807195,0.7989865,0.04,0.04,-9.212182,2.815518379211426,-1.8163193,-0.062292658,0.1481933742761612,0.21860823
2479.0666666706215,0.13608705,-0.8937928,-0.17953525,-2.459754,0.16189118,1.3782449,0.79915535,0.04,0.04,-9.196393,2.85256028175354,-1.838771,-0.063276775,0.14904053509235382,0.21915399
2479.0833333372884,0.13783708,-0.89520115,-0.18184729,-2.4610858,0.16397442,1.3757634,0.7993248,0.04,0.04,-9.180508,2.8896961212158203,-1.8612502,-0.06425982,0.14987123012542725,0.21967058
2479.1000000039553,0.13959157,-0.8966135,-0.18416516,-2.4624212,0.1660628,1.373276,0.7994947,0.04,0.04,-9.16432,2.926849603652954,-1.8836789,-0.0652406,0.1506868302822113,0.22015195
2479.116666670622,0.14135034,-0.898029,-0.18648861,-2.4637594,0.16815637,1.3707823,0.79966486,0.04,0.04,-9.147953,2.9641170501708984,-1.906096,-0.066217445,0.15149110555648804,0.22060986
2479.133333337289,0.1431131,-0.89944774,-0.18881741,-2.4651003,0.17025463,1.368283,0.7998354,0.04,0.04,-9.131162,3.0014450550079346,-1.9284943,-0.0671901,0.15227816998958588,0.22103423
2479.150000003956,0.14487965,-0.90086967,-0.19115122,-2.4664445,0.17235745,1.3657781,0.80000633,0.04,0.04,-9.114147,3.0388131141662598,-1.9508828,-0.06815823,0.15305322408676147,0.2214271
2479.166666670623,0.14664985,-0.9022945,-0.19348973,-2.4677916,0.17446455,1.3632684,0.8001777,0.04,0.04,-9.097018,3.0762557983398438,-1.9732425,-0.06912295,0.1538088023662567,0.22178616
2479.1833333372897,0.1484234,-0.90372205,-0.1958327,-2.4691408,0.17657569,1.3607537,0.80034924,0.04,0.04,-9.079671,3.1137382984161377,-1.9956278,-0.07008237,0.1545494794845581,0.22211884
2479.2000000039566,0.1502001,-0.90515226,-0.19817983,-2.4704921,0.17869057,1.3582344,0.80052125,0.04,0.04,-9.061847,3.1512503623962402,-2.0178978,-0.07103555,0.15527363121509552,0.22241323
2479.2166666706235,0.1519798,-0.90658486,-0.20053084,-2.4718466,0.18080896,1.355711,0.80069345,0.04,0.04,-9.043867,3.188807964324951,-2.0401545,-0.07198356,0.15598352253437042,0.2226762
2479.2333333372903,0.15376224,-0.9080195,-0.20288546,-2.4732032,0.1829306,1.3531836,0.80086595,0.04,0.04,-9.02583,3.226428747177124,-2.062444,-0.07292498,0.15667276084423065,0.22291273
2479.250000003957,0.15554717,-0.90945613,-0.20524336,-2.4745612,0.18505518,1.350653,0.8010387,0.04,0.04,-9.0073395,3.264146566390991,-2.084601,-0.07386039,0.1573432832956314,0.22312339
2479.266666670624,0.15733445,-0.9108946,-0.20760429,-2.4759214,0.18718249,1.348119,0.8012116,0.04,0.04,-8.988592,3.3017578125,-2.1067393,-0.07478808,0.15799973905086517,0.22329864
2479.283333337291,0.15912378,-0.91233486,-0.20996797,-2.4772828,0.18931226,1.3455821,0.8013849,0.04,0.04,-8.969676,3.339427947998047,-2.1288333,-0.075708225,0.15863695740699768,0.22344178
2479.300000003958,0.16091497,-0.91377676,-0.21233407,-2.4786456,0.19144426,1.3430425,0.8015583,0.04,0.04,-8.950537,3.3770689964294434,-2.1508915,-0.07662037,0.1592586487531662,0.22355361
2479.3166666706247,0.16270782,-0.9152198,-0.21470232,-2.4800096,0.19357823,1.3405006,0.8017319,0.04,0.04,-8.93105,3.414780855178833,-2.172784,-0.07752389,0.1598616987466812,0.22363248
2479.3333333372916,0.16450207,-0.91666436,-0.21707246,-2.4813743,0.19571385,1.3379568,0.8019056,0.04,0.04,-8.911413,3.452481746673584,-2.194696,-0.07841852,0.1604454666376114,0.22368225
2479.3500000039585,0.16629754,-0.9181096,-0.21944408,-2.4827402,0.19785091,1.3354111,0.8020793,0.04,0.04,-8.891415,3.490131139755249,-2.2164605,-0.07930222,0.16101621091365814,0.22369975
2479.3666666706254,0.16809396,-0.91955554,-0.22181702,-2.4841073,0.19998915,1.3328639,0.8022532,0.04,0.04,-8.871431,3.527787446975708,-2.2383022,-0.080176935,0.16156317293643951,0.22368693
2479.3833333372922,0.1698912,-0.92100203,-0.2241909,-2.485475,0.20212828,1.3303158,0.8024272,0.04,0.04,-8.851077,3.5654876232147217,-2.2599015,-0.08104215,0.16208863258361816,0.22364242
2479.400000003959,0.171689,-0.92244923,-0.22656554,-2.4868429,0.20426802,1.3277671,0.80260116,0.04,0.04,-8.830468,3.603100538253784,-2.281479,-0.08189637,0.16259586811065674,0.22356634
2479.416666670626,0.1734871,-0.9238967,-0.22894056,-2.488211,0.20640814,1.325218,0.8027752,0.04,0.04,-8.809613,3.640699863433838,-2.302943,-0.08273847,0.1630859375,0.22345835
2479.433333337293,0.17528525,-0.92534405,-0.23131566,-2.4895794,0.20854835,1.3226684,0.8029492,0.04,0.04,-8.788622,3.678239583969116,-2.3244147,-0.0835694,0.16355666518211365,0.22332066
2479.4500000039598,0.17708328,-0.92679155,-0.2336906,-2.4909477,0.21068843,1.3201194,0.8031232,0.04,0.04,-8.767391,3.715811014175415,-2.3456337,-0.084388964,0.16400301456451416,0.22315107
2479.4666666706266,0.178881,-0.92823875,-0.23606506,-2.4923155,0.21282808,1.3175707,0.8032971,0.04,0.04,-8.745839,3.7532896995544434,-2.366798,-0.0851953,0.16443386673927307,0.22295117
2479.4833333372935,0.18067813,-0.9296853,-0.23843874,-2.4936829,0.21496707,1.3150227,0.803471,0.04,0.04,-8.724195,3.7906816005706787,-2.3879704,-0.08598831,0.1648430973291397,0.22271988
2479.5000000039604,0.1824745,-0.9311315,-0.24081136,-2.49505,0.21710512,1.3124757,0.8036449,0.04,0.04,-8.702242,3.828082799911499,-2.4088476,-0.08676918,0.16523177921772003,0.22245604
2479.5166666706273,0.18426983,-0.9325767,-0.24318264,-2.4964156,0.21924193,1.3099303,0.8038186,0.04,0.04,-8.680178,3.8654119968414307,-2.429679,-0.08753609,0.16559748351573944,0.22216204
2479.533333337294,0.18606396,-0.9340209,-0.24555227,-2.4977806,0.22137725,1.3073869,0.80399215,0.04,0.04,-8.657788,3.9026613235473633,-2.450409,-0.0882883,0.16594572365283966,0.22183983
2479.550000003961,0.18785664,-0.93546414,-0.24791998,-2.4991443,0.22351086,1.3048453,0.8041656,0.04,0.04,-8.635295,3.9398107528686523,-2.4711292,-0.08902581,0.1662730723619461,0.22148857
2479.566666670628,0.18964769,-0.936906,-0.25028545,-2.5005074,0.2256425,1.3023062,0.80433893,0.04,0.04,-8.612555,3.976933479309082,-2.4914777,-0.089748845,0.16657879948616028,0.22110441
2479.583333337295,0.1914368,-0.93834627,-0.25264838,-2.5018687,0.22777191,1.2997695,0.80451196,0.04,0.04,-8.589719,4.013974666595459,-2.5118415,-0.09045689,0.16686032712459564,0.22069193
2479.6000000039617,0.19322382,-0.93978494,-0.25500858,-2.5032282,0.22989877,1.2972358,0.8046849,0.04,0.04,-8.566595,4.05088472366333,-2.5320423,-0.091149,0.16712039709091187,0.2202458
2479.6166666706285,0.19500853,-0.9412217,-0.25736555,-2.5045862,0.23202284,1.2947057,0.80485755,0.04,0.04,-8.543266,4.08770227432251,-2.5522165,-0.091825336,0.1673600673675537,0.21977252
2479.6333333372954,0.1967907,-0.9426565,-0.2597192,-2.5059416,0.23414388,1.2921795,0.8050301,0.04,0.04,-8.519864,4.124485015869141,-2.5720441,-0.092485294,0.16757629811763763,0.21927121
2479.6500000039623,0.19857015,-0.944089,-0.2620692,-2.5072954,0.23626164,1.289657,0.8052023,0.04,0.04,-8.496103,4.16109561920166,-2.5917952,-0.09312835,0.16777588427066803,0.21873954
2479.666666670629,0.20034665,-0.94551903,-0.26441517,-2.5086472,0.23837583,1.2871387,0.8053742,0.04,0.04,-8.472365,4.197634220123291,-2.6114457,-0.09375473,0.16794927418231964,0.2181771
2479.683333337296,0.20211992,-0.94694656,-0.26675698,-2.5099962,0.24048623,1.2846249,0.80554587,0.04,0.04,-8.448413,4.234043121337891,-2.6310637,-0.09436413,0.16809774935245514,0.21758841
2479.700000003963,0.20388974,-0.94837147,-0.26909423,-2.511343,0.24259256,1.2821159,0.80571723,0.04,0.04,-8.42423,4.2703537940979,-2.6502423,-0.094955504,0.16822558641433716,0.21696883
2479.71666667063,0.20565599,-0.94979304,-0.27142674,-2.5126867,0.24469456,1.279612,0.80588824,0.04,0.04,-8.399988,4.306561470031738,-2.6694033,-0.09552997,0.16832813620567322,0.2163225
2479.7333333372967,0.20741838,-0.9512117,-0.27375406,-2.5140276,0.24679193,1.2771136,0.8060587,0.04,0.04,-8.375482,4.342571258544922,-2.6885595,-0.09608643,0.16840603947639465,0.21564622
2479.7500000039636,0.20917672,-0.9526274,-0.2760761,-2.5153656,0.24888454,1.2746209,0.8062288,0.04,0.04,-8.350874,4.378500938415527,-2.7072575,-0.096623324,0.16846300661563873,0.2149425
2479.7666666706305,0.21093082,-0.95403993,-0.27839252,-2.5167,0.25097203,1.2721342,0.8063985,0.04,0.04,-8.326176,4.414298057556152,-2.7259011,-0.09714099,0.16849501430988312,0.21421026
2479.7833333372973,0.21268043,-0.95544887,-0.2807029,-2.5180311,0.25305414,1.269654,0.80656785,0.04,0.04,-8.301211,4.4499101638793945,-2.7443593,-0.09763869,0.16850684583187103,0.21345001
2479.800000003964,0.21442533,-0.9568533,-0.28300706,-2.5193586,0.25513065,1.2671804,0.80673665,0.04,0.04,-8.27616,4.4853835105896,-2.76283,-0.0981173,0.16849464178085327,0.21266499
2479.816666670631,0.21616529,-0.9582538,-0.2853047,-2.5206823,0.2572013,1.264714,0.806905,0.04,0.04,-8.251098,4.5207438468933105,-2.7808902,-0.09857781,0.16845425963401794,0.21184953
2479.833333337298,0.2179002,-0.9596505,-0.2875956,-2.5220022,0.2592659,1.2622546,0.807073,0.04,0.04,-8.2258,4.555942058563232,-2.798844,-0.09901805,0.16839174926280975,0.21101063
2479.850000003965,0.21962975,-0.96104324,-0.28987935,-2.5233176,0.26132417,1.2598029,0.80724037,0.04,0.04,-8.20039,4.590940952301025,-2.816611,-0.09943829,0.16830579936504364,0.21014275
2479.8666666706317,0.22135375,-0.96243113,-0.29215592,-2.524629,0.26337576,1.257359,0.8074071,0.04,0.04,-8.174789,4.625737190246582,-2.83432,-0.0998365,0.16819852590560913,0.20924832
2479.8833333372986,0.22307204,-0.96381426,-0.2944248,-2.5259366,0.26542056,1.2549233,0.8075733,0.04,0.04,-8.14929,4.660496711730957,-2.8516111,-0.100214966,0.16806291043758392,0.20832907
2479.9000000039655,0.22478437,-0.9651929,-0.29668579,-2.5272396,0.26745817,1.2524958,0.807739,0.04,0.04,-8.123603,4.695003986358643,-2.8688617,-0.10057336,0.16790159046649933,0.20738314
2479.9166666706324,0.22649057,-0.9665665,-0.29893854,-2.528538,0.2694886,1.2500771,0.8079041,0.04,0.04,-8.097812,4.729349136352539,-2.8858633,-0.10091062,0.16771456599235535,0.20641418
2479.9333333372992,0.22819048,-0.96793497,-0.30118293,-2.5298307,0.2715114,1.2476677,0.8080685,0.04,0.04,-8.071841,4.763435363769531,-2.9028773,-0.1012268,0.16750328242778778,0.2054173
2479.950000003966,0.22988378,-0.96929806,-0.3034187,-2.5311193,0.2735264,1.2452675,0.8082323,0.04,0.04,-8.045842,4.797436714172363,-2.9193516,-0.101520024,0.16727140545845032,0.20439954
2479.966666670633,0.23157029,-0.9706558,-0.3056455,-2.5324032,0.27553335,1.2428769,0.80839545,0.04,0.04,-8.019887,4.831220626831055,-2.9358304,-0.10179329,0.16701021790504456,0.20335296
2479.9833333373,0.23324984,-0.97200805,-0.30786306,-2.5336804,0.27753198,1.240496,0.808558,0.04,0.04,-7.993725,4.864798069000244,-2.952251,-0.102045625,0.16672146320343018,0.20228526
2480.0000000039668,0.23492223,-0.9733546,-0.31007123,-2.5349529,0.27952218,1.2381254,0.8087199,0.04,0.04,-7.967422,4.8981428146362305,-2.9680781,-0.10227398,0.1664152443408966,0.20119333
2480.0166666706336,0.23658733,-0.9746952,-0.3122696,-2.5362196,0.28150356,1.2357653,0.808881,0.04,0.04,-7.9412694,4.931335926055908,-2.9839575,-0.10248184,0.16607989370822906,0.20007396
2480.0333333373005,0.23824486,-0.97602975,-0.314458,-2.5374813,0.283476,1.2334157,0.80904144,0.04,0.04,-7.9149303,4.964311599731445,-2.9995968,-0.1026664,0.1657208353281021,0.19893464
2480.0500000039674,0.23989464,-0.97735804,-0.3166362,-2.5387368,0.28543925,1.2310772,0.80920106,0.04,0.04,-7.888533,4.9970574378967285,-3.0152247,-0.1028301,0.1653331220149994,0.19777183
2480.0666666706343,0.24153651,-0.97867996,-0.3188039,-2.5399861,0.28739303,1.22875,0.80935997,0.04,0.04,-7.8622265,5.0296502113342285,-3.030304,-0.102971226,0.1649206429719925,0.19658679
2480.083333337301,0.24317025,-0.9799953,-0.32096082,-2.541229,0.2893371,1.2264342,0.80951804,0.04,0.04,-7.8357453,5.061956882476807,-3.0453198,-0.10308919,0.16448456048965454,0.19537972
2480.100000003968,0.24479568,-0.9813039,-0.3231067,-2.5424657,0.29127127,1.2241302,0.80967534,0.04,0.04,-7.809231,5.094037055969238,-3.0601418,-0.10318474,0.1640245020389557,0.19414894
2480.116666670635,0.24641259,-0.98260576,-0.32524142,-2.5436962,0.29319525,1.2218384,0.8098318,0.04,0.04,-7.7826815,5.12591028213501,-3.0749388,-0.103257895,0.16353631019592285,0.19289891
2480.133333337302,0.24802083,-0.98390055,-0.3273646,-2.5449197,0.29510885,1.2195592,0.80998755,0.04,0.04,-7.756299,5.15761137008667,-3.0891929,-0.10330874,0.16302315890789032,0.19162615
2480.1500000039687,0.24962021,-0.98518836,-0.32947597,-2.5461364,0.2970119,1.2172921,0.8101422,0.04,0.04,-7.7297144,5.189014911651611,-3.1033828,-0.103336774,0.16248786449432373,0.19033374
2480.1666666706355,0.25121045,-0.9864689,-0.33157542,-2.547346,0.29890415,1.2150381,0.8102961,0.04,0.04,-7.703212,5.2201995849609375,-3.117352,-0.10334077,0.16192524135112762,0.18902107
2480.1833333373024,0.2527915,-0.987742,-0.33366266,-2.5485487,0.3007853,1.2127966,0.8104491,0.04,0.04,-7.676526,5.251117706298828,-3.1313038,-0.10332221,0.1613398641347885,0.1876887
2480.2000000039693,0.25436315,-0.9890074,-0.3357375,-2.5497444,0.30265546,1.2105689,0.81060123,0.04,0.04,-7.6501637,5.281891822814941,-3.1446977,-0.10328157,0.16072574257850647,0.18633941
2480.216666670636,0.25592524,-0.99026513,-0.33779958,-2.550933,0.30451423,1.2083546,0.81075233,0.04,0.04,-7.6236486,5.312340259552002,-3.158082,-0.10321802,0.16008776426315308,0.18496703
2480.233333337303,0.2574775,-0.99151504,-0.3398488,-2.552114,0.3063613,1.2061545,0.81090254,0.04,0.04,-7.597064,5.342452049255371,-3.1714025,-0.10313141,0.15942272543907166,0.18356642
2480.25000000397,0.25901988,-0.99275696,-0.34188476,-2.5532877,0.30819649,1.2039685,0.8110518,0.04,0.04,-7.570719,5.372544288635254,-3.1841605,-0.10302194,0.1587345004081726,0.18215714
2480.266666670637,0.26055214,-0.99399054,-0.3439074,-2.5544538,0.31001964,1.201797,0.8112001,0.04,0.04,-7.5443273,5.402246475219727,-3.196907,-0.10288989,0.15802019834518433,0.18072803
2480.2833333373037,0.26207414,-0.99521595,-0.34591648,-2.5556118,0.31183064,1.1996397,0.81134737,0.04,0.04,-7.517942,5.431735992431641,-3.209451,-0.10273617,0.15728095173835754,0.17928167
2480.3000000039706,0.26358566,-0.9964331,-0.34791172,-2.5567615,0.31362906,1.1974974,0.81149364,0.04,0.04,-7.4914465,5.4608941078186035,-3.2219133,-0.102558844,0.15651583671569824,0.17781709
2480.3166666706375,0.2650865,-0.9976415,-0.34989288,-2.5579033,0.31541488,1.1953703,0.8116389,0.04,0.04,-7.465249,5.489859104156494,-3.2338138,-0.10235849,0.15572898089885712,0.17633577
2480.3333333373043,0.2665766,-0.9988414,-0.35185978,-2.5590367,0.31718782,1.1932584,0.81178296,0.04,0.04,-7.4390297,5.518579959869385,-3.2457178,-0.1021364,0.1549176424741745,0.17484018
2480.350000003971,0.2680557,-1.0000325,-0.35381225,-2.5601623,0.3189478,1.1911621,0.81192607,0.04,0.04,-7.4128466,5.546969413757324,-3.257371,-0.10189026,0.15408210456371307,0.17332654
2480.366666670638,0.26952392,-1.0012146,-0.35575,-2.561279,0.32069457,1.1890813,0.8120681,0.04,0.04,-7.3866353,5.575148105621338,-3.269053,-0.10162267,0.15322111546993256,0.17180148
2480.383333337305,0.27098075,-1.0023876,-0.357673,-2.5623872,0.322428,1.1870166,0.81220907,0.04,0.04,-7.360739,5.603023529052734,-3.2801142,-0.10133219,0.15233588218688965,0.1702579
2480.400000003972,0.27242613,-1.0035514,-0.3595808,-2.5634868,0.32414773,1.184968,0.81234884,0.04,0.04,-7.3347883,5.6306328773498535,-3.2911737,-0.10102032,0.15142680704593658,0.16869636
2480.4166666706387,0.27386004,-1.0047059,-0.36147332,-2.564577,0.32585368,1.1829362,0.8124876,0.04,0.04,-7.3089366,5.657981872558594,-3.3020372,-0.100686446,0.150493785738945,0.16712122
2480.4333333373056,0.2752821,-1.0058511,-0.36335042,-2.5656593,0.3275458,1.1809205,0.8126251,0.04,0.04,-7.282984,5.684999465942383,-3.3128686,-0.1003301,0.14954008162021637,0.1655333
2480.4500000039725,0.27669248,-1.0069871,-0.36521178,-2.5667317,0.32922378,1.1789218,0.81276166,0.04,0.04,-7.2575727,5.711864948272705,-3.3231196,-0.09995248,0.14855726063251495,0.1639309
2480.4666666706394,0.27809075,-1.0081129,-0.36705726,-2.5677958,0.33088747,1.1769401,0.812897,0.04,0.04,-7.2319098,5.73831033706665,-3.333314,-0.099551566,0.14755746722221375,0.16231383
2480.4833333373062,0.2794769,-1.0092292,-0.3688868,-2.5688496,0.33253676,1.1749755,0.8130311,0.04,0.04,-7.2063966,5.7645583152771,-3.3436093,-0.09913233,0.1465291678905487,0.16068356
2480.500000003973,0.2808508,-1.0103356,-0.3707001,-2.5698953,0.33417138,1.1730283,0.81316406,0.04,0.04,-7.1811485,5.790490627288818,-3.3532002,-0.0986885,0.14548198878765106,0.15903957
2480.51666667064,0.28221232,-1.0114319,-0.37249696,-2.5709312,0.3357912,1.1710988,0.8132957,0.04,0.04,-7.156091,5.816228866577148,-3.362901,-0.09822705,0.1444060057401657,0.15738437
2480.533333337307,0.28356123,-1.012518,-0.3742773,-2.571957,0.3373961,1.169187,0.81342626,0.04,0.04,-7.130954,5.841568946838379,-3.3723276,-0.097742766,0.14331066608428955,0.15571578
2480.5500000039738,0.2848975,-1.013594,-0.37604088,-2.5729735,0.33898586,1.1672932,0.8135556,0.04,0.04,-7.1058083,5.866630554199219,-3.381763,-0.09723878,0.1421925276517868,0.15403593
2480.5666666706406,0.2862209,-1.01466,-0.37778756,-2.5739808,0.34056047,1.1654176,0.81368357,0.04,0.04,-7.0811796,5.891469955444336,-3.3906233,-0.09671377,0.14105424284934998,0.1523452
2480.5833333373075,0.28753155,-1.0157154,-0.37951705,-2.5749776,0.3421196,1.1635604,0.8138104,0.04,0.04,-7.056619,5.916027545928955,-3.3995025,-0.096168905,0.13989078998565674,0.15064278
2480.6000000039744,0.288829,-1.0167602,-0.3812294,-2.5759645,0.34366325,1.1617217,0.813936,0.04,0.04,-7.0320287,5.940202236175537,-3.4081643,-0.095602825,0.13870956003665924,0.1489313
2480.6166666706413,0.29011327,-1.0177946,-0.3829243,-2.5769417,0.3451912,1.1599016,0.8140602,0.04,0.04,-7.0075,5.964130401611328,-3.4168339,-0.0950179,0.13750749826431274,0.14721006
2480.633333337308,0.2913842,-1.0188181,-0.38460156,-2.5779088,0.34670338,1.1581004,0.8141832,0.04,0.04,-6.9835696,5.98782205581665,-3.424951,-0.09441359,0.13628146052360535,0.14547937
2480.650000003975,0.29264182,-1.0198308,-0.38626122,-2.5788653,0.34819946,1.1563183,0.8143049,0.04,0.04,-6.9595284,6.011175155639648,-3.433063,-0.09379024,0.1350359171628952,0.14373982
2480.666666670642,0.29388583,-1.0208327,-0.38790295,-2.579812,0.3496795,1.1545556,0.81442535,0.04,0.04,-6.9356556,6.034217357635498,-3.440997,-0.093148075,0.13377128541469574,0.14199108
2480.683333337309,0.2951163,-1.0218235,-0.3895267,-2.580748,0.3511434,1.1528119,0.8145443,0.04,0.04,-6.911859,6.056967258453369,-3.4489672,-0.0924886,0.13248522579669952,0.14023325
2480.7000000039757,0.29633304,-1.0228033,-0.39113244,-2.5816739,0.35259086,1.1510878,0.81466204,0.04,0.04,-6.8885193,6.07943868637085,-3.456328,-0.09180901,0.13118073344230652,0.13846712
2480.7166666706426,0.29753593,-1.023772,-0.39271972,-2.5825884,0.35402185,1.1493832,0.8147785,0.04,0.04,-6.865264,6.101634979248047,-3.4637318,-0.09111237,0.12985561788082123,0.13669251
2480.7333333373094,0.29872486,-1.0247294,-0.39428878,-2.583493,0.35543633,1.1476984,0.8148935,0.04,0.04,-6.841883,6.1234235763549805,-3.4711034,-0.09039691,0.12851478159427643,0.13491246
2480.7500000039763,0.29989973,-1.0256755,-0.39583936,-2.5843866,0.35683414,1.1460333,0.81500715,0.039999995,0.04,-6.819237,6.145077228546143,-3.4779973,-0.08966505,0.1271531730890274,0.1331239
2480.766666670643,0.3010606,-1.0266104,-0.39737108,-2.5852697,0.35821512,1.1443882,0.8151196,0.04,0.04,-6.7964945,6.1663408279418945,-3.4848454,-0.08891542,0.12577387690544128,0.13132861
2480.78333333731,0.30220726,-1.0275339,-0.39888418,-2.586142,0.35957918,1.1427635,0.8152306,0.039999977,0.04,-6.774032,6.187318325042725,-3.4915683,-0.08814998,0.12437594681978226,0.12952885
2480.800000003977,0.3033395,-1.028446,-0.40037835,-2.5870035,0.36092624,1.1411585,0.8153401,0.039999973,0.04,-6.751523,6.207964897155762,-3.4983041,-0.08736687,0.12296199053525925,0.12772283
2480.816666670644,0.3044575,-1.0293463,-0.4018536,-2.5878541,0.3622562,1.1395743,0.81544816,0.03999996,0.04,-6.7296743,6.228396892547607,-3.5044725,-0.08656799,0.12152883410453796,0.12591244
2480.8333333373107,0.30556092,-1.030235,-0.40330973,-2.5886936,0.36356893,1.1380104,0.81555516,0.039999954,0.04,-6.707808,6.24849271774292,-3.510717,-0.085752994,0.12008050084114075,0.12409786
2480.8500000039776,0.3066498,-1.0311121,-0.40474662,-2.5895216,0.36486435,1.1364676,0.8156606,0.03999994,0.04,-6.686176,6.268287181854248,-3.5167818,-0.08492517,0.11861498653888702,0.12227955
2480.8666666706445,0.30772418,-1.0319774,-0.40616432,-2.5903394,0.3661424,1.1349452,0.81576455,0.039999932,0.04,-6.6645093,6.287689208984375,-3.5228686,-0.084080145,0.11713875830173492,0.120455965
2480.8833333373113,0.3087839,-1.032831,-0.40756258,-2.5911455,0.367403,1.1334425,0.81586695,0.03999993,0.04,-6.643622,6.306962013244629,-3.528458,-0.083221756,0.11564271152019501,0.11862896
2480.900000003978,0.30982894,-1.0336726,-0.4089414,-2.5919406,0.36864606,1.1319628,0.81596816,0.039999917,0.04,-6.622675,6.32581901550293,-3.5340216,-0.082347825,0.11412813514471054,0.11679851
2480.916666670645,0.31085914,-1.0345025,-0.41030073,-2.592724,0.3698716,1.1305026,0.8160678,0.03999991,0.04,-6.6019335,6.344414710998535,-3.539542,-0.08146123,0.11260878294706345,0.114966
2480.933333337312,0.3118745,-1.0353203,-0.41164044,-2.5934966,0.37107947,1.1290642,0.816166,0.03999989,0.04,-6.581263,6.362652778625488,-3.5449722,-0.08055962,0.11107073724269867,0.11313021
2480.950000003979,0.31287497,-1.036126,-0.4129605,-2.5942574,0.37226954,1.1276462,0.8162627,0.039999884,0.04,-6.561265,6.380687713623047,-3.5499825,-0.07964544,0.10952132195234299,0.111292064
2480.9666666706457,0.31386045,-1.03692,-0.41426077,-2.595007,0.37344173,1.1262498,0.816358,0.039999884,0.04,-6.5412917,6.39838981628418,-3.5549834,-0.07871883,0.10795685648918152,0.10945399
2480.9833333373126,0.314831,-1.0377018,-0.41554132,-2.5957453,0.37459603,1.1248748,0.81645185,0.03999988,0.04,-6.5213833,6.415764331817627,-3.560067,-0.07778026,0.10638154298067093,0.10761526
2481.0000000039795,0.31578642,-1.0384713,-0.41680202,-2.596472,0.37573254,1.123521,0.8165443,0.039999865,0.04,-6.5021386,6.432910919189453,-3.5646276,-0.07682972,0.1047951728105545,0.10577623
2481.0166666706464,0.3167268,-1.0392287,-0.4180428,-2.5971878,0.3768511,1.1221886,0.8166352,0.039999858,0.04,-6.4829025,6.449698448181152,-3.5692372,-0.0758685,0.10319726914167404,0.103935406
2481.0333333373133,0.31765217,-1.0399739,-0.4192636,-2.5978916,0.3779517,1.1208775,0.8167246,0.03999984,0.04,-6.4640217,6.466267108917236,-3.573765,-0.07489699,0.10158680379390717,0.10209798
2481.05000000398,0.3185624,-1.0407071,-0.4204644,-2.5985842,0.37903437,1.1195878,0.81681263,0.039999828,0.04,-6.445115,6.482409477233887,-3.578295,-0.07391426,0.09996622800827026,0.100260496
2481.066666670647,0.3194573,-1.041428,-0.42164537,-2.5992646,0.3800989,1.1183196,0.8168994,0.03999982,0.04,-6.426934,6.498360633850098,-3.5823367,-0.072921686,0.09833527356386185,0.09842182
2481.083333337314,0.32033715,-1.0421365,-0.42280614,-2.5999336,0.38114542,1.1170728,0.8169845,0.03999981,0.04,-6.408712,6.513984680175781,-3.5864244,-0.07192044,0.09669896215200424,0.09658395
2481.1000000039808,0.32120174,-1.0428332,-0.4239469,-2.6005912,0.38217378,1.1158477,0.81706804,0.0399998,0.04,-6.390858,6.529314994812012,-3.5904186,-0.070908695,0.09505197405815125,0.09474959
2481.1166666706476,0.32205105,-1.0435171,-0.4250675,-2.6012373,0.3831841,1.1146442,0.8171501,0.039999794,0.04,-6.373068,6.544342041015625,-3.5944788,-0.06988849,0.09339788556098938,0.0929175
2481.1333333373145,0.32288516,-1.0441892,-0.42616805,-2.601872,0.38417628,1.1134623,0.81723076,0.03999979,0.04,-6.3559766,6.559149265289307,-3.5980856,-0.068861604,0.09173497557640076,0.09108774
2481.1500000039814,0.32370412,-1.0448494,-0.4272485,-2.6024952,0.3851503,1.112302,0.8173101,0.039999783,0.04,-6.3389225,6.573608875274658,-3.6017013,-0.06782598,0.09006638824939728,0.08926164
2481.1666666706483,0.32450783,-1.0454968,-0.42830878,-2.6031065,0.38610613,1.1111633,0.8173878,0.039999776,0.04,-6.322172,6.587779521942139,-3.605207,-0.06678237,0.0883917585015297,0.0874386
2481.183333337315,0.3252963,-1.046132,-0.42934904,-2.6037064,0.387044,1.110046,0.81746393,0.03999977,0.04,-6.305456,6.60164737701416,-3.6088543,-0.06573376,0.08671123534440994,0.0856209
2481.200000003982,0.3260695,-1.046755,-0.43036917,-2.6042943,0.38796368,1.1089505,0.81753886,0.03999976,0.04,-6.289478,6.615283966064453,-3.6119823,-0.06467779,0.08502497524023056,0.08380615
2481.216666670649,0.3268275,-1.0473655,-0.4313692,-2.604871,0.38886532,1.1078764,0.8176121,0.039999757,0.04,-6.2735143,6.628599166870117,-3.615192,-0.06361686,0.0833372250199318,0.081997596
2481.233333337316,0.32757017,-1.047964,-0.43234915,-2.605436,0.38974884,1.1068238,0.81768394,0.039999742,0.04,-6.2577076,6.641624450683594,-3.6185064,-0.062551014,0.0816429853439331,0.080194555
2481.2500000039827,0.3282978,-1.0485502,-0.4333091,-2.6059897,0.39061433,1.1057928,0.81775427,0.039999742,0.04,-6.242567,6.654421329498291,-3.6213372,-0.06148089,0.07994577288627625,0.07839743
2481.2666666706496,0.32901025,-1.0491242,-0.43424916,-2.6065316,0.39146185,1.1047834,0.8178231,0.03999973,0.04,-6.227497,6.666910648345947,-3.624261,-0.060405605,0.0782473012804985,0.07660814
2481.2833333373164,0.32970762,-1.0496861,-0.43516913,-2.6070619,0.39229128,1.1037953,0.81789064,0.039999716,0.04,-6.2126966,6.6790995597839355,-3.627098,-0.05932675,0.0765482485294342,0.07482414
2481.3000000039833,0.33038995,-1.0502357,-0.43606925,-2.6075811,0.39310277,1.1028286,0.8179566,0.039999712,0.04,-6.198019,6.6909661293029785,-3.6300018,-0.058245625,0.07484666258096695,0.073046505
2481.31666667065,0.33105713,-1.0507735,-0.43694952,-2.6080887,0.3938964,1.1018832,0.81802106,0.0399997,0.04,-6.1840777,6.702669143676758,-3.632506,-0.0571622,0.0731433629989624,0.07127643
2481.333333337317,0.3317093,-1.051299,-0.43780997,-2.6085851,0.39467198,1.1009592,0.8180842,0.03999969,0.04,-6.170128,6.714027404785156,-3.6350389,-0.056075025,0.07144266366958618,0.06951432
2481.350000003984,0.33234662,-1.0518123,-0.43865067,-2.60907,0.39542997,1.1000562,0.8181459,0.039999694,0.04,-6.15654,6.725159645080566,-3.6375556,-0.05498904,0.06974147260189056,0.067761965
2481.366666670651,0.33296895,-1.0523136,-0.43947163,-2.609543,0.39617017,1.0991743,0.818206,0.039999686,0.04,-6.143012,6.73593807220459,-3.6401343,-0.053901065,0.06804077327251434,0.0660181
2481.3833333373177,0.33357644,-1.0528033,-0.44027314,-2.6100054,0.3968927,1.0983135,0.8182647,0.039999682,0.04,-6.130154,6.746523380279541,-3.642261,-0.052812524,0.066343292593956,0.06428416
2481.4000000039846,0.33416924,-1.0532812,-0.4410551,-2.610456,0.39759767,1.0974737,0.8183221,0.039999675,0.04,-6.1174273,6.756843090057373,-3.6444938,-0.051723234,0.06464985758066177,0.06256049
2481.4166666706515,0.33474723,-1.053747,-0.4418176,-2.6108959,0.39828512,1.0966547,0.8183781,0.03999967,0.04,-6.1049166,6.766839504241943,-3.6466305,-0.05063346,0.0629630759358406,0.060847048
2481.4333333373183,0.3353107,-1.054201,-0.4425608,-2.611324,0.39895523,1.0958563,0.8184325,0.039999668,0.04,-6.0926228,6.776611804962158,-3.6489305,-0.049547065,0.06127704679965973,0.059144583
2481.450000003985,0.3358595,-1.0546434,-0.44328475,-2.6117423,0.39960802,1.0950786,0.8184855,0.03999966,0.04,-6.080904,6.786121368408203,-3.6507576,-0.04846008,0.059597376734018326,0.057454243
2481.466666670652,0.33639386,-1.0550741,-0.4439897,-2.6121485,0.40024352,1.0943216,0.81853724,0.039999664,0.04,-6.0694256,6.795434474945068,-3.6527648,-0.04737788,0.05791929364204407,0.055774514
2481.483333337319,0.3369138,-1.0554932,-0.44467565,-2.6125443,0.4008619,1.0935845,0.81858766,0.039999656,0.04,-6.0578136,6.804357528686523,-3.6547685,-0.04629717,0.05625327304005623,0.05410849
2481.500000003986,0.33741936,-1.0559008,-0.44534275,-2.6129286,0.40146327,1.0928681,0.8186365,0.039999653,0.04,-6.0470705,6.81317138671875,-3.6564467,-0.045220938,0.054590389132499695,0.05245492
2481.5166666706527,0.33791077,-1.0562971,-0.44599107,-2.6133027,0.40204784,1.092172,0.818684,0.039999653,0.04,-6.03627,6.821619987487793,-3.658183,-0.044147238,0.05293956398963928,0.050813902
2481.5333333373196,0.33838817,-1.0566816,-0.44662067,-2.6136656,0.40261564,1.0914955,0.8187302,0.039999653,0.04,-6.0258923,6.829903602600098,-3.6599104,-0.043078374,0.05129668861627579,0.04918804
2481.5500000039865,0.33885154,-1.0570549,-0.44723183,-2.6140182,0.4031667,1.0908391,0.81877506,0.039999645,0.04,-6.015492,6.837828636169434,-3.6616871,-0.042014644,0.049662668257951736,0.047576558
2481.5666666706534,0.33930108,-1.0574169,-0.4478248,-2.6143596,0.40370122,1.0902023,0.8188184,0.039999645,0.04,-6.005865,6.8456597328186035,-3.6631505,-0.040958345,0.04803740233182907,0.045980155
2481.5833333373203,0.3397368,-1.0577681,-0.4483996,-2.6146908,0.40421942,1.0895848,0.8188605,0.039999627,0.04,-5.996195,6.853139877319336,-3.6646328,-0.03990581,0.04642608389258385,0.044399723
2481.600000003987,0.3401589,-1.0581086,-0.4489564,-2.6150126,0.40472138,1.088987,0.8189013,0.039999627,0.04,-5.9868946,6.8604326248168945,-3.6660888,-0.038860008,0.04482598230242729,0.04283595
2481.616666670654,0.34056744,-1.0584383,-0.44949535,-2.6153228,0.40520734,1.0884082,0.8189409,0.03999962,0.04,-5.977749,6.867458343505859,-3.6676915,-0.03782273,0.04323633015155792,0.041286275
2481.633333337321,0.34096262,-1.058757,-0.45001665,-2.6156235,0.40567735,1.0878482,0.81897897,0.039999615,0.04,-5.9690385,6.874237060546875,-3.668837,-0.036790963,0.041666366159915924,0.039754935
2481.6500000039878,0.3413446,-1.0590649,-0.45052055,-2.6159139,0.40613163,1.0873071,0.81901604,0.039999608,0.04,-5.9606185,6.880852222442627,-3.6701818,-0.03576841,0.040105585008859634,0.03824132
2481.6666666706546,0.3417135,-1.0593622,-0.4510072,-2.6161942,0.4065703,1.0867845,0.81905174,0.039999608,0.04,-5.9523783,6.887197494506836,-3.6714673,-0.034756586,0.03856063634157181,0.036744587
2481.6833333373215,0.34206945,-1.0596491,-0.45147678,-2.6164649,0.40699354,1.0862801,0.8190859,0.03999961,0.04,-5.9442167,6.893280506134033,-3.6728225,-0.03375373,0.03703221678733826,0.03526699
2481.7000000039884,0.3424125,-1.0599257,-0.45192957,-2.6167254,0.40740147,1.085794,0.81911933,0.039999604,0.04,-5.936736,6.899242877960205,-3.6738672,-0.03276011,0.035518065094947815,0.033810068
2481.7166666706553,0.34274307,-1.0601923,-0.4523656,-2.6169767,0.4077946,1.0853256,0.8191512,0.0399996,0.04,-5.929231,6.904898643493652,-3.6749804,-0.031779066,0.034025341272354126,0.03237173
2481.733333337322,0.3430611,-1.0604486,-0.45278522,-2.6172192,0.40817294,1.084875,0.81918186,0.0399996,0.04,-5.9219522,6.9103593826293945,-3.676221,-0.03080791,0.032547447830438614,0.030953944
2481.750000003989,0.3433669,-1.0606953,-0.45318866,-2.617452,0.40853664,1.0844418,0.8192117,0.0399996,0.04,-5.915246,6.915663242340088,-3.6771805,-0.029849812,0.031086662784218788,0.029555881
2481.766666670656,0.34366065,-1.0609323,-0.45357612,-2.6176748,0.408886,1.0840256,0.81923985,0.039999597,0.04,-5.908532,6.920689582824707,-3.6781626,-0.028904818,0.02964741736650467,0.028179778
2481.783333337323,0.34394243,-1.0611595,-0.4539479,-2.617889,0.40922117,1.0836265,0.81926745,0.039999597,0.04,-5.902052,6.925516128540039,-3.6791046,-0.027968485,0.028231818228960037,0.026827997
2481.8000000039897,0.34421256,-1.0613774,-0.45430428,-2.6180942,0.40954244,1.0832437,0.81929356,0.039999593,0.04,-5.895748,6.930152416229248,-3.6801972,-0.027050307,0.026835696771740913,0.025497442
2481.8166666706566,0.34447116,-1.0615859,-0.4546454,-2.6182911,0.4098499,1.0828776,0.8193183,0.039999593,0.04,-5.889975,6.934615135192871,-3.6809645,-0.026143845,0.025461377575993538,0.024189362
2481.8333333373234,0.34471843,-1.0617853,-0.45497155,-2.6184788,0.4101439,1.0825273,0.8193423,0.039999586,0.04,-5.884315,6.938891887664795,-3.6818724,-0.025252113,0.02410919964313507,0.022905992
2481.8500000039903,0.34495452,-1.061976,-0.4552831,-2.6186585,0.41042477,1.0821927,0.8193647,0.03999959,0.04,-5.878803,6.942920207977295,-3.6826718,-0.024376703,0.02278161607682705,0.021646708
2481.866666670657,0.34517977,-1.0621575,-0.45558026,-2.6188297,0.4106926,1.0818737,0.8193867,0.039999582,0.04,-5.873442,6.946799278259277,-3.6835988,-0.023514543,0.02147785760462284,0.02041382
2481.883333337324,0.34539434,-1.0623308,-0.4558633,-2.618993,0.41094786,1.0815699,0.8194071,0.039999586,0.04,-5.868578,6.9505109786987305,-3.6842926,-0.022672974,0.020199619233608246,0.019205974
2481.900000003991,0.34559843,-1.0624957,-0.4561326,-2.6191487,0.4111905,1.081281,0.8194272,0.039999586,0.04,-5.863778,6.954010486602783,-3.685007,-0.021843815,0.01894962415099144,0.018025154
2481.916666670658,0.34579232,-1.0626521,-0.45638847,-2.6192966,0.41142112,1.0810062,0.81944567,0.039999582,0.04,-5.8592534,6.9573774337768555,-3.6857696,-0.021037953,0.017723524942994118,0.016869925
2481.9333333373247,0.3459763,-1.0628003,-0.45663103,-2.6194367,0.41163987,1.0807455,0.81946385,0.039999582,0.04,-5.854721,6.960510730743408,-3.6865509,-0.020246638,0.0165250226855278,0.015742676
2481.9500000039916,0.3461505,-1.0629407,-0.45686093,-2.6195693,0.41184708,1.0804985,0.8194804,0.039999582,0.04,-5.8507204,6.963527202606201,-3.6871574,-0.01947795,0.015353547409176826,0.014644194
2481.9666666706585,0.34631526,-1.0630736,-0.45707834,-2.6196942,0.41204306,1.0802653,0.81949663,0.039999586,0.04,-5.8467336,6.966366291046143,-3.6877856,-0.018725267,0.01421226654201746,0.013573936
2481.9833333373253,0.34647074,-1.063199,-0.45728365,-2.6198118,0.41222805,1.0800447,0.8195114,0.039999586,0.04,-5.8427672,6.968978404998779,-3.688481,-0.01799323,0.013106320984661579,0.0125330845
2482.000000003992,0.34661734,-1.0633172,-0.457477,-2.6199217,0.4124023,1.0798373,0.8195257,0.03999958,0.04,-5.839316,6.971538543701172,-3.6889665,-0.017279344,0.012030239216983318,0.011523449
2482.016666670659,0.3467553,-1.0634283,-0.45765892,-2.6200247,0.41256627,1.079642,0.81953865,0.03999958,0.04,-5.8358307,6.973855018615723,-3.6895156,-0.01658705,0.010991771705448627,0.010545735
2482.033333337326,0.34688488,-1.0635334,-0.45782977,-2.620126,0.4127202,1.0794585,0.8195511,0.039999582,0.04,-5.8325872,6.976067066192627,-3.6900434,-0.015913328,0.009987245313823223,0.009600104
2482.050000003993,0.3470063,-1.0636315,-0.45798993,-2.6202197,0.41286457,1.0792863,0.8195633,0.03999958,0.04,-5.8299065,6.978338718414307,-3.6908338,-0.015268705,0.008996684104204178,0.008683395
2482.0666666706597,0.34711987,-1.0637231,-0.45813978,-2.6203058,0.4129996,1.0791253,0.81957394,0.03999958,0.04,-5.8269763,6.980245590209961,-3.6912417,-0.01464798,0.008046147413551807,0.007800197
2482.0833333373266,0.34722587,-1.0638092,-0.4582796,-2.620385,0.4131256,1.078975,0.81958437,0.039999574,0.04,-5.8241215,6.982009410858154,-3.6917055,-0.014045245,0.007136567495763302,0.006951885
2482.1000000039935,0.3473246,-1.063889,-0.4584099,-2.6204622,0.4132431,1.0788351,0.81959414,0.03999958,0.04,-5.8214493,6.983637809753418,-3.6920974,-0.013465321,0.006270043086260557,0.0061394586
2482.1166666706604,0.34741643,-1.0639632,-0.45853114,-2.620533,0.4133523,1.0787048,0.81960285,0.03999958,0.04,-5.819256,6.9853515625,-3.692837,-0.012916512,0.00542654562741518,0.0053586233
2482.1333333373273,0.34750172,-1.0640322,-0.45864362,-2.6205964,0.4134537,1.0785841,0.8196113,0.03999958,0.04,-5.8169847,6.986804962158203,-3.6932025,-0.012390134,0.004623717628419399,0.0046148887
2482.150000003994,0.34758067,-1.0640963,-0.45874786,-2.6206577,0.4135476,1.0784721,0.81961906,0.039999574,0.04,-5.814618,6.988028049468994,-3.6935234,-0.01188622,0.0038711971137672663,0.0039094347
2482.166666670661,0.34765372,-1.0641551,-0.45884416,-2.6207132,0.41363445,1.0783689,0.81962585,0.039999574,0.04,-5.812859,6.989402770996094,-3.6940713,-0.011411822,0.0031473832204937935,0.0032396088
2482.183333337328,0.3477212,-1.0642092,-0.45893303,-2.6207628,0.41371462,1.0782737,0.8196325,0.03999958,0.04,-5.8107677,6.990471363067627,-3.6945438,-0.010962296,0.002468948718160391,0.002608023
2482.200000003995,0.3477833,-1.0642594,-0.45901495,-2.6208107,0.41378847,1.0781859,0.8196389,0.03999958,0.04,-5.8089075,6.991464138031006,-3.6948433,-0.01053945,0.0018389743054285645,0.0020162784
2482.2166666706617,0.34784052,-1.0643057,-0.45909047,-2.6208532,0.41385645,1.0781051,0.8196441,0.03999958,0.04,-5.8074846,6.9925456047058105,-3.6953385,-0.010149068,0.0012417417019605637,0.0014635319
2482.2333333373285,0.34789318,-1.0643482,-0.45916003,-2.6208935,0.41391906,1.0780302,0.819649,0.03999958,0.04,-5.8056784,6.993339538574219,-3.6957047,-0.009781008,0.0006951323593966663,0.0009513428
2482.2500000039954,0.34794164,-1.0643872,-0.459224,-2.620931,0.41397667,1.0779616,0.8196537,0.03999958,0.04,-5.804393,6.994212627410889,-3.6960804,-0.009443873,0.000184260614332743,0.00047769412
2482.2666666706623,0.3479862,-1.0644232,-0.459283,-2.6209636,0.4140297,1.0778984,0.8196582,0.039999582,0.04,-5.80306,6.9949750900268555,-3.696489,-0.009135775,-0.0002870880125556141,4.236953e-05
2482.283333337329,0.3480272,-1.0644568,-0.4593372,-2.6209955,0.41407847,1.0778403,0.8196625,0.03999958,0.04,-5.801623,6.99558687210083,-3.6967232,-0.008849848,-0.0007125415140762925,-0.00035722821
2482.300000003996,0.348065,-1.0644877,-0.4593869,-2.6210241,0.4141233,1.0777869,0.819666,0.03999958,0.04,-5.8006067,6.996272087097168,-3.6971257,-0.008588653,-0.0011103337164968252,-0.0007260796
2482.316666670663,0.34809977,-1.0645156,-0.45943266,-2.6210492,0.4141644,1.0777378,0.81966907,0.03999958,0.04,-5.7995234,6.99681282043457,-3.6973445,-0.008345238,-0.0014735424192622304,-0.001063563
2482.33333333733,0.34813175,-1.0645418,-0.4594749,-2.6210737,0.4142024,1.0776925,0.8196719,0.03999958,0.04,-5.7984285,6.997310638427734,-3.6975791,-0.008120256,-0.0018036699621006846,-0.0013731136
2482.3500000039967,0.34816116,-1.0645655,-0.45951357,-2.621097,0.4142375,1.0776508,0.8196747,0.03999958,0.04,-5.797678,6.997861385345459,-3.6978362,-0.007913794,-0.002112525049597025,-0.0016599431
2482.3666666706636,0.34818825,-1.0645876,-0.45954928,-2.621117,0.41426975,1.0776123,0.81967735,0.039999582,0.04,-5.7968984,6.99833345413208,-3.698146,-0.007726573,-0.002401636680588126,-0.0019245658
2482.3833333373304,0.34821317,-1.0646076,-0.45958215,-2.6211345,0.41429916,1.0775766,0.81968,0.03999958,0.04,-5.7960215,6.998687267303467,-3.6982398,-0.007552018,-0.0026612533256411552,-0.0021669567
2482.4000000039973,0.34823608,-1.0646265,-0.45961243,-2.621152,0.41432646,1.0775447,0.8196826,0.03999958,0.04,-5.7952375,6.999042510986328,-3.6983922,-0.007391835,-0.002897474216297269,-0.0023879048
2482.416666670664,0.34825718,-1.0646433,-0.45964018,-2.6211686,0.41435164,1.0775148,0.81968486,0.03999958,0.04,-5.79471,6.99943733215332,-3.6986215,-0.007245768,-0.0031155392061918974,-0.0025942884
2482.433333337331,0.34827656,-1.0646592,-0.45966578,-2.6211843,0.41437477,1.0774871,0.81968683,0.039999582,0.04,-5.7941794,6.9997944831848145,-3.6988518,-0.0071134116,-0.003323296317830682,-0.0027840545
2482.450000003998,0.34829447,-1.0646738,-0.45968935,-2.6211977,0.41439602,1.0774623,0.81968844,0.039999582,0.04,-5.7936783,7.000100612640381,-3.6989603,-0.006990219,-0.0035148083698004484,-0.0029593364
2482.466666670665,0.3483109,-1.0646869,-0.45971105,-2.6212094,0.4144156,1.0774385,0.8196897,0.039999574,0.04,-5.7930503,7.000333309173584,-3.6990743,-0.00687441,-0.003684110241010785,-0.0031184102
2482.4833333373317,0.3483261,-1.0646993,-0.45973098,-2.6212199,0.41443345,1.0774176,0.8196908,0.039999582,0.04,-5.7925425,7.000551223754883,-3.6991653,-0.0067668445,-0.0038426495157182217,-0.0032663608
2482.5000000039986,0.34833992,-1.0647107,-0.45974928,-2.6212296,0.41445002,1.0773976,0.8196919,0.03999958,0.04,-5.792093,7.000784397125244,-3.6992536,-0.0066662873,-0.003981645684689283,-0.0034001404
2482.5166666706655,0.3483527,-1.0647213,-0.45976618,-2.6212392,0.41446528,1.07738,0.81969285,0.039999574,0.04,-5.7917438,7.001004695892334,-3.6993306,-0.0065741176,-0.004113392438739538,-0.0035235742
2482.5333333373324,0.34836447,-1.0647306,-0.4597817,-2.6212482,0.4144792,1.0773634,0.81969374,0.03999957,0.04,-5.7914243,7.001221179962158,-3.6994565,-0.006489637,-0.00423324154689908,-0.003638853
2482.5500000039992,0.34837532,-1.0647395,-0.459796,-2.6212573,0.414492,1.0773472,0.81969464,0.03999957,0.04,-5.7911234,7.0014262199401855,-3.699593,-0.0064141224,-0.004347620531916618,-0.003744785
2482.566666670666,0.3483853,-1.0647479,-0.4598092,-2.6212661,0.4145038,1.0773338,0.8196955,0.03999957,0.04,-5.790918,7.001624584197998,-3.6996562,-0.0063452856,-0.004459789022803307,-0.0038421627
2482.583333337333,0.34839442,-1.0647556,-0.4598213,-2.621274,0.41451466,1.077321,0.8196963,0.039999574,0.04,-5.790629,7.001788139343262,-3.6997705,-0.006281537,-0.004556706175208092,-0.003932354
2482.600000004,0.34840292,-1.0647625,-0.4598324,-2.6212807,0.41452467,1.0773087,0.81969714,0.039999574,0.04,-5.7903495,7.001925945281982,-3.6998289,-0.0062236167,-0.004647235386073589,-0.0040144147
2482.6166666706667,0.3484107,-1.0647688,-0.45984265,-2.6212864,0.4145339,1.0772965,0.8196979,0.03999957,0.04,-5.790061,7.00200891494751,-3.6998653,-0.006169658,-0.004731933120638132,-0.0040903026
2482.6333333373336,0.34841785,-1.0647743,-0.45985213,-2.6212914,0.41454244,1.0772873,0.8196987,0.03999957,0.04,-5.7898207,7.002117156982422,-3.6998842,-0.0061195367,-0.004811487626284361,-0.0041595753
2482.6500000040005,0.3484245,-1.0647796,-0.45986086,-2.6212957,0.41455022,1.0772784,0.81969947,0.03999957,0.04,-5.717553,6.882323265075684,-3.6093595,0.0,-0.0,0.0
2482.6666666706674,0.3484245,-1.0647796,-0.45986086,-2.6212957,0.41455022,1.0772784,0.81969947,0.03999957,0.04,-5.7890577,7.0021443367004395,-3.7003908,0.0,-0.0,0.0
2482.6833333373343,0.3484245,-1.0647796,-0.45986086,-2.6212957,0.41455022,1.0772784,0.81969947,0.03999957,0.04,-5.7890577,7.0021443367004395,-3.7003908,0.0,-0.0,0.0
2482.700000004001,0.3484245,-1.0647796,-0.45986086,-2.6212957,0.41455022,1.0772784,0.81969947,0.03999957,0.04,-5.7890577,7.0021443367004395,-3.7003908,0.0,-0.0,0.0
2482.716666670668,0.3484245,-1.0647796,-0.45986086,-2.6212957,0.41455022,1.0772784,0.81969947,0.03999957,0.04,-5.7890577,7.0021443367004395,-3.7003908,0.0,-0.0,0.0
2482.733333337335,0.3484245,-1.0647796,-0.45986086,-2.6212957,0.41455022,1.0772784,0.81969947,0.03999957,0.04,-5.7890577,7.0021443367004395,-3.7003908,0.0,-0.0,0.0
2482.750000004002,0.3484245,-1.0647796,-0.45986086,-2.6212957,0.41455022,1.0772784,0.81969947,0.03999957,0.04,-5.7890577,7.0021443367004395,-3.7003908,0.0,-0.0,0.0
2482.7666666706687,0.3484245,-1.0647796,-0.45986086,-2.6212957,0.41455022,1.0772784,0.81969947,0.03999957,0.04,-5.7890577,7.0021443367004395,-3.7003908,0.0,-0.0,0.0
2482.7833333373355,0.3484245,-1.0647796,-0.45986086,-2.6212957,0.41455022,1.0772784,0.81969947,0.03999957,0.04,-5.7890577,7.0021443367004395,-3.7003908,0.0,-0.0,0.0
2482.8000000040024,0.3484245,-1.0647796,-0.45986086,-2.6212957,0.41455022,1.0772784,0.81969947,0.03999957,0.04,-5.7890577,7.0021443367004395,-3.7003908,0.0,-0.0,0.0
2482.8166666706693,0.3484245,-1.0647796,-0.45986086,-2.6212957,0.41455022,1.0772784,0.81969947,0.03999957,0.04,-5.7890577,7.0021443367004395,-3.7003908,0.0,-0.0,0.0
2482.833333337336,0.3484245,-1.0647796,-0.45986086,-2.6212957,0.41455022,1.0772784,0.81969947,0.03999957,0.04,-5.7890577,7.0021443367004395,-3.7003908,0.0,-0.0,0.0
2482.850000004003,0.3484245,-1.0647796,-0.45986086,-2.6212957,0.41455022,1.0772784,0.81969947,0.03999957,0.04,-5.7890577,7.0021443367004395,-3.7003908,0.0,-0.0,0.0
2482.86666667067,0.3484245,-1.0647796,-0.45986086,-2.6212957,0.41455022,1.0772784,0.81969947,0.03999957,0.04,-5.7890577,7.0021443367004395,-3.7003908,0.0,-0.0,0.0
2482.883333337337,0.3484245,-1.0647796,-0.45986086,-2.6212957,0.41455022,1.0772784,0.81969947,0.03999957,0.04,-5.7890577,7.0021443367004395,-3.7003908,0.0,-0.0,0.0
2482.9000000040037,0.3484245,-1.0647796,-0.45986086,-2.6212957,0.41455022,1.0772784,0.81969947,0.03999957,0.04,-5.7890577,7.0021443367004395,-3.7003908,0.0,-0.0,0.0
2482.9166666706706,0.3484245,-1.0647796,-0.45986086,-2.6212957,0.41455022,1.0772784,0.81969947,0.03999957,0.04,-5.7890577,7.0021443367004395,-3.7003908,0.0,-0.0,0.0
2482.9333333373374,0.3484245,-1.0647796,-0.45986086,-2.6212957,0.41455022,1.0772784,0.81969947,0.03999957,0.04,-5.7890577,7.0021443367004395,-3.7003908,0.0,-0.0,0.0
2482.9500000040043,0.3484245,-1.0647796,-0.45986086,-2.6212957,0.41455022,1.0772784,0.81969947,0.03999957,0.04,-5.7890577,7.0021443367004395,-3.7003908,0.0,-0.0,0.0
2482.966666670671,0.3484245,-1.0647796,-0.45986086,-2.6212957,0.41455022,1.0772784,0.81969947,0.03999957,0.04,-5.7890577,7.0021443367004395,-3.7003908,0.0,-0.0,0.0
2482.983333337338,0.3484245,-1.0647796,-0.45986086,-2.6212957,0.41455022,1.0772784,0.81969947,0.03999957,0.04,-5.7890577,7.0021443367004395,-3.7003908,0.0,-0.0,0.0
2483.000000004005,0.3484245,-1.0647796,-0.45986086,-2.6212957,0.41455022,1.0772784,0.81969947,0.03999957,0.04,-5.7890577,7.0021443367004395,-3.7003908,0.0,-0.0,0.0
2483.016666670672,0.3484245,-1.0647796,-0.45986086,-2.6212957,0.41455022,1.0772784,0.81969947,0.03999957,0.04,-5.7890577,7.0021443367004395,-3.7003908,0.0,-0.0,0.0
2483.0333333373387,0.3484245,-1.0647796,-0.45986086,-2.6212957,0.41455022,1.0772784,0.81969947,0.03999957,0.04,-5.7890577,7.0021443367004395,-3.7003908,0.0,-0.0,0.0
2483.0500000040056,0.3484245,-1.0647796,-0.45986086,-2.6212957,0.41455022,1.0772784,0.81969947,0.03999957,0.04,-5.7890577,7.0021443367004395,-3.7003908,0.0,-0.0,0.0
2483.0666666706725,0.3484245,-1.0647796,-0.45986086,-2.6212957,0.41455022,1.0772784,0.81969947,0.03999957,0.04,-5.7890577,7.0021443367004395,-3.7003908,0.0,-0.0,0.0
2483.0833333373394,0.3484245,-1.0647796,-0.45986086,-2.6212957,0.41455022,1.0772784,0.81969947,0.03999957,0.04,-5.7890577,7.0021443367004395,-3.7003908,0.0,-0.0,0.0
2483.1000000040062,0.3484245,-1.0647796,-0.45986086,-2.6212957,0.41455022,1.0772784,0.81969947,0.03999957,0.04,-5.7890577,7.0021443367004395,-3.7003908,0.0,-0.0,0.0
2483.116666670673,0.3484245,-1.0647796,-0.45986086,-2.6212957,0.41455022,1.0772784,0.81969947,0.03999957,0.04,-5.7890577,7.0021443367004395,-3.7003908,0.0,-0.0,0.0
2483.13333333734,0.3484245,-1.0647796,-0.45986086,-2.6212957,0.41455022,1.0772784,0.81969947,0.03999957,0.04,-5.7890577,7.0021443367004395,-3.7003908,0.0,-0.0,0.0
2483.150000004007,0.3484245,-1.0647796,-0.45986086,-2.6212957,0.41455022,1.0772784,0.81969947,0.03999957,0.04,-5.7890577,7.0021443367004395,-3.7003908,0.0,-0.0,0.0
2483.1666666706737,0.3484245,-1.0647796,-0.45986086,-2.6212957,0.41455022,1.0772784,0.81969947,0.03999957,0.04,-5.7890577,7.0021443367004395,-3.7003908,0.0,-0.0,0.0
2483.1833333373406,0.3484245,-1.0647796,-0.45986086,-2.6212957,0.41455022,1.0772784,0.81969947,0.03999957,0.04,-5.7890577,7.0021443367004395,-3.7003908,0.0,-0.0,0.0
2483.2000000040075,0.3484245,-1.0647796,-0.45986086,-2.6212957,0.41455022,1.0772784,0.81969947,0.03999957,0.04,-5.7890577,7.0021443367004395,-3.7003908,0.0,-0.0,0.0
2483.2166666706744,0.3484245,-1.0647796,-0.45986086,-2.6212957,0.41455022,1.0772784,0.81969947,0.03999957,0.04,-5.7890577,7.0021443367004395,-3.7003908,0.0,-0.0,0.0
2483.2333333373413,0.3484245,-1.0647796,-0.45986086,-2.6212957,0.41455022,1.0772784,0.81969947,0.03999957,0.04,-5.7890577,7.0021443367004395,-3.7003908,0.0,-0.0,0.0
2483.250000004008,0.3484245,-1.0647796,-0.45986086,-2.6212957,0.41455022,1.0772784,0.81969947,0.03999957,0.04,-5.7890577,7.0021443367004395,-3.7003908,0.0,-0.0,0.0
2483.266666670675,0.3484245,-1.0647796,-0.45986086,-2.6212957,0.41455022,1.0772784,0.81969947,0.03999957,0.04,-5.7890577,7.0021443367004395,-3.7003908,0.0,-0.0,0.0
2483.283333337342,0.3484245,-1.0647796,-0.45986086,-2.6212957,0.41455022,1.0772784,0.81969947,0.03999957,0.04,-5.7890577,7.0021443367004395,-3.7003908,0.0,-0.0,0.0
2483.300000004009,0.3484245,-1.0647796,-0.45986086,-2.6212957,0.41455022,1.0772784,0.81969947,0.03999957,0.04,-5.7890577,7.0021443367004395,-3.7003908,0.0,-0.0,0.0
2483.3166666706757,0.3484245,-1.0647796,-0.45986086,-2.6212957,0.41455022,1.0772784,0.81969947,0.03999957,0.04,-5.7890577,7.0021443367004395,-3.7003908,0.0,-0.0,0.0
2483.3333333373425,0.3484245,-1.0647796,-0.45986086,-2.6212957,0.41455022,1.0772784,0.81969947,0.03999957,0.04,-5.7890577,7.0021443367004395,-3.7003908,0.0,-0.0,0.0
2483.3500000040094,0.3484245,-1.0647796,-0.45986086,-2.6212957,0.41455022,1.0772784,0.81969947,0.03999957,0.04,-5.7890577,7.0021443367004395,-3.7003908,0.0,-0.0,0.0
2483.3666666706763,0.3484245,-1.0647796,-0.45986086,-2.6212957,0.41455022,1.0772784,0.81969947,0.03999957,0.04,-5.7890577,7.0021443367004395,-3.7003908,0.0,-0.0,0.0
2483.383333337343,0.3484245,-1.0647796,-0.45986086,-2.6212957,0.41455022,1.0772784,0.81969947,0.03999957,0.04,-5.7890577,7.0021443367004395,-3.7003908,0.0,-0.0,0.0
2483.40000000401,0.3484245,-1.0647796,-0.45986086,-2.6212957,0.41455022,1.0772784,0.81969947,0.03999957,0.04,-5.7890577,7.0021443367004395,-3.7003908,0.0,-0.0,0.0
2483.416666670677,0.3484245,-1.0647796,-0.45986086,-2.6212957,0.41455022,1.0772784,0.81969947,0.03999957,0.04,-5.7890577,7.0021443367004395,-3.7003908,0.0,-0.0,0.0
2483.433333337344,0.3484245,-1.0647796,-0.45986086,-2.6212957,0.41455022,1.0772784,0.81969947,0.03999957,0.04,-5.7890577,7.0021443367004395,-3.7003908,0.0,-0.0,0.0
2483.4500000040107,0.3484245,-1.0647796,-0.45986086,-2.6212957,0.41455022,1.0772784,0.81969947,0.03999957,0.04,-5.7890577,7.0021443367004395,-3.7003908,0.0,-0.0,0.0
2483.4666666706776,0.3484245,-1.0647796,-0.45986086,-2.6212957,0.41455022,1.0772784,0.81969947,0.03999957,0.04,-5.7890577,7.0021443367004395,-3.7003908,0.0,-0.0,0.0
2483.4833333373444,0.3484245,-1.0647796,-0.45986086,-2.6212957,0.41455022,1.0772784,0.81969947,0.03999957,0.04,-5.7890577,7.0021443367004395,-3.7003908,0.0,-0.0,0.0
2483.5000000040113,0.3484245,-1.0647796,-0.45986086,-2.6212957,0.41455022,1.0772784,0.81969947,0.03999957,0.04,-5.7890577,7.0021443367004395,-3.7003908,0.0,-0.0,0.0
2483.516666670678,0.3484245,-1.0647796,-0.45986086,-2.6212957,0.41455022,1.0772784,0.81969947,0.03999957,0.04,-5.7890577,7.0021443367004395,-3.7003908,0.0,-0.0,0.0
2483.533333337345,0.3484245,-1.0647796,-0.45986086,-2.6212957,0.41455022,1.0772784,0.81969947,0.03999957,0.04,-5.7890577,7.0021443367004395,-3.7003908,0.0,-0.0,0.0
2483.550000004012,0.3484245,-1.0647796,-0.45986086,-2.6212957,0.41455022,1.0772784,0.81969947,0.03999957,0.04,-5.7890577,7.0021443367004395,-3.7003908,0.0,-0.0,0.0
2483.566666670679,0.3484245,-1.0647796,-0.45986086,-2.6212957,0.41455022,1.0772784,0.81969947,0.03999957,0.04,-5.7890577,7.0021443367004395,-3.7003908,0.0,-0.0,0.0
2483.5833333373457,0.3484245,-1.0647796,-0.45986086,-2.6212957,0.41455022,1.0772784,0.81969947,0.03999957,0.04,-5.7890577,7.0021443367004395,-3.7003908,0.0,-0.0,0.0
2483.6000000040126,0.3484245,-1.0647796,-0.45986086,-2.6212957,0.41455022,1.0772784,0.81969947,0.03999957,0.04,-5.7890577,7.0021443367004395,-3.7003908,0.0,-0.0,0.0
2483.6166666706795,0.3484245,-1.0647796,-0.45986086,-2.6212957,0.41455022,1.0772784,0.81969947,0.03999957,0.04,-5.7890577,7.0021443367004395,-3.7003908,0.0,-0.0,0.0
2483.6333333373464,0.3484245,-1.0647796,-0.45986086,-2.6212957,0.41455022,1.0772784,0.81969947,0.03999957,0.04,-5.7890577,7.0021443367004395,-3.7003908,0.0,-0.0,0.0
2483.6500000040132,0.3484245,-1.0647796,-0.45986086,-2.6212957,0.41455022,1.0772784,0.81969947,0.03999957,0.04,-5.7890577,7.0021443367004395,-3.7003908,0.0,-0.0,0.0
2483.66666667068,0.3484245,-1.0647796,-0.45986086,-2.6212957,0.41455022,1.0772784,0.81969947,0.03999957,0.04,-5.7890577,7.0021443367004395,-3.7003908,0.0,-0.0,0.0
2483.683333337347,0.3484245,-1.0647796,-0.45986086,-2.6212957,0.41455022,1.0772784,0.81969947,0.03999957,0.04,-5.7890577,7.0021443367004395,-3.7003908,0.0,-0.0,0.0
2483.700000004014,0.3484245,-1.0647796,-0.45986086,-2.6212957,0.41455022,1.0772784,0.81969947,0.03999957,0.04,-5.7890577,7.0021443367004395,-3.7003908,0.0,-0.0,0.0
2483.7166666706808,0.3484245,-1.0647796,-0.45986086,-2.6212957,0.41455022,1.0772784,0.81969947,0.03999957,0.04,-5.7890577,7.0021443367004395,-3.7003908,0.0,-0.0,0.0
2483.7333333373476,0.3484245,-1.0647796,-0.45986086,-2.6212957,0.41455022,1.0772784,0.81969947,0.03999957,0.04,-5.7890577,7.0021443367004395,-3.7003908,0.0,-0.0,0.0
2483.7500000040145,0.3484245,-1.0647796,-0.45986086,-2.6212957,0.41455022,1.0772784,0.81969947,0.03999957,0.04,-5.7890577,7.0021443367004395,-3.7003908,0.0,-0.0,0.0
2483.7666666706814,0.3484245,-1.0647796,-0.45986086,-2.6212957,0.41455022,1.0772784,0.81969947,0.03999957,0.04,-5.7890577,7.0021443367004395,-3.7003908,0.0,-0.0,0.0
2483.7833333373483,0.3484245,-1.0647796,-0.45986086,-2.6212957,0.41455022,1.0772784,0.81969947,0.03999957,0.04,-5.7890577,7.0021443367004395,-3.7003908,0.0,-0.0,0.0
2483.800000004015,0.3484245,-1.0647796,-0.45986086,-2.6212957,0.41455022,1.0772784,0.81969947,0.03999957,0.04,-5.7890577,7.0021443367004395,-3.7003908,0.0,-0.0,0.0
2483.816666670682,0.3484245,-1.0647796,-0.45986086,-2.6212957,0.41455022,1.0772784,0.81969947,0.03999957,0.04,-5.7890577,7.0021443367004395,-3.7003908,0.0,-0.0,0.0
2483.833333337349,0.3484245,-1.0647796,-0.45986086,-2.6212957,0.41455022,1.0772784,0.81969947,0.03999957,0.04,-5.7890577,7.0021443367004395,-3.7003908,0.0,-0.0,0.0
2483.850000004016,0.3484245,-1.0647796,-0.45986086,-2.6212957,0.41455022,1.0772784,0.81969947,0.03999957,0.04,-5.7890577,7.0021443367004395,-3.7003908,0.0,-0.0,0.0
2483.8666666706827,0.3484245,-1.0647796,-0.45986086,-2.6212957,0.41455022,1.0772784,0.81969947,0.03999957,0.04,-5.7890577,7.0021443367004395,-3.7003908,0.0,-0.0,0.0
2483.8833333373495,0.3484245,-1.0647796,-0.45986086,-2.6212957,0.41455022,1.0772784,0.81969947,0.03999957,0.04,-5.7890577,7.0021443367004395,-3.7003908,0.0,-0.0,0.0
2483.9000000040164,0.3484245,-1.0647796,-0.45986086,-2.6212957,0.41455022,1.0772784,0.81969947,0.03999957,0.04,-5.7890577,7.0021443367004395,-3.7003908,0.0,-0.0,0.0
2483.9166666706833,0.3484245,-1.0647796,-0.45986086,-2.6212957,0.41455022,1.0772784,0.81969947,0.03999957,0.04,-5.7890577,7.0021443367004395,-3.7003908,0.0,-0.0,0.0
2483.93333333735,0.3484245,-1.0647796,-0.45986086,-2.6212957,0.41455022,1.0772784,0.81969947,0.03999957,0.04,-5.7890577,7.0021443367004395,-3.7003908,0.0,-0.0,0.0
2483.950000004017,0.3484245,-1.0647796,-0.45986086,-2.6212957,0.41455022,1.0772784,0.81969947,0.03999957,0.04,-5.7890577,7.0021443367004395,-3.7003908,0.0,-0.0,0.0
2483.966666670684,0.3484245,-1.0647796,-0.45986086,-2.6212957,0.41455022,1.0772784,0.81969947,0.03999957,0.04,-5.7890577,7.0021443367004395,-3.7003908,0.0,-0.0,0.0
2483.983333337351,0.3484245,-1.0647796,-0.45986086,-2.6212957,0.41455022,1.0772784,0.81969947,0.03999957,0.04,-5.7890577,7.0021443367004395,-3.7003908,0.0,-0.0,0.0
2484.0000000040177,0.3484245,-1.0647796,-0.45986086,-2.6212957,0.41455022,1.0772784,0.81969947,0.03999957,0.04,-5.7890577,7.0021443367004395,-3.7003908,0.0,-0.0,0.0
2484.0166666706846,0.3484245,-1.0647796,-0.45986086,-2.6212957,0.41455022,1.0772784,0.81969947,0.03999957,0.04,-5.7890577,7.0021443367004395,-3.7003908,0.0,-0.0,0.0
2484.0333333373515,0.3484245,-1.0647796,-0.45986086,-2.6212957,0.41455022,1.0772784,0.81969947,0.03999957,0.04,-5.7890577,7.0021443367004395,-3.7003908,0.0,-0.0,0.0
2484.0500000040183,0.3484245,-1.0647796,-0.45986086,-2.6212957,0.41455022,1.0772784,0.81969947,0.03999957,0.04,-5.7890577,7.0021443367004395,-3.7003908,0.0,-0.0,0.0
2484.066666670685,0.3484245,-1.0647796,-0.45986086,-2.6212957,0.41455022,1.0772784,0.81969947,0.03999957,0.04,-5.7890577,7.0021443367004395,-3.7003908,0.0,-0.0,0.0
2484.083333337352,0.3484245,-1.0647796,-0.45986086,-2.6212957,0.41455022,1.0772784,0.81969947,0.03999957,0.04,-5.7890577,7.0021443367004395,-3.7003908,0.0,-0.0,0.0
2484.100000004019,0.3484245,-1.0647796,-0.45986086,-2.6212957,0.41455022,1.0772784,0.81969947,0.03999957,0.04,-5.7890577,7.0021443367004395,-3.7003908,0.0,-0.0,0.0
2484.116666670686,0.3484245,-1.0647796,-0.45986086,-2.6212957,0.41455022,1.0772784,0.81969947,0.03999957,0.04,-5.7890577,7.0021443367004395,-3.7003908,0.0,-0.0,0.0
2484.1333333373527,0.3484245,-1.0647796,-0.45986086,-2.6212957,0.41455022,1.0772784,0.81969947,0.03999957,0.04,-5.7890577,7.0021443367004395,-3.7003908,0.0,-0.0,0.0
2484.1500000040196,0.3484245,-1.0647796,-0.45986086,-2.6212957,0.41455022,1.0772784,0.81969947,0.03999957,0.04,-5.7890577,7.0021443367004395,-3.7003908,0.0,-0.0,0.0
2484.1666666706865,0.3484245,-1.0647796,-0.45986086,-2.6212957,0.41455022,1.0772784,0.81969947,0.03999957,0.04,-5.7890577,7.0021443367004395,-3.7003908,0.0,-0.0,0.0
2484.1833333373534,0.3484245,-1.0647796,-0.45986086,-2.6212957,0.41455022,1.0772784,0.81969947,0.03999957,0.04,-5.7890577,7.0021443367004395,-3.7003908,0.0,-0.0,0.0
2484.2000000040202,0.3484245,-1.0647796,-0.45986086,-2.6212957,0.41455022,1.0772784,0.81969947,0.03999957,0.04,-5.7890577,7.0021443367004395,-3.7003908,0.0,-0.0,0.0
2484.216666670687,0.3484245,-1.0647796,-0.45986086,-2.6212957,0.41455022,1.0772784,0.81969947,0.03999957,0.04,-5.7890577,7.0021443367004395,-3.7003908,0.0,-0.0,0.0
2484.233333337354,0.3484245,-1.0647796,-0.45986086,-2.6212957,0.41455022,1.0772784,0.81969947,0.03999957,0.04,-5.7890577,7.0021443367004395,-3.7003908,0.0,-0.0,0.0
2484.250000004021,0.3484245,-1.0647796,-0.45986086,-2.6212957,0.41455022,1.0772784,0.81969947,0.03999957,0.04,-5.7890577,7.0021443367004395,-3.7003908,0.0,-0.0,0.0
