rsonawane2002/My_IMU/logs_2/traj_389/imu_400hz_389.csv
time,j1,j2,j3,j4,j5,j6,j7,gripper1,gripper2,imu_ax,imu_ay,imu_az,imu_gx,imu_gy,imu_gz
0.0,0.00016700293,-0.785875,4.0107683e-05,-2.3551247,9.29385e-05,1.570997,0.786,0.04,0.04,-9.564064,-0.0756406113505363,0.091298856,1.1773781e-07,-0.0011641271412372,1.0860527e-06
0.0025,0.0001670023855,-0.785857774,4.011001055e-05,-2.35513919,9.294298650000001e-05,1.570996565,0.786,0.04,0.04,-9.604604500000036,-0.06419722928257082,0.07897091969998879,4.474490899993361e-08,-0.0013253151206300516,9.70550065999895e-07
0.005,0.00016700184099999998,-0.785840548,4.011233810000001e-05,-2.3551536800000004,9.294747300000001e-05,1.57099613,0.786,0.04,0.04,-9.645145000000074,-0.052753847214605326,0.06664298339997757,-2.8247992000132786e-08,-0.0014865031000229033,8.550474319997899e-07
0.0075,0.0001670012965,-0.7858233219999999,4.011466565000001e-05,-2.3551681700000002,9.295195950000001e-05,1.570995695,0.786,0.04,0.04,-9.68568550000011,-0.041310465146639844,0.05431504709996637,-1.0124089300019915e-07,-0.0016476910794157547,7.395447979996849e-07
0.01,0.000167000752,-0.785806096,4.011699320000001e-05,-2.35518266,9.295644600000002e-05,1.5709952600000001,0.786,0.04,0.04,-9.726226000000148,-0.029867083078674347,0.04198711079995515,-1.742337940002656e-07,-0.0018088790588086064,6.240421639995798e-07
0.0125,0.0001670002075,-0.78578887,4.011932075000001e-05,-2.3551971500000004,9.296093250000002e-05,1.570994825,0.786,0.04,0.04,-9.766766500000184,-0.018423701010708858,0.029659174499943944,-2.47226695000332e-07,-0.001970067038201458,5.085395299994747e-07
0.015,0.00016699966299999998,-0.785771644,4.012164830000001e-05,-2.3552116400000003,9.296541900000002e-05,1.57099439,0.786,0.04,0.04,-9.807307000000222,-0.006980318942743383,0.017331238199932736,-3.202195960003983e-07,-0.0021312550175943096,3.930368959993697e-07
0.0175,0.00016699692549999995,-0.7857548619999999,4.0126912350000075e-05,-2.3552257350000003,9.296782999999998e-05,1.57099396,0.786,0.04,0.04,-9.834248474999999,0.0006490599655079888,0.009037299099998562,-4.818855735021586e-07,-0.0022883138153710772,1.0500140799596894e-07
0.02,0.00016698980199999995,-0.7857389679999999,4.013804940000008e-05,-2.3552390400000003,9.296608999999998e-05,1.5709935400000001,0.786,0.04,0.04,-9.8339919,0.00065043255453923,0.008811354399998356,-8.208977040024668e-07,-0.002437114249915903,-5.280997880046066e-07
0.0225,0.00016698267849999993,-0.7857230739999999,4.014918645000009e-05,-2.3552523450000002,9.296434999999998e-05,1.57099312,0.786,0.04,0.04,-9.833735324999997,0.0006518051435704713,0.00858540969999815,-1.159909834502775e-06,-0.002585914684460728,-1.1612009840051821e-06
0.025,0.00016697555499999993,-0.7857071799999998,4.01603235000001e-05,-2.35526565,9.296260999999998e-05,1.5709927,0.786,0.04,0.04,-9.833478749999998,0.0006531777326017125,0.008359464999997944,-1.4989219650030837e-06,-0.0027347151190055532,-1.7943021800057588e-06
0.0275,0.00016696843149999993,-0.7856912859999998,4.017146055000011e-05,-2.355278955,9.296086999999998e-05,1.57099228,0.786,0.04,0.04,-9.833222174999998,0.0006545503216329537,0.00813352029999774,-1.8379340955033916e-06,-0.002883515553550379,-2.4274033760063343e-06
0.03,0.0001669613079999999,-0.7856753919999998,4.018259760000012e-05,-2.35529226,9.295912999999998e-05,1.57099186,0.786,0.04,0.04,-9.832965599999998,0.0006559229106641951,0.007907575599997534,-2.1769462260037e-06,-0.0030323159880952036,-3.06050457200691e-06
0.0325,0.00016695418449999991,-0.7856594979999998,4.019373465000013e-05,-2.355305565,9.295738999999997e-05,1.57099144,0.786,0.04,0.04,-9.832709024999998,0.0006572954996954363,0.0076816308999973285,-2.5159583565040086e-06,-0.003181116422640029,-3.6936057680074863e-06
0.035,0.00016693560799999968,-0.7856444399999998,4.0220491000000435e-05,-2.3553181,9.294515799999977e-05,1.57099101,0.786,0.04,0.04,-9.832438449999996,0.0006614641402848309,0.007485805599997698,-3.2152614600111994e-06,-0.0033224873244779626,-5.09405445002272e-06
0.0375,0.00016691130499999968,-0.7856297999999998,4.025505700000047e-05,-2.35533025,9.292767999999976e-05,1.570990575,0.786,0.04,0.04,-9.832160874999996,0.000667030806653226,0.007305039999997534,-4.094710050011997e-06,-0.0034601434599626528,-6.878176875024339e-06
0.04,0.00016688700199999964,-0.7856151599999998,4.02896230000005e-05,-2.3553424,9.291020199999975e-05,1.57099014,0.786,0.04,0.04,-9.831883299999996,0.000672597473021621,0.007124274399997369,-4.974158640012798e-06,-0.003597799595447343,-8.662299300025962e-06
0.0425,0.0001668626989999996,-0.7856005199999998,4.0324189000000534e-05,-2.35535455,9.289272399999973e-05,1.5709897050000001,0.786,0.04,0.04,-9.831605724999996,0.0006781641393900161,0.006943508799997205,-5.8536072300135995e-06,-0.003735455730932033,-1.0446421725027587e-05
0.045,0.0001668383959999996,-0.7855858799999997,4.035875500000056e-05,-2.3553667000000003,9.287524599999972e-05,1.57098927,0.786,0.04,0.04,-9.831328149999996,0.0006837308057584112,0.0067627431999970405,-6.733055820014397e-06,-0.0038731118664167234,-1.2230544150029204e-05
0.0475,0.00016681409299999957,-0.7855712399999998,4.039332100000059e-05,-2.35537885,9.28577679999997e-05,1.570988835,0.786,0.04,0.04,-9.831050574999995,0.0006892974721268062,0.006581977599996876,-7.612504410015198e-06,-0.0040107680019014135,-1.401466657503083e-05
0.05,0.00016678978999999896,-0.7855565999999998,4.0427887000001434e-05,-2.355391,9.284028999999915e-05,1.5709884,0.786,0.04,0.04,-9.830772999999997,0.0006948641384952518,0.006401211999996888,-8.491953000030365e-06,-0.004148424137385918,-1.579878900006238e-05
0.0525,0.0001667333119999989,-0.7855430924999998,4.050684385000151e-05,-2.355402025,9.279347499999911e-05,1.57098798,0.786,0.04,0.04,-9.830567799999997,0.0007032062712824844,0.0062301327399967325,-1.016113815003188e-05,-0.004275888297709184,-1.922805255006549e-05
0.055,0.00016667683399999888,-0.7855295849999998,4.058580070000158e-05,-2.35541305,9.274665999999907e-05,1.57098756,0.786,0.04,0.04,-9.830362599999996,0.0007115484040697169,0.006059053479996576,-1.1830323300033399e-05,-0.00440335245803245,-2.2657316100068616e-05
0.0575,0.00016662035599999882,-0.7855160774999997,4.0664757550001654e-05,-2.355424075,9.269984499999902e-05,1.57098714,0.786,0.04,0.04,-9.830157399999996,0.0007198905368569496,0.005887974219996421,-1.3499508450034919e-05,-0.0045308166183557165,-2.6086579650071737e-05
0.06,0.00016656387799999877,-0.7855025699999997,4.074371440000173e-05,-2.3554351000000002,9.265302999999898e-05,1.57098672,0.786,0.04,0.04,-9.829952199999996,0.0007282326696441821,0.005716894959996266,-1.5168693600036432e-05,-0.004658280778678982,-2.951584320007485e-05
0.0625,0.0001665073999999987,-0.7854890624999997,4.082267125000179e-05,-2.3554461250000003,9.260621499999894e-05,1.5709863,0.786,0.04,0.04,-9.829746999999996,0.0007365748024314148,0.00554581569999611,-1.6837878750037954e-05,-0.004785744939002248,-3.294510675007797e-05
0.065,0.00016645092199999865,-0.7854755549999997,4.0901628100001867e-05,-2.3554571500000003,9.25593999999989e-05,1.57098588,0.786,0.04,0.04,-9.829541799999994,0.0007449169352186473,0.005374736439995954,-1.8507063900039473e-05,-0.004913209099325514,-3.637437030008109e-05
0.0675,0.00016637738949999736,-0.7854623774999997,4.100427405000369e-05,-2.3554678250000003,9.249702149999771e-05,1.570985455,0.786,0.04,0.04,-9.829330174999994,0.0007535755576102032,0.005215264769996653,-2.0535991050067494e-05,-0.005037659406664843,-4.050007370013553e-05
0.07,0.00016626974799999726,-0.7854498599999997,4.115429820000382e-05,-2.3554778000000005,9.240351599999762e-05,1.57098502,0.786,0.04,0.04,-9.829105699999994,0.0007628671592103366,0.00507900827999653,-2.3284402200069998e-05,-0.005156082008036956,-4.601865680014055e-05
0.0725,0.00016616210649999716,-0.7854373424999996,4.130432235000396e-05,-2.3554877750000003,9.231001049999753e-05,1.570984585,0.786,0.04,0.04,-9.828881224999993,0.0007721587608104701,0.004942751789996406,-2.6032813350072484e-05,-0.005274504609409068,-5.1537239900145544e-05
0.075,0.00016605446499999706,-0.7854248249999997,4.14543465000041e-05,-2.3554977500000005,9.221650499999745e-05,1.57098415,0.786,0.04,0.04,-9.828656749999993,0.0007814503624106035,0.004806495299996282,-2.8781224500074985e-05,-0.005392927210781181,-5.705582300015057e-05
0.0775,0.00016594682349999697,-0.7854123074999997,4.160437065000423e-05,-2.3555077250000003,9.212299949999736e-05,1.5709837150000001,0.786,0.04,0.04,-9.828432274999994,0.000790741964010737,0.004670238809996158,-3.1529635650077485e-05,-0.005511349812153294,-6.257440610015559e-05
0.08,0.00016583918199999687,-0.7853997899999996,4.175439480000437e-05,-2.3555177000000005,9.202949399999728e-05,1.57098328,0.786,0.04,0.04,-9.828207799999992,0.0008000335656108704,0.004533982319996034,-3.427804680007999e-05,-0.0056297724135254065,-6.809298920016062e-05
0.0825,0.00016573154049999677,-0.7853872724999996,4.19044189500045e-05,-2.3555276750000003,9.19359884999972e-05,1.570982845,0.786,0.04,0.04,-9.827983324999993,0.0008093251672110039,0.0043977258299959104,-3.702645795008249e-05,-0.005748195014897519,-7.361157230016564e-05
0.085,0.0001655747249999944,-0.7853753639999996,4.212299780000782e-05,-2.3555369,9.179862599999508e-05,1.5709827,0.7859998100000001,0.04,0.0399999995,-9.827801149999994,0.0008199025993238369,0.004263992979995903,-4.063225200012477e-05,-0.005861149169508009,-8.071347400024411e-05
0.08750000000000001,0.00016539332249999422,-0.7853637599999996,4.2375854000008046e-05,-2.35554575,9.163933499999493e-05,1.5709827,0.785999525,0.04,0.03999999875,-9.827640124999995,0.0008311229466929322,0.0041315219499957825,-4.466673750012844e-05,-0.005971369100738059,-8.86070350002513e-05
0.09,0.00016521191999999406,-0.7853521559999996,4.262871020000828e-05,-2.3555546,9.148004399999478e-05,1.5709827,0.78599924,0.04,0.039999998,-9.827479099999994,0.0008423432940620273,0.003999050919995663,-4.870122300013209e-05,-0.006081589031968109,-9.650059600025844e-05
0.0925,0.0001650305174999939,-0.7853405519999996,4.288156640000851e-05,-2.3555634500000004,9.132075299999463e-05,1.5709827,0.785998955,0.04,0.03999999725,-9.827318074999996,0.0008535636414311225,0.003866579889995542,-5.273570850013576e-05,-0.006191808963198159,-0.00010439415700026563
0.095,0.00016484911499999372,-0.7853289479999995,4.3134422600008736e-05,-2.3555723000000004,9.11614619999945e-05,1.5709827,0.78599867,0.04,0.0399999965,-9.827157049999995,0.0008647839888002177,0.0037341088599954215,-5.677019400013944e-05,-0.00630202889442821,-0.00011228771800027281
0.0975,0.00016466771249999356,-0.7853173439999995,4.338727880000897e-05,-2.3555811500000003,9.100217099999435e-05,1.5709827,0.7859983850000001,0.04,0.03999999575,-9.826996024999994,0.000876004336169313,0.0036016378299953008,-6.0804679500143106e-05,-0.006412248825658259,-0.00012018127900027999
0.1,0.00016448630999998977,-0.7853057399999995,4.364013500001426e-05,-2.3555900000000003,9.08428799999909e-05,1.5709827,0.7859981,0.04,0.039999995,-9.826834999999994,0.0008872246835383751,0.0034691667999961137,-6.483916500015772e-05,-0.006522468756887971,-0.00012807484000039524
0.10250000000000001,0.0001642053734999895,-0.7852949339999996,4.403221625001462e-05,-2.3555982500000003,9.059272499999067e-05,1.570982775,0.785997815,0.04,0.039999995,-9.826642099999994,0.0008975370525152746,0.003362352579996017,-6.917427975016166e-05,-0.006623359909284857,-0.00013893888700040514
0.105,0.00016392443699998925,-0.7852841279999996,4.442429750001497e-05,-2.3556065000000004,9.034256999999044e-05,1.57098285,0.78599753,0.04,0.039999995,-9.826449199999994,0.0009078494214921739,0.00325553835999592,-7.350939450016558e-05,-0.006724251061681744,-0.00014980293400041497
0.1075,0.00016364350049998902,-0.7852733219999996,4.481637875001533e-05,-2.3556147500000004,9.009241499999021e-05,1.570982925,0.785997245,0.04,0.039999995,-9.826256299999994,0.0009181617904690732,0.003148724139995823,-7.784450925016954e-05,-0.006825142214078631,-0.00016066698100042486
0.11,0.00016336256399998876,-0.7852625159999996,4.520846000001569e-05,-2.3556230000000005,8.984225999998999e-05,1.570983,0.78599696,0.04,0.039999995,-9.826063399999994,0.0009284741594459727,0.0030419099199957256,-8.217962400017349e-05,-0.006926033366475517,-0.00017153102800043476
0.1125,0.0001630816274999885,-0.7852517099999996,4.560054125001605e-05,-2.3556312500000005,8.959210499998976e-05,1.570983075,0.785996675,0.04,0.039999995,-9.825870499999994,0.000938786528422872,0.0029350956999956283,-8.651473875017742e-05,-0.007026924518872405,-0.00018239507500044467
0.115,0.00016280069099998827,-0.7852409039999996,4.599262250001641e-05,-2.3556395,8.934194999998953e-05,1.57098315,0.78599639,0.04,0.039999995,-9.825677599999992,0.0009490988973997715,0.0028282814799955314,-9.084985350018138e-05,-0.007127815671269291,-0.00019325912200045454
0.11750000000000001,0.00016247702599998253,-0.7852303349999996,4.644460850002445e-05,-2.3556474750000005,8.905272999998429e-05,1.57098323,0.7859961050000001,0.04,0.039999995,-9.825523649999997,0.0009597652795496212,0.0027262986499960538,-9.577870950026147e-05,-0.007227002899166509,-0.0002051778230005997
0.12,0.00016206790399998214,-0.7852202399999996,4.701640400002496e-05,-2.3556549,8.868537999998396e-05,1.5709833199999998,0.78599582,0.04,0.039999995,-9.825447599999997,0.0009711396880452365,0.00263397859999597,-0.000101895048000267,-0.007322782278065041,-0.00021920583200061238
0.1225,0.00016165878199998177,-0.7852101449999996,4.758819950002548e-05,-2.3556623250000004,8.831802999998362e-05,1.57098341,0.785995535,0.04,0.039999995,-9.825371549999996,0.000982514096540852,0.002541658549995886,-0.00010801138650027258,-0.0074185616569635736,-0.00023323384100062516
0.125,0.0001612496599999814,-0.7852000499999996,4.8159995000026e-05,-2.35566975,8.795067999998329e-05,1.5709835,0.78599525,0.04,0.039999995,-9.825295499999998,0.0009938885050364674,0.002449338499995802,-0.00011412772500027813,-0.007514341035862106,-0.00024726185000063794
0.1275,0.00016084053799998103,-0.7851899549999996,4.873179050002652e-05,-2.3556771750000003,8.758332999998295e-05,1.57098359,0.785994965,0.04,0.039999995,-9.825219449999997,0.0010052629135320827,0.0023570184499957176,-0.00012024406350028371,-0.007610120414760638,-0.0002612898590006507
0.13,0.00016043141599998066,-0.7851798599999995,4.930358600002704e-05,-2.3556846,8.721597999998262e-05,1.57098368,0.7859946800000001,0.04,0.039999995,-9.825143399999996,0.001016637322027698,0.0022646983999956337,-0.00012636040200028926,-0.00770589979365917,-0.00027531786800066344
0.1325,0.0001600222939999803,-0.7851697649999996,4.987538150002756e-05,-2.355692025,8.684862999998228e-05,1.57098377,0.785994395,0.04,0.039999995,-9.825067349999996,0.0010280117305233134,0.00217237834999555,-0.00013247674050029484,-0.007801679172557701,-0.0002893458770006762
0.135,0.00015950692199997207,-0.7851600559999996,5.0596391000039076e-05,-2.35569875,8.63841659999748e-05,1.57098388,0.78599392,0.04,0.039999995,-9.824969299999994,0.0010376907652247438,0.0020974297799967456,-0.00013997267100040203,-0.007894340809439094,-0.0003056725800008584
0.1375,0.00015893842499997156,-0.7851505399999995,5.13920075000398e-05,-2.355705125,8.587114499997433e-05,1.5709840000000002,0.78599335,0.04,0.039999995,-9.824860249999995,0.0010465221130292668,0.002031166949996685,-0.0001481583975004095,-0.007985443575312258,-0.00032314863000087427
0.14,0.00015836992799997103,-0.7851410239999995,5.218762400004052e-05,-2.3557115000000004,8.535812399997387e-05,1.57098412,0.7859927800000001,0.04,0.039999995,-9.824751199999994,0.00105535346083379,0.0019649041199966246,-0.00015634412400041694,-0.00807654634118542,-0.0003406246800008902
0.14250000000000002,0.00015780143099997052,-0.7851315079999995,5.2983240500041246e-05,-2.3557178750000003,8.48451029999734e-05,1.57098424,0.78599221,0.04,0.039999995,-9.824642149999994,0.001064184808638313,0.0018986412899965645,-0.0001645298505004244,-0.008167649107058583,-0.0003581007300009061
0.145,0.00015723293399997002,-0.7851219919999995,5.377885700004196e-05,-2.35572425,8.433208199997294e-05,1.57098436,0.78599164,0.04,0.039999995,-9.824533099999995,0.0010730161564428359,0.0018323784599965048,-0.00017271557700043174,-0.008258751872931744,-0.0003755767800009218
0.1475,0.00015666443699996948,-0.7851124759999996,5.457447350004269e-05,-2.355730625,8.381906099997247e-05,1.5709844800000001,0.78599107,0.04,0.039999995,-9.824424049999994,0.0010818475042473589,0.0017661156299964445,-0.0001809013035004392,-0.008349854638804909,-0.00039305283000093773
0.15,0.00015609593999995843,-0.7851029599999996,5.537009000005821e-05,-2.3557370000000004,8.330603999996244e-05,1.5709846,0.7859905,0.04,0.039999995,-9.824314999999995,0.001090678852051927,0.0016998527999965514,-0.00018908703000049902,-0.008440957404677785,-0.00041052888000114943
0.1525,0.00015533458349995774,-0.7850938849999995,5.6436856100059183e-05,-2.355742295,8.261786549996182e-05,1.57098472,0.785989924,0.04,0.039999994250000004,-9.824218399999994,0.0011003357649319657,0.0016366534799964938,-0.00019823212050050734,-0.008526823017750974,-0.0004315926330011686
0.155,0.00015457322699995705,-0.7850848099999995,5.750362220006015e-05,-2.3557475900000004,8.19296909999612e-05,1.5709848400000002,0.785989348,0.04,0.039999993500000004,-9.824121799999995,0.0011099926778120046,0.0015734541599964364,-0.00020737721100051566,-0.008612688630824162,-0.00045265638600118773
0.1575,0.00015381187049995636,-0.7850757349999995,5.857038830006113e-05,-2.3557528850000002,8.124151649996056e-05,1.57098496,0.785988772,0.04,0.039999992750000005,-9.824025199999994,0.0011196495906920434,0.0015102548399963788,-0.00021652230150052398,-0.00869855424389735,-0.0004737201390012069
0.16,0.00015305051399995567,-0.7850666599999995,5.96371544000621e-05,-2.35575818,8.055334199995994e-05,1.57098508,0.7859881959999999,0.04,0.039999992,-9.823928599999993,0.001129306503572082,0.0014470555199963212,-0.0002256673920005323,-0.008784419856970538,-0.0004947838920012261
0.1625,0.00015228915749995498,-0.7850575849999994,6.070392050006307e-05,-2.3557634750000003,7.986516749995932e-05,1.5709852000000002,0.7859876199999999,0.04,0.03999999125,-9.823831999999994,0.0011389634164521208,0.0013838561999962636,-0.00023481248250054065,-0.008870285470043726,-0.0005158476450012453
0.165,0.00015152780099995429,-0.7850485099999994,6.177068660006404e-05,-2.35576877,7.917699299995868e-05,1.5709853200000001,0.785987044,0.04,0.0399999905,-9.823735399999993,0.0011486203293321598,0.0013206568799962062,-0.00024395757300054897,-0.008956151083116915,-0.0005369113980012644
0.1675,0.0001506903544999442,-0.7850395769999995,6.294458030007828e-05,-2.3557737650000004,7.841867324994933e-05,1.57098545,0.7859863739999999,0.04,0.03999999025,-9.823635999999993,0.0011562560277527177,0.0012635725999974707,-0.00025394341500065793,-0.009040626883511376,-0.0005593605415014222
0.17,0.0001497007279999568,-0.7850309279999996,6.433272920006061e-05,-2.3557781600000003,7.752006299996076e-05,1.5709856,0.7859855159999999,0.04,0.039999991,-9.823530999999996,0.0011598492972554168,0.0012187183999980418,-0.0002656107600005094,-0.009122323058549146,-0.0005845804660011011
0.17250000000000001,0.0001487111014999694,-0.7850222789999998,6.572087810004294e-05,-2.3557825550000002,7.662145274997221e-05,1.57098575,0.785984658,0.04,0.03999999175,-9.823425999999996,0.0011634425667581161,0.0011738641999986129,-0.00027727810500036083,-0.009204019233586916,-0.00060980039050078
0.17500000000000002,0.000147721474999982,-0.7850136299999999,6.710902700002526e-05,-2.35578695,7.572284249998364e-05,1.5709859000000002,0.7859837999999999,0.04,0.039999992500000005,-9.823320999999998,0.0011670358362608154,0.001129009999999184,-0.0002889454500002123,-0.009285715408624686,-0.0006350203150004589
0.1775,0.00014673184849999462,-0.7850049809999999,6.849717590000758e-05,-2.355791345,7.48242322499951e-05,1.5709860500000001,0.785982942,0.04,0.039999993250000004,-9.823216,0.0011706291057635146,0.0010841557999997555,-0.0003006127950000636,-0.009367411583662456,-0.0006602402395001375
0.18,0.00014574222200000722,-0.7849963320000001,6.988532479998991e-05,-2.35579574,7.392562200000653e-05,1.5709862,0.7859820839999999,0.04,0.039999994000000004,-9.823111,0.0011742223752662139,0.0010393016000003266,-0.00031228013999991505,-0.009449107758700226,-0.0006854601639998164
0.1825,0.00014475259550001982,-0.7849876830000002,7.127347369997223e-05,-2.355800135,7.302701175001798e-05,1.57098635,0.785981226,0.04,0.039999994750000004,-9.823006000000003,0.001177815644768913,0.0009944474000008977,-0.0003239474849997665,-0.009530803933737996,-0.0007106800884994953
0.185,0.00014358598100001828,-0.7849792300000001,7.291098439997435e-05,-2.35580396,7.196607150001662e-05,1.57098649,0.785980176,0.0399999995,0.039999994500000004,-9.822939000000002,0.001181571732740774,0.0009601555550004222,-0.00033658257999980907,-0.009610356111078279,-0.0007385631939995748
0.1875,0.0001423308725,-0.7849708750000001,7.467317600000001e-05,-2.3558075,7.082396625e-05,1.570986625,0.78597903,0.03999999875,0.039999993750000004,-9.822891,0.001185409229947225,0.0009311448875,-0.00034970155,-0.0096888362895697,-0.00076777789
0.19,0.00014107576399998174,-0.7849625199999999,7.643536760002565e-05,-2.35581104,6.968186099998337e-05,1.57098676,0.7859778839999999,0.039999998,0.039999993000000005,-9.822843,0.0011892467271536757,0.0009021342199995779,-0.00036282052000019094,-0.009767316468061123,-0.0007969925860004251
0.1925,0.00013982065549996347,-0.7849541649999998,7.819755920005129e-05,-2.35581458,6.853975574996676e-05,1.570986895,0.7859767379999999,0.03999999725,0.03999999225,-9.822795,0.0011930842243601267,0.0008731235524991556,-0.00037593949000038184,-0.009845796646552545,-0.0008262072820008503
0.195,0.0001385655469999452,-0.7849458099999996,7.995975080007693e-05,-2.35581812,6.739765049995013e-05,1.5709870300000002,0.7859755919999999,0.0399999965,0.0399999915,-9.822746999999998,0.0011969217215665776,0.0008441128849987335,-0.00038905846000057275,-0.009924276825043966,-0.0008554219780012754
0.1975,0.00013731043849992693,-0.7849374549999996,8.172194240010257e-05,-2.35582166,6.625554524993352e-05,1.570987165,0.7859744459999999,0.03999999575,0.03999999075,-9.822698999999998,0.0012007592187730284,0.0008151022174983113,-0.00040217743000076366,-0.010002757003535388,-0.0008846366740017006
0.2,0.00013605532999988655,-0.7849290999999995,8.348413400015943e-05,-2.3558252,6.511343999989664e-05,1.5709873,0.7859732999999999,0.039999995,0.03999999,-9.822650999999997,0.001204596715978975,0.0007860915499984996,-0.0004152964000010751,-0.010081237182026671,-0.0009138513700024377
0.2025,0.00013449602449988512,-0.7849209189999994,8.567524940016142e-05,-2.35582787,6.369290819989535e-05,1.5709879450000002,0.7859719199999999,0.039999995,0.03999999,-9.822605699999997,0.0012015044747383122,0.0007654709524984808,-0.00043007239600108857,-0.010157816065480947,-0.0009473537095024682
0.20500000000000002,0.0001329367189998837,-0.7849127379999994,8.786636480016343e-05,-2.3558305400000004,6.227237639989406e-05,1.57098859,0.7859705399999999,0.039999995,0.03999999,-9.822560399999997,0.0011984122334976494,0.0007448503549984621,-0.00044484839200110206,-0.010234394948935221,-0.0009808560490024987
0.20750000000000002,0.0001313774134998823,-0.7849045569999994,9.005748020016542e-05,-2.35583321,6.0851844599892754e-05,1.570989235,0.78596916,0.039999995,0.03999999,-9.822515099999997,0.0011953199922569865,0.0007242297574984433,-0.0004596243880011155,-0.010310973832389497,-0.0010143583885025293
0.21,0.0001298181079998809,-0.7848963759999994,9.224859560016739e-05,-2.3558358800000003,5.943131279989148e-05,1.57098988,0.7859677799999999,0.039999995,0.03999999,-9.822469799999997,0.0011922277510163237,0.0007036091599984247,-0.0004744003840011288,-0.010387552715843771,-0.0010478607280025593
0.2125,0.00012825880249987947,-0.7848881949999994,9.443971100016939e-05,-2.35583855,5.801078099989019e-05,1.570990525,0.7859664,0.039999995,0.03999999,-9.822424499999997,0.001189135509775661,0.000682988562498406,-0.0004891763800011422,-0.010464131599298045,-0.0010813630675025898
0.215,0.00012669949699987805,-0.7848800139999994,9.663082640017139e-05,-2.3558412200000003,5.659024919988889e-05,1.57099117,0.7859650199999999,0.039999995,0.03999999,-9.822379199999997,0.0011860432685349982,0.0006623679649983872,-0.0005039523760011558,-0.01054071048275232,-0.0011148654070026204
0.2175,0.0001250254484998494,-0.7848718744999994,9.898382800021181e-05,-2.355843575,5.506445649986261e-05,1.570991835,0.7859635469999999,0.039999995,0.03999999,-9.822339099999999,0.0011816206446377095,0.0006412241349982442,-0.0005194043180013296,-0.010616101836791418,-0.0011498451250030015
0.22,0.00012312191399984767,-0.7848638179999994,0.00010166060200021424,-2.3558453000000004,5.332814199986103e-05,1.57099254,0.7859618879999999,0.039999995,0.03999999,-9.822309399999998,0.001174537255428113,0.000619033839998224,-0.0005362081520013449,-0.010689118132001005,-0.001187779600003036
0.2225,0.00012121837949984593,-0.7848557614999994,0.00010433737600021668,-2.355847025,5.159182749985945e-05,1.570993245,0.7859602289999998,0.039999995,0.03999999,-9.822279699999998,0.0011674538662185166,0.0005968435449982038,-0.0005530119860013603,-0.010762134427210591,-0.0012257140750030707
0.225,0.00011931484499984419,-0.7848477049999993,0.00010701415000021912,-2.3558487500000003,4.985551299985787e-05,1.57099395,0.7859585699999999,0.039999995,0.03999999,-9.822249999999999,0.0011603704770089202,0.0005746532499981837,-0.0005698158200013755,-0.010835150722420177,-0.0012636485500031052
0.2275,0.00011741131049984246,-0.7848396484999993,0.00010969092400022155,-2.355850475,4.8119198499856287e-05,1.570994655,0.7859569109999999,0.039999995,0.03999999,-9.822220299999998,0.0011532870877993236,0.0005524629549981634,-0.0005866196540013908,-0.010908167017629764,-0.0013015830250031398
0.23,0.00011550777599984072,-0.7848315919999993,0.00011236769800022399,-2.3558522,4.638288399985471e-05,1.57099536,0.7859552519999998,0.039999995,0.03999999,-9.822190599999997,0.0011462036985897272,0.0005302726599981432,-0.0006034234880014062,-0.01098118331283935,-0.0013395175000031742
0.2325,0.00011360424149983898,-0.7848235354999993,0.00011504447200022642,-2.355853925,4.4646569499853125e-05,1.570996065,0.7859535929999999,0.039999995,0.03999999,-9.822160899999997,0.0011391203093801306,0.0005080823649981231,-0.0006202273220014214,-0.011054199608048937,-0.0013774519750032088
0.23500000000000001,0.00011144379399980431,-0.7848154849999993,0.00011808392300027537,-2.35585488,4.2674855699821356e-05,1.57099677,0.7859517059999999,0.039999995,0.03999999,-9.8221472,0.0011291763395991775,0.0005043077500004646,-0.0006385195550016276,-0.011126264091587151,-0.001418424880003633
0.23750000000000002,0.00010915488999980223,-0.7848074374999993,0.0001213047125002783,-2.35585545,4.058544224981945e-05,1.5709974750000002,0.7859497049999998,0.039999995,0.03999999,-9.822141499999999,0.0011178020795330921,0.0005097409750004695,-0.0006575559875016449,-0.01119785266928986,-0.0014609170000036717
0.24,0.00010686598599980016,-0.7847993899999993,0.0001245255020002812,-2.35585602,3.849602879981758e-05,1.5709981800000001,0.7859477039999998,0.039999995,0.03999999,-9.8221358,0.001106427819467007,0.0005151742000004744,-0.0006765924200016621,-0.01126944124699257,-0.00150340912000371
0.2425,0.00010457708199979808,-0.7847913424999993,0.00012774629150028412,-2.35585659,3.6406615349815675e-05,1.570998885,0.7859457029999999,0.039999995,0.03999999,-9.822130099999999,0.0010950535594009215,0.0005206074250004793,-0.0006956288525016794,-0.01134102982469528,-0.0015459012400037486
0.245,0.000102288177999796,-0.7847832949999993,0.00013096708100028705,-2.3558571600000002,3.431720189981377e-05,1.5709995900000002,0.7859437019999999,0.039999995,0.03999999,-9.8221244,0.0010836792993348362,0.0005260406500004843,-0.0007146652850016967,-0.011412618402397991,-0.0015883933600037872
0.2475,9.999927399979391e-05,-0.7847752474999993,0.00013418787050028998,-2.35585773,3.222778844981187e-05,1.5710002950000002,0.7859417009999998,0.039999995,0.03999999,-9.822118699999999,0.0010723050392687508,0.0005314738750004892,-0.0007337017175017141,-0.0114842069801007,-0.0016308854800038259
0.25,9.771036999975295e-05,-0.7847671999999992,0.00013740866000034783,-2.3558583,3.0138374999774328e-05,1.571001,0.7859396999999998,0.039999995,0.03999999,-9.822112999999996,0.0010609307792018214,0.0005369071000009471,-0.0007527381500019082,-0.011555795557803276,-0.0016733776000042889
0.2525,9.499399299975048e-05,-0.7847590849999992,0.0001412331845003513,-2.35585773,2.7657057149772066e-05,1.57100181,0.7859374094999998,0.039999995,0.03999999,-9.822071749999996,0.0010402760672130525,0.0005473204645009566,-0.0007737186575019273,-0.011625915626070326,-0.001720534285004332
0.255,9.2277615999748e-05,-0.7847509699999993,0.0001450577090003548,-2.35585716,2.517573929976981e-05,1.57100262,0.7859351189999998,0.039999995,0.03999999,-9.822030499999997,0.0010196213552242839,0.0005577338290009661,-0.0007946991650019464,-0.011696035694337375,-0.0017676909700043747
0.2575,8.956123899974552e-05,-0.7847428549999993,0.00014888223350035827,-2.3558565899999997,2.269442144976755e-05,1.57100343,0.7859328284999998,0.039999995,0.03999999,-9.821989249999996,0.000998966643235515,0.0005681471935009755,-0.0008156796725019655,-0.011766155762604423,-0.0018148476550044177
0.26,8.684486199974305e-05,-0.7847347399999992,0.00015270675800036176,-2.35585602,2.021310359976529e-05,1.5710042400000002,0.7859305379999998,0.039999995,0.03999999,-9.821947999999995,0.0009783119312467463,0.000578560558000985,-0.0008366601800019846,-0.011836275830871473,-0.0018620043400044606
0.2625,8.412848499974058e-05,-0.7847266249999992,0.00015653128250036523,-2.35585545,1.773178574976303e-05,1.5710050500000001,0.7859282474999998,0.039999995,0.03999999,-9.821906749999997,0.0009576572192579774,0.0005889739225009946,-0.0008576406875020037,-0.01190639589913852,-0.0019091610250045036
0.265,8.141210799973811e-05,-0.7847185099999993,0.00016035580700036873,-2.35585488,1.525046789976077e-05,1.57100586,0.7859259569999998,0.039999995,0.03999999,-9.821865499999996,0.0009370025072692087,0.000599387287001004,-0.0008786211950020228,-0.011976515967405569,-0.0019563177100045464
0.2675,7.853894399968986e-05,-0.7847103369999993,0.00016440186100043688,-2.355853925,1.2625263049716502e-05,1.571006825,0.7859235299999997,0.039999994750000004,0.0399999899,-9.82183805,0.0009148677665482577,0.000614460558502374,-0.000900441665002287,-0.012046299036598901,-0.0020050574400050517
0.27,7.535220599968696e-05,-0.7847020479999992,0.00016889097400044097,-2.3558521999999997,9.71228419971385e-06,1.5710081,0.7859208299999998,0.039999994000000004,0.0399999896,-9.8218382,0.0008897729683642349,0.0006388536440023962,-0.0009239420600023085,-0.012115408107645088,-0.002056963260005099
0.2725,7.216546799968406e-05,-0.7846937589999993,0.00017338008700044507,-2.355850475,6.799305349711199e-06,1.571009375,0.7859181299999998,0.039999993250000004,0.0399999893,-9.82183835,0.0008646781701802121,0.0006632467295024185,-0.0009474424550023299,-0.012184517178691276,-0.002108869080005146
0.275,6.897872999968115e-05,-0.7846854699999992,0.00017786920000044916,-2.35584875,3.886326499708546e-06,1.57101065,0.7859154299999997,0.0399999925,0.039999989,-9.8218385,0.0008395833719961891,0.0006876398150024406,-0.0009709428500023513,-0.012253626249737463,-0.0021607749000051935
0.2775,6.579199199967825e-05,-0.7846771809999992,0.00018235831300045325,-2.355847025,9.733476497058936e-07,1.571011925,0.7859127299999997,0.03999999175,0.0399999887,-9.82183865,0.0008144885738121663,0.0007120329005024629,-0.0009944432450023728,-0.012322735320783653,-0.0022126807200052406
0.28,6.260525399967535e-05,-0.7846688919999992,0.00018684742600045732,-2.3558453,-1.9396312002967585e-06,1.5710132,0.7859100299999998,0.039999991,0.0399999884,-9.8218388,0.0007893937756281435,0.000736425986002485,-0.001017943640002394,-0.01239184439182984,-0.0022645865400052877
0.28250000000000003,5.941851599967245e-05,-0.7846606029999992,0.0001913365390004614,-2.3558435749999997,-4.852610050299411e-06,1.5710144750000001,0.7859073299999998,0.03999999025,0.0399999881,-9.82183895,0.0007642989774441206,0.0007608190715025073,-0.0010414440350024156,-0.012460953462876028,-0.002316492360005335
0.28500000000000003,5.588917799961626e-05,-0.7846521459999992,0.00019630988500054082,-2.35584108,-8.079873300350946e-06,1.57101576,0.7859043319999998,0.03999999,0.039999988,-9.821824249999999,0.0007314513204580819,0.0007827040200021393,-0.00106637834000266,-0.012528531160212528,-0.0023716140500058824
0.28750000000000003,5.218853999961289e-05,-0.7846436049999992,0.00020152534750054557,-2.3558382,-1.1464278750354026e-05,1.57101705,0.7859011849999997,0.03999999,0.039999988,-9.821802124999998,0.0006947272340728334,0.0008033349000021581,-0.0010920296000026834,-0.012595343170694539,-0.002428343675005934
0.29,4.8487901999609605e-05,-0.7846350639999992,0.0002067408100005502,-2.3558353199999997,-1.4848684200357033e-05,1.5710183400000002,0.7858980379999997,0.03999999,0.039999988,-9.821779999999999,0.0006580031476875858,0.0008239657800021764,-0.0011176808600027062,-0.012662155181176549,-0.0024850733000059844
0.2925,4.478726399960624e-05,-0.7846265229999991,0.00021195627250055496,-2.35583244,-1.8233089650360113e-05,1.5710196300000001,0.7858948909999997,0.03999999,0.039999988,-9.821757874999998,0.0006212790613023374,0.0008445966600021952,-0.0011433321200027295,-0.01272896719165856,-0.0025418029250060363
0.295,4.108662599960287e-05,-0.7846179819999991,0.0002171717350005597,-2.3558295599999997,-2.1617495100363193e-05,1.57102092,0.7858917439999996,0.03999999,0.039999988,-9.821735749999998,0.0005845549749170889,0.000865227540002214,-0.0011689833800027527,-0.01279577920214057,-0.0025985325500060877
0.2975,3.73859879995995e-05,-0.7846094409999991,0.00022238719750056446,-2.35582668,-2.5001900550366273e-05,1.57102221,0.7858885969999997,0.03999999,0.039999988,-9.821713624999997,0.0005478308885318406,0.0008858584200022328,-0.0011946346400027762,-0.01286259121262258,-0.002655262175006139
0.3,3.368534999953524e-05,-0.784600899999999,0.0002276026600006553,-2.3558237999999996,-2.8386306000425325e-05,1.5710235000000001,0.7858854499999995,0.03999999,0.039999988,-9.821691500000004,0.0005111068021458395,0.0009064893000054926,-0.001220285900003034,-0.012929403223104641,-0.002711991800006736
0.3025,2.942678944458946e-05,-0.7845920424999991,0.00023360698000057884,-2.355819675,-3.2283567150375704e-05,1.57102527,0.7858818274999997,0.03999999,0.0399999883,-9.821717075000002,0.0004674873431171049,0.0009568177050048518,-0.00124808544500268,-0.012996678333735955,-0.00277371704000595
0.305,2.5168228889643682e-05,-0.7845831849999992,0.0002396113000005024,-2.3558155499999995,-3.618082830032608e-05,1.5710270400000002,0.7858782049999997,0.03999999,0.0399999886,-9.821742650000003,0.0004238678840883703,0.001007146110004211,-0.0012758849900023261,-0.013063953444367268,-0.0028354422800051645
0.3075,2.09096683346979e-05,-0.7845743274999993,0.0002456156200004259,-2.3558114249999997,-4.007808945027647e-05,1.57102881,0.7858745824999998,0.03999999,0.0399999889,-9.821768225000001,0.0003802484250596356,0.0010574745150035703,-0.001303684535001972,-0.013131228554998582,-0.0028971675200043785
0.31,1.665110777975212e-05,-0.7845654699999995,0.0002516199400003495,-2.3558073,-4.397535060022685e-05,1.57103058,0.7858709599999998,0.03999999,0.0399999892,-9.821793800000002,0.00033662896603090106,0.0011078029200029295,-0.0013314840800016181,-0.013198503665629895,-0.0029588927600035925
0.3125,1.2392547224806341e-05,-0.7845566124999996,0.0002576242600002731,-2.355803175,-4.7872611750177227e-05,1.57103235,0.7858673374999998,0.03999999,0.0399999895,-9.821819375,0.0002930095070021664,0.0011581313250022887,-0.0013592836250012643,-0.013265778776261209,-0.003020618000002807
0.315,8.133986669860562e-06,-0.7845477549999997,0.0002636285800001966,-2.35579905,-5.1769872900127606e-05,1.57103412,0.7858637149999999,0.03999999,0.039999989799999996,-9.821844950000001,0.00024939004797343176,0.001208459730001648,-0.0013870831700009104,-0.013333053886892522,-0.003082343240002021
0.3175,3.6746364348364147e-06,-0.7845387724999997,0.00026991687350023073,-2.35579448,-5.5851389650149756e-05,1.57103592,0.7858599179999999,0.0399999899,0.0399999899,-9.82186205,0.0002012276323492684,0.0012550941000013208,-0.0014156131850010093,-0.013399860635401937,-0.003145669005002239
0.32,-1.1862931603006405e-06,-0.7845295399999994,0.000276773114000424,-2.3557890199999996,-6.0301417600275226e-05,1.5710377800000002,0.7858557719999997,0.0399999896,0.0399999896,-9.8218622,0.00014397930353523929,0.0012943404000024274,-0.0014456041400018548,-0.013465730659667654,-0.0032121958200041147
0.3225,-6.047222755437695e-06,-0.7845203074999991,0.00028362935450061737,-2.3557835599999994,-6.47514455504007e-05,1.5710396400000002,0.7858516259999996,0.0399999893,0.0399999893,-9.82186235,8.673097472121014e-05,0.001333586700003534,-0.0014755950950027005,-0.013531600683933371,-0.00327872263500599
0.325,-1.090815235057475e-05,-0.784511074999999,0.00029048559500081066,-2.3557780999999993,-6.920147350052616e-05,1.5710415000000002,0.7858474799999995,0.039999989,0.039999989,-9.8218625,2.9482645907181012e-05,0.0013728330000046406,-0.001505586050003546,-0.013597470708199088,-0.003345249450007866
0.3275,-1.5769081945711807e-05,-0.7845018424999987,0.000297341835501004,-2.355772639999999,-7.365150145065164e-05,1.5710433600000002,0.7858433339999994,0.0399999887,0.0399999887,-9.82186265,-2.776568290684811e-05,0.0014120793000057471,-0.0015355770050043916,-0.013663340732464805,-0.0034117762650097416
0.33,-2.063001154084886e-05,-0.7844926099999984,0.0003041980760011973,-2.355767179999999,-7.81015294007771e-05,1.5710452200000002,0.7858391879999993,0.0399999884,0.0399999884,-9.8218628,-8.501401172087726e-05,0.0014513256000068537,-0.0015655679600052371,-0.013729210756730524,-0.0034783030800116174
0.3325,-2.5490941135985914e-05,-0.7844833774999982,0.0003110543165013906,-2.3557617199999985,-8.255155735090258e-05,1.5710470800000005,0.7858350419999991,0.0399999881,0.0399999881,-9.82186295,-0.0001422623405349064,0.0014905719000079603,-0.0015955589150060828,-0.013795080780996241,-0.003544829895013493
0.335,-3.078324790112217e-05,-0.784473805999998,0.00031852079700158336,-2.3557552899999985,-8.739751300102762e-05,1.5710490400000006,0.785830523999999,0.039999988,0.039999988,-9.821874900000005,-0.00020392329899031198,0.001551084800014495,-0.0016270110600065566,-0.013860975857837429,-0.003614657880014563
0.3375,-3.629124325105204e-05,-0.7844640649999981,0.0003262923975014844,-2.355748374999999,-9.244143250096339e-05,1.5710510500000003,0.7858258199999991,0.039999988,0.039999988,-9.821892750000004,-0.00026779057226429884,0.0016222310000135892,-0.001659193800006147,-0.013926883460966339,-0.0036861364500136527
0.34,-4.179923860098191e-05,-0.7844543239999983,0.0003340639980013854,-2.3557414599999986,-9.748535200089918e-05,1.5710530600000003,0.7858211159999992,0.039999988,0.039999988,-9.821910600000004,-0.00033165784553828567,0.0016933772000126833,-0.0016913765400057373,-0.01399279106409525,-0.0037576150200127425
0.3425,-4.7307233950911784e-05,-0.7844445829999984,0.0003418355985012865,-2.355734544999999,-0.00010252927150083496,1.5710550700000003,0.7858164119999992,0.039999988,0.039999988,-9.821928450000003,-0.0003955251188122725,0.0017645234000117777,-0.0017235592800053275,-0.014058698667224161,-0.003829093590011833
0.34500000000000003,-5.2815229300841656e-05,-0.7844348419999985,0.00034960719900118753,-2.355727629999999,-0.00010757319100077074,1.5710570800000003,0.7858117079999992,0.039999988,0.039999988,-9.821946300000002,-0.0004593923920862594,0.0018356696000108718,-0.0017557420200049177,-0.014124606270353071,-0.0039005721600109226
0.34750000000000003,-5.832322465077153e-05,-0.7844251009999986,0.0003573787995010886,-2.355720714999999,-0.00011261711050070652,1.5710590900000003,0.7858070039999993,0.039999988,0.039999988,-9.821964150000003,-0.0005232596653602462,0.001906815800009966,-0.0017879247600045079,-0.014190513873481983,-0.003972050730010013
0.35000000000000003,-6.383122000078951e-05,-0.7844153599999987,0.00036515040000111433,-2.3557137999999993,-0.00011766103000072319,1.5710611000000003,0.7858022999999993,0.039999988,0.039999988,-9.821982000000002,-0.0005871269386365266,0.0019779620000086686,-0.0018201075000043826,-0.01425642147661095,-0.0040435293000097355
0.3525,-7.003114240079502e-05,-0.7844050699999987,0.0003739010760011221,-2.3557054749999993,-0.00012334014250072823,1.5710635300000004,0.7857970049999993,0.039999988,0.039999988,-9.8219913,-0.0006690053152956094,0.002046034955008729,-0.0018545236950044132,-0.014322781842210405,-0.0041199775050098034
0.355,-7.623106480080067e-05,-0.7843947799999987,0.00038265175200113006,-2.3556971499999992,-0.0001290192550007334,1.5710659600000003,0.7857917099999993,0.039999988,0.039999988,-9.8220006,-0.0007508836919546939,0.002114107910008791,-0.0018889398900044446,-0.01438914220780986,-0.004196425710009873
0.3575,-8.24309872008063e-05,-0.7843844899999987,0.000391402428001138,-2.355688824999999,-0.00013469836750073857,1.5710683900000004,0.7857864149999992,0.039999988,0.039999988,-9.822009900000001,-0.0008327620686137784,0.002182180865008853,-0.0019233560850044759,-0.014455502573409315,-0.004272873915009943
0.36,-8.863090960081196e-05,-0.7843741999999987,0.000400153104001146,-2.355680499999999,-0.00014037748000074376,1.5710708200000003,0.7857811199999993,0.039999988,0.039999988,-9.822019200000002,-0.0009146404452728629,0.0022502538200089147,-0.001957772280004507,-0.01452186293900877,-0.0043493221200100116
0.3625,-9.483083200081759e-05,-0.7843639099999987,0.00040890378000115396,-2.355672174999999,-0.00014605659250074892,1.5710732500000004,0.7857758249999993,0.039999988,0.039999988,-9.822028500000002,-0.0009965188219319475,0.002318326775008977,-0.0019921884750045385,-0.014588223304608227,-0.004425770325010081
0.365,-0.00010103075440082325,-0.7843536199999986,0.0004176544560011619,-2.355663849999999,-0.00015173570500075407,1.5710756800000003,0.7857705299999993,0.039999988,0.039999988,-9.8220378,-0.0010783971985910321,0.002386399730009039,-0.0020266046700045696,-0.014654583670207682,-0.004502218530010151
0.3675,-0.00010747630170092741,-0.7843431219999986,0.0004267527630013093,-2.355655044999999,-0.0001576403400008497,1.5710781900000004,0.7857650299999992,0.0399999878,0.0399999878,-9.822054175000003,-0.001162323739857033,0.0024593917850110735,-0.0020617664000049,-0.014720752229922815,-0.0045803259500108865
0.37,-0.00011441309880093372,-0.7843322079999986,0.0004365463320013182,-2.3556452799999987,-0.00016399602000085548,1.5710808600000004,0.7857591199999991,0.0399999872,0.0399999872,-9.822084700000005,-0.0012503466103344083,0.002542222040011149,-0.0020984192000049334,-0.014786537177869534,-0.00466175180001096
0.3725,-0.00012134989590094003,-0.7843212939999985,0.0004463399010013271,-2.3556355149999986,-0.00017035170000086127,1.5710835300000003,0.7857532099999992,0.0399999866,0.0399999866,-9.822115225000005,-0.0013383694808117832,0.0026250522950112248,-0.002135072000004967,-0.014852322125816254,-0.004743177650011034
0.375,-0.00012828669300094637,-0.7843103799999985,0.00045613347000133603,-2.355625749999999,-0.00017670738000086708,1.5710862000000003,0.7857472999999991,0.039999986,0.039999986,-9.822145750000004,-0.0014263923512891584,0.0027078825500113,-0.0021717248000050005,-0.014918107073762975,-0.004824603500011108
0.3775,-0.00013522349010095268,-0.7842994659999986,0.00046592703900134495,-2.3556159849999987,-0.00018306306000087286,1.5710888700000003,0.7857413899999992,0.0399999854,0.0399999854,-9.822176275000004,-0.0015144152217665336,0.0027907128050113756,-0.0022083776000050336,-0.014983892021709695,-0.0049060293500111825
0.38,-0.00014216028720095899,-0.7842885519999985,0.00047572060800135386,-2.3556062199999985,-0.00018941874000087864,1.5710915400000003,0.7857354799999992,0.0399999848,0.0399999848,-9.822206800000004,-0.0016024380922439088,0.0028735430600114508,-0.002245030400005067,-0.015049676969656416,-0.004987455200011257
0.3825,-0.0001490970843009653,-0.7842776379999985,0.00048551417700136277,-2.3555964549999984,-0.00019577442000088443,1.5710942100000003,0.7857295699999991,0.039999984200000005,0.039999984200000005,-9.822237325000003,-0.001690460962721284,0.0029563733150115264,-0.0022816832000051007,-0.015115461917603134,-0.005068881050011331
0.385,-0.0001565550900010811,-0.7842662599999984,0.0004960455400015268,-2.355585669999998,-0.00020260871400099077,1.5710971000000005,0.7857232029999991,0.039999984,0.039999984,-9.822266450000004,-0.001792158233017022,0.0030431956600124404,-0.0023199091500054644,-0.015182019770154697,-0.005153622700012101
0.3875,-0.00016427370000108814,-0.7842546499999984,0.0005069458000015367,-2.3555743749999984,-0.00020968231500099723,1.5711001000000004,0.785716607499999,0.039999984,0.039999984,-9.822294875000004,-0.0019006927032176508,0.0031320140500125213,-0.0023589216750054998,-0.015248964075008437,-0.00524002225001218
0.39,-0.00017199231000109518,-0.7842430399999983,0.0005178460600015466,-2.3555630799999983,-0.00021675591600100365,1.5711031000000004,0.785710011999999,0.039999984,0.039999984,-9.822323300000004,-0.0020092271734182795,0.003220832440012602,-0.0023979342000055356,-0.01531590837986218,-0.005326421800012259
0.3925,-0.00017971092000110218,-0.7842314299999984,0.0005287463200015565,-2.3555517849999985,-0.00022382951700101008,1.5711061000000004,0.785703416499999,0.039999984,0.039999984,-9.822351725000004,-0.0021177616436189083,0.003309650830012683,-0.002436946725005571,-0.01538285268471592,-0.005412821350012338
0.395,-0.00018742953000110921,-0.7842198199999983,0.0005396465800015665,-2.3555404899999983,-0.00023090311800101653,1.5711091000000006,0.785696820999999,0.039999984,0.039999984,-9.822380150000004,-0.002226296113819537,0.003398469220012764,-0.0024759592500056063,-0.01544979698956966,-0.005499220900012416
0.3975,-0.00019514814000111625,-0.7842082099999983,0.0005505468400015764,-2.3555291949999986,-0.00023797671900102296,1.5711121000000006,0.785690225499999,0.039999984,0.039999984,-9.822408575000004,-0.002334830584020166,0.0034872876100128444,-0.002514971775005642,-0.015516741294423401,-0.005585620450012495
0.4,-0.00020286675000124357,-0.7841965999999982,0.0005614471000017566,-2.3555178999999984,-0.00024505032000113986,1.5711151000000005,0.7856836299999989,0.039999984,0.039999984,-9.822437000000008,-0.00244336505422201,0.0035761060000156575,-0.0025539843000059793,-0.015583685599277183,-0.005672020000013296
0.4025,-0.00021141202350125136,-0.7841842099999982,0.0005735177350017676,-2.355505014999998,-0.000252883117501147,1.5711185200000006,0.7856763204999989,0.0399999834,0.0399999834,-9.822482300000008,-0.0025602491572669916,0.003683696590015755,-0.0025950705300060166,-0.01565091810190165,-0.005763384100013379
0.405,-0.00021995729700125913,-0.7841718199999982,0.0005855883700017786,-2.3554921299999982,-0.0002607159150011541,1.5711219400000005,0.7856690109999989,0.0399999828,0.0399999828,-9.822527600000008,-0.002677133260311973,0.0037912871800158533,-0.002636156760006054,-0.015718150604526117,-0.005854748200013462
0.40750000000000003,-0.00022850257050126692,-0.7841594299999982,0.0005976590050017896,-2.355479244999998,-0.0002685487125011613,1.5711253600000006,0.7856617014999989,0.0399999822,0.0399999822,-9.822572900000008,-0.002794017363356954,0.0038988777700159514,-0.0026772429900060917,-0.015785383107150584,-0.005946112300013545
0.41000000000000003,-0.00023704784400127468,-0.7841470399999981,0.0006097296400018005,-2.355466359999998,-0.0002763815100011684,1.5711287800000007,0.7856543919999989,0.0399999816,0.0399999816,-9.822618200000008,-0.0029109014664019358,0.004006468360016049,-0.002718329220006129,-0.015852615609775047,-0.006037476400013629
0.41250000000000003,-0.00024559311750128247,-0.7841346499999982,0.0006218002750018115,-2.3554534749999982,-0.00028421430750117554,1.5711322000000005,0.7856470824999989,0.039999981,0.039999981,-9.822663500000008,-0.003027785569446917,0.004114058950016148,-0.0027594154500061663,-0.015919848112399514,-0.006128840500013712
0.41500000000000004,-0.00025413839100129026,-0.7841222599999981,0.0006338709100018225,-2.355440589999998,-0.00029204710500118264,1.5711356200000006,0.7856397729999989,0.039999980399999996,0.039999980399999996,-9.822708800000008,-0.003144669672491898,0.004221649540016245,-0.0028005016800062036,-0.01598708061502398,-0.006220204600013795
0.4175,-0.00026297410450143015,-0.784109592499998,0.0006463528050020207,-2.355427139999998,-0.00030014667250131114,1.5711390900000006,0.7856322164999988,0.03999997985,0.03999997985,-9.822747150000003,-0.003268936520929131,0.0043270699200153515,-0.002842335315006581,-0.016054486855874815,-0.006313216700014627
0.42,-0.0002723906980014387,-0.784096369999998,0.0006596572200020328,-2.3554125599999978,-0.00030877978000131903,1.5711426600000007,0.7856241659999988,0.039999979399999996,0.039999979399999996,-9.822771600000005,-0.0034079688601408027,0.0044281498800154435,-0.0028856637600066203,-0.01612224057317815,-0.006409524800014715
0.4225,-0.00028180729150144735,-0.784083147499998,0.0006729616350020449,-2.3553979799999976,-0.00031741288750132687,1.5711462300000005,0.7856161154999988,0.03999997895,0.03999997895,-9.822796050000004,-0.0035470011993524743,0.0045292298400155355,-0.0029289922050066597,-0.01618999429048149,-0.006505832900014803
0.425,-0.00029122388500145587,-0.784069924999998,0.000686266050002057,-2.355383399999998,-0.00032604599500133476,1.5711498000000006,0.7856080649999988,0.0399999785,0.0399999785,-9.822820500000004,-0.0036860335385641456,0.0046303098000156275,-0.002972320650006699,-0.016257748007784824,-0.006602141000014891
0.4275,-0.0003006404785014645,-0.7840567024999979,0.0006995704650020691,-2.3553688199999976,-0.00033467910250134264,1.5711533700000007,0.7856000144999987,0.039999978049999996,0.039999978049999996,-9.822844950000004,-0.003825065877775817,0.0047313897600157195,-0.0030156490950067386,-0.016325501725088162,-0.0066984491000149785
0.43,-0.00031005707200147306,-0.7840434799999979,0.0007128748800020812,-2.355354239999998,-0.0003433122100013505,1.5711569400000005,0.7855919639999988,0.0399999776,0.0399999776,-9.822869400000004,-0.003964098216987489,0.0048324697200158116,-0.003058977540006778,-0.016393255442391497,-0.0067947572000150655
0.4325,-0.00031947366550148164,-0.784030257499998,0.0007261792950020934,-2.3553396599999976,-0.00035194531750135837,1.5711605100000006,0.7855839134999988,0.03999997715,0.03999997715,-9.822893850000003,-0.0041031305561991605,0.004933549680015904,-0.0031023059850068175,-0.016461009159694836,-0.006891065300015153
0.435,-0.0003295007870015411,-0.7840164379999979,0.0007403483500021779,-2.355323919999998,-0.00036113922800141317,1.5711644700000007,0.7855753369999987,0.0399999766,0.0399999766,-9.822935000000006,-0.004248776799090007,0.005056794700020036,-0.0031471563400068034,-0.016529695689688494,-0.006990650100015099
0.4375,-0.0003398331725014096,-0.7840023199999981,0.000754949725001992,-2.355307599999998,-0.00037061354000129254,1.5711686250000005,0.7855664974999989,0.039999976,0.039999976,-9.822984500000006,-0.004397729993818096,0.005191122250018325,-0.0031927676500062225,-0.016598848626026983,-0.007091873250013809
0.44,-0.00035016555800127804,-0.7839882019999983,0.0007695511000018061,-2.355291279999998,-0.0003800878520011719,1.5711727800000006,0.7855576579999989,0.0399999754,0.0399999754,-9.823034000000005,-0.004546683188546184,0.005325449800016615,-0.003238378960005642,-0.016668001562365472,-0.007193096400012521
0.4425,-0.00036049794350114645,-0.7839740839999985,0.0007841524750016202,-2.3552749599999983,-0.0003895621640010513,1.5711769350000004,0.785548818499999,0.0399999748,0.0399999748,-9.823083500000006,-0.004695636383274273,0.005459777350014905,-0.003283990270005061,-0.016737154498703964,-0.007294319550011232
0.445,-0.0003708303290010149,-0.7839599659999986,0.0007987538500014343,-2.3552586399999984,-0.00039903647600093064,1.5711810900000003,0.7855399789999992,0.0399999742,0.0399999742,-9.823133000000006,-0.004844589578002361,0.005594104900013195,-0.0033296015800044804,-0.016806307435042453,-0.007395542700009943
0.4475,-0.00038116271450088337,-0.7839458479999989,0.0008133552250012484,-2.3552423199999986,-0.00040851078800081,1.5711852450000003,0.7855311394999992,0.0399999736,0.0399999736,-9.823182500000005,-0.004993542772730449,0.005728432450011484,-0.0033752128900038994,-0.016875460371380942,-0.0074967658500086545
0.45,-0.00039149510000082165,-0.7839317299999989,0.0008279566000011614,-2.3552259999999987,-0.00041798510000075356,1.5711894000000002,0.7855222999999993,0.039999973,0.039999973,-9.823232000000003,-0.005142495967460364,0.005862760000008795,-0.0034208242000034763,-0.01694461330771946,-0.007597989000007721
0.4525,-0.00040278745250114006,-0.7839166204999986,0.0008439176650016114,-2.355207984999998,-0.00042834132200104556,1.5711938400000005,0.7855126249999991,0.03999997255,0.03999997255,-9.823264250000005,-0.005316546605917452,0.005983631155012203,-0.0034686019900048233,-0.01701413337141972,-0.007704095400010713
0.455,-0.00041407980500145843,-0.783901510999998,0.0008598787300020614,-2.355189969999998,-0.00043869754400133757,1.5711982800000006,0.7855029499999987,0.0399999721,0.0399999721,-9.823296500000005,-0.0054905972443745395,0.006104502310015611,-0.003516379780006171,-0.01708365343511998,-0.007810201800013705
0.4575,-0.00042537215750177684,-0.7838864014999977,0.0008758397950025115,-2.355171954999997,-0.00044905376600162957,1.5712027200000007,0.7854932749999984,0.03999997165,0.03999997165,-9.823328750000005,-0.0056646478828316265,0.006225373465019019,-0.003564157570007518,-0.01715317349882024,-0.007916308200016696
0.46,-0.00043666451000209526,-0.7838712919999973,0.0008918008600029615,-2.3551539399999966,-0.0004594099880019215,1.5712071600000008,0.7854835999999982,0.039999971200000005,0.039999971200000005,-9.823361000000006,-0.005838698521288714,0.006346244620022427,-0.003611935360008865,-0.0172226935625205,-0.008022414600019687
0.4625,-0.0004479568625024136,-0.7838561824999968,0.0009077619250034115,-2.355135924999996,-0.0004697662100022135,1.571211600000001,0.7854739249999979,0.03999997075,0.03999997075,-9.823393250000008,-0.006012749159745802,0.006467115775025835,-0.003659713150010212,-0.01729221362622076,-0.00812852100002268
0.465,-0.00045924921500273204,-0.7838410729999964,0.0009237229900038615,-2.3551179099999957,-0.0004801224320025055,1.571216040000001,0.7854642499999976,0.0399999703,0.0399999703,-9.823425500000008,-0.006186799798202889,0.006587986930029243,-0.003707490940011559,-0.01736173368992102,-0.008234627400025672
0.4675,-0.00047087615250315383,-0.7838256299999959,0.0009401580050044585,-2.355099269999995,-0.0004907860610028928,1.5712205800000012,0.7854542949999973,0.03999997,0.03999997,-9.823464200000013,-0.0063654290978347,0.0067161990650366505,-0.0037559915300128107,-0.017431812826562296,-0.008342347400028456
0.47000000000000003,-0.0004831722600029973,-0.7838095199999962,0.0009575409200042372,-2.355079379999995,-0.0005020645040027492,1.571225320000001,0.7854437799999975,0.03999997,0.03999997,-9.823515800000012,-0.006553215719805214,0.006859093160034831,-0.0038059377200121746,-0.017503010109084297,-0.008453294600027044
0.47250000000000003,-0.0004954683675028408,-0.7837934099999962,0.0009749238350040158,-2.3550594899999955,-0.0005133429470026056,1.571230060000001,0.7854332649999975,0.03999997,0.03999997,-9.823567400000012,-0.006741002341775729,0.0070019872550330115,-0.003855883910011539,-0.017574207391606294,-0.008564241800025631
0.47500000000000003,-0.0005077644750026842,-0.7837772999999965,0.0009923067500037946,-2.3550395999999956,-0.000524621390002462,1.571234800000001,0.7854227499999977,0.03999997,0.03999997,-9.823619000000011,-0.0069287889637462425,0.007144881350031193,-0.0039058301000109027,-0.01764540467412829,-0.008675189000024218
0.47750000000000004,-0.0005200605825025276,-0.7837611899999967,0.0010096896650035733,-2.355019709999996,-0.0005358998330023184,1.571239540000001,0.7854122349999978,0.03999997,0.03999997,-9.82367060000001,-0.007116575585716756,0.007287775445029373,-0.003955776290010267,-0.01771660195665029,-0.008786136200022806
0.48,-0.0005323566900023708,-0.7837450799999969,0.0010270725800033515,-2.354999819999996,-0.0005471782760021745,1.5712442800000008,0.785401719999998,0.03999997,0.03999997,-9.82372220000001,-0.007304362207687267,0.0074306695400275504,-0.00400572248000963,-0.017787799239172286,-0.008897083400021391
0.4825,-0.0005446527975022143,-0.7837289699999971,0.0010444554950031302,-2.3549799299999967,-0.0005584567190020309,1.5712490200000009,0.7853912049999981,0.03999997,0.03999997,-9.823773800000009,-0.0074921488296577805,0.007573563635025731,-0.004055668670008994,-0.017858996521694284,-0.009008030600019978
0.485,-0.0005576470300023543,-0.7837120999999969,0.0010628274800033287,-2.3549586699999963,-0.0005703766530021597,1.571254120000001,0.785380089999998,0.03999997,0.03999997,-9.823834250000012,-0.007690208591556541,0.007732376700029425,-0.00410711743000921,-0.017931220866752504,-0.009122175000020421
0.4875,-0.0005709903250023664,-0.783694849999997,0.0010816940000033459,-2.354936724999996,-0.0005826173325021709,1.5712594000000009,0.785368674999998,0.03999997,0.03999997,-9.823899125000011,-0.007893404923415361,0.007899149250029576,-0.004159317475009258,-0.018003958743078426,-0.009237918000020526
0.49,-0.0005843336200023786,-0.7836775999999969,0.001100560520003363,-2.354914779999996,-0.000594858012002182,1.571264680000001,0.785357259999998,0.03999997,0.03999997,-9.823964000000013,-0.008096601255274182,0.008065921800029728,-0.004211517520009305,-0.018076696619404347,-0.009353661000020632
0.4925,-0.0005976769150023907,-0.7836603499999969,0.0011194270400033803,-2.354892834999996,-0.0006070986915021931,1.5712699600000009,0.7853458449999979,0.03999997,0.03999997,-9.824028875000012,-0.008299797587133001,0.00823269435002988,-0.004263717565009352,-0.01814943449573027,-0.009469404000020738
0.495,-0.0006110202100024028,-0.7836430999999969,0.0011382935600033975,-2.354870889999996,-0.0006193393710022043,1.571275240000001,0.7853344299999979,0.03999997,0.03999997,-9.824093750000012,-0.008502993918991822,0.008399466900030033,-0.0043159176100094,-0.01822217237205619,-0.009585147000020843
0.4975,-0.000624363505002415,-0.7836258499999968,0.0011571600800034144,-2.354848944999996,-0.0006315800505022154,1.571280520000001,0.7853230149999979,0.03999997,0.03999997,-9.824158625000011,-0.008706190250850641,0.008566239450030183,-0.004368117655009447,-0.01829491024838211,-0.009700890000020949
0.5,-0.0006377068000026254,-0.7836085999999967,0.0011760266000037127,-2.3548269999999953,-0.0006438207300024088,1.5712858000000012,0.7853115999999978,0.03999997,0.03999997,-9.824223500000002,-0.008909386582714627,0.00873301200002681,-0.004420317700009891,-0.01836764812470802,-0.009816633000021916
0.5025000000000001,-0.0006521402410026389,-0.7835901844999966,0.0011964378500037317,-2.3548030299999954,-0.0006570632115024212,1.5712915450000011,0.7852992399999977,0.03999997,0.03999997,-9.824230325000002,-0.009140975773376758,0.008880402450026947,-0.004474697950009942,-0.018440325930727863,-0.009937119150022029
0.505,-0.0006665736820026517,-0.7835717689999966,0.00121684910000375,-2.3547790599999954,-0.0006703056930024329,1.571297290000001,0.7852868799999977,0.03999997,0.03999997,-9.824237150000002,-0.009372564964038878,0.009027792900027079,-0.00452907820000999,-0.0185130037367477,-0.010057605300022136
0.5075000000000001,-0.0006810071230026652,-0.7835533534999967,0.001237260350003769,-2.3547550899999954,-0.0006835481745024453,1.571303035000001,0.7852745199999976,0.03999997,0.03999997,-9.824243975000002,-0.009604154154701009,0.009175183350027215,-0.004583458450010041,-0.018585681542767546,-0.010178091450022247
0.51,-0.000695440564002678,-0.7835349379999966,0.001257671600003787,-2.3547311199999954,-0.0006967906560024571,1.5713087800000012,0.7852621599999977,0.03999997,0.03999997,-9.824250800000002,-0.00983574334536313,0.009322573800027347,-0.004637838700010089,-0.018658359348787387,-0.010298577600022354
0.5125,-0.0007098740050026908,-0.7835165224999966,0.0012780828500038052,-2.3547071499999954,-0.0007100331375024688,1.5713145250000011,0.7852497999999977,0.03999997,0.03999997,-9.824257625000001,-0.01006733253602525,0.009469964250027479,-0.004692218950010138,-0.018731037154807225,-0.010419063750022462
0.515,-0.0007243074460027043,-0.7834981069999966,0.0012984941000038243,-2.3546831799999954,-0.0007232756190024812,1.571320270000001,0.7852374399999976,0.03999997,0.03999997,-9.824264450000001,-0.010298921726687381,0.009617354700027616,-0.004746599200010188,-0.01880371496082707,-0.010539549900022574
0.5175,-0.0007391184480029303,-0.7834792934999963,0.0013194403450041445,-2.354658589999995,-0.0007368650730026889,1.571326155000001,0.7852247569999975,0.03999997,0.03999997,-9.824292300000012,-0.010534414975018362,0.009777845900035146,-0.004801680065010632,-0.018876864667995735,-0.010661597950023563
0.52,-0.0007546845720029448,-0.7834596839999963,0.0013414565800041651,-2.3546327599999954,-0.0007511484720027022,1.5713323200000011,0.7852114279999974,0.03999997,0.03999997,-9.824362200000012,-0.010777716338680469,0.009964538600035319,-0.004858162160010685,-0.018950958177461258,-0.01078676980002368
0.5225,-0.0007702506960029586,-0.7834400744999963,0.0013634728150041845,-2.354606929999995,-0.0007654318710027148,1.5713384850000012,0.7851980989999975,0.03999997,0.03999997,-9.824432100000013,-0.011021017702342564,0.010151231300035484,-0.004914644255010735,-0.01902505168692678,-0.010911941650023791
0.525,-0.0007858168200029731,-0.7834204649999963,0.0013854890500042052,-2.354581099999995,-0.0007797152700027281,1.5713446500000012,0.7851847699999974,0.03999997,0.03999997,-9.824502000000013,-0.01126431906600467,0.010337924000035659,-0.004971126350010788,-0.019099145196392303,-0.011037113500023909
0.5275,-0.000801382944002987,-0.7834008554999963,0.0014075052850042247,-2.354555269999995,-0.0007939986690027409,1.5713508150000013,0.7851714409999975,0.03999997,0.03999997,-9.824571900000013,-0.011507620429666767,0.010524616700035825,-0.005027608445010838,-0.019173238705857826,-0.01116228535002402
0.53,-0.0008169490680030014,-0.7833812459999963,0.0014295215200042452,-2.354529439999995,-0.0008082820680027542,1.5713569800000011,0.7851581119999974,0.03999997,0.03999997,-9.824641800000014,-0.011750921793328874,0.010711309400036,-0.0050840905400108905,-0.01924733221532335,-0.011287457200024137
0.5325,-0.0008325151920030153,-0.7833616364999961,0.0014515377550042648,-2.354503609999995,-0.0008225654670027668,1.5713631450000012,0.7851447829999975,0.03999997,0.03999997,-9.824711700000014,-0.011994223156990969,0.010898002100036164,-0.005140572635010941,-0.019321425724788868,-0.011412629050024247
0.535,-0.0008488644370032584,-0.783341183999996,0.0014746637700046093,-2.3544763799999946,-0.0008375685600029903,1.5713695900000013,0.7851307859999972,0.039999969600000004,0.039999969600000004,-9.824770100000011,-0.012258527707361938,0.011079545200034836,-0.005198456360011403,-0.019396876357510518,-0.011540884300025265
0.5375,-0.0008656052425032733,-0.7833203099999959,0.0014983446750046303,-2.3544484499999947,-0.000852931500003004,1.5713761750000013,0.7851164549999972,0.039999969,0.039999969,-9.824822750000012,-0.012533333851078158,0.011258513500034994,-0.005257040900011455,-0.019473005551859636,-0.01167068125002538
0.54,-0.000882346048003289,-0.7832994359999959,0.0015220255800046526,-2.3544205199999944,-0.0008682944400030183,1.5713827600000012,0.7851021239999971,0.0399999684,0.0399999684,-9.82487540000001,-0.012808139994794389,0.01143748180003516,-0.00531562544001151,-0.019549134746208757,-0.011800478200025501
0.5425,-0.0008990868535033038,-0.7832785619999959,0.0015457064850046736,-2.3543925899999945,-0.0008836573800030319,1.5713893450000012,0.7850877929999972,0.0399999678,0.0399999678,-9.824928050000011,-0.013082946138510609,0.011616450100035319,-0.005374209980011562,-0.019625263940557875,-0.011930275150025616
0.545,-0.0009158276590033194,-0.7832576879999958,0.0015693873900046956,-2.3543646599999946,-0.0008990203200030462,1.5713959300000013,0.7850734619999972,0.0399999672,0.0399999672,-9.824980700000012,-0.01335775228222684,0.011795418400035486,-0.005432794520011617,-0.019701393134906996,-0.012060072100025737
0.5475,-0.0009325684645033343,-0.7832368139999959,0.0015930682950047166,-2.3543367299999947,-0.0009143832600030599,1.5714025150000013,0.7850591309999971,0.0399999666,0.0399999666,-9.82503335000001,-0.013632558425943058,0.011974386700035646,-0.005491379060011669,-0.019777522329256114,-0.012189869050025852
0.55,-0.0009493092700035932,-0.7832159399999956,0.0016167492000050837,-2.354308799999994,-0.000929746200003298,1.5714091000000012,0.7850447999999969,0.039999966,0.039999966,-9.825086000000015,-0.013907364569661868,0.012153355000042013,-0.005549963600012154,-0.019853651523605593,-0.012319666000026912
0.5525,-0.0009672661795036092,-0.7831936739999956,0.0016421536800051062,-2.354278664999994,-0.0009462269400033126,1.5714161650000014,0.7850294024999969,0.039999966,0.0399999666,-9.825159800000016,-0.01419505761010758,0.012363307450042198,-0.005610704660012208,-0.019931575004026973,-0.012454154350027032
0.555,-0.000985223089003626,-0.7831714079999955,0.00166755816000513,-2.354248529999994,-0.0009627076800033279,1.5714232300000013,0.7850140049999969,0.039999966,0.0399999672,-9.825233600000015,-0.014482750650553303,0.012573259900042395,-0.005671445720012265,-0.020009498484448357,-0.012588642700027157
0.5575,-0.0010031799985036418,-0.7831491419999955,0.0016929626400051525,-2.354218394999994,-0.0009791884200033426,1.5714302950000014,0.7849986074999968,0.039999966,0.0399999678,-9.825307400000016,-0.014770443690999014,0.01278321235004258,-0.005732186780012319,-0.020087421964869734,-0.012723131050027276
0.56,-0.0010211369080036586,-0.7831268759999955,0.001718367120005176,-2.3541882599999937,-0.0009956691600033578,1.5714373600000013,0.7849832099999968,0.039999966,0.0399999684,-9.825381200000015,-0.015058136731444738,0.012993164800042777,-0.005792927840012375,-0.020165345445291118,-0.0128576194000274
0.5625,-0.0010390938175036746,-0.7831046099999954,0.0017437716000051986,-2.354158124999994,-0.0010121499000033726,1.5714444250000015,0.7849678124999968,0.039999966,0.039999969,-9.825455000000016,-0.01534582977189045,0.013203117250042964,-0.005853668900012429,-0.020243268925712498,-0.01299210775002752
0.5650000000000001,-0.0010570507270036913,-0.7830823439999954,0.0017691760800052224,-2.3541279899999936,-0.001028630640003388,1.5714514900000016,0.7849524149999968,0.039999966,0.039999969600000004,-9.825528800000015,-0.01563352281233617,0.013413069700043159,-0.005914409960012486,-0.02032119240613388,-0.013126596100027647
0.5675,-0.0010754266100039668,-0.7830596064999952,0.0017951744200056128,-2.354097084999993,-0.001045496465003641,1.5714587350000015,0.7849366624999966,0.039999966,0.03999997,-9.825587600000006,-0.015931593999332406,0.013617483000039916,-0.005975801415012943,-0.0203995715826913,-0.013262538300028666
0.5700000000000001,-0.0010946404400039847,-0.7830359259999952,0.0018223604800056382,-2.354064639999993,-0.0010631324600036574,1.5714663400000017,0.7849201999999966,0.039999966,0.03999997,-9.825616400000007,-0.016250421479410443,0.013810818000040095,-0.0060384936600130015,-0.020478862151519964,-0.013401388200028796
0.5725,-0.0011138542700040019,-0.783012245499995,0.0018495465400056622,-2.354032194999993,-0.0010807684550036732,1.5714739450000017,0.7849037374999965,0.039999966,0.03999997,-9.825645200000006,-0.016569248959488466,0.014004153000040268,-0.006101185905013057,-0.020558152720348624,-0.013540238100028919
0.5750000000000001,-0.0011330681000040197,-0.782988564999995,0.0018767326000056876,-2.353999749999993,-0.0010984044500036896,1.5714815500000017,0.7848872749999966,0.039999966,0.03999997,-9.825674000000006,-0.016888076439566503,0.014197488000040448,-0.006163878150013116,-0.020637443289177288,-0.013679088000029049
0.5775,-0.001152281930004037,-0.782964884499995,0.0019039186600057119,-2.353967304999993,-0.0011160404450037053,1.5714891550000016,0.7848708124999966,0.039999966,0.03999997,-9.825702800000006,-0.017206903919644526,0.01439082300004062,-0.006226570395013171,-0.02071673385800595,-0.013817937900029172
0.58,-0.0011714957600040539,-0.782941203999995,0.001931104720005736,-2.353934859999993,-0.0011336764400037209,1.5714967600000016,0.7848543499999965,0.039999966,0.03999997,-9.825731600000006,-0.01752573139972255,0.014584158000040792,-0.006289262640013227,-0.02079602442683461,-0.013956787800029295
0.5825,-0.001190709590004072,-0.782917523499995,0.0019582907800057615,-2.353902414999993,-0.0011513124350037373,1.5715043650000016,0.7848378874999965,0.039999966,0.03999997,-9.825760400000007,-0.017844558879800586,0.014777493000040972,-0.006351954885013286,-0.020875314995663273,-0.014095637700029424
0.585,-0.0012107882000045515,-0.7828929069999945,0.001986702660006441,-2.353868399999992,-0.001169743330004178,1.5715123100000017,0.7848206899999961,0.039999966,0.03999997,-9.825814400000015,-0.018174046091809597,0.014996212900051351,-0.0064160938700143924,-0.020955472812074414,-0.014237434800031793
0.5875,-0.0012312992000048505,-0.7828678224999941,0.002015727450006864,-2.3538335999999918,-0.0011885716750044523,1.5715204250000019,0.7848031249999958,0.039999966,0.03999997,-9.825881000000017,-0.018508863169779028,0.015227625250054723,-0.006480956225015338,-0.021036064252276384,-0.01438070550003388
0.59,-0.0012518102000051484,-0.7828427379999937,0.0020447522400072857,-2.353798799999991,-0.001207400020004726,1.571528540000002,0.7847855599999956,0.039999966,0.03999997,-9.825947600000017,-0.01884368024774844,0.015459037600058087,-0.006545818580016281,-0.02111665569247835,-0.014523976200035963
0.5925,-0.0012723212000054474,-0.7828176534999933,0.0020737770300077083,-2.3537639999999906,-0.0012262283650050004,1.571536655000002,0.7847679949999953,0.039999966,0.03999997,-9.826014200000017,-0.019178497325717872,0.01569044995006146,-0.006610680935017226,-0.021197247132680317,-0.01466724690003805
0.595,-0.0012928322000057455,-0.7827925689999929,0.00210280182000813,-2.3537291999999903,-0.001245056710005274,1.5715447700000023,0.7847504299999951,0.039999966,0.03999997,-9.82608080000002,-0.01951331440368729,0.015921862300064822,-0.006675543290018168,-0.021277838572882284,-0.014810517600040131
0.5975,-0.0013133432000060445,-0.7827674844999926,0.002131826610008553,-2.3536943999999895,-0.0012638850550055485,1.5715528850000025,0.7847328649999948,0.039999966,0.03999997,-9.82614740000002,-0.01984813148165672,0.016153274650068192,-0.006740405645019114,-0.021358430013084254,-0.01495378830004222
0.6,-0.0013338542000067557,-0.7827423999999917,0.0021608514000095607,-2.3536595999999883,-0.001282713400006202,1.5715610000000027,0.7847152999999942,0.039999966,0.03999997,-9.826214000000009,-0.0201829485596375,0.016384687000068957,-0.006805268000020689,-0.021439021453286567,-0.015097059000045729
0.6025,-0.001355701940006478,-0.782715804999992,0.002191771230009168,-2.3536223399999887,-0.001302770860005947,1.5715696400000025,0.7846965859999945,0.039999966,0.039999970450000005,-9.826241300000008,-0.02055452028300452,0.016607691550066122,-0.006872174900019838,-0.021520736068511324,-0.015244943250043849
0.605,-0.0013775496800061994,-0.7826892099999925,0.0022226910600087733,-2.353585079999989,-0.0013228283200056913,1.5715782800000024,0.7846778719999947,0.039999966,0.0399999709,-9.826268600000008,-0.020926092006371525,0.016830696100063276,-0.006939081800018985,-0.021602450683736077,-0.015392827500041962
0.6075,-0.0013993974200059217,-0.7826626149999928,0.0022536108900083804,-2.35354781999999,-0.0013428857800054364,1.5715869200000023,0.7846591579999949,0.039999966,0.03999997135,-9.826295900000009,-0.02129766372973855,0.017053700650060444,-0.007005988700018135,-0.021684165298960834,-0.015540711750040083
0.61,-0.001421245160005643,-0.7826360199999931,0.0022845307200079863,-2.3535105599999904,-0.0013629432400051806,1.5715955600000022,0.7846404439999951,0.039999966,0.0399999718,-9.826323200000008,-0.021669235453105555,0.0172767052000576,-0.007072895600017282,-0.021765879914185587,-0.015688596000038198
0.6125,-0.0014430929000053654,-0.7826094249999934,0.002315450550007593,-2.3534732999999908,-0.0013830007000049257,1.5716042000000021,0.7846217299999954,0.039999966,0.03999997225,-9.826350500000007,-0.022040807176472575,0.017499709750054767,-0.007139802500016431,-0.021847594529410343,-0.015836480250036318
0.615,-0.0014649406400050868,-0.7825828299999938,0.002346370380007199,-2.353436039999991,-0.0014030581600046699,1.571612840000002,0.7846030159999956,0.039999966,0.039999972700000004,-9.826377800000007,-0.02241237889983958,0.01772271430005192,-0.0072067094000155775,-0.021929309144635097,-0.01598436450003443
0.6175,-0.0014872469650052175,-0.7825557149999937,0.0023779402700073843,-2.353397939999991,-0.0014235370950047902,1.5716216600000021,0.7845839079999954,0.039999966,0.039999973200000004,-9.826414350000013,-0.022787861060437224,0.017958088050058437,-0.007274293850015488,-0.022011350374687357,-0.016133627300034155
0.62,-0.001510470460005238,-0.7825275599999937,0.0024108102800074137,-2.353358159999991,-0.0014448589800048091,1.571630840000002,0.7845640119999955,0.039999966,0.0399999738,-9.826469400000013,-0.023171164095488195,0.018218200200058668,-0.0073432334000155496,-0.02209404483439397,-0.016285647200034288
0.6225,-0.0015336939550052598,-0.7824994049999936,0.0024436802900074444,-2.3533183799999913,-0.0014661808650048291,1.5716400200000022,0.7845441159999955,0.039999966,0.0399999744,-9.826524450000013,-0.023554467130539183,0.018478312350058913,-0.007412172950015614,-0.02217673929410059,-0.01643766710003443
0.625,-0.0015569174500052803,-0.7824712499999936,0.002476550300007474,-2.353278599999991,-0.001487502750004848,1.5716492000000022,0.7845242199999954,0.039999966,0.039999975,-9.826579500000014,-0.023937770165590153,0.018738424500059143,-0.007481112500015675,-0.022259433753807203,-0.016589687000034565
0.6275000000000001,-0.001580140945005302,-0.7824430949999935,0.0025094203100075045,-2.353238819999991,-0.0015088246350048679,1.5716583800000021,0.7845043239999955,0.039999966,0.0399999756,-9.826634550000012,-0.02432107320064114,0.018998536650059385,-0.00755005205001574,-0.02234212821351382,-0.01674170690003471
0.63,-0.0016033644400053227,-0.7824149399999936,0.002542290320007534,-2.353199039999991,-0.0015301465200048868,1.571667560000002,0.7844844279999955,0.039999966,0.0399999762,-9.826689600000012,-0.024704376235692112,0.019258648800059616,-0.0076189916000158,-0.022424822673220435,-0.01689372680003484
0.6325000000000001,-0.0016265879350053443,-0.7823867849999935,0.0025751603300075646,-2.353159259999991,-0.0015514684050049066,1.5716767400000022,0.7844645319999954,0.039999966,0.039999976799999996,-9.826744650000013,-0.025087679270743096,0.019518760950059857,-0.007687931150015865,-0.022507517132927053,-0.017045746700034985
0.635,-0.0016507540900056916,-0.7823575659999932,0.0026093668400080567,-2.3531178499999905,-0.001573656870005226,1.5716863000000023,0.7844438299999952,0.039999966,0.039999977299999996,-9.826779000000005,-0.025496193394162155,0.01976932270005678,-0.007758171200016377,-0.02259103395046734,-0.017200547200036085
0.6375000000000001,-0.0016753915750057145,-0.7823278149999932,0.0026442416000080895,-2.3530756249999905,-0.001596278625005247,1.5716960500000023,0.7844227249999951,0.039999966,0.03999997775,-9.826803000000005,-0.0259173130617522,0.02001510925005701,-0.007829061500016443,-0.022674961946924043,-0.017356738000036228
0.64,-0.0017000290600057365,-0.7822980639999931,0.00267911636000812,-2.3530333999999904,-0.0016189003800052672,1.5717058000000024,0.7844016199999951,0.039999966,0.0399999782,-9.826827000000005,-0.02633843272934223,0.020260895800057226,-0.007899951800016505,-0.022758889943380742,-0.017512928800036368
0.6425,-0.0017246665450057583,-0.7822683129999931,0.0027139911200081512,-2.3529911749999903,-0.0016415221350052872,1.5717155500000024,0.7843805149999951,0.039999966,0.03999997865,-9.826851000000007,-0.02675955239693226,0.020506682350057447,-0.007970842100016568,-0.022842817939837442,-0.017669119600036507
0.645,-0.0017493040300057814,-0.7822385619999931,0.0027488658800081836,-2.3529489499999903,-0.0016641438900053085,1.5717253000000024,0.7843594099999951,0.039999966,0.0399999791,-9.826875000000006,-0.027180672064522307,0.020752468900057677,-0.008041732400016635,-0.022926745936294145,-0.017825310400036654
0.6475,-0.0017739415150058032,-0.7822088109999931,0.0027837406400082147,-2.35290672499999,-0.0016867656450053285,1.5717350500000022,0.7843383049999951,0.039999966,0.039999979549999995,-9.826899000000006,-0.027601791732112337,0.020998255450057894,-0.008112622700016697,-0.023010673932750844,-0.01798150120003679
0.65,-0.0017985790000061696,-0.7821790599999926,0.002818615400008734,-2.3528644999999893,-0.0017093874000056652,1.5717448000000025,0.7843171999999947,0.039999966,0.03999998,-9.826923000000019,-0.028022911399706373,0.021244042000068155,-0.008183513000017236,-0.02309460192920795,-0.018137692000037935
0.6525,-0.0018246679600061927,-0.7821476409999926,0.002855548190008767,-2.352819799999989,-0.0017333436300056865,1.5717551350000025,0.7842948559999947,0.039999966,0.0399999806,-9.82699800000002,-0.0284608982504453,0.021532253350068413,-0.008256402500017301,-0.023180243466069683,-0.018298104700038075
0.655,-0.0018507569200062169,-0.7821162219999925,0.002892480980008801,-2.3527750999999895,-0.0017572998600057087,1.5717654700000026,0.7842725119999947,0.039999966,0.0399999812,-9.827073000000018,-0.02889888510118424,0.02182046470006868,-0.00832929200001737,-0.02326588500293142,-0.018458517400038225
0.6575,-0.0018768458800062402,-0.7820848029999925,0.0029294137700088337,-2.3527303999999893,-0.00178125609000573,1.5717758050000026,0.7842501679999947,0.039999966,0.0399999818,-9.827148000000019,-0.029336871951923166,0.022108676050068936,-0.008402181500017434,-0.02335152653979315,-0.01861893010003837
0.66,-0.0019029348400062644,-0.7820533839999925,0.002966346560008868,-2.352685699999989,-0.0018052123200057524,1.5717861400000026,0.7842278239999946,0.039999966,0.0399999824,-9.827223000000018,-0.02977485880266211,0.022396887400069204,-0.008475071000017502,-0.023437168076654885,-0.01877934280003852
0.6625,-0.0019290238000062875,-0.7820219649999924,0.003003279350008901,-2.352640999999989,-0.0018291685500057737,1.5717964750000026,0.7842054799999946,0.039999966,0.039999983,-9.827298000000019,-0.030212845653401033,0.022685098750069462,-0.008547960500017568,-0.023522809613516615,-0.01893975550003866
0.665,-0.001955112760006312,-0.7819905459999924,0.0030402121400089355,-2.352596299999989,-0.0018531247800057961,1.5718068100000027,0.7841831359999946,0.039999966,0.039999983600000004,-9.827373000000017,-0.03065083250413998,0.02297331010006973,-0.008620850000017635,-0.02360845115037835,-0.01910016820003881
0.6675,-0.0019816978450066967,-0.781958554999992,0.0030778483850094807,-2.3525507049999885,-0.0018775370550061495,1.5718173400000028,0.7841603604999943,0.039999966,0.039999984800000006,-9.82743720000001,-0.03110154960316059,0.02325603585006599,-0.008694395900018179,-0.02369472775610418,-0.019261920500039928
0.67,-0.0020092751800067222,-0.781925419999992,0.0031168915400095172,-2.3525033199999883,-0.0019028614200061731,1.5718282600000026,0.7841367219999942,0.039999966,0.0399999872,-9.82747980000001,-0.031577727198716814,0.023527790400066244,-0.008769254600018248,-0.023782274499556822,-0.01942635200004008
0.6725,-0.002036852515006747,-0.7818922849999919,0.0031559346950095516,-2.3524559349999885,-0.0019281857850061955,1.5718391800000027,0.7841130834999942,0.039999966,0.0399999896,-9.82752240000001,-0.03205390479427302,0.023799544950066486,-0.008844113300018315,-0.02386982124300946,-0.01959078350004023
0.675,-0.0020644298500067724,-0.7818591499999918,0.003194977850009588,-2.3524085499999883,-0.001953510150006219,1.5718501000000027,0.7840894449999942,0.039999966,0.039999992000000005,-9.82756500000001,-0.03253008238982924,0.02407129950006674,-0.008918972000018385,-0.0239573679864621,-0.01975521500004038
0.6775,-0.002092007185006797,-0.7818260149999918,0.003234021005009623,-2.3523611649999885,-0.0019788345150062417,1.5718610200000027,0.7840658064999941,0.039999966,0.0399999944,-9.827607600000011,-0.03300625998538544,0.02434305405006698,-0.00899383070001845,-0.02404491472991474,-0.019919646500040526
0.68,-0.0021195845200068226,-0.7817928799999918,0.0032730641600096596,-2.3523137799999883,-0.002004158880006265,1.5718719400000027,0.7840421679999942,0.039999966,0.0399999968,-9.827650200000011,-0.03348243758094167,0.024614808600067234,-0.009068689400018521,-0.02413246147336738,-0.02008407800004068
0.6825,-0.0021471618550068473,-0.7817597449999918,0.003312107315009694,-2.3522663949999885,-0.0020294832450062877,1.5718828600000028,0.7840185294999942,0.039999966,0.039999999200000004,-9.82769280000001,-0.03395861517649787,0.024886563150067476,-0.009143548100018587,-0.024220008216820018,-0.020248509500040826
0.685,-0.002175755540007253,-0.7817254549999912,0.0033525916300102695,-2.3522171699999874,-0.00205574093000666,1.5718941900000027,0.7839940199999939,0.039999966,0.04,-9.827747500000015,-0.03444528505218364,0.025184551200077534,-0.009219637600019117,-0.024308310262880942,-0.0204154004000419
0.6875,-0.0022048574000072788,-0.7816905874999912,0.0033937965250103058,-2.3521670249999875,-0.002082465275006684,1.5719057250000028,0.7839690749999938,0.039999966,0.04,-9.827808250000016,-0.03493720106792828,0.02549565600007781,-0.009296342500019185,-0.024396989960245582,-0.02058352100004205
0.6900000000000001,-0.002233959260007306,-0.7816557199999913,0.0034350014200103442,-2.3521168799999876,-0.0021091896200067088,1.5719172600000029,0.7839441299999937,0.039999966,0.04,-9.827869000000016,-0.035429117083672954,0.025806760800078102,-0.009373047400019256,-0.024485669657610225,-0.020751641600042205
0.6925,-0.0022630611200073316,-0.7816208524999912,0.003476206315010381,-2.3520667349999873,-0.0021359139650067326,1.571928795000003,0.7839191849999937,0.039999966,0.04,-9.827929750000015,-0.0359210330994176,0.02611786560007838,-0.009449752300019324,-0.02457434935497486,-0.020919762200042356
0.6950000000000001,-0.0022921629800073586,-0.7815859849999912,0.0035174112100104194,-2.3520165899999874,-0.0021626383100067574,1.571940330000003,0.7838942399999936,0.039999966,0.04,-9.827990500000016,-0.03641294911516227,0.026428970400078668,-0.009526457200019395,-0.024663029052339504,-0.02108788280004251
0.6975,-0.0023212648400073844,-0.7815511174999912,0.0035586161050104557,-2.3519664449999875,-0.0021893626550067813,1.5719518650000028,0.7838692949999937,0.039999966,0.04,-9.828051250000016,-0.03690486513090692,0.026740075200078945,-0.009603162100019463,-0.024751708749704143,-0.02125600340004266
0.7000000000000001,-0.002350366700007809,-0.7815162499999907,0.0035998210000110576,-2.3519162999999867,-0.0022160870000071707,1.5719634000000031,0.7838443499999933,0.039999966,0.04,-9.828112000000006,-0.03739678114666253,0.02705118000007639,-0.009679867000020022,-0.02484038844706909,-0.021424124000043798
0.7025,-0.0023810285000078362,-0.7814795824999906,0.003643237885011096,-2.3518635449999867,-0.002244243245007196,1.5719755500000032,0.7838180774999932,0.039999966,0.04,-9.828130900000005,-0.037931684032219234,0.02735112540007666,-0.009758482750020092,-0.02493027038874531,-0.021596099900043953
0.705,-0.0024116903000078634,-0.7814429149999906,0.003686654770011135,-2.3518107899999867,-0.002272399490007221,1.571987700000003,0.7837918049999932,0.039999966,0.04,-9.828149800000006,-0.038466586917775936,0.027651070800076925,-0.009837098500020161,-0.02502015233042153,-0.021768075800044105
0.7075,-0.0024423521000078922,-0.7814062474999905,0.0037300716550111752,-2.3517580349999867,-0.002300555735007247,1.5719998500000032,0.7837655324999931,0.039999966,0.04,-9.828168700000006,-0.03900148980333266,0.027951016200077203,-0.009915714250020236,-0.025110034272097754,-0.021940051700044264
0.71,-0.0024730139000079194,-0.7813695799999905,0.003773488540011214,-2.3517052799999867,-0.002328711980007272,1.572012000000003,0.7837392599999932,0.039999966,0.04,-9.828187600000005,-0.03953639268888936,0.028250961600077472,-0.009994330000020306,-0.025199916213773974,-0.02211202760004442
0.7125,-0.002503675700007948,-0.7813329124999905,0.0038169054250112543,-2.3516525249999862,-0.002356868225007298,1.5720241500000032,0.7837129874999932,0.039999966,0.04,-9.828206500000006,-0.04007129557444608,0.02855090700007775,-0.010072945750020379,-0.025289798155450197,-0.02228400350004458
0.715,-0.0025343375000079753,-0.7812962449999904,0.003860322310011293,-2.351599769999986,-0.0023850244700073233,1.5720363000000033,0.7836867149999931,0.039999966,0.04,-9.828225400000006,-0.04060619846000278,0.028850852400078016,-0.010151561500020449,-0.025379680097126416,-0.02245597940004473
0.7175,-0.00256553077500842,-0.7812589699999899,0.0039044929050119238,-2.3515460299999855,-0.0024136694000077325,1.5720486800000033,0.7836599849999928,0.039999966,0.04,-9.828259300000017,-0.04114888291820554,0.02915951410008512,-0.010230788700021,-0.025470222998434364,-0.022629205000045872
0.72,-0.002597787000008449,-0.7812204799999899,0.003950170920011964,-2.3514903199999857,-0.0024432917000077586,1.5720615200000034,0.7836323399999927,0.039999966,0.04,-9.828323200000018,-0.04170713052168208,0.029485608400085413,-0.010311238800021072,-0.025562087819004202,-0.022804930000046027
0.7225,-0.0026300432250084787,-0.7811819899999899,0.003995848935012007,-2.3514346099999854,-0.0024729140000077864,1.5720743600000033,0.7836046949999927,0.039999966,0.04,-9.828387100000016,-0.04226537812515865,0.029811702700085718,-0.010391688900021148,-0.02565395263957404,-0.02298065500004619
0.725,-0.0026622994500085074,-0.7811434999999899,0.0040415269500120475,-2.351378899999985,-0.0025025363000078125,1.5720872000000035,0.7835770499999927,0.039999966,0.04,-9.828451000000017,-0.042823625728635184,0.030137797000086005,-0.010472139000021218,-0.02574581746014388,-0.02315638000004635
0.7275,-0.0026945556750085377,-0.7811050099999898,0.00408720496501209,-2.3513231899999854,-0.0025321586000078404,1.5721000400000034,0.7835494049999927,0.039999966,0.04,-9.828514900000018,-0.04338187333211175,0.03046389130008631,-0.010552589100021293,-0.02583768228071372,-0.02333210500004651
0.73,-0.0027268119000085664,-0.7810665199999898,0.0041328829800121305,-2.351267479999985,-0.0025617809000078665,1.5721128800000035,0.7835217599999926,0.039999966,0.04,-9.828578800000017,-0.043940120935588294,0.0307899856000866,-0.010633039200021364,-0.025929547101283555,-0.023507830000046668
0.7325,-0.0027590681250085963,-0.7810280299999898,0.004178560995012173,-2.3512117699999853,-0.0025914032000078943,1.5721257200000034,0.7834941149999927,0.039999966,0.04,-9.828642700000017,-0.04449836853906486,0.031116079900086906,-0.01071348930002144,-0.026021411921853397,-0.02368355500004683
0.735,-0.0027924098800090605,-0.7809882799999892,0.004225778500012831,-2.351154219999984,-0.0026220232600083207,1.5721390000000037,0.7834655299999923,0.039999966,0.04,-9.828691600000012,-0.04507210366443444,0.03146348400009574,-0.010795203200022018,-0.026113511621976646,-0.023861718300047963
0.7375,-0.002826294400009092,-0.7809478999999891,0.004273765750012876,-2.3510957499999843,-0.00265314220000835,1.5721525000000036,0.7834364749999922,0.039999966,0.04,-9.82873300000001,-0.04565358255074127,0.03182154300009608,-0.010877549000022095,-0.02620572876187647,-0.02404110075004813
0.74,-0.002860178920009122,-0.7809075199999892,0.004321753000012919,-2.3510372799999844,-0.0026842611400083776,1.5721660000000037,0.7834074199999922,0.039999966,0.04,-9.828774400000011,-0.04623506143704808,0.03217960200009639,-0.010959894800022168,-0.026297945901776285,-0.02422048320004829
0.7425,-0.0028940634400091538,-0.7808671399999891,0.004369740250012963,-2.3509788099999844,-0.0027153800800084065,1.5721795000000036,0.7833783649999921,0.039999966,0.04,-9.82881580000001,-0.04681654032335491,0.032537661000096724,-0.011042240600022245,-0.026390163041676105,-0.024399865650048456
0.745,-0.002927947960009184,-0.7808267599999891,0.004417727500013006,-2.3509203399999845,-0.002746499020008434,1.5721930000000037,0.7833493099999921,0.039999966,0.04,-9.82885720000001,-0.04739801920966172,0.032895720000097044,-0.011124586400022318,-0.026482380181575924,-0.024579248100048617
0.7475,-0.0029618324800092153,-0.780786379999989,0.004465714750013051,-2.350861869999984,-0.002777617960008463,1.5722065000000036,0.783320254999992,0.039999966,0.04,-9.828898600000011,-0.04797949809596855,0.03325377900009738,-0.011206932200022394,-0.026574597321475744,-0.024758630550048785
0.75,-0.002995717000009699,-0.7807459999999885,0.004513702000013736,-2.3508033999999833,-0.0028087369000089073,1.5722200000000037,0.7832911999999916,0.039999966,0.04,-9.828940000000008,-0.04856097698228752,0.0336118380000924,-0.011289278000022952,-0.026666814461376035,-0.02493801300004992
0.7525000000000001,-0.003031262950009247,-0.780703689499989,0.004564045750013096,-2.350741959999984,-0.002841382135008492,1.5722341600000036,0.783260719999992,0.039999966,0.04,-9.828974200000008,-0.04918704144672944,0.0339505113000881,-0.011373400850021883,-0.026760772522563297,-0.025120975050047595
0.755,-0.0030668089000087935,-0.7806613789999896,0.004614389500012454,-2.350680519999985,-0.0028740273700080757,1.5722483200000035,0.7832302399999924,0.039999966,0.04,-9.829008400000008,-0.04981310591117133,0.03428918460008378,-0.011457523700020811,-0.026854730583750555,-0.02530393710004526
0.7575000000000001,-0.003102354850008342,-0.7806190684999901,0.004664733250011814,-2.3506190799999858,-0.002906672605007661,1.5722624800000033,0.7831997599999928,0.039999966,0.04,-9.829042600000008,-0.05043917037561325,0.034627857900079474,-0.01154164655001974,-0.026948688644937813,-0.025486899150042937
0.76,-0.0031379008000078884,-0.7805767579999906,0.004715077000011172,-2.3505576399999866,-0.0029393178400072446,1.5722766400000032,0.7831692799999932,0.039999966,0.04,-9.829076800000006,-0.05106523484005514,0.03496653120007515,-0.011625769400018669,-0.02704264670612507,-0.0256698612000406
0.7625000000000001,-0.0031734467500074367,-0.7805344474999912,0.004765420750010532,-2.3504961999999874,-0.00297196307500683,1.5722908000000029,0.7831387999999936,0.039999966,0.04,-9.829111000000006,-0.051691299304497056,0.03530520450007085,-0.0117098922500176,-0.027136604767312333,-0.025852823250038275
0.765,-0.0032089927000069833,-0.7804921369999918,0.0048157645000098896,-2.3504347599999877,-0.0030046083100064135,1.5723049600000027,0.783108319999994,0.039999966,0.04,-9.829145200000006,-0.052317363768938946,0.03564387780006653,-0.011794015100016528,-0.027230562828499588,-0.026035785300035943
0.7675000000000001,-0.0032451032300071813,-0.7804491659999915,0.004866908985010171,-2.3503723299999875,-0.0030377721650065954,1.5723193350000029,0.7830773599999938,0.0399999657,0.03999999975,-9.82918760000001,-0.05294955093426014,0.035999486500075104,-0.011878708300016553,-0.02732489826159516,-0.02621990625003595
0.77,-0.0032823429200077225,-0.7804048739999908,0.004919654940010938,-2.350307919999987,-0.0030719732600070927,1.572334140000003,0.7830454399999934,0.039999964799999996,0.039999999,-9.829246400000011,-0.0535939835013295,0.036388966000080764,-0.0119645422000178,-0.0274199884385067,-0.02640634500003866
0.7725,-0.0033195826100082633,-0.7803605819999901,0.004972400895011705,-2.3502435099999857,-0.0031061743550075895,1.5723489450000032,0.7830135199999929,0.0399999639,0.03999999825,-9.829305200000013,-0.054238416068398854,0.036778445500086424,-0.012050376100019047,-0.027515078615418243,-0.02659278375004137
0.775,-0.003356822300008806,-0.7803162899999896,0.005025146850012473,-2.350179099999985,-0.003140375450008088,1.5723637500000034,0.7829815999999925,0.039999963,0.0399999975,-9.829364000000014,-0.054882848635468245,0.0371679250000921,-0.012136210000020298,-0.027610168792329786,-0.026779222500044088
0.7775,-0.0033940619900093474,-0.7802719979999889,0.00507789280501324,-2.350114689999984,-0.003174576545008585,1.5723785550000036,0.782949679999992,0.0399999621,0.03999999675,-9.829422800000016,-0.0555272812025376,0.03755740450009776,-0.012222043900021545,-0.02770525896924133,-0.026965661250046798
0.78,-0.0034313016800098903,-0.7802277059999883,0.005130638760014008,-2.350050279999983,-0.0032087776400090834,1.572393360000004,0.7829177599999915,0.0399999612,0.039999996,-9.829481600000015,-0.05617171376960699,0.03794688400010344,-0.012307877800022796,-0.027800349146152873,-0.027152100000049514
0.7825,-0.003468541370010431,-0.7801834139999876,0.005183384715014775,-2.349985869999982,-0.00324297873500958,1.5724081650000041,0.7828858399999911,0.0399999603,0.03999999525,-9.829540400000017,-0.05681614633667635,0.0383363635001091,-0.012393711700024044,-0.027895439323064417,-0.027338538750052224
0.785,-0.003506931250011128,-0.7801377949999868,0.005237762230015763,-2.349919499999981,-0.003278238450010221,1.5724234000000044,0.7828529299999905,0.0399999606,0.039999995,-9.829572400000005,-0.05749109275658765,0.03871118620010495,-0.012480773900025041,-0.02799152117225298,-0.027527232000054212
0.7875,-0.0035458962250111627,-0.7800915124999868,0.005292955525015812,-2.3498521499999807,-0.003314027475010253,1.5724388500000044,0.7828195249999904,0.0399999615,0.039999995,-9.829591000000006,-0.05818129610290031,0.03907868050010528,-0.012568450250025119,-0.028088098857579416,-0.027717052500054382
0.79,-0.003584861200011199,-0.7800452299999867,0.005348148820015863,-2.3497847999999806,-0.0033498165000102865,1.5724543000000044,0.7827861199999904,0.0399999624,0.039999995,-9.829609600000007,-0.058871499449212994,0.03944617480010562,-0.0126561266000252,-0.028184676542905858,-0.027906873000054556
0.7925,-0.0036238261750112335,-0.7799989474999867,0.005403342115015912,-2.349717449999981,-0.003385605525010318,1.5724697500000044,0.7827527149999903,0.0399999633,0.039999995,-9.829628200000005,-0.05956170279552565,0.03981366910010595,-0.012743802950025277,-0.028281254228232293,-0.028096693500054726
0.795,-0.0036627911500112698,-0.7799526649999866,0.0054585354100159635,-2.3496500999999808,-0.0034213945500103514,1.5724852000000045,0.7827193099999903,0.0399999642,0.039999995,-9.829646800000006,-0.06025190614183834,0.04018116340010629,-0.012831479300025359,-0.02837783191355873,-0.028286514000054903
0.7975,-0.0037017561250113043,-0.7799063824999866,0.0055137287050160124,-2.3495827499999806,-0.0034571835750103834,1.5725006500000045,0.7826859049999902,0.0399999651,0.039999995,-9.829665400000005,-0.060942109488151,0.04054865770010661,-0.012919155650025436,-0.02847440959888517,-0.02847633450005507
0.8,-0.003740721100011852,-0.7798600999999858,0.005568922000016789,-2.3495153999999796,-0.0034929726000108865,1.5725161000000047,0.7826524999999898,0.039999966,0.039999995,-9.829684000000022,-0.06163231283446962,0.0409161520001222,-0.013006832000026025,-0.028570987284212125,-0.02866615500005624
0.8025,-0.003781441960011888,-0.7798117549999858,0.00562660591001684,-2.3494449149999794,-0.0035303752650109196,1.5725323000000049,0.7826175949999898,0.0399999651,0.039999995,-9.82975750000002,-0.06234289146980521,0.04133599825012257,-0.013096249400026105,-0.028669345285772183,-0.02885938005005641
0.805,-0.003822162820011926,-0.7797634099999858,0.005684289820016894,-2.3493744299999793,-0.0035677779300109544,1.5725485000000048,0.7825826899999898,0.0399999642,0.039999995,-9.829831000000022,-0.06305347010514084,0.041755844500122964,-0.013185666800026188,-0.028767703287332247,-0.02905260510005659
0.8075,-0.0038628836800119622,-0.7797150649999858,0.005741973730016945,-2.349303944999979,-0.0036051805950109875,1.572564700000005,0.7825477849999898,0.0399999633,0.039999995,-9.829904500000021,-0.06376404874047643,0.04217569075012333,-0.013275084200026268,-0.028866061288892304,-0.029245830150056763
0.81,-0.003903604540012,-0.7796667199999857,0.005799657640016999,-2.3492334599999793,-0.0036425832600110227,1.5725809000000048,0.7825128799999898,0.0399999624,0.039999995,-9.829978000000022,-0.06447462737581207,0.04259553700012372,-0.01336450160002635,-0.028964419290452365,-0.029439055200056942
0.8125,-0.003944325400012036,-0.7796183749999857,0.00585734155001705,-2.349162974999979,-0.003679985925011056,1.572597100000005,0.7824779749999897,0.0399999615,0.039999995,-9.830051500000021,-0.06518520601114766,0.0430153832501241,-0.01345391900002643,-0.029062777292012423,-0.029632280250057114
0.8150000000000001,-0.003985046260012074,-0.7795700299999856,0.005915025460017104,-2.349092489999979,-0.0037173885900110906,1.5726133000000049,0.7824430699999897,0.0399999606,0.039999995,-9.830125000000022,-0.0658957846464833,0.04343522950012449,-0.013543336400026513,-0.029161135293572484,-0.029825505300057294
0.8175,-0.004026362375012641,-0.7795209999999849,0.005973553800017909,-2.349020974999978,-0.0037553390500116124,1.5726297300000052,0.7824076399999892,0.039999959700000004,0.039999995,-9.830176350000002,-0.0666218552740679,0.04384733380011796,-0.013633326600027104,-0.029259772691905175,-0.03001983270005845
0.8200000000000001,-0.004068869000012681,-0.7794705999999849,0.006033771000017965,-2.348947399999978,-0.0037943851000116486,1.572646620000005,0.7823711599999891,0.0399999588,0.039999995,-9.830183400000001,-0.06737890988610912,0.04424395420011833,-0.01372446240002719,-0.029358968883782394,-0.030216364800058633
0.8225,-0.004111375625012719,-0.7794201999999849,0.0060939882000180185,-2.348873824999978,-0.0038334311500116836,1.572663510000005,0.7823346799999891,0.0399999579,0.039999995,-9.830190450000002,-0.06813596449815032,0.04464057460011868,-0.013815598200027271,-0.02945816507565961,-0.030412896900058807
0.8250000000000001,-0.004153882250012758,-0.7793697999999849,0.0061542054000180745,-2.348800249999978,-0.00387247720001172,1.5726804000000052,0.7822981999999891,0.039999956999999996,0.039999995,-9.830197500000002,-0.06889301911019154,0.045037195000119046,-0.013906734000027355,-0.029557361267536823,-0.03060942900005899
0.8275,-0.004196388875012796,-0.7793193999999849,0.006214422600018128,-2.348726674999978,-0.0039115232500117544,1.5726972900000051,0.7822617199999891,0.0399999561,0.039999995,-9.830204550000001,-0.06965007372223272,0.0454338154001194,-0.013997869800027436,-0.029656557459414038,-0.030805961100059166
0.8300000000000001,-0.004238895500012836,-0.7792689999999848,0.006274639800018184,-2.3486530999999777,-0.003950569300011791,1.5727141800000053,0.7822252399999889,0.0399999552,0.039999995,-9.830211600000002,-0.07040712833427396,0.04583043580011977,-0.014089005600027522,-0.029755753651291256,-0.03100249320005935
0.8325,-0.0042814021250128734,-0.7792185999999848,0.006334857000018237,-2.3485795249999777,-0.003989615350011826,1.5727310700000052,0.7821887599999889,0.039999954299999994,0.039999995,-9.830218650000003,-0.07116418294631514,0.046227056200120124,-0.014180141400027603,-0.029854949843168468,-0.031199025300059524
0.835,-0.0043251188600134625,-0.779166764999984,0.006396790760019073,-2.3485037699999767,-0.004029774000012368,1.5727484500000055,0.7821512599999885,0.0399999536,0.039999995,-9.830259600000018,-0.07193391099595749,0.04666049520013725,-0.014272290300028145,-0.02995495460930533,-0.0313975300000606
0.8375,-0.0043694406500135044,-0.779114212499984,0.006459582800019132,-2.348426924999977,-0.004070488950012405,1.5727660750000054,0.7821132499999884,0.039999953,0.039999995,-9.830317500000017,-0.07270997576439178,0.047112343500137675,-0.014364945750028231,-0.030055363662571468,-0.03159702100006078
0.84,-0.004413762440013544,-0.779061659999984,0.006522374840019188,-2.348350079999977,-0.004111203900012441,1.5727837000000056,0.7820752399999884,0.0399999524,0.039999995,-9.830375400000017,-0.07348604053282605,0.04756419180013807,-0.014457601200028314,-0.030155772715837602,-0.03179651200006096
