rsonawane2002/My_IMU/logs_2/traj_435/clean_435.csv
time,j1,j2,j3,j4,j5,j6,j7,gripper1,gripper2,imu_ax,imu_ay,imu_az,imu_gx,imu_gy,imu_gz,quat_x,quat_y,quat_z,quat_w
2034.233333331812,0.00016700293,-0.785875,4.0107683e-05,-2.3551247,9.29385e-05,1.570997,0.786,0.04,0.04,0.0,-0.0,0.0,2.875329272945135e-08,-0.0011641195053377316,4.421952117202833e-08,0.9999995971961153,0.00020320632366974898,0.0008736418299892524,3.263050917662294e-05
2034.2499999984786,0.00016701475,-0.78576016,4.0120794e-05,-2.3552213,9.296579e-05,1.5709941,0.786,0.04,0.04,-0.29199846093124204,-4.6391118502887635e-05,0.020128405123265303,-2.2085248093351424e-07,-0.0022381869992589122,-6.436600487348756e-07,0.9999996850603367,0.0002032005258499469,0.0007665025210213224,3.2598451422977065e-05
2034.2666666651453,0.00016708934,-0.78565425,4.017616e-05,-2.35531,9.29336e-05,1.5709913,0.786,0.04,0.04,0.023262843828453228,-7.525304136563786e-05,-0.0016365979201848901,-2.3047676342175355e-06,-0.003225133940915406,-5.619949823203544e-06,0.9999997558797757,0.00020314802393435743,0.000667767471571567,3.252496228629018e-05
2034.283333331812,0.0001673328,-0.7855569,4.0344567e-05,-2.355391,9.274975e-05,1.5709884,0.786,0.04,0.04,0.02246072792655429,-0.00020753840214317158,-0.0015249833535957436,-7.385916881340884e-06,-0.00413269438842591,-1.8818751745789108e-05,0.999999812333985,0.00020297076262490752,0.0005771386863833278,3.233884562547211e-05
2034.2999999984786,0.0001678992,-0.78546727,4.0727773e-05,-2.3554652,9.2283386e-05,1.5709856,0.786,0.04,0.04,0.020255412788250382,-0.00040066437320602534,-0.001323831018007482,-1.6738161159570553e-05,-0.004959850670188142,-4.379819233264855e-05,0.9999998570506253,0.00020255574133587812,0.0004938115409827598,3.193842007499489e-05
2034.3166666651452,0.00016898582,-0.78538483,4.145547e-05,-2.3555322,9.136674e-05,1.5709827,0.7860019,0.04,0.04,0.020132400642580706,-0.00064710620028032,-0.0009357622582806258,-3.0684730033836625e-05,-0.00571424496474832,-8.374980597657656e-05,0.9999998917445526,0.00020271211896173206,0.000417666844432273,3.1194338094159826e-05
2034.333333331812,0.00017082854,-0.78530896,4.268245e-05,-2.355597,8.9799876e-05,1.5709798,0.7860038,0.04,0.04,0.010897190972380955,-0.0009411995758249803,-0.0027934468979973204,-5.850212481614367e-05,-0.006393990276398676,-0.0001415483494669111,0.9999999192718513,0.00020231366190379095,0.0003458734665544347,2.995026212113589e-05
2034.3499999984786,0.00017369768,-0.78523916,4.458569e-05,-2.3556552,8.735492e-05,1.570977,0.78600574,0.04,0.04,0.018068629026779526,-0.0012800274029836026,-0.0004906450421948705,-9.15785262971578e-05,-0.007026150832377041,-0.00021975197060760117,0.9999999400456243,0.00020116244213638163,0.00028045803499191055,2.803052334399199e-05
2034.3666666651452,0.00017789478,-0.78517485,4.7362442e-05,-2.3557086,8.377733e-05,1.5709741,0.78600955,0.04,0.04,0.014167387451591296,-0.00165655980573626,-0.000999207255736323,-0.0001297620596400914,-0.007588355376778133,-0.00032065572836870783,0.9999999554460296,0.0001999916029710644,0.00022016891141798196,2.5237828682976097e-05
2034.3833333318119,0.0001837485,-0.7851159,5.1227424e-05,-2.3557591,7.879856e-05,1.5709711,0.7860153,0.04,0.039999995,0.010755860871358713,-0.0020731769232403973,-0.001869335343518408,-0.00018084286670633264,-0.008091152894483734,-0.00044553428492605,0.9999999666215755,0.00019856083676242866,0.0001639333201970697,2.136137723598017e-05
2034.3999999984785,0.00019161214,-0.78506184,5.641168e-05,-2.3558054,7.2098344e-05,1.5709682,0.7860229,0.04,0.04,0.012697265345140707,-0.002498292245833731,-0.0008655318008310431,-0.0002446653550740127,-0.008544201226999467,-0.0005992076046499605,0.9999999742370844,0.0001966116574890705,0.00011228784470458193,1.6159411341420004e-05
2034.4166666651452,0.00020186008,-0.78501225,6.315958e-05,-2.3558483,6.3381805e-05,1.5709649,0.78603244,0.04,0.04,0.010539474082871259,-0.002980951342716141,-0.0012302662294905176,-0.0003200125526751027,-0.008940676868638218,-0.0007788125106332711,0.9999999790875003,0.00019387036391797934,6.442798982304917e-05,9.397609094288592e-06
2034.4333333318118,0.00021488577,-0.78496665,7.172785e-05,-2.3558903,5.2311905e-05,1.570961,0.7860448,0.04,0.04,0.005809711179338706,-0.003467448537131557,-0.0023814979512426504,-0.0004062670079879457,-0.009287296396555187,-0.0009886526034665413,0.99999998168066,0.00019049641335432593,1.8685042955151465e-05,8.157915033907847e-07
2034.4499999984785,0.00023109902,-0.78492486,8.238401e-05,-2.3559275,3.853598e-05,1.5709543,0.78606004,0.04,0.04,0.011452296154601527,-0.0039738826682829175,-0.0020780364800909723,-0.0005058937216985945,-0.009597284657417082,-0.0012299993964302795,0.9999999823156736,0.00018624968866815138,-2.4136043957258027e-05,-9.856850411087145e-06
2034.466666665145,0.0002509235,-0.7848866,9.5404655e-05,-2.3559628,2.1708369e-05,1.5709475,0.78607893,0.04,0.04,0.0070921410969981835,-0.004511178808861219,-0.0012357576112398405,-0.0006184295295223747,-0.009862429111492314,-0.001502318579462899,0.9999999812577927,0.00018117811700624732,-6.430312098535632e-05,-2.2891327006200267e-05
2034.4833333318118,0.00027479522,-0.78485155,0.00011107406,-2.3559976,1.4693567e-06,1.5709405,0.78610146,0.039999995,0.039999995,0.004294299993001793,-0.005060270974987768,-0.001796503330298016,-0.0007457109015545727,-0.010083243716608289,-0.0018065621407086264,0.9999999786724778,0.00017496306105971266,-0.00010273958650077051,-3.8568751495661084e-05
2034.4999999984784,0.00030316043,-0.7848195,0.00012968374,-2.356032,-2.258092e-05,1.5709306,0.7861282,0.03999999,0.04,0.003200685845761164,-0.005598670271562351,-0.003615622218022807,-0.0008861223301257464,-0.010268178942935227,-0.002146619354481177,0.9999999744006324,0.00016757625560247225,-0.0001408753338220406,-5.719329901151083e-05
2034.516666665145,0.00033647372,-0.78479016,0.00015153002,-2.3560636,-5.0809533e-05,1.57092,0.78615963,0.039999988,0.04,0.007262895064763519,-0.006178440494080957,-0.0009179428173577975,-0.0010403684830867285,-0.010429656994194209,-0.0025199330762529794,0.999999968643234,0.0001588940482424168,-0.00017668303773811514,-7.905261830698797e-05
2034.5333333318117,0.00037519654,-0.78476346,0.00017691396,-2.3560934,-8.36032e-05,1.5709089,0.7861961,0.039999984,0.039999995,0.005991534056892789,-0.006755363907547931,-0.0009933269117246013,-0.0012092939237019107,-0.010547070913640686,-0.002926966524595083,0.9999999613298486,0.00014878777867741006,-0.00021045975773607625,-0.00010444706167947338
2034.5499999984784,0.00041979615,-0.78473914,0.00020614044,-2.3561223,-0.00012135518,1.5708946,0.786238,0.03999998,0.03999999,0.0032404475287073353,-0.007336602122486589,-0.0033302874314244946,-0.0013925302714769537,-0.010621115573569366,-0.003368990039297544,0.9999999518571423,0.00013709491022963568,-0.0002441712582561057,-0.00013368281632356223
2034.566666665145,0.00047074375,-0.7847169,0.00023951683,-2.3561506,-0.00016446154,1.5708799,0.7862859,0.039999977,0.03999999,0.0030070805143944668,-0.00792545683131894,-0.0012440353151621508,-0.001589871666921424,-0.010670222601675178,-0.003847162372273165,0.9999999400870494,0.00012373916673334205,-0.0002767729925999784,-0.00016706653461747987
2034.5833333318117,0.00052851305,-0.784697,0.00027735237,-2.356179,-0.0002133196,1.5708618,0.7863401,0.039999973,0.039999988,0.001480755241423104,-0.008514814490189144,-0.0039043424819196204,-0.001802095570609642,-0.010683668266863365,-0.004360008496731746,0.9999999250821868,0.00010858322132631902,-0.0003099321207584308,-0.0002049082359674347
2034.5999999984783,0.00059358065,-0.784679,0.0003199578,-2.3562074,-0.0002683295,1.5708429,0.78640115,0.03999997,0.039999984,0.0018505229290921577,-0.009110394777347968,-0.001714975399691454,-0.0020288077134418105,-0.010675961247789204,-0.004908507278307352,0.9999999065143548,9.148730072867288e-05,-0.000342543832996107,-0.00024751783354889044
2034.616666665145,0.00066642306,-0.78466284,0.00036764413,-2.356236,-0.00032989235,1.5708208,0.7864696,0.039999966,0.039999984,0.0006645656335235728,-0.009701690590766953,-0.003478586192096067,-0.0022700530420631014,-0.010634658918280459,-0.005493604902085059,0.9999998831595664,7.24015358525557e-05,-0.0003758870756678522,-0.0002952080238485338
2034.6333333318116,0.000747517,-0.78464824,0.00042072227,-2.3562655,-0.00039840757,1.5707971,0.78654563,0.039999966,0.039999984,-0.0004257727664436217,-0.010296265813302752,-0.0025676341470992625,-0.002526637210951267,-0.010571896729659837,-0.006113571756534815,0.9999998540941605,5.109675253195431e-05,-0.000409750270402764,-0.00034828938457803977
2034.6499999984783,0.0008373381,-0.78463537,0.0004795026,-2.3562956,-0.00047427547,1.5707706,0.7866299,0.03999996,0.039999984,0.0002446840614123147,-0.01088667807819003,-0.0032569728106501827,-0.00279738112173276,-0.010484708264593884,-0.006770078940627314,0.9999998180484484,2.7523786700888187e-05,-0.00044433850801978733,-0.00040707345962640913
2034.666666665145,0.0009363605,-0.7846241,0.0005442948,-2.3563273,-0.0005578934,1.5707409,0.7867227,0.039999958,0.03999998,-0.0020604980287997066,-0.011474697347968401,-0.004084491505218502,-0.003082943564154556,-0.010374337131865828,-0.00746129949230224,0.9999997732074939,1.4854652926423679e-06,-0.0004805418156376723,-0.0004718710817117405
2034.6833333318116,0.001045056,-0.78461426,0.0006154063,-2.3563616,-0.0006496581,1.570709,0.7868246,0.03999995,0.039999977,-0.003573818408608709,-0.012059215535905549,-0.003705569322187685,-0.0033825537328413136,-0.010247061301009611,-0.008188773245949191,0.9999997178204985,-2.7094606665950615e-05,-0.0005184448828526272,-0.0005429914448987653
2034.6999999984782,0.0011638928,-0.7846057,0.00069314317,-2.356396,-0.00074996235,1.5706743,0.786936,0.039999943,0.03999997,0.0005361047863639001,-0.01264329378781833,-0.0027849490697562373,-0.0036967596671952123,-0.01010346917913055,-0.00895056212405327,0.9999996504831237,-5.831965075948263e-05,-0.0005570588312197703,-0.0006207398065384646
2034.7166666651449,0.001293336,-0.7845984,0.00077780837,-2.3564308,-0.00085919705,1.5706363,0.7870572,0.039999936,0.039999966,-0.00039287191160308765,-0.013217399590046376,-0.0034824878682782057,-0.004025498018928416,-0.0099341879069822,-0.009748161330584142,0.9999995687877072,-9.237970710417562e-05,-0.0005968841959744194,-0.0007054216086098099
2034.7333333318115,0.0014338461,-0.7845924,0.0008697027,-2.356466,-0.0009777494,1.5705948,0.7871888,0.039999932,0.039999966,-0.000492374493976655,-0.01378680491125688,-0.0035434021361080426,-0.004367851023544266,-0.009741647339152257,-0.010580412436363328,0.9999994702359348,-0.0001293423549381734,-0.0006380033862345168,-0.0007973393781880112
2034.7499999984782,0.0015858794,-0.7845874,0.00096912426,-2.3565025,-0.0011060014,1.5705498,0.78733134,0.039999925,0.039999958,-0.0019661751632815694,-0.014350508242630842,-0.003737186295027506,-0.004724229388471703,-0.009528407327063684,-0.011446144577469182,0.9999993517517882,-0.0001692723488561454,-0.0006808853303883308,-0.000896793199172162
2034.7666666651448,0.0017498863,-0.78458375,0.0010763668,-2.3565423,-0.0012443329,1.5705017,0.787485,0.039999917,0.039999954,-0.005135086878516049,-0.014899751004489965,-0.004734923878779718,-0.005095016093106596,-0.009296159007706526,-0.012346742311636018,0.999999209604209,-0.00021237889477323553,-0.0007262961419846701,-0.0010040817081534183
2034.7833333318115,0.0019263127,-0.784581,0.0011917215,-2.3565843,-0.0013931169,1.5704501,0.78765017,0.03999991,0.03999995,-0.003706525863234056,-0.015451382980304464,-0.004115372142865503,-0.005479184491436442,-0.009051975234773383,-0.013280926655210013,0.9999990403428617,-0.0002588081415618486,-0.0007739875980179862,-0.0011194976104914151
2034.7999999984781,0.0021155982,-0.78457934,0.0013154749,-2.3566272,-0.0015527224,1.5703948,0.7878273,0.039999902,0.039999943,-0.0015531041978489313,-0.01599299959903467,-0.003866561002374702,-0.0058764425079621575,-0.008793251124413154,-0.014247451812290576,0.9999988404565483,-0.0003086412726481596,-0.0008233824885852464,-0.0012433291603363083
2034.8166666651448,0.0023181753,-0.7845786,0.00144791,-2.3566713,-0.0017235142,1.5703354,0.78801686,0.039999902,0.039999947,-0.0021955442510046552,-0.016521642648479988,-0.004183419950654077,-0.006286303443572254,-0.008512684318217518,-0.015247630003716789,0.9999986053213982,-0.0003619846483124133,-0.0008748263190772696,-0.0013758638320799802
2034.8333333318114,0.002534471,-0.7845789,0.0015893053,-2.3567207,-0.00190585,1.5702721,0.7882193,0.0399999,0.039999947,-0.008967314337282595,-0.017030105964644434,-0.005965783392491986,-0.006709275968438972,-0.008215014504081032,-0.01628020608129378,0.9999983283434916,-0.0004189111838094256,-0.0009302428097610558,-0.0015173898501957207
2034.849999998478,0.002764906,-0.78458,0.0017399354,-2.3567712,-0.0021000833,1.5702044,0.7884349,0.039999902,0.039999954,-0.002488931902577818,-0.01755357198900808,-0.004373404867452635,-0.00714503833552556,-0.007916617908425487,-0.017344608928183437,0.9999980055799438,-0.00047954702397488234,-0.0009879483636121185,-0.0016681812902982769
2034.8666666651447,0.0030098923,-0.7845821,0.0019000699,-2.3568223,-0.0023065612,1.5701326,0.78866416,0.039999906,0.039999958,-0.0008888565439679752,-0.01805880939093835,-0.00393208673481471,-0.007593489503381696,-0.007601324002858402,-0.018440420482195297,0.9999976319087238,-0.0005440128360160233,-0.0010472712696506102,-0.0018285102861439206
2034.8833333318114,0.0032698356,-0.78458476,0.0020699739,-2.356878,-0.002525622,1.5700566,0.78890735,0.039999906,0.03999996,-0.008701758972984308,-0.0185340261500579,-0.005824174013668859,-0.008054037022332237,-0.007263794725979692,-0.01956635293013845,0.9999971983618796,-0.0006124257191021096,-0.0011106675728167921,-0.001998654715754181
2034.899999998478,0.003545135,-0.7845885,0.002249907,-2.3569362,-0.0027576033,1.569976,0.7891649,0.039999906,0.039999966,-0.004190166879070034,-0.01901981963039973,-0.005212467060378145,-0.008526590368071383,-0.006924404289704876,-0.020723543215050693,0.9999966992833023,-0.0006848651586275656,-0.0011768068280086396,-0.002178877670931181
2034.9166666651447,0.003836181,-0.78459305,0.0024401243,-2.3569949,-0.003002832,1.5698909,0.78943723,0.039999906,0.03999997,-0.0012686474692769067,-0.019500588487989315,-0.004201322015884301,-0.009010659929181607,-0.006571451686909623,-0.021910625049595706,0.9999961281676829,-0.0007614053182406879,-0.001244863597093289,-0.002369435841905207
2034.9333333318114,0.0041433573,-0.78459847,0.0026408772,-2.3570595,-0.0032616297,1.5698009,0.7897246,0.039999906,0.039999973,-0.010546382271492405,-0.019929222120746316,-0.007028316319734884,-0.009506766443463151,-0.006198552169227141,-0.023127225953914622,0.9999954732046004,-0.0008422064461871441,-0.0013176765785469849,-0.0025706005220278235
2034.949999998478,0.0044670384,-0.7846046,0.0028524094,-2.3571255,-0.0035343117,1.5697063,0.7900273,0.039999902,0.039999973,-0.002925711632761896,-0.020400703937764955,-0.004637362672665901,-0.01001363681669307,-0.005829184208541063,-0.02437261213010468,0.9999947284821837,-0.0009273598094959927,-0.0013928672415321503,-0.002782612526917786
2034.9666666651447,0.00480759,-0.78461146,0.0030749606,-2.3571935,-0.0038211863,1.5696068,0.7903458,0.039999902,0.039999977,-0.0038700163242033625,-0.020829229355712967,-0.005229847363374951,-0.010531066694874053,-0.005442773851950861,-0.02564636745780293,0.9999938839517712,-0.0010169506747408157,-0.0014708863883242304,-0.0030057218116587487
2034.9833333318113,0.0051653734,-0.7846191,0.0033087654,-2.357267,-0.0041225567,1.5695019,0.7906804,0.039999906,0.039999984,-0.009970526585356687,-0.021225987800803283,-0.00716883071225638,-0.011059256999777847,-0.0050433667978497234,-0.026948051963688123,0.9999929264775949,-0.0011110317983688998,-0.0015536430620724413,-0.003240184617278868
2034.999999998478,0.005540738,-0.78462744,0.003554054,-2.357341,-0.0044387155,1.5693923,0.7910316,0.03999991,0.03999999,-0.001699280935163472,-0.021677011726257533,-0.004473184230624483,-0.011597952673534449,-0.004648460406945522,-0.028276850276184692,0.9999918493016651,-0.0012096464634777685,-0.0016383952200753754,-0.0034862224215354365
2035.0166666651446,0.005934025,-0.7846366,0.0038110497,-2.3574212,-0.0047699506,1.5692773,0.7913997,0.03999992,0.04,-0.010713631913228383,-0.022026391912602708,-0.007559531772360906,-0.012147293700701441,-0.004232153018790924,-0.029631719089030582,0.9999906359007484,-0.0013128629250231838,-0.0017280909265714342,-0.0037440891424521602
2035.0333333318113,0.0063455724,-0.7846467,0.00407997,-2.3575027,-0.005116536,1.5691569,0.79178447,0.039999925,0.04,-0.0029013195180338514,-0.022456622702869862,-0.005485728892540287,-0.012707365690189824,-0.0038223008934522087,-0.031012583292473136,0.9999892773255799,-0.0014210696964758332,-0.0018203429396969123,-0.004013993817180268
2035.049999998478,0.0067757014,-0.78465724,0.0043610283,-2.3575902,-0.0054787137,1.5690312,0.7921867,0.039999932,0.04,-0.01099021190074101,-0.02281123201160872,-0.0072405809242281904,-0.013274949434364774,-0.0033974963762261248,-0.03241631261815327,0.9999877562458365,-0.001534085322732898,-0.0019175280734278174,-0.0042961641876998885
2035.0666666651446,0.007224731,-0.78466856,0.0046544317,-2.3576794,-0.0058567743,1.5689,0.7926065,0.03999993,0.04,-0.0034674140017232347,-0.023190802891568524,-0.005766667655793256,-0.013852034626564813,-0.002978085382967517,-0.033849103850445164,0.9999860622961699,-0.001652074886886294,-0.0020174921892523313,-0.004590815530487958
2035.0833333318112,0.007692973,-0.78468066,0.0049603833,-2.357772,-0.0062509933,1.5687631,0.79304427,0.039999925,0.04,-0.006679387924757307,-0.02351308692025312,-0.006663013636032389,-0.014437945196760341,-0.0025450616423454567,-0.03530735498892095,0.9999841787529866,-0.001775053736644732,-0.0021211477310999344,-0.004898179279062435
2035.0999999984779,0.008180724,-0.7846933,0.0052790777,-2.3578687,-0.0066616326,1.5686208,0.7935003,0.039999913,0.04,-0.0072832036098091635,-0.02383503490707463,-0.006583720008968008,-0.015032596683584306,-0.002108094999925287,-0.03679030473839846,0.9999820892960299,-0.001903116232040296,-0.002228630339030427,-0.005218471286330587
2035.1166666651445,0.0086882785,-0.78470683,0.0056107068,-2.3579671,-0.0070889513,1.5684723,0.7939748,0.0399999,0.04,-0.0038494977249836637,-0.024162264567408748,-0.006492434466442987,-0.015635363301702544,-0.0016683759210751482,-0.038297530079310416,0.9999797789165937,-0.0020363482778081587,-0.002339119532597945,-0.0055518972814591104
2035.1333333318112,0.009215923,-0.784721,0.0059554544,-2.3580716,-0.0075331726,1.5683182,0.79446816,0.039999884,0.04,-0.010734866135608812,-0.02444606988465277,-0.007700125675480507,-0.016246291017109046,-0.0012169265144886393,-0.03982691361157589,0.9999772258314208,-0.002174780109335098,-0.002454354996239665,-0.005898668623004777
2035.1499999984778,0.009763924,-0.7847361,0.006313502,-2.358178,-0.007994525,1.5681579,0.79498047,0.039999872,0.039999995,-0.003827292062275056,-0.024775168488171476,-0.006662358280462577,-0.01686509944938655,-0.0007731180236518823,-0.041377607327792325,0.9999744155319854,-0.0023185372254872962,-0.0025725580122534313,-0.0062589625236117545
2035.1666666651445,0.010332554,-0.7847518,0.0066850223,-2.35829,-0.008473217,1.567992,0.79551196,0.039999865,0.039999995,-0.010369892638584233,-0.025033612879798127,-0.007733924755615185,-0.01749113516493792,-0.00031826247499222235,-0.042950289960797444,0.9999713240835427,-0.0024676973897841624,-0.002695374055948309,-0.006632981147059812
2035.1833333318111,0.010922068,-0.78476804,0.0070701856,-2.3584082,-0.008969465,1.5678198,0.7960629,0.03999986,0.039999995,-0.011329881615895765,-0.025281982057186875,-0.008442268043640233,-0.018124247770106433,0.00013056731629089088,-0.04454340463116815,0.9999679290644484,-0.0026223226004947393,-0.002823283586138993,-0.0070209213447546175
2035.1999999984778,0.011532714,-0.78478515,0.0074691526,-2.358528,-0.009483485,1.5676414,0.7966336,0.039999865,0.04,-0.0029826024939838547,-0.025599186918762694,-0.0065494442943014874,-0.01876354817094835,0.0005689546733090994,-0.04615619821010775,0.9999642160747886,-0.002782401619113695,-0.0029537839609717897,-0.007422935502594069
2035.2166666651444,0.012164736,-0.784803,0.007882081,-2.3586545,-0.010015471,1.5674566,0.79722434,0.039999865,0.04,-0.0123743590902059,-0.025762680650270528,-0.009021507633133474,-0.01940951966061253,0.001018676508871462,-0.04779014841671034,0.9999601542011525,-0.0029479923959657315,-0.003089614868053224,-0.007839236621501803
2035.233333331811,0.012818364,-0.7848214,0.008309122,-2.3587825,-0.010565599,1.5672657,0.7978353,0.03999986,0.04,-0.0030954296392105007,-0.02610142863547979,-0.006338848617004622,-0.020062368404180228,0.0014557195561597184,-0.04944361550451197,0.9999557287207543,-0.0031191617429643355,-0.003227911321372686,-0.008269946618195837
2035.2499999984777,0.01349382,-0.7848405,0.008750422,-2.3589168,-0.0111340955,1.5670683,0.79846656,0.039999858,0.04,-0.01115495765937613,-0.026192156574697534,-0.008981376665184726,-0.02072114969507991,0.0019035539838505346,-0.051116457856541266,0.9999509064242134,-0.003296007705970223,-0.003371169107140302,-0.00871529078387308
2035.2666666651444,0.014191322,-0.78486043,0.009206124,-2.359053,-0.011721123,1.5668645,0.79911846,0.039999858,0.04,-0.0037355729129995296,-0.026497905144300463,-0.007031413964275757,-0.021385049167625632,0.0023406809760527295,-0.0528067668056515,0.9999456696207891,-0.003478528325415213,-0.0035170831863685476,-0.009175389538379857
2035.283333331811,0.014911078,-0.78488106,0.009676361,-2.359195,-0.012326858,1.5666543,0.7997911,0.039999858,0.04,-0.010589001689487176,-0.02660849012177252,-0.008809961839850722,-0.022054764572719904,0.0027853593266876815,-0.054516271913489206,0.9999399844308731,-0.003666812722595765,-0.003667577580961919,-0.009650434991773519
2035.2999999984777,0.015653282,-0.7849026,0.010161264,-2.359339,-0.012951479,1.5664377,0.8004849,0.039999854,0.04,-0.0035148467882217815,-0.02685248537655123,-0.007214545830946939,-0.022729230117749778,0.003219685122524232,-0.05624540916772119,0.9999338314325089,-0.0038607794366986915,-0.003820519352950202,-0.010140550809381664
2035.3166666651443,0.01641813,-0.78492457,0.010660958,-2.3594892,-0.013595128,1.5662143,0.8011996,0.03999985,0.04,-0.011308846201685263,-0.026937401250708495,-0.009264581653045667,-0.02340933476857874,0.0036641350525654145,-0.05799021455710582,0.999927171234868,-0.004060686390828822,-0.0039783647916123354,-0.010645922499032404
2035.333333331811,0.0172058,-0.78494734,0.011175559,-2.3596427,-0.01425796,1.5659842,0.80193543,0.039999843,0.04,-0.006046499104006564,-0.02714856169274346,-0.00810361177980834,-0.024092848175288027,0.0040934087871369205,-0.05975122196869519,0.9999199805307307,-0.0042665620351375775,-0.004139393562981082,-0.011166664889490805
2035.3499999984776,0.018016465,-0.7849709,0.0117051825,-2.3598015,-0.014940131,1.5657474,0.80269283,0.039999835,0.04,-0.009262340391069657,-0.027222189184946538,-0.009127777072781562,-0.024779668985864436,0.004522391827428637,-0.06152899660508569,0.9999122246663857,-0.004478284579621747,-0.004304532313071815,-0.011702945420237592
2035.3666666651443,0.018850297,-0.7849949,0.012249935,-2.3599653,-0.015641805,1.5655037,0.80347204,0.039999828,0.04,-0.009131449789112622,-0.02734445570691281,-0.008921367984959794,-0.025470995544131146,0.004943268606182496,-0.06332288632884311,0.9999038713429353,-0.004695851451179179,-0.004473722235627822,-0.012254911746619931
2035.383333331811,0.019707441,-0.78501993,0.012809922,-2.3601322,-0.016363088,1.5652535,0.804273,0.039999817,0.04,-0.00518296190525902,-0.027515317900319095,-0.00824240742858251,-0.026166646312269816,0.005353880433162474,-0.06513042865165516,0.9998948935705609,-0.004919386289936013,-0.00464553333743631,-0.012822654563620875
2035.3999999984776,0.020588057,-0.78504544,0.013385239,-2.360305,-0.0171041,1.5649966,0.805096,0.039999813,0.04,-0.010596370770032948,-0.02755012425709087,-0.009410943903764846,-0.026865793062183785,0.005766086181776153,-0.06695177537345623,0.9998852489614668,-0.0051488801219339315,-0.004821629071089538,-0.013406335661026749
2035.4166666651442,0.021492284,-0.7850719,0.013975981,-2.3604813,-0.017864961,1.5647326,0.805941,0.03999981,0.04,-0.005720295574418444,-0.027691003827597094,-0.00890974354255114,-0.027568442252856803,0.006164556584126405,-0.06878654771193617,0.9998749086755606,-0.005384383759281199,-0.00500060207028877,-0.014006048390132749
2035.433333331811,0.022420254,-0.7850991,0.014582231,-2.3606632,-0.01864582,1.5644617,0.8068082,0.03999982,0.04,-0.0098450893495583,-0.027671640155412652,-0.009674039131568613,-0.028273789606131847,0.006560817435239778,-0.07064493808342219,0.9998638301432738,-0.005625930071893153,-0.005183484107744228,-0.014621955223341344
2035.4499999984776,0.023372086,-0.7851268,0.015204075,-2.3608491,-0.01944671,1.5641836,0.8076976,0.039999813,0.04,-0.007301865089770487,-0.027818931428303523,-0.009247954621294241,-0.02898174272847113,0.0069447641176510685,-0.0725057200474179,0.9998519789026762,-0.005873561581248571,-0.005369667061667421,-0.015254121882316294
2035.4666666651442,0.024347903,-0.7851555,0.015841585,-2.3610392,-0.020267779,1.5638986,0.8086094,0.039999805,0.04,-0.006667511109226254,-0.027839640809357302,-0.009290670261519196,-0.02969173798164519,0.007319296187347247,-0.07437947237086161,0.9998393186415143,-0.00612726240962124,-0.005558656480940568,-0.015902669334513096
2035.4833333318109,0.025347814,-0.78518474,0.016494833,-2.3612354,-0.021109099,1.5636065,0.80954385,0.0399998,0.04,-0.0106597152812693,-0.02781202809369332,-0.010245830344945972,-0.030403899730476115,0.007689297504656791,-0.07626422206029931,0.999825802255154,-0.006387016591353671,-0.005751653557462696,-0.01656772903129426
2035.4999999984775,0.02637192,-0.7852147,0.017163884,-2.361435,-0.021970754,1.5633075,0.81050074,0.039999794,0.04,-0.005583628045524591,-0.027937133840892636,-0.008995551317036998,-0.031118109689215724,0.008041307892647247,-0.07815976911435063,0.9998113979253347,-0.006652937905001583,-0.005946998868793095,-0.017249353619042705
2035.5166666651442,0.027420318,-0.7852455,0.017848808,-2.36164,-0.02285283,1.5630015,0.81148034,0.03999979,0.04,-0.00911274930754935,-0.02787029063759522,-0.010186319179950054,-0.03183335971568588,0.00838849101835849,-0.0800662167322607,0.99979605734526,-0.006924969537359006,-0.006145677832266975,-0.017947678339057808
2035.5333333318108,0.028493082,-0.78527695,0.018549655,-2.3618495,-0.023755386,1.5626885,0.81248283,0.039999783,0.04,-0.007492656931895603,-0.027893287912354736,-0.009802378647183474,-0.0325500804813563,0.008722255901001926,-0.08198263423038182,0.9997797412002895,-0.007203061570558207,-0.006347124799701083,-0.018662770326775054
2035.5499999984775,0.029590301,-0.7853091,0.019266477,-2.362064,-0.024678508,1.5623684,0.81350803,0.03999978,0.04,-0.00788563813647336,-0.02786791029829455,-0.009966620352219735,-0.03326824656954575,0.00904462866753079,-0.08390868902265614,0.9997624035518841,-0.007487352975913355,-0.006551369225098893,-0.019394729976217873
2035.566666665144,0.030712048,-0.78534216,0.019999316,-2.3622837,-0.025622252,1.5620409,0.81455624,0.03999977,0.04,-0.008799931201530775,-0.027784132724447547,-0.010817578791932903,-0.03398653801006195,0.00935538264452229,-0.08584544503900443,0.999743997517759,-0.007777726371624957,-0.006758671724702302,-0.020143653000806717
2035.5833333318108,0.031858377,-0.7853759,0.020748219,-2.362507,-0.026586665,1.5617064,0.8156272,0.039999757,0.04,-0.005715807945350093,-0.027853460537044517,-0.009599256380377064,-0.03470616214571456,0.00964959516343724,-0.08778955635323694,0.9997244834861712,-0.008074330888763403,-0.006967925400818785,-0.020909574711500577
2035.5999999984774,0.03302934,-0.7854102,0.021513222,-2.362736,-0.027571786,1.5613645,0.81672126,0.039999742,0.04,-0.009032170085454538,-0.027699585224665035,-0.010803428338124199,-0.03542497654862431,0.009936475631165658,-0.08974208381316595,0.9997038067353057,-0.008377042643864794,-0.007180159090650224,-0.02169260867010876
2035.616666665144,0.034225006,-0.78544545,0.022294354,-2.3629692,-0.028577676,1.5610154,0.8178384,0.039999735,0.04,-0.00657238617529643,-0.02769496613149458,-0.010423969976991465,-0.0361443156469924,0.010203896960807403,-0.09170169065773992,0.9996819252099677,-0.008685884245795833,-0.007394435433162436,-0.022492802137264133
2035.6333333318107,0.035445396,-0.7854813,0.02309164,-2.3632073,-0.029604359,1.5606592,0.8189787,0.039999727,0.04,-0.007950022472735796,-0.027589301223333862,-0.010504474400319097,-0.03686325592027419,0.010459899453628407,-0.09366828836077351,0.9996587877587707,-0.009000778298844688,-0.007611004274423393,-0.02331022652431194
2035.6499999984774,0.036690563,-0.7855181,0.023905102,-2.3634508,-0.030651864,1.5602957,0.82014215,0.03999972,0.04,-0.007881804527642977,-0.0274853134021924,-0.011119764058342696,-0.0375825484832311,0.01069924710532634,-0.0956412722577066,0.9996343431976811,-0.00932182405190845,-0.007829758459428673,-0.024144945196729755
2035.666666665144,0.0379605,-0.7855555,0.024734763,-2.3636985,-0.03172023,1.5599246,0.8213286,0.039999712,0.04,-0.006813216172840697,-0.02738546755214205,-0.010780058024040251,-0.03830100263584557,0.010922977778303079,-0.09762083962002563,0.9996085407694043,-0.009649036677192344,-0.008050497752347853,-0.02499701578196831
2035.6833333318107,0.03925525,-0.78559357,0.02558063,-2.3639514,-0.032809436,1.5595466,0.8225384,0.039999705,0.04,-0.007921476500549751,-0.027304393266469607,-0.01088305651217869,-0.039018090726708116,0.011130313062741488,-0.099604182469366,0.9995813303090245,-0.009982254004100619,-0.00827310380796892,-0.02586647359074646
2035.6999999984773,0.04057481,-0.78563255,0.02644272,-2.364209,-0.033919517,1.5591613,0.82377124,0.039999697,0.04,-0.006535183316302984,-0.027179668478384544,-0.011016695960686107,-0.03973511047298878,0.011320243823396269,-0.10159392832330658,0.9995526600311495,-0.01032160242299571,-0.008497164829097,-0.026753364983534925
2035.716666665144,0.041919205,-0.7856722,0.027321024,-2.3644714,-0.035050467,1.5587687,0.8250273,0.03999969,0.04,-0.007506850958849398,-0.027035176190787213,-0.011205911766509757,-0.04045027365698059,0.011494416557784503,-0.10358701714594935,0.9995224737616537,-0.010667016588081966,-0.008722886922680305,-0.027657737547166432
2035.7333333318106,0.04328843,-0.7857126,0.028215548,-2.364739,-0.036202285,1.5583692,0.82630646,0.039999675,0.04,-0.007209387061535288,-0.026908265633948658,-0.011193429053646398,-0.04116386910152815,0.011650191090491474,-0.10558395271526319,0.9994907184092574,-0.011018509372208538,-0.008949939649151037,-0.028579622902304348
2035.7499999984773,0.044682473,-0.78575367,0.029126288,-2.365011,-0.037374962,1.5579622,0.8276089,0.039999668,0.04,-0.006546617392189091,-0.026771261676344915,-0.01127651207930569,-0.04187543612152364,0.011788360872170237,-0.10758391798927966,0.9994573396215769,-0.011375991824176422,-0.009178166120837732,-0.029519050683154965
2035.766666665144,0.04610131,-0.78579545,0.03005323,-2.365288,-0.038568478,1.5575478,0.8289344,0.039999656,0.04,-0.007186706811057597,-0.02655766410441518,-0.011630565165554607,-0.04258572571780182,0.011907594583818223,-0.1095867546263949,0.9994222784096173,-0.011739514531706378,-0.009407619887545555,-0.030476054619008226
2035.7833333318106,0.047544926,-0.7858381,0.030996354,-2.3655703,-0.039782837,1.5571262,0.8302831,0.03999965,0.04,-0.007255917825377267,-0.02635889403937025,-0.011850766062271312,-0.043293431042677716,0.012006523615252708,-0.1115917105616959,0.9993854789227492,-0.012108956036822898,-0.009638107392920769,-0.031450669117334386
2035.7999999984772,0.049013294,-0.7858815,0.031955663,-2.3658566,-0.041018024,1.5566972,0.83165497,0.039999638,0.04,-0.005340768221673287,-0.026276717526725613,-0.01130280886925128,-0.04399917019682642,0.012084119594419988,-0.1135994061128962,0.999346888517032,-0.012484338616335914,-0.009868961056386917,-0.03244289303232473
2035.8166666651439,0.05050637,-0.78592557,0.0329311,-2.3661482,-0.042273987,1.5562614,0.8330498,0.039999627,0.04,-0.007204375380065464,-0.025996317065238306,-0.011656010125493665,-0.044702724407687536,0.012146277167998973,-0.11560842773765811,0.9993064437117394,-0.012865701115751287,-0.010100466513179916,-0.03345274080269901
2035.8333333318105,0.052024104,-0.78597033,0.033922676,-2.3664446,-0.043550707,1.5558183,0.8344678,0.039999615,0.04,-0.006337566157665897,-0.025824933600530897,-0.011838925205975848,-0.045403220510991604,0.012186009709781247,-0.11761696046893483,0.9992640879440626,-0.013252845757390882,-0.010332360470098435,-0.03448024001899553
2035.8499999984772,0.05356647,-0.7860159,0.03493033,-2.3667457,-0.044848133,1.555368,0.83590853,0.039999608,0.04,-0.00610175789514944,-0.0256036136676005,-0.012006234633288315,-0.04610164045903385,0.012204659626024947,-0.11962449346809609,0.9992197591619724,-0.013646011005453172,-0.010564424463573531,-0.03552537430741982
2035.8666666651438,0.05513341,-0.7860622,0.035954025,-2.3670518,-0.04616621,1.5549104,0.8373723,0.039999615,0.04,-0.006554521422819093,-0.02537300533394654,-0.012032563854691425,-0.04679568489965055,0.012201191650774955,-0.12163892652626822,0.9991733983893623,-0.014044930048340966,-0.010796628370096198,-0.03658814981422264
2035.8833333318105,0.056724843,-0.7861092,0.036993746,-2.3673627,-0.047504894,1.5544461,0.8388588,0.03999961,0.04,-0.005808652189842611,-0.025193241337058414,-0.011821298514269607,-0.04748694210060726,0.01217647313058397,-0.1236479633318145,0.9991249468690988,-0.014449718461303664,-0.011028447270589806,-0.03766854829973314
2035.8999999984771,0.0583407,-0.7861569,0.038049415,-2.3676782,-0.048864093,1.5539745,0.8403684,0.039999604,0.04,-0.00557004425763008,-0.024917753758521566,-0.012103904927340814,-0.04817412446550906,0.012130718862587308,-0.125651246731588,0.9990743457755699,-0.014860075081464348,-0.011259877594651937,-0.038766544058552885
2035.9166666651438,0.059980936,-0.78620523,0.039121006,-2.3679984,-0.050243776,1.5534956,0.8419008,0.039999597,0.04,-0.005857260342945203,-0.024683630449844063,-0.012318184795390152,-0.04885931039365857,0.01206368958034392,-0.12765398340860634,0.9990215286454512,-0.015276097399781785,-0.01149086308279924,-0.039882154113721764
2035.9333333318104,0.061645437,-0.7862545,0.04020846,-2.3683226,-0.05164387,1.5530099,0.8434558,0.03999959,0.04,-0.004114026105783708,-0.02446426933136181,-0.011976471089458762,-0.049541113487778274,0.011972111603025252,-0.12965362519993895,0.9989664417068292,-0.015697827756958986,-0.011720547296910903,-0.04101530590364969
2035.949999998477,0.06333416,-0.7863043,0.041311722,-2.3686526,-0.05306431,1.5525168,0.8450334,0.03999957,0.04,-0.0074262961514248715,-0.024079236695162543,-0.012867386575443618,-0.050218576956058344,0.011863146917028541,-0.13165126278115577,0.9989090047961248,-0.016125156181465563,-0.011949993029104383,-0.04216606623747621
2035.9666666651437,0.06504696,-0.7863548,0.042430732,-2.3689868,-0.054504998,1.552017,0.84663355,0.039999563,0.04,-0.004509999959689814,-0.02391814220592675,-0.012069172213635682,-0.05089242125575827,0.011722709401118704,-0.1336416949583683,0.9988491708193762,-0.01655802078004755,-0.012177951261061118,-0.04333432132127337
2035.9833333318104,0.06678376,-0.7864062,0.04356542,-2.3693256,-0.055965904,1.5515097,0.8482562,0.039999545,0.04,-0.004707118005575772,-0.023532312478347084,-0.012851951363135328,-0.05156206950755189,0.011562455979374976,-0.13563126328672276,0.9987868709659121,-0.016996350540310685,-0.012404532590426839,-0.04452008564284723
2035.999999998477,0.06854447,-0.786458,0.04471573,-2.3696694,-0.057446882,1.5509957,0.849901,0.039999533,0.04,-0.005865746784694537,-0.0233325705362733,-0.012409669751201058,-0.052228112469442214,0.011378450354609776,-0.13761400642051289,0.9987220368386115,-0.017440198446971915,-0.012629795523948767,-0.04572330779907024
2036.0166666651437,0.070328966,-0.7865109,0.045881577,-2.3700178,-0.058947884,1.5504748,0.85156804,0.039999526,0.04,-0.004203854035478294,-0.022990040804519996,-0.012754377408419337,-0.0528890497389449,0.01116692169183358,-0.13959078123761282,0.9986546122419291,-0.017889462622381058,-0.012853017173391575,-0.04694392958141956
2036.0333333318104,0.07213713,-0.78656435,0.04706289,-2.3703706,-0.06046878,1.5499469,0.85325736,0.039999515,0.04,-0.00460367776440318,-0.022719339322402332,-0.012594757647210741,-0.053545483999770355,0.010934149778027823,-0.14156221893448895,0.9985845315721854,-0.018343983686636766,-0.01307424445005872,-0.048181902197023764
2036.049999998477,0.07396887,-0.7866184,0.048259586,-2.370728,-0.062009465,1.5494123,0.8549685,0.039999504,0.04,-0.004449900645364657,-0.022452277797857523,-0.012603165916691417,-0.05419846871185115,0.010674880787628255,-0.14352524582958115,0.9985117276044942,-0.018803901871286832,-0.013293238671189068,-0.04943716128919844
2036.0666666651437,0.07582402,-0.7866734,0.049471594,-2.37109,-0.063569844,1.5488708,0.85670143,0.03999949,0.04,-0.0039413125785037195,-0.022072874400333453,-0.012884515861233403,-0.05484543339334298,0.010391471065304986,-0.14548171583823605,0.9984361391121837,-0.01926907521594228,-0.013509630004525812,-0.05070965147010387
2036.0833333318103,0.07770248,-0.78672886,0.05069882,-2.3714566,-0.065149814,1.5483224,0.85845625,0.03999947,0.04,-0.0048331738903062416,-0.021741801505084646,-0.012890353059158421,-0.05548745097957887,0.010083662460200456,-0.14743115808507865,0.9983576944785318,-0.019739375523382625,-0.013723668854192623,-0.051999344636618754
2036.099999998477,0.07960406,-0.78678507,0.051941175,-2.3718278,-0.06674927,1.5477673,0.8602326,0.039999463,0.04,-0.003889623276265297,-0.02138046568287144,-0.012967190519352911,-0.05612509316228523,0.009748141609821893,-0.14937229867511215,0.9982763324854402,-0.02021482734064014,-0.013934815205126067,-0.05330615049134477
2036.1166666651436,0.081528656,-0.7868419,0.05319855,-2.3722034,-0.06836806,1.5472054,0.86203045,0.03999945,0.04,-0.0034641583621652927,-0.021117848027799035,-0.01279420855260227,-0.056757250242165644,0.009387179452171157,-0.151303598043919,0.9981919919586365,-0.020695315440452174,-0.014142757169869812,-0.054629969138775596
2036.1333333318103,0.08347609,-0.78689945,0.054470863,-2.3725834,-0.070006065,1.5466372,0.8638497,0.039999448,0.04,-0.003673059830688885,-0.020762261990983633,-0.012813793266452933,-0.05738432509689885,0.009000937404243901,-0.15322273872520834,0.9981046078220022,-0.021180763437880768,-0.014347303911425358,-0.055970724268577514
2036.149999998477,0.085446216,-0.7869577,0.05575801,-2.372968,-0.07166315,1.5460622,0.8656902,0.03999943,0.04,-0.003553182864335369,-0.02038207447651319,-0.01310951050335074,-0.0580064020429555,0.008589240170948666,-0.15513514457707464,0.9980141126068134,-0.02167111915531331,-0.01454835337656599,-0.0573283441782649
2036.1666666651436,0.08743889,-0.7870165,0.05705988,-2.373357,-0.073339194,1.5454804,0.86755157,0.039999418,0.04,-0.0036238698142287973,-0.01998486949937872,-0.013306027341553062,-0.05862355262905887,0.008150242794324698,-0.1570354706555787,0.9979204354381038,-0.02216638762975391,-0.014745895264639316,-0.0587027628593158
2036.1833333318102,0.08945394,-0.787076,0.058376368,-2.3737504,-0.07503405,1.5448922,0.8694341,0.039999414,0.04,-0.002868370053077385,-0.019732967490851405,-0.012862998116047741,-0.059234816079740016,0.007682731884502213,-0.15892911380517186,0.9978235244051369,-0.0226663181330337,-0.014939282669393825,-0.060093843273062136
2036.1999999984769,0.09149121,-0.7871362,0.059707366,-2.3741481,-0.07674761,1.5442975,0.8713373,0.039999414,0.04,-0.00274499635541936,-0.01930558091577106,-0.013148817810360036,-0.05984155171601728,0.007189033998624979,-0.16080980294896258,0.9977233076496015,-0.023171019408011254,-0.015128422071223365,-0.061501512810394635
2036.2166666651435,0.093550526,-0.7871971,0.061052762,-2.37455,-0.07847964,1.5436964,0.873261,0.039999414,0.04,-0.002561063396155916,-0.019044118713219815,-0.013058147295264,-0.06044201000873539,0.006670734299022473,-0.1626704880320428,0.9976197254308885,-0.023680413893995746,-0.015313006723946098,-0.06292561683511888
2036.2333333318102,0.095631674,-0.7872585,0.062412433,-2.3749561,-0.08023008,1.5430888,0.8752051,0.039999392,0.04,-0.0023541510403068955,-0.018552248780373537,-0.013057793121173944,-0.061036353352781764,0.006124932635677953,-0.1645229448898434,0.9975127101177893,-0.024194347313557532,-0.015492957406272684,-0.0643661011895335
2036.2499999984768,0.09773448,-0.7873208,0.063786246,-2.3753662,-0.081998706,1.542475,0.8771695,0.039999377,0.04,-0.0016872766657849425,-0.018244212315125796,-0.013090761993606037,-0.061625441789834035,0.005551916639449202,-0.16635788359280673,0.9974022080994104,-0.024712747382315742,-0.015667703100057655,-0.06582278081946037
2036.2666666651435,0.09985875,-0.7873836,0.065174125,-2.375781,-0.083785415,1.541855,0.8791539,0.039999366,0.04,-0.0031357753236038732,-0.017777312563152514,-0.013306350434705294,-0.06220848963394718,0.0049554169618513935,-0.16818067884678667,0.997288139130763,-0.025235600238588743,-0.015837583552235093,-0.06729563861740176
2036.2833333318101,0.10200431,-0.787447,0.06657591,-2.3761995,-0.085590005,1.5412285,0.88115823,0.039999347,0.04,-0.0010936610419287618,-0.017520630351441913,-0.012993798238380982,-0.06278583173562029,0.004328128001441691,-0.1699892693561328,0.9971704541615664,-0.025762773231639016,-0.01600193755305158,-0.06878446668528297
2036.2999999984768,0.10417095,-0.78751105,0.067991436,-2.376623,-0.08741233,1.5405961,0.88318217,0.039999332,0.04,-0.0030270669433063446,-0.01691317831699346,-0.013462100801509003,-0.06335697412072872,0.0036761708058479334,-0.17177945295913166,0.997049078698377,-0.02629425183248471,-0.016160966015114624,-0.07028918952972704
2036.3166666651434,0.10635844,-0.7875757,0.06942061,-2.37705,-0.08925222,1.5399576,0.8852258,0.039999317,0.04,-0.0006811254634309094,-0.016725979040038697,-0.01287993767140616,-0.06392211032496847,0.002994678837641595,-0.1735552599600461,0.9969239673393367,-0.02682981998991791,-0.016313880227500622,-0.07180961924163337
2036.33333333181,0.1085666,-0.78764105,0.0708633,-2.377481,-0.09110946,1.5393128,0.8872884,0.039999314,0.04,-0.0013586424365552574,-0.016250873574868985,-0.013378726414314812,-0.06448189915983493,0.002288334595045056,-0.1753128589118985,0.9967950450548458,-0.02736962850308974,-0.016460837723666757,-0.07334563661967693
2036.3499999984767,0.11079522,-0.7877069,0.072319336,-2.3779159,-0.09298391,1.5386626,0.88937014,0.03999929,0.04,-0.0007347910134347657,-0.015987060742139736,-0.0126352472085145,-0.0650344234358727,0.001553142145649006,-0.17705448476040092,0.9966622656094889,-0.02791346677490247,-0.01660116985687572,-0.07489704828730076
2036.3666666651434,0.11304408,-0.7877734,0.073788576,-2.3783553,-0.09487537,1.5380062,0.8914711,0.03999928,0.04,-0.0019029533816716793,-0.015335134322891353,-0.013497504562431928,-0.06558058327686968,0.0007955750923269066,-0.17877804871818015,0.9965255563715402,-0.028461094349425085,-0.016735303964887736,-0.07646379017566504
2036.38333333181,0.11531295,-0.7878404,0.0752709,-2.378798,-0.09678368,1.5373441,0.8935906,0.03999926,0.04,0.0002994481758555878,-0.015178275632579674,-0.012723207009157633,-0.06612233677598071,6.391758070614108e-06,-0.1804829534486665,0.9963848709888854,-0.029012624540661523,-0.01686230389267385,-0.07804562248554262
2036.3999999984767,0.11760161,-0.78790796,0.07676618,-2.379245,-0.098708615,1.5366762,0.8957286,0.039999247,0.04,-0.0013294973158384238,-0.01465010256874455,-0.013254539569107493,-0.06665675271952859,-0.0008054844244639468,-0.18216830935133418,0.9962401342907162,-0.029567980497004688,-0.016982579488690672,-0.07964245947768596
2036.4166666651433,0.11990981,-0.78797626,0.0782742,-2.3796957,-0.100650005,1.5360026,0.8978845,0.039999235,0.04,0.0003651372400437225,-0.014241458194780288,-0.012925222450332896,-0.0671849367319868,-0.0016464357030651685,-0.18383431271707362,0.9960913023579134,-0.03012715721304687,-0.017095347151703334,-0.08125405141246025
2036.43333333181,0.12223736,-0.7880452,0.079794854,-2.38015,-0.10260765,1.5353233,0.9000586,0.03999922,0.04,-0.00010561446437407085,-0.01385404939449053,-0.01320859614764025,-0.06770490363398476,-0.0025110787093690465,-0.1854798435694392,0.9959383144109951,-0.030689850175053605,-0.01720070044941963,-0.08288029252161118
2036.4499999984766,0.124583974,-0.78811455,0.081327975,-2.380608,-0.104581326,1.5346383,0.9022504,0.039999202,0.04,0.00015007266649380568,-0.013469081057332355,-0.01279708248789202,-0.06821965016333281,-0.0034033382044783692,-0.18710386188177455,0.9957811129701318,-0.03125613917929804,-0.017298399113339635,-0.08452096901766813
2036.4666666651433,0.12694941,-0.7881845,0.08287343,-2.38107,-0.106570855,1.5339478,0.9044604,0.03999919,0.04,0.00022436037028228384,-0.013011243479282841,-0.013011934508466716,-0.06872717560465652,-0.004321812104481128,-0.1887074151262419,0.9956196534479301,-0.03182556303875653,-0.0173881463637568,-0.08617593383028867
2036.48333333181,0.12933345,-0.7882551,0.08443102,-2.3815346,-0.10857604,1.5332522,0.9066876,0.039999183,0.04,0.0019518178465460778,-0.012811967044079609,-0.012299547288652235,-0.06923089588128475,-0.005265079361281164,-0.19029098616283396,0.9954538899892797,-0.03239836610896869,-0.017469184267086126,-0.0878448995657835
2036.4999999984766,0.1317358,-0.7883262,0.08600063,-2.3820035,-0.11059662,1.532551,0.9089317,0.039999165,0.04,-0.0005016217655251509,-0.012050048221295961,-0.013326877950992078,-0.06972744976339157,-0.006229549631994331,-0.19185329212398297,0.9952837355337272,-0.03297456956205097,-0.017542331331029903,-0.08952781777581675
2036.5166666651432,0.13415627,-0.78839767,0.087582,-2.3824756,-0.11263244,1.5318447,0.9111925,0.03999916,0.04,0.0015285092078043405,-0.01188211172978293,-0.012339216014156662,-0.07021634772501822,-0.007224200795604535,-0.19338927821195423,0.9951091628207412,-0.033554008367644564,-0.017606681157930893,-0.09122437925944134
2036.53333333181,0.13659455,-0.78846973,0.08917504,-2.3829515,-0.11468324,1.5311329,0.9134704,0.03999915,0.04,0.0006089213537396887,-0.011265030170332091,-0.013092631443201164,-0.07069774253206551,-0.008240544845088632,-0.19490266026759645,0.9949301159467495,-0.03413627012903162,-0.017662457061663965,-0.09293447721061354
2036.5499999984766,0.13905041,-0.7885425,0.09077953,-2.3834305,-0.116748795,1.5304155,0.9157644,0.03999914,0.04,0.00199603554345007,-0.010929112105717564,-0.012927173471477538,-0.07117502435300832,-0.009285237291461182,-0.1963883544513674,0.9947465445559486,-0.034721625442434095,-0.01770918585878799,-0.09465783410185571
2036.5666666651432,0.14152357,-0.7886156,0.09239534,-2.3839135,-0.11882892,1.529694,0.91807455,0.039999112,0.04,0.0004637680739438821,-0.010613311424262362,-0.0121153621071457,-0.07164460331479297,-0.010353928885703738,-0.19785279651736315,0.9945583989346435,-0.03530992849378903,-0.017746667493602018,-0.09639427291698258
2036.5833333318099,0.14401376,-0.78868926,0.09402228,-2.3843994,-0.12092336,1.528967,0.9204006,0.039999098,0.04,0.0025389946567200283,-0.010150605148742664,-0.012607202163228415,-0.0721064870604505,-0.011445927346496649,-0.19928849371729873,0.9943656405994901,-0.0359009852344269,-0.017774605743484672,-0.09814354510117808
2036.5999999984765,0.14652069,-0.78876346,0.09566017,-2.3848884,-0.12303191,1.5282356,0.9227423,0.039999075,0.04,0.0024043720814326264,-0.009804846300015546,-0.012075700744951234,-0.07256276434673845,-0.01256243219907433,-0.20070069114490857,0.9941682286221596,-0.036494754147711014,-0.01779259251056245,-0.09990540410672813
2036.6166666651432,0.14904413,-0.788838,0.09730882,-2.3853812,-0.12515432,1.527499,0.9250995,0.03999907,0.04,0.0009808978455483341,-0.009137938555112135,-0.012770572270870417,-0.07301115573050992,-0.013698459573666135,-0.2020856285076535,0.9939660943598669,-0.03709107961055408,-0.017801208500157047,-0.1016797524202813
2036.6333333318098,0.15158373,-0.78891325,0.09896805,-2.3858764,-0.1272904,1.5267578,0.9274717,0.039999057,0.04,0.003915806328991245,-0.009019934303491906,-0.011803907686491755,-0.07345397625348513,-0.014862760220049051,-0.20344483531277213,0.9937592284435738,-0.03768993524751741,-0.017799181418943665,-0.103466196436742
2036.6499999984765,0.15413925,-0.78898877,0.1006377,-2.3863754,-0.12943983,1.5260117,0.9298588,0.03999904,0.04,0.0011409533042350262,-0.008295167591071406,-0.012659467738296293,-0.07388943158498126,-0.016044114154176087,-0.2047743317708924,0.9935475526803539,-0.038291185064712116,-0.01778748558840888,-0.10526467149837834
2036.666666665143,0.1567104,-0.7890648,0.102317534,-2.3868768,-0.1316024,1.5252614,0.9322605,0.03999902,0.04,0.004063985226543387,-0.008280457322493162,-0.011487926216302569,-0.07431894853343196,-0.017254259346054134,-0.20607699747668856,0.9933310693172026,-0.038894744237272426,-0.017764762232253005,-0.10707473475424283
2036.6833333318098,0.15929693,-0.78914136,0.10400743,-2.3873816,-0.1337779,1.5245067,0.93467647,0.039999,0.04,0.0024633809100560455,-0.007656182198897965,-0.012082347323039144,-0.07474126270825265,-0.0184800710503928,-0.20735186006147294,0.9931097089100381,-0.03950059662167488,-0.017731494950639096,-0.10889629480366453
2036.6999999984764,0.16189854,-0.7892184,0.10570713,-2.3878896,-0.13596602,1.5237471,0.93710643,0.039998982,0.04,0.0024897688482905522,-0.007054788999957817,-0.0124480295085716,-0.07515600059959152,-0.019728677405204648,-0.20859648694091906,0.9928834316773671,-0.04010857231371311,-0.017687771957541096,-0.11072911202889966
2036.716666665143,0.16451487,-0.78929585,0.10741647,-2.3883998,-0.13816656,1.5229832,0.93955034,0.03999896,0.04,0.004508566360850175,-0.006974786792773857,-0.011338527575444068,-0.07556432798728771,-0.021002138746767637,-0.20981175004278213,0.9926522322337874,-0.04071846452934745,-0.01763267126148211,-0.11257282705802373
2036.7333333318097,0.1671456,-0.7893738,0.10913526,-2.3889132,-0.14037926,1.5222152,0.9420077,0.03999895,0.04,0.0032707152150646124,-0.006331540508011657,-0.011676989502129587,-0.07596683776302993,-0.022292087088266327,-0.21099646828172255,0.9924160606989637,-0.041330273119624075,-0.017566356163893296,-0.11442724379155202
2036.7499999984764,0.16979048,-0.78945214,0.1108633,-2.3894293,-0.14260386,1.5214432,0.9444783,0.039998922,0.04,0.0035539623356228844,-0.006033698706914281,-0.011469536923613965,-0.07636243573209489,-0.02360288262707813,-0.21215364196448738,0.9921748839248491,-0.041943940813277784,-0.01748868815139566,-0.11629209484959717
2036.766666665143,0.17244925,-0.78953075,0.1126004,-2.389948,-0.14484015,1.5206672,0.9469617,0.039998904,0.04,0.004363703926402174,-0.005732743393094264,-0.011195803136776483,-0.07675112037306944,-0.02493296896825844,-0.21327928383226358,0.9919286727379816,-0.04255939269019486,-0.017399349652086286,-0.1181671228633088
2036.7833333318097,0.17512156,-0.7896099,0.11434632,-2.390469,-0.14708784,1.5198873,0.9494578,0.039998885,0.04,0.004352663929685363,-0.005208265662673406,-0.01121564132327002,-0.07713234308916189,-0.02628243498818706,-0.21437236878416338,0.9916774083125495,-0.04317644107950326,-0.017298129023467196,-0.12005202001840957
2036.7999999984763,0.17780706,-0.7896895,0.11610089,-2.3909929,-0.14934666,1.5191034,0.95196635,0.039998863,0.04,0.004240588937198808,-0.0047256063812062266,-0.011300229046096177,-0.07750696040135618,-0.027648021876464375,-0.21543613111342644,0.9914210538518254,-0.04379497200578337,-0.01718510659567112,-0.12194657238989476
2036.816666665143,0.18050551,-0.7897694,0.1178639,-2.39152,-0.15161633,1.5183158,0.95448685,0.03999886,0.04,0.0031624910056704536,-0.004263380335867151,-0.011319052373393035,-0.07787526625348959,-0.029030763950489896,-0.21646303028990205,0.9911595693124668,-0.044415010423859314,-0.01706040485569972,-0.12385054539861116
2036.8333333318096,0.18321654,-0.78984976,0.11963517,-2.3920488,-0.15389659,1.5175245,0.9570192,0.039998833,0.04,0.006025141170185044,-0.004243046371954495,-0.01054331214374038,-0.07823660788332404,-0.030436608960061486,-0.21746084462304596,0.9908929709128504,-0.04503631936586703,-0.016923086643709485,-0.12576350532618724
2036.8499999984763,0.18593991,-0.7899304,0.12141446,-2.3925798,-0.1561872,1.5167295,0.959563,0.039998807,0.04,0.005193733434527559,-0.003695935185599186,-0.010660273784512952,-0.07859147397761296,-0.0318540596374461,-0.21842701289632516,0.9906212167023796,-0.04565889531202552,-0.016773364854081686,-0.12768525572459144
2036.866666665143,0.18867522,-0.7900114,0.12320157,-2.3931136,-0.15848793,1.5159311,0.9621181,0.0399988,0.04,0.004234872110986387,-0.0031041663187902913,-0.010703896328689844,-0.07893898083805298,-0.033287172339011115,-0.21935833578878702,0.9903442795866897,-0.04628257692498974,-0.016611307625522535,-0.12961556782297867
2036.8833333318096,0.19142216,-0.7900927,0.12499629,-2.3936496,-0.1607985,1.5151293,0.96468395,0.039998777,0.04,0.005375320884604129,-0.0028186274657532318,-0.01038158964394853,-0.07928029632976061,-0.03473754150521495,-0.22025607899129235,0.99006214787762,-0.04690732760745305,-0.016436596606696913,-0.13155411148523424
2036.8999999984762,0.19418041,-0.7901745,0.12679838,-2.3941875,-0.1631186,1.5143243,0.96726036,0.03999876,0.04,0.006053293628749401,-0.002530136452300047,-0.010149019735616882,-0.07961434562072758,-0.036202695078574654,-0.22111852108407062,0.9897748240192544,-0.04753300843891194,-0.01624885603579518,-0.1335005075792906
2036.9166666651429,0.19694966,-0.7902566,0.12860765,-2.3947272,-0.16544795,1.5135162,0.969847,0.039998733,0.04,0.006007780262873297,-0.0021911919288269965,-0.00996017487606693,-0.07994159637615386,-0.03767972444426819,-0.22194898484940553,0.9894822900904048,-0.048159542951604045,-0.016048027438738354,-0.1354544825226029
2036.9333333318095,0.19972964,-0.79033893,0.1304239,-2.3952699,-0.16778621,1.5127048,0.9724436,0.039998718,0.04,0.004272545623096313,-0.001604666050836201,-0.010367606408778762,-0.08026146550370808,-0.03916836398939974,-0.22274464636590868,0.9891845024091327,-0.04878691043084791,-0.015834674525625713,-0.13741586752219195
2036.9499999984762,0.20251992,-0.7904216,0.13224691,-2.3958144,-0.17013322,1.5118904,0.9750499,0.039998695,0.04,0.006110618798760292,-0.0012794472437516191,-0.009831483969935384,-0.08057460623633234,-0.040674214960318866,-0.22350494178295693,0.988881479071588,-0.049414841783381055,-0.015608127232130453,-0.1393842893765912
2036.9666666651428,0.20532022,-0.7905045,0.13407645,-2.3963602,-0.17248863,1.5110732,0.97766554,0.039998677,0.04,0.007261970974759002,-0.0012659481663457317,-0.009152828628611331,-0.08088161182057022,-0.042190804875935024,-0.22422990846372154,0.9885732328951987,-0.05004335007461518,-0.015367905777652856,-0.14135930739945543
2036.9833333318095,0.20813014,-0.79058766,0.13591231,-2.3969085,-0.1748522,1.5102532,0.9802902,0.039998658,0.04,0.004950637847067618,-0.0003139311413324908,-0.009801648956875297,-0.08118076612969966,-0.04371555382450077,-0.22491721547532706,0.9882597143823885,-0.05067231695014353,-0.015114725683417008,-0.14334084655554083
2036.9999999984761,0.2109494,-0.7906712,0.13775429,-2.3974593,-0.17722367,1.5094303,0.98292345,0.03999863,0.04,0.0055610386291871094,-2.5398173464363794e-05,-0.009732346041468887,-0.08147354969194148,-0.04525577824559626,-0.2255719415589807,0.9879409238329282,-0.05130168389730545,-0.014848356354750607,-0.14532857447523453
2037.0166666651428,0.21377768,-0.79075503,0.13960217,-2.3980112,-0.17960271,1.508605,0.9855653,0.039998613,0.04,0.007448913546381775,-0.00014578150047128702,-0.008700709189723987,-0.08175899601483208,-0.04680719421824281,-0.2261879324660951,0.9876169020231967,-0.05193123929028587,-0.014568045099132867,-0.14732200543662202
2037.0333333318094,0.21661462,-0.79083914,0.14145567,-2.3985643,-0.18198904,1.507777,0.98821515,0.039998595,0.04,0.007451298652294547,0.00041561295734959813,-0.008907326110696445,-0.08203832091733476,-0.048364779056553175,-0.2267664957869481,0.9872876388683596,-0.05256097401087071,-0.014273950801289853,-0.14932085077875334
2037.049999998476,0.21945989,-0.7909234,0.14331466,-2.3991194,-0.18438235,1.5069467,0.99087274,0.039998572,0.04,0.006289304712825405,0.0007606482960997862,-0.008785709826253374,-0.08231014080883059,-0.04992962129470267,-0.22730988689690573,0.9869531198482697,-0.053190835340129534,-0.013966230028166127,-0.15132487791631113
2037.0666666651427,0.2223131,-0.79100806,0.1451788,-2.3996763,-0.1867824,1.5061141,0.9935379,0.039998546,0.04,0.0065090983325299945,0.0014175317369413687,-0.008737485429377578,-0.08257403061216181,-0.05150193273139832,-0.22781634524050196,0.9866133609751574,-0.053820572013919384,-0.013644795858386492,-0.15333375857710294
2037.0833333318094,0.22517392,-0.7910928,0.14704794,-2.4002347,-0.18918885,1.5052793,0.9962101,0.039998524,0.04,0.007033130465616821,0.0014933130684513518,-0.008368395187607902,-0.08283237843479047,-0.053081960900766,-0.22828448411775643,0.9862683670787891,-0.05445022778739318,-0.01330955812065011,-0.15534714820772472
2037.099999998476,0.22804207,-0.791178,0.14892182,-2.4007943,-0.1916014,1.5044423,0.9988892,0.0399985,0.04,0.007763284861761477,0.0017678517642782943,-0.008253463641927361,-0.0830835522907897,-0.054668870942185546,-0.22871575991059762,0.9859181686158838,-0.055079606762615724,-0.012960199602579495,-0.1573646559372164
2037.1166666651427,0.23091716,-0.7912632,0.15080023,-2.4013548,-0.1940198,1.5036033,1.0015746,0.03999849,0.04,0.007820992907703328,0.0020589172661289457,-0.007788475645220672,-0.08332755981318263,-0.056258920378591544,-0.22910977978362068,0.9855627643056005,-0.05570875789976133,-0.012596760510363401,-0.15938598913396854
2037.1333333318094,0.23379877,-0.7913485,0.15268296,-2.4019165,-0.1964438,1.5027623,1.0042663,0.039998464,0.04,0.007445647090675855,0.002603417807134356,-0.007786229499151531,-0.08356377241586502,-0.05785309818034081,-0.22946870279635628,0.9852021616387108,-0.05633745542418772,-0.012219365829722184,-0.16141090086316612
2037.149999998476,0.23668659,-0.79143393,0.15456969,-2.40248,-0.19887309,1.5019195,1.0069637,0.03999844,0.04,0.006784437667861631,0.0031532539064349496,-0.007750908712456095,-0.08379357153248246,-0.05945206626796514,-0.22978851523113358,0.9848363740062198,-0.05696561620066007,-0.011828152504427019,-0.16343907064558427
2037.1666666651427,0.23958032,-0.7915196,0.15646033,-2.403045,-0.20130731,1.501075,1.0096668,0.03999842,0.04,0.00691242632053779,0.0032444128255981752,-0.007706378389227275,-0.08401665304133388,-0.061054510702348054,-0.23006756641248477,0.9844654159807353,-0.05759318162405087,-0.011423025663209756,-0.16547019264204185
2037.1833333318093,0.24247958,-0.7916055,0.15835452,-2.4036107,-0.20374614,1.5002288,1.0123749,0.03999839,0.04,0.00840912163901919,0.0034992383479315325,-0.007242308616217663,-0.08423344863663207,-0.06266291046785395,-0.2303114908411205,0.9840893378725943,-0.05822009047758844,-0.01100368172787892,-0.1675037764908356
2037.199999998476,0.24538404,-0.79169166,0.16025211,-2.4041777,-0.20618938,1.499381,1.0150878,0.039998367,0.04,0.007760813296209257,0.003931767843001754,-0.007218108461737316,-0.0844423868295529,-0.06427022279736391,-0.23051498495261902,0.9837081436288013,-0.05884620181283848,-0.010570219892909167,-0.1695396211568129
2037.2166666651426,0.2482933,-0.79177785,0.16215283,-2.4047453,-0.20863663,1.4985319,1.0178053,0.039998338,0.04,0.008253094630505942,0.00399242220943119,-0.006524863675960724,-0.08464452461806707,-0.06587931346594009,-0.2306811517472398,0.9833218832211047,-0.05947143883852879,-0.01012247804473205,-0.17157726358468736
2037.2333333318093,0.251207,-0.7918642,0.16405655,-2.4053137,-0.21108769,1.4976817,1.0205269,0.03999832,0.04,0.0084363689772049,0.004337962339040491,-0.006516946379142574,-0.08483882507034277,-0.06748525623108093,-0.23080808949424197,0.9829305645894316,-0.06009579545127978,-0.00966042460178051,-0.1736164645461149
2037.249999998476,0.25412488,-0.79195064,0.16596286,-2.4058826,-0.21354224,1.49683,1.0232522,0.039998297,0.04,0.008588648480012395,0.004815836767169124,-0.006486515646608737,-0.08502511758539141,-0.06908987822312326,-0.2308979393836907,0.9825342280850244,-0.06071908820527843,-0.009184263206667695,-0.1756568594682123
2037.2666666651426,0.25704646,-0.7920374,0.16787167,-2.4064522,-0.21599996,1.4959773,1.0259813,0.03999827,0.04,0.00859880224324261,0.005054345951271966,-0.006225358051659136,-0.08520419042610727,-0.0706918626299317,-0.23094988796427393,0.9821329170412937,-0.06134113051576324,-0.008693743171762379,-0.17769810860183857
2037.2833333318092,0.2599714,-0.7921243,0.16978267,-2.407023,-0.21846054,1.4951236,1.0287137,0.039998237,0.04,0.00748678751654186,0.00560433906542368,-0.006169705762282263,-0.08537709952454181,-0.07229022236106442,-0.2309634887089268,0.9817266451932273,-0.061961862733329744,-0.008189339058236135,-0.17973996887185764
2037.2999999984759,0.2628994,-0.79221123,0.17169566,-2.4075942,-0.2209237,1.4942691,1.0314486,0.039998215,0.04,0.008684119766089182,0.00560022062833232,-0.005718876342886148,-0.08554351493995044,-0.07388664055873476,-0.2309387973585921,0.9813154528801461,-0.06258145229714342,-0.007670760356247108,-0.18178202112027284
2037.3166666651425,0.26583013,-0.79229826,0.17361046,-2.4081666,-0.22338918,1.4934136,1.0341859,0.039998204,0.04,0.007390475174240407,0.006233340303918311,-0.006069189458401958,-0.08570117118342005,-0.07547831870973414,-0.23087528827436266,0.9808993421552882,-0.06319974140202282,-0.007138558142148312,-0.18382413942051073
2037.3333333318092,0.2687631,-0.7923853,0.17552666,-2.408739,-0.22585648,1.4925574,1.0369256,0.039998174,0.04,0.009243757060994895,0.006147318633531462,-0.005055369812367871,-0.08585104169637078,-0.07706905175547334,-0.23077145679915528,0.9804784462485655,-0.06381636686487312,-0.006592119899468417,-0.18586562812257082
2037.3499999984758,0.27169812,-0.79247236,0.17744417,-2.4093118,-0.22832552,1.4917006,1.0396669,0.039998144,0.04,0.008916954979398817,0.006395981596152289,-0.005113413310375847,-0.0859944742953137,-0.07865048264468753,-0.2306307403791025,0.9800527523770521,-0.06443155537015088,-0.006031619297273853,-0.1879063511417341
2037.3666666651425,0.2746347,-0.7925597,0.17936273,-2.4098852,-0.23079593,1.4908437,1.0424099,0.039998114,0.04,0.00833941679452277,0.006970518039073337,-0.0049988638830322785,-0.08612980092127295,-0.08022609474585014,-0.23045247685666237,0.979622322701307,-0.06504499488642579,-0.005457150609764742,-0.18994597393138787
2037.3833333318091,0.2775725,-0.7926468,0.18128207,-2.4104586,-0.2332674,1.4899864,1.045154,0.03999809,0.04,0.008981039706723593,0.006903092507815067,-0.004412103929807287,-0.08625788591673322,-0.08179264496025426,-0.23023467332021427,0.979187209948484,-0.06565676784573755,-0.004868740139411327,-0.19198409329631794
2037.3999999984758,0.2805112,-0.7927339,0.18320204,-2.4110317,-0.23573956,1.4891288,1.0478988,0.03999806,0.04,0.009379577375789871,0.007130914955122414,-0.004363640791704704,-0.08637746952963668,-0.08334985171689667,-0.22998128565977416,0.9787474674301166,-0.06626677707485291,-0.0042664184949677934,-0.1940203776114
2037.4166666651424,0.2834504,-0.7928211,0.18512236,-2.411605,-0.23821227,1.488271,1.050644,0.039998032,0.04,0.009174831807290396,0.0076860850203419595,-0.004290919524896353,-0.08648860479230319,-0.08489802401476435,-0.22968916535811965,0.9783031378407051,-0.06687486843799356,-0.0036502785525817476,-0.19605457895422848
2037.433333331809,0.28638965,-0.79290843,0.18704273,-2.4121783,-0.24068505,1.4874132,1.0533895,0.039998006,0.04,0.00871229822365649,0.008033504609439301,-0.00412276249739385,-0.08659228344879916,-0.08643446897912482,-0.22935934526556867,0.9778542981148488,-0.06748087747145716,-0.003020516243933359,-0.19808629259900554
2037.4499999984757,0.2893288,-0.79299575,0.18896297,-2.4127517,-0.24315771,1.4865553,1.0561347,0.039997976,0.04,0.008927670859382175,0.008090661532733634,-0.0038836704236544506,-0.08668940411258713,-0.08795925889246897,-0.22899193629740022,0.9774009746896118,-0.06808496344626938,-0.002377215984774855,-0.20011526996328582
2037.4666666651424,0.29226735,-0.79308295,0.19088283,-2.4133248,-0.2456299,1.4856976,1.0588793,0.039997946,0.04,0.009103439271207492,0.008381926705214315,-0.0034951828207674396,-0.08677720490077923,-0.08947331019333092,-0.22858802608297357,0.9769432477316166,-0.0686869219930983,-0.0017204589849600606,-0.20214113257720773
2037.483333331809,0.295205,-0.79317015,0.1928021,-2.4138978,-0.24810132,1.4848404,1.061623,0.039997924,0.04,0.009203233340415728,0.008476677927182763,-0.00321926774218273,-0.08685688545745421,-0.0909749507884604,-0.2281454081912008,0.976481187553974,-0.06928669120341424,-0.0010501799751685633,-0.20416351754729156
2037.4999999984757,0.29814136,-0.79325736,0.19472055,-2.4144707,-0.25057167,1.4839833,1.0643655,0.0399979,0.04,0.008663707005007737,0.009061530653181604,-0.003427655822973996,-0.0869284621695717,-0.0924618526324075,-0.22766666315090633,0.9760148336483379,-0.06988415762256835,-0.0003668421563758235,-0.20618223599191002
2037.5166666651423,0.30107605,-0.7933443,0.19663797,-2.4150436,-0.25304064,1.4831269,1.0671067,0.039997872,0.04,0.008435603732737107,0.00910531875477627,-0.0027874223439416923,-0.08699298000876832,-0.09393674439525797,-0.2271521514806392,0.9755442631254148,-0.07047920874460939,0.0003295485286164855,-0.2081969337324464
2037.533333331809,0.30400872,-0.7934313,0.19855396,-2.415616,-0.25550795,1.482271,1.0698458,0.03999785,0.04,0.009291315822124169,0.009515306187130035,-0.0026876064703751368,-0.08704984128781965,-0.09539619571979331,-0.2265995090686529,0.975069557061152,-0.07107189301648847,0.0010389441692307457,-0.21020719661951345
2037.5499999984756,0.306939,-0.79351825,0.20046838,-2.4161875,-0.2579733,1.4814156,1.0725831,0.03999782,0.04,0.009970512312373891,0.009497671376568206,-0.0023096801361477404,-0.08709780407390272,-0.09684052114086965,-0.2260115304178737,0.9745908174554997,-0.07166181727869152,0.001761507819532033,-0.2122126753187428
2037.5666666651423,0.30986658,-0.79360515,0.20238104,-2.4167588,-0.26043633,1.4805614,1.0753173,0.0399978,0.04,0.008715084696109265,0.009734007674000456,-0.002190733133700107,-0.08713924289382757,-0.09826537235728416,-0.22538747727883987,0.9741080653253384,-0.07224948838420003,0.0024967740785657604,-0.2142131056110904
2037.583333331809,0.31279102,-0.79369193,0.20429169,-2.4173293,-0.26289678,1.4797078,1.0780488,0.039997768,0.04,0.009257348413838073,0.0101334220683591,-0.002020051262263678,-0.08716944725262227,-0.09967453343917038,-0.22472947087472794,0.973621404651607,-0.07283434236634304,0.0032446434554334923,-0.21620821276061905
2037.5999999984756,0.31571203,-0.7937788,0.20620005,-2.417899,-0.26535434,1.4788555,1.0807773,0.039997734,0.04,0.009772537289798322,0.010093406359612533,-0.0015865174350260247,-0.0871930568046827,-0.10106487533657717,-0.22403458385912733,0.9731309351217339,-0.0734164174967136,0.004005287035584267,-0.21819754908525102
2037.6166666651422,0.3186293,-0.79386544,0.20810592,-2.4184675,-0.26780874,1.4780043,1.0835022,0.03999771,0.04,0.009414294176623983,0.010317695877071209,-0.001355447996642667,-0.0872074164613933,-0.10243206853804784,-0.22330522538557013,0.9726367121524824,-0.073995752124621,0.004778357274018102,-0.22018088505245528
2037.633333331809,0.32154235,-0.793952,0.21000914,-2.4190354,-0.27025974,1.4771541,1.086223,0.039997682,0.04,0.008946525765818336,0.01088874334098655,-0.0014759950076159711,-0.08721328139194129,-0.10377950666996158,-0.22254232717166703,0.9721387817820664,-0.07457229099243891,0.005563423160603857,-0.222158075914775
2037.6499999984756,0.3244509,-0.79403836,0.21190935,-2.4196026,-0.27270684,1.4763054,1.0889397,0.039997656,0.04,0.008774275413236943,0.010905786378417881,-0.0010459951079289098,-0.08721063269959298,-0.10510852328913557,-0.22174413119255798,0.9716372744592703,-0.07514590316699139,0.0063603997243638155,-0.22412863590787374
2037.6666666651422,0.32735452,-0.79412466,0.21380639,-2.420169,-0.27514982,1.4754581,1.0916517,0.039997626,0.04,0.0088062602322303,0.011237321750323659,-0.0008528566299181861,-0.08719919163868295,-0.10641663525505957,-0.22091283805964224,0.9711322599593247,-0.07571656066749194,0.007169148403027988,-0.2260923249872846
2037.6833333318089,0.3302529,-0.7942107,0.21569999,-2.420735,-0.27758855,1.4746125,1.0943589,0.039997596,0.04,0.008473472487668943,0.01156229968158895,-0.0005635918639779192,-0.08717864255334332,-0.1077031444976102,-0.2200475713726186,0.9706238065422848,-0.07628412668132904,0.007989353602898602,-0.2280489605739086
2037.6999999984755,0.33314568,-0.79429656,0.21758996,-2.4212992,-0.28002253,1.4737681,1.0970609,0.039997574,0.04,0.009538084324356433,0.011456836289969186,-0.00048387933340166,-0.0871499509035897,-0.10896822300140582,-0.21914760322684662,0.9701120343651223,-0.07684856637649619,0.008821019899994354,-0.22999810484820327
2037.7166666651422,0.3360326,-0.79438233,0.21947603,-2.4218624,-0.28245154,1.4729257,1.0997574,0.03999755,0.04,0.009133870320887638,0.01161758942891944,-3.2156000662197926e-05,-0.08711271315052882,-0.11020908946771908,-0.21821453283015604,0.9695970387043747,-0.07740984510904933,0.009664057034752408,-0.23193944127191737
2037.7333333318088,0.3389132,-0.794468,0.22135805,-2.422424,-0.28487524,1.472085,1.1024481,0.039997526,0.04,0.00932418617896058,0.011824176157793076,0.00010673408676886709,-0.08706593817568473,-0.11142568761876752,-0.21725141352945537,0.9690789118119005,-0.07796786669633922,0.01051823957912398,-0.2338727027261641
2037.7499999984755,0.34178722,-0.7945534,0.22323568,-2.422985,-0.2872934,1.4712464,1.1051327,0.039997496,0.04,0.007984503584701486,0.012371711532682683,0.00021316878382471316,-0.08701062802778292,-0.1126167453378439,-0.21625509160912662,0.9685577198653674,-0.07852258717963079,0.011383026355013237,-0.23579773812065877
2037.766666665142,0.3446542,-0.7946386,0.22510876,-2.4235444,-0.2897058,1.4704094,1.1078106,0.039997466,0.04,0.009292212595979343,0.012442043828320148,0.0005195761549003919,-0.08694632898286639,-0.11378318602305186,-0.21522793563596843,0.9680335635692523,-0.07907396858424416,0.012258391699073029,-0.23771423838025452
2037.7833333318088,0.34751382,-0.7947236,0.22697704,-2.4241023,-0.29211202,1.4695749,1.1104815,0.039997432,0.04,0.00889938864760964,0.01234820925475888,0.0010219864322813521,-0.08687323377002062,-0.11492547304469042,-0.21416811907256966,0.9675065698634114,-0.07962206407953488,0.013144302386216567,-0.2396217675788867
2037.7999999984754,0.35036585,-0.7948082,0.22884034,-2.4246588,-0.2945117,1.4687426,1.1131451,0.039997403,0.04,0.008481576609042918,0.012580156437669299,0.0009419193824911076,-0.08678885064999894,-0.11603933066853221,-0.21307719959332666,0.966976813716256,-0.08016681466993966,0.014040243049615684,-0.2415201754221382
2037.816666665142,0.3532098,-0.7948927,0.23069835,-2.4252133,-0.29690462,1.4679126,1.1158015,0.039997377,0.04,0.009334765748381102,0.012831874908586505,0.0013170255745986736,-0.08669516357476814,-0.11712657110348233,-0.21195490853797966,0.9664444476017299,-0.08070788062464017,0.014946313175020867,-0.2434090701418911
2037.8333333318087,0.3560453,-0.794977,0.2325509,-2.4257665,-0.29929057,1.4670851,1.1184498,0.039997343,0.04,0.008378866901503912,0.013142027860457706,0.001577865005253365,-0.0865924738824147,-0.11818426617519236,-0.21080551784575424,0.9659095239622011,-0.08124547009911476,0.01586207126463754,-0.2452883197436914
2037.8499999984754,0.35887218,-0.7950611,0.23439777,-2.426318,-0.30166912,1.4662602,1.1210902,0.039997317,0.04,0.008571487314124049,0.013160474874723826,0.001610541984375935,-0.08647982728670331,-0.11921474632432386,-0.2096262703119841,0.9653721752731504,-0.08177940124877567,0.016787316238895483,-0.2471575990198822
2037.866666665142,0.36168993,-0.79514503,0.23623873,-2.4268675,-0.30404013,1.4654378,1.1237221,0.039997287,0.04,0.008811484844972739,0.013490931544052343,0.0019291096538198715,-0.08635791061262948,-0.12021693601258805,-0.20841895177562214,0.9648324955605504,-0.08230961890505037,0.017721836413278676,-0.24901670357678143
2037.8833333318087,0.36449832,-0.7952286,0.23807356,-2.4274151,-0.30640322,1.4646183,1.1263453,0.03999726,0.04,0.008486237351235104,0.013344685964356007,0.0023842724540701354,-0.08622666385298647,-0.12118746431628999,-0.20718364433717565,0.9642906093947429,-0.08283614975785641,0.01866543720913713,-0.2508652913023265
2037.8999999984753,0.367297,-0.7953116,0.23990202,-2.4279609,-0.30875817,1.4638016,1.1289593,0.039997227,0.04,0.008111036447688846,0.013744015814892707,0.0024908225426223396,-0.08608559739312896,-0.12212781335632888,-0.20592334921090888,0.9637465920220973,-0.08335899498733491,0.019617599155131137,-0.25270325309319475
2037.916666665142,0.37008554,-0.79539454,0.2417239,-2.428505,-0.3111048,1.4629878,1.1315637,0.03999721,0.04,0.008025394328692315,0.01427155130288571,0.0025062536674003155,-0.08593376318189275,-0.12303852831743503,-0.20463032198373354,0.9632005405878075,-0.08387810503245745,0.020578124142081763,-0.25453039683761247
2037.9333333318086,0.37286377,-0.7954773,0.24353899,-2.4290469,-0.31344262,1.4621768,1.1341586,0.03999718,0.04,0.008435553697760945,0.013962186690907874,0.002690881802180911,-0.08577248680850683,-0.12392067406280306,-0.20331305866131222,0.9626526226183966,-0.08439323784684691,0.021546913090105677,-0.25634632844637345
2037.9499999984753,0.37563127,-0.7955597,0.24534705,-2.4295862,-0.31577146,1.4613692,1.1367437,0.03999715,0.04,0.008979055607039044,0.013886630425513635,0.003440430077628065,-0.08560192639955286,-0.12476977638057196,-0.20197109924345688,0.96210296690339,-0.08490442355467614,0.022523986998841783,-0.2581507116903196
2037.966666665142,0.37838778,-0.7956417,0.24714789,-2.4301243,-0.31809098,1.4605646,1.1393181,0.03999712,0.04,0.006377311777461259,0.014854814931530846,0.002940333198320211,-0.08542157437829367,-0.12558427136498182,-0.200605454335266,0.9615515862146713,-0.08541187220541929,0.0235081473962666,-0.259943698020187
2037.9833333318086,0.38113287,-0.79572326,0.24894132,-2.4306602,-0.32040098,1.4597635,1.1418818,0.03999709,0.04,0.007687204071693543,0.014506794932162004,0.003714645588726029,-0.08523048265607347,-0.12637145795630272,-0.1992116231603825,0.9609986430144927,-0.08591543160985289,0.02449964845631769,-0.26172488219715245
2037.9999999984752,0.38386628,-0.79580456,0.25072715,-2.4311934,-0.32270125,1.458966,1.1444346,0.03999707,0.04,0.00886116375455881,0.014288675440243814,0.004044751435783311,-0.08502756691324181,-0.12712624807819442,-0.19779159555562087,0.96044429111621,-0.08641501563525524,0.02549865267800021,-0.26349388502704607
2038.0166666651419,0.38658765,-0.7958856,0.25250503,-2.4317243,-0.32499123,1.458172,1.1469762,0.039997034,0.04,0.007433437157611245,0.01497238850945437,0.0038401865029902282,-0.08481451322307365,-0.1278446477080458,-0.19635233686861425,0.9598886604668497,-0.08691044225712072,0.026504374165740426,-0.2652505470002107
2038.0333333318085,0.38929665,-0.7959663,0.25427485,-2.432253,-0.32727087,1.4573814,1.1495066,0.03999701,0.04,0.0075548483670973,0.015106544451459758,0.004170030079042597,-0.08459163507266379,-0.12853008891010992,-0.19488809021826317,0.9593318402479214,-0.08740165766178465,0.027516580819569716,-0.26699477205463956
2038.0499999984752,0.39199293,-0.7960465,0.2560364,-2.432779,-0.3295399,1.4565945,1.1520251,0.03999698,0.04,0.007201408986534652,0.015187449140607878,0.004545050203796919,-0.08435958951963662,-0.12918200654543066,-0.1934024444455379,0.9587739363523493,-0.08788874548000165,0.028534915600270553,-0.26872637753123174
2038.0666666651418,0.39467636,-0.7961263,0.25778955,-2.4333024,-0.33179802,1.4558111,1.1545315,0.039996956,0.04,0.007876762452085906,0.014992491816223641,0.004576811399670255,-0.0841176267180267,-0.1298007277289242,-0.19189325767629584,0.9582150766207943,-0.08837174906359148,0.029559285578988116,-0.2704450952413572
2038.0833333318085,0.39734632,-0.7962059,0.25953394,-2.4338229,-0.3340449,1.4550318,1.157025,0.039996933,0.04,0.007807259306646941,0.015447991983508214,0.005044523888009245,-0.08386431261223157,-0.13038369570866942,-0.1903639960555898,0.9576554164104926,-0.08885066195785635,0.03058939434429283,-0.2721506058103602
2038.0999999984751,0.4000028,-0.79628503,0.26126945,-2.4343414,-0.3362805,1.4542567,1.1595061,0.039996907,0.04,0.006068292348815341,0.015723169494485933,0.005103027372266311,-0.08359930077290001,-0.13093143413171482,-0.18881372720665923,0.9570950122039419,-0.08932534625293123,0.0316247375909344,-0.2738430136107819
2038.1166666651418,0.40264544,-0.7963636,0.2629959,-2.4348567,-0.33850437,1.4534858,1.1619741,0.039996877,0.04,0.007817872295534656,0.015074194569886235,0.005740914282559295,-0.08332437274929314,-0.13144426731260672,-0.18723934364588363,0.9565340517253826,-0.08979591561813055,0.03266540025920707,-0.27552181956068406
2038.1333333318084,0.40527385,-0.7964417,0.26471305,-2.4353693,-0.34071618,1.4527189,1.1644291,0.039996844,0.04,0.006514432226656375,0.015988135095545974,0.005314360192110179,-0.08303644464146295,-0.13191973603940826,-0.18564993830815985,0.9559726413375083,-0.09026204538871878,0.03371056737510999,-0.2771870664798068
2038.149999998475,0.40788782,-0.7965195,0.26642072,-2.435879,-0.34291583,1.4519559,1.1668705,0.03999682,0.04,0.006995136490450804,0.016003629212335557,0.005602908230573078,-0.08274019065376231,-0.13236185118538688,-0.18404117992276453,0.9554108898281242,-0.09072387127878034,0.03476019545311504,-0.2788385547051994
2038.1666666651417,0.41048688,-0.79659694,0.26811877,-2.4363856,-0.345103,1.4511973,1.1692978,0.0399968,0.04,0.0069639574401092474,0.015966065677053276,0.0060542820323084,-0.0824328675626953,-0.13276711139621594,-0.182412875349729,0.9548489324670173,-0.09118144302453193,0.03581398313233027,-0.28047605820596994
2038.1833333318084,0.41307065,-0.7966738,0.26980686,-2.43689,-0.34727752,1.4504433,1.1717112,0.039996766,0.04,0.005552756461635333,0.01661724422213906,0.006408332688101481,-0.08211420077500009,-0.13313755069635008,-0.18076725146702474,0.9542868821009735,-0.091634545798753,0.03687135498512564,-0.28209955662464287
2038.199999998475,0.4156391,-0.7967501,0.27148494,-2.4373903,-0.34943897,1.4496937,1.1741105,0.039996743,0.04,0.007532346084659913,0.015683119202503093,0.006548085680879723,-0.08178585091103963,-0.13347138604539371,-0.1791021150301424,0.9537249381136732,-0.09208314530761626,0.03793255731065356,-0.2837085791198441
2038.2166666651417,0.41819182,-0.79682624,0.27315268,-2.4378881,-0.35158736,1.4489487,1.176495,0.03999671,0.04,0.005855914261299056,0.01687662522941169,0.006587759621512479,-0.08144743364363191,-0.13376744015420355,-0.17742468869669226,0.9531631356671495,-0.09252740762834218,0.038996843766363205,-0.2853032804210416
2038.2333333318084,0.42072865,-0.79690194,0.27481,-2.438383,-0.35372224,1.4482085,1.1788645,0.03999669,0.04,0.005737079949508228,0.016578460066352108,0.006704738049856385,-0.08109785812215457,-0.1340272041473528,-0.17572959563555457,0.9526016217925335,-0.09296728910720745,0.040063892613664345,-0.28688345686520994
2038.249999998475,0.42324916,-0.796977,0.27645665,-2.4388747,-0.35584357,1.4474729,1.1812187,0.039996665,0.04,0.006093177729771249,0.016650023648812073,0.00731723719835653,-0.08073665049047812,-0.134251749459816,-0.1740196090830349,0.952040521525949,-0.09340274766473121,0.04113348154279774,-0.2884489708725724
2038.2666666651417,0.42575312,-0.7970516,0.27809262,-2.4393635,-0.3579509,1.446742,1.1835575,0.03999664,0.04,0.005272842892911633,0.016940564511530587,0.006977575077227183,-0.0803645418764822,-0.13443863191164057,-0.1722934981287203,0.9514799440636168,-0.09383378463923234,0.042205075179633775,-0.28999977333449123
2038.2833333318083,0.4282403,-0.79712576,0.2797176,-2.4398482,-0.36004412,1.4460163,1.1858802,0.039996605,0.04,0.006925189124751263,0.016312629697334824,0.007865733027212496,-0.07998216364783992,-0.13459207818596153,-0.17055421053591446,0.9509200724214241,-0.09426054629667333,0.043278956574911945,-0.2915354132788558
2038.299999998475,0.43071043,-0.7971993,0.2813313,-2.44033,-0.36212304,1.4452955,1.1881872,0.039996587,0.04,0.004740388671997664,0.01739355835916334,0.007624051772903151,-0.07958519259545016,-0.13470542012507772,-0.1688034524573668,0.9503609900102886,-0.09468265565542187,0.04435417291475543,-0.2930561221502615
2038.3166666651416,0.43316323,-0.79727244,0.2829337,-2.4408085,-0.36418736,1.4445797,1.1904782,0.03999657,0.04,0.005415838014455332,0.01705416230295409,0.0078842923967537,-0.07917945105292125,-0.13478283441583755,-0.1670363860469162,0.9498028425620756,-0.09510021855019277,0.04543071503119758,-0.2945616384128465
2038.3333333318083,0.43559834,-0.7973451,0.2845246,-2.4412832,-0.3662368,1.443869,1.192753,0.039996535,0.04,0.005824503072249243,0.01709893587970024,0.008155595509629077,-0.07876331399234016,-0.13482389928407398,-0.16526068770794416,0.9492457966687196,-0.09551307549640244,0.04650832354894,-0.2960517619549892
2038.349999998475,0.4380156,-0.79741704,0.28610387,-2.441755,-0.36827123,1.4431635,1.1950108,0.039996516,0.04,0.003965046851250875,0.01752080634426223,0.008219535080866702,-0.07833751157536174,-0.1348260116129249,-0.1634720812777649,0.9486898657517687,-0.09592159977166134,0.04758619097192456,-0.2975267042568108
2038.3666666651416,0.4404147,-0.79748845,0.28767124,-2.4422228,-0.37029034,1.4424633,1.1972514,0.039996497,0.04,0.0056972775307473356,0.017191064985544457,0.008682449388253133,-0.07789915516589062,-0.1347948162951836,-0.16166833071335185,0.948135284518801,-0.09632562115447026,0.04866447464207133,-0.2989859961059532
2038.3833333318082,0.44279543,-0.79755956,0.2892266,-2.4426873,-0.37229398,1.4417685,1.1994749,0.039996482,0.04,0.004669222002240403,0.017600415724450258,0.008618236781221533,-0.07744918944793597,-0.1347256364180895,-0.15985615051750549,0.947582139304614,-0.09672508827257424,0.049742780696409375,-0.30042969616557996
2038.3999999984749,0.44515747,-0.79762983,0.29076967,-2.4431474,-0.374282,1.4410791,1.2016811,0.03999644,0.04,0.00537722944211616,0.017345418608227803,0.009293674670340923,-0.07698823428233964,-0.13461897438794682,-0.15803587230752042,0.9470305959441225,-0.09711988449779398,0.050820856430052755,-0.301857613673353
2038.4166666651415,0.44750056,-0.79769945,0.2923004,-2.443605,-0.37625414,1.4403955,1.2038696,0.03999641,0.04,0.0028046672050807686,0.018247921304503922,0.0090492939704645,-0.07651651407442112,-0.13447428853407195,-0.15620651131378258,0.9464806797883086,-0.09751021591250625,0.051897812972617724,-0.303270007730433
2038.4333333318082,0.44982463,-0.7977688,0.29381874,-2.4440577,-0.3782102,1.439717,1.2060401,0.03999639,0.04,0.00613447915045473,0.017199546022517165,0.009208490428880278,-0.0760342023232193,-0.1342978914567849,-0.1543645764854453,0.9459326196836286,-0.0978959302349202,0.05297422979612099,-0.3046663697217254
2038.4499999984748,0.4521292,-0.7978375,0.29532436,-2.4445076,-0.3801498,1.4390442,1.2081925,0.039996367,0.04,0.0027078576984695957,0.018587606415143565,0.009321009868645813,-0.07554015424388,-0.13408023663734006,-0.15251802999520003,0.9453864700570874,-0.09827706424314392,0.05404880876485135,-0.30604700153383185
2038.4666666651415,0.45441425,-0.79790556,0.29681718,-2.4449527,-0.38207301,1.438377,1.2103267,0.03999634,0.04,0.005400280486389519,0.017343907062039587,0.0099112521740774,-0.07503629312873848,-0.13383200522730418,-0.150661823026432,0.9448424257223267,-0.09865353159767494,0.055122137043249246,-0.30741148525427797
2038.4833333318081,0.45667925,-0.79797316,0.29829702,-2.445395,-0.3839795,1.437716,1.2124424,0.03999632,0.04,0.0024806000613608603,0.018659909496315796,0.009943341613383172,-0.07452153880619916,-0.13354440801989628,-0.14879962212342468,0.9443005521652548,-0.0990253440778253,0.05619325230405744,-0.30876004729588274
2038.4999999984748,0.45892423,-0.79804015,0.29976368,-2.4458325,-0.38586915,1.4370606,1.2145392,0.0399963,0.04,0.0049977814914559104,0.017790533962253052,0.010221719472147672,-0.07399623409370314,-0.1332216701681228,-0.14692995610851659,0.9437610250379519,-0.09939258279256755,0.057262318478687076,-0.31009235557746717
2038.5166666651414,0.46114907,-0.7981065,0.30121717,-2.446267,-0.38774166,1.4364111,1.2166171,0.03999628,0.04,0.0021805793039231247,0.018471207430342806,0.010000365961526647,-0.07345989396178423,-0.13286231462553452,-0.14505545223143895,0.9432238763454482,-0.09975530001081158,0.05832846089296789,-0.3114087183453235
2038.533333331808,0.4633534,-0.7981724,0.30265722,-2.4466968,-0.389597,1.4357677,1.2186759,0.03999626,0.04,0.004425133283003646,0.01809350403843002,0.010580762464884597,-0.07291258716969495,-0.13246998372824678,-0.14317289862479995,0.9426893167275986,-0.10011336192233268,0.05939200400191287,-0.31270874108808966
2038.5499999984747,0.46553686,-0.79823744,0.30408382,-2.447122,-0.39143494,1.4351301,1.2207155,0.039996225,0.04,0.0037100134656409267,0.018093782668748837,0.010896733268705994,-0.07235461918044189,-0.13204125463767824,-0.14128903690971428,0.9421574535451555,-0.10046665639223328,0.0604524276959767,-0.3139924961974981
2038.5666666651414,0.46769953,-0.79830194,0.30549666,-2.4475443,-0.3932552,1.4344991,1.2227353,0.039996214,0.04,0.0017039197726775868,0.018752482549139193,0.010783021485016864,-0.07178742350750793,-0.13157591121047774,-0.13939969614213227,0.9416283463988676,-0.10081563837877218,0.06150905447024616,-0.3152600522340106
2038.583333331808,0.46984097,-0.79836595,0.30689573,-2.4479616,-0.39505762,1.4338744,1.2247354,0.039996203,0.04,0.004382516961531913,0.017970734828731683,0.011188980652199199,-0.07120706705029275,-0.13107803969239878,-0.13750686501966397,0.9411022324742769,-0.10115990311994903,0.06256228657037863,-0.3165110145504895
2038.5999999984747,0.4719611,-0.79842913,0.30828083,-2.4483755,-0.39684212,1.4332559,1.2267157,0.03999618,0.04,0.001363689934974488,0.019026259022680847,0.01117345359645805,-0.07061637386436453,-0.1305438813604331,-0.13561290841313167,0.9405791016866789,-0.10149957432519521,0.06361100837380446,-0.3177458567719679
2038.6166666651413,0.4740597,-0.7984918,0.3096519,-2.4487848,-0.3986085,1.4326437,1.2286755,0.03999616,0.04,0.003207050284936841,0.018464011108254574,0.01135112971047958,-0.0700163373418399,-0.12997740264434085,-0.13371464694006324,0.9400591176590412,-0.10183479797416187,0.06465538614911485,-0.318964277419236
2038.633333331808,0.4761365,-0.7985537,0.31100872,-2.44919,-0.40035665,1.4320372,1.2306154,0.039996132,0.04,0.002450058374381392,0.019099872737105006,0.011416786292250958,-0.06940443689578102,-0.12937830334846318,-0.13181386683014903,0.9395424114395522,-0.10216511937260134,0.06569485548133254,-0.32016641212535146
2038.6499999984746,0.47819138,-0.7986151,0.31235114,-2.449591,-0.40208635,1.4314378,1.2325344,0.039996125,0.04,0.0021434868811898156,0.01864537129332433,0.01202353552990365,-0.0687856176838867,-0.12874562665611333,-0.12991046728573005,0.9390290984048051,-0.10249109082408127,0.06672941168974605,-0.3213520098992524
2038.6666666651413,0.4802242,-0.79867584,0.3136792,-2.4499872,-0.40379736,1.4308447,1.2344333,0.039996102,0.04,0.0027779946041528447,0.018541909894376207,0.011776988252309994,-0.06815424390616101,-0.1280804484344656,-0.1280079029374442,0.9385193289279752,-0.10281222950118545,0.06775880184646971,-0.3225210992569473
2038.683333331808,0.4822347,-0.7987358,0.31499273,-2.4503798,-0.40548974,1.4302577,1.236311,0.039996073,0.04,0.0007642761629567119,0.01959491221121823,0.011833679138395503,-0.06751426531880722,-0.12738014533869207,-0.12610475162141496,0.9380130594921752,-0.10312896505282683,0.06878204126349118,-0.3236741379673223
2038.6999999984746,0.48422274,-0.7987951,0.3162917,-2.4507675,-0.40716317,1.4296776,1.2381678,0.03999606,0.04,0.002803734418033166,0.018208274174225103,0.012490025278932837,-0.06686438345126079,-0.1266522810078881,-0.12419564442877294,0.937510567098109,-0.10344114095133726,0.06979980120321232,-0.3248104904248933
2038.7166666651412,0.48618826,-0.7988539,0.31757575,-2.4511511,-0.40881753,1.4291036,1.2400037,0.039996024,0.04,0.001229532280588863,0.019592529650969137,0.011977820152719865,-0.06620393447039782,-0.12589087151593234,-0.12229334550499756,0.9370119008056054,-0.10374853843221485,0.07081108132165663,-0.3259305589905667
2038.733333331808,0.488131,-0.79891187,0.318845,-2.4515302,-0.41045275,1.4285369,1.2418181,0.039996006,0.04,0.0016499665469904556,0.01856376954736394,0.012939252076293872,-0.06553663216818592,-0.1250996088769292,-0.1203891239755914,0.9365171675718681,-0.10405164201270921,0.0718160986551856,-0.3270340939589831
2038.7499999984746,0.49005073,-0.7989692,0.32009923,-2.4519045,-0.41206878,1.4279766,1.2436112,0.03999599,0.04,0.0018918189347072456,0.01917940886129177,0.01270653581533221,-0.06485649125894656,-0.1242761052399675,-0.11848627860549284,0.9360264901032765,-0.104350011271786,0.07281443997205549,-0.328121231108374
2038.7666666651412,0.4919475,-0.7990258,0.32133844,-2.452274,-0.4136653,1.4274232,1.2453828,0.03999597,0.04,0.0015290624516550722,0.01864318872479842,0.012922964939554582,-0.06416883155908887,-0.1234229948582042,-0.11658739005980902,0.9355399797596898,-0.10464395329060748,0.07380590040243118,-0.32919185648605964
2038.7833333318079,0.49382105,-0.7990817,0.3225624,-2.4526398,-0.4152423,1.4268764,1.2471325,0.039995946,0.04,7.426102892615916e-05,0.01987081847545369,0.012775862575464814,-0.06347080461799658,-0.12253853436194312,-0.11469111103979893,0.9350576608087248,-0.10493338967476315,0.07478967727302364,-0.33024636086969533
2038.7999999984745,0.4956712,-0.799137,0.32377124,-2.4530008,-0.41679972,1.4263366,1.2488605,0.039995935,0.04,0.0014089181433529774,0.018871442335810507,0.013222275213620183,-0.06276498893788403,-0.12162866729000518,-0.11279361581678855,0.9345796883038883,-0.10521834928953713,0.07576616334859602,-0.3312844603569958
2038.8166666651412,0.49749795,-0.7991915,0.3249646,-2.4533572,-0.41833732,1.4258035,1.2505665,0.039995927,0.04,0.0005665711901636783,0.019376553969030486,0.013241582059042578,-0.062048666707126665,-0.12068689984088006,-0.11089954442976742,0.9341061679832966,-0.10549879741357035,0.07673465846972255,-0.3323062787089442
2038.8333333318078,0.49930096,-0.7992455,0.3261425,-2.4537091,-0.41985506,1.4252775,1.2522507,0.039995905,0.04,0.000801077748135981,0.019443988893874664,0.013475917651473157,-0.06132468284507518,-0.11971991498401004,-0.10901113933392614,0.9336372255355129,-0.10577456506648732,0.07769522846657669,-0.33331175189733664
2038.8499999984745,0.50108033,-0.79929864,0.327305,-2.4540558,-0.42135277,1.4247583,1.2539124,0.039995886,0.04,0.001295869806261507,0.018634693622077148,0.013588239525375023,-0.06059378743811729,-0.11872298765310683,-0.10712635088793224,0.9331729249628373,-0.1060460565350171,0.07864767528457488,-0.3343008662597314
2038.866666665141,0.5028358,-0.79935104,0.3284519,-2.4543989,-0.42283046,1.4242462,1.2555519,0.03999587,0.04,-0.0012480890726918048,0.02002605961899384,0.013574283683193133,-0.05985230558691067,-0.11769928803892334,-0.1052466668641398,0.9327132751111284,-0.1063131377902572,0.0795911294822192,-0.3352740897719455
2038.8833333318078,0.50456727,-0.79940283,0.32958323,-2.4547365,-0.42428797,1.4237409,1.2571691,0.03999586,0.04,0.0015536688755535266,0.018932283273298545,0.01380609291630197,-0.05910341248805738,-0.11665156978725447,-0.10336879135266297,0.932258496441208,-0.1065756460982204,0.08052611661162977,-0.33623098015408287
2038.8999999984744,0.50627464,-0.7994538,0.33069873,-2.4550693,-0.42572522,1.4232426,1.2587637,0.03999585,0.04,0.00010983709901601912,0.019364649499220565,0.014053897623356182,-0.05834774961670108,-0.11557699530572466,-0.10149693413022517,0.9318086356292825,-0.10683379293984648,0.08145200208408301,-0.33717173459422084
2038.916666665141,0.5079579,-0.79950416,0.33179846,-2.455398,-0.4271422,1.4227512,1.2603356,0.03999583,0.04,-0.0008526715835399656,0.019906794023294427,0.013804417214124953,-0.05758336041597795,-0.11447746593268834,-0.0996323151287514,0.9313637035650235,-0.10708756806844248,0.08236838037379932,-0.3380966642270032
2038.9333333318077,0.50961685,-0.79955375,0.33288234,-2.4557216,-0.42853865,1.422267,1.2618861,0.039995816,0.04,0.0005150902424588821,0.0189334867145452,0.01427847996048337,-0.05681173401932306,-0.11335480548134418,-0.09777090007663194,0.9309239773836211,-0.1073363422062435,0.0832756855933441,-0.339005336481599
2038.9499999984744,0.51125157,-0.79960257,0.3339503,-2.4560404,-0.42991462,1.42179,1.2634137,0.039995797,0.04,-0.000275865271226472,0.01919723552903374,0.014358204034625732,-0.05603787828302349,-0.11220436089733526,-0.09591960565285038,0.9304893987968761,-0.10758094429275222,0.08417331918097688,-0.33989803101778227
2038.966666665141,0.5128617,-0.7996507,0.3350024,-2.4563549,-0.4312701,1.4213203,1.2649179,0.039995793,0.04,-0.0009999620101952544,0.019699449517529555,0.014388036707357887,-0.0552545997177199,-0.11102989218049716,-0.09407238620898736,0.9300599949092679,-0.10782144149462437,0.08506085803292604,-0.3407749888916382
2038.9833333318077,0.5144475,-0.7996982,0.3360384,-2.4566643,-0.43260488,1.4208577,1.2663987,0.03999578,0.04,-0.00021375428527203866,0.01923517669514263,0.014407356744927657,-0.054462959539718706,-0.10983644246106916,-0.09223307188782076,0.9296359080083026,-0.10805784172649888,0.0859382440508438,-0.34163606307362704
2038.9999999984743,0.5160086,-0.79974496,0.33705834,-2.4569683,-0.43391898,1.420402,1.2678562,0.039995756,0.04,0.0004365596500299773,0.019153127713433804,0.014684811518184127,-0.0536633396460353,-0.10862227438585195,-0.09040113554378593,0.9292172586768906,-0.10828994321011957,0.08680549472063673,-0.342481211839218
2039.016666665141,0.5175453,-0.799791,0.3380622,-2.457268,-0.4352124,1.4199538,1.269291,0.039995737,0.04,-0.0015348979229612425,0.019420552285620563,0.014620336881254747,-0.05285623611072743,-0.10738417783832105,-0.08857773192893312,0.9288040362140704,-0.10851780292516933,0.08766218309440343,-0.3433107781819108
2039.0333333318076,0.519057,-0.79983616,0.33905002,-2.4575634,-0.436485,1.4195125,1.2707028,0.039995726,0.04,-0.0018076265650313061,0.02001540782694544,0.014640949856881136,-0.05204284164255431,-0.10612729694562992,-0.08675940854301367,0.9283963085526553,-0.10874125356457269,0.08850777504980208,-0.3441249886229444
2039.0499999984743,0.5205439,-0.7998807,0.34002158,-2.4578528,-0.43773675,1.4190782,1.2720919,0.03999571,0.04,0.0007383821082562747,0.01887435304128715,0.01501721091529129,-0.051226618656732836,-0.10485246294217453,-0.0849481441943514,0.9279943034748598,-0.10896015084754772,0.08934292544148867,-0.3449233246955704
2039.066666665141,0.5220063,-0.79992455,0.34097695,-2.4581382,-0.43896767,1.4186515,1.2734578,0.039995704,0.04,-0.0021617347538027687,0.019482755794464346,0.014776167474384039,-0.05040603147415014,-0.10355455366467008,-0.08315057486413889,0.9275979086035924,-0.10917501281168696,0.09016690736329472,-0.3457063281867264
2039.0833333318076,0.5234437,-0.79996765,0.34191617,-2.4584188,-0.44017768,1.4182318,1.2748,0.039995685,0.04,-0.0013916629826526972,0.019483949833432046,0.015008004289829291,-0.0495790641779382,-0.10224090702454985,-0.08135942255452182,0.9272072101216527,-0.10938586434838729,0.09097946810170493,-0.3464740373579361
2039.0999999984742,0.52485627,-0.80000985,0.34283906,-2.4586937,-0.44136682,1.4178195,1.2761191,0.039995674,0.04,-0.00016282138717294004,0.01877051552070519,0.015399482985389845,-0.048745794831762654,-0.10091042279987,-0.07957645766709584,0.926822379281341,-0.10959240665921853,0.09178095561443901,-0.3472262055957394
2039.1166666651409,0.526244,-0.8000514,0.34374577,-2.4589646,-0.44253513,1.4174143,1.2774153,0.03999566,0.04,-0.0024938541318020313,0.019869735033917202,0.014934695284563038,-0.04790831186650261,-0.0995614363156192,-0.07780556861262306,0.9264433243992747,-0.10979471493719031,0.09257065786472743,-0.34796344714692806
2039.1333333318075,0.5276068,-0.8000921,0.34463617,-2.4592304,-0.4436824,1.4170165,1.2786882,0.039995648,0.04,-0.0014446886335228726,0.019054705534227168,0.015347075550598,-0.047068158954150986,-0.09819777461192522,-0.076042430738132,0.9260702091977598,-0.1099929055008516,0.0933486897907405,-0.34868546068089834
2039.1499999984742,0.5289448,-0.8001322,0.3455104,-2.459491,-0.44480875,1.4166261,1.2799375,0.039995637,0.04,-0.0009024997729145667,0.018752124055454455,0.015266585662243592,-0.046223156088679475,-0.09681758172503215,-0.07429072316906146,0.9257030460551954,-0.11018720571078515,0.09411513370300241,-0.3493923179319315
2039.1666666651408,0.53025776,-0.8001716,0.34636825,-2.4597473,-0.44591412,1.4162428,1.2811638,0.03999563,0.04,-0.002564057832854516,0.01981357926148508,0.015275116585811155,-0.04537214971873617,-0.09542252212909023,-0.07254910523492333,0.9253418834155499,-0.11037722326012618,0.09486932948107109,-0.35008438655009877
2039.1833333318075,0.5315461,-0.80021006,0.34721,-2.4599986,-0.44699863,1.415867,1.2823669,0.03999562,0.04,-0.0017615665018677618,0.018565617967980508,0.01538618074448106,-0.044520282793571814,-0.09401543383082345,-0.07081816826787943,0.924986723755856,-0.11056340744094573,0.0956115478582166,-0.3507616366232359
2039.1999999984741,0.5328094,-0.8002481,0.3480353,-2.460245,-0.44806215,1.4154983,1.283547,0.039995607,0.04,-0.001405778274987668,0.019423088278536227,0.015428871631206764,-0.04366343955055499,-0.09259487959941126,-0.06909757951812809,0.9246377438618454,-0.11074517929631825,0.09634166560049666,-0.3514240050964432
2039.2166666651408,0.5340476,-0.80028516,0.3488446,-2.4604864,-0.4491047,1.4151369,1.2847036,0.039995592,0.04,-0.002355992488101144,0.018868644589375982,0.015551804473012965,-0.04280610355431391,-0.09116056431689565,-0.06739198767478699,0.9242948493539728,-0.11092317979278984,0.09705930657954537,-0.3520718259796869
2039.2333333318074,0.53526115,-0.8003216,0.34963766,-2.4607232,-0.45012638,1.4147825,1.2858369,0.03999559,0.04,-0.0021220851168290977,0.019120930842264627,0.015205603964152381,-0.041944557142628756,-0.08971604940174235,-0.06569470343160422,0.923958088212106,-0.11109724099310972,0.09776440843836472,-0.3527052235420474
2039.249999998474,0.53645015,-0.8003572,0.35041445,-2.460955,-0.45112714,1.4144355,1.2869471,0.03999557,0.04,-0.001974016345784868,0.018517600464007522,0.015522536647150087,-0.041081739357326064,-0.08826254769914789,-0.06401112125264645,0.9236275551940267,-0.11126746744779929,0.09845708483506063,-0.3533240614787501
2039.2666666651407,0.5376141,-0.80039203,0.351175,-2.4611819,-0.45210716,1.4140959,1.2880343,0.039995566,0.04,-0.002377224896932262,0.019068371839714437,0.015862244235409495,-0.04021516897013655,-0.08679711912471309,-0.062337257511422786,0.9233032705157919,-0.11143363101912702,0.09913709480356732,-0.35392859868431636
2039.2833333318074,0.53875333,-0.8004263,0.3519194,-2.4614046,-0.45306632,1.4137635,1.2890983,0.039995562,0.04,-0.0029397658641405755,0.01914262266330402,0.01539595024219187,-0.03934853667030886,-0.08532320006706368,-0.060677479821892866,0.922985224843677,-0.11159597732314647,0.09980421398871615,-0.3545190142089045
2039.299999998474,0.539868,-0.8004597,0.35264775,-2.4616218,-0.45400462,1.4134383,1.2901392,0.03999556,0.04,-0.0016205589850049051,0.01804811177388288,0.015581912006079612,-0.03848103053339645,-0.08384273719046353,-0.05902769602969992,0.9226735129710316,-0.11175451998300828,0.10045870421514594,-0.35509514847780843
2039.3166666651407,0.54095805,-0.8004924,0.35336006,-2.4618344,-0.45492235,1.4131202,1.2911574,0.03999554,0.04,-0.002726039796896451,0.01895036108804371,0.01546781427131938,-0.037611619498854006,-0.08235459288146979,-0.057397385593304276,0.9223680714827904,-0.1119091180859386,0.10110026215968333,-0.3556574573794125
2039.3333333318074,0.54202354,-0.8005243,0.35405633,-2.4620426,-0.45581943,1.4128094,1.2921525,0.039995532,0.04,-0.0029998561942523594,0.018559920551042275,0.015692858419935618,-0.03674291882573178,-0.08085975014125034,-0.05577592261017883,0.9220689432859848,-0.11206002956690678,0.1017287828078274,-0.35620593530901357
