rsonawane2002/My_IMU/logs_2/traj_435/imu_435.csv
time,j1,j2,j3,j4,j5,j6,j7,gripper1,gripper2,imu_ax,imu_ay,imu_az,imu_gx,imu_gy,imu_gz
2034.233333331812,0.00016700293,-0.785875,4.0107683e-05,-2.3551247,9.29385e-05,1.570997,0.786,0.04,0.04,-9.46471,0.02817355841398239,0.09064612,-4.2091682e-07,-0.0011641273740679026,5.130876e-07
2034.2499999984786,0.00016701475,-0.78576016,4.0120794e-05,-2.3552213,9.296579e-05,1.5709941,0.786,0.04,0.04,-9.834506,0.0006447586347348988,0.0090766465,-3.6699666e-07,-0.0022382442839443684,2.653897e-07
2034.2666666651453,0.00016708934,-0.78565425,4.017616e-05,-2.35531,9.29336e-05,1.5709913,0.786,0.04,0.04,-9.832336,0.0007448464166373014,0.0075956034,-2.5212655e-06,-0.003225150750949979,-4.306648e-06
2034.283333331812,0.0001673328,-0.7855569,4.0344567e-05,-2.355391,9.274975e-05,1.5709884,0.786,0.04,0.04,-9.830702,0.0009280303493142128,0.0061713206,-7.674516e-06,-0.0041327388025820255,-1.7130134e-05
2034.2999999984786,0.0001678992,-0.78546727,4.0727773e-05,-2.3554652,9.2283386e-05,1.5709856,0.786,0.04,0.04,-9.82873,0.0011854589683935046,0.004968931,-1.7100083e-05,-0.004959900863468647,-4.1764073e-05
2034.3166666651452,0.00016898582,-0.78538483,4.145547e-05,-2.3555322,9.136674e-05,1.5709827,0.7860019,0.04,0.04,-9.827103,0.0015067558269947767,0.00381397,-3.111559e-05,-0.005714282393455505,-8.140142e-05
2034.333333331812,0.00017082854,-0.78530896,4.268245e-05,-2.355597,8.9799876e-05,1.5709798,0.7860038,0.04,0.04,-9.825559,0.0018922556191682816,0.002695647,-5.8990325e-05,-0.006394045893102884,-0.00013889936
2034.3499999984786,0.00017369768,-0.78523916,4.458569e-05,-2.3556552,8.735492e-05,1.570977,0.78600574,0.04,0.04,-9.824506,0.002313230186700821,0.0017237393,-9.2111e-05,-0.007026220206171274,-0.00021683396
2034.3666666651452,0.00017789478,-0.78517485,4.7362442e-05,-2.3557086,8.377733e-05,1.5709741,0.78600955,0.04,0.04,-9.823064,0.0027918359264731407,0.00074048014,-0.0001303098,-0.0075884414836764336,-0.0003175131
2034.3833333318119,0.0001837485,-0.7851159,5.1227424e-05,-2.3557591,7.879856e-05,1.5709711,0.7860153,0.04,0.039999995,-9.821702,0.0032696034759283066,-0.0001184335,-0.00018136561,-0.008091326802968979,-0.0004421909
2034.3999999984785,0.00019161214,-0.78506184,5.641168e-05,-2.3558054,7.2098344e-05,1.5709682,0.7860229,0.04,0.04,-9.820774,0.0037902274634689093,-0.00095397164,-0.00024511854,-0.008544489741325378,-0.0005956973
2034.4166666651452,0.00020186008,-0.78501225,6.315958e-05,-2.3558483,6.3381805e-05,1.5709649,0.78603244,0.04,0.04,-9.819536,0.004298016428947449,-0.0017090796,-0.0003203369,-0.008940953761339188,-0.0007751731
2034.4333333318118,0.00021488577,-0.78496665,7.172785e-05,-2.3558903,5.2311905e-05,1.570961,0.7860448,0.04,0.04,-9.818575,0.004847709555178881,-0.0024555149,-0.0004063914,-0.009287666529417038,-0.0009849292
2034.4499999984785,0.00023109902,-0.78492486,8.238401e-05,-2.3559275,3.853598e-05,1.5709543,0.78606004,0.04,0.04,-9.817813,0.0053151436150074005,-0.003121789,-0.0005057343,-0.009597684256732464,-0.0012262355
2034.466666665145,0.0002509235,-0.7848866,9.5404655e-05,-2.3559628,2.1708369e-05,1.5709475,0.78607893,0.04,0.04,-9.816753,0.0058564855717122555,-0.0037695714,-0.0006178929,-0.00986302550882101,-0.0014985594
2034.4833333318118,0.00027479522,-0.78485155,0.00011107406,-2.3559976,1.4693567e-06,1.5709405,0.78610146,0.039999995,0.039999995,-9.815843,0.006277676206082106,-0.0044030417,-0.0007446878,-0.010083905421197414,-0.0018028613
2034.4999999984784,0.00030316043,-0.7848195,0.00012968374,-2.356032,-2.258092e-05,1.5709306,0.7861282,0.03999999,0.04,-9.815292,0.006748226936906576,-0.005067411,-0.0008844971,-0.01026887446641922,-0.0021430303
2034.516666665145,0.00033647372,-0.78479016,0.00015153002,-2.3560636,-5.0809533e-05,1.57092,0.78615963,0.039999988,0.04,-9.814714,0.007085042539983988,-0.0056217676,-0.0010380103,-0.010430585592985153,-0.0025165163
2034.5333333318117,0.00037519654,-0.78476346,0.00017691396,-2.3560934,-8.36032e-05,1.5709089,0.7861961,0.039999984,0.039999995,-9.813858,0.007488900795578957,-0.0062731383,-0.0012060665,-0.010548134334385395,-0.002923787
2034.5499999984784,0.00041979615,-0.78473914,0.00020614044,-2.3561223,-0.00012135518,1.5708946,0.786238,0.03999998,0.03999999,-9.813008,0.007691972889006138,-0.0068649235,-0.0013882848,-0.010622413828969002,-0.0033661118
2034.566666665145,0.00047074375,-0.7847169,0.00023951683,-2.3561506,-0.00016446154,1.5708799,0.7862859,0.039999977,0.03999999,-9.812421,0.007887542247772217,-0.007411112,-0.0015844407,-0.010671607218682766,-0.003844662
2034.5833333318117,0.00052851305,-0.784697,0.00027735237,-2.356179,-0.0002133196,1.5708618,0.7863401,0.039999973,0.039999988,-9.811846,0.008100979030132294,-0.008064429,-0.0017953195,-0.010685265064239502,-0.004357946
2034.5999999984783,0.00059358065,-0.784679,0.0003199578,-2.3562074,-0.0002683295,1.5708429,0.78640115,0.03999997,0.039999984,-9.811346,0.008061172440648079,-0.0085935565,-0.0020204983,-0.010677658021450043,-0.00490697
2034.616666665145,0.00066642306,-0.78466284,0.00036764413,-2.356236,-0.00032989235,1.5708208,0.7864696,0.039999966,0.039999984,-9.810788,0.008095568045973778,-0.009251051,-0.0022600256,-0.010636523365974426,-0.0054926635
2034.6333333318116,0.000747517,-0.78464824,0.00042072227,-2.3562655,-0.00039840757,1.5707971,0.78654563,0.039999966,0.039999984,-9.810322,0.007855290547013283,-0.009825637,-0.0025146864,-0.01057392731308937,-0.006113316
2034.6499999984783,0.0008373381,-0.78463537,0.0004795026,-2.3562956,-0.00047427547,1.5707706,0.7866299,0.03999996,0.039999984,-9.809955,0.007694972213357687,-0.010522485,-0.0027832948,-0.010486993007361889,-0.0067705945
2034.666666665145,0.0009363605,-0.7846241,0.0005442948,-2.3563273,-0.0005578934,1.5707409,0.7867227,0.039999958,0.03999998,-9.809502,0.007216321304440498,-0.011142782,-0.003066502,-0.010376912541687489,-0.0074626594
2034.6833333318116,0.001045056,-0.78461426,0.0006154063,-2.3563616,-0.0006496581,1.570709,0.7868246,0.03999995,0.039999977,-9.809187,0.006829323247075081,-0.011848763,-0.003363505,-0.010249895974993706,-0.008191087
2034.6999999984782,0.0011638928,-0.7846057,0.00069314317,-2.356396,-0.00074996235,1.5706743,0.786936,0.039999943,0.03999997,-9.808997,0.006091070361435413,-0.012580981,-0.0036748582,-0.010106542147696018,-0.008953943
2034.7166666651449,0.001293336,-0.7845984,0.00077780837,-2.3564308,-0.00085919705,1.5706363,0.7870572,0.039999936,0.039999966,-9.808503,0.005448544397950172,-0.013383155,-0.004000512,-0.009937546215951443,-0.009752687
2034.7333333318115,0.0014338461,-0.7845924,0.0008697027,-2.356466,-0.0009777494,1.5705948,0.7871888,0.039999932,0.039999966,-9.808013,0.004411310888826847,-0.014153359,-0.0043395357,-0.009745211340487003,-0.010586198
2034.7499999984782,0.0015858794,-0.7845874,0.00096912426,-2.3565025,-0.0011060014,1.5705498,0.78733134,0.039999925,0.039999958,-9.807592,0.003497874364256859,-0.014997818,-0.004692333,-0.009532252326607704,-0.01145328
2034.7666666651448,0.0017498863,-0.78458375,0.0010763668,-2.3565423,-0.0012443329,1.5705017,0.787485,0.039999917,0.039999954,-9.807227,0.002135593444108963,-0.015858296,-0.0050592516,-0.00930030643939972,-0.012355337
2034.7833333318115,0.0019263127,-0.784581,0.0011917215,-2.3565843,-0.0013931169,1.5704501,0.78765017,0.03999991,0.03999995,-9.807097,0.0009073019027709961,-0.016775992,-0.005439262,-0.009056354872882366,-0.013291089
2034.7999999984781,0.0021155982,-0.78457934,0.0013154749,-2.3566272,-0.0015527224,1.5703948,0.7878273,0.039999902,0.039999943,-9.80687,-0.0007852297276258469,-0.017740864,-0.0058320733,-0.008797965943813324,-0.014259329
2034.8166666651448,0.0023181753,-0.7845786,0.00144791,-2.3566713,-0.0017235142,1.5703354,0.78801686,0.039999902,0.039999947,-9.806443,-0.0025147702544927597,-0.018755404,-0.006237224,-0.008517712354660034,-0.0152613195
2034.8333333318114,0.002534471,-0.7845789,0.0015893053,-2.3567207,-0.00190585,1.5702721,0.7882193,0.0399999,0.039999947,-9.806051,-0.00425918772816658,-0.019828426,-0.0066551613,-0.008220398798584938,-0.016295776
2034.849999998478,0.002764906,-0.78458,0.0017399354,-2.3567712,-0.0021000833,1.5702044,0.7884349,0.039999902,0.039999954,-9.806208,-0.006515106186270714,-0.020922413,-0.007085536,-0.007922370918095112,-0.017362254
2034.8666666651447,0.0030098923,-0.7845821,0.0019000699,-2.3568223,-0.0023065612,1.5701326,0.78866416,0.039999906,0.039999958,-9.805793,-0.008626604452729225,-0.022122132,-0.007528299,-0.007607366889715195,-0.018460274
2034.8833333318114,0.0032698356,-0.78458476,0.0020699739,-2.356878,-0.002525622,1.5700566,0.78890735,0.039999906,0.03999996,-9.805358,-0.011283664032816887,-0.023341764,-0.007982866,-0.0072701736353337765,-0.019588478
2034.899999998478,0.003545135,-0.7845885,0.002249907,-2.3569362,-0.0027576033,1.569976,0.7891649,0.039999906,0.039999966,-9.805386,-0.013800142332911491,-0.02466951,-0.008449031,-0.006931125186383724,-0.020748124
2034.9166666651447,0.003836181,-0.78459305,0.0024401243,-2.3569949,-0.003002832,1.5698909,0.78943723,0.039999906,0.03999997,-9.805141,-0.016889039427042007,-0.025986817,-0.008926425,-0.006578629836440086,-0.021937821
2034.9333333318114,0.0041433573,-0.78459847,0.0026408772,-2.3570595,-0.0032616297,1.5698009,0.7897246,0.039999906,0.039999973,-9.804636,-0.01981479860842228,-0.027427249,-0.009415515,-0.006206043064594269,-0.023157043
2034.949999998478,0.0044670384,-0.7846046,0.0028524094,-2.3571255,-0.0035343117,1.5697063,0.7900273,0.039999902,0.039999973,-9.804846,-0.023352842777967453,-0.028871225,-0.009914927,-0.005836997181177139,-0.02440536
2034.9666666651447,0.00480759,-0.78461146,0.0030749606,-2.3571935,-0.0038211863,1.5696068,0.7903458,0.039999902,0.039999977,-9.804432,-0.026714172214269638,-0.030465567,-0.010424611,-0.005450952332466841,-0.025682108
2034.9833333318113,0.0051653734,-0.7846191,0.0033087654,-2.357267,-0.0041225567,1.5695019,0.7906804,0.039999906,0.039999984,-9.804166,-0.030718233436346054,-0.032065578,-0.010944641,-0.0050520021468400955,-0.026986865
2034.999999998478,0.005540738,-0.78462744,0.003554054,-2.357341,-0.0044387155,1.5693923,0.7910316,0.03999991,0.03999999,-9.804256,-0.03453938663005829,-0.033756625,-0.011474751,-0.004657306708395481,-0.028319046
2035.0166666651446,0.005934025,-0.7846366,0.0038110497,-2.3574212,-0.0047699506,1.5692773,0.7913997,0.03999992,0.04,-9.803791,-0.03902619332075119,-0.035516087,-0.012015162,-0.004241402726620436,-0.02967728
2035.0333333318113,0.0063455724,-0.7846467,0.00407997,-2.3575027,-0.005116536,1.5691569,0.79178447,0.039999925,0.04,-9.803933,-0.04333028942346573,-0.037355468,-0.012565809,-0.003831984242424369,-0.031061837
2035.049999998478,0.0067757014,-0.78465724,0.0043610283,-2.3575902,-0.0054787137,1.5690312,0.7921867,0.039999932,0.04,-9.803568,-0.04830596223473549,-0.039218124,-0.013123595,-0.0034076329320669174,-0.03246924
2035.0666666651446,0.007224731,-0.78466856,0.0046544317,-2.3576794,-0.0058567743,1.5689,0.7926065,0.03999993,0.04,-9.803736,-0.05336281657218933,-0.04123384,-0.013690354,-0.002988554770126939,-0.033906072
2035.0833333318112,0.007692973,-0.78468066,0.0049603833,-2.357772,-0.0062509933,1.5687631,0.79304427,0.039999925,0.04,-9.80329,-0.058420438319444656,-0.043327145,-0.014265544,-0.002555876038968563,-0.03536843
2035.0999999984779,0.008180724,-0.7846933,0.0052790777,-2.3578687,-0.0066616326,1.5686208,0.7935003,0.039999913,0.04,-9.803198,-0.06420987099409103,-0.045427825,-0.014849022,-0.0021191551350057125,-0.0368557
2035.1166666651445,0.0086882785,-0.78470683,0.0056107068,-2.3579671,-0.0070889513,1.5684723,0.7939748,0.0399999,0.04,-9.803039,-0.06979136168956757,-0.047690954,-0.015440149,-0.0016798034776002169,-0.038367428
2035.1333333318112,0.009215923,-0.784721,0.0059554544,-2.3580716,-0.0075331726,1.5683182,0.79446816,0.039999884,0.04,-9.802673,-0.07611129432916641,-0.0499341,-0.016039014,-0.0012286464916542172,-0.039901342
2035.1499999984778,0.009763924,-0.7847361,0.006313502,-2.358178,-0.007994525,1.5681579,0.79498047,0.039999872,0.039999995,-9.802798,-0.08223317563533783,-0.05232867,-0.016645191,-0.0007851981208659708,-0.04145693
2035.1666666651445,0.010332554,-0.7847518,0.0066850223,-2.35829,-0.008473217,1.567992,0.79551196,0.039999865,0.039999995,-9.8024235,-0.08912064135074615,-0.05473415,-0.017258132,-0.00033061698195524514,-0.04303454
2035.1833333318111,0.010922068,-0.78476804,0.0070701856,-2.3584082,-0.008969465,1.5678198,0.7960629,0.03999986,0.039999995,-9.802456,-0.09579209238290787,-0.05730884,-0.017877463,0.00011802249355241656,-0.044632837
2035.1999999984778,0.011532714,-0.78478515,0.0074691526,-2.358528,-0.009483485,1.5676414,0.7966336,0.039999865,0.04,-9.8026705,-0.10326360911130905,-0.05990362,-0.018502288,0.0005561747238971293,-0.04625121
2035.2166666651444,0.012164736,-0.784803,0.007882081,-2.3586545,-0.010015471,1.5674566,0.79722434,0.039999865,0.04,-9.802131,-0.11050833016633987,-0.06263927,-0.01913327,0.0010057463077828288,-0.047890726
2035.233333331811,0.012818364,-0.7848214,0.008309122,-2.3587825,-0.010565599,1.5672657,0.7978353,0.03999986,0.04,-9.802387,-0.11857502162456512,-0.06539869,-0.019770404,0.001442619482986629,-0.049550306
2035.2499999984777,0.01349382,-0.7848405,0.008750422,-2.3589168,-0.0111340955,1.5670683,0.79846656,0.039999858,0.04,-9.801839,-0.12640348076820374,-0.06831938,-0.02041296,0.0018903028685599566,-0.051229157
2035.2666666651444,0.014191322,-0.78486043,0.009206124,-2.359053,-0.011721123,1.5668645,0.79911846,0.039999858,0.04,-9.801966,-0.13506317138671875,-0.07124196,-0.02105987,0.0023274137638509274,-0.052925974
2035.283333331811,0.014911078,-0.78488106,0.009676361,-2.359195,-0.012326858,1.5666543,0.7997911,0.039999858,0.04,-9.801478,-0.14349700510501862,-0.07429916,-0.021712065,0.002772021573036909,-0.054641988
2035.2999999984777,0.015653282,-0.7849026,0.010161264,-2.359339,-0.012951479,1.5664377,0.8004849,0.039999854,0.04,-9.801578,-0.1527835577726364,-0.07738827,-0.022368213,0.0032065343111753464,-0.056378156
2035.3166666651443,0.01641813,-0.78492457,0.010660958,-2.3594892,-0.013595128,1.5662143,0.8011996,0.03999985,0.04,-9.801042,-0.16208091378211975,-0.08057456,-0.023029545,0.003650965169072151,-0.05812988
2035.333333331811,0.0172058,-0.78494734,0.011175559,-2.3596427,-0.01425796,1.5659842,0.80193543,0.039999843,0.04,-9.801063,-0.17144209146499634,-0.08388862,-0.023693277,0.004080450627952814,-0.059898317
2035.3499999984776,0.018016465,-0.7849709,0.0117051825,-2.3598015,-0.014940131,1.5657474,0.80269283,0.039999835,0.04,-9.800803,-0.18165837228298187,-0.08720699,-0.024359578,0.0045096380636096,-0.06168368
2035.3666666651443,0.018850297,-0.7849949,0.012249935,-2.3599653,-0.015641805,1.5655037,0.80347204,0.039999828,0.04,-9.800607,-0.19164390861988068,-0.09067616,-0.025029445,0.0049309320747852325,-0.06348549
2035.383333331811,0.019707441,-0.78501993,0.012809922,-2.3601322,-0.016363088,1.5652535,0.804273,0.039999817,0.04,-9.800541,-0.20249807834625244,-0.09418589,-0.025702707,0.005342056509107351,-0.065301426
2035.3999999984776,0.020588057,-0.78504544,0.013385239,-2.360305,-0.0171041,1.5649966,0.805096,0.039999813,0.04,-9.80006,-0.2131085842847824,-0.09780766,-0.026378755,0.005754776764661074,-0.06713116
2035.4166666651442,0.021492284,-0.7850719,0.013975981,-2.3604813,-0.017864961,1.5647326,0.805941,0.03999981,0.04,-9.800047,-0.2246147096157074,-0.101465814,-0.027057238,0.006153914146125317,-0.068974964
2035.433333331811,0.022420254,-0.7850991,0.014582231,-2.3606632,-0.01864582,1.5644617,0.8068082,0.03999982,0.04,-9.799554,-0.23594509065151215,-0.10524838,-0.02773739,0.006551089696586132,-0.0708425
2035.4499999984776,0.023372086,-0.7851268,0.015204075,-2.3608491,-0.01944671,1.5641836,0.8076976,0.039999813,0.04,-9.799449,-0.24804499745368958,-0.10903643,-0.028419191,0.006935921031981707,-0.072712846
2035.4666666651442,0.024347903,-0.7851555,0.015841585,-2.3610392,-0.020267779,1.5638986,0.8086094,0.039999805,0.04,-9.799075,-0.25997859239578247,-0.11300736,-0.029101886,0.007311503868550062,-0.07459661
2035.4833333318109,0.025347814,-0.78518474,0.016494833,-2.3612354,-0.021109099,1.5636065,0.80954385,0.0399998,0.04,-9.798659,-0.2727948725223541,-0.116933525,-0.029785765,0.007682543247938156,-0.07649154
2035.4999999984775,0.02637192,-0.7852147,0.017163884,-2.361435,-0.021970754,1.5633075,0.81050074,0.039999794,0.04,-9.798506,-0.2853965759277344,-0.12105705,-0.030470258,0.00803606677800417,-0.07839799
2035.5166666651442,0.027420318,-0.7852455,0.017848808,-2.36164,-0.02285283,1.5630015,0.81148034,0.03999979,0.04,-9.798019,-0.29888367652893066,-0.12514608,-0.031154823,0.008384746499359608,-0.08031546
2035.5333333318108,0.028493082,-0.78527695,0.018549655,-2.3618495,-0.023755386,1.5626885,0.81248283,0.039999783,0.04,-9.797653,-0.31215599179267883,-0.12940224,-0.03183943,0.008720220066606998,-0.08224345
2035.5499999984775,0.029590301,-0.7853091,0.019266477,-2.362064,-0.024678508,1.5623684,0.81350803,0.03999978,0.04,-9.797266,-0.32633107900619507,-0.13363361,-0.03252423,0.009044586680829525,-0.08418155
2035.566666665144,0.030712048,-0.78534216,0.019999316,-2.3622837,-0.025622252,1.5620409,0.81455624,0.03999977,0.04,-9.796813,-0.3405681252479553,-0.13799864,-0.033207685,0.009357424452900887,-0.086130716
2035.5833333318108,0.031858377,-0.7853759,0.020748219,-2.362507,-0.026586665,1.5617064,0.8156272,0.039999757,0.04,-9.796378,-0.3548511564731598,-0.14243504,-0.033890896,0.009654036723077297,-0.08808793
2035.5999999984774,0.03302934,-0.7854102,0.021513222,-2.362736,-0.027571786,1.5613645,0.81672126,0.039999742,0.04,-9.795743,-0.3700505495071411,-0.14687632,-0.034572136,0.009943529963493347,-0.09005376
2035.616666665144,0.034225006,-0.78544545,0.022294354,-2.3629692,-0.028577676,1.5610154,0.8178384,0.039999735,0.04,-9.795297,-0.3850303888320923,-0.1514725,-0.035251934,0.010213780216872692,-0.092027396
2035.6333333318107,0.035445396,-0.7854813,0.02309164,-2.3632073,-0.029604359,1.5606592,0.8189787,0.039999727,0.04,-9.794666,-0.4009164869785309,-0.15602253,-0.035929866,0.0104729188606143,-0.09400852
2035.6499999984774,0.036690563,-0.7855181,0.023905102,-2.3634508,-0.030651864,1.5602957,0.82014215,0.03999972,0.04,-9.794073,-0.416581928730011,-0.16075191,-0.036606412,0.010715804062783718,-0.095996566
2035.666666665144,0.0379605,-0.7855555,0.024734763,-2.3636985,-0.03172023,1.5599246,0.8213286,0.039999712,0.04,-9.7934675,-0.433176726102829,-0.16539693,-0.037280217,0.010943174362182617,-0.09799185
2035.6833333318107,0.03925525,-0.78559357,0.02558063,-2.3639514,-0.032809436,1.5595466,0.8225384,0.039999705,0.04,-9.792703,-0.4495270252227783,-0.17024228,-0.037950803,0.01115457247942686,-0.09999151
2035.6999999984773,0.04057481,-0.78563255,0.02644272,-2.364209,-0.033919517,1.5591613,0.82377124,0.039999697,0.04,-9.7920475,-0.4668179154396057,-0.17503384,-0.03861926,0.011348873376846313,-0.10199827
2035.716666665144,0.041919205,-0.7856722,0.027321024,-2.3644714,-0.035050467,1.5587687,0.8250273,0.03999969,0.04,-9.791211,-0.48387670516967773,-0.17995961,-0.039283972,0.011527763679623604,-0.10400893
2035.7333333318106,0.04328843,-0.7857126,0.028215548,-2.364739,-0.036202285,1.5583692,0.82630646,0.039999675,0.04,-9.790416,-0.5018576383590698,-0.18483743,-0.03994497,0.0116886543110013,-0.1060242
2035.7499999984773,0.044682473,-0.78575367,0.029126288,-2.365011,-0.037374962,1.5579622,0.8276089,0.039999668,0.04,-9.789551,-0.5196230411529541,-0.18989076,-0.040601697,0.011832334101200104,-0.108043194
2035.766666665144,0.04610131,-0.78579545,0.03005323,-2.365288,-0.038568478,1.5575478,0.8289344,0.039999656,0.04,-9.788623,-0.5383070111274719,-0.1948497,-0.041254833,0.011957377195358276,-0.11006578
2035.7833333318106,0.047544926,-0.7858381,0.030996354,-2.3655703,-0.039782837,1.5571262,0.8302831,0.03999965,0.04,-9.787658,-0.556771993637085,-0.19999056,-0.04190282,0.012062747031450272,-0.11209136
2035.7999999984772,0.049013294,-0.7858815,0.031955663,-2.3658566,-0.041018024,1.5566972,0.83165497,0.039999638,0.04,-9.786695,-0.5761641263961792,-0.20501567,-0.042546347,0.012147101573646069,-0.114120595
2035.8166666651439,0.05050637,-0.78592557,0.0329311,-2.3661482,-0.042273987,1.5562614,0.8330498,0.039999627,0.04,-9.785472,-0.5956116318702698,-0.21016596,-0.0431853,0.012216501869261265,-0.11615177
2035.8333333318105,0.052024104,-0.78597033,0.033922676,-2.3664446,-0.043550707,1.5558183,0.8344678,0.039999615,0.04,-9.784398,-0.6151296496391296,-0.21541491,-0.043818496,0.012264100834727287,-0.118183374
2035.8499999984772,0.05356647,-0.7860159,0.03493033,-2.3667457,-0.044848133,1.555368,0.83590853,0.039999608,0.04,-9.783218,-0.6355612277984619,-0.22056036,-0.04444671,0.01229084376245737,-0.12021498
2035.8666666651438,0.05513341,-0.7860622,0.035954025,-2.3670518,-0.04616621,1.5549104,0.8373723,0.039999615,0.04,-9.781927,-0.6558341383934021,-0.22584839,-0.045067497,0.01229643914848566,-0.12225438
2035.8833333318105,0.056724843,-0.7861092,0.036993746,-2.3673627,-0.047504894,1.5544461,0.8388588,0.03999961,0.04,-9.780608,-0.6769335865974426,-0.23105408,-0.04568264,0.012281217612326145,-0.124289334
2035.8999999984771,0.0583407,-0.7861569,0.038049415,-2.3676782,-0.048864093,1.5539745,0.8403684,0.039999604,0.04,-9.779209,-0.6978452801704407,-0.23640753,-0.04629071,0.01224537193775177,-0.12631954
2035.9166666651438,0.059980936,-0.78620523,0.039121006,-2.3679984,-0.050243776,1.5534956,0.8419008,0.039999597,0.04,-9.777691,-0.7196722030639648,-0.24164633,-0.046893664,0.012188833206892014,-0.12835026
2035.9333333318104,0.061645437,-0.7862545,0.04020846,-2.3683226,-0.05164387,1.5530099,0.8434558,0.03999959,0.04,-9.776187,-0.7413012981414795,-0.24703793,-0.047489863,0.012108441442251205,-0.1303791
2035.949999998477,0.06333416,-0.7863043,0.041311722,-2.3686526,-0.05306431,1.5525168,0.8450334,0.03999957,0.04,-9.774427,-0.7638190388679504,-0.252266,-0.048078593,0.012011248618364334,-0.13240655
2035.9666666651437,0.06504696,-0.7863548,0.042430732,-2.3689868,-0.054504998,1.552017,0.84663355,0.039999563,0.04,-9.772921,-0.7861477136611938,-0.25768992,-0.04865954,0.011883145198225975,-0.13442858
2035.9833333318104,0.06678376,-0.7864062,0.04356542,-2.3693256,-0.055965904,1.5515097,0.8482562,0.039999545,0.04,-9.771061,-0.8093618154525757,-0.26296902,-0.04923299,0.011736096814274788,-0.13645056
2035.999999998477,0.06854447,-0.786458,0.04471573,-2.3696694,-0.057446882,1.5509957,0.849901,0.039999533,0.04,-9.769173,-0.8323758244514465,-0.2683538,-0.049799018,0.011565734632313251,-0.13846701
2036.0166666651437,0.070328966,-0.7865109,0.045881577,-2.3700178,-0.058947884,1.5504748,0.85156804,0.039999526,0.04,-9.767304,-0.8562719821929932,-0.27366433,-0.05035581,0.01136874035000801,-0.14047909
2036.0333333318104,0.07213713,-0.78656435,0.04706289,-2.3703706,-0.06046878,1.5499469,0.85325736,0.039999515,0.04,-9.765215,-0.8799891471862793,-0.27904585,-0.050904315,0.011151207610964775,-0.14248672
2036.049999998477,0.07396887,-0.7866184,0.048259586,-2.370728,-0.062009465,1.5494123,0.8549685,0.039999504,0.04,-9.76312,-0.9045489430427551,-0.28430766,-0.0514451,0.010907875373959541,-0.14448754
2036.0666666651437,0.07582402,-0.7866734,0.049471594,-2.37109,-0.063569844,1.5488708,0.85670143,0.03999949,0.04,-9.760872,-0.9292100071907043,-0.28962588,-0.05197573,0.010641264729201794,-0.1464831
2036.0833333318103,0.07770248,-0.78672886,0.05069882,-2.3714566,-0.065149814,1.5483224,0.85845625,0.03999947,0.04,-9.758577,-0.9539469480514526,-0.29499745,-0.052497018,0.010351093485951424,-0.14847304
2036.099999998477,0.07960406,-0.78678507,0.051941175,-2.3718278,-0.06674927,1.5477673,0.8602326,0.039999463,0.04,-9.756198,-0.9795317053794861,-0.30020905,-0.05300918,0.010034025646746159,-0.15045623
2036.1166666651436,0.081528656,-0.7868419,0.05319855,-2.3722034,-0.06836806,1.5472054,0.86203045,0.03999945,0.04,-9.753699,-1.0049411058425903,-0.3055518,-0.05351129,0.009692353196442127,-0.15243113
2036.1333333318103,0.08347609,-0.78689945,0.054470863,-2.3725834,-0.070006065,1.5466372,0.8638497,0.039999448,0.04,-9.751059,-1.0311646461486816,-0.31070483,-0.054003567,0.009326389990746975,-0.15439545
2036.149999998477,0.085446216,-0.7869577,0.05575801,-2.372968,-0.07166315,1.5460622,0.8656902,0.03999943,0.04,-9.748382,-1.057266354560852,-0.3160011,-0.054485973,0.008935663849115372,-0.15635462
2036.1666666651436,0.08743889,-0.7870165,0.05705988,-2.373357,-0.073339194,1.5454804,0.86755157,0.039999418,0.04,-9.745549,-1.0841560363769531,-0.32107276,-0.05495835,0.008518695831298828,-0.15830319
2036.1833333318102,0.08945394,-0.787076,0.058376368,-2.3737504,-0.07503405,1.5448922,0.8694341,0.039999414,0.04,-9.742677,-1.1109273433685303,-0.3262926,-0.055419188,0.00807428639382124,-0.16024713
2036.1999999984769,0.09149121,-0.7871362,0.059707366,-2.3741481,-0.07674761,1.5442975,0.8713373,0.039999414,0.04,-9.739618,-1.1384683847427368,-0.33129877,-0.055870328,0.007604468613862991,-0.16217984
2036.2166666651435,0.093550526,-0.7871971,0.061052762,-2.37455,-0.07847964,1.5436964,0.873261,0.039999414,0.04,-9.73647,-1.1658140420913696,-0.33643824,-0.05631007,0.007110715843737125,-0.1640943
2036.2333333318102,0.095631674,-0.7872585,0.062412433,-2.3749561,-0.08023008,1.5430888,0.8752051,0.039999392,0.04,-9.733164,-1.194020390510559,-0.34132853,-0.056738026,0.006590782664716244,-0.16600227
2036.2499999984768,0.09773448,-0.7873208,0.063786246,-2.3753662,-0.081998706,1.542475,0.8771695,0.039999377,0.04,-9.729839,-1.2220453023910522,-0.34637064,-0.05715494,0.0060442048124969006,-0.16789477
2036.2666666651435,0.09985875,-0.7873836,0.065174125,-2.375781,-0.083785415,1.541855,0.8791539,0.039999366,0.04,-9.726205,-1.2508412599563599,-0.35114583,-0.057560485,0.005475417245179415,-0.16977674
2036.2833333318101,0.10200431,-0.787447,0.06657591,-2.3761995,-0.085590005,1.5412285,0.88115823,0.039999347,0.04,-9.722719,-1.27953040599823,-0.35606113,-0.05795377,0.004876989405602217,-0.17164676
2036.2999999984768,0.10417095,-0.78751105,0.067991436,-2.376623,-0.08741233,1.5405961,0.88318217,0.039999332,0.04,-9.718836,-1.3089178800582886,-0.36072534,-0.058335073,0.004254632163792849,-0.17350021
2036.3166666651434,0.10635844,-0.7875757,0.06942061,-2.37705,-0.08925222,1.5399576,0.8852258,0.039999317,0.04,-9.715042,-1.3384430408477783,-0.36541197,-0.058703758,0.003603984136134386,-0.1753417
2036.33333333181,0.1085666,-0.78764105,0.0708633,-2.377481,-0.09110946,1.5393128,0.8872884,0.039999314,0.04,-9.711027,-1.3680219650268555,-0.3701178,-0.059061006,0.0029292881954461336,-0.17716669
2036.3499999984767,0.11079522,-0.7877069,0.072319336,-2.3779159,-0.09298391,1.5386626,0.88937014,0.03999929,0.04,-9.706837,-1.3983421325683594,-0.37454173,-0.059404265,0.0022272190544754267,-0.17897831
2036.3666666651434,0.11304408,-0.7877734,0.073788576,-2.3783553,-0.09487537,1.5380062,0.8914711,0.03999928,0.04,-9.702536,-1.4285348653793335,-0.3791154,-0.059735138,0.0015037038829177618,-0.18077347
2036.38333333181,0.11531295,-0.7878404,0.0752709,-2.378798,-0.09678368,1.5373441,0.8935906,0.03999926,0.04,-9.698167,-1.4594385623931885,-0.3833707,-0.060054198,0.0007495074532926083,-0.1825528
2036.3999999984767,0.11760161,-0.78790796,0.07676618,-2.379245,-0.098708615,1.5366762,0.8957286,0.039999247,0.04,-9.693583,-1.4902164936065674,-0.38775343,-0.060359754,-2.6207229893771e-05,-0.18431444
2036.4166666651433,0.11990981,-0.78797626,0.0782742,-2.3796957,-0.100650005,1.5360026,0.8978845,0.039999235,0.04,-9.688846,-1.5216851234436035,-0.39183968,-0.060651597,-0.0008298850734718144,-0.18605939
2036.43333333181,0.12223736,-0.7880452,0.079794854,-2.38015,-0.10260765,1.5353233,0.9000586,0.03999922,0.04,-9.684019,-1.5530354976654053,-0.39601818,-0.060928654,-0.0016558944480493665,-0.18778595
2036.4499999984766,0.124583974,-0.78811455,0.081327975,-2.380608,-0.104581326,1.5346383,0.9022504,0.039999202,0.04,-9.6789665,-1.5850461721420288,-0.3998788,-0.06119305,-0.002508521545678377,-0.18949345
2036.4666666651433,0.12694941,-0.7881845,0.08287343,-2.38107,-0.106570855,1.5339478,0.9044604,0.03999919,0.04,-9.6738825,-1.6169835329055786,-0.4038698,-0.061442778,-0.0033861193805933,-0.19118296
2036.48333333181,0.12933345,-0.7882551,0.08443102,-2.3815346,-0.10857604,1.5332522,0.9066876,0.039999183,0.04,-9.668484,-1.6495342254638672,-0.40753436,-0.061681632,-0.00428784592077136,-0.19285524
2036.4999999984766,0.1317358,-0.7883262,0.08600063,-2.3820035,-0.11059662,1.532551,0.9089317,0.039999165,0.04,-9.663007,-1.6819994449615479,-0.41128537,-0.061906584,-0.0052093337289988995,-0.19450799
2036.5166666651432,0.13415627,-0.78839767,0.087582,-2.3824756,-0.11263244,1.5318447,0.9111925,0.03999916,0.04,-9.657433,-1.7150599956512451,-0.41470334,-0.062115524,-0.006159856915473938,-0.19613765
2036.53333333181,0.13659455,-0.78846973,0.08917504,-2.3829515,-0.11468324,1.5311329,0.9134704,0.03999915,0.04,-9.651657,-1.7480534315109253,-0.41822907,-0.06230985,-0.007130674552172422,-0.19774662
2036.5499999984766,0.13905041,-0.7885425,0.09077953,-2.3834305,-0.116748795,1.5304155,0.9157644,0.03999914,0.04,-9.645728,-1.7816100120544434,-0.421413,-0.062491402,-0.008129501715302467,-0.19933133
2036.5666666651432,0.14152357,-0.7886156,0.09239534,-2.3839135,-0.11882892,1.529694,0.91807455,0.039999112,0.04,-9.639567,-1.8152738809585571,-0.42453924,-0.06265753,-0.009150628931820393,-0.20089714
2036.5833333318099,0.14401376,-0.78868926,0.09402228,-2.3843994,-0.12092336,1.528967,0.9204006,0.039999098,0.04,-9.633462,-1.8490322828292847,-0.42771113,-0.06280857,-0.010194171220064163,-0.20243691
2036.5999999984765,0.14652069,-0.78876346,0.09566017,-2.3848884,-0.12303191,1.5282356,0.9227423,0.039999075,0.04,-9.626924,-1.8833202123641968,-0.43046907,-0.0629455,-0.01126092579215765,-0.20395593
2036.6166666651432,0.14904413,-0.788838,0.09730882,-2.3853812,-0.12515432,1.527499,0.9250995,0.03999907,0.04,-9.620361,-1.917551875114441,-0.43333748,-0.06306741,-0.01234616432338953,-0.2054499
2036.6333333318098,0.15158373,-0.78891325,0.09896805,-2.3858764,-0.1272904,1.5267578,0.9274717,0.039999057,0.04,-9.613613,-1.9523158073425293,-0.43582958,-0.06317454,-0.013458486646413803,-0.20692176
2036.6499999984765,0.15413925,-0.78898877,0.1006377,-2.3863754,-0.12943983,1.5260117,0.9298588,0.03999904,0.04,-9.606648,-1.986982822418213,-0.4383836,-0.0632672,-0.01458705123513937,-0.20836578
2036.666666665143,0.1567104,-0.7890648,0.102317534,-2.3868768,-0.1316024,1.5252614,0.9322605,0.03999902,0.04,-9.59959,-2.0221996307373047,-0.4405885,-0.06334426,-0.015743380412459373,-0.20978679
2036.6833333318098,0.15929693,-0.78914136,0.10400743,-2.3873816,-0.1337779,1.5245067,0.93467647,0.039999,0.04,-9.592272,-2.0573220252990723,-0.4428457,-0.06340728,-0.016914019361138344,-0.21118186
2036.6999999984764,0.16189854,-0.7892184,0.10570713,-2.3878896,-0.13596602,1.5237471,0.93710643,0.039998982,0.04,-9.584776,-2.0929222106933594,-0.44472378,-0.06345405,-0.018106332048773766,-0.2125497
2036.716666665143,0.16451487,-0.78929585,0.10741647,-2.3883998,-0.13816656,1.5229832,0.93955034,0.03999896,0.04,-9.577313,-2.128516435623169,-0.44665,-0.063485146,-0.019322622567415237,-0.21389161
2036.7333333318097,0.1671456,-0.7893738,0.10913526,-2.3889132,-0.14037926,1.5222152,0.9420077,0.03999895,0.04,-9.569281,-2.1644651889801025,-0.44820648,-0.06350275,-0.02055465616285801,-0.21520546
2036.7499999984764,0.16979048,-0.78945214,0.1108633,-2.3894293,-0.14260386,1.5214432,0.9444783,0.039998922,0.04,-9.561442,-2.2004783153533936,-0.4498131,-0.06350485,-0.021806297823786736,-0.21649465
2036.766666665143,0.17244925,-0.78953075,0.1126004,-2.389948,-0.14484015,1.5206672,0.9469617,0.039998904,0.04,-9.553164,-2.2368202209472656,-0.45103252,-0.063491724,-0.023076217621564865,-0.2177553
2036.7833333318097,0.17512156,-0.7896099,0.11434632,-2.390469,-0.14708784,1.5198873,0.9494578,0.039998885,0.04,-9.544925,-2.2731823921203613,-0.45229352,-0.06346255,-0.02436462976038456,-0.21898617
2036.7999999984763,0.17780706,-0.7896895,0.11610089,-2.3909929,-0.14934666,1.5191034,0.95196635,0.039998863,0.04,-9.536232,-2.3098957538604736,-0.45314845,-0.06341881,-0.02566816471517086,-0.22019032
2036.816666665143,0.18050551,-0.7897694,0.1178639,-2.39152,-0.15161633,1.5183158,0.95448685,0.03999886,0.04,-9.527501,-2.3466479778289795,-0.45393836,-0.06336042,-0.026988204568624496,-0.22136076
2036.8333333318096,0.18321654,-0.78984976,0.11963517,-2.3920488,-0.15389659,1.5175245,0.9570192,0.039998833,0.04,-9.518858,-2.3836026191711426,-0.4546598,-0.06328508,-0.028330383822321892,-0.22250561
2036.8499999984763,0.18593991,-0.7899304,0.12141446,-2.3925798,-0.1561872,1.5167295,0.959563,0.039998807,0.04,-9.509511,-2.4207699298858643,-0.45496893,-0.06319611,-0.029683373868465424,-0.22362095
2036.866666665143,0.18867522,-0.7900114,0.12320157,-2.3931136,-0.15848793,1.5159311,0.9621181,0.0399988,0.04,-9.500317,-2.4579713344573975,-0.45530617,-0.06309142,-0.03105095401406288,-0.22470441
2036.8833333318096,0.19142216,-0.7900927,0.12499629,-2.3936496,-0.1607985,1.5151293,0.96468395,0.039998777,0.04,-9.490809,-2.4954631328582764,-0.45524272,-0.06297179,-0.032435137778520584,-0.22575733
2036.8999999984762,0.19418041,-0.7901745,0.12679838,-2.3941875,-0.1631186,1.5143243,0.96726036,0.03999876,0.04,-9.481265,-2.5329737663269043,-0.45520067,-0.06283652,-0.033833663910627365,-0.22677799
2036.9166666651429,0.19694966,-0.7902566,0.12860765,-2.3947272,-0.16544795,1.5135162,0.969847,0.039998733,0.04,-9.471247,-2.5707216262817383,-0.45473096,-0.062686756,-0.03524317592382431,-0.22776921
2036.9333333318095,0.19972964,-0.79033893,0.1304239,-2.3952699,-0.16778621,1.5127048,0.9724436,0.039998718,0.04,-9.461283,-2.6084892749786377,-0.45428684,-0.06252185,-0.036663301289081573,-0.22872815
2036.9499999984762,0.20251992,-0.7904216,0.13224691,-2.3958144,-0.17013322,1.5118904,0.9750499,0.039998695,0.04,-9.451044,-2.6465237140655518,-0.4534215,-0.062340777,-0.038099806755781174,-0.22965492
2036.9666666651428,0.20532022,-0.7905045,0.13407645,-2.3963602,-0.17248863,1.5110732,0.97766554,0.039998677,0.04,-9.44071,-2.6845500469207764,-0.45258012,-0.062145755,-0.039547037333250046,-0.23054947
2036.9833333318095,0.20813014,-0.79058766,0.13591231,-2.3969085,-0.1748522,1.5102532,0.9802902,0.039998658,0.04,-9.429905,-2.7227323055267334,-0.45132017,-0.061935943,-0.04100171849131584,-0.23140846
2036.9999999984761,0.2109494,-0.7906712,0.13775429,-2.3974593,-0.17722367,1.5094303,0.98292345,0.03999863,0.04,-9.419336,-2.7610442638397217,-0.45005953,-0.06171027,-0.0424707867205143,-0.23223813
2037.0166666651428,0.21377768,-0.79075503,0.13960217,-2.3980112,-0.17960271,1.508605,0.9855653,0.039998613,0.04,-9.4082575,-2.7994515895843506,-0.4483588,-0.061469197,-0.04395083338022232,-0.23303202
2037.0333333318094,0.21661462,-0.79083914,0.14145567,-2.3985643,-0.18198904,1.507777,0.98821515,0.039998595,0.04,-9.397144,-2.837890625,-0.4466784,-0.06121526,-0.04543696716427803,-0.23379081
2037.049999998476,0.21945989,-0.7909234,0.14331466,-2.3991194,-0.18438235,1.5069467,0.99087274,0.039998572,0.04,-9.385575,-2.8764607906341553,-0.44456723,-0.060946435,-0.04692976921796799,-0.23451684
2037.0666666651427,0.2223131,-0.79100806,0.1451788,-2.3996763,-0.1867824,1.5061141,0.9935379,0.039998546,0.04,-9.374014,-2.9151148796081543,-0.4423464,-0.060662236,-0.0484292171895504,-0.23520845
2037.0833333318094,0.22517392,-0.7910928,0.14704794,-2.4002347,-0.18918885,1.5052793,0.9962101,0.039998524,0.04,-9.362444,-2.9538261890411377,-0.4400103,-0.060364913,-0.04993681237101555,-0.23586448
2037.099999998476,0.22804207,-0.791178,0.14892182,-2.4007943,-0.1916014,1.5044423,0.9988892,0.0399985,0.04,-9.350353,-2.9926164150238037,-0.43726307,-0.060053013,-0.051450714468955994,-0.23648636
2037.1166666651427,0.23091716,-0.7912632,0.15080023,-2.4013548,-0.1940198,1.5036033,1.0015746,0.03999849,0.04,-9.338284,-3.031440258026123,-0.43447846,-0.059727713,-0.05296747386455536,-0.23707312
2037.1333333318094,0.23379877,-0.7913485,0.15268296,-2.4019165,-0.1964438,1.5027623,1.0042663,0.039998464,0.04,-9.325779,-3.0703282356262207,-0.43128353,-0.059387866,-0.054487768560647964,-0.2376269
2037.149999998476,0.23668659,-0.79143393,0.15456969,-2.40248,-0.19887309,1.5019195,1.0069637,0.03999844,0.04,-9.313413,-3.1092822551727295,-0.42807636,-0.05903453,-0.0560128279030323,-0.23814403
2037.1666666651427,0.23958032,-0.7915196,0.15646033,-2.403045,-0.20130731,1.501075,1.0096668,0.03999842,0.04,-9.300615,-3.1482317447662354,-0.424444,-0.058667522,-0.057541947811841965,-0.23862278
2037.1833333318093,0.24247958,-0.7916055,0.15835452,-2.4036107,-0.20374614,1.5002288,1.0123749,0.03999839,0.04,-9.287911,-3.1873180866241455,-0.42077735,-0.0582866,-0.05907653272151947,-0.23906922
2037.199999998476,0.24538404,-0.79169166,0.16025211,-2.4041777,-0.20618938,1.499381,1.0150878,0.039998367,0.04,-9.27464,-3.22628116607666,-0.4166998,-0.057892565,-0.060610175132751465,-0.23947714
2037.2166666651426,0.2482933,-0.79177785,0.16215283,-2.4047453,-0.20863663,1.4985319,1.0178053,0.039998338,0.04,-9.261518,-3.265395164489746,-0.4125739,-0.057485227,-0.062145672738552094,-0.23984984
2037.2333333318093,0.251207,-0.7918642,0.16405655,-2.4053137,-0.21108769,1.4976817,1.0205269,0.03999832,0.04,-9.247882,-3.3043973445892334,-0.4080718,-0.05706532,-0.06367814540863037,-0.24018507
2037.249999998476,0.25412488,-0.79195064,0.16596286,-2.4058826,-0.21354224,1.49683,1.0232522,0.039998297,0.04,-9.234343,-3.343533754348755,-0.4034955,-0.05663217,-0.0652090534567833,-0.24048477
2037.2666666651426,0.25704646,-0.7920374,0.16787167,-2.4064522,-0.21599996,1.4959773,1.0259813,0.03999827,0.04,-9.220337,-3.3825385570526123,-0.39851898,-0.056186758,-0.06673746556043625,-0.24074852
2037.2833333318092,0.2599714,-0.7921243,0.16978267,-2.407023,-0.21846054,1.4951236,1.0287137,0.039998237,0.04,-9.20645,-3.4216582775115967,-0.3934808,-0.055730272,-0.0682629942893982,-0.2409755
2037.2999999984759,0.2628994,-0.79221123,0.17169566,-2.4075942,-0.2209237,1.4942691,1.0314486,0.039998215,0.04,-9.192192,-3.4606597423553467,-0.38805842,-0.05526198,-0.06978707760572433,-0.24116613
2037.3166666651425,0.26583013,-0.79229826,0.17361046,-2.4081666,-0.22338918,1.4934136,1.0341859,0.039998204,0.04,-9.177796,-3.4996848106384277,-0.38249913,-0.054780293,-0.07130607962608337,-0.24131936
2037.3333333318092,0.2687631,-0.7923853,0.17552666,-2.408739,-0.22585648,1.4925574,1.0369256,0.039998174,0.04,-9.163475,-3.538787603378296,-0.376784,-0.05428494,-0.07282464951276779,-0.24143443
2037.3499999984758,0.27169812,-0.79247236,0.17744417,-2.4093118,-0.22832552,1.4917006,1.0396669,0.039998144,0.04,-9.148535,-3.5776479244232178,-0.37072223,-0.053780176,-0.07433461397886276,-0.2415138
2037.3666666651425,0.2746347,-0.7925597,0.17936273,-2.4098852,-0.23079593,1.4908437,1.0424099,0.039998114,0.04,-9.13377,-3.6166810989379883,-0.36455727,-0.053263288,-0.07583882659673691,-0.24155687
2037.3833333318091,0.2775725,-0.7926468,0.18128207,-2.4104586,-0.2332674,1.4899864,1.045154,0.03999809,0.04,-9.118585,-3.655461311340332,-0.35801968,-0.052736077,-0.07733500003814697,-0.24156144
2037.3999999984758,0.2805112,-0.7927339,0.18320204,-2.4110317,-0.23573956,1.4891288,1.0478988,0.03999806,0.04,-9.103418,-3.694394111633301,-0.35143194,-0.052197833,-0.07882191240787506,-0.2415313
2037.4166666651424,0.2834504,-0.7928211,0.18512236,-2.411605,-0.23821227,1.488271,1.050644,0.039998032,0.04,-9.087864,-3.7330596446990967,-0.34446076,-0.051647983,-0.0802999883890152,-0.2414636
2037.433333331809,0.28638965,-0.79290843,0.18704273,-2.4121783,-0.24068505,1.4874132,1.0533895,0.039998006,0.04,-9.072368,-3.7718453407287598,-0.33740437,-0.05108866,-0.08176735043525696,-0.24135894
2037.4499999984757,0.2893288,-0.79299575,0.18896297,-2.4127517,-0.24315771,1.4865553,1.0561347,0.039997976,0.04,-9.056503,-3.810360908508301,-0.32998434,-0.050520733,-0.08322440087795258,-0.24121732
2037.4666666651424,0.29226735,-0.79308295,0.19088283,-2.4133248,-0.2456299,1.4856976,1.0588793,0.039997946,0.04,-9.04071,-3.8490302562713623,-0.32248756,-0.049941167,-0.08467047661542892,-0.24103992
2037.483333331809,0.295205,-0.79317015,0.1928021,-2.4138978,-0.24810132,1.4848404,1.061623,0.039997924,0.04,-9.024528,-3.8873658180236816,-0.31464595,-0.049351882,-0.0861048474907875,-0.2408245
2037.4999999984757,0.29814136,-0.79325736,0.19472055,-2.4144707,-0.25057167,1.4839833,1.0643655,0.0399979,0.04,-9.00839,-3.9258460998535156,-0.30671945,-0.0487538,-0.08752544224262238,-0.24057311
2037.5166666651423,0.30107605,-0.7933443,0.19663797,-2.4150436,-0.25304064,1.4831269,1.0671067,0.039997872,0.04,-8.991915,-3.964031219482422,-0.29843605,-0.04814642,-0.08893502503633499,-0.24028665
2037.533333331809,0.30400872,-0.7934313,0.19855396,-2.415616,-0.25550795,1.482271,1.0698458,0.03999785,0.04,-8.975508,-4.002320766448975,-0.29009846,-0.04753098,-0.0903305858373642,-0.23996213
2037.5499999984756,0.306939,-0.79351825,0.20046838,-2.4161875,-0.2579733,1.4814156,1.0725831,0.03999782,0.04,-8.958701,-4.0402350425720215,-0.28140834,-0.046906304,-0.0917113870382309,-0.23960264
2037.5666666651423,0.30986658,-0.79360515,0.20238104,-2.4167588,-0.26043633,1.4805614,1.0753173,0.0399978,0.04,-8.941805,-4.078141212463379,-0.27256155,-0.046276245,-0.09307485818862915,-0.23920642
2037.583333331809,0.31279102,-0.79369193,0.20429169,-2.4173293,-0.26289678,1.4797078,1.0780488,0.039997768,0.04,-8.924957,-4.116121292114258,-0.26357707,-0.045634978,-0.09442190825939178,-0.23877636
2037.5999999984756,0.31571203,-0.7937788,0.20620005,-2.417899,-0.26535434,1.4788555,1.0807773,0.039997734,0.04,-8.9077015,-4.153628826141357,-0.2542711,-0.044988275,-0.09575208276510239,-0.23830913
2037.6166666651422,0.3186293,-0.79386544,0.20810592,-2.4184675,-0.26780874,1.4780043,1.0835022,0.03999771,0.04,-8.890475,-4.191293716430664,-0.24486807,-0.04433552,-0.09706044942140579,-0.23780635
2037.633333331809,0.32154235,-0.793952,0.21000914,-2.4190354,-0.27025974,1.4771541,1.086223,0.039997682,0.04,-8.872947,-4.228553771972656,-0.23515809,-0.043675914,-0.09835019707679749,-0.23726909
2037.6499999984756,0.3244509,-0.79403836,0.21190935,-2.4196026,-0.27270684,1.4763054,1.0889397,0.039997656,0.04,-8.855552,-4.2659687995910645,-0.22534113,-0.043008827,-0.09962243586778641,-0.23669644
2037.6666666651422,0.32735452,-0.79412466,0.21380639,-2.420169,-0.27514982,1.4754581,1.0916517,0.039997626,0.04,-8.837762,-4.302920341491699,-0.21525648,-0.042335507,-0.10087481141090393,-0.23608974
2037.6833333318089,0.3302529,-0.7942107,0.21569999,-2.420735,-0.27758855,1.4746125,1.0943589,0.039997596,0.04,-8.820118,-4.340024948120117,-0.20505819,-0.041655656,-0.10210664570331573,-0.23544815
2037.6999999984755,0.33314568,-0.79429656,0.21758996,-2.4212992,-0.28002253,1.4737681,1.0970609,0.039997574,0.04,-8.802121,-4.376648902893066,-0.19460928,-0.04097,-0.1033189445734024,-0.23477095
2037.7166666651422,0.3360326,-0.79438233,0.21947603,-2.4218624,-0.28245154,1.4729257,1.0997574,0.03999755,0.04,-8.784138,-4.413395404815674,-0.18402211,-0.040280074,-0.10450822860002518,-0.2340592
2037.7333333318088,0.3389132,-0.794468,0.22135805,-2.422424,-0.28487524,1.472085,1.1024481,0.039997526,0.04,-8.765875,-4.449682235717773,-0.1731907,-0.039584804,-0.10567446798086166,-0.23331617
2037.7499999984755,0.34178722,-0.7945534,0.22323568,-2.422985,-0.2872934,1.4712464,1.1051327,0.039997496,0.04,-8.747681,-4.486090660095215,-0.16224438,-0.038885754,-0.10681692510843277,-0.23253791
2037.766666665142,0.3446542,-0.7946386,0.22510876,-2.4235444,-0.2897058,1.4704094,1.1078106,0.039997466,0.04,-8.729236,-4.522001266479492,-0.1510609,-0.038182225,-0.10793592780828476,-0.23172733
2037.7833333318088,0.34751382,-0.7947236,0.22697704,-2.4241023,-0.29211202,1.4695749,1.1104815,0.039997432,0.04,-8.710842,-4.558038711547852,-0.13976128,-0.037474137,-0.10903254896402359,-0.23088275
2037.7999999984754,0.35036585,-0.7948082,0.22884034,-2.4246588,-0.2945117,1.4687426,1.1131451,0.039997403,0.04,-8.692156,-4.593532562255859,-0.12825462,-0.036761515,-0.11010133475065231,-0.23000474
2037.816666665142,0.3532098,-0.7948927,0.23069835,-2.4252133,-0.29690462,1.4679126,1.1158015,0.039997377,0.04,-8.673457,-4.629006862640381,-0.11659192,-0.036045365,-0.11114524304866791,-0.22909331
2037.8333333318087,0.3560453,-0.794977,0.2325509,-2.4257665,-0.29929057,1.4670851,1.1184498,0.039997343,0.04,-8.654706,-4.664450168609619,-0.10478411,-0.03532763,-0.1121610701084137,-0.22815219
2037.8499999984754,0.35887218,-0.7950611,0.23439777,-2.426318,-0.30166912,1.4662602,1.1210902,0.039997317,0.04,-8.635787,-4.69932746887207,-0.092790015,-0.034606293,-0.11315101385116577,-0.2271791
2037.866666665142,0.36168993,-0.79514503,0.23623873,-2.4268675,-0.30404013,1.4654378,1.1237221,0.039997287,0.04,-8.616913,-4.734367370605469,-0.08065111,-0.03388271,-0.1141141802072525,-0.22617552
2037.8833333318087,0.36449832,-0.7952286,0.23807356,-2.4274151,-0.30640322,1.4646183,1.1263453,0.03999726,0.04,-8.597741,-4.76876974105835,-0.06835361,-0.033158552,-0.11504769325256348,-0.22514097
2037.8999999984753,0.367297,-0.7953116,0.23990202,-2.4279609,-0.30875817,1.4638016,1.1289593,0.039997227,0.04,-8.578675,-4.803379058837891,-0.055925287,-0.032433048,-0.11595214158296585,-0.2240784
2037.916666665142,0.37008554,-0.79539454,0.2417239,-2.428505,-0.3111048,1.4629878,1.1315637,0.03999721,0.04,-8.559435,-4.8373284339904785,-0.04334852,-0.03170458,-0.11682862788438797,-0.22298041
2037.9333333318086,0.37286377,-0.7954773,0.24353899,-2.4290469,-0.31344262,1.4621768,1.1341586,0.03999718,0.04,-8.540271,-4.871484279632568,-0.030617079,-0.03097434,-0.11767766624689102,-0.22185545
2037.9499999984753,0.37563127,-0.7955597,0.24534705,-2.4295862,-0.31577146,1.4613692,1.1367437,0.03999715,0.04,-8.520812,-4.904973030090332,-0.01774368,-0.030245127,-0.1184958666563034,-0.22070248
2037.966666665142,0.37838778,-0.7956417,0.24714789,-2.4301243,-0.31809098,1.4605646,1.1393181,0.03999712,0.04,-8.501427,-4.9386067390441895,-0.0047539272,-0.029517332,-0.11928116530179977,-0.21952155
2037.9833333318086,0.38113287,-0.79572326,0.24894132,-2.4306602,-0.32040098,1.4597635,1.1418818,0.03999709,0.04,-8.482024,-4.971643924713135,0.008357473,-0.028785985,-0.1200401708483696,-0.21831039
2037.9999999984752,0.38386628,-0.79580456,0.25072715,-2.4311934,-0.32270125,1.458966,1.1444346,0.03999707,0.04,-8.4625845,-5.004824161529541,0.021581974,-0.0280534,-0.12076767534017563,-0.2170694
2038.0166666651419,0.38658765,-0.7958856,0.25250503,-2.4317243,-0.32499123,1.458172,1.1469762,0.039997034,0.04,-8.442857,-5.037292957305908,0.0349333,-0.027323747,-0.12146015465259552,-0.2158047
2038.0333333318085,0.38929665,-0.7959663,0.25427485,-2.432253,-0.32727087,1.4573814,1.1495066,0.03999701,0.04,-8.423348,-5.069953441619873,0.048418406,-0.02659485,-0.12212192267179489,-0.21451122
2038.0499999984752,0.39199293,-0.7960465,0.2560364,-2.432779,-0.3295399,1.4565945,1.1520251,0.03999698,0.04,-8.403634,-5.101914882659912,0.061993256,-0.025868302,-0.12275192886590958,-0.21319255
2038.0666666651418,0.39467636,-0.7961263,0.25778955,-2.4333024,-0.33179802,1.4558111,1.1545315,0.039996956,0.04,-8.383986,-5.133843421936035,0.07564984,-0.025143202,-0.12335081398487091,-0.21184646
2038.0833333318085,0.39734632,-0.7962059,0.25953394,-2.4338229,-0.3340449,1.4550318,1.157025,0.039996933,0.04,-8.36425,-5.165709018707275,0.08946802,-0.024419997,-0.12391524761915207,-0.21047567
2038.0999999984751,0.4000028,-0.79628503,0.26126945,-2.4343414,-0.3362805,1.4542567,1.1595061,0.039996907,0.04,-8.344447,-5.196834564208984,0.103325635,-0.023698293,-0.12444507330656052,-0.20907952
2038.1166666651418,0.40264544,-0.7963636,0.2629959,-2.4348567,-0.33850437,1.4534858,1.1619741,0.039996877,0.04,-8.324798,-5.228183269500732,0.1173156,-0.022979192,-0.124942846596241,-0.20765497
2038.1333333318084,0.40527385,-0.7964417,0.26471305,-2.4353693,-0.34071618,1.4527189,1.1644291,0.039996844,0.04,-8.304879,-5.258792400360107,0.13132805,-0.022262521,-0.12540306150913239,-0.2062102
2038.149999998475,0.40788782,-0.7965195,0.26642072,-2.435879,-0.34291583,1.4519559,1.1668705,0.03999682,0.04,-8.285149,-5.289577960968018,0.14550693,-0.021549713,-0.12583230435848236,-0.20474187
2038.1666666651417,0.41048688,-0.79659694,0.26811877,-2.4363856,-0.345103,1.4511973,1.1692978,0.0399968,0.04,-8.26529,-5.31960916519165,0.15969437,-0.020840539,-0.12622661888599396,-0.20324911
2038.1833333318084,0.41307065,-0.7966738,0.26980686,-2.43689,-0.34727752,1.4504433,1.1717112,0.039996766,0.04,-8.245505,-5.349809169769287,0.17401983,-0.020134091,-0.12658679485321045,-0.20173422
2038.199999998475,0.4156391,-0.7967501,0.27148494,-2.4373903,-0.34943897,1.4496937,1.1741105,0.039996743,0.04,-8.225708,-5.3792643547058105,0.18830547,-0.019432498,-0.1269134134054184,-0.20019478
2038.2166666651417,0.41819182,-0.79682624,0.27315268,-2.4378881,-0.35158736,1.4489487,1.176495,0.03999671,0.04,-8.205858,-5.408908843994141,0.20276888,-0.018737216,-0.12720343470573425,-0.19863729
2038.2333333318084,0.42072865,-0.79690194,0.27481,-2.438383,-0.35372224,1.4482085,1.1788645,0.03999669,0.04,-8.186063,-5.437757968902588,0.21721083,-0.018045956,-0.12745890021324158,-0.19705711
2038.249999998475,0.42324916,-0.796977,0.27645665,-2.4388747,-0.35584357,1.4474729,1.1812187,0.039996665,0.04,-8.166314,-5.466829299926758,0.23178108,-0.017358324,-0.12767964601516724,-0.19545713
2038.2666666651417,0.42575312,-0.7970516,0.27809262,-2.4393635,-0.3579509,1.446742,1.1835575,0.03999664,0.04,-8.146516,-5.4950971603393555,0.24629092,-0.016675912,-0.12786488234996796,-0.19383527
2038.2833333318083,0.4282403,-0.79712576,0.2797176,-2.4398482,-0.36004412,1.4460163,1.1858802,0.039996605,0.04,-8.126835,-5.523600101470947,0.26096967,-0.015998112,-0.12801755964756012,-0.19219564
2038.299999998475,0.43071043,-0.7971993,0.2813313,-2.44033,-0.36212304,1.4452955,1.1881872,0.039996587,0.04,-8.106992,-5.55123233795166,0.27555338,-0.015324955,-0.12812986969947815,-0.1905381
2038.3166666651416,0.43316323,-0.79727244,0.2829337,-2.4408085,-0.36418736,1.4445797,1.1904782,0.03999657,0.04,-8.0873785,-5.578859806060791,0.29022714,-0.014658399,-0.12820908427238464,-0.18885902
2038.3333333318083,0.43559834,-0.7973451,0.2845246,-2.4412832,-0.3662368,1.443869,1.192753,0.039996535,0.04,-8.067732,-5.60643196105957,0.30500108,-0.01399897,-0.12825316190719604,-0.1871654
2038.349999998475,0.4380156,-0.79741704,0.28610387,-2.441755,-0.36827123,1.4431635,1.1950108,0.039996516,0.04,-8.048082,-5.63316011428833,0.3196765,-0.013347606,-0.12826097011566162,-0.18545239
2038.3666666651416,0.4404147,-0.79748845,0.28767124,-2.4422228,-0.37029034,1.4424633,1.1972514,0.039996497,0.04,-8.028606,-5.660152435302734,0.3344797,-0.01269908,-0.1282358467578888,-0.18371959
2038.3833333318082,0.44279543,-0.79755956,0.2892266,-2.4426873,-0.37229398,1.4417685,1.1994749,0.039996482,0.04,-8.009039,-5.686269760131836,0.34915844,-0.012058044,-0.1281733363866806,-0.1819721
2038.3999999984749,0.44515747,-0.79762983,0.29076967,-2.4431474,-0.374282,1.4410791,1.2016811,0.03999644,0.04,-7.989564,-5.712592601776123,0.3640073,-0.011424669,-0.12807482481002808,-0.1802102
2038.4166666651415,0.44750056,-0.79769945,0.2923004,-2.443605,-0.37625414,1.4403955,1.2038696,0.03999641,0.04,-7.970131,-5.738096714019775,0.3786865,-0.010799551,-0.1279396116733551,-0.17843267
2038.4333333318082,0.44982463,-0.7977688,0.29381874,-2.4440577,-0.3782102,1.439717,1.2060401,0.03999639,0.04,-7.9509397,-5.76385498046875,0.3935161,-0.010178982,-0.12777374684810638,-0.176638
2038.4499999984748,0.4521292,-0.7978375,0.29532436,-2.4445076,-0.3801498,1.4390442,1.2081925,0.039996367,0.04,-7.9315243,-5.788707733154297,0.40821928,-0.009568519,-0.1275678128004074,-0.17483091
2038.4666666651415,0.45441425,-0.79790556,0.29681718,-2.4449527,-0.38207301,1.438377,1.2103267,0.03999634,0.04,-7.912452,-5.813827037811279,0.4230438,-0.008963206,-0.1273321956396103,-0.17300968
2038.4833333318081,0.45667925,-0.79797316,0.29829702,-2.445395,-0.3839795,1.437716,1.2124424,0.03999632,0.04,-7.893268,-5.838074207305908,0.43768698,-0.008367958,-0.12705883383750916,-0.17117506
2038.4999999984748,0.45892423,-0.79804015,0.29976368,-2.4458325,-0.38586915,1.4370606,1.2145392,0.0399963,0.04,-7.8742876,-5.862534999847412,0.45246893,-0.0077806436,-0.1267516314983368,-0.16932692
2038.5166666651414,0.46114907,-0.7981065,0.30121717,-2.446267,-0.38774166,1.4364111,1.2166171,0.03999628,0.04,-7.8553076,-5.886160850524902,0.4670598,-0.0072019645,-0.12640851736068726,-0.16746743
2038.533333331808,0.4633534,-0.7981724,0.30265722,-2.4466968,-0.389597,1.4357677,1.2186759,0.03999626,0.04,-7.8364973,-5.910027980804443,0.481804,-0.0066299685,-0.1260334700345993,-0.1655942
2038.5499999984747,0.46553686,-0.79823744,0.30408382,-2.447122,-0.39143494,1.4351301,1.2207155,0.039996225,0.04,-7.817723,-5.933034420013428,0.49633476,-0.006067777,-0.12562264502048492,-0.16371295
2038.5666666651414,0.46769953,-0.79830194,0.30549666,-2.4475443,-0.3932552,1.4344991,1.2227353,0.039996214,0.04,-7.799035,-5.955953121185303,0.51089007,-0.0055163475,-0.12517739832401276,-0.16181916
2038.583333331808,0.46984097,-0.79836595,0.30689573,-2.4479616,-0.39505762,1.4338744,1.2247354,0.039996203,0.04,-7.780503,-5.978867053985596,0.52550393,-0.0049706292,-0.12469860166311264,-0.1599164
2038.5999999984747,0.4719611,-0.79842913,0.30828083,-2.4483755,-0.39684212,1.4332559,1.2267157,0.03999618,0.04,-7.76204,-6.00091028213501,0.5398825,-0.004435469,-0.12418437004089355,-0.15800542
2038.6166666651413,0.4740597,-0.7984918,0.3096519,-2.4487848,-0.3986085,1.4326437,1.2286755,0.03999616,0.04,-7.743725,-6.023184299468994,0.5543931,-0.003909091,-0.12363943457603455,-0.15608412
2038.633333331808,0.4761365,-0.7985537,0.31100872,-2.44919,-0.40035665,1.4320372,1.2306154,0.039996132,0.04,-7.725548,-6.044626712799072,0.56866336,-0.0033901425,-0.12306120246648788,-0.15415424
2038.6499999984746,0.47819138,-0.7986151,0.31235114,-2.449591,-0.40208635,1.4314378,1.2325344,0.039996125,0.04,-7.707406,-6.0662150382995605,0.5830624,-0.0028829104,-0.12245284020900726,-0.15221491
2038.6666666651413,0.4802242,-0.79867584,0.3136792,-2.4499872,-0.40379736,1.4308447,1.2344333,0.039996102,0.04,-7.6895027,-6.0870256423950195,0.59717196,-0.0023837928,-0.12181033939123154,-0.15027037
2038.683333331808,0.4822347,-0.7987358,0.31499273,-2.4503798,-0.40548974,1.4302577,1.236311,0.039996073,0.04,-7.671538,-6.107975006103516,0.61144173,-0.0018965548,-0.12113497406244278,-0.14831808
2038.6999999984746,0.48422274,-0.7987951,0.3162917,-2.4507675,-0.40716317,1.4296776,1.2381678,0.03999606,0.04,-7.6540065,-6.128205299377441,0.6254091,-0.0014150616,-0.12043263763189316,-0.14635505
2038.7166666651412,0.48618826,-0.7988539,0.31757575,-2.4511511,-0.40881753,1.4291036,1.2400037,0.039996024,0.04,-7.6362934,-6.148561477661133,0.6395006,-0.00094516756,-0.11969608068466187,-0.14439142
2038.733333331808,0.488131,-0.79891187,0.318845,-2.4515302,-0.41045275,1.4285369,1.2418181,0.039996006,0.04,-7.618965,-6.168117523193359,0.65332764,-0.00048585932,-0.11893235146999359,-0.14242001
2038.7499999984746,0.49005073,-0.7989692,0.32009923,-2.4519045,-0.41206878,1.4279766,1.2436112,0.03999599,0.04,-7.6015954,-6.187839031219482,0.66722345,-3.4555236e-05,-0.11813493818044662,-0.14044361
2038.7666666651412,0.4919475,-0.7990258,0.32133844,-2.452274,-0.4136653,1.4274232,1.2453828,0.03999597,0.04,-7.584511,-6.2067766189575195,0.6808455,0.00040524694,-0.11730927228927612,-0.13846481
2038.7833333318079,0.49382105,-0.7990817,0.3225624,-2.4526398,-0.4152423,1.4268764,1.2471325,0.039995946,0.04,-7.5674148,-6.225865840911865,0.6945842,0.00083496206,-0.11645224690437317,-0.13648196
2038.7999999984745,0.4956712,-0.799137,0.32377124,-2.4530008,-0.41679972,1.4263366,1.2488605,0.039995935,0.04,-7.5507607,-6.244223594665527,0.7080047,0.00125706,-0.11557058990001678,-0.13449304
2038.8166666651412,0.49749795,-0.7991915,0.3249646,-2.4533572,-0.41833732,1.4258035,1.2505665,0.039995927,0.04,-7.534029,-6.262451171875,0.7214199,0.001668364,-0.11465724557638168,-0.13250057
2038.8333333318078,0.49930096,-0.7992455,0.3261425,-2.4537091,-0.41985506,1.4252775,1.2522507,0.039995905,0.04,-7.5174537,-6.280639171600342,0.73484474,0.0020702488,-0.11371859163045883,-0.13050838
2038.8499999984745,0.50108033,-0.79929864,0.327305,-2.4540558,-0.42135277,1.4247583,1.2539124,0.039995886,0.04,-7.501198,-6.298030376434326,0.7479235,0.002459561,-0.1127520203590393,-0.12851314
2038.866666665141,0.5028358,-0.79935104,0.3284519,-2.4543989,-0.42283046,1.4242462,1.2555519,0.03999587,0.04,-7.4848833,-6.315586090087891,0.7611191,0.002840516,-0.1117573007941246,-0.12651728
2038.8833333318078,0.50456727,-0.79940283,0.32958323,-2.4547365,-0.42428797,1.4237409,1.2571691,0.03999586,0.04,-7.4690638,-6.332435607910156,0.7739701,0.0032131644,-0.11073938757181168,-0.12451802
2038.8999999984744,0.50627464,-0.7994538,0.33069873,-2.4550693,-0.42572522,1.4232426,1.2587637,0.03999585,0.04,-7.453103,-6.349361896514893,0.7869272,0.003574159,-0.10969548672437668,-0.12251873
2038.916666665141,0.5079579,-0.79950416,0.33179846,-2.455398,-0.4271422,1.4227512,1.2603356,0.03999583,0.04,-7.437512,-6.3655524253845215,0.7995061,0.0039257193,-0.10862603038549423,-0.120520994
2038.9333333318077,0.50961685,-0.79955375,0.33288234,-2.4557216,-0.42853865,1.422267,1.2618861,0.039995816,0.04,-7.422011,-6.381927490234375,0.8122163,0.004268763,-0.1075337678194046,-0.11852139
2038.9499999984744,0.51125157,-0.79960257,0.3339503,-2.4560404,-0.42991462,1.42179,1.2634137,0.039995797,0.04,-7.406787,-6.397531986236572,0.8245389,0.004594829,-0.10641790181398392,-0.11652484
2038.966666665141,0.5128617,-0.7996507,0.3350024,-2.4563549,-0.4312701,1.4213203,1.2649179,0.039995793,0.04,-7.391574,-6.413275241851807,0.8369698,0.004912971,-0.10527708381414413,-0.11452686
2038.9833333318077,0.5144475,-0.7996982,0.3360384,-2.4566643,-0.43260488,1.4208577,1.2663987,0.03999578,0.04,-7.37681,-6.428340911865234,0.8490203,0.005224596,-0.10411527007818222,-0.11253272
2038.9999999984743,0.5160086,-0.79974496,0.33705834,-2.4569683,-0.43391898,1.420402,1.2678562,0.039995756,0.04,-7.361981,-6.443504333496094,0.8611771,0.005528183,-0.10293162614107132,-0.11054124
2039.016666665141,0.5175453,-0.799791,0.3380622,-2.457268,-0.4352124,1.4199538,1.269291,0.039995737,0.04,-7.3474636,-6.457870960235596,0.8729125,0.005821276,-0.10172391682863235,-0.10855252
2039.0333333318076,0.519057,-0.79983616,0.33905002,-2.4575634,-0.436485,1.4195125,1.2707028,0.039995726,0.04,-7.3331203,-6.472517967224121,0.88478494,0.0061066933,-0.10049735754728317,-0.10656443
2039.0499999984743,0.5205439,-0.7998807,0.34002158,-2.4578528,-0.43773675,1.4190782,1.2720919,0.03999571,0.04,-7.3191576,-6.4863996505737305,0.89622974,0.0063818833,-0.09925464540719986,-0.104578935
2039.066666665141,0.5220063,-0.79992455,0.34097695,-2.4581382,-0.43896767,1.4186515,1.2734578,0.039995704,0.04,-7.3051047,-6.500120639801025,0.9076278,0.0066431644,-0.09798986464738846,-0.10260088
2039.0833333318076,0.5234437,-0.79996765,0.34191617,-2.4584188,-0.44017768,1.4182318,1.2748,0.039995685,0.04,-7.2913814,-6.513922214508057,0.9190624,0.0068982644,-0.09670841693878174,-0.10062552
2039.0999999984742,0.52485627,-0.80000985,0.34283906,-2.4586937,-0.44136682,1.4178195,1.2761191,0.039995674,0.04,-7.277966,-6.526932716369629,0.9300355,0.0071458523,-0.09540919959545135,-0.09865419
2039.1166666651409,0.526244,-0.8000514,0.34374577,-2.4589646,-0.44253513,1.4174143,1.2774153,0.03999566,0.04,-7.264494,-6.540057182312012,0.9410863,0.0073824245,-0.09409172832965851,-0.09669006
2039.1333333318075,0.5276068,-0.8000921,0.34463617,-2.4592304,-0.4436824,1.4170165,1.2786882,0.039995648,0.04,-7.251583,-6.552562713623047,0.9517511,0.0076101436,-0.09276067465543747,-0.09472975
2039.1499999984742,0.5289448,-0.8001322,0.3455104,-2.459491,-0.44480875,1.4166261,1.2799375,0.039995637,0.04,-7.238565,-6.565158367156982,0.9624887,0.007828368,-0.09141269326210022,-0.09277645
2039.1666666651408,0.53025776,-0.8001716,0.34636825,-2.4597473,-0.44591412,1.4162428,1.2811638,0.03999563,0.04,-7.2259936,-6.577075958251953,0.9728131,0.008039547,-0.09004852920770645,-0.090829246
2039.1833333318075,0.5315461,-0.80021006,0.34721,-2.4599986,-0.44699863,1.415867,1.2823669,0.03999562,0.04,-7.2134776,-6.589147090911865,0.98322755,0.008241302,-0.08867340534925461,-0.088889346
2039.1999999984741,0.5328094,-0.8002481,0.3480353,-2.460245,-0.44806215,1.4154983,1.283547,0.039995607,0.04,-7.20134,-6.600574016571045,0.99319726,0.008435689,-0.0872839167714119,-0.08695602
2039.2166666651408,0.5340476,-0.80028516,0.3488446,-2.4604864,-0.4491047,1.4151369,1.2847036,0.039995592,0.04,-7.189195,-6.61204719543457,1.0032812,0.008618068,-0.08588206022977829,-0.085033275
2039.2333333318074,0.53526115,-0.8003216,0.34963766,-2.4607232,-0.45012638,1.4147825,1.2858369,0.03999559,0.04,-7.177533,-6.622925758361816,1.0128822,0.008795149,-0.08446875959634781,-0.08311625
2039.249999998474,0.53645015,-0.8003572,0.35041445,-2.460955,-0.45112714,1.4144355,1.2869471,0.03999557,0.04,-7.165844,-6.633927345275879,1.0226325,0.008963915,-0.0830463245511055,-0.0812098
2039.2666666651407,0.5376141,-0.80039203,0.351175,-2.4611819,-0.45210716,1.4140959,1.2880343,0.039995566,0.04,-7.154589,-6.644253253936768,1.0318903,0.00912546,-0.08161160349845886,-0.07930975
2039.2833333318074,0.53875333,-0.8004263,0.3519194,-2.4614046,-0.45306632,1.4137635,1.2890983,0.039995562,0.04,-7.1433473,-6.654719829559326,1.041234,0.009278003,-0.08016873896121979,-0.07742076
2039.299999998474,0.539868,-0.8004597,0.35264775,-2.4616218,-0.45400462,1.4134383,1.2901392,0.03999556,0.04,-7.132647,-6.6645708084106445,1.0501541,0.009424407,-0.078719362616539,-0.07553951
2039.3166666651407,0.54095805,-0.8004924,0.35336006,-2.4618344,-0.45492235,1.4131202,1.2911574,0.03999554,0.04,-7.121858,-6.674328804016113,1.0589998,0.0095621385,-0.07726065069437027,-0.07367479
2039.3333333318074,0.54202354,-0.8005243,0.35405633,-2.4620426,-0.45581943,1.4128094,1.2921525,0.039995532,0.04,-7.1113524,-6.684053421020508,1.0678394,0.009692739,-0.07579655945301056,-0.071816534
2039.349999998474,0.5430646,-0.8005555,0.35473657,-2.4622452,-0.45669588,1.4125056,1.2931248,0.03999552,0.04,-7.1012554,-6.693137168884277,1.0761794,0.009816776,-0.07432743906974792,-0.06997038
2039.3666666651407,0.5440815,-0.8005861,0.35540095,-2.462444,-0.457552,1.412209,1.2940747,0.039995514,0.04,-7.091072,-6.702313423156738,1.0846283,0.009933289,-0.07285167276859283,-0.06813839
2039.3833333318073,0.54507416,-0.8006158,0.35604954,-2.4626372,-0.4583876,1.4119196,1.2950017,0.039995514,0.04,-7.081513,-6.710961818695068,1.0926409,0.010043361,-0.07137303799390793,-0.06631387
2039.399999998474,0.54604256,-0.80064493,0.35668236,-2.462826,-0.45920286,1.411637,1.2959063,0.039995506,0.04,-7.0717177,-6.719638824462891,1.100701,0.010145935,-0.06988830119371414,-0.06450549
2039.4166666651406,0.5469868,-0.8006732,0.35729945,-2.4630105,-0.45999792,1.4113612,1.2967883,0.039995503,0.04,-7.0625815,-6.727763652801514,1.1083367,0.01024178,-0.06840340793132782,-0.062708855
2039.4333333318073,0.5479071,-0.8007007,0.35790092,-2.4631896,-0.46077278,1.4110924,1.2976481,0.039995495,0.04,-7.053438,-6.736052513122559,1.1160371,0.010333664,-0.06692000478506088,-0.060924653
2039.449999998474,0.5488036,-0.8007277,0.35848683,-2.4633658,-0.46152768,1.4108307,1.2984856,0.039995484,0.04,-7.0446086,-6.743655681610107,1.1232725,0.010416579,-0.06543400883674622,-0.05915623
2039.4666666651406,0.5496766,-0.8007537,0.35905722,-2.4635355,-0.46226257,1.4105761,1.2993009,0.039995477,0.04,-7.036028,-6.751524925231934,1.1306298,0.010497232,-0.06395285576581955,-0.057398926
2039.4833333318072,0.55052596,-0.8007793,0.35961232,-2.4637012,-0.4629777,1.4103283,1.3000944,0.03999547,0.04,-7.0275493,-6.7586469650268555,1.1374587,0.010570239,-0.06246732175350189,-0.05566123
2039.4999999984739,0.5513521,-0.8008042,0.3601521,-2.4638622,-0.46367317,1.4100872,1.300866,0.039995465,0.04,-7.0193043,-6.765980243682861,1.144444,0.010637673,-0.06098532676696777,-0.053936154
2039.5166666651405,0.55215454,-0.8008282,0.36067677,-2.464018,-0.4643491,1.4098527,1.3016157,0.039995458,0.04,-7.01142,-6.772707939147949,1.1509448,0.010698839,-0.05950433388352394,-0.052227248
2039.5333333318072,0.55293405,-0.8008517,0.36118636,-2.4641712,-0.46500558,1.4096252,1.3023441,0.039995454,0.04,-7.0035715,-6.77956485748291,1.1575053,0.01075492,-0.05802911892533302,-0.05053578
2039.5499999984738,0.5536912,-0.8008743,0.36168098,-2.4643178,-0.4656429,1.4094043,1.303051,0.039995443,0.04,-6.9963236,-6.78594970703125,1.1636598,0.010807351,-0.056562330573797226,-0.048857134
2039.5666666651405,0.55442536,-0.80089635,0.36216083,-2.4644625,-0.46626115,1.4091902,1.3037367,0.039995436,0.04,-6.9888372,-6.7921624183654785,1.1697118,0.010854623,-0.05509433150291443,-0.047200132
2039.5833333318071,0.5551371,-0.8009178,0.362626,-2.4646008,-0.46686035,1.4089826,1.3044014,0.039995432,0.04,-6.981925,-6.798496723175049,1.1757573,0.010901185,-0.0536407046020031,-0.045553856
2039.5999999984738,0.5558266,-0.8009385,0.36307663,-2.4647357,-0.46744093,1.4087814,1.3050456,0.03999543,0.04,-6.9749546,-6.804068088531494,1.1813174,0.010938826,-0.05218680575489998,-0.043932796
2039.6166666651404,0.55649406,-0.80095845,0.36351267,-2.464866,-0.46800286,1.4085866,1.305669,0.039995424,0.04,-6.9683313,-6.809935092926025,1.186982,0.010974025,-0.05074538663029671,-0.042326964
2039.633333331807,0.55713964,-0.8009779,0.36393455,-2.4649904,-0.46854642,1.4083982,1.3062719,0.039995417,0.04,-6.9620337,-6.8152008056640625,1.1921873,0.011004818,-0.04931334778666496,-0.04074092
2039.6499999984737,0.5577636,-0.80099666,0.3643423,-2.4651124,-0.46907175,1.4082159,1.3068546,0.039995413,0.04,-6.9555526,-6.82049036026001,1.1974632,0.011028781,-0.04788552224636078,-0.039177474
2039.6666666651404,0.5583659,-0.80101484,0.36473617,-2.4652286,-0.46957907,1.4080402,1.3074178,0.03999541,0.04,-6.9498982,-6.82548189163208,1.2023512,0.011053766,-0.04647553712129593,-0.03763006
2039.683333331807,0.5589474,-0.8010325,0.36511615,-2.4653428,-0.4700686,1.4078703,1.3079605,0.039995406,0.04,-6.943826,-6.830358505249023,1.2072493,0.011067434,-0.04507022351026535,-0.036108006
2039.6999999984737,0.55950785,-0.8010493,0.36548257,-2.4654505,-0.4705407,1.4077069,1.308484,0.039995402,0.04,-6.9386115,-6.83498477935791,1.2118056,0.011086984,-0.04368540644645691,-0.034601893
2039.7166666651403,0.5600478,-0.80106556,0.36583546,-2.4655569,-0.47099528,1.4075495,1.3089883,0.039995395,0.04,-6.9329557,-6.839480400085449,1.2163215,0.011098108,-0.04230644181370735,-0.033121623
2039.733333331807,0.5605674,-0.8010814,0.3661751,-2.4656568,-0.4714328,1.4073976,1.3094739,0.039995395,0.04,-6.9281893,-6.843746662139893,1.220516,0.011110513,-0.04094994068145752,-0.031658173
2039.7499999984736,0.561067,-0.8010964,0.36650166,-2.4657552,-0.47185346,1.407252,1.3099405,0.03999539,0.04,-6.922893,-6.847815990447998,1.2247204,0.011113769,-0.03960148245096207,-0.030222083
2039.7666666651403,0.5615467,-0.80111086,0.36681533,-2.4658475,-0.47225755,1.4071119,1.3103887,0.039995387,0.04,-6.9185433,-6.8517584800720215,1.2285544,0.011121873,-0.03827705234289169,-0.028804168
2039.783333331807,0.56200707,-0.8011248,0.3671162,-2.465938,-0.47264513,1.4069777,1.3108187,0.039995383,0.04,-6.913683,-6.855479717254639,1.2324091,0.011121388,-0.036962542682886124,-0.027414186
2039.7999999984736,0.56244826,-0.8011381,0.36740458,-2.4660227,-0.47301665,1.4068489,1.3112308,0.03999538,0.04,-6.9096785,-6.859023571014404,1.2359241,0.011123776,-0.035672713071107864,-0.026045198
2039.8166666651402,0.5628706,-0.80115086,0.36768076,-2.466106,-0.47337228,1.4067258,1.3116251,0.03999538,0.04,-6.905309,-6.862276077270508,1.2393193,0.011119784,-0.03439480811357498,-0.024705125
2039.833333331807,0.5632743,-0.8011632,0.36794487,-2.466183,-0.47371227,1.4066077,1.3120024,0.03999538,0.04,-6.901534,-6.8657546043396,1.2427346,0.011119032,-0.03314414992928505,-0.02338412
2039.8499999984735,0.56366,-0.8011748,0.3681971,-2.4662585,-0.47403705,1.4064953,1.3123627,0.039995376,0.04,-6.8975945,-6.8685173988342285,1.2457079,0.011109338,-0.03190635144710541,-0.022096653
2039.8666666651402,0.5640279,-0.80118597,0.36843774,-2.466331,-0.47434685,1.4063878,1.3127064,0.039995372,0.04,-6.894187,-6.871674060821533,1.2487934,0.011104425,-0.030696753412485123,-0.02083047
2039.8833333318069,0.5643783,-0.80119663,0.36866686,-2.466399,-0.474642,1.4062853,1.3130338,0.039995365,0.04,-6.8909316,-6.874291896820068,1.2514894,0.011097575,-0.029511740431189537,-0.019590752
2039.8999999984735,0.5647117,-0.8012068,0.3688849,-2.466466,-0.47492275,1.4061881,1.3133452,0.039995365,0.04,-6.887532,-6.876903533935547,1.2542137,0.011086469,-0.028346750885248184,-0.018379502
2039.9166666651402,0.5650284,-0.8012163,0.369092,-2.466527,-0.4751896,1.4060957,1.313641,0.039995365,0.04,-6.8848515,-6.879371166229248,1.2566276,0.011080347,-0.027212394401431084,-0.017192058
2039.9333333318068,0.56532884,-0.8012254,0.36928844,-2.4665868,-0.47544265,1.4060079,1.3139213,0.039995365,0.04,-6.881605,-6.881591796875,1.2590193,0.011067975,-0.026094041764736176,-0.01603927
2039.9499999984735,0.5656135,-0.801234,0.36947453,-2.4666412,-0.47568232,1.4059249,1.314187,0.03999536,0.04,-6.879262,-6.883742332458496,1.261162,0.011059399,-0.025009987875819206,-0.014910657
2039.96666666514,0.56588244,-0.8012422,0.36965048,-2.4666936,-0.47590902,1.4058464,1.3144385,0.03999536,0.04,-6.876387,-6.8857035636901855,1.2632847,0.011044906,-0.02394348382949829,-0.013818224
2039.9833333318068,0.5661363,-0.8012498,0.36981663,-2.4667451,-0.476123,1.4057722,1.3146756,0.03999536,0.04,-6.874256,-6.8874969482421875,1.265129,0.011030216,-0.022909339517354965,-0.012752548
2039.9999999984734,0.56637555,-0.8012571,0.36997315,-2.4667902,-0.4763246,1.4057024,1.3148993,0.039995365,0.04,-6.8721995,-6.889440536499023,1.2670206,0.011020841,-0.0219106562435627,-0.011714295
2040.01666666514,0.5666007,-0.80126405,0.37012047,-2.4668348,-0.47651422,1.4056363,1.3151097,0.039995365,0.04,-6.869829,-6.890709400177002,1.268549,0.011001314,-0.02092890627682209,-0.010717193
2040.0333333318067,0.56681204,-0.8012706,0.37025875,-2.4668767,-0.47669232,1.4055746,1.3153075,0.03999537,0.04,-6.868117,-6.892388343811035,1.2702109,0.010987206,-0.019985977560281754,-0.009746192
2040.0499999984734,0.5670101,-0.80127645,0.3703884,-2.4669142,-0.47685927,1.4055167,1.3154926,0.03999537,0.04,-6.8664575,-6.893642425537109,1.2715366,0.0109719355,-0.01907379925251007,-0.008808982
2040.06666666514,0.5671953,-0.80128205,0.37050968,-2.466951,-0.47701544,1.4054625,1.3156657,0.03999537,0.04,-6.8646517,-6.894775390625,1.2727766,0.010954516,-0.0181879960000515,-0.007910211
2040.0833333318067,0.56736815,-0.80128735,0.3706229,-2.4669852,-0.47716126,1.4054118,1.3158273,0.03999537,0.04,-6.8632903,-6.896036624908447,1.2740619,0.010940611,-0.017340663820505142,-0.007041945
2040.0999999984733,0.56752914,-0.8012924,0.3707284,-2.4670153,-0.4772971,1.4053646,1.3159779,0.039995372,0.04,-6.862056,-6.896958827972412,1.2750416,0.0109271,-0.016528388485312462,-0.0062081437
2040.11666666514,0.567679,-0.80129707,0.37082654,-2.4670448,-0.47742343,1.4053206,1.3161182,0.039995372,0.04,-6.8605065,-6.8977742195129395,1.2760391,0.01090708,-0.015742288902401924,-0.0054160412
2040.1333333318066,0.567818,-0.8013013,0.37091765,-2.4670734,-0.4775407,1.4052801,1.3162484,0.039995376,0.04,-6.859692,-6.898606300354004,1.2768629,0.010891818,-0.014997841790318489,-0.0046555726
2040.1499999984733,0.56794673,-0.8013051,0.37100202,-2.4670985,-0.47764927,1.4052427,1.3163687,0.039995372,0.04,-6.8587694,-6.8994317054748535,1.2776711,0.010879675,-0.0142929432913661,-0.003931216
2040.16666666514,0.5680657,-0.8013088,0.37108004,-2.4671206,-0.4777497,1.405208,1.3164803,0.039995372,0.04,-6.8577995,-6.899878025054932,1.2782308,0.0108664455,-0.013619660399854183,-0.0032487158
2040.1833333318066,0.5681756,-0.8013122,0.37115198,-2.467142,-0.47784254,1.4051759,1.3165835,0.039995372,0.04,-6.8568783,-6.90037727355957,1.278856,0.010849098,-0.012981139123439789,-0.0026072245
2040.1999999984732,0.5682769,-0.8013154,0.37121832,-2.467163,-0.47792798,1.4051464,1.3166788,0.039995372,0.04,-6.8563776,-6.900777339935303,1.2793046,0.010833872,-0.012384844943881035,-0.0020023647
2040.2166666651399,0.5683701,-0.8013183,0.37127948,-2.4671817,-0.47800678,1.4051192,1.3167667,0.03999537,0.04,-6.8558874,-6.901234149932861,1.2797657,0.010821396,-0.01183195412158966,-0.0014361924
2040.2333333318065,0.5684559,-0.8013211,0.3713358,-2.4671977,-0.4780792,1.4050941,1.3168476,0.039995365,0.04,-6.8553667,-6.9014105796813965,1.2800237,0.010807157,-0.011316115036606789,-0.0009124699
2040.2499999984732,0.5685346,-0.8013234,0.37138742,-2.467212,-0.4781458,1.4050713,1.3169209,0.039995365,0.04,-6.8547897,-6.901571750640869,1.2803199,0.010791696,-0.010836758650839329,-0.00043224572
2040.2666666651398,0.56860733,-0.80132556,0.37143505,-2.467226,-0.47820714,1.40505,1.3169899,0.039995365,0.04,-6.854462,-6.901675701141357,1.2804793,0.010781267,-0.010395724326372147,7.9570045e-06
2040.2833333318065,0.5686742,-0.8013275,0.37147883,-2.4672394,-0.47826362,1.4050306,1.3170518,0.039995365,0.04,-6.8541803,-6.901942729949951,1.2807697,0.010767265,-0.009991876780986786,0.00041591557
2040.2999999984731,0.5687354,-0.8013293,0.37151924,-2.4672527,-0.47831556,1.4050126,1.3171096,0.039995365,0.04,-6.8539553,-6.902073383331299,1.2809296,0.010762563,-0.009621492587029934,0.0007920357
2040.3166666651398,0.5687919,-0.8013311,0.37155634,-2.4672642,-0.47836328,1.404996,1.3171631,0.039995365,0.04,-6.853795,-6.90226936340332,1.2811145,0.010755681,-0.009285535663366318,0.001141318
2040.3333333318064,0.56884354,-0.8013328,0.37159058,-2.4672742,-0.47840717,1.4049809,1.317212,0.039995365,0.04,-6.8533907,-6.90236759185791,1.2812989,0.010746066,-0.008972753770649433,0.0014599191
2040.349999998473,0.5688912,-0.80133426,0.37162206,-2.4672832,-0.47844762,1.4049668,1.317257,0.03999537,0.04,-6.8531275,-6.90240478515625,1.2814047,0.01073671,-0.00868364330381155,0.0017524984
2040.3666666651397,0.5689351,-0.8013357,0.37165084,-2.4672914,-0.4784849,1.404954,1.3172984,0.039995365,0.04,-6.852864,-6.9025397300720215,1.2815757,0.010727969,-0.008417056873440742,0.0020213022
2040.3833333318064,0.56897515,-0.80133706,0.37167755,-2.4672985,-0.47851923,1.4049424,1.3173364,0.039995365,0.04,-6.8526626,-6.902586460113525,1.2816765,0.010719275,-0.008170993998646736,0.0022674554
2040.399999998473,0.56901246,-0.8013383,0.37170205,-2.467305,-0.47855088,1.4049312,1.3173711,0.039995365,0.04,-6.8524275,-6.902677536010742,1.2818099,0.010710061,-0.007942555472254753,0.0024935217
2040.4166666651397,0.56904656,-0.8013394,0.3717246,-2.4673114,-0.47857985,1.4049212,1.3174028,0.039995365,0.04,-6.8522577,-6.902740955352783,1.2819304,0.010703846,-0.007732599042356014,0.00270219
2040.4333333318064,0.56907815,-0.8013404,0.37174532,-2.467317,-0.47860655,1.404912,1.3174324,0.039995365,0.04,-6.852154,-6.9028730392456055,1.2820408,0.010699816,-0.007541341241449118,0.0028943804
2040.449999998473,0.5691071,-0.80134135,0.37176445,-2.4673228,-0.47863114,1.4049034,1.3174593,0.039995365,0.04,-6.8519998,-6.902917861938477,1.2821293,0.01069442,-0.007363741286098957,0.0030704804
2040.4666666651397,0.56913346,-0.80134225,0.371782,-2.4673285,-0.47865373,1.4048957,1.3174845,0.039995365,0.04,-6.851907,-6.903021812438965,1.2822349,0.010691324,-0.007202378008514643,0.0032343685
2040.4833333318063,0.5691578,-0.8013431,0.37179816,-2.4673343,-0.4786745,1.4048884,1.3175075,0.03999536,0.04,-6.851861,-6.903083324432373,1.2822882,0.010686683,-0.007056123111397028,0.0033850376
2040.499999998473,0.56918013,-0.80134386,0.37181294,-2.46734,-0.47869357,1.4048816,1.3175288,0.03999536,0.04,-6.85178,-6.903175354003906,1.28238,0.010684147,-0.006923260632902384,0.0035257777
2040.5166666651396,0.56920063,-0.8013444,0.37182665,-2.4673455,-0.47871122,1.4048754,1.317548,0.03999536,0.04,-6.85173,-6.903234004974365,1.2824333,0.010681787,-0.006803364492952824,0.0036559105
2040.5333333318063,0.56921977,-0.8013448,0.37183926,-2.4673495,-0.47872737,1.4048699,1.317566,0.03999536,0.04,-6.8516407,-6.903322219848633,1.2824837,0.010682633,-0.006693768315017223,0.003777202
2040.549999998473,0.56923753,-0.8013452,0.37185088,-2.4673533,-0.4787423,1.4048649,1.3175824,0.03999536,0.04,-6.85142,-6.903315544128418,1.2825075,0.010680873,-0.006588192190974951,0.0038854114
2040.5666666651396,0.56925374,-0.80134565,0.37186155,-2.4673564,-0.47875607,1.4048601,1.3175973,0.039995357,0.04,-6.851329,-6.903368949890137,1.2825639,0.010680972,-0.006490623112767935,0.003984646
2040.5833333318062,0.5692683,-0.80134606,0.37187135,-2.4673593,-0.4787687,1.4048561,1.3176113,0.039995354,0.04,-6.851205,-6.903377532958984,1.2826048,0.010680052,-0.00640023173764348,0.004075443
2040.5999999984729,0.56928223,-0.8013464,0.37188038,-2.467362,-0.4787802,1.4048522,1.3176241,0.039995354,0.04,-6.851163,-6.903383255004883,1.2826267,0.010676344,-0.006317047867923975,0.0041588005
2040.6166666651395,0.5692947,-0.8013468,0.37188864,-2.4673643,-0.47879094,1.4048485,1.3176357,0.039995354,0.04,-6.8510656,-6.903447151184082,1.2826998,0.01067577,-0.006239704787731171,0.0042350725
2040.6333333318062,0.5693063,-0.80134714,0.3718962,-2.4673665,-0.47880083,1.4048449,1.3176464,0.039995354,0.04,-6.851039,-6.90343713760376,1.2827148,0.010674488,-0.006169723346829414,0.00430614
2040.6499999984728,0.56931686,-0.8013474,0.37190327,-2.4673681,-0.4788099,1.4048415,1.3176565,0.039995354,0.04,-6.701967,-6.651363372802734,1.2815449,0.0,-0.0,0.0
2040.6666666651395,0.56931686,-0.8013474,0.37190327,-2.4673681,-0.4788099,1.4048415,1.3176565,0.039995354,0.04,-6.851698,-6.902665138244629,1.282012,0.0,-0.0,0.0
2040.6833333318061,0.56931686,-0.8013474,0.37190327,-2.4673681,-0.4788099,1.4048415,1.3176565,0.039995354,0.04,-6.851698,-6.902665138244629,1.282012,0.0,-0.0,0.0
2040.6999999984728,0.56931686,-0.8013474,0.37190327,-2.4673681,-0.4788099,1.4048415,1.3176565,0.039995354,0.04,-6.851698,-6.902665138244629,1.282012,0.0,-0.0,0.0
2040.7166666651394,0.56931686,-0.8013474,0.37190327,-2.4673681,-0.4788099,1.4048415,1.3176565,0.039995354,0.04,-6.851698,-6.902665138244629,1.282012,0.0,-0.0,0.0
2040.733333331806,0.56931686,-0.8013474,0.37190327,-2.4673681,-0.4788099,1.4048415,1.3176565,0.039995354,0.04,-6.851698,-6.902665138244629,1.282012,0.0,-0.0,0.0
2040.7499999984727,0.56931686,-0.8013474,0.37190327,-2.4673681,-0.4788099,1.4048415,1.3176565,0.039995354,0.04,-6.851698,-6.902665138244629,1.282012,0.0,-0.0,0.0
2040.7666666651394,0.56931686,-0.8013474,0.37190327,-2.4673681,-0.4788099,1.4048415,1.3176565,0.039995354,0.04,-6.851698,-6.902665138244629,1.282012,0.0,-0.0,0.0
2040.783333331806,0.56931686,-0.8013474,0.37190327,-2.4673681,-0.4788099,1.4048415,1.3176565,0.039995354,0.04,-6.851698,-6.902665138244629,1.282012,0.0,-0.0,0.0
2040.7999999984727,0.56931686,-0.8013474,0.37190327,-2.4673681,-0.4788099,1.4048415,1.3176565,0.039995354,0.04,-6.851698,-6.902665138244629,1.282012,0.0,-0.0,0.0
2040.8166666651393,0.56931686,-0.8013474,0.37190327,-2.4673681,-0.4788099,1.4048415,1.3176565,0.039995354,0.04,-6.851698,-6.902665138244629,1.282012,0.0,-0.0,0.0
2040.833333331806,0.56931686,-0.8013474,0.37190327,-2.4673681,-0.4788099,1.4048415,1.3176565,0.039995354,0.04,-6.851698,-6.902665138244629,1.282012,0.0,-0.0,0.0
2040.8499999984726,0.56931686,-0.8013474,0.37190327,-2.4673681,-0.4788099,1.4048415,1.3176565,0.039995354,0.04,-6.851698,-6.902665138244629,1.282012,0.0,-0.0,0.0
2040.8666666651393,0.56931686,-0.8013474,0.37190327,-2.4673681,-0.4788099,1.4048415,1.3176565,0.039995354,0.04,-6.851698,-6.902665138244629,1.282012,0.0,-0.0,0.0
2040.883333331806,0.56931686,-0.8013474,0.37190327,-2.4673681,-0.4788099,1.4048415,1.3176565,0.039995354,0.04,-6.851698,-6.902665138244629,1.282012,0.0,-0.0,0.0
2040.8999999984726,0.56931686,-0.8013474,0.37190327,-2.4673681,-0.4788099,1.4048415,1.3176565,0.039995354,0.04,-6.851698,-6.902665138244629,1.282012,0.0,-0.0,0.0
2040.9166666651392,0.56931686,-0.8013474,0.37190327,-2.4673681,-0.4788099,1.4048415,1.3176565,0.039995354,0.04,-6.851698,-6.902665138244629,1.282012,0.0,-0.0,0.0
2040.933333331806,0.56931686,-0.8013474,0.37190327,-2.4673681,-0.4788099,1.4048415,1.3176565,0.039995354,0.04,-6.851698,-6.902665138244629,1.282012,0.0,-0.0,0.0
2040.9499999984725,0.56931686,-0.8013474,0.37190327,-2.4673681,-0.4788099,1.4048415,1.3176565,0.039995354,0.04,-6.851698,-6.902665138244629,1.282012,0.0,-0.0,0.0
2040.9666666651392,0.56931686,-0.8013474,0.37190327,-2.4673681,-0.4788099,1.4048415,1.3176565,0.039995354,0.04,-6.851698,-6.902665138244629,1.282012,0.0,-0.0,0.0
2040.9833333318059,0.56931686,-0.8013474,0.37190327,-2.4673681,-0.4788099,1.4048415,1.3176565,0.039995354,0.04,-6.851698,-6.902665138244629,1.282012,0.0,-0.0,0.0
2040.9999999984725,0.56931686,-0.8013474,0.37190327,-2.4673681,-0.4788099,1.4048415,1.3176565,0.039995354,0.04,-6.851698,-6.902665138244629,1.282012,0.0,-0.0,0.0
2041.0166666651392,0.56931686,-0.8013474,0.37190327,-2.4673681,-0.4788099,1.4048415,1.3176565,0.039995354,0.04,-6.851698,-6.902665138244629,1.282012,0.0,-0.0,0.0
2041.0333333318058,0.56931686,-0.8013474,0.37190327,-2.4673681,-0.4788099,1.4048415,1.3176565,0.039995354,0.04,-6.851698,-6.902665138244629,1.282012,0.0,-0.0,0.0
2041.0499999984725,0.56931686,-0.8013474,0.37190327,-2.4673681,-0.4788099,1.4048415,1.3176565,0.039995354,0.04,-6.851698,-6.902665138244629,1.282012,0.0,-0.0,0.0
2041.066666665139,0.56931686,-0.8013474,0.37190327,-2.4673681,-0.4788099,1.4048415,1.3176565,0.039995354,0.04,-6.851698,-6.902665138244629,1.282012,0.0,-0.0,0.0
2041.0833333318058,0.56931686,-0.8013474,0.37190327,-2.4673681,-0.4788099,1.4048415,1.3176565,0.039995354,0.04,-6.851698,-6.902665138244629,1.282012,0.0,-0.0,0.0
2041.0999999984724,0.56931686,-0.8013474,0.37190327,-2.4673681,-0.4788099,1.4048415,1.3176565,0.039995354,0.04,-6.851698,-6.902665138244629,1.282012,0.0,-0.0,0.0
2041.116666665139,0.56931686,-0.8013474,0.37190327,-2.4673681,-0.4788099,1.4048415,1.3176565,0.039995354,0.04,-6.851698,-6.902665138244629,1.282012,0.0,-0.0,0.0
2041.1333333318057,0.56931686,-0.8013474,0.37190327,-2.4673681,-0.4788099,1.4048415,1.3176565,0.039995354,0.04,-6.851698,-6.902665138244629,1.282012,0.0,-0.0,0.0
2041.1499999984724,0.56931686,-0.8013474,0.37190327,-2.4673681,-0.4788099,1.4048415,1.3176565,0.039995354,0.04,-6.851698,-6.902665138244629,1.282012,0.0,-0.0,0.0
2041.166666665139,0.56931686,-0.8013474,0.37190327,-2.4673681,-0.4788099,1.4048415,1.3176565,0.039995354,0.04,-6.851698,-6.902665138244629,1.282012,0.0,-0.0,0.0
2041.1833333318057,0.56931686,-0.8013474,0.37190327,-2.4673681,-0.4788099,1.4048415,1.3176565,0.039995354,0.04,-6.851698,-6.902665138244629,1.282012,0.0,-0.0,0.0
2041.1999999984723,0.56931686,-0.8013474,0.37190327,-2.4673681,-0.4788099,1.4048415,1.3176565,0.039995354,0.04,-6.851698,-6.902665138244629,1.282012,0.0,-0.0,0.0
2041.216666665139,0.56931686,-0.8013474,0.37190327,-2.4673681,-0.4788099,1.4048415,1.3176565,0.039995354,0.04,-6.851698,-6.902665138244629,1.282012,0.0,-0.0,0.0
2041.2333333318056,0.56931686,-0.8013474,0.37190327,-2.4673681,-0.4788099,1.4048415,1.3176565,0.039995354,0.04,-6.851698,-6.902665138244629,1.282012,0.0,-0.0,0.0
2041.2499999984723,0.56931686,-0.8013474,0.37190327,-2.4673681,-0.4788099,1.4048415,1.3176565,0.039995354,0.04,-6.851698,-6.902665138244629,1.282012,0.0,-0.0,0.0
2041.266666665139,0.56931686,-0.8013474,0.37190327,-2.4673681,-0.4788099,1.4048415,1.3176565,0.039995354,0.04,-6.851698,-6.902665138244629,1.282012,0.0,-0.0,0.0
2041.2833333318056,0.56931686,-0.8013474,0.37190327,-2.4673681,-0.4788099,1.4048415,1.3176565,0.039995354,0.04,-6.851698,-6.902665138244629,1.282012,0.0,-0.0,0.0
2041.2999999984722,0.56931686,-0.8013474,0.37190327,-2.4673681,-0.4788099,1.4048415,1.3176565,0.039995354,0.04,-6.851698,-6.902665138244629,1.282012,0.0,-0.0,0.0
2041.3166666651389,0.56931686,-0.8013474,0.37190327,-2.4673681,-0.4788099,1.4048415,1.3176565,0.039995354,0.04,-6.851698,-6.902665138244629,1.282012,0.0,-0.0,0.0
2041.3333333318055,0.56931686,-0.8013474,0.37190327,-2.4673681,-0.4788099,1.4048415,1.3176565,0.039995354,0.04,-6.851698,-6.902665138244629,1.282012,0.0,-0.0,0.0
2041.3499999984722,0.56931686,-0.8013474,0.37190327,-2.4673681,-0.4788099,1.4048415,1.3176565,0.039995354,0.04,-6.851698,-6.902665138244629,1.282012,0.0,-0.0,0.0
2041.3666666651388,0.56931686,-0.8013474,0.37190327,-2.4673681,-0.4788099,1.4048415,1.3176565,0.039995354,0.04,-6.851698,-6.902665138244629,1.282012,0.0,-0.0,0.0
2041.3833333318055,0.56931686,-0.8013474,0.37190327,-2.4673681,-0.4788099,1.4048415,1.3176565,0.039995354,0.04,-6.851698,-6.902665138244629,1.282012,0.0,-0.0,0.0
2041.3999999984721,0.56931686,-0.8013474,0.37190327,-2.4673681,-0.4788099,1.4048415,1.3176565,0.039995354,0.04,-6.851698,-6.902665138244629,1.282012,0.0,-0.0,0.0
2041.4166666651388,0.56931686,-0.8013474,0.37190327,-2.4673681,-0.4788099,1.4048415,1.3176565,0.039995354,0.04,-6.851698,-6.902665138244629,1.282012,0.0,-0.0,0.0
2041.4333333318054,0.56931686,-0.8013474,0.37190327,-2.4673681,-0.4788099,1.4048415,1.3176565,0.039995354,0.04,-6.851698,-6.902665138244629,1.282012,0.0,-0.0,0.0
2041.449999998472,0.56931686,-0.8013474,0.37190327,-2.4673681,-0.4788099,1.4048415,1.3176565,0.039995354,0.04,-6.851698,-6.902665138244629,1.282012,0.0,-0.0,0.0
2041.4666666651387,0.56931686,-0.8013474,0.37190327,-2.4673681,-0.4788099,1.4048415,1.3176565,0.039995354,0.04,-6.851698,-6.902665138244629,1.282012,0.0,-0.0,0.0
2041.4833333318054,0.56931686,-0.8013474,0.37190327,-2.4673681,-0.4788099,1.4048415,1.3176565,0.039995354,0.04,-6.851698,-6.902665138244629,1.282012,0.0,-0.0,0.0
2041.499999998472,0.56931686,-0.8013474,0.37190327,-2.4673681,-0.4788099,1.4048415,1.3176565,0.039995354,0.04,-6.851698,-6.902665138244629,1.282012,0.0,-0.0,0.0
2041.5166666651387,0.56931686,-0.8013474,0.37190327,-2.4673681,-0.4788099,1.4048415,1.3176565,0.039995354,0.04,-6.851698,-6.902665138244629,1.282012,0.0,-0.0,0.0
2041.5333333318054,0.56931686,-0.8013474,0.37190327,-2.4673681,-0.4788099,1.4048415,1.3176565,0.039995354,0.04,-6.851698,-6.902665138244629,1.282012,0.0,-0.0,0.0
2041.549999998472,0.56931686,-0.8013474,0.37190327,-2.4673681,-0.4788099,1.4048415,1.3176565,0.039995354,0.04,-6.851698,-6.902665138244629,1.282012,0.0,-0.0,0.0
2041.5666666651387,0.56931686,-0.8013474,0.37190327,-2.4673681,-0.4788099,1.4048415,1.3176565,0.039995354,0.04,-6.851698,-6.902665138244629,1.282012,0.0,-0.0,0.0
2041.5833333318053,0.56931686,-0.8013474,0.37190327,-2.4673681,-0.4788099,1.4048415,1.3176565,0.039995354,0.04,-6.851698,-6.902665138244629,1.282012,0.0,-0.0,0.0
2041.599999998472,0.56931686,-0.8013474,0.37190327,-2.4673681,-0.4788099,1.4048415,1.3176565,0.039995354,0.04,-6.851698,-6.902665138244629,1.282012,0.0,-0.0,0.0
2041.6166666651386,0.56931686,-0.8013474,0.37190327,-2.4673681,-0.4788099,1.4048415,1.3176565,0.039995354,0.04,-6.851698,-6.902665138244629,1.282012,0.0,-0.0,0.0
2041.6333333318053,0.56931686,-0.8013474,0.37190327,-2.4673681,-0.4788099,1.4048415,1.3176565,0.039995354,0.04,-6.851698,-6.902665138244629,1.282012,0.0,-0.0,0.0
2041.649999998472,0.56931686,-0.8013474,0.37190327,-2.4673681,-0.4788099,1.4048415,1.3176565,0.039995354,0.04,-6.851698,-6.902665138244629,1.282012,0.0,-0.0,0.0
2041.6666666651386,0.56931686,-0.8013474,0.37190327,-2.4673681,-0.4788099,1.4048415,1.3176565,0.039995354,0.04,-6.851698,-6.902665138244629,1.282012,0.0,-0.0,0.0
2041.6833333318052,0.56931686,-0.8013474,0.37190327,-2.4673681,-0.4788099,1.4048415,1.3176565,0.039995354,0.04,-6.851698,-6.902665138244629,1.282012,0.0,-0.0,0.0
2041.6999999984719,0.56931686,-0.8013474,0.37190327,-2.4673681,-0.4788099,1.4048415,1.3176565,0.039995354,0.04,-6.851698,-6.902665138244629,1.282012,0.0,-0.0,0.0
2041.7166666651385,0.56931686,-0.8013474,0.37190327,-2.4673681,-0.4788099,1.4048415,1.3176565,0.039995354,0.04,-6.851698,-6.902665138244629,1.282012,0.0,-0.0,0.0
2041.7333333318052,0.56931686,-0.8013474,0.37190327,-2.4673681,-0.4788099,1.4048415,1.3176565,0.039995354,0.04,-6.851698,-6.902665138244629,1.282012,0.0,-0.0,0.0
2041.7499999984718,0.56931686,-0.8013474,0.37190327,-2.4673681,-0.4788099,1.4048415,1.3176565,0.039995354,0.04,-6.851698,-6.902665138244629,1.282012,0.0,-0.0,0.0
2041.7666666651385,0.56931686,-0.8013474,0.37190327,-2.4673681,-0.4788099,1.4048415,1.3176565,0.039995354,0.04,-6.851698,-6.902665138244629,1.282012,0.0,-0.0,0.0
2041.7833333318051,0.56931686,-0.8013474,0.37190327,-2.4673681,-0.4788099,1.4048415,1.3176565,0.039995354,0.04,-6.851698,-6.902665138244629,1.282012,0.0,-0.0,0.0
2041.7999999984718,0.56931686,-0.8013474,0.37190327,-2.4673681,-0.4788099,1.4048415,1.3176565,0.039995354,0.04,-6.851698,-6.902665138244629,1.282012,0.0,-0.0,0.0
2041.8166666651384,0.56931686,-0.8013474,0.37190327,-2.4673681,-0.4788099,1.4048415,1.3176565,0.039995354,0.04,-6.851698,-6.902665138244629,1.282012,0.0,-0.0,0.0
2041.833333331805,0.56931686,-0.8013474,0.37190327,-2.4673681,-0.4788099,1.4048415,1.3176565,0.039995354,0.04,-6.851698,-6.902665138244629,1.282012,0.0,-0.0,0.0
2041.8499999984717,0.56931686,-0.8013474,0.37190327,-2.4673681,-0.4788099,1.4048415,1.3176565,0.039995354,0.04,-6.851698,-6.902665138244629,1.282012,0.0,-0.0,0.0
2041.8666666651384,0.56931686,-0.8013474,0.37190327,-2.4673681,-0.4788099,1.4048415,1.3176565,0.039995354,0.04,-6.851698,-6.902665138244629,1.282012,0.0,-0.0,0.0
2041.883333331805,0.56931686,-0.8013474,0.37190327,-2.4673681,-0.4788099,1.4048415,1.3176565,0.039995354,0.04,-6.851698,-6.902665138244629,1.282012,0.0,-0.0,0.0
2041.8999999984717,0.56931686,-0.8013474,0.37190327,-2.4673681,-0.4788099,1.4048415,1.3176565,0.039995354,0.04,-6.851698,-6.902665138244629,1.282012,0.0,-0.0,0.0
2041.9166666651383,0.56931686,-0.8013474,0.37190327,-2.4673681,-0.4788099,1.4048415,1.3176565,0.039995354,0.04,-6.851698,-6.902665138244629,1.282012,0.0,-0.0,0.0
2041.933333331805,0.56931686,-0.8013474,0.37190327,-2.4673681,-0.4788099,1.4048415,1.3176565,0.039995354,0.04,-6.851698,-6.902665138244629,1.282012,0.0,-0.0,0.0
2041.9499999984716,0.56931686,-0.8013474,0.37190327,-2.4673681,-0.4788099,1.4048415,1.3176565,0.039995354,0.04,-6.851698,-6.902665138244629,1.282012,0.0,-0.0,0.0
2041.9666666651383,0.56931686,-0.8013474,0.37190327,-2.4673681,-0.4788099,1.4048415,1.3176565,0.039995354,0.04,-6.851698,-6.902665138244629,1.282012,0.0,-0.0,0.0
2041.983333331805,0.56931686,-0.8013474,0.37190327,-2.4673681,-0.4788099,1.4048415,1.3176565,0.039995354,0.04,-6.851698,-6.902665138244629,1.282012,0.0,-0.0,0.0
2041.9999999984716,0.56931686,-0.8013474,0.37190327,-2.4673681,-0.4788099,1.4048415,1.3176565,0.039995354,0.04,-6.851698,-6.902665138244629,1.282012,0.0,-0.0,0.0
2042.0166666651382,0.56931686,-0.8013474,0.37190327,-2.4673681,-0.4788099,1.4048415,1.3176565,0.039995354,0.04,-6.851698,-6.902665138244629,1.282012,0.0,-0.0,0.0
2042.033333331805,0.56931686,-0.8013474,0.37190327,-2.4673681,-0.4788099,1.4048415,1.3176565,0.039995354,0.04,-6.851698,-6.902665138244629,1.282012,0.0,-0.0,0.0
2042.0499999984715,0.56931686,-0.8013474,0.37190327,-2.4673681,-0.4788099,1.4048415,1.3176565,0.039995354,0.04,-6.851698,-6.902665138244629,1.282012,0.0,-0.0,0.0
2042.0666666651382,0.56931686,-0.8013474,0.37190327,-2.4673681,-0.4788099,1.4048415,1.3176565,0.039995354,0.04,-6.851698,-6.902665138244629,1.282012,0.0,-0.0,0.0
2042.0833333318049,0.56931686,-0.8013474,0.37190327,-2.4673681,-0.4788099,1.4048415,1.3176565,0.039995354,0.04,-6.851698,-6.902665138244629,1.282012,0.0,-0.0,0.0
2042.0999999984715,0.56931686,-0.8013474,0.37190327,-2.4673681,-0.4788099,1.4048415,1.3176565,0.039995354,0.04,-6.851698,-6.902665138244629,1.282012,0.0,-0.0,0.0
2042.1166666651382,0.56931686,-0.8013474,0.37190327,-2.4673681,-0.4788099,1.4048415,1.3176565,0.039995354,0.04,-6.851698,-6.902665138244629,1.282012,0.0,-0.0,0.0
2042.1333333318048,0.56931686,-0.8013474,0.37190327,-2.4673681,-0.4788099,1.4048415,1.3176565,0.039995354,0.04,-6.851698,-6.902665138244629,1.282012,0.0,-0.0,0.0
2042.1499999984715,0.56931686,-0.8013474,0.37190327,-2.4673681,-0.4788099,1.4048415,1.3176565,0.039995354,0.04,-6.851698,-6.902665138244629,1.282012,0.0,-0.0,0.0
2042.166666665138,0.56931686,-0.8013474,0.37190327,-2.4673681,-0.4788099,1.4048415,1.3176565,0.039995354,0.04,-6.851698,-6.902665138244629,1.282012,0.0,-0.0,0.0
2042.1833333318048,0.56931686,-0.8013474,0.37190327,-2.4673681,-0.4788099,1.4048415,1.3176565,0.039995354,0.04,-6.851698,-6.902665138244629,1.282012,0.0,-0.0,0.0
2042.1999999984714,0.56931686,-0.8013474,0.37190327,-2.4673681,-0.4788099,1.4048415,1.3176565,0.039995354,0.04,-6.851698,-6.902665138244629,1.282012,0.0,-0.0,0.0
2042.216666665138,0.56931686,-0.8013474,0.37190327,-2.4673681,-0.4788099,1.4048415,1.3176565,0.039995354,0.04,-6.851698,-6.902665138244629,1.282012,0.0,-0.0,0.0
2042.2333333318047,0.56931686,-0.8013474,0.37190327,-2.4673681,-0.4788099,1.4048415,1.3176565,0.039995354,0.04,-6.851698,-6.902665138244629,1.282012,0.0,-0.0,0.0
2042.2499999984714,0.56931686,-0.8013474,0.37190327,-2.4673681,-0.4788099,1.4048415,1.3176565,0.039995354,0.04,-6.851698,-6.902665138244629,1.282012,0.0,-0.0,0.0
