rsonawane2002/My_IMU/logs_2/traj_464/imu_464.csv
time,j1,j2,j3,j4,j5,j6,j7,gripper1,gripper2,imu_ax,imu_ay,imu_az,imu_gx,imu_gy,imu_gz
2354.6833333357044,0.00016700293,-0.785875,4.0107683e-05,-2.3551247,9.29385e-05,1.570997,0.786,0.04,0.04,-9.507156,-0.027175908908247948,0.101748064,1.4869754e-07,-0.0011641273740679026,7.2350736e-07
2354.7000000023713,0.00016700802,-0.78576016,4.0118794e-05,-2.3552213,9.2977025e-05,1.5709941,0.786,0.04,0.04,-9.834493,0.0006529822712764144,0.009059594,-9.665447e-07,-0.002237935084849596,9.936281e-07
2354.716666669038,0.00016702885,-0.7856542,4.015827e-05,-2.35531,9.303323e-05,1.5709913,0.786,0.04,0.04,-9.832541,0.0007019115146249533,0.0075890464,-6.5514305e-06,-0.003227435750886798,1.4400267e-06
2354.733333335705,0.00016709307,-0.7855567,4.027385e-05,-2.355391,9.3141076e-05,1.5709884,0.786,0.04,0.04,-9.830395,0.000809346791356802,0.0063907546,-2.1312995e-05,-0.004137447103857994,1.863286e-06
2354.750000002372,0.00016724136,-0.78546673,4.05341e-05,-2.3554652,9.335139e-05,1.5709856,0.786,0.04,0.04,-9.828926,0.0009738835506141186,0.005160703,-4.9313767e-05,-0.0049720220267772675,2.2599618e-06
2354.766666669039,0.00016752607,-0.78538364,4.1026335e-05,-2.355532,9.373587e-05,1.5709827,0.7859981,0.04,0.039999995,-9.827299,0.0011785296956077218,0.004142051,-9.527716e-05,-0.005736983846873045,3.3934866e-06
2354.7833333357057,0.00016801001,-0.7853069,4.1854622e-05,-2.3555949,9.4366755e-05,1.5709826,0.7859962,0.04,0.03999999,-9.825675,0.0014239789452403784,0.0032384777,-0.00015363574,-0.006434127222746611,4.455278e-06
2354.8000000023726,0.00016876556,-0.78523576,4.3138345e-05,-2.355653,9.530937e-05,1.570983,0.7859943,0.04,0.039999995,-9.824273,0.0016736716497689486,0.0024521924,-0.00023732803,-0.007069238927215338,3.9393353e-06
2354.8166666690395,0.00016987328,-0.78516936,4.5010187e-05,-2.3557045,9.666744e-05,1.5709836,0.7859905,0.04,0.039999995,-9.823246,0.001999827101826668,0.0016896895,-0.00034957746,-0.00764981284737587,4.2277334e-06
2354.8333333357064,0.00017142128,-0.7851074,4.7614878e-05,-2.3557541,9.8536206e-05,1.5709842,0.78598493,0.04,0.04,-9.821852,0.002330866875126958,0.00106363,-0.0004849858,-0.0081734424456954,3.7248217e-06
2354.8500000023732,0.00017350404,-0.7850489,5.110745e-05,-2.3557973,0.00010103549,1.5709851,0.7859786,0.04,0.04,-9.821066,0.002694981638342142,0.0005363445,-0.0006479274,-0.008662845008075237,4.0093546e-06
2354.86666666904,0.00017622205,-0.7849937,5.565256e-05,-2.3558393,0.00010428221,1.570986,0.78597003,0.04,0.04,-9.819651,0.003040440147742629,7.6059485e-05,-0.0008454193,-0.00910106673836708,4.2714423e-06
2354.883333335707,0.00017968078,-0.78494114,6.1422885e-05,-2.3558748,0.000108408916,1.570987,0.7859586,0.04,0.039999995,-9.819178,0.0034828856587409973,-0.0003689353,-0.0010739749,-0.00951247289776802,5.2658884e-06
2354.900000002374,0.00018399018,-0.7848908,6.85984e-05,-2.355909,0.00011353254,1.570991,0.78594524,0.04,0.039999995,-9.817907,0.003888728329911828,-0.00073514815,-0.0013333071,-0.009875297546386719,5.4121597e-06
2354.9166666690408,0.00018926412,-0.78484184,7.736538e-05,-2.3559382,0.00011977616,1.5709955,0.7859285,0.039999995,0.039999995,-9.817337,0.004320395179092884,-0.0010924648,-0.001631025,-0.01020393893122673,4.7690646e-06
2354.9333333357076,0.0001956197,-0.7847942,8.791523e-05,-2.3559654,0.00012727374,1.5710001,0.7859085,0.03999999,0.04,-9.816216,0.004698398523032665,-0.0013670073,-0.0019623053,-0.010493210516870022,3.265918e-06
2354.9500000023745,0.0002031765,-0.78474706,0.000100443656,-2.3559897,0.00013617522,1.5710049,0.7858848,0.039999988,0.039999995,-9.81571,0.005218805745244026,-0.0015688866,-0.0023305076,-0.010758563876152039,3.4155034e-06
2354.9666666690414,0.00021205671,-0.7847001,0.00011515021,-2.3560097,0.0001466216,1.5710131,0.78585696,0.039999984,0.03999999,-9.815072,0.005681999027729034,-0.0017663685,-0.0027361892,-0.011001561768352985,3.5268592e-06
2354.9833333357083,0.00022238433,-0.7846528,0.00013223755,-2.3560288,0.00015875585,1.5710216,0.7858246,0.039999977,0.039999984,-9.814106,0.006072417367249727,-0.0020177416,-0.0031792836,-0.011199564673006535,3.5814244e-06
2355.000000002375,0.00023428477,-0.7846049,0.00015191064,-2.356045,0.00017272307,1.5710301,0.78578734,0.039999973,0.039999984,-9.813802,0.006619826424866915,-0.0021189975,-0.0036602952,-0.011385345831513405,2.7550009e-06
2355.016666669042,0.0002478846,-0.7845559,0.0001743763,-2.3560581,0.00018867027,1.5710424,0.78574467,0.03999997,0.03999998,-9.813242,0.007107806857675314,-0.0022271695,-0.0041798637,-0.011552785523235798,2.7409487e-06
2355.033333335709,0.0002633113,-0.78450537,0.00019984278,-2.3560698,0.00020674424,1.5710548,0.78569645,0.039999966,0.039999977,-9.812532,0.007586500141769648,-0.0023890932,-0.004737267,-0.011683867312967777,2.6776002e-06
2355.050000002376,0.00028069265,-0.78445286,0.00022851882,-2.35608,0.00022709304,1.5710703,0.785642,0.03999996,0.039999973,-9.812165,0.007963305339217186,-0.002484119,-0.0053342185,-0.011806267313659191,2.5763197e-06
2355.0666666690427,0.00030015674,-0.78439814,0.00026061395,-2.3560867,0.00024986416,1.5710865,0.7855811,0.039999958,0.039999973,-9.811798,0.00854982528835535,-0.0025798471,-0.005969644,-0.011907179839909077,1.5748087e-06
2355.0833333357095,0.00032183158,-0.7843408,0.0002963372,-2.356091,0.00027520658,1.5711055,0.7855134,0.039999954,0.03999997,-9.811214,0.009041822515428066,-0.0026385756,-0.0066435398,-0.011988917365670204,1.3881989e-06
2355.1000000023764,0.0003458451,-0.78428036,0.0003358976,-2.3560948,0.00030326686,1.5711255,0.78543836,0.039999947,0.039999966,-9.81072,0.00951507780700922,-0.0027207432,-0.007356689,-0.012048362754285336,3.176348e-07
2355.1166666690433,0.0003723246,-0.78421676,0.0003795033,-2.3560958,0.0003341935,1.571149,0.7853556,0.039999932,0.03999995,-9.810569,0.009872592985630035,-0.0028277175,-0.008107946,-0.012104873545467854,6.9358606e-08
2355.13333333571,0.0004013969,-0.7841495,0.00042736117,-2.3560941,0.0003681321,1.5711731,0.7852649,0.03999992,0.03999994,-9.81005,0.010487327352166176,-0.002874774,-0.008897767,-0.012135923840105534,-2.0509913e-07
2355.150000002377,0.0004331878,-0.7840784,0.00047967717,-2.3560905,0.00040522794,1.5712007,0.7851657,0.039999913,0.039999936,-9.809644,0.01095679309219122,-0.0029031513,-0.00972578,-0.012157303281128407,-1.353587e-06
2355.166666669044,0.0004678221,-0.7840027,0.0005366554,-2.3560865,0.0004456263,1.5712306,0.78505766,0.03999991,0.039999932,-9.8093,0.011439010500907898,-0.0030006068,-0.010591856,-0.012160432524979115,-1.6536814e-06
2355.183333335711,0.0005054236,-0.7839225,0.00059849804,-2.356079,0.0004894691,1.5712624,0.7849405,0.03999991,0.039999936,-9.809202,0.011737891472876072,-0.0031734267,-0.0114950305,-0.012159792706370354,-2.8327113e-06
2355.2000000023777,0.0005461148,-0.78383726,0.00066540536,-2.3560698,0.00053689885,1.5712976,0.7848136,0.039999917,0.039999943,-9.8087225,0.012369854375720024,-0.0031709871,-0.012435705,-0.012144085951149464,-3.1386348e-06
2355.2166666690446,0.00059001683,-0.7837469,0.0007375751,-2.3560586,0.00058805535,1.5713358,0.7846768,0.039999917,0.039999943,-9.80843,0.012830836698412895,-0.0032965303,-0.013412603,-0.01211435068398714,-3.4291288e-06
2355.2333333357114,0.0006372493,-0.78365105,0.0008152036,-2.3560467,0.0006430761,1.5713766,0.78452975,0.03999992,0.03999995,-9.80815,0.013097346760332584,-0.0034975996,-0.014426089,-0.012072565965354443,-4.5470065e-06
2355.2500000023783,0.0006879304,-0.7835495,0.0008984834,-2.3560317,0.000702098,1.5714198,0.7843719,0.03999993,0.03999996,-9.808082,0.013729879632592201,-0.003523605,-0.015475693,-0.012029520235955715,-5.644212e-06
2355.266666669045,0.00074217626,-0.7834418,0.0009876051,-2.3560147,0.00076525606,1.5714668,0.784203,0.039999932,0.039999966,-9.807649,0.01417563110589981,-0.0036574374,-0.016560113,-0.011972730979323387,-5.828446e-06
2355.283333335712,0.00080010167,-0.7833275,0.0010827557,-2.3559957,0.0008326819,1.5715169,0.7840227,0.039999936,0.039999973,-9.807425,0.014606754295527935,-0.0038334439,-0.0176794,-0.011905073188245296,-6.795179e-06
2355.300000002379,0.0008618196,-0.78320706,0.0011841204,-2.3559756,0.00090450677,1.5715703,0.7838306,0.03999994,0.039999977,-9.807242,0.014835621230304241,-0.004140481,-0.018832795,-0.011829722672700882,-6.827331e-06
2355.316666669046,0.0009274407,-0.7830794,0.00129188,-2.3559527,0.000980858,1.571627,0.7836264,0.039999947,0.039999988,-9.807094,0.015461934730410576,-0.004205948,-0.020019768,-0.011749407276511192,-7.63358e-06
2355.3333333357127,0.0009970738,-0.7829453,0.0014062127,-2.355928,0.0010618621,1.5716872,0.78340966,0.039999954,0.039999995,-9.806807,0.015885891392827034,-0.004453294,-0.02124008,-0.01165958121418953,-7.468779e-06
2355.3500000023796,0.0010708261,-0.78280365,0.0015272938,-2.3559012,0.0011476591,1.5717511,0.7831802,0.039999958,0.039999995,-9.806597,0.01629853993654251,-0.004643551,-0.022492161,-0.011561285704374313,-6.307044e-06
2355.3666666690465,0.0011488027,-0.7826544,0.0016552953,-2.3558724,0.0012383598,1.5718187,0.78293765,0.03999996,0.04,-9.806452,0.01645992323756218,-0.0050367275,-0.023776522,-0.011456108652055264,-5.994552e-06
2355.3833333357134,0.001231106,-0.7824975,0.0017903852,-2.3558419,0.0013340883,1.57189,0.7826816,0.039999966,0.04,-9.806224,0.017093751579523087,-0.005210193,-0.025092112,-0.011344286613166332,-4.72711e-06
2355.4000000023802,0.0013178372,-0.78233266,0.001932728,-2.3558087,0.0014349532,1.5719651,0.7824119,0.03999997,0.04,-9.806109,0.01747932843863964,-0.005508894,-0.026437562,-0.01122856605798006,-4.1130716e-06
2355.416666669047,0.0014090942,-0.7821597,0.0020824852,-2.355774,0.0015410851,1.5720443,0.78212816,0.039999973,0.04,-9.805853,0.017867660149931908,-0.0058449525,-0.027813712,-0.01110412459820509,-1.7634428e-06
2355.433333335714,0.0015049744,-0.78197855,0.0022398157,-2.3557367,0.0016525773,1.5721273,0.7818301,0.039999973,0.04,-9.805839,0.017977910116314888,-0.0063344054,-0.029218925,-0.010976266115903854,-7.9326713e-07
2355.450000002381,0.0016055715,-0.78178895,0.002404872,-2.3556976,0.0017695376,1.5722144,0.7815173,0.039999973,0.04,-9.805542,0.01859789341688156,-0.0065702926,-0.03065291,-0.010840518400073051,4.505939e-07
2355.4666666690478,0.0017109772,-0.7815905,0.0025778061,-2.3556561,0.001892065,1.5723056,0.7811896,0.03999997,0.04,-9.8054495,0.018950434401631355,-0.006975688,-0.0321146,-0.010701366700232029,1.1969727e-06
2355.4833333357146,0.0018212819,-0.7813832,0.0027587654,-2.355613,0.0020202543,1.5724008,0.7808467,0.03999996,0.04,-9.805315,0.01903199963271618,-0.0075683137,-0.033603143,-0.010555754415690899,1.5515106e-06
2355.5000000023815,0.0019365727,-0.7811669,0.0029478914,-2.3555675,0.002154209,1.5725002,0.78048813,0.039999958,0.04,-9.8052025,0.019643349573016167,-0.007876228,-0.035118278,-0.010409855283796787,2.2978925e-06
2355.5166666690484,0.002056935,-0.78094137,0.0031453245,-2.3555193,0.002294036,1.5726043,0.7801142,0.039999958,0.04,-9.805052,0.019987324252724648,-0.008375876,-0.036658365,-0.010258938185870647,4.2568904e-06
2355.5333333357153,0.0021824513,-0.78070647,0.0033512,-2.3554692,0.0024398335,1.5727129,0.7797242,0.039999954,0.04,-9.804817,0.02031547948718071,-0.008913221,-0.038225286,-0.010098656639456749,6.655001e-06
2355.550000002382,0.002313203,-0.78046185,0.0035656504,-2.3554168,0.0025917273,1.572826,0.77931786,0.039999958,0.04,-9.80485,0.02036876603960991,-0.009624738,-0.03981659,-0.00993722677230835,1.2573582e-05
2355.566666669049,0.002449267,-0.7802075,0.0037888044,-2.3553617,0.0027497734,1.5729437,0.77889514,0.03999996,0.04,-9.804632,0.020955663174390793,-0.010075951,-0.041431174,-0.00977128092199564,1.572379e-05
2355.583333335716,0.0025907212,-0.77994335,0.0040207854,-2.3553047,0.0029140755,1.5730658,0.77845573,0.03999996,0.04,-9.804468,0.02127443253993988,-0.010696066,-0.043069303,-0.009599901735782623,2.097757e-05
2355.600000002383,0.0027376385,-0.7796692,0.0042617163,-2.3552454,0.0030846933,1.5731928,0.77799934,0.03999996,0.04,-9.804424,0.02156432904303074,-0.011341083,-0.044730145,-0.009428863413631916,2.4375171e-05
2355.6166666690497,0.00289009,-0.77938473,0.0045117126,-2.3551836,0.003261736,1.5733246,0.77752584,0.03999996,0.04,-9.804373,0.02157069742679596,-0.01220404,-0.046412334,-0.009251798503100872,3.0728344e-05
2355.6333333357165,0.0030481457,-0.7790903,0.004770887,-2.3551197,0.003445274,1.573461,0.77703494,0.039999966,0.04,-9.804195,0.022157546132802963,-0.0127792,-0.048115842,-0.009072617627680302,3.6843983e-05
2355.6500000023834,0.0032118724,-0.7787852,0.005039351,-2.3550532,0.003635393,1.5736027,0.7765264,0.03999997,0.04,-9.804097,0.0224481001496315,-0.0135012455,-0.049839586,-0.008890741504728794,4.4360608e-05
2355.6666666690503,0.0033813342,-0.7784694,0.00531721,-2.354984,0.0038321766,1.5737493,0.776,0.039999973,0.04,-9.803964,0.0227348729968071,-0.014319655,-0.051582973,-0.008703797124326229,5.3276035e-05
2355.683333335717,0.0035565936,-0.7781431,0.0056045665,-2.3549128,0.0040356787,1.5739007,0.7754558,0.039999973,0.04,-9.803942,0.022686010226607323,-0.015347986,-0.05334496,-0.008513485081493855,6.128007e-05
2355.700000002384,0.0037377109,-0.7778061,0.0059015173,-2.3548393,0.004245957,1.5740575,0.7748933,0.039999973,0.04,-9.803803,0.02325834520161152,-0.0160072,-0.055125773,-0.008322618901729584,6.9265494e-05
2355.716666669051,0.0039247437,-0.77745813,0.006208159,-2.3547628,0.0044630915,1.5742191,0.77431256,0.039999973,0.04,-9.803723,0.02353270724415779,-0.016922578,-0.056923777,-0.008128191344439983,7.882093e-05
2355.733333335718,0.0041177473,-0.7770991,0.006524581,-2.3546844,0.0046871444,1.5743856,0.77371323,0.039999977,0.04,-9.803648,0.02346891537308693,-0.018032845,-0.058739524,-0.00792975164949894,8.924384e-05
2355.7500000023847,0.0043167756,-0.7767287,0.0068508745,-2.3546035,0.004918173,1.5745578,0.7730952,0.039999973,0.04,-9.803567,0.024041548371315002,-0.018838959,-0.060570825,-0.0077330926433205605,9.965723e-05
2355.7666666690516,0.004521879,-0.77634716,0.0071871183,-2.3545194,0.0051562395,1.574735,0.77245843,0.03999997,0.04,-9.803497,0.02429613471031189,-0.019880183,-0.06241767,-0.007533821742981672,0.0001117848
2355.7833333357185,0.004733107,-0.77595437,0.007533394,-2.354433,0.0054013873,1.5749177,0.7718026,0.039999973,0.04,-9.803312,0.024542637169361115,-0.020925608,-0.06428032,-0.007328901439905167,0.0001241819
2355.8000000023853,0.004950508,-0.7755501,0.007889778,-2.3543444,0.005653689,1.5751055,0.77112764,0.03999997,0.04,-9.803365,0.024454673752188683,-0.02220335,-0.06615663,-0.007123097311705351,0.00013828934
2355.816666669052,0.0051741223,-0.7751344,0.008256342,-2.3542526,0.0059131887,1.5752989,0.7704334,0.039999973,0.04,-9.803219,0.025030629709362984,-0.023141427,-0.06804653,-0.006916326005011797,0.00015343493
2355.833333335719,0.0054039946,-0.77470714,0.00863316,-2.3541586,0.0061799376,1.5754976,0.76971996,0.039999966,0.04,-9.803085,0.025269731879234314,-0.02432309,-0.069949284,-0.006705186795443296,0.00016886648
2355.850000002386,0.005640164,-0.7742683,0.009020294,-2.354062,0.0064539723,1.5757016,0.7689866,0.039999973,0.04,-9.803049,0.02550450712442398,-0.025521316,-0.071865395,-0.006493825931102037,0.0001862258
2355.866666669053,0.0058826692,-0.7738178,0.009417808,-2.3539624,0.0067353477,1.5759114,0.7682338,0.039999966,0.04,-9.803049,0.02539423294365406,-0.026956506,-0.07379104,-0.006280785426497459,0.00020385449
2355.8833333357197,0.006131546,-0.7733553,0.009825758,-2.3538606,0.0070240987,1.5761265,0.76746124,0.039999973,0.04,-9.80284,0.02597244270145893,-0.028052371,-0.075729,-0.006062858272343874,0.00022365076
2355.9000000023866,0.0063868277,-0.7728811,0.010244196,-2.353756,0.0073202727,1.5763471,0.76666886,0.039999973,0.04,-9.802829,0.02620694413781166,-0.029383942,-0.077677034,-0.005847245454788208,0.00024452852
2355.9166666690535,0.006648547,-0.7723949,0.010673181,-2.353648,0.007623861,1.5765731,0.76585656,0.03999997,0.04,-9.802726,0.02637287974357605,-0.030745763,-0.07963503,-0.00562759954482317,0.00025563454
2355.9333333357204,0.0069167316,-0.77189666,0.011112758,-2.353538,0.007934933,1.5768049,0.7650242,0.039999966,0.04,-9.802699,0.026311416178941727,-0.03235738,-0.08160227,-0.005406174808740616,0.00027775447
2355.9500000023872,0.0071914094,-0.7713866,0.0115629705,-2.3534253,0.008253528,1.5770422,0.76417166,0.03999997,0.04,-9.802601,0.026900101453065872,-0.03361096,-0.08357799,-0.00518517242744565,0.00030279515
2355.966666669054,0.0074726064,-0.7708642,0.01202386,-2.3533096,0.008579669,1.5772852,0.76329887,0.03999997,0.04,-9.802502,0.027129637077450752,-0.035083372,-0.08556117,-0.004961493890732527,0.0003284498
2355.983333335721,0.0077603413,-0.7703298,0.012495467,-2.3531914,0.008913402,1.5775337,0.7624058,0.039999966,0.04,-9.802551,0.02702515572309494,-0.036841147,-0.087551236,-0.004736988805234432,0.00035703118
2356.000000002388,0.008054639,-0.7697833,0.012977826,-2.3530707,0.009254725,1.5777882,0.76149243,0.039999977,0.04,-9.8023615,0.027598822489380836,-0.038193364,-0.08954798,-0.00451140571385622,0.0003855302
2356.0166666690548,0.008355518,-0.7692245,0.013470966,-2.352947,0.009603685,1.5780482,0.7605586,0.039999973,0.04,-9.802338,0.027836881577968597,-0.03980662,-0.091550834,-0.004284472670406103,0.00041626653
2356.0333333357216,0.008662994,-0.7686537,0.013974915,-2.352821,0.009960289,1.5783141,0.75960433,0.039999973,0.04,-9.802241,0.02808380126953125,-0.04145681,-0.09355877,-0.004056594334542751,0.00044856232
2356.0500000023885,0.008977083,-0.76807034,0.014489695,-2.352692,0.010324546,1.5785855,0.7586295,0.03999998,0.04,-9.802364,0.027967337518930435,-0.043358088,-0.095571525,-0.0038294207770377398,0.00048162424
2356.0666666690554,0.0092978,-0.7674747,0.01501533,-2.3525603,0.010696504,1.5788628,0.75763416,0.039999984,0.04,-9.80211,0.02858724258840084,-0.044901133,-0.0975883,-0.0035993822384625673,0.0005186403
2356.0833333357223,0.009625155,-0.7668668,0.015551839,-2.3524265,0.0110761365,1.5791458,0.75661826,0.03999999,0.04,-9.802105,0.02882639318704605,-0.046683338,-0.0996086,-0.0033695404417812824,0.0005548996
2356.100000002389,0.009959158,-0.7662465,0.016099233,-2.3522892,0.011463467,1.5794345,0.7555817,0.039999995,0.04,-9.802109,0.029086250811815262,-0.0485048,-0.10163217,-0.0031418069265782833,0.0005927432
2356.116666669056,0.010299809,-0.7656139,0.016657533,-2.3521492,0.011858514,1.5797287,0.7545246,0.04,0.04,-9.802069,0.02900470234453678,-0.05058741,-0.10365736,-0.002910269657149911,0.0006339978
2356.133333335723,0.01064712,-0.76496905,0.017226739,-2.352007,0.012261287,1.5800289,0.75344664,0.04,0.04,-9.801923,0.02962973713874817,-0.052272078,-0.10568508,-0.0026796928141266108,0.00067689747
2356.15000000239,0.011001095,-0.76431185,0.01780686,-2.351861,0.012671774,1.5803345,0.7523483,0.04,0.04,-9.801891,0.029901035130023956,-0.054219946,-0.10771316,-0.0024483760353177786,0.0007208321
2356.1666666690567,0.011361732,-0.7636422,0.018397897,-2.351713,0.013089958,1.580646,0.7512292,0.04,0.04,-9.8017435,0.030180182307958603,-0.056199335,-0.109743,-0.0022145237307995558,0.00076596334
2356.1833333357235,0.011729027,-0.76296026,0.018999849,-2.3515623,0.013515857,1.5809637,0.7500895,0.04,0.04,-9.801879,0.03012686036527157,-0.05846155,-0.11177244,-0.0019833147525787354,0.00081365806
2356.2000000023904,0.012102988,-0.76226586,0.01961272,-2.3514085,0.013949458,1.5812867,0.74892914,0.04,0.04,-9.801695,0.030781369656324387,-0.060325224,-0.113801606,-0.00174897990655154,0.00086261
2356.2166666690573,0.012483607,-0.7615593,0.020236492,-2.3512523,0.014390774,1.5816157,0.7477482,0.04,0.04,-9.801626,0.031096408143639565,-0.06243502,-0.11582962,-0.001516135991550982,0.00091423985
2356.233333335724,0.012870875,-0.7608403,0.02087116,-2.3510935,0.014839786,1.5819503,0.74654657,0.04,0.04,-9.8017435,0.031066041439771652,-0.06481231,-0.11785628,-0.0012834754306823015,0.00096786825
2356.250000002391,0.013264787,-0.76010895,0.021516707,-2.3509314,0.015296492,1.5822908,0.74532443,0.04,0.04,-9.801558,0.03175218403339386,-0.06679728,-0.11988028,-0.0010507176630198956,0.0010234278
2356.266666669058,0.01366533,-0.7593655,0.022173125,-2.3507674,0.015760873,1.5826368,0.74408174,0.04,0.04,-9.801448,0.03209897503256798,-0.06903414,-0.12190221,-0.0008157571428455412,0.001081198
2356.283333335725,0.014072495,-0.75860965,0.022840396,-2.3506002,0.016232919,1.5829886,0.7428185,0.04,0.04,-9.801487,0.0324561670422554,-0.07130576,-0.12392108,-0.0005839384393766522,0.0011409173
2356.3000000023917,0.014486266,-0.75784147,0.023518482,-2.35043,0.016712613,1.583346,0.74153465,0.04,0.04,-9.801514,0.032479725778102875,-0.07387861,-0.12593581,-0.0003510151873342693,0.0012027094
2356.3166666690586,0.0149066355,-0.75706124,0.024207382,-2.350258,0.017199952,1.5837091,0.74023044,0.04,0.04,-9.801296,0.033208105713129044,-0.076019265,-0.1279459,-0.00011716332664946094,0.0012666949
2356.3333333357255,0.015333581,-0.75626856,0.024907054,-2.3500826,0.017694866,1.5840783,0.73890585,0.04,0.04,-9.801368,0.033554233610630035,-0.07841434,-0.12995175,0.00011285076470812783,0.0013238952
2356.3500000023923,0.015767084,-0.755464,0.025617471,-2.3499048,0.018197384,1.5844529,0.73756087,0.04,0.04,-9.801221,0.03402349352836609,-0.08090852,-0.13195191,0.00034663992119021714,0.0013923299
2356.366666669059,0.01620713,-0.75464725,0.026338605,-2.349724,0.01870745,1.5848331,0.73619574,0.04,0.04,-9.801313,0.03410566225647926,-0.083597235,-0.13394625,0.0005792324664071202,0.001462226
2356.383333335726,0.016653698,-0.7538182,0.02707042,-2.3495407,0.019225072,1.5852188,0.7348104,0.04,0.04,-9.801131,0.03489880636334419,-0.08590996,-0.13593486,0.0008115555974654853,0.001535951
2356.400000002393,0.01710676,-0.7529773,0.027812872,-2.3493545,0.019750202,1.5856104,0.73340493,0.04,0.04,-9.801092,0.035356126725673676,-0.08849712,-0.13791634,0.0010418056044727564,0.0016102493
2356.41666666906,0.017566282,-0.7521245,0.02856593,-2.349166,0.02028284,1.5860072,0.7319793,0.04,0.04,-9.8010025,0.035839807242155075,-0.09110515,-0.1398906,0.0012746247230097651,0.0016885434
2356.4333333357267,0.018032258,-0.7512598,0.02932954,-2.348975,0.020822933,1.5864099,0.73053336,0.04,0.04,-9.8011265,0.036005813628435135,-0.09398429,-0.14185666,0.001503759645856917,0.0017681314
2356.4500000023936,0.018504648,-0.75038314,0.030103661,-2.3487806,0.021370446,1.5868177,0.7290681,0.04,0.04,-9.800966,0.03685217350721359,-0.09645504,-0.14381273,0.0017329632537439466,0.0018493007
2356.4666666690605,0.018983427,-0.7494946,0.030888246,-2.3485842,0.021925353,1.5872314,0.727583,0.04,0.04,-9.800857,0.037396956235170364,-0.099193975,-0.14576289,0.001962102949619293,0.0019336424
2356.4833333357274,0.019468552,-0.7485943,0.031683244,-2.348385,0.022487622,1.5876503,0.7260777,0.04,0.04,-9.800946,0.037637755274772644,-0.10221457,-0.14770304,0.0021911938674747944,0.0020211467
2356.5000000023942,0.019960001,-0.7476821,0.032488596,-2.3481832,0.02305721,1.5880749,0.7245531,0.04,0.04,-9.800807,0.038542039692401886,-0.10480021,-0.14963166,0.0024171797558665276,0.0021099346
2356.516666669061,0.020457737,-0.7467582,0.03330426,-2.3479786,0.02363406,1.5885049,0.7230092,0.04,0.04,-9.800754,0.039144888520240784,-0.10768205,-0.15155138,0.002643271116539836,0.0022004482
2356.533333335728,0.020961734,-0.74582267,0.034130167,-2.3477716,0.02421815,1.5889404,0.72144586,0.04,0.04,-9.800675,0.03977823257446289,-0.11058499,-0.15346122,0.002869088901206851,0.0022941593
2356.550000002395,0.021471947,-0.7448756,0.034966253,-2.347562,0.024809439,1.5893811,0.71986336,0.04,0.04,-9.8007765,0.04011508822441101,-0.11376479,-0.15535948,0.0030934629030525684,0.0023902385
2356.5666666690618,0.021988329,-0.7439172,0.035812464,-2.34735,0.025407866,1.5898271,0.7182616,0.04,0.04,-9.800598,0.041112665086984634,-0.11650556,-0.15724678,0.003316357731819153,0.0024886285
2356.5833333357286,0.022510858,-0.74294734,0.036668736,-2.3471355,0.026013413,1.5902784,0.71664083,0.04,0.04,-9.800544,0.04182356595993042,-0.11951949,-0.1591216,0.003538085613399744,0.0025903
2356.6000000023955,0.023039475,-0.7419661,0.03753498,-2.3469188,0.026626015,1.5907348,0.71500105,0.04,0.04,-9.80053,0.042547669261693954,-0.12258582,-0.16098396,0.0037574220914393663,0.0026933628
2356.6166666690624,0.02357415,-0.7409737,0.038411144,-2.3466992,0.027245594,1.5911967,0.71334267,0.04,0.04,-9.800672,0.042966827750205994,-0.12592152,-0.16283284,0.003973362967371941,0.0027913223
2356.6333333357293,0.024114834,-0.73996997,0.03929715,-2.3464775,0.02787212,1.5916637,0.71166563,0.04,0.04,-9.800403,0.044090352952480316,-0.12883294,-0.16466932,0.004191286861896515,0.002897735
2356.650000002396,0.024661476,-0.7389553,0.040192924,-2.3462534,0.028505547,1.5921359,0.70996994,0.04,0.04,-9.800428,0.04491452872753143,-0.13202119,-0.1664918,0.004405180923640728,0.0030070525
2356.666666669063,0.025214028,-0.73792976,0.04109841,-2.3460262,0.029145807,1.5926132,0.70825607,0.04,0.04,-9.800366,0.04576241225004196,-0.1352211,-0.16829923,0.0046181692741811275,0.0031197418
2356.68333333573,0.025772458,-0.73689336,0.042013496,-2.3457968,0.02979286,1.5930953,0.70652395,0.04,0.04,-9.800346,0.046346187591552734,-0.13870344,-0.17009273,0.004833190701901913,0.0032351243
2356.700000002397,0.026336698,-0.7358461,0.04293812,-2.3455658,0.030446645,1.5935826,0.70477384,0.04,0.04,-9.800233,0.047550275921821594,-0.14173909,-0.17187108,0.005043561104685068,0.0033526723
2356.7166666690637,0.026906706,-0.7347883,0.043872196,-2.3453317,0.0311071,1.5940751,0.70300597,0.04,0.04,-9.800262,0.048485465347766876,-0.14507288,-0.17363423,0.005250063259154558,0.0034714546
2356.7333333357305,0.02748244,-0.73371977,0.044815622,-2.3450952,0.031774163,1.5945723,0.70122045,0.04,0.04,-9.800227,0.049186065793037415,-0.14865276,-0.1753821,0.005459388718008995,0.0035946672
2356.7500000023974,0.02806383,-0.73264074,0.045768347,-2.344857,0.03244779,1.5950748,0.69941723,0.04,0.04,-9.800035,0.050474002957344055,-0.15182117,-0.17711405,0.005667001940310001,0.0037194001
2356.7666666690643,0.02865083,-0.73155135,0.046730243,-2.3446157,0.033127878,1.5955818,0.69759667,0.04,0.04,-9.80011,0.05151653662323952,-0.15525301,-0.17882857,0.005869860295206308,0.0038462083
2356.783333335731,0.02924338,-0.7304517,0.04770123,-2.344372,0.033814386,1.5960934,0.6957589,0.04,0.04,-9.79992,0.05258786678314209,-0.1587118,-0.18052623,0.006074267439544201,0.00397492
2356.800000002398,0.02984142,-0.72934175,0.048681222,-2.3441267,0.034507245,1.5966098,0.69390416,0.04,0.04,-9.799997,0.053443655371665955,-0.16242151,-0.1822064,0.006276421714574099,0.0041067856
2356.816666669065,0.030444903,-0.72822183,0.04967012,-2.3438795,0.035206392,1.5971311,0.69203246,0.04,0.04,-9.799909,0.05485796928405762,-0.16572803,-0.18386954,0.006473483983427286,0.0042405725
2356.833333335732,0.031053763,-0.72709185,0.050667822,-2.3436291,0.03591178,1.597657,0.6901441,0.04,0.04,-9.799904,0.05606675520539284,-0.16928147,-0.18551375,0.0066675469279289246,0.004378024
2356.8500000023987,0.03166793,-0.72595215,0.051674232,-2.3433766,0.036623303,1.5981871,0.6882395,0.04,0.04,-9.799725,0.05727391690015793,-0.17288789,-0.18713968,0.00686310650780797,0.0045157424
2356.8666666690656,0.032287348,-0.7248027,0.05268925,-2.343123,0.03734092,1.598722,0.6863185,0.04,0.04,-9.799794,0.05830210819840431,-0.17671205,-0.18874772,0.007055893074721098,0.0046580443
2356.8833333357325,0.032911953,-0.72364366,0.053712785,-2.3428667,0.0380645,1.5992616,0.6843815,0.04,0.04,-9.799725,0.05981957167387009,-0.18016018,-0.19033597,0.007244243286550045,0.0047940537
2356.9000000023993,0.0335417,-0.72247505,0.05474471,-2.3426077,0.038794,1.5998056,0.68242866,0.04,0.04,-9.799646,0.0611853264272213,-0.1838519,-0.1919053,0.0074321199208498,0.004936001
2356.916666669066,0.034176506,-0.721297,0.05578492,-2.3423476,0.039529357,1.6003538,0.68046004,0.04,0.04,-9.799477,0.06259143352508545,-0.18756042,-0.1934547,0.007620290853083134,0.0050842976
2356.933333335733,0.0348163,-0.7201099,0.056833312,-2.3420854,0.040270496,1.6009063,0.678476,0.04,0.04,-9.799692,0.06379678100347519,-0.19152756,-0.19498369,0.007800702471286058,0.005233257
2356.9500000024,0.035461023,-0.71891356,0.057889786,-2.3418202,0.041017324,1.6014628,0.6764766,0.04,0.04,-9.799493,0.06549860537052155,-0.19507165,-0.19649243,0.007979421876370907,0.0053835316
2356.966666669067,0.036110602,-0.7177081,0.05895422,-2.341553,0.041769784,1.6020238,0.6744622,0.04,0.04,-9.799327,0.0670204609632492,-0.1988776,-0.19797982,0.008159133605659008,0.0055379695
2356.9833333357337,0.036764987,-0.71649396,0.060026497,-2.3412845,0.042527776,1.6025889,0.6724329,0.04,0.04,-9.799382,0.06835736334323883,-0.20293479,-0.19944616,0.008337069302797318,0.0056935693
2357.0000000024006,0.03742409,-0.71527106,0.06110652,-2.3410146,0.04329123,1.6031581,0.670389,0.04,0.04,-9.799272,0.07019083201885223,-0.20655274,-0.20089103,0.008509905077517033,0.00585167
2357.0166666690675,0.038087837,-0.7140393,0.062194165,-2.3407414,0.04406005,1.6037314,0.66833085,0.04,0.04,-9.799329,0.07184487581253052,-0.21043599,-0.20231418,0.008676503784954548,0.0060104667
2357.0333333357344,0.03875617,-0.7127992,0.06328929,-2.3404667,0.04483417,1.6043085,0.6662586,0.04,0.04,-9.79904,0.07353897392749786,-0.21436818,-0.20371558,0.008848465047776699,0.0061721876
2357.0500000024012,0.039428994,-0.7115508,0.06439181,-2.340191,0.045613512,1.6048894,0.6641722,0.04,0.04,-9.799186,0.07508822530508041,-0.21849385,-0.2050949,0.009013707749545574,0.0063359267
2357.066666669068,0.040106256,-0.7102943,0.06550156,-2.3399138,0.046397965,1.6054741,0.66207224,0.04,0.04,-9.799084,0.07708336412906647,-0.22223046,-0.206451,0.009173441678285599,0.006500242
2357.083333335735,0.04078787,-0.7090297,0.06661846,-2.3396342,0.047187433,1.6060625,0.6599587,0.04,0.04,-9.79909,0.07892259955406189,-0.22620578,-0.20778511,0.00932877603918314,0.006665243
2357.100000002402,0.041473757,-0.70775706,0.0677424,-2.3393521,0.04798188,1.6066548,0.65783185,0.04,0.04,-9.798941,0.08082771301269531,-0.23022112,-0.2090955,0.009482963010668755,0.006835438
2357.1166666690688,0.042163856,-0.70647645,0.06887318,-2.3390687,0.04878115,1.6072509,0.6556919,0.04,0.04,-9.798911,0.08255350589752197,-0.23446111,-0.21038155,0.009637926705181599,0.0070030917
2357.1333333357356,0.042858075,-0.70518833,0.070010744,-2.3387845,0.049585182,1.6078503,0.6535395,0.04,0.04,-9.798768,0.08475184440612793,-0.238315,-0.2116437,0.009789224714040756,0.0071744593
2357.1500000024025,0.043556325,-0.7038928,0.07115493,-2.338498,0.050393883,1.6084534,0.65137464,0.04,0.04,-9.798819,0.08678648620843887,-0.24236426,-0.2128831,0.00993271078914404,0.007346841
2357.1666666690694,0.044258565,-0.70259,0.072305605,-2.3382099,0.051207133,1.6090597,0.6491971,0.04,0.04,-9.798701,0.08883129060268402,-0.24646275,-0.21409898,0.010076329112052917,0.0075128395
2357.1833333357363,0.04496469,-0.7012798,0.07346265,-2.3379197,0.052024864,1.6096693,0.64700794,0.04,0.04,-9.798696,0.09085705876350403,-0.25074512,-0.21528798,0.010216810740530491,0.007688732
2357.200000002403,0.045674626,-0.6999625,0.07462594,-2.3376284,0.052847013,1.6102821,0.64480704,0.04,0.04,-9.798469,0.09321571886539459,-0.25468475,-0.21645425,0.010355289094150066,0.007866982
2357.21666666907,0.046388276,-0.6986385,0.07579534,-2.3373363,0.053673457,1.6108979,0.6425946,0.04,0.04,-9.798496,0.09545869380235672,-0.258828,-0.21759562,0.010487064719200134,0.008044134
2357.233333335737,0.047105566,-0.69730777,0.0769707,-2.337042,0.054504104,1.6115171,0.6403709,0.04,0.04,-9.798603,0.09761218726634979,-0.2631605,-0.2187115,0.010612701065838337,0.008223008
2357.250000002404,0.04782642,-0.6959702,0.07815189,-2.3367462,0.055338886,1.6121393,0.6381359,0.04,0.04,-9.798357,0.10012077540159225,-0.26715577,-0.21980242,0.010737784206867218,0.008404247
2357.2666666690707,0.048550766,-0.69462645,0.07933877,-2.3364484,0.056177665,1.6127647,0.6358904,0.04,0.04,-9.798263,0.10251618176698685,-0.27136296,-0.22086579,0.0108603211119771,0.008584988
2357.2833333357376,0.049278498,-0.6932764,0.080531225,-2.3361502,0.057020362,1.6133933,0.6336341,0.04,0.04,-9.798096,0.1049824059009552,-0.27555072,-0.22190444,0.01098297256976366,0.008768969
2357.3000000024044,0.050009537,-0.6919203,0.08172908,-2.3358505,0.057866894,1.6140243,0.6313677,0.04,0.04,-9.79824,0.10736598819494247,-0.27994093,-0.22291526,0.01109948568046093,0.0089528235
2357.3166666690713,0.050743803,-0.690558,0.08293221,-2.3355494,0.058717128,1.6146581,0.6290914,0.04,0.04,-9.798061,0.11005953699350357,-0.28397477,-0.22390053,0.011210893280804157,0.009137094
2357.333333335738,0.05148119,-0.68919,0.08414049,-2.3352466,0.059570983,1.6152948,0.6268053,0.04,0.04,-9.797967,0.11269798129796982,-0.2882345,-0.22485957,0.011319226585328579,0.009323108
2357.350000002405,0.052221626,-0.6878165,0.085353754,-2.3349423,0.060428347,1.6159343,0.62450975,0.04,0.04,-9.79784,0.11536794900894165,-0.2924874,-0.22579105,0.011426522396504879,0.00950857
2357.366666669072,0.052965045,-0.68643737,0.08657188,-2.3346367,0.06128914,1.6165757,0.6222053,0.04,0.04,-9.79784,0.11799599975347519,-0.29689336,-0.2266957,0.011531133204698563,0.009695967
2357.383333335739,0.053711336,-0.68505293,0.087794706,-2.3343306,0.062153228,1.6172199,0.6198919,0.04,0.04,-9.7976265,0.12088526040315628,-0.3009899,-0.2275739,0.01163117028772831,0.009883549
2357.4000000024057,0.05446039,-0.68366337,0.0890221,-2.334024,0.063020535,1.6178668,0.6175699,0.04,0.04,-9.797652,0.12374629080295563,-0.3052593,-0.22842458,0.01172491256147623,0.010072122
2357.4166666690726,0.055212155,-0.68226886,0.09025392,-2.3337162,0.063890964,1.6185157,0.61523956,0.04,0.04,-9.797662,0.12665440142154694,-0.3095371,-0.2292484,0.011812297627329826,0.0102604525
2357.4333333357395,0.05596652,-0.6808696,0.09149001,-2.333407,0.06476438,1.6191671,0.61290115,0.04,0.04,-9.797625,0.129527285695076,-0.31398743,-0.23004393,0.011896857060492039,0.01044936
2357.4500000024063,0.056723393,-0.6794655,0.09273017,-2.333096,0.06564072,1.6198201,0.61055505,0.04,0.04,-9.7973795,0.1326223760843277,-0.31812617,-0.23081146,0.011980757117271423,0.010638397
2357.466666669073,0.0574827,-0.678057,0.093974315,-2.332784,0.06651982,1.6204755,0.60820144,0.04,0.04,-9.797254,0.13569198548793793,-0.32242003,-0.2315513,0.012059702537953854,0.010826295
2357.48333333574,0.05824434,-0.6766442,0.09522231,-2.332471,0.067401625,1.6211329,0.6058405,0.04,0.04,-9.797233,0.13876046240329742,-0.32687426,-0.23226286,0.01213698461651802,0.011016578
2357.500000002407,0.059008233,-0.6752271,0.096473955,-2.332157,0.06828603,1.6217923,0.6034728,0.04,0.04,-9.79702,0.14200438559055328,-0.33101624,-0.23294522,0.012211030349135399,0.011206139
2357.516666669074,0.059774265,-0.67380613,0.09772912,-2.331843,0.06917291,1.6224532,0.6010985,0.04,0.04,-9.796944,0.14525464177131653,-0.33533248,-0.23359998,0.012281055562198162,0.01139536
2357.5333333357407,0.060542352,-0.67238146,0.09898766,-2.3315282,0.070062146,1.6231163,0.5987177,0.04,0.04,-9.796971,0.14852090179920197,-0.33960706,-0.23422664,0.012342141941189766,0.011577781
2357.5500000024076,0.061312407,-0.67095315,0.10024943,-2.331213,0.070953615,1.6237807,0.59633094,0.04,0.04,-9.796938,0.15184837579727173,-0.3440577,-0.23482375,0.012401284649968147,0.01176282
2357.5666666690745,0.062084336,-0.66952133,0.101514265,-2.3308966,0.07184723,1.6244471,0.59393835,0.04,0.04,-9.79683,0.1553346812725067,-0.34820712,-0.23539239,0.012452464550733566,0.011950226
2357.5833333357414,0.062858045,-0.66808623,0.102782,-2.3305798,0.07274287,1.6251148,0.5915402,0.04,0.04,-9.796632,0.15880613029003143,-0.35252658,-0.23593183,0.012503920122981071,0.012138883
2357.6000000024083,0.06363343,-0.666648,0.10405251,-2.3302615,0.073640496,1.6257842,0.589137,0.04,0.04,-9.796602,0.1623363494873047,-0.35680962,-0.23644188,0.012547867372632027,0.012325476
2357.616666669075,0.06441042,-0.66520685,0.10532561,-2.3299422,0.0745399,1.6264548,0.5867289,0.04,0.04,-9.79648,0.1658855527639389,-0.36124653,-0.23692325,0.01259208470582962,0.012510565
2357.633333335742,0.0651889,-0.6637631,0.106601164,-2.3296223,0.07544105,1.6271265,0.5843161,0.04,0.04,-9.79622,0.16956090927124023,-0.3653965,-0.23737465,0.012634913437068462,0.012698111
2357.650000002409,0.06596878,-0.6623166,0.107879005,-2.3293016,0.07634379,1.6277997,0.58189905,0.04,0.04,-9.796122,0.17324790358543396,-0.36965275,-0.2377967,0.012672020122408867,0.012883738
2357.6666666690758,0.06674998,-0.66086763,0.109159,-2.3289804,0.077248044,1.6284739,0.57947797,0.04,0.04,-9.795981,0.17700567841529846,-0.3739293,-0.23818947,0.012707721441984177,0.0130691
2357.6833333357426,0.0675324,-0.6594166,0.11044097,-2.3286588,0.07815366,1.629149,0.5770531,0.04,0.04,-9.795989,0.18080076575279236,-0.3782951,-0.23855214,0.012736424803733826,0.013252012
2357.7000000024095,0.06831591,-0.6579635,0.111724764,-2.328337,0.07906054,1.629825,0.574625,0.04,0.04,-9.795758,0.184675931930542,-0.38241586,-0.23888515,0.012762450613081455,0.013435007
2357.7166666690764,0.069100454,-0.6565085,0.11301023,-2.328015,0.0799686,1.6305022,0.57219374,0.04,0.04,-9.795682,0.18860548734664917,-0.38665977,-0.23918928,0.012783154845237732,0.013617434
2357.7333333357433,0.06988592,-0.65505195,0.114297196,-2.327693,0.080877714,1.6311802,0.56975967,0.04,0.04,-9.795693,0.19259296357631683,-0.3909936,-0.23946366,0.012798338197171688,0.01379753
2357.75000000241,0.070672184,-0.65359384,0.11558552,-2.3273704,0.081787765,1.6318586,0.5673231,0.04,0.04,-9.7955265,0.1966121643781662,-0.39508635,-0.23970821,0.01280885748565197,0.013976033
2357.766666669077,0.07145922,-0.65213436,0.11687503,-2.3270478,0.08269869,1.6325377,0.56488425,0.04,0.04,-9.795359,0.2006964385509491,-0.39929318,-0.23992294,0.012815850786864758,0.014153309
2357.783333335744,0.07224688,-0.6506738,0.11816558,-2.3267252,0.0836103,1.6332173,0.56244344,0.04,0.04,-9.795297,0.2048446089029312,-0.40348026,-0.24010752,0.012817089445888996,0.014328484
2357.800000002411,0.073035076,-0.64921206,0.11945703,-2.3264022,0.08452251,1.6338974,0.560001,0.04,0.04,-9.795257,0.20906750857830048,-0.4077429,-0.24026191,0.012812980450689793,0.014501752
2357.8166666690777,0.07382371,-0.64774966,0.120749176,-2.3260791,0.08543523,1.6345779,0.5575573,0.04,0.04,-9.795063,0.21329179406166077,-0.41184536,-0.24038655,0.012804758735001087,0.014673363
2357.8333333357446,0.0746127,-0.6462867,0.12204191,-2.3257558,0.08634832,1.6352587,0.5551126,0.04,0.04,-9.794919,0.21759594976902008,-0.41597563,-0.24048114,0.012793001718819141,0.014843946
2357.8500000024114,0.07540194,-0.6448234,0.12333502,-2.3254323,0.08726169,1.6359398,0.5526672,0.04,0.04,-9.794783,0.22193779051303864,-0.42010063,-0.2405461,0.012777580879628658,0.015012175
2357.8666666690783,0.07619133,-0.6433597,0.12462838,-2.3251088,0.08817521,1.636621,0.5502213,0.04,0.04,-9.794657,0.22639200091362,-0.4242897,-0.24058084,0.012759811244904995,0.015177807
2357.883333335745,0.07698076,-0.64189607,0.12592185,-2.3247855,0.08908879,1.6373023,0.5477752,0.04,0.04,-9.794482,0.23080691695213318,-0.42829886,-0.24058507,0.012737034820020199,0.015342875
2357.900000002412,0.07777015,-0.64043236,0.12721525,-2.3244622,0.09000229,1.6379834,0.54532945,0.04,0.04,-9.794374,0.23530180752277374,-0.43236923,-0.24055882,0.012709483504295349,0.015503854
2357.916666669079,0.07855941,-0.6389689,0.12850839,-2.3241389,0.09091562,1.6386646,0.5428842,0.04,0.04,-9.794246,0.2398739457130432,-0.43642738,-0.2405034,0.012677012011408806,0.015663337
2357.933333335746,0.07934846,-0.6375058,0.12980112,-2.3238153,0.091828704,1.6393453,0.54043955,0.04,0.04,-9.794147,0.24455317854881287,-0.44052005,-0.24041784,0.012640080414712429,0.015820934
2357.9500000024127,0.08013715,-0.63604367,0.13109337,-2.323492,0.092741385,1.6400255,0.53799605,0.04,0.04,-9.793907,0.24912944436073303,-0.4444668,-0.24030146,0.012600707821547985,0.015975304
2357.9666666690796,0.08092542,-0.63458216,0.13238488,-2.3231688,0.09365354,1.6407055,0.53555393,0.04,0.04,-9.793745,0.25382521748542786,-0.4484324,-0.24015523,0.012556685134768486,0.016127238
2357.9833333357465,0.08171316,-0.6331216,0.13367552,-2.3228457,0.09456507,1.6413848,0.5331135,0.04,0.04,-9.793639,0.2586648762226105,-0.45245454,-0.23997886,0.012508458457887173,0.016276395
2358.0000000024133,0.08250028,-0.6316623,0.13496508,-2.322523,0.09547586,1.6420637,0.53067505,0.04,0.04,-9.793466,0.2633853256702423,-0.45634133,-0.2397724,0.012455902062356472,0.016422704
2358.01666666908,0.08328667,-0.63020426,0.1362535,-2.3222008,0.09638579,1.6427422,0.5282389,0.04,0.04,-9.793298,0.26823556423187256,-0.46023935,-0.23953651,0.012399224564433098,0.01656599
2358.033333335747,0.08407225,-0.6287479,0.13754061,-2.3218787,0.09729478,1.64342,0.52580523,0.04,0.04,-9.793149,0.273128479719162,-0.46413848,-0.23927021,0.012339224107563496,0.016706556
2358.050000002414,0.084856905,-0.62729317,0.1388262,-2.3215566,0.09820267,1.6440967,0.52337456,0.04,0.04,-9.793001,0.2781570851802826,-0.46801427,-0.23897389,0.012275573797523975,0.016844418
2358.066666669081,0.085640565,-0.62584037,0.14011015,-2.321235,0.09910941,1.6447725,0.520947,0.04,0.04,-9.79276,0.28302520513534546,-0.47180688,-0.2386478,0.012209145352244377,0.016979584
2358.0833333357477,0.08642314,-0.6243897,0.14139229,-2.3209133,0.10001484,1.6454476,0.5185228,0.04,0.04,-9.792601,0.28803858160972595,-0.4755934,-0.23829168,0.012137680314481258,0.017110938
2358.1000000024146,0.08720447,-0.62294126,0.14267246,-2.3205929,0.100918874,1.6461216,0.51610243,0.04,0.04,-9.792356,0.2930978834629059,-0.47937056,-0.23790528,0.01206632237881422,0.01724037
2358.1166666690815,0.08798454,-0.6214952,0.14395049,-2.3202724,0.10182137,1.6467946,0.5136862,0.04,0.04,-9.792296,0.2983279824256897,-0.48310602,-0.23748975,0.011987576261162758,0.017365359
2358.1333333357484,0.08876322,-0.62005174,0.14522627,-2.319953,0.102722235,1.6474661,0.5112743,0.04,0.04,-9.792026,0.3033447861671448,-0.48680642,-0.2370445,0.011907583102583885,0.01748771
2358.1500000024153,0.08954042,-0.61861104,0.14649963,-2.3196337,0.10362135,1.6481365,0.50886697,0.04,0.04,-9.791942,0.30852365493774414,-0.49045902,-0.2365699,0.01182000245898962,0.017605497
2358.166666669082,0.09031604,-0.6171732,0.14777038,-2.3193154,0.104518615,1.6488055,0.50646454,0.04,0.04,-9.791669,0.3137257397174835,-0.494118,-0.23606513,0.01173241063952446,0.017720154
2358.183333335749,0.091089964,-0.6157386,0.14903829,-2.318998,0.10541395,1.6494731,0.5040674,0.04,0.04,-9.791566,0.31914252042770386,-0.49771795,-0.2355312,0.01163821667432785,0.017831925
2358.200000002416,0.09186212,-0.61430734,0.15030338,-2.3186812,0.10630724,1.6501389,0.50167596,0.04,0.04,-9.791401,0.324299693107605,-0.5012772,-0.23496893,0.011539826169610023,0.01793851
2358.2166666690828,0.092632435,-0.61287963,0.1515654,-2.3183658,0.10719834,1.6508032,0.4992902,0.04,0.04,-9.791151,0.32960885763168335,-0.50481606,-0.23437741,0.011439087800681591,0.018041885
2358.2333333357496,0.09340082,-0.61145556,0.15282422,-2.3180513,0.10808717,1.6514658,0.49691054,0.04,0.04,-9.791078,0.3351265490055084,-0.5082949,-0.23375694,0.011330874636769295,0.018140262
2358.2500000024165,0.09416714,-0.6100352,0.15407966,-2.3177369,0.10897364,1.6521267,0.49453717,0.04,0.04,-9.790887,0.34039193391799927,-0.5117814,-0.23310722,0.011218616738915443,0.018239554
2358.2666666690834,0.09493131,-0.6086188,0.15533163,-2.3174233,0.10985761,1.6527857,0.4921706,0.04,0.04,-9.79061,0.3458006978034973,-0.5152423,-0.23242818,0.011105685494840145,0.018331917
2358.2833333357503,0.09569326,-0.60720646,0.15657993,-2.3171105,0.11073897,1.6534427,0.48981097,0.04,0.04,-9.790385,0.35124343633651733,-0.51864547,-0.23172075,0.010990478098392487,0.018419117
2358.300000002417,0.096452855,-0.60579866,0.15782444,-2.3167987,0.11161761,1.6540978,0.48745865,0.04,0.04,-9.7901745,0.35689425468444824,-0.52197146,-0.23098469,0.010871518403291702,0.018502096
2358.316666669084,0.09721004,-0.6043954,0.15906495,-2.316488,0.11249341,1.6547508,0.48511386,0.04,0.04,-9.789975,0.3622281849384308,-0.5253263,-0.23022051,0.010749822482466698,0.018580345
2358.333333335751,0.09796471,-0.6029969,0.16030137,-2.3161786,0.113366336,1.6554016,0.48277682,0.04,0.04,-9.789791,0.3677794635295868,-0.5285995,-0.22942837,0.010623864829540253,0.018654777
2358.350000002418,0.098716825,-0.6016032,0.16153349,-2.3158708,0.11423623,1.6560502,0.48044786,0.04,0.04,-9.789606,0.373343288898468,-0.53183514,-0.22860786,0.010493927635252476,0.018724548
2358.3666666690847,0.09946622,-0.6002143,0.16276127,-2.315564,0.11510301,1.6566963,0.47812733,0.04,0.04,-9.789435,0.3791239559650421,-0.5349975,-0.2277595,0.01035872008651495,0.018789224
2358.3833333357516,0.10021286,-0.5988307,0.16398448,-2.3152578,0.115966536,1.6573403,0.47581545,0.04,0.04,-9.78927,0.38455137610435486,-0.53822887,-0.22688371,0.010218106210231781,0.01884876
2358.4000000024184,0.10095661,-0.5974524,0.16520298,-2.3149524,0.11682671,1.6579816,0.4735125,0.04,0.04,-9.788969,0.39018258452415466,-0.5413765,-0.22597995,0.010078692808747292,0.018904326
2358.4166666690853,0.10169739,-0.5960797,0.16641663,-2.3146484,0.11768347,1.6586204,0.47121876,0.04,0.04,-9.788696,0.3958319425582886,-0.5444664,-0.22504859,0.009936841204762459,0.018956525
2358.433333335752,0.10243515,-0.5947125,0.1676253,-2.3143456,0.11853668,1.6592566,0.4689345,0.04,0.04,-9.788465,0.4017075300216675,-0.547437,-0.22409041,0.009791362099349499,0.019002894
2358.450000002419,0.10316977,-0.59335107,0.16882883,-2.3140452,0.11938625,1.6598899,0.46666002,0.04,0.04,-9.788249,0.407208651304245,-0.5505342,-0.22310498,0.009643479250371456,0.019045632
2358.466666669086,0.10390117,-0.59199595,0.17002708,-2.3137453,0.12023209,1.6605206,0.4643955,0.04,0.04,-9.788212,0.412939190864563,-0.5534825,-0.22209342,0.009486117400228977,0.01908139
2358.483333335753,0.104629286,-0.59064686,0.17121993,-2.3134465,0.12107408,1.6611483,0.4621413,0.04,0.04,-9.787789,0.41885724663734436,-0.5563383,-0.22105473,0.009331472218036652,0.01911347
2358.5000000024197,0.10535401,-0.58930385,0.17240722,-2.313149,0.121912144,1.6617731,0.4598975,0.04,0.04,-9.787606,0.4243907928466797,-0.55931246,-0.21998975,0.009172732941806316,0.019141208
2358.5166666690866,0.10607527,-0.5879675,0.1735888,-2.3128526,0.12274615,1.6623949,0.45766458,0.04,0.04,-9.787354,0.4301515221595764,-0.5621752,-0.21889754,0.0090117696672678,0.019164188
2358.5333333357535,0.10679298,-0.58663774,0.17476456,-2.312559,0.12357605,1.6630136,0.45544276,0.04,0.04,-9.787059,0.4359060227870941,-0.56496835,-0.21777971,0.008850449696183205,0.019182308
2358.5500000024203,0.107507035,-0.5853147,0.1759344,-2.3122666,0.124401726,1.663629,0.4532323,0.04,0.04,-9.786931,0.44192349910736084,-0.56761473,-0.21663706,0.008680381812155247,0.019194074
2358.566666669087,0.108217396,-0.5839986,0.1770981,-2.3119755,0.12522309,1.6642416,0.45103338,0.04,0.04,-9.786742,0.44748425483703613,-0.57045245,-0.21546848,0.008507740683853626,0.019200128
2358.583333335754,0.10892394,-0.5826897,0.17825559,-2.3116856,0.12604003,1.6648506,0.44884613,0.04,0.04,-9.786452,0.4532875418663025,-0.5731341,-0.21427457,0.00833426509052515,0.019202638
2358.600000002421,0.109626584,-0.58138806,0.17940672,-2.3113978,0.12685238,1.6654562,0.44667104,0.04,0.04,-9.786162,0.45907872915267944,-0.57577354,-0.21305448,0.008159583434462547,0.019200489
2358.616666669088,0.11032528,-0.58009374,0.18055132,-2.3111117,0.12766026,1.6660583,0.4445083,0.04,0.04,-9.785906,0.46514013409614563,-0.5782316,-0.21181026,0.007979053072631359,0.019195275
2358.6333333357547,0.11101991,-0.57880676,0.18168929,-2.3108273,0.12846346,1.6666569,0.4423582,0.04,0.04,-9.785741,0.4707399308681488,-0.5809006,-0.21054177,0.007795186247676611,0.019187182
2358.6500000024216,0.11171041,-0.5775275,0.1828205,-2.310544,0.12926184,1.6672522,0.44022086,0.04,0.04,-9.785503,0.47653287649154663,-0.58343494,-0.2092493,0.007609272375702858,0.01916779
2358.6666666690885,0.112396725,-0.5762561,0.18394487,-2.3102627,0.13005532,1.6678436,0.43809664,0.04,0.04,-9.785164,0.4823339879512787,-0.5859123,-0.2079323,0.007424758281558752,0.019143276
2358.6833333357554,0.11307876,-0.5749927,0.18506217,-2.3099833,0.13084383,1.6684312,0.43598565,0.04,0.04,-9.784862,0.4883989095687866,-0.58819455,-0.20659143,0.0072357007302343845,0.019115353
2358.7000000024223,0.11375645,-0.5737374,0.18617235,-2.3097057,0.13162728,1.669015,0.43388823,0.04,0.04,-9.784695,0.49396586418151855,-0.5907035,-0.20522723,0.007044046185910702,0.019079465
2358.716666669089,0.114429705,-0.5724904,0.18727523,-2.3094294,0.13240558,1.6695952,0.43180457,0.04,0.04,-9.784487,0.49978432059288025,-0.5930385,-0.20383997,0.006848023273050785,0.019038755
2358.733333335756,0.11509845,-0.5712516,0.1883708,-2.309155,0.13317867,1.6701715,0.42973483,0.04,0.04,-9.783989,0.5058450102806091,-0.5952006,-0.20242932,0.0066553931683301926,0.018996276
2358.750000002423,0.11576261,-0.57002145,0.18945883,-2.3088822,0.13394646,1.670744,0.4276794,0.04,0.04,-9.783885,0.511383056640625,-0.5976084,-0.20099577,0.006457779090851545,0.018945912
2358.76666666909,0.116422154,-0.5687998,0.19053926,-2.3086123,0.13470885,1.6713123,0.42563838,0.04,0.04,-9.783549,0.5171776413917542,-0.5998144,-0.19954003,0.006260892376303673,0.018892987
2358.7833333357567,0.11707695,-0.567587,0.19161193,-2.308344,0.13546582,1.6718765,0.42361203,0.04,0.04,-9.783438,0.5229779481887817,-0.60197955,-0.1980626,0.00605701794847846,0.018831998
2358.8000000024235,0.11772697,-0.5663831,0.19267675,-2.3080776,0.13621716,1.6724367,0.42160058,0.04,0.04,-9.782963,0.5290045142173767,-0.6039496,-0.19656312,0.005854634568095207,0.018766105
2358.8166666690904,0.11837211,-0.56518835,0.19373359,-2.3078127,0.13696282,1.6729928,0.41960427,0.04,0.04,-9.782831,0.5345084071159363,-0.6061873,-0.19504246,0.005649074446409941,0.018694807
2358.8333333357573,0.11901235,-0.56400275,0.19478238,-2.3075504,0.13770281,1.6735446,0.41762322,0.04,0.04,-9.7825,0.540260374546051,-0.60822713,-0.1935006,0.005443579517304897,0.018620027
2358.850000002424,0.11964755,-0.5628265,0.19582295,-2.3072908,0.138437,1.6740922,0.41565767,0.04,0.04,-9.782267,0.545992374420166,-0.6102228,-0.19193776,0.005235475488007069,0.018539494
2358.866666669091,0.12027769,-0.5616595,0.19685523,-2.3070326,0.13916533,1.674635,0.41370785,0.04,0.04,-9.7819605,0.5520058870315552,-0.61198694,-0.19035485,0.005023405887186527,0.01845289
2358.883333335758,0.12090269,-0.560502,0.19787906,-2.3067765,0.1398877,1.6751734,0.411774,0.04,0.04,-9.781723,0.5574331283569336,-0.6140966,-0.18875161,0.004810320679098368,0.018360352
2358.900000002425,0.12152249,-0.5593542,0.19889444,-2.306523,0.14060412,1.6757076,0.4098563,0.04,0.04,-9.781464,0.5631729364395142,-0.6159669,-0.18712896,0.0045933169312775135,0.018270146
2358.9166666690917,0.12213705,-0.55821615,0.19990115,-2.3062713,0.14131434,1.676237,0.40795493,0.04,0.04,-9.781241,0.5688053965568542,-0.61780477,-0.1854868,0.00437483424320817,0.018167848
2358.9333333357586,0.12274629,-0.5570881,0.20089917,-2.306021,0.14201841,1.6767621,0.4060699,0.04,0.04,-9.780771,0.5747386813163757,-0.6194078,-0.18382575,0.004157136660069227,0.018060673
2358.9500000024254,0.12335013,-0.5559697,0.20188834,-2.3057737,0.14271627,1.6772822,0.4042016,0.04,0.04,-9.780464,0.5800656676292419,-0.6213723,-0.1821442,0.00394347682595253,0.017950766
2358.9666666690923,0.12394854,-0.5548617,0.20286858,-2.3055286,0.1434078,1.6777979,0.40235034,0.04,0.04,-9.780351,0.5856866836547852,-0.623067,-0.18044534,0.003721752902492881,0.017830737
2358.983333335759,0.12454145,-0.55376375,0.20383985,-2.3052852,0.14409298,1.6783085,0.4005162,0.04,0.04,-9.779921,0.5915700793266296,-0.624521,-0.17872927,0.0034999900963157415,0.017709138
2359.000000002426,0.12512878,-0.5526763,0.204802,-2.3050451,0.14477171,1.6788142,0.39869934,0.04,0.04,-9.779662,0.5968124866485596,-0.6263765,-0.17699523,0.0032787094824016094,0.01758223
2359.016666669093,0.12571049,-0.55159914,0.20575494,-2.304807,0.1454439,1.6793156,0.39689976,0.04,0.04,-9.77952,0.6023535132408142,-0.6279314,-0.17524464,0.0030514299869537354,0.017447697
2359.03333333576,0.12628655,-0.5505326,0.20669861,-2.3045704,0.14610954,1.679812,0.39511785,0.04,0.04,-9.779172,0.6078622341156006,-0.6295144,-0.17347664,0.0028265812434256077,0.017309483
2359.0500000024267,0.1268569,-0.5494766,0.2076329,-2.3043368,0.14676854,1.680303,0.3933537,0.04,0.04,-9.778666,0.6136147379875183,-0.63081926,-0.1716917,0.00260316114872694,0.01716835
2359.0666666690936,0.12742142,-0.54843146,0.20855772,-2.3041058,0.14742084,1.680789,0.3916075,0.04,0.04,-9.778598,0.6187647581100464,-0.63248456,-0.16989136,0.0023746362421661615,0.017019875
2359.0833333357605,0.12798019,-0.5473971,0.20947298,-2.3038762,0.14806637,1.6812701,0.3898793,0.04,0.04,-9.77831,0.6241805553436279,-0.6339269,-0.16807541,0.0021443746518343687,0.01686712
2359.1000000024274,0.12853302,-0.54637355,0.21037857,-2.30365,0.14870512,1.6817461,0.38816935,0.04,0.04,-9.77789,0.6295413970947266,-0.63533974,-0.16624317,0.0019174686167389154,0.016711436
2359.1166666690942,0.12907991,-0.545361,0.21127447,-2.303426,0.14933695,1.6822172,0.38647783,0.04,0.04,-9.777559,0.6351916790008545,-0.63645536,-0.16439703,0.0016872412525117397,0.016547823
2359.133333335761,0.12962084,-0.5443596,0.21216062,-2.3032043,0.14996193,1.6826833,0.38480487,0.04,0.04,-9.777426,0.6402366161346436,-0.6380074,-0.16253701,0.0014545096782967448,0.016383747
2359.150000002428,0.13015574,-0.54336935,0.21303688,-2.3029852,0.15057987,1.6831439,0.38315055,0.04,0.04,-9.777056,0.6454689502716064,-0.63931406,-0.16066235,0.0012256558984518051,0.016212203
2359.166666669095,0.13068457,-0.5423902,0.21390319,-2.3027685,0.15119083,1.6835995,0.38151503,0.04,0.04,-9.776796,0.6507376432418823,-0.64053965,-0.1587742,0.0009917309507727623,0.016041087
2359.1833333357617,0.13120729,-0.5414226,0.21475953,-2.3025544,0.15179475,1.6840495,0.37989834,0.04,0.04,-9.776366,0.6562235951423645,-0.6415248,-0.15687303,0.0007586260326206684,0.015860945
2359.2000000024286,0.13172387,-0.5404666,0.2156058,-2.3023427,0.15239152,1.6844946,0.37830088,0.04,0.04,-9.7761965,0.6610600352287292,-0.6429389,-0.15495859,0.0005250702961347997,0.01567554
2359.2166666690955,0.13223425,-0.53952205,0.21644188,-2.3021333,0.15298112,1.6849343,0.37672257,0.04,0.04,-9.775824,0.6661728620529175,-0.64408123,-0.15303227,0.00029449109570123255,0.015489498
2359.2333333357624,0.13273838,-0.53858906,0.21726772,-2.3019269,0.15356353,1.6853684,0.37516356,0.04,0.04,-9.7754135,0.6715444922447205,-0.64492255,-0.15109442,6.196204776642844e-05,0.01529666
2359.2500000024293,0.13323624,-0.53766763,0.21808332,-2.301723,0.15413864,1.6857972,0.373624,0.04,0.04,-9.775253,0.6762746572494507,-0.6462479,-0.14914516,-0.00017070140165742487,0.015099473
2359.266666669096,0.13372776,-0.53675795,0.21888857,-2.3015218,0.15470646,1.6862204,0.37210408,0.04,0.04,-9.774982,0.6812679767608643,-0.64728975,-0.14718522,-0.00040478454320691526,0.0148989605
2359.283333335763,0.134213,-0.53586,0.21968342,-2.301323,0.15526693,1.6866381,0.37060374,0.039999995,0.04,-9.774709,0.6862214207649231,-0.6482764,-0.14521575,-0.0006407592445611954,0.014693345
2359.30000000243,0.13469185,-0.53497374,0.22046787,-2.3011267,0.15581997,1.6870505,0.3691232,0.039999995,0.04,-9.77421,0.6914159059524536,-0.64899856,-0.14323558,-0.0008756451425142586,0.014484506
2359.316666669097,0.13516426,-0.5340992,0.22124179,-2.3009336,0.1563656,1.6874574,0.36766246,0.039999984,0.04,-9.774061,0.6959536075592041,-0.65021783,-0.14124602,-0.0011101738782599568,0.014271412
2359.3333333357637,0.13563022,-0.53323686,0.2220052,-2.3007429,0.15690371,1.6878587,0.36622167,0.039999988,0.04,-9.773819,0.7007820010185242,-0.6511277,-0.1392478,-0.0013461661292240024,0.014054842
2359.3500000024305,0.13608976,-0.5323863,0.22275798,-2.3005545,0.15743439,1.6882545,0.36480087,0.03999998,0.04,-9.773484,0.7055186629295349,-0.65198535,-0.13724117,-0.00158213940449059,0.013834926
2359.3666666690974,0.13654283,-0.5315477,0.22350015,-2.3003693,0.15795761,1.6886444,0.3634001,0.039999973,0.04,-9.772998,0.7105358839035034,-0.6525798,-0.13522606,-0.0018168597016483545,0.013610621
2359.3833333357643,0.13698938,-0.5307213,0.22423162,-2.300186,0.15847321,1.6890291,0.3620197,0.039999973,0.04,-9.772938,0.7148827910423279,-0.65365344,-0.13320343,-0.0020549593027681112,0.013382212
2359.400000002431,0.13742934,-0.529907,0.22495243,-2.3000064,0.15898128,1.6894078,0.36065948,0.03999997,0.04,-9.7725115,0.7194814085960388,-0.65445364,-0.13117406,-0.0022877256851643324,0.013152791
2359.416666669098,0.13786279,-0.5291049,0.22566244,-2.2998288,0.15948175,1.689781,0.35931963,0.03999996,0.04,-9.772358,0.7240481972694397,-0.65518624,-0.12913889,-0.002525926334783435,0.012917643
2359.433333335765,0.1382896,-0.528315,0.2263617,-2.2996538,0.15997458,1.6901482,0.35800013,0.039999947,0.04,-9.771779,0.7288448214530945,-0.65564823,-0.12709734,-0.002760698087513447,0.012680492
2359.450000002432,0.13870981,-0.5275372,0.22705014,-2.2994826,0.16045976,1.6905102,0.35670108,0.039999917,0.04,-9.771639,0.7329959869384766,-0.6566151,-0.12505013,-0.0029963497072458267,0.012444036
2359.4666666690987,0.13912338,-0.5267719,0.22772773,-2.2993128,0.16093723,1.6908661,0.35542253,0.03999991,0.04,-9.7714615,0.7373868823051453,-0.6572927,-0.122998945,-0.0032334348652511835,0.012198079
2359.4833333357656,0.13953032,-0.52601874,0.22839443,-2.299146,0.16140708,1.6912163,0.3541645,0.0399999,0.04,-9.770861,0.742020845413208,-0.65764886,-0.12094288,-0.003466519294306636,0.011951851
2359.5000000024324,0.1399306,-0.52527815,0.22905031,-2.2989826,0.16186921,1.6915609,0.35292712,0.039999895,0.04,-9.77071,0.7459973096847534,-0.65855277,-0.11888297,-0.0036994237452745438,0.011703445
2359.5166666690993,0.14032426,-0.5245496,0.22969522,-2.2988207,0.1623236,1.6918998,0.3517104,0.03999989,0.04,-9.770526,0.7502253651618958,-0.65911126,-0.11682035,-0.003935155924409628,0.011451345
2359.533333335766,0.1407112,-0.5238337,0.23032926,-2.2986622,0.16277032,1.6922327,0.3505143,0.03999989,0.04,-9.770062,0.754392147064209,-0.6597154,-0.1147545,-0.004164995159953833,0.01119891
2359.550000002433,0.1410915,-0.5231301,0.23095232,-2.298507,0.16320927,1.69256,0.34933883,0.03999989,0.04,-9.769666,0.7588050961494446,-0.65992755,-0.11268681,-0.004396931733936071,0.010942922
2359.5666666691,0.1414651,-0.52243876,0.23156439,-2.2983534,0.16364054,1.6928816,0.34818402,0.039999887,0.04,-9.769577,0.7625603675842285,-0.66071475,-0.11061775,-0.00462989741936326,0.010683892
2359.583333335767,0.141832,-0.5217599,0.23216556,-2.298204,0.16406402,1.6931974,0.3470499,0.039999884,0.04,-9.769197,0.7665604948997498,-0.66122943,-0.10854712,-0.004858342465013266,0.010423068
2359.6000000024337,0.14219223,-0.52109325,0.23275577,-2.2980564,0.16447979,1.6935076,0.34593657,0.03999988,0.04,-9.769015,0.7704997062683105,-0.6616589,-0.10647649,-0.0050909435376524925,0.010159391
2359.6166666691006,0.14254573,-0.5204392,0.23333496,-2.2979114,0.16488786,1.6938118,0.34484395,0.03999988,0.04,-9.7684965,0.774688720703125,-0.6618325,-0.104406014,-0.005320204421877861,0.009894674
2359.6333333357675,0.1428926,-0.5197975,0.23390327,-2.2977703,0.1652882,1.6941106,0.3437721,0.039999872,0.04,-9.768289,0.7781975865364075,-0.6625257,-0.10233625,-0.005546919070184231,0.009628531
2359.6500000024344,0.14323275,-0.5191681,0.2344606,-2.2976305,0.16568077,1.694403,0.3427209,0.039999865,0.04,-9.768173,0.78196120262146,-0.6629003,-0.1002686,-0.005776620469987392,0.009358341
2359.6666666691012,0.14356624,-0.51855123,0.23500699,-2.2974935,0.16606563,1.6946903,0.3416904,0.039999865,0.04,-9.767708,0.7856525778770447,-0.66329426,-0.0982016,-0.006002629641443491,0.009088617
2359.683333335768,0.143893,-0.5179466,0.23554243,-2.2973604,0.16644275,1.6949714,0.34068054,0.039999865,0.04,-9.767163,0.7895806431770325,-0.6633451,-0.096136995,-0.006223185453563929,0.008819489
2359.700000002435,0.144213,-0.51735425,0.23606697,-2.2972295,0.16681215,1.6952472,0.33969128,0.03999986,0.04,-9.767291,0.7928895354270935,-0.6639194,-0.094076976,-0.00645226426422596,0.008543834
2359.716666669102,0.14452638,-0.5167745,0.23658057,-2.297101,0.1671739,1.6955168,0.33872274,0.039999846,0.04,-9.766876,0.7964171171188354,-0.6642512,-0.09202028,-0.006675355602055788,0.008271063
2359.7333333357687,0.14483312,-0.5162068,0.23708333,-2.2969756,0.16752793,1.6957809,0.33777475,0.039999846,0.04,-9.766358,0.8001401424407959,-0.66422015,-0.08996805,-0.006895969621837139,0.007994959
2359.7500000024356,0.14513324,-0.51565164,0.23757519,-2.2968526,0.16787429,1.6960392,0.33684722,0.03999984,0.04,-9.766307,0.803255558013916,-0.6647792,-0.087920934,-0.007117907982319593,0.007717851
2359.7666666691025,0.14542678,-0.51510847,0.23805626,-2.296732,0.16821302,1.6962916,0.3359401,0.039999835,0.04,-9.765914,0.806574285030365,-0.6650146,-0.0858789,-0.0073350658640265465,0.0074417586
2359.7833333357694,0.1457137,-0.5145776,0.23852651,-2.2966146,0.16854414,1.6965386,0.33505335,0.039999828,0.04,-9.765644,0.8098478317260742,-0.66524994,-0.08384244,-0.00755265261977911,0.007163998
2359.8000000024363,0.14599408,-0.51405895,0.23898597,-2.2964995,0.16886762,1.6967796,0.33418703,0.03999982,0.04,-9.765227,0.8133552670478821,-0.6651341,-0.081813365,-0.007769187446683645,0.006885689
2359.816666669103,0.14626788,-0.5135525,0.23943472,-2.2963877,0.16918352,1.6970153,0.33334097,0.03999982,0.04,-9.765077,0.8162112236022949,-0.6656071,-0.07979179,-0.007984786294400692,0.0066078496
2359.83333333577,0.14653513,-0.5130579,0.23987275,-2.2962785,0.16949193,1.6972451,0.3325151,0.039999817,0.04,-9.76481,0.819303572177887,-0.6657597,-0.07777871,-0.008198861964046955,0.0063309004
2359.850000002437,0.14679593,-0.5125755,0.24030016,-2.2961712,0.16979282,1.6974696,0.3317093,0.03999981,0.04,-9.764561,0.8223749995231628,-0.665904,-0.0757747,-0.008415224961936474,0.006057114
2359.866666669104,0.14705022,-0.512105,0.24071705,-2.296068,0.17008626,1.6976881,0.3309235,0.039999798,0.04,-9.763959,0.825567364692688,-0.6657562,-0.07377912,-0.008622998371720314,0.005781494
2359.8833333357707,0.14729807,-0.5116464,0.24112342,-2.2959666,0.17037222,1.6979014,0.3301576,0.03999979,0.04,-9.764065,0.8281910419464111,-0.66612625,-0.07179484,-0.008837021887302399,0.005499505
2359.9000000024375,0.14753951,-0.5111997,0.24151926,-2.2958672,0.17065081,1.6981089,0.32941154,0.039999787,0.04,-9.763686,0.8310319185256958,-0.6662425,-0.06982063,-0.009046033956110477,0.005221598
2359.9166666691044,0.1477746,-0.51076484,0.24190466,-2.2957716,0.17092201,1.6983114,0.3286852,0.039999787,0.04,-9.763268,0.8337966203689575,-0.6663301,-0.0678574,-0.009249727241694927,0.004944593
2359.9333333357713,0.14800332,-0.51034164,0.24227966,-2.295678,0.17118596,1.6985083,0.32797834,0.03999978,0.04,-9.76299,0.8368073105812073,-0.66607296,-0.065907545,-0.009455491788685322,0.0046667927
2359.950000002438,0.1482258,-0.5099301,0.2426444,-2.295586,0.17144255,1.6986998,0.32729098,0.039999772,0.04,-9.762769,0.8391844034194946,-0.66640985,-0.0639699,-0.009657326154410839,0.0043902253
2359.966666669105,0.148442,-0.50953,0.2429989,-2.2954981,0.17169197,1.6988857,0.32662293,0.03999976,0.04,-9.762415,0.841767430305481,-0.6664546,-0.062045284,-0.009853962808847427,0.0041158246
2359.983333335772,0.14865203,-0.5091415,0.24334323,-2.2954123,0.17193426,1.6990666,0.3259741,0.03999976,0.04,-9.762102,0.844580888748169,-0.66614807,-0.060135763,-0.01005492266267538,0.0038402241
2360.000000002439,0.1488559,-0.5087644,0.24367753,-2.2953284,0.1721694,1.6992421,0.3253442,0.039999753,0.04,-9.761928,0.8467868566513062,-0.66643745,-0.058240987,-0.010250315070152283,0.0035683138
2360.0166666691057,0.1490536,-0.5083985,0.2440018,-2.2952478,0.17239745,1.6994123,0.32473323,0.03999975,0.04,-9.761594,0.8491892218589783,-0.6664218,-0.056360904,-0.010442801751196384,0.0032967173
2360.0333333357726,0.14924529,-0.50804377,0.2443162,-2.2951694,0.17261852,1.6995775,0.32414094,0.039999746,0.04,-9.761403,0.8515732884407043,-0.6663695,-0.05449829,-0.01063656434416771,0.0030269634
2360.0500000024394,0.14943095,-0.50770026,0.24462077,-2.2950928,0.17283267,1.6997372,0.32356712,0.039999753,0.04,-9.760914,0.854112982749939,-0.6660552,-0.052651998,-0.01082634273916483,0.0027598313
2360.0666666691063,0.14961068,-0.5073676,0.24491557,-2.2950196,0.17304,1.699892,0.32301173,0.039999742,0.04,-9.760721,0.8560870885848999,-0.66626334,-0.050823033,-0.011012346483767033,0.0024951801
2360.083333335773,0.1497845,-0.5070461,0.24520077,-2.2949483,0.17324054,1.7000418,0.32247454,0.039999742,0.04,-9.76056,0.8582859635353088,-0.66617054,-0.049013447,-0.011199316941201687,0.002230715
2360.10000000244,0.1499525,-0.5067352,0.24547641,-2.2948792,0.17343433,1.7001864,0.32195535,0.039999746,0.04,-9.760182,0.8603940606117249,-0.6660705,-0.0472229,-0.011381224729120731,0.0019708837
2360.116666669107,0.15011472,-0.506435,0.24574263,-2.2948132,0.17362149,1.7003262,0.32145393,0.039999746,0.04,-9.759747,0.8627110123634338,-0.66570663,-0.045452323,-0.011561034247279167,0.0017121987
2360.133333335774,0.15027124,-0.5061453,0.24599956,-2.294749,0.17380211,1.7004609,0.32097006,0.03999975,0.04,-9.759697,0.8644856810569763,-0.6658341,-0.043703005,-0.011740224435925484,0.0014550941
2360.1500000024407,0.15042214,-0.5058659,0.24624728,-2.294687,0.17397621,1.7005908,0.3205036,0.03999975,0.04,-9.759372,0.8664273619651794,-0.6657022,-0.041974403,-0.011916255578398705,0.0012007238
2360.1666666691076,0.1505675,-0.5055968,0.24648595,-2.294628,0.1741439,1.7007161,0.32005423,0.03999975,0.04,-9.759087,0.8683297634124756,-0.6655641,-0.040268194,-0.012089506722986698,0.0009491836
2360.1833333357745,0.15070742,-0.5053379,0.24671558,-2.2945704,0.17430533,1.7008365,0.3196218,0.039999746,0.04,-9.758714,0.8704033493995667,-0.66514736,-0.038584944,-0.012261858209967613,0.00070013246
2360.2000000024414,0.15084186,-0.5050889,0.24693638,-2.294515,0.17446056,1.7009519,0.31920606,0.03999975,0.04,-9.758502,0.8719603419303894,-0.6652292,-0.0369251,-0.012429129332304,0.0004545948
2360.2166666691082,0.150971,-0.50485,0.24714845,-2.294462,0.17460957,1.7010632,0.31880677,0.03999975,0.04,-9.75818,0.8736980557441711,-0.6650485,-0.035289567,-0.01259393710643053,0.00021296537
2360.233333335775,0.15109491,-0.5046205,0.24735197,-2.294412,0.17475256,1.70117,0.31842357,0.039999742,0.04,-9.757796,0.8756073117256165,-0.6645904,-0.033679835,-0.012755599804222584,-2.5713001e-05
2360.250000002442,0.15121362,-0.50440055,0.24754705,-2.294363,0.1748896,1.7012725,0.31805658,0.039999746,0.04,-9.757781,0.8770396113395691,-0.66462624,-0.032096013,-0.012918299995362759,-0.00026268314
2360.266666669109,0.15132724,-0.50419,0.2477338,-2.2943163,0.1750208,1.7013705,0.3177051,0.039999742,0.04,-9.757361,0.8786200284957886,-0.6644221,-0.03053997,-0.013072969391942024,-0.00049369864
2360.2833333357758,0.15143587,-0.50398886,0.24791244,-2.294272,0.17514624,1.7014639,0.31736887,0.039999746,0.04,-9.757116,0.8801578879356384,-0.6641785,-0.029011125,-0.01322663202881813,-0.0007219999
2360.3000000024426,0.15153962,-0.5037965,0.24808306,-2.2942297,0.17526601,1.701553,0.3170479,0.039999746,0.04,-9.756698,0.8818373680114746,-0.6636921,-0.027509853,-0.013378273695707321,-0.0009466974
2360.3166666691095,0.15163861,-0.5036134,0.24824579,-2.2941887,0.17538027,1.7016381,0.3167417,0.039999746,0.04,-9.756627,0.8830926418304443,-0.6636597,-0.026038973,-0.013529667630791664,-0.001168549
2360.3333333357764,0.15173286,-0.50343853,0.24840082,-2.2941499,0.17548916,1.7017194,0.31645,0.03999974,0.039999995,-9.756174,0.884463906288147,-0.6633998,-0.024597097,-0.013672246597707272,-0.0013825133
2360.3500000024433,0.15182254,-0.5032726,0.24854831,-2.2941134,0.17559272,1.7017967,0.31617257,0.039999735,0.039999995,-9.755952,0.8858345150947571,-0.66314405,-0.023186423,-0.013812434859573841,-0.0015948119
2360.36666666911,0.15190768,-0.50311476,0.24868844,-2.2940788,0.17569105,1.7018701,0.31590903,0.039999746,0.04,-9.755585,0.8873277902603149,-0.662599,-0.021808239,-0.013951394706964493,-0.0018012286
2360.383333335777,0.15198839,-0.5029651,0.24882142,-2.294045,0.17578436,1.7019398,0.3156589,0.039999742,0.039999995,-9.755439,0.8884181380271912,-0.6625165,-0.020462655,-0.014087415300309658,-0.002003477
2360.400000002444,0.15206486,-0.50282323,0.2489474,-2.2940133,0.17587271,1.7020059,0.3154221,0.039999742,0.039999995,-9.755002,0.8896148204803467,-0.66221976,-0.01914886,-0.014215267263352871,-0.0021993103
2360.416666669111,0.15213712,-0.50268906,0.2490665,-2.2939837,0.17595628,1.7020683,0.31519818,0.039999742,0.04,-9.754742,0.8907914757728577,-0.6619043,-0.01786946,-0.014339925721287727,-0.0023913214
2360.4333333357777,0.15220536,-0.50256246,0.249179,-2.2939568,0.17603514,1.7021272,0.31498677,0.03999975,0.04,-9.754456,0.8921300172805786,-0.6613475,-0.016626379,-0.014465109445154667,-0.0025793705
2360.4500000024445,0.15226959,-0.50244313,0.249285,-2.29393,0.17610946,1.7021824,0.3147875,0.039999746,0.04,-9.754347,0.8930688500404358,-0.6611786,-0.015418912,-0.01458954717963934,-0.002762508
2360.4666666691114,0.15232998,-0.50233084,0.24938475,-2.293905,0.17617938,1.7022346,0.3146,0.03999975,0.04,-9.753912,0.8941331505775452,-0.6608438,-0.014247733,-0.014706368558108807,-0.0029394093
2360.4833333357783,0.1523867,-0.5022254,0.24947841,-2.2938812,0.176245,1.7022837,0.314424,0.03999975,0.04,-9.753523,0.8953218460083008,-0.6603049,-0.013113888,-0.014818851836025715,-0.00311044
2360.500000002445,0.1524398,-0.50212663,0.24956627,-2.2938592,0.1763066,1.70233,0.31425902,0.039999746,0.039999995,-9.75327,0.8961728811264038,-0.66011006,-0.012018694,-0.014925496652722359,-0.0032739444
2360.516666669112,0.1524895,-0.50203425,0.24964848,-2.29384,0.17636415,1.7023733,0.3141047,0.03999975,0.04,-9.752998,0.897121012210846,-0.65971243,-0.010962593,-0.015027844347059727,-0.0034331786
2360.533333335779,0.15253583,-0.50194794,0.24972522,-2.2938209,0.1764179,1.7024131,0.31396058,0.03999975,0.04,-9.752893,0.8980929255485535,-0.65927196,-0.009947892,-0.015132959932088852,-0.0035877663
2360.550000002446,0.15257901,-0.50186735,0.24979673,-2.2938027,0.17646796,1.7024506,0.31382635,0.039999753,0.04,-9.752326,0.899107038974762,-0.658747,-0.008973056,-0.015230061486363411,-0.0037363595
2360.5666666691127,0.15261908,-0.5017925,0.24986327,-2.2937858,0.17651452,1.7024859,0.31370145,0.039999753,0.04,-9.752118,0.8998783230781555,-0.65848035,-0.008040429,-0.01532234251499176,-0.0038756186
2360.5833333357796,0.15265624,-0.5017232,0.24992502,-2.29377,0.17655775,1.7025179,0.31358555,0.039999753,0.04,-9.751732,0.9007142782211304,-0.6580667,-0.0071499674,-0.015406161546707153,-0.0040092217
2360.6000000024464,0.1526906,-0.50165904,0.24998224,-2.2937558,0.17659779,1.702548,0.31347826,0.039999753,0.04,-9.751449,0.9015430808067322,-0.6575768,-0.006303498,-0.015489769168198109,-0.0041364087
2360.6166666691133,0.15272236,-0.50159943,0.2500351,-2.2937434,0.17663474,1.7025758,0.31337905,0.03999976,0.04,-9.751099,0.902456521987915,-0.65699756,-0.005502531,-0.015567428432404995,-0.004257794
2360.63333333578,0.15275161,-0.5015447,0.250084,-2.293732,0.17666893,1.7026004,0.31328738,0.03999976,0.04,-9.750975,0.9031736850738525,-0.6566502,-0.0047477726,-0.015645790845155716,-0.004373197
2360.650000002447,0.15277857,-0.50149405,0.25012907,-2.2937205,0.17670041,1.7026241,0.31320292,0.03999976,0.04,-9.750635,0.9039067625999451,-0.65615606,-0.004038472,-0.015721919015049934,-0.0044835405
2360.666666669114,0.15280338,-0.5014474,0.25017053,-2.29371,0.17672941,1.7026448,0.31312513,0.039999764,0.04,-9.750175,0.9046686887741089,-0.6557343,-0.003376078,-0.01578584499657154,-0.0045832815
2360.683333335781,0.15282612,-0.5014045,0.25020877,-2.2937,0.1767561,1.7026649,0.3130536,0.03999976,0.04,-9.749832,0.9054849743843079,-0.6551175,-0.0027619875,-0.015849899500608444,-0.0046774615
2360.7000000024477,0.15284705,-0.501365,0.25024408,-2.2936907,0.17678066,1.7026837,0.31298774,0.03999976,0.04,-9.749486,0.9061094522476196,-0.65474015,-0.0021962607,-0.015903322026133537,-0.004762059
2360.7166666691146,0.15286617,-0.5013288,0.25027654,-2.293682,0.17680323,1.7027,0.31292722,0.039999757,0.04,-9.749178,0.9067535996437073,-0.6542899,-0.0016748502,-0.015951009467244148,-0.0048388164
2360.7333333357815,0.15288377,-0.5012954,0.2503063,-2.2936745,0.176824,1.7027161,0.31287146,0.03999976,0.04,-9.748859,0.9074232578277588,-0.65374434,-0.001196227,-0.01599813438951969,-0.0049109897
2360.7500000024484,0.15289992,-0.5012648,0.2503338,-2.2936676,0.17684312,1.7027305,0.31282017,0.039999764,0.04,-9.748675,0.9079511165618896,-0.65344024,-0.00075607526,-0.01603865623474121,-0.004976418
2360.7666666691152,0.1529147,-0.50123644,0.25035897,-2.2936618,0.17686069,1.702743,0.31277293,0.039999764,0.04,-9.74844,0.9084451794624329,-0.65305406,-0.00035103605,-0.01607717201113701,-0.0050368016
2360.783333335782,0.15292828,-0.5012104,0.25038218,-2.2936568,0.17687686,1.7027553,0.31272957,0.039999764,0.04,-9.748347,0.9089523553848267,-0.65269816,2.0481268e-05,-0.016119159758090973,-0.0050961846
2360.800000002449,0.15294072,-0.5011865,0.25040355,-2.2936528,0.17689177,1.7027674,0.31268957,0.039999764,0.04,-9.748111,0.9094440937042236,-0.65235573,0.00036176766,-0.016155771911144257,-0.0051486534
2360.816666669116,0.15295218,-0.50116444,0.2504232,-2.2936487,0.17690544,1.7027766,0.31265283,0.03999977,0.04,-9.747998,0.9098085165023804,-0.65212905,0.00067553384,-0.016188178211450577,-0.005197183
2360.8333333357828,0.1529627,-0.5011442,0.25044128,-2.293645,0.17691806,1.7027854,0.31261903,0.039999764,0.04,-9.7478285,0.910153865814209,-0.6518472,0.0009642495,-0.016224754974246025,-0.0052452106
2360.8500000024496,0.15297237,-0.50112545,0.25045797,-2.293641,0.17692965,1.7027938,0.31258792,0.039999764,0.04,-9.747628,0.9104993939399719,-0.6516364,0.001229864,-0.016256267204880714,-0.0052884137
2360.8666666691165,0.1529812,-0.50110817,0.2504733,-2.2936373,0.17694034,1.7028023,0.31255925,0.039999764,0.04,-9.7474165,0.9108431935310364,-0.6514101,0.0014747081,-0.016283081844449043,-0.005327005
2360.8833333357834,0.15298936,-0.5010926,0.25048748,-2.2936335,0.17695013,1.7028105,0.3125329,0.039999764,0.04,-9.747251,0.9111133217811584,-0.65126413,0.0016999631,-0.01630380004644394,-0.005360787
2360.9000000024503,0.1529968,-0.5010781,0.2505005,-2.2936301,0.17695914,1.7028182,0.3125086,0.039999764,0.04,-9.747046,0.9113448858261108,-0.65107054,0.001907897,-0.016318809241056442,-0.005389029
2360.916666669117,0.15300363,-0.50106466,0.2505125,-2.2936268,0.17696746,1.7028234,0.31248626,0.039999764,0.04,-9.746978,0.9116001725196838,-0.6508915,0.0020987936,-0.016333501785993576,-0.0054157893
2360.933333335784,0.15300995,-0.50105244,0.25052354,-2.293624,0.17697509,1.7028283,0.31246567,0.03999977,0.04,-9.746884,0.9118233323097229,-0.65067905,0.002274757,-0.01635383442044258,-0.005444093
2360.950000002451,0.15301573,-0.501041,0.25053373,-2.293621,0.17698209,1.7028332,0.3124468,0.039999764,0.04,-9.746812,0.9120042324066162,-0.6505593,0.0024366663,-0.01637251488864422,-0.0054698586
2360.966666669118,0.15302104,-0.5010307,0.2505431,-2.2936182,0.17698856,1.7028378,0.31242943,0.03999976,0.04,-9.746706,0.9122031331062317,-0.650453,0.0025854537,-0.01638801209628582,-0.0054927072
2360.9833333357847,0.15302593,-0.5010211,0.25055167,-2.2936156,0.17699449,1.7028425,0.31241342,0.039999764,0.04,-9.74656,0.9123833775520325,-0.65030724,0.0027225194,-0.016399512067437172,-0.005513202
2361.0000000024515,0.15303035,-0.5010124,0.25055945,-2.293613,0.17699997,1.7028471,0.31239873,0.039999764,0.04,-9.746506,0.9125407934188843,-0.6502208,0.0028486191,-0.016409527510404587,-0.005530201
2361.0166666691184,0.1530344,-0.5010044,0.25056678,-2.2936106,0.17700504,1.7028517,0.31238508,0.039999764,0.04,-9.746389,0.9126982688903809,-0.6501013,0.0029638812,-0.016415592283010483,-0.0055445344
2361.0333333357853,0.15303817,-0.50099677,0.25057346,-2.2936082,0.17700969,1.7028561,0.31237257,0.039999764,0.04,-9.74634,0.9128042459487915,-0.6500076,0.0030710676,-0.016420193016529083,-0.005557647
2361.050000002452,0.1530416,-0.50099003,0.25057957,-2.293606,0.1770139,1.7028601,0.31236103,0.039999764,0.04,-9.746278,0.9129558205604553,-0.6499121,0.0031695312,-0.016423599794507027,-0.005569733
2361.066666669119,0.15304472,-0.50098383,0.25058523,-2.293604,0.17701785,1.7028636,0.31235036,0.039999764,0.04,-9.746219,0.9130430817604065,-0.64980996,0.0032599508,-0.01642591878771782,-0.0055799317
2361.083333335786,0.15304767,-0.50097805,0.25059038,-2.293602,0.17702149,1.702865,0.3123406,0.039999764,0.04,-9.746168,0.9131336808204651,-0.6497186,0.0033434625,-0.01642848178744316,-0.0055898144
2361.100000002453,0.15305029,-0.5009726,0.2505952,-2.2936003,0.17702475,1.7028664,0.31233174,0.039999764,0.04,-9.322608,0.9359949231147766,-0.5350063,0.0,-0.0,0.0
2361.1166666691197,0.15305029,-0.5009726,0.2505952,-2.2936003,0.17702475,1.7028664,0.31233174,0.039999764,0.04,-9.74576,0.913935124874115,-0.64883476,0.0,-0.0,0.0
2361.1333333357866,0.15305029,-0.5009726,0.2505952,-2.2936003,0.17702475,1.7028664,0.31233174,0.039999764,0.04,-9.74576,0.913935124874115,-0.64883476,0.0,-0.0,0.0
2361.1500000024535,0.15305029,-0.5009726,0.2505952,-2.2936003,0.17702475,1.7028664,0.31233174,0.039999764,0.04,-9.74576,0.913935124874115,-0.64883476,0.0,-0.0,0.0
2361.1666666691203,0.15305029,-0.5009726,0.2505952,-2.2936003,0.17702475,1.7028664,0.31233174,0.039999764,0.04,-9.74576,0.913935124874115,-0.64883476,0.0,-0.0,0.0
2361.183333335787,0.15305029,-0.5009726,0.2505952,-2.2936003,0.17702475,1.7028664,0.31233174,0.039999764,0.04,-9.74576,0.913935124874115,-0.64883476,0.0,-0.0,0.0
2361.200000002454,0.15305029,-0.5009726,0.2505952,-2.2936003,0.17702475,1.7028664,0.31233174,0.039999764,0.04,-9.74576,0.913935124874115,-0.64883476,0.0,-0.0,0.0
2361.216666669121,0.15305029,-0.5009726,0.2505952,-2.2936003,0.17702475,1.7028664,0.31233174,0.039999764,0.04,-9.74576,0.913935124874115,-0.64883476,0.0,-0.0,0.0
2361.233333335788,0.15305029,-0.5009726,0.2505952,-2.2936003,0.17702475,1.7028664,0.31233174,0.039999764,0.04,-9.74576,0.913935124874115,-0.64883476,0.0,-0.0,0.0
2361.2500000024547,0.15305029,-0.5009726,0.2505952,-2.2936003,0.17702475,1.7028664,0.31233174,0.039999764,0.04,-9.74576,0.913935124874115,-0.64883476,0.0,-0.0,0.0
2361.2666666691216,0.15305029,-0.5009726,0.2505952,-2.2936003,0.17702475,1.7028664,0.31233174,0.039999764,0.04,-9.74576,0.913935124874115,-0.64883476,0.0,-0.0,0.0
2361.2833333357885,0.15305029,-0.5009726,0.2505952,-2.2936003,0.17702475,1.7028664,0.31233174,0.039999764,0.04,-9.74576,0.913935124874115,-0.64883476,0.0,-0.0,0.0
2361.3000000024554,0.15305029,-0.5009726,0.2505952,-2.2936003,0.17702475,1.7028664,0.31233174,0.039999764,0.04,-9.74576,0.913935124874115,-0.64883476,0.0,-0.0,0.0
2361.3166666691222,0.15305029,-0.5009726,0.2505952,-2.2936003,0.17702475,1.7028664,0.31233174,0.039999764,0.04,-9.74576,0.913935124874115,-0.64883476,0.0,-0.0,0.0
2361.333333335789,0.15305029,-0.5009726,0.2505952,-2.2936003,0.17702475,1.7028664,0.31233174,0.039999764,0.04,-9.74576,0.913935124874115,-0.64883476,0.0,-0.0,0.0
2361.350000002456,0.15305029,-0.5009726,0.2505952,-2.2936003,0.17702475,1.7028664,0.31233174,0.039999764,0.04,-9.74576,0.913935124874115,-0.64883476,0.0,-0.0,0.0
2361.366666669123,0.15305029,-0.5009726,0.2505952,-2.2936003,0.17702475,1.7028664,0.31233174,0.039999764,0.04,-9.74576,0.913935124874115,-0.64883476,0.0,-0.0,0.0
2361.3833333357898,0.15305029,-0.5009726,0.2505952,-2.2936003,0.17702475,1.7028664,0.31233174,0.039999764,0.04,-9.74576,0.913935124874115,-0.64883476,0.0,-0.0,0.0
2361.4000000024566,0.15305029,-0.5009726,0.2505952,-2.2936003,0.17702475,1.7028664,0.31233174,0.039999764,0.04,-9.74576,0.913935124874115,-0.64883476,0.0,-0.0,0.0
2361.4166666691235,0.15305029,-0.5009726,0.2505952,-2.2936003,0.17702475,1.7028664,0.31233174,0.039999764,0.04,-9.74576,0.913935124874115,-0.64883476,0.0,-0.0,0.0
2361.4333333357904,0.15305029,-0.5009726,0.2505952,-2.2936003,0.17702475,1.7028664,0.31233174,0.039999764,0.04,-9.74576,0.913935124874115,-0.64883476,0.0,-0.0,0.0
2361.4500000024573,0.15305029,-0.5009726,0.2505952,-2.2936003,0.17702475,1.7028664,0.31233174,0.039999764,0.04,-9.74576,0.913935124874115,-0.64883476,0.0,-0.0,0.0
2361.466666669124,0.15305029,-0.5009726,0.2505952,-2.2936003,0.17702475,1.7028664,0.31233174,0.039999764,0.04,-9.74576,0.913935124874115,-0.64883476,0.0,-0.0,0.0
2361.483333335791,0.15305029,-0.5009726,0.2505952,-2.2936003,0.17702475,1.7028664,0.31233174,0.039999764,0.04,-9.74576,0.913935124874115,-0.64883476,0.0,-0.0,0.0
2361.500000002458,0.15305029,-0.5009726,0.2505952,-2.2936003,0.17702475,1.7028664,0.31233174,0.039999764,0.04,-9.74576,0.913935124874115,-0.64883476,0.0,-0.0,0.0
2361.516666669125,0.15305029,-0.5009726,0.2505952,-2.2936003,0.17702475,1.7028664,0.31233174,0.039999764,0.04,-9.74576,0.913935124874115,-0.64883476,0.0,-0.0,0.0
2361.5333333357917,0.15305029,-0.5009726,0.2505952,-2.2936003,0.17702475,1.7028664,0.31233174,0.039999764,0.04,-9.74576,0.913935124874115,-0.64883476,0.0,-0.0,0.0
2361.5500000024585,0.15305029,-0.5009726,0.2505952,-2.2936003,0.17702475,1.7028664,0.31233174,0.039999764,0.04,-9.74576,0.913935124874115,-0.64883476,0.0,-0.0,0.0
2361.5666666691254,0.15305029,-0.5009726,0.2505952,-2.2936003,0.17702475,1.7028664,0.31233174,0.039999764,0.04,-9.74576,0.913935124874115,-0.64883476,0.0,-0.0,0.0
2361.5833333357923,0.15305029,-0.5009726,0.2505952,-2.2936003,0.17702475,1.7028664,0.31233174,0.039999764,0.04,-9.74576,0.913935124874115,-0.64883476,0.0,-0.0,0.0
2361.600000002459,0.15305029,-0.5009726,0.2505952,-2.2936003,0.17702475,1.7028664,0.31233174,0.039999764,0.04,-9.74576,0.913935124874115,-0.64883476,0.0,-0.0,0.0
2361.616666669126,0.15305029,-0.5009726,0.2505952,-2.2936003,0.17702475,1.7028664,0.31233174,0.039999764,0.04,-9.74576,0.913935124874115,-0.64883476,0.0,-0.0,0.0
2361.633333335793,0.15305029,-0.5009726,0.2505952,-2.2936003,0.17702475,1.7028664,0.31233174,0.039999764,0.04,-9.74576,0.913935124874115,-0.64883476,0.0,-0.0,0.0
2361.65000000246,0.15305029,-0.5009726,0.2505952,-2.2936003,0.17702475,1.7028664,0.31233174,0.039999764,0.04,-9.74576,0.913935124874115,-0.64883476,0.0,-0.0,0.0
2361.6666666691267,0.15305029,-0.5009726,0.2505952,-2.2936003,0.17702475,1.7028664,0.31233174,0.039999764,0.04,-9.74576,0.913935124874115,-0.64883476,0.0,-0.0,0.0
2361.6833333357936,0.15305029,-0.5009726,0.2505952,-2.2936003,0.17702475,1.7028664,0.31233174,0.039999764,0.04,-9.74576,0.913935124874115,-0.64883476,0.0,-0.0,0.0
2361.7000000024605,0.15305029,-0.5009726,0.2505952,-2.2936003,0.17702475,1.7028664,0.31233174,0.039999764,0.04,-9.74576,0.913935124874115,-0.64883476,0.0,-0.0,0.0
2361.7166666691273,0.15305029,-0.5009726,0.2505952,-2.2936003,0.17702475,1.7028664,0.31233174,0.039999764,0.04,-9.74576,0.913935124874115,-0.64883476,0.0,-0.0,0.0
2361.733333335794,0.15305029,-0.5009726,0.2505952,-2.2936003,0.17702475,1.7028664,0.31233174,0.039999764,0.04,-9.74576,0.913935124874115,-0.64883476,0.0,-0.0,0.0
2361.750000002461,0.15305029,-0.5009726,0.2505952,-2.2936003,0.17702475,1.7028664,0.31233174,0.039999764,0.04,-9.74576,0.913935124874115,-0.64883476,0.0,-0.0,0.0
2361.766666669128,0.15305029,-0.5009726,0.2505952,-2.2936003,0.17702475,1.7028664,0.31233174,0.039999764,0.04,-9.74576,0.913935124874115,-0.64883476,0.0,-0.0,0.0
2361.783333335795,0.15305029,-0.5009726,0.2505952,-2.2936003,0.17702475,1.7028664,0.31233174,0.039999764,0.04,-9.74576,0.913935124874115,-0.64883476,0.0,-0.0,0.0
2361.8000000024617,0.15305029,-0.5009726,0.2505952,-2.2936003,0.17702475,1.7028664,0.31233174,0.039999764,0.04,-9.74576,0.913935124874115,-0.64883476,0.0,-0.0,0.0
2361.8166666691286,0.15305029,-0.5009726,0.2505952,-2.2936003,0.17702475,1.7028664,0.31233174,0.039999764,0.04,-9.74576,0.913935124874115,-0.64883476,0.0,-0.0,0.0
2361.8333333357955,0.15305029,-0.5009726,0.2505952,-2.2936003,0.17702475,1.7028664,0.31233174,0.039999764,0.04,-9.74576,0.913935124874115,-0.64883476,0.0,-0.0,0.0
2361.8500000024624,0.15305029,-0.5009726,0.2505952,-2.2936003,0.17702475,1.7028664,0.31233174,0.039999764,0.04,-9.74576,0.913935124874115,-0.64883476,0.0,-0.0,0.0
2361.8666666691292,0.15305029,-0.5009726,0.2505952,-2.2936003,0.17702475,1.7028664,0.31233174,0.039999764,0.04,-9.74576,0.913935124874115,-0.64883476,0.0,-0.0,0.0
2361.883333335796,0.15305029,-0.5009726,0.2505952,-2.2936003,0.17702475,1.7028664,0.31233174,0.039999764,0.04,-9.74576,0.913935124874115,-0.64883476,0.0,-0.0,0.0
2361.900000002463,0.15305029,-0.5009726,0.2505952,-2.2936003,0.17702475,1.7028664,0.31233174,0.039999764,0.04,-9.74576,0.913935124874115,-0.64883476,0.0,-0.0,0.0
2361.91666666913,0.15305029,-0.5009726,0.2505952,-2.2936003,0.17702475,1.7028664,0.31233174,0.039999764,0.04,-9.74576,0.913935124874115,-0.64883476,0.0,-0.0,0.0
2361.9333333357968,0.15305029,-0.5009726,0.2505952,-2.2936003,0.17702475,1.7028664,0.31233174,0.039999764,0.04,-9.74576,0.913935124874115,-0.64883476,0.0,-0.0,0.0
2361.9500000024636,0.15305029,-0.5009726,0.2505952,-2.2936003,0.17702475,1.7028664,0.31233174,0.039999764,0.04,-9.74576,0.913935124874115,-0.64883476,0.0,-0.0,0.0
2361.9666666691305,0.15305029,-0.5009726,0.2505952,-2.2936003,0.17702475,1.7028664,0.31233174,0.039999764,0.04,-9.74576,0.913935124874115,-0.64883476,0.0,-0.0,0.0
2361.9833333357974,0.15305029,-0.5009726,0.2505952,-2.2936003,0.17702475,1.7028664,0.31233174,0.039999764,0.04,-9.74576,0.913935124874115,-0.64883476,0.0,-0.0,0.0
2362.0000000024643,0.15305029,-0.5009726,0.2505952,-2.2936003,0.17702475,1.7028664,0.31233174,0.039999764,0.04,-9.74576,0.913935124874115,-0.64883476,0.0,-0.0,0.0
2362.016666669131,0.15305029,-0.5009726,0.2505952,-2.2936003,0.17702475,1.7028664,0.31233174,0.039999764,0.04,-9.74576,0.913935124874115,-0.64883476,0.0,-0.0,0.0
2362.033333335798,0.15305029,-0.5009726,0.2505952,-2.2936003,0.17702475,1.7028664,0.31233174,0.039999764,0.04,-9.74576,0.913935124874115,-0.64883476,0.0,-0.0,0.0
2362.050000002465,0.15305029,-0.5009726,0.2505952,-2.2936003,0.17702475,1.7028664,0.31233174,0.039999764,0.04,-9.74576,0.913935124874115,-0.64883476,0.0,-0.0,0.0
2362.066666669132,0.15305029,-0.5009726,0.2505952,-2.2936003,0.17702475,1.7028664,0.31233174,0.039999764,0.04,-9.74576,0.913935124874115,-0.64883476,0.0,-0.0,0.0
2362.0833333357987,0.15305029,-0.5009726,0.2505952,-2.2936003,0.17702475,1.7028664,0.31233174,0.039999764,0.04,-9.74576,0.913935124874115,-0.64883476,0.0,-0.0,0.0
2362.1000000024655,0.15305029,-0.5009726,0.2505952,-2.2936003,0.17702475,1.7028664,0.31233174,0.039999764,0.04,-9.74576,0.913935124874115,-0.64883476,0.0,-0.0,0.0
2362.1166666691324,0.15305029,-0.5009726,0.2505952,-2.2936003,0.17702475,1.7028664,0.31233174,0.039999764,0.04,-9.74576,0.913935124874115,-0.64883476,0.0,-0.0,0.0
2362.1333333357993,0.15305029,-0.5009726,0.2505952,-2.2936003,0.17702475,1.7028664,0.31233174,0.039999764,0.04,-9.74576,0.913935124874115,-0.64883476,0.0,-0.0,0.0
2362.150000002466,0.15305029,-0.5009726,0.2505952,-2.2936003,0.17702475,1.7028664,0.31233174,0.039999764,0.04,-9.74576,0.913935124874115,-0.64883476,0.0,-0.0,0.0
2362.166666669133,0.15305029,-0.5009726,0.2505952,-2.2936003,0.17702475,1.7028664,0.31233174,0.039999764,0.04,-9.74576,0.913935124874115,-0.64883476,0.0,-0.0,0.0
2362.1833333358,0.15305029,-0.5009726,0.2505952,-2.2936003,0.17702475,1.7028664,0.31233174,0.039999764,0.04,-9.74576,0.913935124874115,-0.64883476,0.0,-0.0,0.0
2362.200000002467,0.15305029,-0.5009726,0.2505952,-2.2936003,0.17702475,1.7028664,0.31233174,0.039999764,0.04,-9.74576,0.913935124874115,-0.64883476,0.0,-0.0,0.0
2362.2166666691337,0.15305029,-0.5009726,0.2505952,-2.2936003,0.17702475,1.7028664,0.31233174,0.039999764,0.04,-9.74576,0.913935124874115,-0.64883476,0.0,-0.0,0.0
2362.2333333358006,0.15305029,-0.5009726,0.2505952,-2.2936003,0.17702475,1.7028664,0.31233174,0.039999764,0.04,-9.74576,0.913935124874115,-0.64883476,0.0,-0.0,0.0
2362.2500000024675,0.15305029,-0.5009726,0.2505952,-2.2936003,0.17702475,1.7028664,0.31233174,0.039999764,0.04,-9.74576,0.913935124874115,-0.64883476,0.0,-0.0,0.0
2362.2666666691343,0.15305029,-0.5009726,0.2505952,-2.2936003,0.17702475,1.7028664,0.31233174,0.039999764,0.04,-9.74576,0.913935124874115,-0.64883476,0.0,-0.0,0.0
2362.283333335801,0.15305029,-0.5009726,0.2505952,-2.2936003,0.17702475,1.7028664,0.31233174,0.039999764,0.04,-9.74576,0.913935124874115,-0.64883476,0.0,-0.0,0.0
2362.300000002468,0.15305029,-0.5009726,0.2505952,-2.2936003,0.17702475,1.7028664,0.31233174,0.039999764,0.04,-9.74576,0.913935124874115,-0.64883476,0.0,-0.0,0.0
2362.316666669135,0.15305029,-0.5009726,0.2505952,-2.2936003,0.17702475,1.7028664,0.31233174,0.039999764,0.04,-9.74576,0.913935124874115,-0.64883476,0.0,-0.0,0.0
2362.333333335802,0.15305029,-0.5009726,0.2505952,-2.2936003,0.17702475,1.7028664,0.31233174,0.039999764,0.04,-9.74576,0.913935124874115,-0.64883476,0.0,-0.0,0.0
2362.3500000024687,0.15305029,-0.5009726,0.2505952,-2.2936003,0.17702475,1.7028664,0.31233174,0.039999764,0.04,-9.74576,0.913935124874115,-0.64883476,0.0,-0.0,0.0
2362.3666666691356,0.15305029,-0.5009726,0.2505952,-2.2936003,0.17702475,1.7028664,0.31233174,0.039999764,0.04,-9.74576,0.913935124874115,-0.64883476,0.0,-0.0,0.0
2362.3833333358025,0.15305029,-0.5009726,0.2505952,-2.2936003,0.17702475,1.7028664,0.31233174,0.039999764,0.04,-9.74576,0.913935124874115,-0.64883476,0.0,-0.0,0.0
2362.4000000024694,0.15305029,-0.5009726,0.2505952,-2.2936003,0.17702475,1.7028664,0.31233174,0.039999764,0.04,-9.74576,0.913935124874115,-0.64883476,0.0,-0.0,0.0
2362.4166666691362,0.15305029,-0.5009726,0.2505952,-2.2936003,0.17702475,1.7028664,0.31233174,0.039999764,0.04,-9.74576,0.913935124874115,-0.64883476,0.0,-0.0,0.0
2362.433333335803,0.15305029,-0.5009726,0.2505952,-2.2936003,0.17702475,1.7028664,0.31233174,0.039999764,0.04,-9.74576,0.913935124874115,-0.64883476,0.0,-0.0,0.0
2362.45000000247,0.15305029,-0.5009726,0.2505952,-2.2936003,0.17702475,1.7028664,0.31233174,0.039999764,0.04,-9.74576,0.913935124874115,-0.64883476,0.0,-0.0,0.0
2362.466666669137,0.15305029,-0.5009726,0.2505952,-2.2936003,0.17702475,1.7028664,0.31233174,0.039999764,0.04,-9.74576,0.913935124874115,-0.64883476,0.0,-0.0,0.0
2362.4833333358038,0.15305029,-0.5009726,0.2505952,-2.2936003,0.17702475,1.7028664,0.31233174,0.039999764,0.04,-9.74576,0.913935124874115,-0.64883476,0.0,-0.0,0.0
2362.5000000024706,0.15305029,-0.5009726,0.2505952,-2.2936003,0.17702475,1.7028664,0.31233174,0.039999764,0.04,-9.74576,0.913935124874115,-0.64883476,0.0,-0.0,0.0
2362.5166666691375,0.15305029,-0.5009726,0.2505952,-2.2936003,0.17702475,1.7028664,0.31233174,0.039999764,0.04,-9.74576,0.913935124874115,-0.64883476,0.0,-0.0,0.0
2362.5333333358044,0.15305029,-0.5009726,0.2505952,-2.2936003,0.17702475,1.7028664,0.31233174,0.039999764,0.04,-9.74576,0.913935124874115,-0.64883476,0.0,-0.0,0.0
2362.5500000024713,0.15305029,-0.5009726,0.2505952,-2.2936003,0.17702475,1.7028664,0.31233174,0.039999764,0.04,-9.74576,0.913935124874115,-0.64883476,0.0,-0.0,0.0
2362.566666669138,0.15305029,-0.5009726,0.2505952,-2.2936003,0.17702475,1.7028664,0.31233174,0.039999764,0.04,-9.74576,0.913935124874115,-0.64883476,0.0,-0.0,0.0
2362.583333335805,0.15305029,-0.5009726,0.2505952,-2.2936003,0.17702475,1.7028664,0.31233174,0.039999764,0.04,-9.74576,0.913935124874115,-0.64883476,0.0,-0.0,0.0
2362.600000002472,0.15305029,-0.5009726,0.2505952,-2.2936003,0.17702475,1.7028664,0.31233174,0.039999764,0.04,-9.74576,0.913935124874115,-0.64883476,0.0,-0.0,0.0
2362.616666669139,0.15305029,-0.5009726,0.2505952,-2.2936003,0.17702475,1.7028664,0.31233174,0.039999764,0.04,-9.74576,0.913935124874115,-0.64883476,0.0,-0.0,0.0
2362.6333333358057,0.15305029,-0.5009726,0.2505952,-2.2936003,0.17702475,1.7028664,0.31233174,0.039999764,0.04,-9.74576,0.913935124874115,-0.64883476,0.0,-0.0,0.0
2362.6500000024726,0.15305029,-0.5009726,0.2505952,-2.2936003,0.17702475,1.7028664,0.31233174,0.039999764,0.04,-9.74576,0.913935124874115,-0.64883476,0.0,-0.0,0.0
2362.6666666691394,0.15305029,-0.5009726,0.2505952,-2.2936003,0.17702475,1.7028664,0.31233174,0.039999764,0.04,-9.74576,0.913935124874115,-0.64883476,0.0,-0.0,0.0
2362.6833333358063,0.15305029,-0.5009726,0.2505952,-2.2936003,0.17702475,1.7028664,0.31233174,0.039999764,0.04,-9.74576,0.913935124874115,-0.64883476,0.0,-0.0,0.0
2362.700000002473,0.15305029,-0.5009726,0.2505952,-2.2936003,0.17702475,1.7028664,0.31233174,0.039999764,0.04,-9.74576,0.913935124874115,-0.64883476,0.0,-0.0,0.0
