rsonawane2002/My_IMU/logs_2/traj_404/imu_404.csv
time,j1,j2,j3,j4,j5,j6,j7,gripper1,gripper2,imu_ax,imu_ay,imu_az,imu_gx,imu_gy,imu_gz
1691.6833333321235,0.00016700293,-0.785875,4.0107683e-05,-2.3551247,9.29385e-05,1.570997,0.786,0.04,0.04,-9.468633,-0.07772646844387054,0.06965568,7.935365e-08,-0.0011641266755759716,1.4944311e-06
1691.6999999987902,0.00016700747,-0.78576016,4.0116844e-05,-2.3552213,9.298279e-05,1.5709941,0.786,0.04,0.04,-9.834315,0.0006559735047630966,0.0091263205,-2.6108767e-08,-0.0022373273968696594,1.4078975e-06
1691.7166666654568,0.00016702428,-0.7856542,4.0140865e-05,-2.35531,9.3084695e-05,1.5709913,0.786,0.04,0.04,-9.832551,0.000693105161190033,0.0075620543,1.3574228e-07,-0.003223550273105502,4.7081458e-06
1691.7333333321235,0.0001670746,-0.7855567,4.0205246e-05,-2.355391,9.334362e-05,1.5709884,0.786,0.04,0.04,-9.830624,0.0007875341107137501,0.006273635,6.7683686e-07,-0.0041281539015471935,1.2666524e-05
1691.7499999987901,0.00016718949,-0.7854668,4.0346637e-05,-2.3554652,9.3904346e-05,1.5709856,0.786,0.04,0.04,-9.829043,0.0009342508856207132,0.0050165877,2.2186437e-06,-0.00494930986315012,2.7296941e-05
1691.7666666654568,0.00016740909,-0.78538376,4.0611638e-05,-2.355532,9.495704e-05,1.5709826,0.786,0.04,0.039999995,-9.827379,0.0011144435266032815,0.003951879,4.940894e-06,-0.005693104583770037,5.118572e-05
1691.7833333321234,0.00016778155,-0.78530705,4.105602e-05,-2.3555932,9.6707554e-05,1.5709796,0.786,0.04,0.039999995,-9.82597,0.001331229810602963,0.0028968928,9.388956e-06,-0.006358894053846598,8.4403815e-05
1691.79999999879,0.00016836205,-0.785236,4.1743737e-05,-2.3556507,9.9392404e-05,1.5709764,0.7860019,0.04,0.04,-9.824639,0.0015768258599564433,0.0020087394,1.5919244e-05,-0.006955388933420181,0.00012847107
1691.8166666654568,0.00016921206,-0.78516966,4.274547e-05,-2.3557012,0.00010329819,1.570972,0.7860038,0.04,0.04,-9.823763,0.0018754415214061737,0.0011234423,1.7016873e-05,-0.007490790914744139,0.00018627418
1691.8333333321234,0.00017039875,-0.785108,4.4138756e-05,-2.355746,0.00010872414,1.5709653,0.78600574,0.04,0.04,-9.822444,0.002185953315347433,0.0003431728,2.141898e-05,-0.007958532311022282,0.00025814687
1691.84999999879,0.00017199425,-0.78505003,4.600637e-05,-2.355788,0.00011600279,1.5709583,0.78600955,0.04,0.039999995,-9.821488,0.002560683526098728,-0.0003615748,3.0242969e-05,-0.008367161266505718,0.00034587743
1691.8666666654567,0.00017407544,-0.7849952,4.843667e-05,-2.3558233,0.00012545333,1.5709478,0.78601336,0.04,0.04,-9.820734,0.0029222487937659025,-0.0010546132,3.5357978e-05,-0.00872141495347023,0.0004480742
1691.8833333321234,0.00017672256,-0.7849433,5.1522075e-05,-2.3558552,0.00013743775,1.5709364,0.7860191,0.04,0.04,-9.819751,0.003342469921335578,-0.0016786094,4.6502435e-05,-0.009020560421049595,0.0005670845
1691.89999999879,0.00018001937,-0.78489363,5.535849e-05,-2.3558824,0.0001523529,1.570922,0.7860267,0.04,0.039999995,-9.819153,0.003835185430943966,-0.0023384334,5.536467e-05,-0.009264206513762474,0.0007059993
1691.9166666654567,0.00018405299,-0.7848457,6.0045928e-05,-2.3559043,0.00017054756,1.5709038,0.78603536,0.039999995,0.04,-9.818416,0.004289098083972931,-0.0029020712,6.301229e-05,-0.009459600783884525,0.00085985404
1691.9333333321233,0.0001889123,-0.78479904,6.568654e-05,-2.3559234,0.00019243648,1.5708824,0.7860455,0.03999999,0.039999995,-9.817784,0.004853709600865841,-0.0034824007,7.43918e-05,-0.009606681764125824,0.001033963
1691.94999999879,0.00019468878,-0.7847532,7.2384995e-05,-2.3559358,0.00021842224,1.5708579,0.78605765,0.039999988,0.039999995,-9.817384,0.005387886427342892,-0.0040488956,8.8183115e-05,-0.009714825078845024,0.0012262854
1691.9666666654566,0.00020147544,-0.78470767,8.024812e-05,-2.3559446,0.0002489201,1.5708293,0.7860721,0.039999984,0.03999999,-9.81662,0.0060364119708538055,-0.0046598883,0.00010281702,-0.0097652031108737,0.0014388806
1691.9833333321233,0.00020936677,-0.78466207,8.938433e-05,-2.3559487,0.0002843488,1.5707959,0.78608894,0.03999998,0.039999988,-9.816233,0.00665196031332016,-0.0052242912,0.00011814787,-0.009777366183698177,0.0016711949
1691.99999999879,0.00021845842,-0.78461605,9.990322e-05,-2.3559475,0.00032513193,1.5707579,0.786108,0.03999997,0.03999998,-9.815828,0.00738441152498126,-0.005811792,0.00013403123,-0.009748092852532864,0.0019226002
1692.0166666654566,0.00022884688,-0.7845691,0.00011191548,-2.3559432,0.00037169814,1.5707152,0.7861299,0.03999996,0.039999973,-9.815301,0.00809226743876934,-0.006423834,0.00015257444,-0.009674719534814358,0.0021949785
1692.0333333321232,0.00024062922,-0.78452104,0.00012553237,-2.355932,0.0004244773,1.5706663,0.7861547,0.039999954,0.039999966,-9.815187,0.008924862369894981,-0.00707768,0.00017232794,-0.009567842818796635,0.0024875973
1692.0499999987899,0.0002539029,-0.7844714,0.00014086586,-2.3559163,0.00048390153,1.5706118,0.7861825,0.03999995,0.03999996,-9.814574,0.009721247479319572,-0.007718242,0.00019322935,-0.009415804408490658,0.002800532
1692.0666666654565,0.0002687656,-0.78441983,0.0001580278,-2.3558965,0.000550403,1.5705507,0.7862138,0.03999994,0.039999954,-9.814347,0.010666372254490852,-0.008418783,0.00021552324,-0.009228111244738102,0.0031329538
1692.0833333321232,0.0002853149,-0.78436595,0.00017713003,-2.3558702,0.0006244156,1.5704827,0.7862487,0.03999994,0.039999954,-9.8142,0.01157359965145588,-0.009151328,0.00023864544,-0.009010842069983482,0.0034865763
1692.0999999987898,0.00030364812,-0.78430927,0.00019828422,-2.3558388,0.0007063705,1.5704076,0.7862872,0.03999994,0.039999954,-9.813786,0.012643920257687569,-0.009942307,0.00026286824,-0.008753043599426746,0.003860486
1692.1166666654565,0.0003238625,-0.78424984,0.00022160198,-2.3558016,0.00079669745,1.5703249,0.78632957,0.03999994,0.039999958,-9.813589,0.013657627627253532,-0.010789946,0.00028848468,-0.008464287035167217,0.00425374
1692.1333333321231,0.00034605438,-0.784187,0.00024719394,-2.3557594,0.00089582545,1.5702343,0.78637606,0.039999943,0.03999996,-9.813331,0.014803634025156498,-0.011668647,0.00031579743,-0.008141038939356804,0.004667949
1692.1499999987898,0.0003703198,-0.7841206,0.00027517002,-2.355711,0.0010041796,1.5701354,0.78642696,0.039999954,0.039999973,-9.813263,0.01607430726289749,-0.012635895,0.00034401694,-0.007789841387420893,0.0051021213
1692.1666666654564,0.0003967539,-0.78405035,0.00030563973,-2.3556561,0.0011221817,1.5700271,0.7864823,0.039999958,0.03999998,-9.813015,0.017285650596022606,-0.013657586,0.00037319367,-0.007406963501125574,0.005555212
1692.183333332123,0.0004254512,-0.783976,0.00033871096,-2.3555956,0.0012502501,1.56991,0.78654236,0.03999996,0.039999984,-9.812817,0.01871284283697605,-0.014742537,0.0004039449,-0.006994061172008514,0.006028752
1692.1999999987897,0.0004565048,-0.7838973,0.0003744909,-2.3555284,0.0013887981,1.5697834,0.78660727,0.039999966,0.03999999,-9.8127,0.020068589597940445,-0.01592158,0.0004352335,-0.0065527418628335,0.006520822
1692.2166666654564,0.00049000717,-0.7838138,0.00041308554,-2.355455,0.0015382359,1.5696468,0.7866773,0.03999996,0.039999988,-9.8125305,0.021661892533302307,-0.017160267,0.00046824172,-0.006081948056817055,0.0070328945
1692.233333332123,0.00052604947,-0.7837255,0.00045459965,-2.3553748,0.0016989671,1.5695002,0.78675264,0.03999996,0.03999999,-9.812464,0.023169752210378647,-0.018504594,0.00050193747,-0.005587317049503326,0.007562997
1692.2499999987897,0.0005647215,-0.7836319,0.0004991363,-2.355288,0.0018713919,1.5693429,0.7868335,0.03999996,0.03999999,-9.812314,0.024937039241194725,-0.019924827,0.0005364245,-0.005063205491751432,0.008112586
1692.2666666654563,0.00060611207,-0.7835327,0.00054679735,-2.355194,0.0020559025,1.5691743,0.7869201,0.039999958,0.03999999,-9.81224,0.02661595121026039,-0.021454956,0.00057151314,-0.004515528678894043,0.008679658
1692.283333332123,0.00065030844,-0.78342766,0.00059768325,-2.3550928,0.002252886,1.5689944,0.7870124,0.039999954,0.03999999,-9.812149,0.028559856116771698,-0.023076601,0.00060729607,-0.003943714313209057,0.009264768
1692.2999999987896,0.0006973967,-0.7833168,0.00065189245,-2.3549843,0.0024627254,1.5688027,0.78711087,0.03999995,0.039999988,-9.812029,0.030430268496274948,-0.024812827,0.0006438757,-0.0033475954551249743,0.009868472
1692.3166666654563,0.00074746145,-0.7831999,0.0007095223,-2.3548682,0.0026857955,1.5685989,0.7872154,0.039999943,0.03999998,-9.811979,0.0325736477971077,-0.026626749,0.00068080804,-0.0027280282229185104,0.010489561
1692.333333332123,0.0008005855,-0.78307694,0.0007706679,-2.3547442,0.0029224632,1.5683829,0.78732634,0.03999994,0.03999998,-9.811858,0.03462691605091095,-0.02856345,0.0007187439,-0.00208534044213593,0.011126864
1692.3499999987896,0.00085685047,-0.78294677,0.00083542295,-2.354612,0.0031730912,1.5681539,0.7874438,0.039999936,0.039999977,-9.811741,0.0369829386472702,-0.030591661,0.0007572497,-0.0014165275497362018,0.011781748
1692.3666666654563,0.0009163367,-0.7828102,0.0009038794,-2.354472,0.0034380339,1.567912,0.78756815,0.03999994,0.039999984,-9.811692,0.03923578932881355,-0.032808732,0.0007958696,-0.000729113700799644,0.012452148
1692.383333332123,0.0009791218,-0.78266627,0.000976127,-2.354324,0.0037176388,1.5676568,0.7876993,0.03999994,0.039999988,-9.811597,0.04169859737157822,-0.035060667,0.0008344632,-1.855325717770029e-05,0.013138558
1692.3999999987896,0.0010452829,-0.7825156,0.0010522541,-2.3541684,0.0040122466,1.5673877,0.7878374,0.03999994,0.03999999,-9.811635,0.044384412467479706,-0.037493598,0.0008733927,0.0007089912542141974,0.0138406
1692.4166666654562,0.0011148956,-0.78235734,0.0011323473,-2.3540046,0.0043221945,1.5671049,0.78798264,0.03999994,0.04,-9.811571,0.04696207493543625,-0.040017072,0.00091275026,0.0014570653438568115,0.014557052
1692.4333333321229,0.001188033,-0.78219146,0.0012164905,-2.3538315,0.0046478035,1.5668077,0.7881353,0.03999994,0.039999995,-9.811619,0.049895573407411575,-0.042699583,0.0009524037,0.0022213677875697613,0.015290955
1692.4499999987895,0.0012647669,-0.7820178,0.0013047669,-2.353649,0.004989392,1.5664958,0.7882954,0.039999936,0.039999995,-9.811457,0.05268595367670059,-0.04552464,0.0009916476,0.003007259452715516,0.016036693
1692.4666666654562,0.0013451674,-0.7818362,0.0013972564,-2.3534575,0.0053472756,1.566169,0.7884632,0.03999993,0.03999999,-9.81129,0.055852532386779785,-0.048459068,0.0010311285,0.0038154805079102516,0.016797477
1692.4833333321228,0.0014293027,-0.78164643,0.0014940377,-2.353257,0.0057217577,1.5658271,0.7886388,0.039999925,0.039999995,-9.811292,0.05890681967139244,-0.051556777,0.0010698332,0.004639012273401022,0.017572032
1692.4999999987895,0.0015172396,-0.78144854,0.0015951874,-2.3530478,0.006113148,1.5654701,0.78882235,0.03999993,0.039999995,-9.81122,0.06232620030641556,-0.054771997,0.0011084544,0.005480981431901455,0.018361447
1692.5166666654561,0.0016090429,-0.7812421,0.0017007806,-2.3528283,0.006521699,1.565097,0.78901386,0.039999925,0.04,-9.811243,0.06560509651899338,-0.058167145,0.001145983,0.0063379984349012375,0.019160416
1692.5333333321228,0.0017047757,-0.78102684,0.0018108896,-2.3525991,0.006947709,1.5647082,0.7892136,0.039999925,0.04,-9.811048,0.06928716599941254,-0.061682217,0.0011839124,0.007214422803372145,0.019973598
1692.5499999987894,0.0018045001,-0.7808032,0.0019255851,-2.352361,0.007391451,1.5643033,0.7894216,0.03999992,0.039999995,-9.811002,0.07285485416650772,-0.06539112,0.0012207398,0.00810684822499752,0.020801447
1692.566666665456,0.0019082755,-0.7805706,0.0020449357,-2.3521137,0.007853194,1.5638816,0.78963816,0.039999917,0.04,-9.8110075,0.07677076756954193,-0.06917976,0.0012572602,0.009012718684971333,0.021635855
1692.5833333321227,0.0020161597,-0.780329,0.0021690081,-2.3518553,0.008333204,1.5634434,0.78986317,0.039999917,0.04,-9.810998,0.0806095153093338,-0.073191434,0.0012922997,0.009930765256285667,0.022484872
1692.5999999987894,0.0021282092,-0.7800782,0.002297867,-2.3515873,0.008831726,1.5629884,0.790097,0.03999991,0.04,-9.810792,0.08483061194419861,-0.07733451,0.0013268162,0.010868747718632221,0.023344703
1692.616666665456,0.0022444786,-0.7798181,0.0024315757,-2.3513095,0.009348989,1.5625163,0.7903395,0.039999906,0.04,-9.810783,0.08891263604164124,-0.081671655,0.0013597434,0.01181803084909916,0.024213305
1692.6333333321227,0.0023650199,-0.7795486,0.002570194,-2.3510208,0.009885238,1.562027,0.790591,0.039999902,0.04,-9.810705,0.0932900458574295,-0.0861557,0.0013917491,0.012781163677573204,0.025093574
1692.6499999987893,0.002489884,-0.7792695,0.002713781,-2.350722,0.010440682,1.5615196,0.7908514,0.0399999,0.04,-9.810562,0.09793271869421005,-0.09079522,0.0014224336,0.01376026775687933,0.025981791
1692.666666665456,0.0026191208,-0.7789808,0.0028623939,-2.3504121,0.011015547,1.5609951,0.79112095,0.039999895,0.04,-9.8105345,0.10244562476873398,-0.09561904,0.0014517831,0.014747655019164085,0.026879266
1692.6833333321226,0.0027527781,-0.7786824,0.0030160856,-2.350092,0.011610055,1.5604525,0.7913997,0.039999895,0.04,-9.810329,0.10739025473594666,-0.10060388,0.0014797467,0.015753738582134247,0.027786314
1692.6999999987893,0.0028909019,-0.77837396,0.003174909,-2.3497615,0.012224405,1.5598917,0.7916878,0.03999989,0.04,-9.810251,0.11219590902328491,-0.105782054,0.0015060486,0.01677028462290764,0.028701669
1692.716666665456,0.0030335344,-0.7780556,0.0033389155,-2.349419,0.0128588155,1.5593127,0.79198515,0.03999989,0.04,-9.810209,0.11745710670948029,-0.111117855,0.0015305182,0.017795315012335777,0.02962741
1692.7333333321226,0.0031807201,-0.7777273,0.0035081545,-2.3490667,0.013513425,1.5587152,0.792292,0.039999887,0.04,-9.809923,0.12252473831176758,-0.1166569,0.0015533195,0.018837977200746536,0.030555626
1692.7499999987892,0.0033324985,-0.77738863,0.003682672,-2.3487024,0.0141884405,1.5580992,0.7926085,0.03999988,0.04,-9.80991,0.12809187173843384,-0.12231971,0.0015744464,0.019887428730726242,0.031493507
1692.766666665456,0.003488909,-0.7770398,0.0038625128,-2.3483279,0.014884037,1.5574642,0.79293454,0.039999872,0.04,-9.809647,0.13348861038684845,-0.12823854,0.0015929574,0.02095114253461361,0.032438047
1692.7833333321225,0.0036499882,-0.7766807,0.0040477198,-2.3479412,0.015600373,1.5568104,0.79327035,0.039999872,0.04,-9.809585,0.13935022056102753,-0.13428552,0.0016099875,0.02202237956225872,0.033388793
1692.7999999987892,0.0038157727,-0.7763111,0.0042383354,-2.3475437,0.016337615,1.5561376,0.793616,0.039999865,0.04,-9.809296,0.14505286514759064,-0.14055094,0.0016243192,0.023106999695301056,0.03434539
1692.8166666654558,0.0039862953,-0.77593106,0.0044343974,-2.3471344,0.01709591,1.5554454,0.7939715,0.03999987,0.04,-9.809173,0.15123189985752106,-0.14698124,0.0016359993,0.02419986017048359,0.035308238
1692.8333333321225,0.004161587,-0.7755404,0.0046359417,-2.3467143,0.017875405,1.5547341,0.79433674,0.03999986,0.04,-9.808896,0.15724532306194305,-0.15361205,0.0016453842,0.02530479244887829,0.03627523
1692.8499999987891,0.0043416796,-0.7751391,0.0048430045,-2.3462818,0.018676206,1.554003,0.79471225,0.03999986,0.04,-9.808751,0.1637232005596161,-0.160425,0.0016528049,0.026416731998324394,0.037245195
1692.8666666654558,0.0045266035,-0.7747271,0.0050556185,-2.3458378,0.01949849,1.5532523,0.7950978,0.039999858,0.04,-9.808438,0.17007040977478027,-0.16744514,0.0016561934,0.027539348229765892,0.038222637
1692.8833333321224,0.004716384,-0.7743043,0.005273815,-2.3453822,0.020342343,1.552482,0.7954934,0.039999854,0.04,-9.808173,0.17670351266860962,-0.17464463,0.0016567535,0.02867080084979534,0.039201304
1692.899999998789,0.004911047,-0.77387047,0.005497623,-2.3449154,0.021207882,1.551692,0.79589915,0.03999985,0.04,-9.807946,0.18367882072925568,-0.18204048,0.001654754,0.029809826985001564,0.040184222
1692.9166666654558,0.0051106163,-0.7734259,0.005727072,-2.3444366,0.022095218,1.550882,0.7963152,0.039999846,0.04,-9.807725,0.19048437476158142,-0.1896691,0.0016497248,0.030954459682106972,0.041170117
1692.9333333321224,0.005315114,-0.7729704,0.005962187,-2.343946,0.023004457,1.550052,0.7967415,0.039999843,0.04,-9.807402,0.19778189063072205,-0.19744222,0.0016410073,0.032107267528772354,0.042159338
1692.949999998789,0.005524561,-0.7725037,0.006202992,-2.3434434,0.02393568,1.5492023,0.79717815,0.039999846,0.04,-9.807051,0.2049025297164917,-0.20545821,0.0016291627,0.033268850296735764,0.043150008
1692.9666666654557,0.0057389764,-0.7720261,0.006449509,-2.342929,0.024889005,1.548332,0.7976251,0.03999984,0.04,-9.806709,0.2125244289636612,-0.21365738,0.0016132223,0.034438226372003555,0.04414308
1692.9833333321224,0.0059583774,-0.7715374,0.0067017577,-2.3424022,0.025864467,1.5474418,0.7980824,0.039999835,0.04,-9.806332,0.219963937997818,-0.22204715,0.0015940587,0.03561333566904068,0.04513589
1692.999999998789,0.0061827824,-0.77103764,0.006959756,-2.3418636,0.02686215,1.5465311,0.7985501,0.03999984,0.04,-9.805943,0.22791090607643127,-0.23064055,0.0015717845,0.03679659962654114,0.046130486
1693.0166666654557,0.006412204,-0.77052677,0.007223524,-2.3413136,0.02788213,1.5456004,0.7990284,0.039999835,0.04,-9.805512,0.23568189144134521,-0.23945406,0.0015453742,0.03798532858490944,0.047126424
1693.0333333321223,0.006646655,-0.77000445,0.007493072,-2.3407512,0.02892446,1.544649,0.79951704,0.039999828,0.04,-9.805174,0.24394668638706207,-0.24846753,0.001514528,0.03917885944247246,0.04812171
1693.049999998789,0.006886148,-0.76947105,0.0077684172,-2.3401763,0.02998917,1.5436772,0.8000162,0.039999828,0.04,-9.804697,0.25204312801361084,-0.25770918,0.001480218,0.04037628695368767,0.04911683
1693.0666666654556,0.0071306922,-0.7689266,0.008049567,-2.3395896,0.031076323,1.5426847,0.8005259,0.03999982,0.04,-9.804133,0.2606346309185028,-0.26711208,0.0014418232,0.04158265143632889,0.05011137
1693.0833333321223,0.007380294,-0.7683709,0.008336537,-2.3389904,0.032185957,1.5416721,0.8010461,0.039999828,0.04,-9.803663,0.2690586745738983,-0.2767367,0.0013992937,0.04279197007417679,0.051105678
1693.099999998789,0.0076349624,-0.76780385,0.0086293295,-2.3383791,0.033318102,1.5406389,0.8015768,0.039999824,0.04,-9.803068,0.2779726982116699,-0.28657165,0.0013525048,0.044009581208229065,0.052097883
1693.1166666654556,0.007894702,-0.76722544,0.008927953,-2.3377554,0.034472775,1.5395852,0.8021182,0.03999982,0.04,-9.802512,0.2867119014263153,-0.29663664,0.0013014716,0.04523082450032234,0.053088244
1693.1333333321222,0.008159519,-0.7666358,0.009232411,-2.3371196,0.035649993,1.538511,0.80267006,0.039999817,0.04,-9.801862,0.29577872157096863,-0.30689833,0.0012455109,0.04645850881934166,0.054076508
1693.1499999987889,0.008429414,-0.76603496,0.00954271,-2.3364716,0.03684977,1.5374159,0.80323255,0.039999813,0.04,-9.801256,0.3051854968070984,-0.31735215,0.0011852204,0.047689326107501984,0.055062328
1693.1666666654555,0.00870439,-0.7654227,0.00985885,-2.3358116,0.03807211,1.5363003,0.8038056,0.039999817,0.04,-9.800548,0.3144095242023468,-0.3280146,0.0011202245,0.048924095928668976,0.056046024
1693.1833333321222,0.008984439,-0.76479924,0.010180827,-2.3351398,0.039317,1.535164,0.8043892,0.039999817,0.04,-9.799931,0.3241380453109741,-0.33891132,0.001050394,0.0501597635447979,0.057025902
1693.1999999987888,0.009269566,-0.7641646,0.0105086425,-2.3344553,0.040584464,1.5340073,0.8049833,0.03999981,0.04,-9.799219,0.3336719572544098,-0.35001203,0.0009758603,0.05139777064323425,0.058002096
1693.2166666654555,0.009559768,-0.7635187,0.010842291,-2.3337588,0.041874472,1.5328299,0.80558807,0.039999805,0.04,-9.798354,0.34371861815452576,-0.36131525,0.00089670735,0.05264316871762276,0.058974255
1693.2333333321221,0.0098550385,-0.76286143,0.011181767,-2.3330507,0.043186985,1.531632,0.8062033,0.03999981,0.04,-9.7976055,0.35358139872550964,-0.37284872,0.00081239035,0.05388826131820679,0.05994242
1693.2499999987888,0.010155371,-0.76219285,0.011527067,-2.3323295,0.044521995,1.5304133,0.80682915,0.0399998,0.04,-9.796812,0.3639414310455322,-0.38458216,0.0007229027,0.055133670568466187,0.06090652
1693.2666666654554,0.010460761,-0.761513,0.011878184,-2.3315969,0.04587946,1.5291744,0.80746555,0.039999798,0.04,-9.795808,0.3741037845611572,-0.39654672,0.00062841503,0.056384455412626266,0.061864827
1693.283333332122,0.010771199,-0.7608218,0.012235105,-2.3308518,0.04725934,1.5279149,0.8081125,0.039999798,0.04,-9.794941,0.38478559255599976,-0.4087153,0.00052835327,0.05763659626245499,0.062817894
1693.2999999987887,0.011086675,-0.7601194,0.012597819,-2.3300946,0.048661593,1.5266353,0.8087699,0.039999798,0.04,-9.793968,0.39526066184043884,-0.4211101,0.000422802,0.05888902395963669,0.06376525
1693.3166666654554,0.011407175,-0.7594059,0.01296631,-2.329326,0.050086178,1.525335,0.8094379,0.039999794,0.04,-9.792952,0.40625420212745667,-0.43370882,0.00031250002,0.060144565999507904,0.06470736
1693.333333332122,0.011732687,-0.7586813,0.013340569,-2.3285441,0.051533025,1.5240147,0.81011605,0.03999979,0.04,-9.791944,0.41702744364738464,-0.4465028,0.00019569224,0.06139792501926422,0.06564247
1693.3499999987887,0.012063201,-0.7579454,0.013720576,-2.3277507,0.053002074,1.5226736,0.8108047,0.039999794,0.04,-9.790685,0.42831504344940186,-0.45952368,7.4811855e-05,0.06265932321548462,0.06657085
1693.3666666654553,0.012398698,-0.7571986,0.014106315,-2.3269458,0.054493263,1.5213127,0.81150407,0.03999979,0.04,-9.789599,0.43940022587776184,-0.47275954,-5.1821324e-05,0.06391645222902298,0.0674922
1693.383333332122,0.012739165,-0.7564406,0.01449777,-2.3261282,0.056006536,1.5199317,0.81221336,0.039999787,0.04,-9.788466,0.4508202373981476,-0.4862064,-0.00018563659,0.06517336517572403,0.06840629
1693.3999999987886,0.01308458,-0.7556716,0.014894916,-2.3252995,0.057541784,1.5185302,0.8129333,0.039999783,0.04,-9.787105,0.4625554084777832,-0.49987233,-0.00032278482,0.06643373519182205,0.06931358
1693.4166666654553,0.013434926,-0.7548917,0.015297735,-2.3244584,0.059098937,1.5171093,0.813663,0.039999772,0.04,-9.785879,0.47408410906791687,-0.5137378,-0.00046786774,0.0676904171705246,0.07021214
1693.433333332122,0.013790183,-0.75410086,0.015706202,-2.3236063,0.060677882,1.5156686,0.81440353,0.03999978,0.04,-9.784428,0.4861118793487549,-0.5278302,-0.0006155133,0.06895142048597336,0.0711025
1693.4499999987886,0.014150331,-0.7532991,0.016120294,-2.322742,0.06227856,1.5142066,0.81515425,0.039999776,0.04,-9.783155,0.4979379177093506,-0.5421383,-0.0007722704,0.07020790129899979,0.07198431
1693.4666666654553,0.014515342,-0.75248677,0.01653999,-2.3218663,0.06390086,1.5127255,0.81591475,0.039999764,0.04,-9.781633,0.5102503895759583,-0.55662024,-0.0009344901,0.0714595839381218,0.07285814
1693.483333332122,0.014885198,-0.75166345,0.016965257,-2.3209782,0.065544665,1.5112251,0.8166854,0.03999978,0.04,-9.780107,0.522348940372467,-0.5713452,-0.001100989,0.07271244376897812,0.07372128
1693.4999999987886,0.015259875,-0.75082946,0.01739606,-2.3200793,0.06720984,1.5097051,0.81746596,0.03999979,0.04,-9.778434,0.5349372625350952,-0.5863038,-0.001273341,0.0739685446023941,0.07457497
1693.5166666654552,0.015639342,-0.7499848,0.017832378,-2.319168,0.06889632,1.5081657,0.8182566,0.039999798,0.04,-9.776895,0.5473381876945496,-0.60144013,-0.0014514114,0.07521860301494598,0.07541988
1693.5333333321219,0.016023574,-0.74912953,0.018274179,-2.3182461,0.07060399,1.5066069,0.8190572,0.03999979,0.04,-9.775074,0.5601950287818909,-0.6167983,-0.0016353553,0.07647165656089783,0.076254524
1693.5499999987885,0.016412543,-0.7482633,0.018721426,-2.3173127,0.07233266,1.5050294,0.81986755,0.039999794,0.04,-9.77339,0.5728580951690674,-0.632349,-0.0018254843,0.07771869003772736,0.07707906
1693.5666666654552,0.016806222,-0.7473871,0.019174092,-2.3163676,0.07408226,1.5034329,0.8206878,0.03999979,0.04,-9.771567,0.5859863758087158,-0.6481832,-0.0020209528,0.07896455377340317,0.07789301
1693.5833333321218,0.017204575,-0.74650055,0.019632138,-2.3154118,0.07585261,1.5018171,0.82151777,0.039999794,0.04,-9.769599,0.5989025831222534,-0.6641038,-0.002222271,0.08021095395088196,0.07869624
1693.5999999987885,0.017607579,-0.74560326,0.020095535,-2.3144445,0.077643596,1.5001825,0.8223574,0.03999979,0.04,-9.767662,0.6122971773147583,-0.6802877,-0.00242981,0.08145260810852051,0.079488434
1693.616666665455,0.01801519,-0.74469554,0.020564228,-2.3134665,0.07945504,1.4985293,0.8232067,0.039999794,0.04,-9.765642,0.6254830360412598,-0.6967017,-0.0026430734,0.08268988132476807,0.080270045
1693.6333333321218,0.018427376,-0.7437779,0.021038193,-2.3124778,0.08128685,1.4968575,0.8240655,0.03999979,0.04,-9.763583,0.6389554142951965,-0.71331203,-0.002862691,0.08392254263162613,0.0810395
1693.6499999987884,0.018844109,-0.7428502,0.021517383,-2.3114772,0.08313881,1.4951673,0.82493377,0.03999979,0.04,-9.761433,0.652728796005249,-0.7301138,-0.0030878715,0.08515062183141708,0.08179712
1693.666666665455,0.01926535,-0.7419124,0.02200177,-2.3104663,0.0850108,1.4934587,0.82581145,0.039999783,0.04,-9.759042,0.6662672162055969,-0.74709034,-0.0033185612,0.08638065308332443,0.08254259
1693.6833333321217,0.019691063,-0.74096465,0.022491297,-2.3094444,0.08690263,1.4917321,0.8266984,0.039999783,0.04,-9.7568035,0.6802804470062256,-0.7643042,-0.00355539,0.08760262280702591,0.0832766
1693.6999999987884,0.020121206,-0.740007,0.022985924,-2.3084126,0.08881415,1.4899876,0.8275946,0.03999978,0.04,-9.75435,0.694061815738678,-0.7816998,-0.0037976287,0.08882308006286621,0.08399737
1693.716666665455,0.020555742,-0.73903966,0.02348561,-2.3073702,0.09074518,1.488225,0.8285,0.03999978,0.04,-9.75199,0.7083154916763306,-0.79933757,-0.004045751,0.09003455191850662,0.08470556
1693.7333333321217,0.020994633,-0.7380627,0.023990305,-2.3063166,0.09269552,1.486445,0.82941437,0.03999978,0.04,-9.749414,0.7223283052444458,-0.8171073,-0.004300104,0.0912415087223053,0.08540074
1693.7499999987883,0.021437837,-0.7370761,0.024499966,-2.3052533,0.09466503,1.4846474,0.83033776,0.03999978,0.04,-9.7467,0.7367883324623108,-0.8351279,-0.004559403,0.09244681149721146,0.08608279
1693.766666665455,0.021885319,-0.73607993,0.025014542,-2.3041794,0.09665348,1.4828327,0.83127,0.03999978,0.04,-9.744054,0.7510366439819336,-0.85330915,-0.00482459,0.09364478290081024,0.08675224
1693.7833333321216,0.022337023,-0.73507446,0.025533985,-2.3030953,0.0986607,1.4810008,0.83221114,0.03999978,0.04,-9.741225,0.7657088041305542,-0.87170714,-0.0050947783,0.09483794122934341,0.08740758
1693.7999999987883,0.022792913,-0.73405963,0.026058251,-2.302002,0.10068651,1.4791517,0.8331609,0.03999977,0.04,-9.738343,0.7801613211631775,-0.89026934,-0.0053710015,0.09602651000022888,0.088048995
1693.816666665455,0.023252945,-0.7330356,0.026587278,-2.3008978,0.10273071,1.477286,0.8341192,0.03999977,0.04,-9.735452,0.7950480580329895,-0.9090755,-0.005652482,0.09720522910356522,0.08867671
1693.8333333321216,0.023717074,-0.7320024,0.027121026,-2.2997842,0.10479307,1.4754035,0.8350862,0.039999776,0.04,-9.732319,0.8097101449966431,-0.92800397,-0.005939012,0.09838095307350159,0.089290835
1693.8499999987882,0.024185253,-0.7309603,0.027659437,-2.2986612,0.10687345,1.473505,0.83606166,0.03999977,0.04,-9.729225,0.8247883319854736,-0.9471849,-0.0062315357,0.09954804927110672,0.089890026
1693.8666666654549,0.024657436,-0.72990924,0.02820245,-2.2975283,0.10897157,1.47159,0.8370455,0.03999976,0.04,-9.726031,0.839645504951477,-0.9664961,-0.006529394,0.1007087230682373,0.0904746
1693.8833333321215,0.02513357,-0.7288494,0.02875002,-2.2963855,0.11108725,1.469659,0.8380375,0.039999772,0.04,-9.722676,0.8547518849372864,-0.9860245,-0.0068325717,0.10186336934566498,0.09104539
1693.8999999987882,0.02561361,-0.72778094,0.029302081,-2.2952337,0.11322026,1.4677124,0.8390375,0.03999976,0.04,-9.719225,0.8700923323631287,-1.0057371,-0.00714024,0.10301121324300766,0.09160055
1693.9166666654548,0.026097506,-0.7267038,0.029858582,-2.2940724,0.115370385,1.4657496,0.84004563,0.039999757,0.04,-9.7157755,0.8852384090423584,-1.0256003,-0.0074523203,0.10415145754814148,0.09214092
1693.9333333321215,0.026585205,-0.72561824,0.03041947,-2.292902,0.1175374,1.4637717,0.84106153,0.03999976,0.04,-9.71216,0.9007590413093567,-1.0456688,-0.0077701025,0.1052820011973381,0.09266684
1693.9499999987881,0.027076654,-0.7245243,0.030984676,-2.2917225,0.11972105,1.4617783,0.8420854,0.03999976,0.04,-9.708477,0.9160576462745667,-1.0658969,-0.008091846,0.10640635341405869,0.09317685
1693.9666666654548,0.027571809,-0.72342217,0.031554148,-2.2905345,0.12192114,1.4597702,0.84311694,0.039999757,0.04,-9.704674,0.9317446351051331,-1.0863304,-0.008419331,0.10752107948064804,0.093671575
1693.9833333321214,0.028070608,-0.7223118,0.03212782,-2.2893376,0.124137394,1.4577475,0.8441561,0.03999976,0.04,-9.700854,0.9472136497497559,-1.1068907,-0.008750918,0.10862722247838974,0.09415077
1693.999999998788,0.028573003,-0.72119355,0.032705635,-2.288132,0.12636964,1.4557098,0.84520274,0.039999757,0.04,-9.696861,0.9630568027496338,-1.1276892,-0.009087171,0.10972443222999573,0.09461514
1694.0166666654547,0.029078944,-0.7200673,0.03328753,-2.2869182,0.12861755,1.453658,0.8462568,0.039999753,0.04,-9.692764,0.9786720275878906,-1.1485628,-0.009428109,0.11081333458423615,0.095062956
1694.0333333321214,0.029588364,-0.7189333,0.033873435,-2.2856958,0.130881,1.4515921,0.847318,0.039999746,0.04,-9.688605,0.9946519136428833,-1.1697005,-0.009773388,0.11189180612564087,0.09549511
1694.049999998788,0.030101215,-0.7177916,0.03446329,-2.2844658,0.13315964,1.4495121,0.84838647,0.039999753,0.04,-9.684355,1.0104215145111084,-1.1909299,-0.0101225395,0.11296054720878601,0.09591191
1694.0666666654547,0.030617448,-0.7166424,0.035057034,-2.2832277,0.13545324,1.4474187,0.84946185,0.039999753,0.04,-9.680026,1.0265346765518188,-1.2123834,-0.010476382,0.11401611566543579,0.09631207
1694.0833333321214,0.03113699,-0.7154859,0.0356546,-2.2819812,0.13776152,1.4453118,0.8505441,0.039999746,0.04,-9.675569,1.042433500289917,-1.2339494,-0.010833961,0.11506237834692001,0.09669549
1694.099999998788,0.03165979,-0.7143221,0.03625592,-2.280727,0.14008427,1.4431918,0.8516332,0.03999975,0.04,-9.670873,1.0586626529693604,-1.2556982,-0.011194911,0.11610151082277298,0.097064674
1694.1166666654547,0.032185793,-0.71315116,0.036860928,-2.2794647,0.1424212,1.4410588,0.85272896,0.039999742,0.04,-9.666224,1.0746699571609497,-1.2775517,-0.011559697,0.11712928116321564,0.09741493
1694.1333333321213,0.032714933,-0.71197325,0.03746957,-2.2781951,0.14477202,1.438913,0.8538311,0.039999742,0.04,-9.66141,1.0908876657485962,-1.2995936,-0.011928377,0.11814691871404648,0.09775022
1694.149999998788,0.033247158,-0.71078855,0.038081743,-2.2769184,0.14713658,1.4367545,0.85493964,0.03999974,0.04,-9.656501,1.1072942018508911,-1.3218108,-0.012299628,0.11915302276611328,0.0980707
1694.1666666654546,0.0337824,-0.7095971,0.038697407,-2.2756345,0.1495145,1.4345841,0.8560548,0.039999742,0.04,-9.651542,1.1234813928604126,-1.3441061,-0.012674187,0.12014545500278473,0.0983737
1694.1833333321213,0.034320608,-0.7083992,0.039316475,-2.2743433,0.15190557,1.4324014,0.85717577,0.03999974,0.04,-9.646401,1.1399760246276855,-1.3666383,-0.013053763,0.12112805992364883,0.09866027
1694.199999998788,0.034861714,-0.70719475,0.039938897,-2.273045,0.15430951,1.4302069,0.85830283,0.039999735,0.04,-9.641149,1.1562374830245972,-1.3892009,-0.013434348,0.1220988780260086,0.09892891
1694.2166666654546,0.035405643,-0.70598376,0.04056458,-2.2717397,0.156726,1.4280009,0.85943586,0.039999727,0.04,-9.635808,1.1728209257125854,-1.4120048,-0.013818068,0.12305702269077301,0.09918146
1694.2333333321212,0.035952356,-0.7047667,0.04119346,-2.2704277,0.15915474,1.4257836,0.86057466,0.039999716,0.04,-9.630374,1.1891831159591675,-1.434877,-0.014204832,0.12400220334529877,0.099415556
1694.2499999987879,0.036501773,-0.7035437,0.04182547,-2.2691088,0.16159551,1.4235561,0.8617192,0.03999971,0.04,-9.624763,1.205827236175537,-1.4579375,-0.014594227,0.12493595480918884,0.09963387
1694.2666666654545,0.03705383,-0.7023148,0.042460527,-2.2677839,0.16404805,1.4213173,0.86286914,0.039999705,0.04,-9.61906,1.2222726345062256,-1.4810468,-0.014986077,0.1258622407913208,0.09983527
1694.2833333321212,0.03760848,-0.7010801,0.043098565,-2.2664535,0.16651198,1.4190685,0.8640246,0.039999705,0.04,-9.613306,1.2390083074569702,-1.5043662,-0.015379819,0.12677182257175446,0.100022666
1694.2999999987878,0.038165636,-0.69983983,0.0437395,-2.265117,0.16898711,1.4168091,0.8651852,0.039999697,0.04,-9.607534,1.2555365562438965,-1.5277598,-0.01577693,0.12766526639461517,0.10019323
1694.3166666654545,0.038725246,-0.6985942,0.044383276,-2.2637744,0.17147301,1.4145397,0.8663507,0.039999694,0.04,-9.601478,1.2722725868225098,-1.5513107,-0.016175818,0.1285448670387268,0.10034347
1694.3333333321211,0.03928723,-0.6973432,0.045029797,-2.262426,0.17396957,1.4122609,0.86752135,0.03999969,0.04,-9.595372,1.2888625860214233,-1.5749056,-0.016575182,0.12941114604473114,0.10047996
1694.3499999987878,0.039851543,-0.6960869,0.045678996,-2.2610717,0.1764764,1.4099728,0.8686968,0.03999969,0.04,-9.589088,1.305676817893982,-1.5987355,-0.01697705,0.13026557862758636,0.10060051
1694.3666666654544,0.040418115,-0.69482565,0.046330795,-2.2597132,0.1789932,1.4076754,0.8698769,0.039999686,0.04,-9.5827265,1.3222659826278687,-1.6225581,-0.01737996,0.1311066448688507,0.1007008
1694.383333332121,0.040986873,-0.6935597,0.046985116,-2.258348,0.18151967,1.405369,0.8710616,0.039999682,0.04,-9.576441,1.33906090259552,-1.6465577,-0.01778503,0.13192665576934814,0.100788735
1694.3999999987877,0.041557755,-0.69228894,0.047641877,-2.2569778,0.18405549,1.403054,0.8722506,0.03999968,0.04,-9.569623,1.3558648824691772,-1.6706431,-0.018190373,0.1327395886182785,0.10085814
1694.4166666654544,0.042130675,-0.69101393,0.048301022,-2.2556036,0.18660039,1.4007308,0.87344396,0.039999664,0.04,-9.563007,1.372532844543457,-1.6948055,-0.018596012,0.13353486359119415,0.100909114
1694.433333332121,0.042705577,-0.6897341,0.048962444,-2.2542248,0.18915403,1.3983997,0.87464136,0.03999966,0.04,-9.556244,1.389427661895752,-1.7191228,-0.019003553,0.1343139111995697,0.100945204
1694.4499999987877,0.043282397,-0.6884499,0.049626082,-2.252842,0.19171616,1.396061,0.87584287,0.039999656,0.04,-9.549407,1.4061410427093506,-1.7435082,-0.019411473,0.13507507741451263,0.100966446
1694.4666666654543,0.04386105,-0.6871618,0.050291833,-2.2514524,0.19428648,1.3937148,0.8770482,0.039999653,0.04,-9.542425,1.423031210899353,-1.7680719,-0.019821458,0.13581781089305878,0.1009704
1694.483333332121,0.044441484,-0.68586993,0.050959643,-2.2500591,0.19686463,1.3913611,0.8782572,0.039999653,0.04,-9.535002,1.4396884441375732,-1.7925268,-0.020229237,0.13655616343021393,0.10095745
1694.4999999987876,0.045023628,-0.68457425,0.051629428,-2.248662,0.19945043,1.3890005,0.8794697,0.03999965,0.04,-9.527746,1.4565740823745728,-1.8171952,-0.020637317,0.13727621734142303,0.100929216
1694.5166666654543,0.045607403,-0.6832749,0.05230111,-2.2472606,0.20204341,1.3866335,0.8806855,0.03999965,0.04,-9.520471,1.47328782081604,-1.8418912,-0.021045418,0.13797728717327118,0.100883745
1694.533333332121,0.04619273,-0.68197197,0.0529746,-2.2458556,0.2046433,1.3842602,0.8819046,0.03999965,0.04,-9.5128765,1.4901496171951294,-1.866736,-0.021452224,0.13866479694843292,0.100823656
1694.5499999987876,0.04677955,-0.6806657,0.053649805,-2.244449,0.20724979,1.3818806,0.88312674,0.03999965,0.04,-9.505348,1.5068507194519043,-1.8915933,-0.021859217,0.1393338143825531,0.10074557
1694.5666666654542,0.047367796,-0.67935634,0.054326653,-2.2430384,0.20986257,1.3794956,0.8843519,0.03999965,0.04,-9.497825,1.5237410068511963,-1.9166368,-0.022266947,0.1399763524532318,0.100652516
1694.583333332121,0.04795739,-0.67804396,0.055005074,-2.2416248,0.21248129,1.3771048,0.8855798,0.03999965,0.04,-9.489954,1.540419101715088,-1.9416171,-0.022673815,0.1406053602695465,0.100543715
1694.5999999987876,0.048548266,-0.6767286,0.055684973,-2.240207,0.2151057,1.374709,0.8868105,0.039999645,0.04,-9.481988,1.5572336912155151,-1.9667653,-0.023079477,0.14121462404727936,0.100420006
1694.6166666654542,0.049140353,-0.67541075,0.056366272,-2.2387862,0.21773545,1.3723083,0.88804364,0.03999965,0.04,-9.473845,1.5738719701766968,-1.9918772,-0.023483474,0.1418115198612213,0.10027967
1694.6333333321209,0.049733575,-0.67409015,0.057048894,-2.2373638,0.22037023,1.369903,0.8892792,0.039999645,0.04,-9.465636,1.590575098991394,-2.017067,-0.023885805,0.14239217340946198,0.10012424
1694.6499999987875,0.050327856,-0.67276734,0.057732742,-2.2359376,0.22300975,1.3674934,0.89051694,0.03999964,0.04,-9.45748,1.6073466539382935,-2.042428,-0.024287706,0.14294786751270294,0.099952966
1694.6666666654542,0.050923128,-0.67144233,0.058417752,-2.2345102,0.22565357,1.36508,0.8917567,0.03999964,0.04,-9.448941,1.6239229440689087,-2.0676644,-0.024686785,0.14349214732646942,0.09976677
1694.6833333321208,0.05151932,-0.6701151,0.059103824,-2.2330804,0.22830151,1.3626628,0.8929984,0.03999964,0.04,-9.440545,1.640640377998352,-2.0931036,-0.025084581,0.14401327073574066,0.09956589
1694.6999999987875,0.052116353,-0.66878617,0.05979086,-2.2316477,0.23095308,1.360242,0.8942417,0.039999638,0.04,-9.431948,1.6571993827819824,-2.1184886,-0.025480507,0.14451533555984497,0.09934905
1694.716666665454,0.052714158,-0.66745543,0.06047881,-2.2302136,0.23360805,1.3578184,0.89548665,0.03999964,0.04,-9.423075,1.6738032102584839,-2.143935,-0.025872562,0.1450025886297226,0.09911833
1694.7333333321208,0.053312644,-0.66612315,0.061167575,-2.2287784,0.23626608,1.3553917,0.89673316,0.039999638,0.04,-9.414309,1.690315842628479,-2.1694005,-0.026262533,0.14547018706798553,0.098872714
1694.7499999987874,0.05391176,-0.66478956,0.061857063,-2.227341,0.2389269,1.3529627,0.89798087,0.039999634,0.04,-9.405425,1.7068886756896973,-2.1949756,-0.026651463,0.14591409265995026,0.09861225
1694.766666665454,0.05451144,-0.66345483,0.06254721,-2.2259026,0.24159016,1.3505315,0.89922976,0.039999653,0.04,-9.3963,1.7233107089996338,-2.2204542,-0.027036041,0.14634336531162262,0.09833724
1694.7833333321207,0.055111587,-0.66211885,0.06323789,-2.2244632,0.24425548,1.3480983,0.9004796,0.03999965,0.04,-9.387162,1.7397880554199219,-2.2460694,-0.027418157,0.14675138890743256,0.098047726
1694.7999999987874,0.05571215,-0.6607821,0.063929066,-2.2230225,0.2469226,1.3456635,0.9017303,0.03999965,0.04,-9.377955,1.7561662197113037,-2.271635,-0.027797215,0.14713813364505768,0.097744375
1694.816666665454,0.056313034,-0.65944463,0.064620644,-2.2215803,0.24959119,1.3432275,0.90298176,0.03999965,0.04,-9.368504,1.772535800933838,-2.2972703,-0.028172297,0.14750728011131287,0.097427525
1694.8333333321207,0.056914177,-0.65810657,0.06531251,-2.2201378,0.2522609,1.3407905,0.90423363,0.03999965,0.04,-9.35899,1.7888015508651733,-2.3228204,-0.028543582,0.14785964787006378,0.09709625
1694.8499999987873,0.0575155,-0.65676814,0.06600461,-2.2186952,0.25493133,1.3383526,0.90548587,0.039999645,0.04,-9.349424,1.8051002025604248,-2.348497,-0.028910702,0.14819058775901794,0.09675193
1694.866666665454,0.05811692,-0.6554294,0.06669686,-2.2172525,0.2576023,1.3359141,0.90673834,0.03999965,0.04,-9.3398,1.8213014602661133,-2.3740866,-0.02927432,0.14850005507469177,0.09639482
1694.8833333321206,0.058718387,-0.6540905,0.067389145,-2.2158098,0.26027334,1.3334757,0.9079909,0.039999645,0.04,-9.330075,1.8374735116958618,-2.3997371,-0.029634079,0.14878663420677185,0.09602416
1694.8999999987873,0.059319805,-0.6527517,0.0680814,-2.214367,0.26294425,1.3310373,0.9092433,0.039999653,0.04,-9.320211,1.8536137342453003,-2.4254332,-0.029989965,0.14905130863189697,0.09564088
1694.916666665454,0.05992112,-0.65141344,0.06877356,-2.212924,0.2656145,1.3285995,0.9104955,0.039999653,0.04,-9.310213,1.8696362972259521,-2.4510138,-0.030340943,0.1492966264486313,0.0952438
1694.9333333321206,0.060522243,-0.65007544,0.06946551,-2.2114816,0.2682839,1.3261625,0.91174734,0.039999653,0.04,-9.3000765,1.885642170906067,-2.4766355,-0.030686624,0.14952395856380463,0.09483535
1694.9499999987872,0.061123103,-0.6487381,0.07015716,-2.2100403,0.2709521,1.3237265,0.9129986,0.039999656,0.04,-9.289977,1.9015849828720093,-2.5022213,-0.031028077,0.14972947537899017,0.09441458
1694.9666666654539,0.06172363,-0.6474013,0.070848465,-2.2086005,0.27361894,1.3212919,0.9142492,0.039999664,0.04,-9.279751,1.9174834489822388,-2.5278656,-0.031365138,0.14991196990013123,0.09398169
1694.9833333321205,0.062323753,-0.64606553,0.0715393,-2.2071612,0.27628392,1.3188591,0.91549885,0.039999653,0.04,-9.269528,1.933314561843872,-2.5534468,-0.031698063,0.15006868541240692,0.093535654
1694.9999999987872,0.06292337,-0.6447308,0.07222961,-2.205723,0.27894673,1.3164283,0.91674757,0.039999656,0.04,-9.2590065,1.9490610361099243,-2.5790114,-0.0320246,0.15020717680454254,0.093079306
1695.0166666654538,0.06352247,-0.64339733,0.07291927,-2.2042873,0.28160694,1.3139997,0.9179952,0.039999653,0.04,-9.248534,1.9647630453109741,-2.6045072,-0.032346226,0.15032336115837097,0.092610136
1695.0333333321205,0.06412093,-0.6420653,0.07360822,-2.2028515,0.28426436,1.3115736,0.91924155,0.03999966,0.04,-9.238015,1.9804089069366455,-2.6300652,-0.032664064,0.15041323006153107,0.092131026
1695.0499999987871,0.064718686,-0.6407347,0.07429639,-2.2014182,0.2869186,1.3091503,0.92048633,0.039999653,0.04,-9.227176,1.9959310293197632,-2.6554477,-0.032974236,0.15048840641975403,0.09164022
1695.0666666654538,0.06531567,-0.6394057,0.074983664,-2.1999862,0.28956938,1.3067303,0.9217295,0.03999964,0.04,-9.216473,2.011430501937866,-2.6809459,-0.033279054,0.15053772926330566,0.091139
1695.0833333321204,0.0659118,-0.63807887,0.07566998,-2.1985574,0.29221645,1.3043138,0.92297095,0.039999645,0.04,-9.205578,2.0268282890319824,-2.7062678,-0.033577364,0.1505671590566635,0.09062496
1695.099999998787,0.066507,-0.636754,0.076355256,-2.1971292,0.2948594,1.3019007,0.92421037,0.039999645,0.04,-9.194779,2.0422189235687256,-2.7316709,-0.033871498,0.1505696028470993,0.09010456
1695.1166666654537,0.06710117,-0.6354313,0.07703939,-2.195705,0.2974979,1.299492,0.92544764,0.03999965,0.04,-9.183599,2.057436943054199,-2.756868,-0.034156572,0.15055625140666962,0.08957152
1695.1333333321204,0.06769432,-0.634111,0.0777223,-2.1942828,0.30013156,1.2970876,0.92668265,0.03999965,0.04,-9.172703,2.072683811187744,-2.7821555,-0.03443728,0.15051420032978058,0.08902817
1695.149999998787,0.068286315,-0.63279337,0.07840396,-2.1928623,0.3027602,1.294688,0.92791545,0.039999645,0.04,-9.161437,2.0877480506896973,-2.8073473,-0.034710094,0.15045291185379028,0.088475384
1695.1666666654537,0.0688771,-0.6314784,0.0790842,-2.1914456,0.30538338,1.2922932,0.9291458,0.03999964,0.04,-9.15013,2.1027894020080566,-2.8323915,-0.03497568,0.15037453174591064,0.08791391
1695.1833333321204,0.069466606,-0.6301663,0.07976298,-2.190032,0.30800092,1.2899035,0.93037313,0.03999965,0.04,-9.13892,2.1177425384521484,-2.857499,-0.035236314,0.15026938915252686,0.08734373
1695.199999998787,0.07005476,-0.6288571,0.080440275,-2.1886225,0.3106123,1.2875195,0.9315978,0.039999645,0.04,-9.127591,2.132646083831787,-2.8824527,-0.035488416,0.15014055371284485,0.08676346
1695.2166666654537,0.07064147,-0.62755114,0.08111592,-2.1872163,0.3132175,1.2851411,0.9328194,0.03999964,0.04,-9.116223,2.147406578063965,-2.9074311,-0.035735194,0.14998570084571838,0.08617432
1695.2333333321203,0.07122672,-0.62624854,0.08178982,-2.185813,0.31581604,1.2827687,0.93403804,0.039999638,0.04,-9.104725,2.1621460914611816,-2.9322302,-0.035973758,0.14980930089950562,0.085575625
1695.249999998787,0.07181038,-0.62494916,0.08246196,-2.1844125,0.3184074,1.2804029,0.93525344,0.03999963,0.04,-9.093097,2.176715850830078,-2.957007,-0.036204845,0.14961202442646027,0.08497108
1695.2666666654536,0.0723924,-0.62365353,0.083132215,-2.1830177,0.32099155,1.2780436,0.9364653,0.039999623,0.04,-9.081416,2.1912620067596436,-2.981661,-0.03642831,0.14939621090888977,0.08435714
1695.2833333321203,0.0729727,-0.6223619,0.08380053,-2.1816263,0.32356802,1.2756913,0.9376737,0.03999962,0.04,-9.069936,2.2057137489318848,-3.006341,-0.03664589,0.14914917945861816,0.08373552
1695.299999998787,0.07355124,-0.6210742,0.08446681,-2.1802397,0.32613662,1.2733463,0.93887836,0.03999962,0.04,-9.058147,2.220099449157715,-3.0307655,-0.03685533,0.1488831341266632,0.083107755
1695.3166666654536,0.07412792,-0.61979055,0.08513095,-2.1788566,0.32869697,1.2710088,0.94007915,0.03999962,0.04,-9.046391,2.234309673309326,-3.055246,-0.037057005,0.14859402179718018,0.08247234
1695.3333333321202,0.07470268,-0.61851126,0.08579292,-2.177478,0.33124876,1.268679,0.9412759,0.039999615,0.04,-9.034493,2.248514175415039,-3.0795157,-0.03724988,0.14828570187091827,0.08183042
1695.3499999987869,0.07527546,-0.61723644,0.08645261,-2.1761038,0.3337917,1.2663574,0.9424684,0.039999615,0.04,-9.022624,2.2625160217285156,-3.1037548,-0.037434757,0.14795351028442383,0.08117965
1695.3666666654535,0.07584618,-0.615966,0.08710996,-2.1747355,0.33632556,1.264044,0.9436566,0.03999961,0.04,-9.010668,2.276557683944702,-3.127825,-0.037610266,0.1476023644208908,0.080523044
1695.3833333321202,0.076414794,-0.61470044,0.08776486,-2.173372,0.33884987,1.2617393,0.9448405,0.03999961,0.04,-8.9988575,2.2904868125915527,-3.151888,-0.03777914,0.14722196757793427,0.07986048
1695.3999999987868,0.07698121,-0.61343986,0.08841727,-2.1720135,0.3413645,1.2594435,0.9460198,0.03999961,0.04,-8.9867735,2.304194450378418,-3.1758118,-0.03793949,0.14682181179523468,0.07919274
1695.4166666654535,0.07754536,-0.61218417,0.089067094,-2.1706605,0.3438691,1.2571566,0.94719446,0.03999961,0.04,-8.974772,2.3179585933685303,-3.1995697,-0.038091905,0.14639991521835327,0.07851813
1695.4333333321201,0.078107156,-0.61093366,0.08971423,-2.169313,0.34636325,1.2548792,0.94836414,0.039999604,0.04,-8.962695,2.331468105316162,-3.2232819,-0.038235463,0.1459539830684662,0.077837646
1695.4499999987868,0.07866656,-0.6096883,0.09035864,-2.1679714,0.3488469,1.2526118,0.9495289,0.039999604,0.04,-8.950604,2.3450560569763184,-3.2468276,-0.038370717,0.1454862803220749,0.077152416
1695.4666666654534,0.07922354,-0.6084485,0.091000244,-2.1666358,0.35131955,1.2503542,0.9506885,0.039999608,0.04,-8.938515,2.3583827018737793,-3.2703335,-0.03849778,0.1449943333864212,0.0764623
1695.48333333212,0.07977802,-0.6072144,0.09163895,-2.1653068,0.35378098,1.2481065,0.9518428,0.039999608,0.04,-8.926386,2.371763229370117,-3.2936203,-0.038616132,0.1444801241159439,0.075767115
1695.4999999987867,0.0803299,-0.60598594,0.09227468,-2.163983,0.35623077,1.2458701,0.9529916,0.039999608,0.04,-8.914291,2.3848867416381836,-3.3168626,-0.03872692,0.14393870532512665,0.07506714
1695.5166666654534,0.08087909,-0.6047636,0.09290741,-2.1626656,0.35866883,1.2436439,0.95413506,0.039999608,0.04,-8.901976,2.398054599761963,-3.3399074,-0.03882715,0.14338374137878418,0.074364245
1695.53333333212,0.08142558,-0.60354733,0.093536995,-2.161355,0.36109477,1.241429,0.9552728,0.039999608,0.04,-8.889732,2.410923719406128,-3.3628206,-0.038918793,0.142805278301239,0.07365627
1695.5499999987867,0.08196927,-0.6023371,0.094163395,-2.1600513,0.36350843,1.2392255,0.95640475,0.039999608,0.04,-8.877601,2.4239306449890137,-3.3856308,-0.039002758,0.14220307767391205,0.07294402
1695.5666666654533,0.08251014,-0.6011332,0.09478656,-2.1587543,0.3659095,1.2370335,0.9575308,0.039999608,0.04,-8.86535,2.4366180896759033,-3.4083354,-0.03907752,0.14157851040363312,0.07222795
1695.58333333212,0.083048105,-0.59993577,0.095406376,-2.1574645,0.3682976,1.234853,0.95865095,0.03999961,0.04,-8.853121,2.4493956565856934,-3.4308522,-0.039143745,0.14093193411827087,0.071508706
1695.5999999987866,0.08358309,-0.5987448,0.09602279,-2.1561818,0.3706725,1.2326849,0.9597646,0.03999961,0.04,-8.840853,2.4618608951568604,-3.4532595,-0.03920174,0.14026260375976562,0.07078678
1695.6166666654533,0.08411506,-0.5975608,0.096635714,-2.1549065,0.37303394,1.230529,0.96087223,0.03999961,0.04,-8.8286495,2.474449634552002,-3.475517,-0.03925036,0.13957050442695618,0.07006155
1695.63333333212,0.084643915,-0.59638375,0.097245105,-2.1536386,0.37538165,1.2283856,0.9619732,0.039999604,0.04,-8.816366,2.486795663833618,-3.4975886,-0.03929078,0.13885818421840668,0.06933342
1695.6499999987866,0.08516966,-0.5952136,0.0978509,-2.1523783,0.37771532,1.2262549,0.9630677,0.039999604,0.04,-8.804113,2.4989352226257324,-3.5195615,-0.03932145,0.13812334835529327,0.06860235
1695.6666666654532,0.085692175,-0.59405047,0.09845301,-2.151126,0.38003483,1.224137,0.9641555,0.03999961,0.04,-8.791861,2.5111889839172363,-3.5413415,-0.03934368,0.1373676210641861,0.06787036
1695.68333333212,0.086211406,-0.5928946,0.09905138,-2.149881,0.38233972,1.2220325,0.96523654,0.03999961,0.04,-8.779648,2.5231173038482666,-3.5630136,-0.039357074,0.1365865170955658,0.067136236
1695.6999999987866,0.086727336,-0.5917462,0.09964591,-2.1486437,0.38462985,1.2199416,0.9663106,0.03999961,0.04,-8.767341,2.535130500793457,-3.5844834,-0.0393613,0.13578884303569794,0.06639967
1695.7166666654532,0.08723988,-0.5906054,0.10023657,-2.147415,0.38690495,1.2178644,0.96737766,0.039999608,0.04,-8.755104,2.546823501586914,-3.6058145,-0.03935608,0.1349702626466751,0.065662146
1695.7333333321199,0.08774897,-0.5894722,0.100823306,-2.1461945,0.38916472,1.215801,0.96843743,0.039999615,0.04,-8.7429285,2.5586488246917725,-3.6269693,-0.039342303,0.1341298520565033,0.06492203
1695.7499999987865,0.08825456,-0.5883468,0.10140604,-2.1449819,0.39140904,1.213752,0.96949,0.039999615,0.04,-8.730731,2.5701279640197754,-3.6479886,-0.039319303,0.1332681030035019,0.06418337
1695.7666666654532,0.08875663,-0.5872293,0.10198468,-2.143778,0.39363754,1.2117174,0.9705351,0.03999962,0.04,-8.718502,2.5816965103149414,-3.6687853,-0.039286558,0.13238932192325592,0.06344104
1695.7833333321198,0.089255095,-0.5861199,0.102559194,-2.1425831,0.39585,1.2096974,0.9715727,0.03999962,0.04,-8.706396,2.5929529666900635,-3.6894667,-0.03924535,0.13148832321166992,0.06269915
1695.7999999987865,0.08974989,-0.5850185,0.103129506,-2.1413972,0.39804626,1.207692,0.9726027,0.039999623,0.04,-8.694271,2.604329824447632,-3.7099495,-0.03919493,0.13056714832782745,0.06195639
1695.816666665453,0.090240955,-0.58392555,0.10369555,-2.1402197,0.40022606,1.205702,0.97362506,0.03999961,0.04,-8.682211,2.615354299545288,-3.73031,-0.039136756,0.12962356209754944,0.061213605
1695.8333333321198,0.09072827,-0.5828409,0.10425727,-2.1390514,0.40238905,1.2037271,0.9746395,0.039999615,0.04,-8.670079,2.626495838165283,-3.7504148,-0.039068777,0.12866443395614624,0.060469817
1695.8499999987864,0.09121175,-0.58176476,0.10481461,-2.1378927,0.4045351,1.2017677,0.9756461,0.03999962,0.04,-8.658083,2.6372859477996826,-3.7704084,-0.038992204,0.12768423557281494,0.059727017
1695.866666665453,0.09169139,-0.58069724,0.10536755,-2.136743,0.40666407,1.1998239,0.9766446,0.039999623,0.04,-8.646125,2.648237466812134,-3.7902036,-0.038908128,0.12668275833129883,0.058983754
1695.8833333321197,0.09216711,-0.5796383,0.10591596,-2.1356027,0.40877554,1.1978961,0.9776349,0.03999962,0.04,-8.634154,2.658911943435669,-3.8098092,-0.038814463,0.12566247582435608,0.058241475
1695.8999999987864,0.09263886,-0.5785883,0.10645982,-2.1344714,0.41086948,1.1959845,0.978617,0.039999623,0.04,-8.622214,2.6693339347839355,-3.8292642,-0.038712036,0.12462539225816727,0.057499316
1695.916666665453,0.0931066,-0.5775472,0.106999084,-2.1333504,0.41294554,1.1940887,0.97959065,0.03999962,0.04,-8.610321,2.679929733276367,-3.848478,-0.03860024,0.12357080727815628,0.056757838
1695.9333333321197,0.09357028,-0.576515,0.10753368,-2.1322393,0.4150036,1.1922098,0.98055595,0.039999623,0.04,-8.59856,2.6901419162750244,-3.8675628,-0.03848062,0.12249406427145004,0.056018256
1695.9499999987863,0.094029844,-0.57549214,0.10806356,-2.1311374,0.41704342,1.1903474,0.98151267,0.039999627,0.04,-8.586803,2.700521469116211,-3.8864691,-0.038352884,0.12139963358640671,0.055279173
1695.966666665453,0.09448525,-0.5744785,0.10858866,-2.1300457,0.4190647,1.1885021,0.9824607,0.039999627,0.04,-8.575024,2.710453987121582,-3.9051156,-0.038215764,0.12029041349887848,0.054541342
1695.9833333321196,0.09493646,-0.57347417,0.10910893,-2.128964,0.42106745,1.1866734,0.9833999,0.039999627,0.04,-8.5633745,2.720613479614258,-3.923613,-0.03807005,0.1191633865237236,0.053804826
1695.9999999987863,0.09538345,-0.5724791,0.109624326,-2.1278925,0.42305133,1.184862,0.98433036,0.03999963,0.04,-8.551768,2.730332136154175,-3.9419212,-0.03791594,0.11801803112030029,0.05306959
1696.016666665453,0.09582616,-0.57149374,0.11013481,-2.1268315,0.42501613,1.1830684,0.98525184,0.039999627,0.04,-8.5402355,2.7402679920196533,-3.9600432,-0.0377535,0.11685513705015182,0.052337233
1696.0333333321196,0.09626454,-0.570518,0.11064033,-2.1257808,0.42696175,1.1812918,0.98616433,0.03999963,0.04,-8.52878,2.749756097793579,-3.977981,-0.037583467,0.11567653715610504,0.05160518
1696.0499999987862,0.09669854,-0.5695519,0.111140825,-2.1247404,0.42888796,1.179533,0.9870677,0.03999963,0.04,-8.517371,2.75945782661438,-3.995686,-0.037405223,0.11447964608669281,0.050877146
1696.0666666654529,0.09712814,-0.56859547,0.11163627,-2.123711,0.43079457,1.177792,0.98796195,0.039999638,0.04,-8.505993,2.7686984539031982,-4.0132103,-0.037218023,0.1132676899433136,0.05015078
1696.0833333321195,0.097553305,-0.56764895,0.1121266,-2.1226919,0.4326815,1.1760693,0.9888469,0.039999634,0.04,-8.494776,2.7781901359558105,-4.030585,-0.037024606,0.11203733086585999,0.049427
1696.0999999987862,0.09797397,-0.56671286,0.112611756,-2.121684,0.43454847,1.1743648,0.98972243,0.039999645,0.04,-8.483529,2.787191152572632,-4.04769,-0.036822133,0.11079403012990952,0.04870537
1696.1166666654528,0.09839013,-0.56578684,0.113091715,-2.120687,0.43639544,1.1726788,0.9905886,0.039999638,0.04,-8.472431,2.7964391708374023,-4.064608,-0.03661193,0.10953625291585922,0.047985736
1696.1333333321195,0.09880171,-0.56487066,0.11356645,-2.1197004,0.43822223,1.171011,0.99144536,0.03999964,0.04,-8.461371,2.8053927421569824,-4.0813355,-0.036394168,0.10826405882835388,0.047269125
1696.1499999987861,0.099208705,-0.5639646,0.1140359,-2.1187248,0.44002846,1.1693617,0.9922925,0.039999645,0.04,-8.450371,2.8140413761138916,-4.0978475,-0.036168322,0.10697765648365021,0.046555366
1696.1666666654528,0.09961108,-0.56306916,0.11450004,-2.1177604,0.4418142,1.1677314,0.99313015,0.03999965,0.04,-8.439513,2.8229546546936035,-4.114205,-0.035935536,0.10567525029182434,0.045845356
1696.1833333321194,0.10000877,-0.5621836,0.114958815,-2.116807,0.44357932,1.16612,0.99395806,0.039999638,0.04,-8.42869,2.831369400024414,-4.130272,-0.035695307,0.1043618768453598,0.04513828
1696.199999998786,0.10040177,-0.5613088,0.11541221,-2.115865,0.4453236,1.1645275,0.9947761,0.03999964,0.04,-8.417976,2.840034008026123,-4.146243,-0.03544763,0.10303397476673126,0.044432845
1696.2166666654527,0.100790046,-0.56044453,0.11586017,-2.114934,0.44704682,1.162954,0.9955843,0.03999965,0.04,-8.407387,2.848259449005127,-4.1619267,-0.03519335,0.10169225186109543,0.04373339
1696.2333333321194,0.10117356,-0.5595907,0.116302684,-2.1140146,0.448749,1.1613998,0.9963826,0.03999965,0.04,-8.396785,2.8566644191741943,-4.177397,-0.034930304,0.10033966600894928,0.04303668
1696.249999998786,0.1015523,-0.55874765,0.1167397,-2.1131067,0.45042995,1.1598651,0.997171,0.039999645,0.04,-8.386431,2.8646602630615234,-4.1927238,-0.034661993,0.09897215664386749,0.04234292
1696.2666666654527,0.101926245,-0.5579152,0.11717118,-2.1122105,0.45208958,1.15835,0.99794924,0.03999965,0.04,-8.376055,2.8728549480438232,-4.2078114,-0.034386486,0.09759413450956345,0.041652814
1696.2833333321194,0.10229537,-0.5570936,0.11759709,-2.111326,0.45372775,1.1568545,0.99871767,0.039999653,0.04,-8.365835,2.8806071281433105,-4.2226844,-0.0341041,0.09620469808578491,0.040967073
1696.299999998786,0.10265964,-0.55628264,0.11801742,-2.1104531,0.45534432,1.1553783,0.99947625,0.03999966,0.04,-8.355679,2.888582944869995,-4.2373548,-0.033815634,0.09480409324169159,0.040284898
1696.3166666654527,0.10301902,-0.5554826,0.11843211,-2.1095917,0.4569392,1.1539217,1.0002241,0.039999664,0.04,-8.345696,2.896103858947754,-4.2518463,-0.033523478,0.09338922053575516,0.03960793
1696.3333333321193,0.1033735,-0.55469346,0.118841164,-2.108742,0.45851234,1.152485,1.0009623,0.03999966,0.04,-8.335681,2.9038329124450684,-4.2660656,-0.033221293,0.09196628630161285,0.03893469
1696.349999998786,0.10372305,-0.55391544,0.11924457,-2.107904,0.46006355,1.151069,1.0016897,0.039999664,0.04,-8.325897,2.9111135005950928,-4.280119,-0.032915633,0.09053146839141846,0.038264994
1696.3666666654526,0.10406765,-0.5531485,0.11964226,-2.1070778,0.46159285,1.1496726,1.002407,0.03999966,0.04,-8.316117,2.9186201095581055,-4.2939525,-0.03260157,0.08909271657466888,0.037599172
1696.3833333321193,0.10440729,-0.55239254,0.12003424,-2.1062644,0.46310005,1.1482962,1.0031137,0.039999668,0.04,-8.306507,2.9258646965026855,-4.307546,-0.03228242,0.08764304965734482,0.036939036
1696.399999998786,0.10474193,-0.5516477,0.1204205,-2.1054623,0.4645851,1.1469404,1.00381,0.039999668,0.04,-8.297119,2.9328339099884033,-4.321007,-0.031958777,0.08618002384901047,0.036283102
1696.4166666654526,0.105071574,-0.550914,0.12080102,-2.104672,0.46604797,1.1456045,1.0044961,0.03999967,0.04,-8.287641,2.9399940967559814,-4.334182,-0.031627335,0.084712915122509,0.035631597
1696.4333333321192,0.105396196,-0.55019134,0.12117574,-2.103894,0.46748868,1.1442893,1.0051717,0.039999668,0.04,-8.278365,2.9466938972473145,-4.347145,-0.03129164,0.08323855698108673,0.034985885
1696.4499999987859,0.105715774,-0.5494799,0.121544704,-2.1031282,0.46890703,1.1429944,1.0058368,0.039999668,0.04,-8.269225,2.953672409057617,-4.3599715,-0.030950414,0.08175524324178696,0.034343228
1696.4666666654525,0.10603032,-0.5487797,0.121907845,-2.1023746,0.470303,1.1417198,1.0064915,0.039999664,0.04,-8.2602,2.960151433944702,-4.372521,-0.030605322,0.08026577532291412,0.03370524
1696.4833333321192,0.10633983,-0.5480907,0.122265175,-2.1016328,0.4716766,1.1404659,1.0071359,0.039999664,0.04,-8.251288,2.9669241905212402,-4.3849034,-0.030255714,0.07876771688461304,0.033074036
1696.4999999987858,0.106644265,-0.5474129,0.12261667,-2.1009028,0.47302768,1.1392323,1.0077693,0.039999668,0.04,-8.242492,2.9731554985046387,-4.397042,-0.029902069,0.07726486027240753,0.032445442
1696.5166666654525,0.106943615,-0.54674643,0.12296231,-2.1001854,0.47435617,1.1380193,1.0083923,0.039999675,0.04,-8.233737,2.979652166366577,-4.4089646,-0.029540764,0.07575786858797073,0.031822283
1696.5333333321191,0.10723789,-0.5460914,0.123302124,-2.0994802,0.4756622,1.1368271,1.0090051,0.039999675,0.04,-8.225261,2.9857325553894043,-4.420705,-0.029177446,0.07424402236938477,0.031204501
1696.5499999987858,0.10752706,-0.5454475,0.12363607,-2.098787,0.47694555,1.1356553,1.0096071,0.03999968,0.04,-8.216792,2.9920132160186768,-4.4322295,-0.028811516,0.07272697985172272,0.030590566
1696.5666666654524,0.107811175,-0.5448149,0.12396412,-2.0981064,0.4782063,1.1345041,1.0101984,0.039999682,0.04,-8.208511,2.9978387355804443,-4.4435186,-0.028440235,0.07120492309331894,0.029982753
1696.583333332119,0.10809015,-0.54419357,0.12428639,-2.0974376,0.4794445,1.1333736,1.0107791,0.03999968,0.04,-8.200323,3.0039443969726562,-4.454664,-0.028065914,0.06967823207378387,0.02938088
1696.5999999987857,0.10836405,-0.5435837,0.12460272,-2.0967808,0.4806601,1.1322637,1.0113492,0.03999968,0.04,-8.192301,3.009521484375,-4.465536,-0.027688224,0.068148173391819,0.028782206
1696.6166666654524,0.10863283,-0.5429851,0.12491321,-2.0961368,0.481853,1.1311744,1.0119085,0.03999969,0.04,-8.184307,3.0153818130493164,-4.4762044,-0.027305592,0.06661781668663025,0.028189536
1696.633333332119,0.10889653,-0.5423978,0.12521785,-2.0955052,0.48302335,1.1301059,1.0124573,0.03999969,0.04,-8.176561,3.0209834575653076,-4.486716,-0.026920158,0.06508290767669678,0.027603239
1696.6499999987857,0.10915515,-0.54182184,0.12551661,-2.094885,0.4841711,1.1290579,1.0129958,0.03999969,0.04,-8.168959,3.0262749195098877,-4.4969897,-0.026532559,0.06354466825723648,0.02702158
1696.6666666654523,0.10940866,-0.54125714,0.12580946,-2.0942779,0.4852963,1.1280307,1.0135237,0.039999694,0.04,-8.161348,3.0317955017089844,-4.507035,-0.026143055,0.062008049339056015,0.02644517
1696.683333332119,0.109657094,-0.5407039,0.12609647,-2.0936825,0.48639876,1.127024,1.0140408,0.03999969,0.04,-8.154022,3.0368916988372803,-4.516924,-0.025751878,0.060468412935733795,0.025873171
1696.6999999987856,0.10990044,-0.54016197,0.12637766,-2.093099,0.4874788,1.1260381,1.0145472,0.03999969,0.04,-8.146681,3.0422184467315674,-4.526562,-0.025356837,0.058931864798069,0.025307892
1696.7166666654523,0.11013871,-0.53963125,0.12665302,-2.0925286,0.4885363,1.1250725,1.0150429,0.039999694,0.04,-8.139578,3.047070026397705,-4.5359817,-0.024958674,0.05739562585949898,0.024748072
1696.733333332119,0.11037194,-0.5391119,0.12692249,-2.091969,0.48957136,1.1241274,1.0155283,0.0399997,0.04,-8.132622,3.052234411239624,-4.545275,-0.024558987,0.05585673451423645,0.02419353
1696.7499999987856,0.110600114,-0.5386038,0.12718618,-2.091422,0.49058405,1.1232028,1.0160036,0.03999971,0.04,-8.125675,3.056851387023926,-4.5542355,-0.024156699,0.05432508885860443,0.023645153
1696.7666666654522,0.11082324,-0.53810686,0.12744406,-2.0908875,0.49157444,1.1222984,1.016468,0.03999971,0.04,-8.118959,3.0617856979370117,-4.563108,-0.02375506,0.052793435752391815,0.02310191
1696.783333332119,0.111041345,-0.53762114,0.1276962,-2.0903645,0.4925425,1.1214145,1.0169221,0.03999971,0.04,-8.112445,3.066258668899536,-4.5717506,-0.02335155,0.051261693239212036,0.02256432
1696.7999999987856,0.111254446,-0.53714657,0.12794253,-2.0898542,0.4934884,1.1205506,1.0173658,0.039999712,0.04,-8.105923,3.070955276489258,-4.5801835,-0.022946283,0.0497356653213501,0.022032464
1696.8166666654522,0.111462556,-0.53668296,0.12818313,-2.0893545,0.49441215,1.1197073,1.017799,0.039999712,0.04,-8.099688,3.0752511024475098,-4.5884356,-0.022541199,0.04820994660258293,0.021506876
1696.8333333321189,0.111665696,-0.5362303,0.12841795,-2.0888674,0.49531385,1.1188838,1.018222,0.039999723,0.04,-8.0933485,3.0797059535980225,-4.596444,-0.022132805,0.046694960445165634,0.020985596
1696.8499999987855,0.111863896,-0.5357887,0.12864709,-2.0883932,0.49619365,1.1180806,1.0186346,0.039999727,0.04,-8.0874195,3.0838265419006348,-4.604317,-0.02172667,0.04517960548400879,0.02047174
1696.8666666654522,0.11205717,-0.5353581,0.1288706,-2.0879295,0.49705163,1.1172973,1.019037,0.039999727,0.04,-8.081546,3.0881762504577637,-4.612036,-0.021320518,0.043667782098054886,0.019963617
1696.8833333321188,0.11224555,-0.5349385,0.12908846,-2.0874786,0.4978878,1.1165339,1.0194294,0.03999973,0.04,-8.075682,3.0921618938446045,-4.619441,-0.020913353,0.042165547609329224,0.01945968
1696.8999999987855,0.11242905,-0.53452975,0.12930068,-2.087038,0.49870244,1.1157902,1.0198114,0.039999735,0.04,-8.070148,3.0959904193878174,-4.6267147,-0.020508554,0.04066720977425575,0.01896376
1696.916666665452,0.112607695,-0.53413177,0.12950736,-2.08661,0.49949554,1.1150659,1.0201837,0.03999974,0.04,-8.064496,3.0999627113342285,-4.633748,-0.020099852,0.039181675761938095,0.0184726
1696.9333333321188,0.112781525,-0.5337444,0.12970851,-2.0861926,0.5002674,1.1143612,1.0205456,0.039999735,0.04,-8.059269,3.10359263420105,-4.640646,-0.019695586,0.03769771009683609,0.01798758
1696.9499999987854,0.11295057,-0.53336775,0.12990412,-2.0857873,0.50101787,1.113676,1.0208977,0.039999742,0.04,-8.053902,3.107383966445923,-4.6473203,-0.019288577,0.036226872354745865,0.01750839
1696.966666665452,0.11311485,-0.5330016,0.13009422,-2.0853932,0.50174713,1.11301,1.0212399,0.039999742,0.04,-8.048921,3.110844135284424,-4.6538486,-0.018885309,0.03476202115416527,0.01703659
1696.9833333321187,0.1132744,-0.53264606,0.13027892,-2.0850108,0.5024557,1.1123632,1.0215724,0.03999974,0.04,-8.0439005,3.1145033836364746,-4.660197,-0.01848245,0.033308472484350204,0.016571013
1696.9999999987854,0.11342928,-0.5323009,0.13045819,-2.084639,0.5031434,1.1117352,1.0218948,0.039999742,0.04,-8.039136,3.1177196502685547,-4.666313,-0.01808207,0.03186292573809624,0.016110098
1697.016666665452,0.11357952,-0.5319661,0.13063215,-2.084279,0.50381047,1.1111261,1.0222077,0.039999746,0.04,-8.034379,3.1211888790130615,-4.6722775,-0.017681422,0.03042972832918167,0.015655685
1697.0333333321187,0.11372515,-0.5316414,0.13080077,-2.0839298,0.50445706,1.1105355,1.0225109,0.039999753,0.04,-8.0299,3.124270439147949,-4.6780615,-0.017284684,0.02900531142950058,0.015208766
1697.0499999987853,0.11386621,-0.53132707,0.13096409,-2.083592,0.5050834,1.1099635,1.0228046,0.039999757,0.04,-8.025434,3.127575635910034,-4.6836843,-0.016889103,0.027593165636062622,0.014768512
1697.066666665452,0.11400274,-0.53102267,0.13112223,-2.0832636,0.50568986,1.1094099,1.023089,0.03999976,0.04,-8.021194,3.1304752826690674,-4.6890974,-0.016496975,0.026192763820290565,0.014333587
1697.0833333321186,0.11413481,-0.5307281,0.13127519,-2.0829477,0.5062764,1.1088744,1.0233641,0.039999757,0.04,-8.016882,3.133542537689209,-4.694322,-0.016105138,0.024810707196593285,0.0139050465
1697.0999999987853,0.11426244,-0.5304436,0.13142304,-2.0826414,0.5068432,1.108357,1.0236297,0.039999764,0.04,-8.013028,3.136345386505127,-4.6994805,-0.015719345,0.023435048758983612,0.013482272
1697.116666665452,0.11438567,-0.5301688,0.13156588,-2.0823457,0.50739074,1.1078572,1.0238867,0.039999764,0.04,-8.008995,3.139263391494751,-4.704335,-0.015333898,0.022079113870859146,0.013067306
1697.1333333321186,0.11450456,-0.5299036,0.13170367,-2.0820608,0.5079191,1.1073748,1.0241344,0.03999977,0.04,-8.005235,3.1419882774353027,-4.7090983,-0.014954147,0.020737050101161003,0.01265879
1697.1499999987852,0.114619195,-0.52964795,0.13183655,-2.0817857,0.5084284,1.1069099,1.0243732,0.03999977,0.04,-8.001642,3.1444928646087646,-4.7136602,-0.014577435,0.019408199936151505,0.012256022
1697.1666666654519,0.114729606,-0.5294016,0.13196461,-2.0815206,0.50891906,1.1064619,1.0246032,0.039999772,0.04,-7.998035,3.1471903324127197,-4.718073,-0.014203343,0.018098564818501472,0.0118604265
1697.1833333321185,0.11483585,-0.5291646,0.1320878,-2.0812657,0.5093911,1.106031,1.0248246,0.039999772,0.04,-7.99467,3.149531364440918,-4.722314,-0.013833595,0.016804642975330353,0.011472471
1697.1999999987852,0.11493799,-0.5289368,0.13220626,-2.0810206,0.509845,1.1056165,1.0250375,0.039999772,0.04,-7.99139,3.1521081924438477,-4.7264347,-0.013468959,0.015527279116213322,0.011090032
1697.2166666654518,0.115036085,-0.5287177,0.13232006,-2.0807853,0.510281,1.1052185,1.0252421,0.03999978,0.04,-7.9882383,3.154294729232788,-4.7303414,-0.013108906,0.014268499799072742,0.01071546
1697.2333333321185,0.11513018,-0.5285077,0.13242927,-2.08056,0.51069915,1.1048366,1.0254383,0.039999783,0.04,-7.985157,3.1566951274871826,-4.734172,-0.012753355,0.013028803281486034,0.01034712
1697.2499999987851,0.115220346,-0.5283063,0.13253395,-2.080343,0.5111,1.1044706,1.0256263,0.039999783,0.04,-7.9823165,3.1587975025177,-4.7377963,-0.01240479,0.011805719695985317,0.009988467
1697.2666666654518,0.11530667,-0.5281137,0.13263413,-2.0801356,0.51148355,1.10412,1.0258062,0.039999783,0.04,-7.9793863,3.1609952449798584,-4.741266,-0.012058431,0.01060717087239027,0.009634164
1697.2833333321184,0.11538917,-0.52792937,0.13273002,-2.0799375,0.5118505,1.1037849,1.0259784,0.03999979,0.04,-7.9767437,3.1629421710968018,-4.7445655,-0.011718323,0.00942774023860693,0.009288897
1697.299999998785,0.11546796,-0.5277531,0.13282159,-2.079748,0.5122009,1.103465,1.026143,0.03999979,0.04,-7.9741435,3.1650705337524414,-4.747804,-0.011384517,0.008269225247204304,0.0089512495
1697.3166666654517,0.11554308,-0.52758497,0.13290894,-2.079568,0.51253533,1.1031598,1.0262998,0.03999979,0.04,-7.9716754,3.166846990585327,-4.750857,-0.011057054,0.007133501581847668,0.008619981
1697.3333333321184,0.11561463,-0.527425,0.13299216,-2.0793962,0.5128537,1.1028688,1.0264492,0.039999794,0.04,-7.969364,3.1688742637634277,-4.753827,-0.010736535,0.0060167391784489155,0.008295423
1697.349999998785,0.1156827,-0.5272728,0.13307133,-2.079233,0.51315665,1.102592,1.0265911,0.039999794,0.04,-7.967107,3.170553207397461,-4.756571,-0.010422176,0.004924274515360594,0.0079807835
1697.3666666654517,0.11574735,-0.52712816,0.1331466,-2.0790777,0.5134445,1.1023291,1.0267261,0.03999979,0.04,-7.964907,3.1723973751068115,-4.7592163,-0.010112049,0.0038562845438718796,0.007672655
1697.3833333321184,0.115808636,-0.5269908,0.13321796,-2.0789306,0.5137175,1.1020796,1.0268542,0.039999794,0.04,-7.96285,3.174074649810791,-4.761758,-0.009810814,0.0028135173488408327,0.007372447
1697.399999998785,0.11586669,-0.52686083,0.13328558,-2.0787911,0.513976,1.1018435,1.0269758,0.039999794,0.04,-7.9609303,3.1756019592285156,-4.764169,-0.009517381,0.0017942495178431273,0.007080403
1697.4166666654517,0.115921564,-0.5267381,0.13334952,-2.0786593,0.5142204,1.1016202,1.0270904,0.0399998,0.04,-7.959006,3.1772565841674805,-4.7664194,-0.0092309,0.0008038738742470741,0.0067966473
1697.4333333321183,0.115973346,-0.5266219,0.13340995,-2.0785348,0.5144512,1.1014097,1.0271986,0.0399998,0.04,-7.9572744,3.1786787509918213,-4.7685537,-0.008951007,-0.00015928172797430307,0.006521857
1697.449999998785,0.11602211,-0.5265127,0.13346685,-2.0784178,0.5146688,1.1012111,1.0273006,0.0399998,0.04,-7.9555926,3.1802456378936768,-4.7706623,-0.008679079,-0.0010962014785036445,0.0062541133
1697.4666666654516,0.11606798,-0.5264097,0.13352042,-2.0783079,0.51487345,1.101024,1.0273966,0.039999805,0.04,-7.954024,3.1815574169158936,-4.772532,-0.008415183,-0.002004029927775264,0.005994617
1697.4833333321183,0.11611102,-0.5263132,0.13357073,-2.0782042,0.5150655,1.1008486,1.0274867,0.03999981,0.04,-7.952549,3.1830568313598633,-4.7744217,-0.008160416,-0.002887063892558217,0.005744381
1697.499999998785,0.11615134,-0.52622277,0.13361792,-2.0781064,0.51524556,1.100684,1.0275713,0.039999813,0.04,-7.9510727,3.184246063232422,-4.7760577,-0.007912931,-0.0037353094667196274,0.005503725
1697.5166666654516,0.116189025,-0.5261381,0.13366213,-2.0780146,0.51541406,1.1005303,1.0276502,0.03999981,0.04,-7.9497004,3.185603618621826,-4.777667,-0.0076739388,-0.004552402533590794,0.0052717514
1697.5333333321182,0.11622421,-0.5260591,0.13370346,-2.0779293,0.5155714,1.1003869,1.0277243,0.03999981,0.04,-7.948415,3.1867122650146484,-4.7791266,-0.0074413246,-0.005335991270840168,0.0050479043
1697.5499999987849,0.11625695,-0.5259854,0.13374192,-2.0778503,0.5157179,1.1002527,1.027793,0.039999813,0.04,-7.947267,3.1880273818969727,-4.780586,-0.007219906,-0.0060895103961229324,0.004834146
1697.5666666654515,0.11628735,-0.5259169,0.13377765,-2.0777771,0.5158542,1.1001284,1.027857,0.039999817,0.04,-7.9462485,3.189147710800171,-4.7819405,-0.0070096226,-0.00681580975651741,0.0046296916
1697.5833333321182,0.11631554,-0.52585316,0.13381085,-2.0777087,0.5159807,1.1000125,1.0279161,0.039999817,0.04,-7.9451723,3.190361738204956,-4.783204,-0.0068080556,-0.007506775204092264,0.0044346554
1697.5999999987848,0.11634162,-0.52579415,0.13384162,-2.077645,0.5160979,1.0999057,1.027971,0.039999817,0.04,-7.9441915,3.191359043121338,-4.7843394,-0.0066150962,-0.008165186271071434,0.0042496594
1697.6166666654515,0.116365716,-0.5257396,0.1338701,-2.0775876,0.5162062,1.0998068,1.028022,0.039999817,0.04,-7.9432335,3.1924805641174316,-4.7854247,-0.0064325277,-0.008785600773990154,0.0040737265
1697.6333333321181,0.11638792,-0.5256893,0.1338964,-2.077533,0.5163062,1.0997155,1.028069,0.03999982,0.04,-7.942532,3.1935815811157227,-4.786523,-0.006264355,-0.009378328919410706,0.0039080135
1697.6499999987848,0.11640838,-0.525643,0.13392061,-2.0774834,0.51639843,1.0996315,1.0281122,0.039999824,0.04,-7.94156,3.1944377422332764,-4.7873464,-0.006102077,-0.00992627814412117,0.0037530693
1697.6666666654514,0.11642717,-0.52560043,0.13394293,-2.0774372,0.51648325,1.0995541,1.0281518,0.03999982,0.04,-7.9408894,3.1955301761627197,-4.7882814,-0.0059518083,-0.010440669022500515,0.0036074705
1697.683333332118,0.11644441,-0.52556086,0.13396347,-2.0773952,0.5165614,1.0994827,1.0281881,0.039999828,0.04,-7.9401383,3.1964056491851807,-4.7890263,-0.0058099697,-0.01091497391462326,0.0034732374
1697.6999999987847,0.11646022,-0.5255247,0.13398238,-2.077356,0.5166334,1.0994173,1.0282222,0.03999982,0.039999995,-7.939555,3.1974472999572754,-4.789875,-0.0056813424,-0.011357031762599945,0.0033499505
1697.7166666654514,0.116474755,-0.5254914,0.13399981,-2.0773215,0.51669955,1.0993569,1.0282533,0.039999824,0.04,-7.9388986,3.1982195377349854,-4.790521,-0.005564429,-0.011759206652641296,0.0032344298
1697.733333332118,0.116488084,-0.5254609,0.13401586,-2.0772877,0.5167604,1.0993012,1.0282815,0.039999828,0.04,-7.9384775,3.199131965637207,-4.791242,-0.005458669,-0.012136339209973812,0.0031294143
1697.7499999987847,0.11650034,-0.5254326,0.13403063,-2.0772572,0.5168165,1.09925,1.0283083,0.039999828,0.04,-7.9377794,3.199733257293701,-4.791698,-0.0053549437,-0.01247473619878292,0.0030330333
1697.7666666654513,0.11651158,-0.52540654,0.13404422,-2.0772305,0.51686805,1.0992029,1.0283321,0.03999983,0.04,-7.937379,3.2004852294921875,-4.79231,-0.0052652406,-0.0127898920327425,0.0029443472
1697.783333332118,0.11652191,-0.52538264,0.13405675,-2.077204,0.51691556,1.0991594,1.0283551,0.039999828,0.04,-7.9370747,3.2011377811431885,-4.7928886,-0.005181885,-0.013085182756185532,0.0028623366
1697.7999999987846,0.116531365,-0.5253606,0.13406827,-2.0771797,0.5169593,1.0991194,1.028375,0.039999835,0.04,-7.9364963,3.2016441822052,-4.7932367,-0.0051060114,-0.013349632732570171,0.002787102
1697.8166666654513,0.11654005,-0.52534026,0.13407889,-2.077158,0.5169996,1.099083,1.0283942,0.039999835,0.04,-7.936145,3.2021560668945312,-4.793665,-0.0050306655,-0.013592888601124287,0.0027178437
1697.833333332118,0.11654804,-0.52532166,0.13408867,-2.077139,0.5170363,1.0990497,1.0284108,0.03999983,0.04,-7.9358726,3.202694892883301,-4.7941055,-0.004966747,-0.013818619772791862,0.002653319
1697.8499999987846,0.11655535,-0.5253045,0.13409764,-2.07712,0.5170705,1.0990181,1.0284265,0.039999835,0.04,-7.9356365,3.20316481590271,-4.794509,-0.004905296,-0.014027814380824566,0.0025949772
1697.8666666654512,0.11656208,-0.5252887,0.13410595,-2.0771024,0.5171015,1.0989896,1.0284419,0.03999984,0.04,-7.935243,3.2035365104675293,-4.7947464,-0.0048478665,-0.014219822362065315,0.0025402952
1697.883333332118,0.11656825,-0.5252741,0.13411357,-2.0770862,0.5171304,1.0989637,1.0284547,0.039999828,0.04,-7.934953,3.203904390335083,-4.7950544,-0.0047991984,-0.014392420649528503,0.0024920753
1697.8999999987846,0.11657391,-0.52526075,0.13412055,-2.077072,0.517157,1.0989393,1.0284667,0.039999835,0.04,-7.9347157,3.2042343616485596,-4.7953367,-0.0047476934,-0.014550159685313702,0.0024456289
1697.9166666654512,0.1165791,-0.52524847,0.13412702,-2.0770605,0.51718146,1.0989178,1.0284783,0.039999828,0.039999995,-7.9345646,3.2046098709106445,-4.7955985,-0.0047027473,-0.014700442552566528,0.0024034572
1697.9333333321179,0.116583884,-0.52523714,0.13413298,-2.077049,0.517204,1.0988972,1.0284897,0.039999835,0.04,-7.934497,3.204946994781494,-4.7959604,-0.0046672416,-0.014841223135590553,0.002363017
1697.9499999987845,0.116588265,-0.5252268,0.13413846,-2.0770378,0.5172246,1.0988784,1.0284985,0.039999828,0.039999995,-7.934227,3.2051916122436523,-4.796111,-0.0046362868,-0.014970899559557438,0.0023275728
1697.9666666654512,0.116592295,-0.5252173,0.1341435,-2.0770268,0.5172434,1.0988613,1.0285069,0.03999983,0.04,-7.9339848,3.2054014205932617,-4.796271,-0.0045988527,-0.015086574479937553,0.0022949015
1697.9833333321178,0.116595976,-0.52520835,0.1341481,-2.0770166,0.5172606,1.0988446,1.0285149,0.03999984,0.04,-7.9337616,3.205610752105713,-4.796415,-0.004564361,-0.015188571996986866,0.0022647623
1697.9999999987845,0.11659938,-0.52520025,0.13415235,-2.077007,0.5172769,1.0988309,1.0285226,0.039999835,0.04,-7.9336376,3.205825090408325,-4.7965765,-0.0045344033,-0.015287023037672043,0.0022384988
1698.016666665451,0.1166025,-0.525193,0.13415629,-2.0769987,0.5172917,1.0988177,1.0285304,0.03999983,0.04,-7.933458,3.206000566482544,-4.796747,-0.004507253,-0.015369614586234093,0.002211498
1698.0333333321178,0.116605364,-0.525186,0.13415991,-2.076991,0.5173051,1.0988047,1.028538,0.039999835,0.04,-7.9334035,3.206195592880249,-4.7968693,-0.0044860356,-0.015449480153620243,0.0021876087
1698.0499999987844,0.11660799,-0.5251797,0.1341632,-2.0769842,0.517318,1.0987922,1.0285429,0.03999983,0.04,-7.9333186,3.2063801288604736,-4.7970276,-0.004469933,-0.015527550131082535,0.002167513
1698.066666665451,0.11661041,-0.5251739,0.13416626,-2.076979,0.5173293,1.0987825,1.0285475,0.039999824,0.03999999,-7.9332304,3.206519842147827,-4.7971253,-0.004444183,-0.015602543950080872,0.002146866
1698.0833333321177,0.11661261,-0.52516854,0.13416906,-2.076975,0.5173403,1.0987732,1.0285519,0.039999835,0.04,-7.933194,3.2067201137542725,-4.7973485,-0.004424632,-0.015667198225855827,0.002128095
1698.0999999987844,0.11661462,-0.5251635,0.13417165,-2.0769713,0.51734966,1.0987641,1.0285562,0.039999835,0.04,-7.691827,3.1657044887542725,-4.4806137,0.0,-0.0,0.0
1698.116666665451,0.11661462,-0.5251635,0.13417165,-2.0769713,0.51734966,1.0987641,1.0285562,0.039999835,0.04,-7.9328594,3.2077322006225586,-4.7975316,0.0,-0.0,0.0
1698.1333333321177,0.11661462,-0.5251635,0.13417165,-2.0769713,0.51734966,1.0987641,1.0285562,0.039999835,0.04,-7.9328594,3.2077322006225586,-4.7975316,0.0,-0.0,0.0
1698.1499999987843,0.11661462,-0.5251635,0.13417165,-2.0769713,0.51734966,1.0987641,1.0285562,0.039999835,0.04,-7.9328594,3.2077322006225586,-4.7975316,0.0,-0.0,0.0
1698.166666665451,0.11661462,-0.5251635,0.13417165,-2.0769713,0.51734966,1.0987641,1.0285562,0.039999835,0.04,-7.9328594,3.2077322006225586,-4.7975316,0.0,-0.0,0.0
1698.1833333321176,0.11661462,-0.5251635,0.13417165,-2.0769713,0.51734966,1.0987641,1.0285562,0.039999835,0.04,-7.9328594,3.2077322006225586,-4.7975316,0.0,-0.0,0.0
1698.1999999987843,0.11661462,-0.5251635,0.13417165,-2.0769713,0.51734966,1.0987641,1.0285562,0.039999835,0.04,-7.9328594,3.2077322006225586,-4.7975316,0.0,-0.0,0.0
1698.216666665451,0.11661462,-0.5251635,0.13417165,-2.0769713,0.51734966,1.0987641,1.0285562,0.039999835,0.04,-7.9328594,3.2077322006225586,-4.7975316,0.0,-0.0,0.0
1698.2333333321176,0.11661462,-0.5251635,0.13417165,-2.0769713,0.51734966,1.0987641,1.0285562,0.039999835,0.04,-7.9328594,3.2077322006225586,-4.7975316,0.0,-0.0,0.0
1698.2499999987842,0.11661462,-0.5251635,0.13417165,-2.0769713,0.51734966,1.0987641,1.0285562,0.039999835,0.04,-7.9328594,3.2077322006225586,-4.7975316,0.0,-0.0,0.0
1698.2666666654509,0.11661462,-0.5251635,0.13417165,-2.0769713,0.51734966,1.0987641,1.0285562,0.039999835,0.04,-7.9328594,3.2077322006225586,-4.7975316,0.0,-0.0,0.0
1698.2833333321175,0.11661462,-0.5251635,0.13417165,-2.0769713,0.51734966,1.0987641,1.0285562,0.039999835,0.04,-7.9328594,3.2077322006225586,-4.7975316,0.0,-0.0,0.0
1698.2999999987842,0.11661462,-0.5251635,0.13417165,-2.0769713,0.51734966,1.0987641,1.0285562,0.039999835,0.04,-7.9328594,3.2077322006225586,-4.7975316,0.0,-0.0,0.0
1698.3166666654508,0.11661462,-0.5251635,0.13417165,-2.0769713,0.51734966,1.0987641,1.0285562,0.039999835,0.04,-7.9328594,3.2077322006225586,-4.7975316,0.0,-0.0,0.0
1698.3333333321175,0.11661462,-0.5251635,0.13417165,-2.0769713,0.51734966,1.0987641,1.0285562,0.039999835,0.04,-7.9328594,3.2077322006225586,-4.7975316,0.0,-0.0,0.0
1698.3499999987841,0.11661462,-0.5251635,0.13417165,-2.0769713,0.51734966,1.0987641,1.0285562,0.039999835,0.04,-7.9328594,3.2077322006225586,-4.7975316,0.0,-0.0,0.0
1698.3666666654508,0.11661462,-0.5251635,0.13417165,-2.0769713,0.51734966,1.0987641,1.0285562,0.039999835,0.04,-7.9328594,3.2077322006225586,-4.7975316,0.0,-0.0,0.0
1698.3833333321174,0.11661462,-0.5251635,0.13417165,-2.0769713,0.51734966,1.0987641,1.0285562,0.039999835,0.04,-7.9328594,3.2077322006225586,-4.7975316,0.0,-0.0,0.0
1698.399999998784,0.11661462,-0.5251635,0.13417165,-2.0769713,0.51734966,1.0987641,1.0285562,0.039999835,0.04,-7.9328594,3.2077322006225586,-4.7975316,0.0,-0.0,0.0
1698.4166666654507,0.11661462,-0.5251635,0.13417165,-2.0769713,0.51734966,1.0987641,1.0285562,0.039999835,0.04,-7.9328594,3.2077322006225586,-4.7975316,0.0,-0.0,0.0
1698.4333333321174,0.11661462,-0.5251635,0.13417165,-2.0769713,0.51734966,1.0987641,1.0285562,0.039999835,0.04,-7.9328594,3.2077322006225586,-4.7975316,0.0,-0.0,0.0
1698.449999998784,0.11661462,-0.5251635,0.13417165,-2.0769713,0.51734966,1.0987641,1.0285562,0.039999835,0.04,-7.9328594,3.2077322006225586,-4.7975316,0.0,-0.0,0.0
1698.4666666654507,0.11661462,-0.5251635,0.13417165,-2.0769713,0.51734966,1.0987641,1.0285562,0.039999835,0.04,-7.9328594,3.2077322006225586,-4.7975316,0.0,-0.0,0.0
1698.4833333321174,0.11661462,-0.5251635,0.13417165,-2.0769713,0.51734966,1.0987641,1.0285562,0.039999835,0.04,-7.9328594,3.2077322006225586,-4.7975316,0.0,-0.0,0.0
1698.499999998784,0.11661462,-0.5251635,0.13417165,-2.0769713,0.51734966,1.0987641,1.0285562,0.039999835,0.04,-7.9328594,3.2077322006225586,-4.7975316,0.0,-0.0,0.0
1698.5166666654507,0.11661462,-0.5251635,0.13417165,-2.0769713,0.51734966,1.0987641,1.0285562,0.039999835,0.04,-7.9328594,3.2077322006225586,-4.7975316,0.0,-0.0,0.0
1698.5333333321173,0.11661462,-0.5251635,0.13417165,-2.0769713,0.51734966,1.0987641,1.0285562,0.039999835,0.04,-7.9328594,3.2077322006225586,-4.7975316,0.0,-0.0,0.0
1698.549999998784,0.11661462,-0.5251635,0.13417165,-2.0769713,0.51734966,1.0987641,1.0285562,0.039999835,0.04,-7.9328594,3.2077322006225586,-4.7975316,0.0,-0.0,0.0
1698.5666666654506,0.11661462,-0.5251635,0.13417165,-2.0769713,0.51734966,1.0987641,1.0285562,0.039999835,0.04,-7.9328594,3.2077322006225586,-4.7975316,0.0,-0.0,0.0
1698.5833333321173,0.11661462,-0.5251635,0.13417165,-2.0769713,0.51734966,1.0987641,1.0285562,0.039999835,0.04,-7.9328594,3.2077322006225586,-4.7975316,0.0,-0.0,0.0
1698.599999998784,0.11661462,-0.5251635,0.13417165,-2.0769713,0.51734966,1.0987641,1.0285562,0.039999835,0.04,-7.9328594,3.2077322006225586,-4.7975316,0.0,-0.0,0.0
1698.6166666654506,0.11661462,-0.5251635,0.13417165,-2.0769713,0.51734966,1.0987641,1.0285562,0.039999835,0.04,-7.9328594,3.2077322006225586,-4.7975316,0.0,-0.0,0.0
1698.6333333321172,0.11661462,-0.5251635,0.13417165,-2.0769713,0.51734966,1.0987641,1.0285562,0.039999835,0.04,-7.9328594,3.2077322006225586,-4.7975316,0.0,-0.0,0.0
1698.6499999987839,0.11661462,-0.5251635,0.13417165,-2.0769713,0.51734966,1.0987641,1.0285562,0.039999835,0.04,-7.9328594,3.2077322006225586,-4.7975316,0.0,-0.0,0.0
1698.6666666654505,0.11661462,-0.5251635,0.13417165,-2.0769713,0.51734966,1.0987641,1.0285562,0.039999835,0.04,-7.9328594,3.2077322006225586,-4.7975316,0.0,-0.0,0.0
1698.6833333321172,0.11661462,-0.5251635,0.13417165,-2.0769713,0.51734966,1.0987641,1.0285562,0.039999835,0.04,-7.9328594,3.2077322006225586,-4.7975316,0.0,-0.0,0.0
1698.6999999987838,0.11661462,-0.5251635,0.13417165,-2.0769713,0.51734966,1.0987641,1.0285562,0.039999835,0.04,-7.9328594,3.2077322006225586,-4.7975316,0.0,-0.0,0.0
1698.7166666654505,0.11661462,-0.5251635,0.13417165,-2.0769713,0.51734966,1.0987641,1.0285562,0.039999835,0.04,-7.9328594,3.2077322006225586,-4.7975316,0.0,-0.0,0.0
1698.7333333321171,0.11661462,-0.5251635,0.13417165,-2.0769713,0.51734966,1.0987641,1.0285562,0.039999835,0.04,-7.9328594,3.2077322006225586,-4.7975316,0.0,-0.0,0.0
1698.7499999987838,0.11661462,-0.5251635,0.13417165,-2.0769713,0.51734966,1.0987641,1.0285562,0.039999835,0.04,-7.9328594,3.2077322006225586,-4.7975316,0.0,-0.0,0.0
1698.7666666654504,0.11661462,-0.5251635,0.13417165,-2.0769713,0.51734966,1.0987641,1.0285562,0.039999835,0.04,-7.9328594,3.2077322006225586,-4.7975316,0.0,-0.0,0.0
1698.783333332117,0.11661462,-0.5251635,0.13417165,-2.0769713,0.51734966,1.0987641,1.0285562,0.039999835,0.04,-7.9328594,3.2077322006225586,-4.7975316,0.0,-0.0,0.0
1698.7999999987837,0.11661462,-0.5251635,0.13417165,-2.0769713,0.51734966,1.0987641,1.0285562,0.039999835,0.04,-7.9328594,3.2077322006225586,-4.7975316,0.0,-0.0,0.0
1698.8166666654504,0.11661462,-0.5251635,0.13417165,-2.0769713,0.51734966,1.0987641,1.0285562,0.039999835,0.04,-7.9328594,3.2077322006225586,-4.7975316,0.0,-0.0,0.0
1698.833333332117,0.11661462,-0.5251635,0.13417165,-2.0769713,0.51734966,1.0987641,1.0285562,0.039999835,0.04,-7.9328594,3.2077322006225586,-4.7975316,0.0,-0.0,0.0
1698.8499999987837,0.11661462,-0.5251635,0.13417165,-2.0769713,0.51734966,1.0987641,1.0285562,0.039999835,0.04,-7.9328594,3.2077322006225586,-4.7975316,0.0,-0.0,0.0
1698.8666666654503,0.11661462,-0.5251635,0.13417165,-2.0769713,0.51734966,1.0987641,1.0285562,0.039999835,0.04,-7.9328594,3.2077322006225586,-4.7975316,0.0,-0.0,0.0
1698.883333332117,0.11661462,-0.5251635,0.13417165,-2.0769713,0.51734966,1.0987641,1.0285562,0.039999835,0.04,-7.9328594,3.2077322006225586,-4.7975316,0.0,-0.0,0.0
1698.8999999987836,0.11661462,-0.5251635,0.13417165,-2.0769713,0.51734966,1.0987641,1.0285562,0.039999835,0.04,-7.9328594,3.2077322006225586,-4.7975316,0.0,-0.0,0.0
1698.9166666654503,0.11661462,-0.5251635,0.13417165,-2.0769713,0.51734966,1.0987641,1.0285562,0.039999835,0.04,-7.9328594,3.2077322006225586,-4.7975316,0.0,-0.0,0.0
1698.933333332117,0.11661462,-0.5251635,0.13417165,-2.0769713,0.51734966,1.0987641,1.0285562,0.039999835,0.04,-7.9328594,3.2077322006225586,-4.7975316,0.0,-0.0,0.0
1698.9499999987836,0.11661462,-0.5251635,0.13417165,-2.0769713,0.51734966,1.0987641,1.0285562,0.039999835,0.04,-7.9328594,3.2077322006225586,-4.7975316,0.0,-0.0,0.0
1698.9666666654502,0.11661462,-0.5251635,0.13417165,-2.0769713,0.51734966,1.0987641,1.0285562,0.039999835,0.04,-7.9328594,3.2077322006225586,-4.7975316,0.0,-0.0,0.0
1698.983333332117,0.11661462,-0.5251635,0.13417165,-2.0769713,0.51734966,1.0987641,1.0285562,0.039999835,0.04,-7.9328594,3.2077322006225586,-4.7975316,0.0,-0.0,0.0
1698.9999999987836,0.11661462,-0.5251635,0.13417165,-2.0769713,0.51734966,1.0987641,1.0285562,0.039999835,0.04,-7.9328594,3.2077322006225586,-4.7975316,0.0,-0.0,0.0
1699.0166666654502,0.11661462,-0.5251635,0.13417165,-2.0769713,0.51734966,1.0987641,1.0285562,0.039999835,0.04,-7.9328594,3.2077322006225586,-4.7975316,0.0,-0.0,0.0
1699.0333333321169,0.11661462,-0.5251635,0.13417165,-2.0769713,0.51734966,1.0987641,1.0285562,0.039999835,0.04,-7.9328594,3.2077322006225586,-4.7975316,0.0,-0.0,0.0
1699.0499999987835,0.11661462,-0.5251635,0.13417165,-2.0769713,0.51734966,1.0987641,1.0285562,0.039999835,0.04,-7.9328594,3.2077322006225586,-4.7975316,0.0,-0.0,0.0
1699.0666666654502,0.11661462,-0.5251635,0.13417165,-2.0769713,0.51734966,1.0987641,1.0285562,0.039999835,0.04,-7.9328594,3.2077322006225586,-4.7975316,0.0,-0.0,0.0
1699.0833333321168,0.11661462,-0.5251635,0.13417165,-2.0769713,0.51734966,1.0987641,1.0285562,0.039999835,0.04,-7.9328594,3.2077322006225586,-4.7975316,0.0,-0.0,0.0
1699.0999999987835,0.11661462,-0.5251635,0.13417165,-2.0769713,0.51734966,1.0987641,1.0285562,0.039999835,0.04,-7.9328594,3.2077322006225586,-4.7975316,0.0,-0.0,0.0
1699.11666666545,0.11661462,-0.5251635,0.13417165,-2.0769713,0.51734966,1.0987641,1.0285562,0.039999835,0.04,-7.9328594,3.2077322006225586,-4.7975316,0.0,-0.0,0.0
1699.1333333321168,0.11661462,-0.5251635,0.13417165,-2.0769713,0.51734966,1.0987641,1.0285562,0.039999835,0.04,-7.9328594,3.2077322006225586,-4.7975316,0.0,-0.0,0.0
1699.1499999987834,0.11661462,-0.5251635,0.13417165,-2.0769713,0.51734966,1.0987641,1.0285562,0.039999835,0.04,-7.9328594,3.2077322006225586,-4.7975316,0.0,-0.0,0.0
1699.16666666545,0.11661462,-0.5251635,0.13417165,-2.0769713,0.51734966,1.0987641,1.0285562,0.039999835,0.04,-7.9328594,3.2077322006225586,-4.7975316,0.0,-0.0,0.0
1699.1833333321167,0.11661462,-0.5251635,0.13417165,-2.0769713,0.51734966,1.0987641,1.0285562,0.039999835,0.04,-7.9328594,3.2077322006225586,-4.7975316,0.0,-0.0,0.0
1699.1999999987834,0.11661462,-0.5251635,0.13417165,-2.0769713,0.51734966,1.0987641,1.0285562,0.039999835,0.04,-7.9328594,3.2077322006225586,-4.7975316,0.0,-0.0,0.0
1699.21666666545,0.11661462,-0.5251635,0.13417165,-2.0769713,0.51734966,1.0987641,1.0285562,0.039999835,0.04,-7.9328594,3.2077322006225586,-4.7975316,0.0,-0.0,0.0
1699.2333333321167,0.11661462,-0.5251635,0.13417165,-2.0769713,0.51734966,1.0987641,1.0285562,0.039999835,0.04,-7.9328594,3.2077322006225586,-4.7975316,0.0,-0.0,0.0
1699.2499999987833,0.11661462,-0.5251635,0.13417165,-2.0769713,0.51734966,1.0987641,1.0285562,0.039999835,0.04,-7.9328594,3.2077322006225586,-4.7975316,0.0,-0.0,0.0
1699.26666666545,0.11661462,-0.5251635,0.13417165,-2.0769713,0.51734966,1.0987641,1.0285562,0.039999835,0.04,-7.9328594,3.2077322006225586,-4.7975316,0.0,-0.0,0.0
1699.2833333321166,0.11661462,-0.5251635,0.13417165,-2.0769713,0.51734966,1.0987641,1.0285562,0.039999835,0.04,-7.9328594,3.2077322006225586,-4.7975316,0.0,-0.0,0.0
1699.2999999987833,0.11661462,-0.5251635,0.13417165,-2.0769713,0.51734966,1.0987641,1.0285562,0.039999835,0.04,-7.9328594,3.2077322006225586,-4.7975316,0.0,-0.0,0.0
1699.31666666545,0.11661462,-0.5251635,0.13417165,-2.0769713,0.51734966,1.0987641,1.0285562,0.039999835,0.04,-7.9328594,3.2077322006225586,-4.7975316,0.0,-0.0,0.0
1699.3333333321166,0.11661462,-0.5251635,0.13417165,-2.0769713,0.51734966,1.0987641,1.0285562,0.039999835,0.04,-7.9328594,3.2077322006225586,-4.7975316,0.0,-0.0,0.0
1699.3499999987832,0.11661462,-0.5251635,0.13417165,-2.0769713,0.51734966,1.0987641,1.0285562,0.039999835,0.04,-7.9328594,3.2077322006225586,-4.7975316,0.0,-0.0,0.0
1699.3666666654499,0.11661462,-0.5251635,0.13417165,-2.0769713,0.51734966,1.0987641,1.0285562,0.039999835,0.04,-7.9328594,3.2077322006225586,-4.7975316,0.0,-0.0,0.0
1699.3833333321165,0.11661462,-0.5251635,0.13417165,-2.0769713,0.51734966,1.0987641,1.0285562,0.039999835,0.04,-7.9328594,3.2077322006225586,-4.7975316,0.0,-0.0,0.0
1699.3999999987832,0.11661462,-0.5251635,0.13417165,-2.0769713,0.51734966,1.0987641,1.0285562,0.039999835,0.04,-7.9328594,3.2077322006225586,-4.7975316,0.0,-0.0,0.0
1699.4166666654498,0.11661462,-0.5251635,0.13417165,-2.0769713,0.51734966,1.0987641,1.0285562,0.039999835,0.04,-7.9328594,3.2077322006225586,-4.7975316,0.0,-0.0,0.0
1699.4333333321165,0.11661462,-0.5251635,0.13417165,-2.0769713,0.51734966,1.0987641,1.0285562,0.039999835,0.04,-7.9328594,3.2077322006225586,-4.7975316,0.0,-0.0,0.0
1699.4499999987831,0.11661462,-0.5251635,0.13417165,-2.0769713,0.51734966,1.0987641,1.0285562,0.039999835,0.04,-7.9328594,3.2077322006225586,-4.7975316,0.0,-0.0,0.0
1699.4666666654498,0.11661462,-0.5251635,0.13417165,-2.0769713,0.51734966,1.0987641,1.0285562,0.039999835,0.04,-7.9328594,3.2077322006225586,-4.7975316,0.0,-0.0,0.0
1699.4833333321164,0.11661462,-0.5251635,0.13417165,-2.0769713,0.51734966,1.0987641,1.0285562,0.039999835,0.04,-7.9328594,3.2077322006225586,-4.7975316,0.0,-0.0,0.0
1699.499999998783,0.11661462,-0.5251635,0.13417165,-2.0769713,0.51734966,1.0987641,1.0285562,0.039999835,0.04,-7.9328594,3.2077322006225586,-4.7975316,0.0,-0.0,0.0
1699.5166666654497,0.11661462,-0.5251635,0.13417165,-2.0769713,0.51734966,1.0987641,1.0285562,0.039999835,0.04,-7.9328594,3.2077322006225586,-4.7975316,0.0,-0.0,0.0
1699.5333333321164,0.11661462,-0.5251635,0.13417165,-2.0769713,0.51734966,1.0987641,1.0285562,0.039999835,0.04,-7.9328594,3.2077322006225586,-4.7975316,0.0,-0.0,0.0
1699.549999998783,0.11661462,-0.5251635,0.13417165,-2.0769713,0.51734966,1.0987641,1.0285562,0.039999835,0.04,-7.9328594,3.2077322006225586,-4.7975316,0.0,-0.0,0.0
1699.5666666654497,0.11661462,-0.5251635,0.13417165,-2.0769713,0.51734966,1.0987641,1.0285562,0.039999835,0.04,-7.9328594,3.2077322006225586,-4.7975316,0.0,-0.0,0.0
1699.5833333321164,0.11661462,-0.5251635,0.13417165,-2.0769713,0.51734966,1.0987641,1.0285562,0.039999835,0.04,-7.9328594,3.2077322006225586,-4.7975316,0.0,-0.0,0.0
1699.599999998783,0.11661462,-0.5251635,0.13417165,-2.0769713,0.51734966,1.0987641,1.0285562,0.039999835,0.04,-7.9328594,3.2077322006225586,-4.7975316,0.0,-0.0,0.0
1699.6166666654497,0.11661462,-0.5251635,0.13417165,-2.0769713,0.51734966,1.0987641,1.0285562,0.039999835,0.04,-7.9328594,3.2077322006225586,-4.7975316,0.0,-0.0,0.0
1699.6333333321163,0.11661462,-0.5251635,0.13417165,-2.0769713,0.51734966,1.0987641,1.0285562,0.039999835,0.04,-7.9328594,3.2077322006225586,-4.7975316,0.0,-0.0,0.0
1699.649999998783,0.11661462,-0.5251635,0.13417165,-2.0769713,0.51734966,1.0987641,1.0285562,0.039999835,0.04,-7.9328594,3.2077322006225586,-4.7975316,0.0,-0.0,0.0
1699.6666666654496,0.11661462,-0.5251635,0.13417165,-2.0769713,0.51734966,1.0987641,1.0285562,0.039999835,0.04,-7.9328594,3.2077322006225586,-4.7975316,0.0,-0.0,0.0
1699.6833333321163,0.11661462,-0.5251635,0.13417165,-2.0769713,0.51734966,1.0987641,1.0285562,0.039999835,0.04,-7.9328594,3.2077322006225586,-4.7975316,0.0,-0.0,0.0
1699.699999998783,0.11661462,-0.5251635,0.13417165,-2.0769713,0.51734966,1.0987641,1.0285562,0.039999835,0.04,-7.9328594,3.2077322006225586,-4.7975316,0.0,-0.0,0.0
