rsonawane2002/My_IMU/logs_incomplete/traj_383/clean_383.csv
time,j1,j2,j3,j4,j5,j6,j7,gripper1,gripper2,imu_ax,imu_ay,imu_az,imu_gx,imu_gy,imu_gz,quat_x,quat_y,quat_z,quat_w
1459.6333333323346,0.00016700293,-0.785875,4.0107683e-05,-2.3551247,9.29385e-05,1.570997,0.786,0.04,0.04,0.0,-0.0,0.0,2.875329272945135e-08,-0.0011641195053377316,4.421952117202833e-08,0.9999995971961153,0.00020320632366974898,0.0008736418299892524,3.263050917662294e-05
1459.6499999990012,0.00016701099,-0.78576016,4.0110477e-05,-2.3552213,9.298217e-05,1.5709941,0.786,0.04,0.04,-0.29199845929095414,-4.22382098499356e-05,0.020128406758557205,-7.487254461618223e-08,-0.002239500888215064,7.252998583528595e-07,0.9999996850588323,0.00020320604758359144,0.0007665025165858439,3.26102853155459e-05
1459.666666665668,0.00016705462,-0.7856543,4.0084356e-05,-2.35531,9.30794e-05,1.5709913,0.786,0.04,0.04,0.023328730298732836,-4.520562184745524e-05,-0.0016704454679494773,1.5763823383426697e-07,-0.003234636696407774,5.178725972833469e-06,0.9999997558463516,0.00020319782004133617,0.0006677972344243989,3.2630303921153426e-05
1459.6833333323345,0.00016719232,-0.78555703,3.9982737e-05,-2.355391,9.332279e-05,1.5709884,0.786,0.04,0.04,0.022460759876397063,-0.00012379728401966535,-0.0015249219806889869,5.782660173909353e-07,-0.004161241537542687,1.6869407519000123e-05,0.9999998122459578,0.00020316886479344615,0.0005771981358198199,3.275321964254075e-05
1459.6999999990012,0.00016750771,-0.78546774,3.9738843e-05,-2.3554645,9.384478e-05,1.5709856,0.786,0.04,0.04,0.0218005757466333,-0.0002359729282730243,-0.001173335229576189,1.3847355957316985e-06,-0.005028151859011792,3.892299206038332e-05,0.9999998566089875,0.00020310100688934954,0.0004944071639576297,3.306874096191174e-05
1459.7166666656678,0.00016810696,-0.7853861,3.926789e-05,-2.3555312,9.481625e-05,1.5709827,0.786,0.04,0.04,0.019783102362680438,-0.0003803521244134041,-0.0013850486405786455,3.1130382205496573e-06,-0.0058429379668977705,7.41398572591611e-05,0.9999998911501863,0.00020297118722869425,0.0004187686233866751,3.3692026936070353e-05
1459.7333333323345,0.00016911644,-0.7853115,3.8468603e-05,-2.3555906,9.644674e-05,1.5709798,0.786,0.04,0.039999995,0.020404803535023497,-0.0005566038722728563,-0.0007511555627504052,5.532918804098086e-06,-0.006614508579815444,0.00012580736643896443,0.9999999174613209,0.00020275205142151565,0.00035037186585429254,3.476367113681908e-05
1459.7499999990011,0.0001706811,-0.785244,3.7225553e-05,-2.3556473,9.894505e-05,1.570977,0.786,0.04,0.04,0.012233963912522405,-0.0007353466927978848,-0.0028421195241268293,9.568937856446563e-06,-0.0073489778706849924,0.0001938657965902063,0.9999999377232286,0.0002024121423730622,0.00028680284559590163,3.642789048878785e-05
1459.7666666656678,0.00017296147,-0.78518295,3.5409743e-05,-2.3556974,0.00010257777,1.5709741,0.7860019,0.04,0.04,0.018528953885410537,-0.0009595787613649205,-0.0007183305414493191,1.536549616920579e-05,-0.0080725911095153,0.00028270538787482325,0.9999999522580006,0.00020287043462952786,0.00022981978957162382,3.886447398156054e-05
1459.7833333323345,0.00017613295,-0.7851281,3.2880842e-05,-2.3557403,0.000107619715,1.5709713,0.7860038,0.04,0.04,0.019009096229893885,-0.0011924833641724136,-0.000329152332190219,1.4339432940637035e-05,-0.00877140754653523,0.0003926847425606536,0.9999999623627874,0.0002031352428864863,0.00017951205738101774,4.226012270067721e-05
1459.799999999001,0.00018038343,-0.7850797,2.9488103e-05,-2.3557775,0.00011438806,1.5709684,0.78600574,0.04,0.039999995,0.016840903889625558,-0.0014581635257291162,-0.0010990676359012852,1.604567196403735e-05,-0.009451298471082637,0.0005280336755982935,0.9999999691146085,0.00020316603726642377,0.00013528350846633502,4.6826440789717825e-05
1459.8166666656678,0.00018591246,-0.78503764,2.5072208e-05,-2.355811,0.0001231741,1.5709655,0.78600764,0.04,0.04,0.01306230650763851,-0.00170725204262033,-0.0019883506267470707,2.0755329371454793e-05,-0.010121214147539364,0.0006859386282043608,0.9999999734116118,0.00020291954036699136,9.600155951110439e-05,5.2764916002472154e-05
1459.8333333323344,0.00019292902,-0.78500146,1.9465475e-05,-2.3558383,0.00013431587,1.5709627,0.78601146,0.039999995,0.04,0.017462726530603767,-0.0019923345017194643,-0.0004663681970606959,2.9043907806078356e-05,-0.01079517841330487,0.0008700134901913089,0.9999999755379436,0.00020330421413828695,6.288793577839674e-05,6.0304363893130395e-05
1459.849999999001,0.00020165081,-0.7849714,1.2493232e-05,-2.3558583,0.00014816521,1.5709597,0.7860153,0.03999999,0.039999995,0.018903559929395186,-0.002288724148801738,-0.00036604076669721763,3.2467139868380305e-05,-0.01146749826162464,0.001081619147782111,0.9999999762417865,0.00020331930446431474,3.635978463985891e-05,6.968251542780291e-05
1459.8666666656677,0.00021230306,-0.7849475,3.975091e-06,-2.3558729,0.00016507988,1.5709567,0.786021,0.039999988,0.03999999,0.016105150264600354,-0.0025907548250456193,-0.0010225167003108382,4.070966334502148e-05,-0.012136076008582804,0.001321406683838639,0.9999999758042366,0.00020386974773668132,1.5642024750073858e-05,8.114172299935293e-05
1459.8833333323344,0.00022511726,-0.78492975,-6.274582e-06,-2.3558815,0.00018542778,1.5709535,0.7860267,0.039999988,0.03999999,0.01683988622307453,-0.0029012513959407777,-0.0009844455588714496,4.483337824781082e-05,-0.012814173047315464,0.0015899857981146307,0.9999999746954775,0.00020395171845906526,8.537553474238533e-07,9.493161665255975e-05
1459.899999999001,0.00024033041,-0.7849182,-1.8445686e-05,-2.355885,0.00020958512,1.5709502,0.78603435,0.039999988,0.039999995,0.015323148400536724,-0.0032188009492002886,-0.0013557177278800125,5.4845378669717254e-05,-0.013504665073321886,0.001887171631515543,0.9999999728666357,0.00020446751323433983,-8.392748548575826e-06,0.00011130734733059206
1459.9166666656677,0.00025818383,-0.784913,-3.2732e-05,-2.3558812,0.0002379367,1.5709435,0.7860434,0.03999998,0.039999988,0.018552773546254286,-0.0035427578642832852,-0.0027857603721814783,6.184622162872276e-05,-0.014213259612555542,0.0022152476920955276,0.99999997036543,0.0002051261070862069,-1.2425549754521082e-05,0.00013052978601642577
1459.9333333323343,0.00027892247,-0.7849143,-4.932981e-05,-2.3558698,0.0002708715,1.5709368,0.7860531,0.039999973,0.03999998,0.02014746839802406,-0.0038711614666505387,-0.000259064666918718,6.902946202086272e-05,-0.01494696331391958,0.0025738220362114487,0.9999999671597407,0.0002054868951157244,-9.397143197077209e-06,0.0001528638187721664
1459.949999999001,0.00030279413,-0.7849221,-6.843803e-05,-2.3558514,0.00030878352,1.57093,0.78606457,0.039999966,0.039999973,0.018894924654500045,-0.004202833507918423,-0.0006696630965752348,8.04181496432112e-05,-0.01569178768552329,0.0029632627625234545,0.99999996283043,0.00020603243090153045,2.748269319281721e-07,0.0001785768759783643
1459.9666666656676,0.00033004885,-0.784937,-9.025718e-05,-2.3558257,0.00035207035,1.570923,0.7860779,0.03999996,0.03999997,0.020327105433470827,-0.004537493565150066,-0.0008841983595297975,9.182809244556733e-05,-0.01645782783513313,0.003383858108962254,0.9999999568523983,0.0002067974482819271,1.70667702232249e-05,0.00020793927513187415
1459.9833333323343,0.00036093828,-0.784959,-0.00011498921,-2.3557925,0.00040113222,1.5709153,0.7860932,0.039999954,0.03999996,0.02021492116219825,-0.004874064142559365,-0.0011537318742371738,0.000102376467115468,-0.017241942069895426,0.0038358110474849888,0.9999999484982158,0.00020772686145577372,4.079939061508602e-05,0.00024122298049909807
1459.999999999001,0.00039571506,-0.78498816,-0.00014283661,-2.3557518,0.00045637065,1.5709049,0.78611034,0.039999947,0.039999954,0.019969546541775962,-0.005211707342879762,-0.002772466541345331,0.00011311463904815986,-0.01804857442976439,0.004319266617686359,0.9999999368873153,0.00020876481758140311,7.048865534229139e-05,0.00027870049466879166
1460.0166666656676,0.00043463212,-0.78502476,-0.00017400247,-2.3557029,0.000518188,1.5708942,0.7861294,0.03999994,0.039999947,0.02197963495629285,-0.005549484912460896,-0.0006897584203802154,0.00012456475765355,-0.018893378205829633,0.0048343036389272955,0.9999999207527968,0.00020985589556750807,0.00010789226217479024,0.0003206464767814098
1460.0333333323342,0.00047794235,-0.7850691,-0.00020868963,-2.355646,0.00058698625,1.5708834,0.78615046,0.03999994,0.039999947,0.022273361088509525,-0.005886735681755044,-0.0009541463263484928,0.000136963028737797,-0.019760055411939405,0.005380933449306433,0.9999998985579802,0.000210973918398059,0.00015309887675888373,0.0003673346823357636
1460.0499999990009,0.0005258981,-0.78512126,-0.0002471007,-2.3555803,0.000663167,1.5708702,0.7861738,0.03999994,0.039999947,0.02247163566186927,-0.006223019303080455,-0.0023812379576160225,0.00015083738578125202,-0.02065075491276602,0.005959113771158297,0.9999998686056321,0.00021224121910642655,0.000205302926005194,0.00041903829412087956
1460.0666666656675,0.00057875115,-0.78518146,-0.0002894375,-2.3555055,0.0007471295,1.5708557,0.78619957,0.03999994,0.03999995,0.02433124353056204,-0.006557283918821057,-0.001317668806266603,0.00016481429754573707,-0.021579028808490577,0.006567909448847768,0.999999828612978,0.00021363141239955967,0.00026557630207798216,0.00047603031625607613
1460.0833333323342,0.00063675124,-0.78525025,-0.000335901,-2.3554208,0.00083927263,1.5708408,0.7862277,0.039999936,0.039999947,0.025964720905125027,-0.006889585945088028,-0.0008874518310220125,0.00017942147087051286,-0.02253555568595893,0.00720891751206248,0.9999997757928462,0.00021508852966692786,0.000334782162180272,0.0005385834064177234
1460.0999999990008,0.00070014724,-0.78532755,-0.00038669052,-2.3553267,0.0009399914,1.5708232,0.7862587,0.039999936,0.039999947,0.024778710146522442,-0.007219671335961298,-0.0026612837885409135,0.00019493271554036555,-0.023516279450016508,0.00788109089375081,0.9999997075730375,0.0002167940802775483,0.0004116376140832187,0.0006069667544442865
1460.1166666656675,0.00076918583,-0.78541404,-0.00044200418,-2.3552227,0.0010496773,1.5708048,0.7862922,0.03999994,0.039999954,0.02655577907173523,-0.007545240975919375,-0.00143251243067688,0.00020998818071258523,-0.024536330958984953,0.008583387936322568,0.999999620135622,0.0002185134653146832,0.0004976016420532808,0.0006814492517442541
1460.1333333323341,0.00084411126,-0.78550977,-0.00050203805,-2.3551078,0.0011687207,1.5707855,0.7863287,0.03999994,0.03999995,0.028577126174234024,-0.007868960599584949,-0.0011297444601821027,0.000226218135917833,-0.025582766457120504,0.009318141844798499,0.9999995092252638,0.00022042883786687782,0.0005931791255504672,0.0007622984219457154
1460.1499999990008,0.0009251656,-0.7856149,-0.00056698633,-2.3549826,0.0012975045,1.5707635,0.786368,0.039999947,0.03999996,0.026996402434531497,-0.008187114489606635,-0.00290281227934841,0.00024253701887548204,-0.026656028843723877,0.010081635844931935,0.999999371155496,0.00022242395502585727,0.0006972060111640609,0.0008497764264119827
1460.1666666656674,0.0010125882,-0.7857298,-0.0006370414,-2.3548455,0.0014364104,1.5707406,0.7864106,0.03999995,0.039999966,0.03084059457494348,-0.008501012948634217,-0.0009643750612076119,0.00025951752030394827,-0.02776867420465297,0.010876197442353843,0.9999991996732998,0.00022465191108685882,0.0008116470590340726,0.0009441468797472952
1460.183333332334,0.001106615,-0.7858549,-0.0007123927,-2.354698,0.0015858138,1.5707148,0.7864564,0.03999995,0.039999966,0.028166550948816038,-0.00881169597268961,-0.00334016128995529,0.00027550392991371186,-0.028906150271441836,0.011700612957872739,0.9999989904598972,0.00022699664885001184,0.0009349503480125928,0.0010456670381712428
1460.1999999990007,0.0012074796,-0.78599024,-0.00079322775,-2.354538,0.0017460859,1.5706882,0.78650546,0.039999958,0.039999973,0.03225868011054178,-0.009115201748895654,-0.00111251770176235,0.0002921602940154657,-0.03008349994218179,0.012554572604147269,0.9999987355665263,0.00022946250433347027,0.0010691696941647556,0.001154594505824679
1460.2166666656674,0.0013154115,-0.7861362,-0.00087973074,-2.354367,0.0019175914,1.5706593,0.7865579,0.03999996,0.039999977,0.029671169438016953,-0.00941513122908414,-0.003103890862732328,0.0003089505335322675,-0.03128448034483988,0.013437704038050129,0.9999984294874614,0.0002320531785062116,0.0012129611872980627,0.0012711801962196918
1460.233333332334,0.0014306374,-0.786293,-0.0009720836,-2.3541825,0.0021006917,1.5706289,0.78661394,0.03999996,0.039999977,0.03470648191739034,-0.009707924056071805,-0.0014004072010020963,0.00032586791619442597,-0.032525678000423094,0.014349672247460022,0.9999980624510377,0.0002348022495959673,0.001368229038787541,0.001395675955015322
1460.2499999990007,0.0015533803,-0.786461,-0.0010704655,-2.3539853,0.0022957397,1.5705961,0.78667355,0.03999996,0.03999998,0.033120625893490185,-0.009995505520234626,-0.0027432354010370474,0.00034238000043389314,-0.033789864889599425,0.015289192490033104,0.9999976270349704,0.00023765402643414777,0.001534165272435911,0.0015283265060113916
1460.2666666656673,0.0016838588,-0.7866404,-0.0011750526,-2.3537755,0.0025030856,1.5705618,0.78673697,0.03999996,0.03999998,0.03372706254778368,-0.010277758694081244,-0.0023346448324579328,0.0003590605814848902,-0.03508718956750095,0.016257625000044677,0.9999971132968707,0.00024067326992020596,0.0017113323276200403,0.001669375921541787
1460.283333332334,0.001822289,-0.7868314,-0.0012860169,-2.3535526,0.00272307,1.5705248,0.7868043,0.03999996,0.039999984,0.03433902698990465,-0.010553837218974784,-0.003036215853935431,0.00037506180898432863,-0.03641439095111318,0.017252826587792883,0.9999965117397085,0.00024386290712293066,0.001899487719605448,0.0018190617638310295
1460.2999999990006,0.0019688818,-0.78703463,-0.001403529,-2.3533154,0.0029560316,1.5704863,0.78687567,0.03999996,0.039999984,0.03751270531104911,-0.010821061846804769,-0.0021719448661583485,0.00039013328550989955,-0.03777688190066532,0.018276104557044013,0.9999958086956815,0.00024719804976625645,0.002100117188512796,0.0019776228125264867
1460.3166666656673,0.002123845,-0.7872499,-0.0015277552,-2.3530636,0.0032022984,1.5704448,0.786951,0.03999996,0.039999984,0.03721162278553791,-0.01108369024603313,-0.0030512444624930524,0.00040479778476676083,-0.039161591786527436,0.019326154109300803,0.9999949936195689,0.00025062230927928636,0.0023125008176172464,0.0021452888441769995
1460.333333332334,0.0022873823,-0.7874779,-0.001658859,-2.352797,0.0034621945,1.5704018,0.7870305,0.03999996,0.039999984,0.038814959733946,-0.011338082935896622,-0.002319326640543018,0.0004187951095602927,-0.040576867156337806,0.02040259848962872,0.9999940509620775,0.0002541708203596597,0.0025377956619325745,0.002322289996219184
1460.3499999990006,0.002459691,-0.78771853,-0.0017970002,-2.352516,0.0037360347,1.570356,0.7871143,0.039999958,0.039999984,0.03797814677521938,-0.011585037529850606,-0.0033419530804712494,0.00043212917492362925,-0.042016006464869034,0.021504063130849075,0.9999929685627975,0.0002578481150006682,0.0027752510817065845,0.002508848490234903
1460.3666666656673,0.0026409673,-0.787972,-0.0019423346,-2.35222,0.0040241317,1.5703079,0.78720254,0.039999958,0.039999984,0.038713369021303734,-0.011830400854872759,-0.003143468017285933,0.00044424383480801827,-0.04348695326972953,0.022631897899785088,0.9999917306532151,0.00026165815225392475,0.003025248477751292,0.002705186102097362
1460.383333332334,0.0028314018,-0.7882387,-0.0020950162,-2.3519087,0.004326785,1.5702577,0.78729516,0.03999995,0.039999977,0.040591152049374024,-0.012058827083934725,-0.002914156061661899,0.00045511684926328663,-0.044985950649786964,0.02378474033002157,0.9999903189226493,0.00026554603552889425,0.003288556400495992,0.0029115190334056715
1460.3999999990006,0.0030311802,-0.7885188,-0.002255194,-2.351582,0.0046442933,1.5702044,0.7873923,0.039999947,0.039999977,0.03992626005671074,-0.012289386905556428,-0.003930386946304765,0.0004647502834995553,-0.04650959581094492,0.024961313153393436,0.9999887182583888,0.00026951510142510666,0.003564542090317262,0.0031280596607505835
1460.4166666656672,0.0032404847,-0.78881276,-0.002423014,-2.3512402,0.004976945,1.570149,0.7874941,0.03999995,0.03999998,0.04084675286688544,-0.012506620680143108,-0.003616171342168961,0.0004734418984882341,-0.04806449009586083,0.02616289467902015,0.9999869079833128,0.0002735707333751815,0.0038539431890841154,0.00335501757413788
1460.4333333323339,0.0034594927,-0.7891207,-0.00259862,-2.3508828,0.005325023,1.5700911,0.78760064,0.039999954,0.039999988,0.04126422413543995,-0.01271794579833594,-0.003814523164336059,0.0004803212691007379,-0.049645314558008996,0.02738727822123853,0.9999848685332845,0.000277687612331781,0.004156781685316312,0.0035925979569411655
1460.4499999990005,0.0036883766,-0.78944266,-0.002782149,-2.3505092,0.0056888014,1.5700302,0.787712,0.039999954,0.039999988,0.042406329119826225,-0.012921899548314509,-0.0042008929866721445,0.0004856438972328566,-0.05125408916512518,0.02863572302458893,0.9999825791317493,0.00028186786892411,0.004473108757637685,0.0038410000730982235
1460.4666666656672,0.0039273063,-0.78977907,-0.0029737377,-2.3501177,0.0060685487,1.5699668,0.7878282,0.039999954,0.039999995,0.0458614000687696,-0.013112690802095407,-0.003349641613081822,0.0004890979026667139,-0.05289103903591932,0.02990431147553384,0.9999800118416978,0.00028608477198811236,0.0048042268249524666,0.004100424026301989
1460.4833333323338,0.0041764444,-0.7901304,-0.0031735166,-2.3497095,0.006464525,1.5699008,0.7879493,0.039999947,0.039999988,0.04434661503016635,-0.013302559118192996,-0.00434206134827253,0.0004906259900398727,-0.054545187940606324,0.0311978614903159,0.999977144765639,0.00029028305889371923,0.005149709390287859,0.004371061118485511
1460.4999999990005,0.0044359486,-0.79049647,-0.003381615,-2.349285,0.006876987,1.5698318,0.7880756,0.03999994,0.039999977,0.04375941341703271,-0.01348287119283774,-0.0046678702657176885,0.0004902205023597055,-0.05622295103562498,0.03251506368969469,0.9999739546972682,0.00029455753235890233,0.005509247955160843,0.004653101109398154
1460.5166666656671,0.0047059776,-0.7908777,-0.0035981569,-2.3488424,0.0073061795,1.5697603,0.78820693,0.039999947,0.039999988,0.04669837888702233,-0.013653650270357195,-0.004209646066133388,0.0004870362428463391,-0.05792666324722178,0.033851018817821724,0.9999704100458013,0.0002987590990497898,0.005883845751468143,0.004946729728365986
1460.5333333323338,0.00498668,-0.79127413,-0.0038232629,-2.3483818,0.0077523463,1.5696858,0.7883435,0.039999947,0.04,0.047085723648288,-0.013818059923914952,-0.004540612619696738,0.0004818819883210283,-0.05964905027439383,0.035205285484886537,0.9999664829544939,0.00030295050395495396,0.00627346141165824,0.005252130094385916
1460.5499999990004,0.0052782036,-0.79168594,-0.0040570498,-2.3479037,0.008215704,1.5696083,0.7884853,0.039999947,0.04,0.04609650390616782,-0.013966922680912729,-0.005087517464907876,0.0004739097318395549,-0.06139137375644647,0.036582573586809546,0.9999621460304177,0.0003070748592664229,0.006677815118923616,0.005569470038531797
1460.566666665667,0.0055806884,-0.7921131,-0.0042996327,-2.347407,0.008696496,1.5695282,0.78863233,0.039999943,0.04,0.048279632426928565,-0.014119573405912272,-0.004461150544177173,0.0004632812471916034,-0.06315742435600402,0.03798006716042208,0.9999573635422494,0.0003110762568826181,0.007097669482273802,0.005898933557569146
1460.5833333323337,0.00589427,-0.7925565,-0.00455112,-2.346893,0.009194926,1.5694453,0.78878486,0.039999936,0.04,0.047126073829883985,-0.014252609103100437,-0.005784245117679276,0.0004500085929644241,-0.0649413915382262,0.03939708476810007,0.9999521052879257,0.00031501582630521997,0.007532712946418313,0.0062406835315913884
1460.5999999990004,0.0062190816,-0.79301566,-0.0048116194,-2.3463597,0.009711208,1.5693592,0.7889429,0.039999932,0.04,0.04981091402085358,-0.014377852532979074,-0.005036225262022853,0.0004334922815112264,-0.0667455978261837,0.040833257827798286,0.9999463331095843,0.0003188340529441098,0.007983527990277838,0.0065948863804759185
1460.616666665667,0.006555253,-0.7934911,-0.005081233,-2.3458083,0.010245547,1.5692699,0.78910637,0.039999936,0.04,0.048434808136210705,-0.014508202174045963,-0.006144515375106074,0.00041337882693007026,-0.06856807016549758,0.042289719759328055,0.9999400144677199,0.000322471895914153,0.008449742795841209,0.006961704163254919
1460.6333333323337,0.006902906,-0.7939829,-0.0053600594,-2.3452373,0.0107981395,1.5691776,0.78927547,0.039999947,0.04,0.050993331565529765,-0.014613697291781212,-0.005545930943284816,0.0003898986776297627,-0.07040990776955033,0.04376542832805328,0.9999331054403314,0.0003259299927804401,0.008932176520371524,0.0073412966636457605
1460.6499999990003,0.0072621577,-0.79449123,-0.0056481934,-2.3446474,0.011369185,1.5690826,0.78945017,0.03999994,0.04,0.050091016528241994,-0.01472677082444019,-0.005958116638660194,0.00036274570959348405,-0.07226536831959762,0.04525383020332364,0.999925568347412,0.0003291519837084938,0.00943066457132034,0.00773382116549311
1460.666666665667,0.0076331235,-0.79501617,-0.005945729,-2.344038,0.011958854,1.5689843,0.7896306,0.039999936,0.04,0.05128913861138784,-0.01481169820744914,-0.006364713828177493,0.0003320814356069495,-0.07413743354524802,0.04676295308161112,0.9999173617285494,0.00033213499970230676,0.00994530943725067,0.008139423834446446
1460.6833333323336,0.008015915,-0.79555804,-0.006252755,-2.3434086,0.012567333,1.5688827,0.78981674,0.03999994,0.04,0.05251587918171374,-0.014903179433534142,-0.0064598653862102395,0.00029706162857680643,-0.07602476513187464,0.04828892940033578,0.9999084389181647,0.0003348172628054825,0.010476541079484382,0.008558257103479489
1460.6999999990003,0.008410634,-0.7961168,-0.006569353,-2.3427603,0.013194769,1.5687779,0.79000866,0.039999947,0.04,0.05052560512175397,-0.014974189983555514,-0.00715703510676402,0.00025820185184054906,-0.0779239050058262,0.049831442920643024,0.9998987624582963,0.0003371720614455189,0.011023745563828341,0.008990449550079185
1460.716666665667,0.008817386,-0.79669285,-0.006895604,-2.3420918,0.013841341,1.56867,0.7902065,0.039999943,0.04,0.05338410696378304,-0.015053709423742782,-0.006879087105549075,0.00021484548568445096,-0.07984127572642333,0.051389153833105744,0.9998882768638696,0.00033919234455582234,0.011587827585760938,0.009436153379293629
1460.7333333323336,0.009236264,-0.7972863,-0.007231589,-2.3414032,0.014507203,1.5685589,0.7904102,0.039999936,0.04,0.05318302180106205,-0.015106556268769389,-0.007399153929954494,0.00016695050776233816,-0.0817693836042291,0.052963318842111126,0.9998769354880017,0.0003408196789302968,0.01216867846867694,0.00989550329163509
1460.7499999990002,0.009667363,-0.79789704,-0.0075773783,-2.340695,0.015192488,1.5684447,0.7906199,0.039999936,0.04,0.052799252556479104,-0.015157642338228458,-0.00760536005093293,0.0001141523836822849,-0.08370728250705287,0.0545526685152064,0.9998646904166928,0.00034202164848495136,0.012766188487891192,0.010368621442336778
1460.766666665667,0.010110771,-0.7985251,-0.007933045,-2.3399665,0.015897343,1.5683272,0.79083556,0.039999943,0.04,0.0531119069008934,-0.015204710784252028,-0.007889340579025905,5.618904046199996e-05,-0.08565983666477195,0.05615678621714707,0.9998514914895761,0.00034273563323400396,0.013380307003350661,0.01085563829776124
1460.7833333323335,0.010566568,-0.7991708,-0.008298657,-2.3392172,0.016621904,1.5682063,0.7910572,0.039999943,0.04,0.055188798432848074,-0.015226383210647718,-0.007976818339061609,-6.542296416970836e-06,-0.08762345966177575,0.057775244212615304,0.9998372774146888,0.0003429275151758566,0.014011667651459704,0.011356683597211968
1460.7999999990002,0.011034837,-0.79983395,-0.008674274,-2.338447,0.017366294,1.5680821,0.791285,0.03999994,0.04,0.05463777605392295,-0.015261083291664111,-0.008225401102834873,-7.49138789424876e-05,-0.08959600230673048,0.059407590598949844,0.9998219964433497,0.00034256214128216184,0.014660039051539633,0.01187187155511428
1460.8166666656668,0.011515652,-0.800515,-0.009059962,-2.337657,0.018130634,1.5679545,0.79151887,0.03999994,0.04,0.05392833108475159,-0.01527677971728432,-0.00903010810286986,-0.000148405173063932,-0.09157791251621375,0.06105345874253433,0.9998055947380526,0.00034160809205727643,0.015325248557879706,0.012401322148851902
1460.8333333323335,0.0120090805,-0.8012141,-0.009455771,-2.336846,0.018915031,1.5678236,0.7917589,0.03999995,0.04,0.05540393387351017,-0.015276361845943665,-0.009135082471867229,-0.00022823856803863736,-0.09357089200815048,0.06271228017762104,0.9997880078043272,0.0003399978662011102,0.01600771904970465,0.012945145149095501
1460.8499999990001,0.012515189,-0.8019312,-0.009861759,-2.3360145,0.019719597,1.5676894,0.79200524,0.03999994,0.04,0.05539476874045768,-0.015275626574019069,-0.009385462759570196,-0.0003136109664041084,-0.09557123734983539,0.06438306984047086,0.999769176164207,0.0003377581127579713,0.01670739457792587,0.01350345429205606
1460.8666666656668,0.013034047,-0.8026664,-0.010277974,-2.3351614,0.020544413,1.5675516,0.79225755,0.039999943,0.04,0.0567262520224876,-0.015253765621330365,-0.009654299276817824,-0.0004060404338391988,-0.09757835271608298,0.06606690750357816,0.9997490333088049,0.0003346369937857608,0.01742454973044693,0.014076344798403476
1460.8833333323335,0.013565707,-0.80341977,-0.010704466,-2.3342867,0.021389594,1.5674106,0.7925162,0.03999995,0.04,0.05731636069801205,-0.015238883660710287,-0.009609720348269235,-0.0005036282418343242,-0.09959175041454178,0.06776272008453164,0.9997275098214216,0.00033075165691986725,0.018159453353724528,0.014663934107006804
1460.899999999,0.014110222,-0.8041915,-0.011141275,-2.3333912,0.022255221,1.567266,0.792781,0.039999943,0.04,0.05594725714708204,-0.015217676639708508,-0.01073779116682605,-0.0006078693006179477,-0.10160716267120624,0.06946962260950781,0.9997045492696245,0.00032597497484027635,0.018911572242488708,0.015266314068883055
1460.9166666656668,0.014667643,-0.8049816,-0.011588443,-2.3324754,0.023141365,1.567118,0.79305214,0.03999994,0.04,0.055139355085431774,-0.015178177946383042,-0.010987882797031112,-0.0007187264109072868,-0.10362802283311782,0.07118770431618612,0.9996800886145939,0.00032030491109433587,0.019680698386087873,0.015883574639150504
1460.9333333323334,0.015238016,-0.8057899,-0.012046004,-2.3315382,0.024048096,1.5669668,0.79332954,0.03999995,0.04,0.05717692131277374,-0.015120935083545728,-0.010829918533961091,-0.0008365685830191757,-0.10565862428350045,0.07291641053829488,0.999654048447122,0.0003136394421988058,0.02046736911431474,0.016515806220641596
1460.949999999,0.015821382,-0.8066168,-0.012513991,-2.3305793,0.024975503,1.566812,0.79361326,0.039999947,0.04,0.05799981365144369,-0.015076964156258976,-0.011396723255518992,-0.0009612689723895625,-0.10769092454561532,0.07465519700664514,0.9996263526104744,0.00030593579593790794,0.021271792030573826,0.01716311258998066
1460.9666666656667,0.016417777,-0.8074621,-0.012992436,-2.3295987,0.025923625,1.5666542,0.79390323,0.039999966,0.04,0.05798928013338589,-0.014991399155524221,-0.01137611383075221,-0.0010931412601277706,-0.10972510890546106,0.07640299919466112,0.9995969262447616,0.00029710209288669236,0.0220940261007673,0.01782556543366315
1460.9833333323334,0.017027238,-0.80832595,-0.0134813655,-2.3285966,0.026892526,1.5664928,0.79419965,0.039999977,0.04,0.05760762851307888,-0.014934478903056575,-0.012248730658948048,-0.0012320116100818061,-0.11175846038825181,0.07815999477724003,0.9995657010984398,0.00028715274997380343,0.02293373980045415,0.018503251326401255
1460.999999999,0.017649796,-0.8092084,-0.013980805,-2.3275726,0.027882244,1.5663279,0.79450244,0.039999988,0.04,0.05859497342690645,-0.014834279907056241,-0.012396094140165737,-0.001379041156527542,-0.11379340531467048,0.07992685971620186,0.9995325934976442,0.00027598760452811994,0.023791228513996048,0.019196244750213823
1461.0166666656667,0.018285472,-0.8101095,-0.014490775,-2.326527,0.02889284,1.5661594,0.79481167,0.039999988,0.04,0.05782055433405375,-0.014759799672879256,-0.013159808171780973,-0.0015337421948740694,-0.11582810870059267,0.0817021404514,0.9994975329623992,0.0002635671177075637,0.02466613013572923,0.019904626562174926
1461.0333333323333,0.018934289,-0.8110293,-0.015011288,-2.3254607,0.029924318,1.5659871,0.7951272,0.04,0.04,0.05712694920032568,-0.014651120338244478,-0.013751897360059218,-0.0016966523320771938,-0.11786306207549986,0.08348563187487018,0.9994604459464286,0.00024976145568421197,0.02555820277134766,0.020628448290653394
1461.049999999,0.019596267,-0.81196797,-0.015542364,-2.3243725,0.03097673,1.5658115,0.79544926,0.04,0.04,0.058674957694515584,-0.014538417092058858,-0.013707887616210002,-0.0018672385763585445,-0.11990093059361852,0.0852767898107555,0.9994212360164318,0.00023458817906957512,0.026468004675625805,0.021367795774601944
1461.0666666656666,0.020271415,-0.8129251,-0.01608401,-2.323263,0.03205008,1.5656325,0.7957776,0.04,0.04,0.057891825302380795,-0.014412914004498928,-0.014050216987460118,-0.002046439009597634,-0.12193610978123816,0.08707529160080153,0.9993798297203963,0.00021789298256274888,0.027395143975603272,0.02212271586482677
1461.0833333323333,0.020959752,-0.813901,-0.016636234,-2.3221314,0.033144392,1.56545,0.7961124,0.04,0.04,0.05910048777568733,-0.01428742073330859,-0.014490830809488209,-0.002233572810016333,-0.1239707361857601,0.08888072991509882,0.9993361317284624,0.00019965290489430804,0.028339969091688413,0.022893276580537927
1461.099999999,0.021661274,-0.8148956,-0.017199043,-2.3209782,0.034259655,1.565264,0.7964536,0.04,0.04,0.05862046239184515,-0.014126007988116834,-0.01491767458241533,-0.0024294672796163833,-0.12600026320634716,0.09069200927976738,0.9992900606258207,0.00017977486884241688,0.029302263904892697,0.023679521648208156
1461.1166666656666,0.02237599,-0.81590897,-0.01777244,-2.3198028,0.035395905,1.5650742,0.79680115,0.04,0.04,0.05956978761827436,-0.014000128461970351,-0.01556494751386861,-0.0026340055659105077,-0.12802777401964732,0.09251097208242479,0.9992415234410847,0.00015817439184754497,0.030282137953843193,0.0244815222759176
1461.1333333323332,0.023103902,-0.816941,-0.018356426,-2.3186054,0.036553107,1.5648811,0.7971552,0.04,0.04,0.05919423915554667,-0.013821181036829944,-0.015624175681239194,-0.0028473157930465585,-0.1300481180626354,0.09433398236878093,0.9991904295595694,0.00013484620751155665,0.03127957954182474,0.025299312179388234
1461.1499999989999,0.023844998,-0.8179917,-0.018950997,-2.3173866,0.03773129,1.5646845,0.7975157,0.04,0.04,0.05832587607810247,-0.013685080944477596,-0.016276533703640794,-0.0030701675701077877,-0.13206340470290956,0.09616319561809533,0.9991366974356348,0.00010969307961993447,0.03229422060727734,0.026132950851549784
1461.1666666656665,0.024599275,-0.8190611,-0.019556137,-2.3161461,0.038930405,1.5644845,0.79788285,0.04,0.04,0.058989057611391615,-0.013494074045586335,-0.016770696514312178,-0.0033022141989841654,-0.13407491718177594,0.09799713767455058,0.9990802282083112,8.275193506137522e-05,0.03332622455397927,0.026982466757578507
1461.1833333323332,0.025366718,-0.8201493,-0.020171843,-2.3148842,0.04015046,1.5642809,0.798256,0.04,0.04,0.058592547222469094,-0.013325075969465583,-0.0173973239712355,-0.0035446487673992198,-0.13607921111754,0.09983555481044498,0.9990209331373574,5.3594288833337004e-05,0.034375379334382186,0.02784790075810437
1461.1999999989998,0.02614731,-0.8212561,-0.020798111,-2.3136003,0.04139142,1.5640738,0.79863566,0.04,0.04,0.05931754806463019,-0.013104974022747073,-0.017508743112948366,-0.003794704230363882,-0.1380779081182505,0.10167823118580294,0.9989587092712953,2.2448941878784076e-05,0.03544184181622644,0.02872929716763663
1461.2166666656665,0.026941037,-0.8223817,-0.021434916,-2.3122954,0.042653266,1.5638632,0.79902166,0.04,0.04,0.05787981156237798,-0.012945723039983759,-0.018496393884315232,-0.004055030393823702,-0.14006764072260466,0.10352445344334447,0.9988934752987423,-1.0881737534824938e-05,0.03652512383193291,0.029626680817307707
1461.2333333323331,0.027747877,-0.82352567,-0.022082238,-2.3109684,0.043935925,1.563649,0.7994141,0.04,0.04,0.059639462927796316,-0.012689677567659374,-0.018279115454866712,-0.004324559511139952,-0.14205189388416728,0.10537313062400198,0.9988251159477454,-4.6414016793297865e-05,0.037625654907396236,0.030540066969498028
1461.2499999989998,0.028567798,-0.82468843,-0.022740066,-2.3096209,0.045239393,1.5634316,0.79981285,0.04,0.04,0.05724904288428867,-0.012508821983406998,-0.01944543643326302,-0.004604378488663161,-0.14402665698069042,0.10722548297486906,0.9987535529475494,-8.42677778402272e-05,0.03874279460840273,0.03146949696959609
1461.2666666656664,0.029400779,-0.82586956,-0.023408365,-2.3082507,0.046563618,1.5632107,0.80021805,0.04,0.04,0.060500846511057915,-0.01225685377335417,-0.01909241442064058,-0.00489420444100187,-0.14599397069430556,0.10908023419694961,0.9986786539209073,-0.0001244771559097187,0.03987729778546893,0.0324149938992964
1461.283333332333,0.030246774,-0.82706934,-0.024087114,-2.3068602,0.047908556,1.5629864,0.80062956,0.04,0.04,0.05675927377302159,-0.012055855511594604,-0.020523531595206812,-0.005194229881640391,-0.14794854711991912,0.11093689459558324,0.9986003573279136,-0.00016715541093280235,0.04102807612316156,0.03337656922548582
1461.2999999989997,0.03110576,-0.82828754,-0.02477629,-2.305447,0.049274135,1.5627584,0.8010473,0.04,0.04,0.060615443025735516,-0.011754006254929839,-0.02025266250345048,-0.0055046499517582455,-0.1498961231436706,0.11279516129771736,0.9985185178982778,-0.00021242891636803624,0.04219609388686019,0.0343542420797414
1461.3166666656664,0.031977702,-0.8295239,-0.025475852,-2.304013,0.05066031,1.5625273,0.8014714,0.04,0.04,0.05765314096448648,-0.01156283632059718,-0.0208460604826044,-0.005824802607692817,-0.15182767558396426,0.11465438736774511,0.998433062241922,-0.0002603238258631092,0.043380526070408494,0.035348018495787156
1461.333333332333,0.03286254,-0.8307788,-0.026185768,-2.3025582,0.052067004,1.5622926,0.80190176,0.04,0.04,0.05747101166764246,-0.01128638160740672,-0.02190113988944642,-0.0061557703193713155,-0.15374921706323638,0.1165152097447325,0.9983438911969462,-0.0003109465951610502,0.04458117448687873,0.03635790290054414
1461.3499999989997,0.03376024,-0.8320519,-0.026905999,-2.301082,0.0534941,1.5620545,0.8023384,0.04,0.04,0.058573640628578616,-0.01096765087988949,-0.021893589602850483,-0.0064967518706834475,-0.15566129543473062,0.11837322378130337,0.9982508825444089,-0.0003643430890940638,0.045798344059316626,0.03738387934453333
1461.3666666656663,0.034670748,-0.8333431,-0.027636511,-2.2995846,0.054941542,1.561813,0.8027813,0.04,0.04,0.05761126970722508,-0.010716376915191617,-0.02256858219467084,-0.006848309993458396,-0.1575587426887549,0.12023125948054819,0.9981539435777177,-0.00042064263779172643,0.04703162738212292,0.0384259548457906
1461.383333332333,0.03559401,-0.8346524,-0.028377254,-2.2980657,0.056409277,1.5615681,0.8032303,0.04,0.04,0.058929302164001385,-0.010426437856791981,-0.022838418833703855,-0.0072111612862076156,-0.1594434667030298,0.12209328321640275,0.9980529443237262,-0.00047995443244181146,0.0482813890926452,0.039484141598477476
1461.3999999989996,0.036529973,-0.8359797,-0.029128194,-2.2965264,0.05789721,1.5613198,0.8036855,0.04,0.04,0.05624389396658991,-0.010165833032340504,-0.02373166370077673,-0.007584325577213651,-0.16131236214815822,0.12395214145133729,0.9979478161130442,-0.0005423085225829115,0.04954671122658483,0.04055842234729338
1461.4166666656663,0.03747858,-0.83732486,-0.029889276,-2.2949667,0.05940522,1.5610683,0.8041469,0.04,0.04,0.0567090785750235,-0.00983753181559091,-0.024005427073947594,-0.00796766745890288,-0.16316939320428628,0.12580715359519673,0.9978384390471041,-0.0006077767742626239,0.050827747730301506,0.04164877222795796
1461.433333332333,0.038439777,-0.83868784,-0.03066045,-2.2933862,0.06093323,1.5608133,0.80461437,0.04,0.04,0.05698930224489196,-0.009543341679869866,-0.024629681174959117,-0.008362486547395135,-0.16501385087109113,0.12766279404222958,0.9977247023964304,-0.0006765021456031515,0.05212441574621777,0.04275518513486948
1461.4499999989996,0.039413482,-0.8400689,-0.031441666,-2.291785,0.062481105,1.5605551,0.80508786,0.04,0.04,0.05735993599658151,-0.00916752508011709,-0.02520276957969081,-0.008767798505059893,-0.16684351647755288,0.12951467030951763,0.9976064808637255,-0.0007485798551648954,0.05343689888666128,0.04387763444250945
1461.4666666656663,0.040399637,-0.84146774,-0.032232855,-2.290163,0.0640488,1.5602936,0.80556744,0.04,0.04,0.05707470324236574,-0.008910199353789894,-0.025691976946307093,-0.009184080438843811,-0.16865367680017268,0.13136466686534598,0.9974836685950729,-0.0008240624639013319,0.05476496001296104,0.04501611891255316
1461.483333332333,0.04139817,-0.8428841,-0.03303399,-2.2885206,0.06563614,1.5600288,0.8060532,0.04,0.04,0.056396228153055006,-0.008508600642909842,-0.026023108702921682,-0.009611183523130803,-0.17044739384514362,0.1332121832454855,0.9973561628971109,-0.0009029399486646503,0.05610833120225657,0.04617059887307502
1461.4999999989996,0.04240901,-0.8443179,-0.033845007,-2.2868583,0.06724306,1.5597607,0.80654484,0.04,0.04,0.05499161329822755,-0.008222355862225195,-0.02676700979844515,-0.010050563150397348,-0.17222266246983411,0.1350575179889302,0.9972238752866507,-0.0009854579631181188,0.05746648635681594,0.04734104325719255
1461.5166666656662,0.04343208,-0.84576905,-0.034665834,-2.2851763,0.06886941,1.5594893,0.8070424,0.04,0.04,0.05493024081353326,-0.007871781191406968,-0.02729908461664987,-0.010499823654664706,-0.17398405874338202,0.13689500901459195,0.9970866937959338,-0.0010716324022247892,0.0588393345704386,0.04852740840387225
1461.5333333323329,0.0444673,-0.8472374,-0.035496403,-2.2834744,0.07051506,1.5592146,0.8075459,0.04,0.04,0.05484933539157133,-0.007508284025002643,-0.027707695591705495,-0.010960049042636527,-0.17572940104817056,0.13872870676929894,0.9969445034265014,-0.0011615601591599377,0.0602268180258867,0.0497296516794539
1461.5499999989995,0.04551458,-0.84872293,-0.036336653,-2.2817516,0.07217989,1.5589367,0.8080553,0.04,0.04,0.05685199705327548,-0.007080113226898277,-0.027993080807364734,-0.011431559521719618,-0.1774577250634108,0.14056014563006747,0.9967971520032172,-0.0012553168580151618,0.061629441735856716,0.050947756076079445
1461.5666666656662,0.046573833,-0.8502255,-0.037186507,-2.2800097,0.07386376,1.5586557,0.8085705,0.04,0.04,0.053454123169016654,-0.006781526344741551,-0.028831631377346234,-0.011914154490180535,-0.1791630344347571,0.14238526416913702,0.9966445816784637,-0.0013529782748608503,0.0630461953204136,0.05218164923005109
1461.5833333323328,0.047644977,-0.85174495,-0.038045894,-2.2782483,0.075566545,1.5583718,0.80909145,0.04,0.04,0.05412745348012393,-0.006398430635860819,-0.02910114920120499,-0.012407726010342086,-0.18085185796333536,0.1442045995111771,0.9964866620885461,-0.001454674587041103,0.06447722863325317,0.05343129410044981
1461.5999999989995,0.048727922,-0.8532812,-0.038914762,-2.276467,0.07728806,1.5580847,0.8096182,0.04,0.04,0.05440964847029939,-0.005937639779189652,-0.029687379191956076,-0.012912365284715994,-0.1825198517782138,0.14601779125583514,0.9963232741369542,-0.0015604406535798157,0.06592250878715575,0.054696629450028865
1461.6166666656661,0.049822595,-0.8548341,-0.039793022,-2.274667,0.079028204,1.5577945,0.8101507,0.04,0.04,0.05249389250763237,-0.005657387259648539,-0.030425675068790348,-0.013428315677941794,-0.18416571260710385,0.14782497535324096,0.9961543412130281,-0.001670347838630233,0.06738134857275242,0.055977605210059345
1461.6333333323328,0.050928876,-0.8564033,-0.040680602,-2.2728474,0.080786794,1.5575011,0.8106888,0.04,0.04,0.05343659679506452,-0.005168588966782128,-0.030567519094515383,-0.013955342183792355,-0.18579455867625522,0.14962328820154341,0.9959797285246755,-0.0017845349478554818,0.06885395904205845,0.05727414885590266
1461.6499999989994,0.052046668,-0.857989,-0.041577417,-2.2710087,0.0825637,1.5572047,0.8112325,0.04,0.04,0.05282122686245394,-0.004788957706616803,-0.03132253924011952,-0.014493066834166058,-0.1874012341179573,0.15141570678344446,0.9957993233036128,-0.0019030678006170378,0.07034018741774734,0.05858621062203456
1461.666666665666,0.05317588,-0.8595909,-0.04248339,-2.2691517,0.08435874,1.5569052,0.8117817,0.04,0.04,0.05105659197184309,-0.004413492595002622,-0.03193798689475891,-0.01504175047148311,-0.1889857503343892,0.15319909912316343,0.9956130554316127,-0.0020260628331163198,0.07183932066736748,0.05991369567616414
1461.6833333323327,0.054316405,-0.8612088,-0.043398432,-2.267276,0.08617175,1.5566027,0.8123364,0.04,0.04,0.051452148178032786,-0.003967285440589774,-0.03215139963463898,-0.01560083198364811,-0.1905514305797118,0.15497414298042328,0.995420790718712,-0.002153570507602782,0.07335153283058714,0.06125654389864285
1461.6999999989994,0.055468135,-0.8628428,-0.044322457,-2.2653828,0.088002555,1.5562972,0.81289655,0.04,0.04,0.0497082401532456,-0.0035701114264000133,-0.03312406904725229,-0.01616990329491775,-0.19209486198948883,0.1567363838872764,0.9952224553486814,-0.00228565094676253,0.0748761958897936,0.06261465849595321
1461.716666665666,0.056630954,-0.8644924,-0.045255378,-2.2634704,0.089850955,1.5559887,0.813462,0.04,0.04,0.05168141328373288,-0.003045955956584856,-0.033023312419211415,-0.01675020393904327,-0.19362068361176502,0.15849324536943987,0.9950178924975855,-0.0024224522742207727,0.07641378660709962,0.06398795629653395
1461.7333333323327,0.057804763,-0.86615753,-0.04619712,-2.2615397,0.09171684,1.5556774,0.8140329,0.04,0.04,0.050361339849169795,-0.002670326648826493,-0.033489245761719744,-0.01734072034935597,-0.19511965999696895,0.16024041784702328,0.9948070051845157,-0.0025639582698555883,0.07796393819667605,0.06537639401703374
1461.7499999989993,0.05898945,-0.86783814,-0.04714758,-2.2595909,0.093600005,1.5553633,0.8146091,0.04,0.04,0.049830713696552564,-0.0022240874951479084,-0.034213938081273376,-0.017942449358132728,-0.19659537322838627,0.16197687357593513,0.9945896913526332,-0.002710292204432972,0.07952641172610624,0.06677986230301906
1461.766666665666,0.060184885,-0.8695341,-0.048106663,-2.2576249,0.0955003,1.5550463,0.81519055,0.04,0.04,0.047915299255496535,-0.001833424274974571,-0.03480660834493943,-0.018554663147959803,-0.19804553682105766,0.16370274836002713,0.9943658798428716,-0.002861517245770857,0.0811005802046896,0.06819827427308357
1461.7833333323326,0.06139096,-0.8712451,-0.049074277,-2.2556412,0.097417474,1.5547264,0.815777,0.04,0.04,0.04835828046321211,-0.0013146719919199246,-0.03521732443247938,-0.019176828766814966,-0.19947607439645257,0.16541625789565745,0.9941354528060324,-0.0030178135773434142,0.08268644706757959,0.0696314996729035
1461.7999999989993,0.062607564,-0.8729711,-0.050050337,-2.2536404,0.09935133,1.5544037,0.81636876,0.04,0.04,0.0474865628563137,-0.000854618642978644,-0.0356653710854582,-0.01980798120706965,-0.20088157487029193,0.16711707093983547,0.9938983085911581,-0.003179073385189411,0.08428378786342028,0.07107945396132924
1461.816666665666,0.06383454,-0.87471205,-0.051034726,-2.251623,0.10130172,1.5540782,0.8169655,0.04,0.04,0.046447631612078766,-0.00042510480373347814,-0.0362180462524897,-0.020450834244533145,-0.20226383110289428,0.1688083786715613,0.9936543574881473,-0.003345477237485328,0.08589225154819778,0.07254203437215942
1461.8333333323326,0.0650718,-0.87646747,-0.052027356,-2.2495878,0.10326841,1.55375,0.8175673,0.04,0.04,0.047567744878218576,0.00010909528805336244,-0.036345874564625014,-0.021103257882153212,-0.2036235109623503,0.17048739063968377,0.9934034638964803,-0.0035170901618640903,0.0875120397403635,0.07401912520253562
1461.8499999989992,0.0663192,-0.8782374,-0.05302813,-2.2475362,0.10525122,1.5534192,0.81817394,0.04,0.04,0.04551424767433865,0.0005266542731668933,-0.03704656107763604,-0.02176545559327355,-0.20495531760171534,0.17215321145365262,0.9931455577482927,-0.0036939946086865312,0.08914258665608897,0.075510626887381
1461.866666665666,0.06757662,-0.88002163,-0.054036923,-2.245468,0.10724997,1.5530857,0.8187855,0.04,0.04,0.04545612549726741,0.0009823879430437277,-0.03743619338605342,-0.022437389880094964,-0.20626180302093752,0.17380548782724276,0.9928805359948683,-0.0038762498073925625,0.09078373809676861,0.07701641920494141
1461.8833333323325,0.068843916,-0.8818197,-0.05505364,-2.2433836,0.10926442,1.5527496,0.8194018,0.04,0.04,0.04382724475417987,0.0014559193382265856,-0.037619739777738914,-0.023118707890824944,-0.2075426603625678,0.17544371525296162,0.9926083271760702,-0.004063920645720596,0.0924350192069752,0.07853636478673562
1461.8999999989992,0.070120975,-0.8836319,-0.056078188,-2.2412832,0.11129437,1.5524108,0.8200229,0.04,0.04,0.04420722254181442,0.0019853765966124093,-0.038486855739372494,-0.02380923310552851,-0.20880120796573717,0.17706765684310874,0.9923288125750529,-0.004257074583498084,0.09409645302497899,0.08007036016837955
1461.9166666656658,0.07140764,-0.8854578,-0.05711043,-2.2391667,0.113339566,1.5520697,0.8206486,0.04,0.04,0.043511051754796526,0.0024809233255637664,-0.03858722708660611,-0.024509006463268604,-0.21003023897474346,0.1786764306499964,0.9920418934187858,-0.004455785040120865,0.09576789166281431,0.0816182492351193
1461.9333333323325,0.0727038,-0.88729715,-0.058150277,-2.2370348,0.11539982,1.5517259,0.8212789,0.04,0.04,0.042070200796651136,0.0029135991831560903,-0.039044643073893326,-0.02521778356483673,-0.2112325329059862,0.18026996300032483,0.9917475130891629,-0.004660120992400208,0.09744873859146687,0.08317990683289343
1461.9499999989991,0.074009284,-0.88914967,-0.0591976,-2.2348874,0.11747492,1.5513796,0.8219138,0.04,0.04,0.04173822863209331,0.003434961760691302,-0.03931491282607169,-0.025934804559423177,-0.2124112398120116,0.18184786424209293,0.991445572271214,-0.004870126174903656,0.09913887435724024,0.08475519267882563
1461.9666666656658,0.07532396,-0.89101535,-0.0602523,-2.232725,0.1195646,1.5510309,0.82255316,0.04,0.04,0.040816035479052104,0.0039552906724735215,-0.03982282860910402,-0.026659257930919326,-0.21356296115062268,0.1834029472888312,0.9911359851720036,-0.005085826573291412,0.10083805679236557,0.08634396080518793
1461.9833333323324,0.076647684,-0.89289385,-0.06131426,-2.2305477,0.1216687,1.5506799,0.82319695,0.04,0.04,0.03994081019680351,0.0043974739961927245,-0.03999199429136624,-0.027393580483226473,-0.2146873363145837,0.18494698758079559,0.9908186706136383,-0.005307297219953076,0.10254598965822057,0.08794608896737625
1461.999999998999,0.07798033,-0.894785,-0.06238335,-2.2283556,0.12378691,1.5503262,0.82384497,0.04,0.04,0.039370038453734324,0.004914458121789422,-0.040691154773275784,-0.028135207121796964,-0.21578627924616695,0.18647107399986176,0.9904935641439385,-0.005534685292019197,0.10426229316294229,0.08956138047484893
1462.0166666656658,0.07932173,-0.8966886,-0.06345947,-2.2261488,0.12591907,1.5499705,0.8244973,0.04,0.04,0.039360932224363765,0.005467187137883633,-0.040596005148896275,-0.028885414398698798,-0.21685823559350687,0.18798267016098755,0.9901605336301526,-0.005767940046157639,0.10598716730071056,0.09118974107018027
1462.0333333323324,0.080671765,-0.8986043,-0.0645425,-2.2239282,0.1280649,1.5496125,0.8251539,0.04,0.04,0.03704589960595861,0.005879172515146913,-0.041000756212561384,-0.02964263947314586,-0.21790102319301913,0.18947117679143022,0.9898195663537065,-0.006007088376567117,0.10771978010042642,0.09283097504449928
1462.049999998999,0.08203023,-0.9005322,-0.0656323,-2.2216942,0.13022415,1.5492524,0.82581455,0.04,0.04,0.036222532628560344,0.0064223121120074445,-0.04155720878997737,-0.030408393370995202,-0.21891780264889923,0.19094471632604818,0.9894705792660555,-0.006252243174392806,0.10945996461223725,0.094484910802056
1462.0666666656657,0.083397016,-0.902472,-0.06672878,-2.2194467,0.13239661,1.54889,0.8264792,0.04,0.04,0.036093932209047,0.006948814987355056,-0.04186618811490295,-0.03118054245905501,-0.2199102646486135,0.19239829200468112,0.9891134855240924,-0.006503468270208323,0.11120757199387234,0.09615140969360308
1462.0833333323324,0.08477197,-0.9044234,-0.067831784,-2.2171857,0.134582,1.5485252,0.8271477,0.04,0.04,0.035061603405806,0.0074140025351374095,-0.042125742928744714,-0.031959521973172415,-0.22087369933534776,0.1938325459184606,0.9887482351188488,-0.006760841187583199,0.11296219435924462,0.09783026740913221
1462.099999998999,0.08615492,-0.9063862,-0.06894121,-2.214911,0.13678014,1.5481584,0.8278202,0.04,0.04,0.03569205307947243,0.007990066261333306,-0.042222825115434404,-0.03274483310716301,-0.22181180461341263,0.19524837718099225,0.9883746944095186,-0.0070243333148404564,0.11472409244544454,0.09952137863264265
1462.1166666656657,0.08754574,-0.90836024,-0.07005691,-2.2126231,0.13899074,1.5477895,0.82849646,0.04,0.04,0.034062582262395225,0.00843680007352604,-0.042695434481476724,-0.033537011540285294,-0.22271880587246357,0.19664412419670407,0.9879928311263871,-0.0072940247070016045,0.11649274039308623,0.10122452411421247
1462.1333333323323,0.088944204,-0.9103451,-0.07117878,-2.2103233,0.14121354,1.5474186,0.82917655,0.04,0.04,0.03140773358989435,0.008954537973640542,-0.04255342015078156,-0.034335391852422695,-0.22359539382284724,0.1980190852170318,0.9876026441893999,-0.007569835958524929,0.11826737419526884,0.10293951124142187
1462.149999998999,0.0903502,-0.91234076,-0.07230668,-2.2080107,0.14344828,1.5470457,0.82986027,0.04,0.04,0.03286078706663531,0.009513661845916843,-0.043170051527940956,-0.035139943377362655,-0.22444751972955118,0.19937300582568734,0.9872039927663088,-0.007851927170223151,0.12004838584339626,0.10466617869381832
1462.1666666656656,0.091763586,-0.9143469,-0.07344046,-2.2056863,0.1456947,1.546671,0.8305476,0.04,0.04,0.030259261777842994,0.009897879621562078,-0.04306352434866323,-0.03595011772843206,-0.22527021453134796,0.20070558980827014,0.9867968787813005,-0.008140293782925474,0.1218350425236107,0.10640431409431157
1462.1833333323323,0.09318417,-0.9163633,-0.07458001,-2.2033498,0.1479526,1.5462943,0.8312383,0.04,0.04,0.03063495353075041,0.010459658102271452,-0.043564060668455085,-0.03676535721982684,-0.22606555682791357,0.20201633190262058,0.9863812105674115,-0.00843501589896343,0.12362735412682122,0.10815375748421159
1462.199999998999,0.09461177,-0.91838974,-0.07572523,-2.2010016,0.15022165,1.5459157,0.8319325,0.04,0.04,0.029322363100803273,0.011087006940149746,-0.04361521538851498,-0.03758550210488601,-0.2268301908300495,0.20330551038012276,0.9859569521659616,-0.00873606352429844,0.12542494811369953,0.10991429415859919
1462.2166666656656,0.09604624,-0.92042595,-0.076875925,-2.1986425,0.15250157,1.5455352,0.83263016,0.04,0.04,0.02760300435822316,0.011421872040323633,-0.04379345752656416,-0.038410332157357265,-0.2275673915690165,0.20457131984373136,0.9855240924075175,-0.009043391704689012,0.12722729142469888,0.11168570484869231
1462.2333333323322,0.097487435,-0.9224719,-0.07803201,-2.196272,0.15479217,1.5451528,0.8333313,0.04,0.04,0.028140612734439685,0.011999860979283739,-0.04417733161448112,-0.039240296447509246,-0.2282767567614648,0.20581433748334613,0.9850825237799651,-0.009357043508583766,0.12903453724506617,0.11346786011036317
1462.2499999989989,0.098935165,-0.924527,-0.07919333,-2.193891,0.15709318,1.5447689,0.8340353,0.04,0.04,0.025519385762562408,0.012403860998384808,-0.04368680233168831,-0.04007418331624296,-0.22895656517012367,0.20703156985208318,0.9846322569235414,-0.00967722514446762,0.13084605050014353,0.1152604919635097
1462.2666666656655,0.10038926,-0.92659116,-0.08035976,-2.1914995,0.15940426,1.5443835,0.83474237,0.04,0.04,0.02590954150547553,0.013032627293602106,-0.04406011971809232,-0.04091056680055702,-0.22960930928039647,0.20822473434367084,0.9841732104850502,-0.010003821337430262,0.1326618876541446,0.11706339686783786
1462.2833333323322,0.101849526,-0.92866415,-0.081531145,-2.1890976,0.16172509,1.5439962,0.8354528,0.04,0.04,0.024398793772562044,0.013533261883298675,-0.04439757170144887,-0.04175057455343361,-0.2302311131409765,0.20939354065926663,0.9837053958688426,-0.010336696067878124,0.13448145902190542,0.11887633924487825
1462.2999999989988,0.10331581,-0.93074584,-0.08270733,-2.186686,0.16405556,1.5436076,0.83616567,0.04,0.04,0.02351982090686988,0.013867697962366421,-0.04425275323123312,-0.04259566325078838,-0.23082582996967,0.21054098939133045,0.9832287354930498,-0.010676258625206075,0.13630476270388978,0.12069914194700139
1462.3166666656655,0.10478794,-0.93283576,-0.083888195,-2.1842644,0.16639532,1.5432173,0.8368818,0.04,0.04,0.02299830366707667,0.014438284267520585,-0.04437149630640569,-0.0434410985157157,-0.23138948461169515,0.21166133884408458,0.9827432175254012,-0.011022081635975876,0.1381314118036087,0.12253160897243533
1462.3333333323321,0.10626576,-0.9349337,-0.0850736,-2.1818335,0.16874407,1.5428255,0.83760035,0.04,0.04,0.021366377920140067,0.01488276097738328,-0.04439697102254225,-0.04429098571755766,-0.23192444586394764,0.21275745743079658,0.9822488356167597,-0.011374565093134312,0.1399610326242479,0.12437344389063182
1462.3499999989988,0.10774912,-0.9370396,-0.08626342,-2.1793938,0.17110153,1.5424321,0.83832204,0.04,0.04,0.02014788731972139,0.015359845512785686,-0.04455586730107708,-0.04514098837452156,-0.23243010003603973,0.21382676130203032,0.9817455808938101,-0.011733296637024623,0.1417932382264431,0.12622448945732376
1462.3666666656654,0.10923778,-0.9391534,-0.08745748,-2.1769454,0.1734674,1.5420374,0.8390458,0.04,0.04,0.0195187873735847,0.01586994855651558,-0.04463722058958286,-0.04599391798174889,-0.2329092802752175,0.21486913895075013,0.9812333998990896,-0.012098748433139381,0.14362802658106041,0.12808444553986686
1462.383333332332,0.11073158,-0.941274,-0.08865565,-2.174488,0.1758414,1.5416412,0.839772,0.04,0.04,0.018992724460353827,0.016356200381495434,-0.04402376628962479,-0.04684668262822538,-0.23335768480662647,0.2158879197399926,0.9807122947660811,-0.012470713615295047,0.14546502005359133,0.1299530843704012
1462.3999999989987,0.11223033,-0.94340223,-0.08985781,-2.1720223,0.17822334,1.5412438,0.8405013,0.04,0.04,0.018312478674253896,0.016854518691211684,-0.04497386554989102,-0.047700026386304155,-0.23377737742041715,0.2168787500409889,0.9801821995999783,-0.012848808876718699,0.14730420939951505,0.13183032121246474
1462.4166666656654,0.113733895,-0.94553715,-0.0910638,-2.169549,0.18061288,1.5408452,0.8412327,0.04,0.04,0.01589960262569079,0.017151823209365924,-0.04409338577999744,-0.048556264862428124,-0.23416584362853776,0.2178390035115797,0.9796431864985587,-0.013233474283106058,0.14914486493136353,0.13371578653978652
1462.433333332332,0.115242034,-0.94767845,-0.09227346,-2.1670682,0.18300973,1.5404452,0.84196615,0.04,0.04,0.014842326657715788,0.01762776368239849,-0.04407122929814822,-0.049412452508294916,-0.23452645094069713,0.2187760196477942,0.9790952665347582,-0.013624670021026799,0.15098663773588897,0.1356092277142688
1462.4499999989987,0.11675461,-0.94982606,-0.09348664,-2.1645803,0.18541355,1.5400441,0.84270155,0.04,0.04,0.014129517320959906,0.018088028051665983,-0.04414509089618601,-0.05026754492643211,-0.23486008187277724,0.2196857297156601,0.9785384189163846,-0.014022394719445323,0.15282940873571288,0.13751038861281303
1462.4666666656653,0.11827142,-0.9519799,-0.09470326,-2.162085,0.18782407,1.539642,0.84343886,0.04,0.04,0.014249323352455434,0.018736666899998866,-0.04413429138110381,-0.05112138725219388,-0.2351643544922787,0.220568062973988,0.9779725747459255,-0.014426597152309512,0.15467332566891942,0.1394190756888978
1462.483333332332,0.11979226,-0.9541399,-0.09592311,-2.1595833,0.1902411,1.5392387,0.84417814,0.04,0.04,0.01219796498608261,0.01894539146055918,-0.044373397261998626,-0.05197387182137398,-0.23543823902755018,0.22142196502555406,0.9773977915239954,-0.014837222134043792,0.15651776520844357,0.14133507398206543
1462.4999999989986,0.12131699,-0.9563051,-0.09714609,-2.157075,0.1926642,1.5388346,0.8449193,0.04,0.04,0.011479584182838565,0.01947693776328252,-0.043294012400307835,-0.052825027520919374,-0.23568241864280887,0.22224784703882847,0.9768140839772311,-0.015254175665892024,0.15836250278818442,0.14325806497066448
1462.5166666656653,0.12284545,-0.95847577,-0.09837197,-2.1545606,0.1950932,1.5384295,0.8456624,0.04,0.04,0.010188116377740641,0.019702997100831676,-0.04378055252929336,-0.053674876331064096,-0.23589696878303745,0.22304329103743548,0.9762214642551705,-0.01567746582182446,0.1602072404536177,0.145187843496393
1462.533333332332,0.1243774,-0.9606513,-0.09960065,-2.1520405,0.19752775,1.5380232,0.84640735,0.04,0.04,0.00870049379022575,0.020178480196303417,-0.04332168803249381,-0.054521684419763,-0.23608345399758227,0.22380849509368977,0.9756200069342491,-0.016107004952069237,0.1620514092372818,0.14712412183357518
1462.5499999989986,0.12591265,-0.9628317,-0.100831985,-2.1495147,0.19996756,1.537616,0.8471542,0.04,0.04,0.008571821452640904,0.02068603806701097,-0.043402752467458505,-0.05536697223180636,-0.23624272072438773,0.22454453628012525,0.975009667224919,-0.016542700548935526,0.16389512617296517,0.14906668136524948
1462.5666666656653,0.12745106,-0.9650165,-0.10206585,-2.146984,0.20241235,1.5372081,0.8479029,0.04,0.04,0.006296938690475429,0.02093607858080493,-0.04269000772862963,-0.05621041072728826,-0.23637351213213714,0.22525118665143043,0.974390529179168,-0.016984473496871374,0.1657377850988416,0.15101526709742077
1462.583333332332,0.12899238,-0.9672057,-0.10330203,-2.1444485,0.20486175,1.5367996,0.84865206,0.04,0.04,0.006439821298220849,0.021484769806409676,-0.04278929323504599,-0.05705151745991622,-0.23647834019865724,0.2259269259566417,0.9737625442613035,-0.01743291474062521,0.16757965269795683,0.1529694769522056
1462.5999999989986,0.13053647,-0.96939874,-0.10454041,-2.1419086,0.20731546,1.5363901,0.84940284,0.04,0.04,0.004139300707795002,0.02167681312215952,-0.042301530912514096,-0.057885373543973974,-0.23654942309661015,0.22657270744952235,0.9731258583265817,-0.0178874047097701,0.16941980817381228,0.15492912317331106
1462.6166666656652,0.13208313,-0.9715956,-0.10578085,-2.1393645,0.20977324,1.53598,0.8501554,0.04,0.04,0.004026157372294392,0.022152313394341316,-0.04218348555902196,-0.05871589205996089,-0.23659676102082536,0.227189602628184,0.972480430238103,-0.01834776649008972,0.17125839325626746,0.15689402476837877
1462.6333333323319,0.1336322,-0.9737956,-0.10702318,-2.1368163,0.21223482,1.5355693,0.85090834,0.04,0.04,0.0026870503905929155,0.02239167967878486,-0.041480150864336984,-0.05954509056323599,-0.23661575812541277,0.22777684654000166,0.9718263246141335,-0.018814599559941504,0.173095070286181,0.15886378527847603
1462.6499999989985,0.13518341,-0.97599906,-0.10826723,-2.134265,0.21469986,1.535158,0.8516629,0.04,0.04,0.0010147719053055226,0.022765300147847833,-0.04164601157610193,-0.06036549182098981,-0.23660454391108138,0.2283330464830997,0.971163615182737,-0.019287194643340153,0.17492941235710915,0.16083823351549018
1462.6666666656652,0.13673659,-0.9782054,-0.10951288,-2.1317098,0.21716805,1.534746,0.8524179,0.04,0.04,0.0012836652964587358,0.023242953335450567,-0.04125807083856792,-0.061183016242034136,-0.23656971424119638,0.22885841404824672,0.9704922965936652,-0.019766021044449664,0.17676150561775236,0.16281700401422752
1462.6833333323318,0.13829157,-0.9804144,-0.11075996,-2.1291516,0.21963911,1.534334,0.8531743,0.04,0.04,-8.397205011334563e-05,0.023480143718435098,-0.040575126959918606,-0.06199308063701406,-0.23650248603611446,0.22935347838320289,0.9698124089408474,-0.020250489176725273,0.1785911135998546,0.16479994931922065
1462.6999999989985,0.1398482,-0.9826257,-0.112008356,-2.1265905,0.2221127,1.5339215,0.85393107,0.04,0.04,-0.00128283375881999,0.023818918450876914,-0.04025533287730365,-0.06279931113724153,-0.23640646577339955,0.2298150753724134,0.9691240298958205,-0.020741063794661736,0.18041791751844755,0.16678668408916028
1462.7166666656651,0.14140627,-0.9848392,-0.11325788,-2.1240275,0.22458862,1.5335085,0.8546886,0.04,0.04,-0.0034322195305858116,0.02390463981715718,-0.039877102684138244,-0.06359724825422125,-0.236281955211464,0.23024585171638204,0.9684272919332342,-0.021237416107123173,0.18224126417717035,0.16877699495802742
1462.7333333323318,0.14296554,-0.9870544,-0.11450836,-2.1214619,0.22706647,1.5330952,0.855447,0.04,0.04,-0.002874388840545805,0.024429711862600234,-0.039494582885502005,-0.06438810569988551,-0.23613167580868527,0.23064487654866872,0.9677221826668154,-0.021739374213396938,0.18406135579200184,0.1707705890585224
1462.7499999989984,0.14452589,-0.9892713,-0.115759686,-2.118895,0.22954589,1.5326815,0.8562056,0.04,0.04,-0.005753233033978233,0.02456611667444597,-0.03904967323578035,-0.0651730601534547,-0.23595166902449635,0.23101137005918562,0.967008873147279,-0.022247173505717796,0.18587746723114737,0.17276709669717216
1462.766666665665,0.14608707,-0.9914893,-0.11701167,-2.116327,0.23202665,1.5322673,0.85696447,0.04,0.04,-0.006473692755859517,0.024777254330854426,-0.03830451431900972,-0.06594863358803849,-0.2357478084550771,0.23134735874609472,0.9662874291822003,-0.022760624666569054,0.18768939424350467,0.174766270938496
1462.7833333323317,0.14764895,-0.99370825,-0.11826415,-2.1137576,0.23450847,1.5318531,0.8577237,0.04,0.04,-0.006406289547244981,0.025099110457479923,-0.03797621005423579,-0.06671547018706134,-0.23551745222773565,0.2316519678229257,0.9655578470679166,-0.02327961884869024,0.18949727807181127,0.17676788428672197
1462.7999999989984,0.14921132,-0.99592805,-0.11951702,-2.111187,0.23699102,1.5314388,0.85848343,0.04,0.04,-0.0071676750642790665,0.025456784184391124,-0.03761579723324804,-0.06747332281240023,-0.23526076122599507,0.23192305002888228,0.9648201815696904,-0.023803965696674662,0.19130100241443374,0.17877168379856506
1462.816666665665,0.1507739,-0.99814814,-0.12077008,-2.1086159,0.23947394,1.5310245,0.85924375,0.04,0.04,-0.009249843464775864,0.025611707498618408,-0.03671552760520225,-0.06822426039916521,-0.2349723274640906,0.232162364720802,0.9640746158378348,-0.024333427099750334,0.19309991384070838,0.18077732904715474
1462.8333333323317,0.1523366,-1.0003685,-0.12202322,-2.1060448,0.24195701,1.5306101,0.86000407,0.04,0.04,-0.010324207942558061,0.02573388429085166,-0.03632970442170036,-0.06896770547151986,-0.2346602728178051,0.23236794493931,0.9633212127427397,-0.024868216435082035,0.19489386235504558,0.1827845598170907
1462.8499999989983,0.15389918,-1.0025886,-0.12327625,-2.103474,0.24443994,1.5301958,0.8607639,0.04,0.04,-0.011327753933665363,0.025911066112566106,-0.03555586917322051,-0.06970105058527218,-0.23432073835387854,0.23254107842912267,0.9625600643699143,-0.025408409222691018,0.19668265272622423,0.18479304461351945
1462.866666665665,0.15546146,-1.0048087,-0.124529004,-2.1009033,0.24692237,1.5297817,0.86152333,0.04,0.04,-0.011591095759211356,0.026226640722409877,-0.03549151292099317,-0.07042298428237817,-0.23395598067978554,0.232682798448841,0.9617912138024174,-0.02595388901590019,0.1984663291796917,0.18680249698374274
1462.8833333323316,0.15702325,-1.0070282,-0.12578139,-2.098334,0.24940401,1.5293676,0.8622825,0.04,0.04,-0.014270622378598219,0.026254967113018002,-0.034543009069432085,-0.07113357601999903,-0.23356140877827095,0.23279211172438108,0.9610148822490653,-0.02650439644169194,0.20024408669317983,0.18881265532132915
1462.8999999989983,0.15858437,-1.0092471,-0.12703323,-2.0957654,0.25188452,1.5289538,0.8630413,0.04,0.04,-0.012980781588423085,0.02670921160973505,-0.03422196526728927,-0.07183267522597328,-0.23314333474640345,0.23286750224970737,0.960231008545692,-0.02705990481912112,0.20201648786077975,0.1908232438957552
1462.916666665665,0.1601446,-1.0114644,-0.12828432,-2.0931983,0.25436366,1.5285404,0.86379987,0.04,0.04,-0.01598250727203876,0.026424459670881806,-0.03260136218485865,-0.07252061560113202,-0.23269529637762099,0.23291047834312475,0.9594398698792073,-0.02762010897879903,0.20378255747076593,0.19283395690812125
1462.9333333323316,0.16170378,-1.0136802,-0.12953456,-2.0906334,0.256841,1.5281272,0.8645583,0.04,0.04,-0.017051331309714257,0.02671378224033405,-0.03240480278740021,-0.07319820899426528,-0.2322241469352474,0.23292037956592213,0.9586415808846249,-0.02818489033838116,0.20554209221658346,0.19484450128979844
1462.9499999989982,0.16326173,-1.0158943,-0.13078378,-2.0880702,0.25931635,1.5277143,0.86531556,0.04,0.04,-0.016825127733444134,0.026895308641519677,-0.03194142553363255,-0.07386490699250661,-0.23172910212569595,0.23289703315539068,0.9578361706198507,-0.028754601923297984,0.20729527327415265,0.19685454731533938
1462.966666665665,0.1648182,-1.0181066,-0.13203178,-2.085509,0.26178944,1.5273018,0.8660722,0.04,0.04,-0.017747049924032865,0.02696315186660747,-0.031422478494791406,-0.07451740059899359,-0.23120741412689785,0.23284209450270976,0.9570237345147222,-0.029328870052328506,0.20904197228677693,0.19886388002702424
1462.9833333323315,0.16637298,-1.0203164,-0.13327846,-2.082951,0.2642599,1.5268897,0.8668287,0.04,0.04,-0.020304737691212438,0.026919278060918983,-0.029944505653078934,-0.07515760664987034,-0.2306568033802852,0.23275347425349024,0.9562045536237733,-0.02990721425599991,0.21078131542884412,0.2008722161740943
1462.9999999989982,0.16792597,-1.0225238,-0.13452369,-2.080396,0.26672745,1.5264777,0.8675835,0.04,0.04,-0.020210523934016678,0.027153370130197918,-0.03006272607662952,-0.07578701432507073,-0.2300876316134972,0.23263137950756313,0.9553786583512809,-0.030490325581074982,0.21251354781272006,0.20287915420002411
1463.0166666656648,0.16947694,-1.0247281,-0.13576727,-2.077844,0.26919177,1.5260664,0.8683381,0.04,0.04,-0.021122517302041288,0.027104287089266266,-0.028476889019557472,-0.07639981594418684,-0.2294920087183071,0.23247780843098798,0.9545461923155242,-0.03107729524133123,0.21423839598642103,0.20488454832315423
1463.0333333323315,0.17102571,-1.0269295,-0.13700907,-2.075296,0.27165252,1.5256559,0.8690909,0.04,0.04,-0.022761902872137085,0.02718968136176947,-0.028083849413296225,-0.07700199827412169,-0.22887183754781726,0.23228996730864104,0.953707290274957,-0.03166871036940702,0.21595571393089713,0.20688795731152182
1463.0499999989981,0.17257209,-1.0291276,-0.13824895,-2.0727515,0.2741094,1.5252459,0.8698426,0.04,0.04,-0.022697537915972177,0.027330559541066668,-0.027442629731244672,-0.07758716446318982,-0.22822671760049462,0.2320698680558435,0.9528620585380561,-0.032264131779551924,0.21766542842158013,0.2088891679077202
1463.0666666656648,0.17411588,-1.0313219,-0.13948673,-2.0702114,0.27656212,1.5248368,0.87059337,0.04,0.04,-0.024367784029788453,0.0271644621954642,-0.02609423232261543,-0.07815876672493935,-0.2275557574960886,0.23181771676686988,0.9520106964602136,-0.032863241645749316,0.21936710323867908,0.21088792092138137
1463.0833333323314,0.17565688,-1.0335128,-0.14072224,-2.067676,0.27901047,1.5244284,0.87134236,0.04,0.04,-0.025041790977642364,0.027211642202465414,-0.026261246936754024,-0.07871717455270003,-0.22686204296798543,0.2315325388293818,0.9511532791579989,-0.03346638849514221,0.2210608172464515,0.21288390137915345
1463.099999998998,0.17719495,-1.0356994,-0.1419554,-2.0651448,0.2814541,1.5240207,0.8720898,0.04,0.04,-0.02501066713853639,0.02735565252798,-0.02483270700890383,-0.0792588839737805,-0.2261425478637543,0.23121502513697953,0.9502899506172747,-0.03407325844055947,0.22274643750959594,0.21487681911235565
1463.1166666656648,0.17872982,-1.0378814,-0.14318603,-2.0626192,0.28389263,1.5236138,0.87283665,0.04,0.04,-0.02800119469652529,0.027061736768549394,-0.023502300493050132,-0.07978500883273697,-0.2253966244605419,0.23086410021574033,0.9494210240338584,-0.0346831573503657,0.224423118684682,0.21686646010517743
1463.1333333323314,0.18026142,-1.0400592,-0.14441396,-2.0600996,0.28632587,1.523208,0.87358165,0.04,0.04,-0.028145121670863915,0.02702272792269589,-0.02340375078975221,-0.08029890943255209,-0.2246319893915626,0.23047961585653465,0.9485465195997663,-0.03529662530967626,0.22609120059027968,0.21885250149944438
1463.149999998998,0.18178943,-1.0422318,-0.14563903,-2.0575855,0.28875348,1.522803,0.87432474,0.04,0.04,-0.02867967385777881,0.02703118284178574,-0.022003187798769197,-0.08079569941487483,-0.22384288796406845,0.2300626911281536,0.9476666657465705,-0.03591345470875467,0.22775032487749766,0.220834562335369
1463.1666666656647,0.18331371,-1.0443994,-0.14686115,-2.0550768,0.29117525,1.5223987,0.8750659,0.04,0.04,-0.02859024871129101,0.027147969652957515,-0.021890105079780398,-0.08127651787684667,-0.22303068144034932,0.22961560128608866,0.9467815022728722,-0.03653354105002098,0.22940071150423988,0.22281247921428982
1463.1833333323314,0.18483412,-1.0465608,-0.14808008,-2.052575,0.29359075,1.5219957,0.8758052,0.04,0.04,-0.03188819058608239,0.026469811454085668,-0.019034911243820396,-0.0817394576849863,-0.2221938420275392,0.22913386808982517,0.9458914393396571,-0.03715658829917337,0.23104134631451675,0.2247858296759229
1463.199999998998,0.18635048,-1.0487168,-0.14929572,-2.05008,0.29599977,1.5215937,0.87654257,0.04,0.04,-0.03106075178460621,0.026774933563539216,-0.019917802109437055,-0.0821862299534862,-0.2213380268604611,0.22862260753561267,0.944996449131501,-0.03778255333974151,0.2326727423639979,0.22675445916850395
1463.2166666656647,0.18786255,-1.0508671,-0.15050794,-2.047592,0.298402,1.5211929,0.877278,0.04,0.04,-0.03183274079812115,0.026718265162017918,-0.018837939224225497,-0.0826159820057214,-0.22045880781892535,0.22807871217407455,0.9440966971379339,-0.038411245366600455,0.23429475257943816,0.22871810509089835
1463.2333333323313,0.18937016,-1.053011,-0.15171659,-2.0451114,0.30079713,1.5207932,0.8780112,0.04,0.04,-0.033818298960808235,0.02632791264975398,-0.017139383829289923,-0.08302894272781827,-0.2195550525183036,0.22750185605059486,0.9431925008858743,-0.039042539048029866,0.23590673474018506,0.2306763943743636
1463.249999998998,0.19087319,-1.0551484,-0.15292153,-2.0426383,0.3031849,1.520395,0.87874186,0.04,0.04,-0.0332773303856726,0.026360168109682003,-0.016595499140203973,-0.08342489859663935,-0.21863254262668083,0.22689437326068448,0.9422838663197232,-0.03967651494136604,0.23750914515132343,0.23262909406424012
1463.2666666656646,0.19237141,-1.0572791,-0.15412256,-2.0401728,0.305565,1.5199978,0.87946993,0.04,0.04,-0.03437250019850957,0.026112757694002342,-0.01601607198354893,-0.08380181157442786,-0.2176841701754443,0.22625503413935788,0.9413710549133503,-0.040313026928897384,0.2391015553514853,0.2345758791087798
1463.2833333323313,0.19386464,-1.0594026,-0.15531962,-2.0377154,0.30793715,1.519602,0.8801958,0.04,0.04,-0.035528690839736754,0.02593113218981591,-0.014293342758875394,-0.08415912284007199,-0.216714851679513,0.22558529827589327,0.9404542866155078,-0.04095163155273483,0.2406836611475067,0.23651654047088835
1463.299999998998,0.19535266,-1.0615189,-0.15651253,-2.0352669,0.31030107,1.5192077,0.88091946,0.04,0.04,-0.03648214972957753,0.025730263049944524,-0.013434072158202692,-0.08450074149436705,-0.21572291241662217,0.22488511137299422,0.9395337121370686,-0.04159212323146625,0.24225542377202092,0.23845085174114392
1463.3166666656646,0.19683532,-1.0636277,-0.15770109,-2.0328271,0.31265652,1.5188146,0.8816401,0.04,0.04,-0.037236825076591984,0.02532183678581046,-0.012800021535097628,-0.08482420514705763,-0.21471264634327775,0.22415194895150878,0.938609565711482,-0.04223483493856225,0.24381657247251706,0.24037841180182815
1463.3333333323312,0.19831257,-1.0657288,-0.15888526,-2.0303967,0.31500322,1.5184232,0.88235813,0.04,0.04,-0.037849904856335215,0.02519819973758608,-0.011350427623491033,-0.0851268505535854,-0.21368135418344325,0.22338954914968756,0.9376819771947397,-0.04287929456992551,0.2453671152679318,0.24229910129103407
1463.3499999989979,0.19978406,-1.0678217,-0.16006485,-2.027975,0.3173407,1.518033,0.88307333,0.04,0.04,-0.0378874107878957,0.02523407284594492,-0.010882219508911994,-0.08541189248293832,-0.2126284117445944,0.22259621365997012,0.9367511600303925,-0.043525465064013905,0.2469069880007329,0.2442124840156238
1463.3666666656645,0.20124966,-1.0699064,-0.16123968,-2.0255628,0.31966886,1.5176445,0.8837858,0.04,0.04,-0.03857557696154146,0.024770227992942928,-0.00960939520485704,-0.08567774386370929,-0.21155472608101916,0.22177341258403707,0.9358172643443489,-0.044173112434312045,0.2484361311259664,0.24611841183480448
1463.3833333323312,0.20270924,-1.0719823,-0.16240968,-2.0231614,0.32198748,1.5172577,0.88449526,0.04,0.04,-0.04155499352020975,0.02404412438472836,-0.007657750613920822,-0.0859252571734859,-0.21045929029934596,0.22092018169042438,0.9348806807546732,-0.04482211569958668,0.24995368754711786,0.24801662197822388
1463.3999999989978,0.20416263,-1.0740496,-0.16357468,-2.0207696,0.32429624,1.5168724,0.8852019,0.04,0.04,-0.03935680832793942,0.024371403098708,-0.008179271291264278,-0.0861527852123807,-0.20934871324274978,0.22003722450612745,0.9339413597128761,-0.0454723494164626,0.25146042360028326,0.2499068975018043
1463.4166666656645,0.20560956,-1.0761079,-0.16473453,-2.0183878,0.32659468,1.5164889,0.88590527,0.04,0.04,-0.04043634134771601,0.02409904146693509,-0.006567811260649314,-0.08636104968656155,-0.20821558201702423,0.21912346289450751,0.9329995533142704,-0.04612368754892474,0.2529561587222263,0.2517888415453645
1463.4333333323311,0.20704995,-1.078157,-0.16588907,-2.0160174,0.3288828,1.5161072,0.88660544,0.04,0.04,-0.04275306866130535,0.023197413894557317,-0.005112980583121818,-0.08655027739280233,-0.20705916572028413,0.21818025839011865,0.932055580366794,-0.04677600187972581,0.25444022037583586,0.2536623247752074
1463.4499999989978,0.20848362,-1.0801965,-0.16703825,-2.013658,0.33116025,1.5157273,0.8873026,0.04,0.04,-0.04234071886899393,0.02325965073618763,-0.004299900056015105,-0.08671920545713052,-0.2058872652319376,0.2172091112283281,0.9311095816604317,-0.04742899736829281,0.2559127538735764,0.25552710140730006
1463.4666666656644,0.20991041,-1.0822263,-0.16818184,-2.0113099,0.33342677,1.5153488,0.8879962,0.04,0.04,-0.043131649889671664,0.02268998662120769,-0.0034981208797635333,-0.08686934705871985,-0.2046958346853478,0.21620751733106752,0.9301618065949417,-0.04808280138662836,0.25737352546737496,0.2573828396598006
1463.483333332331,0.21133012,-1.0842465,-0.16931976,-2.0089736,0.33568186,1.5149723,0.88868636,0.04,0.04,-0.04380683468174773,0.02269583124761554,-0.0024942919685688736,-0.0869977276238486,-0.2034862732204017,0.21517892829995636,0.9292124064359489,-0.04873708789427441,0.2588226901775137,0.25922927118358646
1463.4999999989977,0.21274257,-1.0862564,-0.17045188,-2.006649,0.33792543,1.5145978,0.889373,0.04,0.04,-0.044062937976319105,0.02212880982687404,-0.0010057705422505947,-0.08710690047709439,-0.20225688381569173,0.21412195546623458,0.9282616136661187,-0.049391712231299435,0.2602600212006097,0.2610661922223791
1463.5166666656644,0.21414772,-1.0882556,-0.17157815,-2.0043366,0.34015736,1.5142251,0.89005613,0.04,0.04,-0.04494632794949105,0.021674032138466193,0.00017486607621908234,-0.08719613827113597,-0.20100915205357492,0.2130371038023744,0.9273096547202869,-0.050046522879627936,0.26168526069055625,0.26289346539523695
1463.533333332331,0.21554525,-1.0902443,-0.17269829,-2.002036,0.34237728,1.5138549,0.89073557,0.04,0.04,-0.04428624704115869,0.02147006509631011,0.0007866304452819328,-0.08726519580450837,-0.19974575212459314,0.21192495230623634,0.926356598221523,-0.050701383067216346,0.26309889524129515,0.264710774260001
1463.5499999989977,0.21693508,-1.092222,-0.17381224,-1.999749,0.34458488,1.5134866,0.89141124,0.04,0.04,-0.04698819344097771,0.02069819007940732,0.0026261072907263205,-0.08731317168458849,-0.198458515541361,0.21078143017744927,0.9254028991125373,-0.05135611636611179,0.26450002063257316,0.266517846890729
1463.5666666656643,0.21831705,-1.0941886,-0.17491986,-1.9974748,0.34677994,1.5131207,0.89208305,0.04,0.04,-0.0463241669531822,0.020495448825796903,0.0032405868164886442,-0.08734196349588778,-0.19715869456109344,0.2096142925583478,0.9244486384810763,-0.05201061378224472,0.26588898464069605,0.26831447726728835
1463.583333332331,0.21969096,-1.0961438,-0.17602108,-1.9952137,0.34896228,1.5127567,0.89275104,0.04,0.04,-0.04676957344846855,0.020142368679501588,0.004124012894979323,-0.08735045725243173,-0.1958396145969658,0.20842001094454804,0.9234940454919888,-0.05266467982792196,0.2672656100358235,0.2701004870999725
1463.5999999989976,0.2210567,-1.0980879,-0.17711574,-1.9929662,0.35113156,1.5123947,0.893415,0.04,0.04,-0.04729448151827853,0.019704540243670188,0.004688312402401085,-0.08733905484513288,-0.19450436964044582,0.2071993625299111,0.9225393298545232,-0.05331830632978497,0.26862987039763353,0.2718755888487246
1463.6166666656643,0.22241414,-1.1000198,-0.17820361,-1.9907323,0.35328764,1.5120349,0.8940748,0.04,0.04,-0.04799268671513701,0.018830779567882705,0.006922526001629237,-0.08730530622537575,-0.19315153016214917,0.20595138146345798,0.9215847727240298,-0.053971287202681115,0.26998148807609534,0.27363954929268025
1463.633333332331,0.22376303,-1.1019397,-0.17928472,-1.9885124,0.35543022,1.5116774,0.8947305,0.04,0.04,-0.048225985273209204,0.018788866447308483,0.00754893397412193,-0.08725116332629976,-0.19178299329044782,0.20467923646467306,0.9206305428674476,-0.05462338153080146,0.27132053037115206,0.27539219220748806
1463.6499999989976,0.22510327,-1.1038473,-0.18035886,-1.9863064,0.357559,1.5113221,0.8953822,0.04,0.04,-0.04832486790569135,0.018258398969664413,0.008451761155836568,-0.08717655263013399,-0.19039848545694882,0.20338059885817233,0.9196768510295565,-0.0552744003522857,0.2726469847134896,0.2771332749286815
1463.6666666656643,0.22643477,-1.1057428,-0.18142594,-1.9841151,0.3596739,1.5109694,0.89602965,0.04,0.04,-0.04896969294985176,0.017730387755962584,0.009227669654887638,-0.08708315810777503,-0.18899705609419323,0.20205790869174428,0.9187238520245773,-0.055924339899444904,0.2739608628318997,0.2788626858587129
1463.683333332331,0.22775728,-1.1076252,-0.18248586,-1.9819384,0.36177444,1.5106188,0.8966725,0.04,0.04,-0.04970654667468821,0.017204129426948156,0.011222265675336907,-0.08696769313946243,-0.18757900810880895,0.20070828980573613,0.9177719363885527,-0.05657305037959338,0.27526175550749826,0.28057998628427633
1463.6999999989976,0.22907071,-1.109495,-0.18353847,-1.9797769,0.3638606,1.5102707,0.89731103,0.04,0.04,-0.05007705296233844,0.01661091829995298,0.011675553268197802,-0.08683184728528531,-0.18614700715573812,0.19933683429973498,0.916821224174595,-0.05722029501148459,0.27654975566476786,0.2822851632366688
1463.7166666656642,0.23037495,-1.1113518,-0.18458371,-1.9776305,0.36593214,1.509925,0.8979449,0.04,0.04,-0.05009677395997336,0.016253973362570506,0.012674965677927919,-0.08667599522731252,-0.1846995523366968,0.19794077209599165,0.9158719176396057,-0.05786606217351346,0.2778248666972683,0.2839779793792598
1463.7333333323309,0.2316698,-1.1131951,-0.18562138,-1.9754994,0.36798877,1.5095819,0.8985745,0.04,0.04,-0.05039146896157476,0.015568807664192996,0.014316743194964232,-0.08649824619763566,-0.18323711518445723,0.19652062685659105,0.9149242798165661,-0.05850997713531232,0.2790869552041481,0.2856582157275385
1463.7499999989975,0.23295516,-1.1150247,-0.18665145,-1.9733838,0.37003025,1.5092412,0.89919925,0.04,0.04,-0.05077763913221567,0.015187686921827592,0.014981960972526576,-0.08630183730657118,-0.18176083407534677,0.19507844453129983,0.9139785251409291,-0.05915209366348891,0.2803359728245926,0.28732564754460616
1463.7666666656642,0.23423088,-1.116841,-0.18767378,-1.9712842,0.3720564,1.508903,0.8998194,0.04,0.04,-0.05111496832399531,0.014665105965094849,0.015568257642639693,-0.08608461640378487,-0.180270636691666,0.19361364104828677,0.9130348324141706,-0.059792217678933834,0.2815719568008186,0.28898013538445966
1463.7833333323308,0.23549683,-1.1186436,-0.18868825,-1.9692005,0.37406698,1.5085676,0.90043473,0.04,0.04,-0.05095562381201013,0.01421123863020457,0.01660070802063096,-0.08584667985463118,-0.17876459983134077,0.1921257548786771,0.9120933582375362,-0.060430216090331855,0.2827950387561655,0.2906215079741139
1463.7999999989975,0.23675284,-1.1204324,-0.18969473,-1.9671329,0.37606183,1.5082349,0.9010454,0.04,0.04,-0.05118843674454254,0.01360667639130897,0.01778082337746678,-0.08558856458029307,-0.177242816116901,0.19061436769384915,0.9111543420960494,-0.061065868247286596,0.28400511663283207,0.2922495822770184
1463.8166666656641,0.23799878,-1.1222067,-0.19069321,-1.9650822,0.37804076,1.5079044,0.901651,0.04,0.04,-0.052693960121308336,0.012793141151559717,0.01940700606237744,-0.08531085601012797,-0.17570634771767368,0.18908103850001173,0.9102181903651161,-0.06169913765084392,0.28520157893337217,0.2938641211776408
1463.8333333323308,0.23923457,-1.1239666,-0.1916835,-1.9630481,0.38000348,1.507577,0.9022518,0.04,0.04,-0.051883456941537176,0.012417296363942398,0.020192517063122306,-0.08501173223122865,-0.17415955509927736,0.187527138678369,0.9092849540555299,-0.06232977286473896,0.28638490871628397,0.2954649823624256
1463.8499999989974,0.24046008,-1.1257117,-0.1926655,-1.961031,0.38194984,1.5072525,0.9028476,0.04,0.04,-0.05225056889277546,0.01174086117662898,0.021464881262922564,-0.08469405581067171,-0.17259830932709536,0.18595258638399037,0.9083548810031727,-0.06295763201172043,0.2875549527774026,0.29705200868261183
1463.866666665664,0.24167517,-1.1274421,-0.19363911,-1.9590312,0.3838796,1.5069306,0.9034382,0.04,0.04,-0.052936395857594576,0.011157102916373174,0.022056232660372377,-0.08435662475810476,-0.17102529614238496,0.18435694633890481,0.9074282411589082,-0.06358270468456882,0.2887115428390394,0.29862496855378107
1463.8833333323307,0.24287969,-1.129157,-0.19460429,-1.9570487,0.38579264,1.506611,0.90402377,0.04,0.04,-0.05316961995442959,0.010436927026924447,0.02375481121288381,-0.08399876503755323,-0.16943965064114486,0.18274146409967484,0.9065053715532685,-0.06420474717592183,0.28985430245017585,0.30018368565974507
1463.8999999989974,0.24407354,-1.1308571,-0.1955609,-1.9550835,0.38768855,1.5062945,0.9046041,0.04,0.04,-0.05224792276665724,0.010460631138972665,0.023427035409784303,-0.08362001465253502,-0.1678471556005665,0.1811076368731902,0.9055861931298819,-0.06482367253262178,0.2909840802909188,0.3017280287098963
1463.916666665664,0.24525657,-1.1325421,-0.19650887,-1.9531364,0.3895675,1.5059812,0.9051792,0.04,0.04,-0.053167506764006944,0.009395268408238233,0.025205214932011444,-0.08322345681922194,-0.16623775403948374,0.17945429924916773,0.9046709936495352,-0.06543927251801174,0.2921004650179614,0.3032579977474079
1463.9333333323307,0.24642873,-1.1342117,-0.19744809,-1.9512069,0.39142904,1.5056705,0.905749,0.04,0.04,-0.05276158675360243,0.00905148566961167,0.025667077060353982,-0.08280889019047855,-0.16461789987235012,0.1777821593249274,0.9037600264632719,-0.066051517870496,0.29320346096605576,0.30477326331493765
1463.9499999989973,0.24758986,-1.1358654,-0.19837849,-1.9492955,0.39327303,1.5053629,0.9063134,0.04,0.04,-0.053292152530115544,0.008349793388157112,0.027188169745462343,-0.0823739134852731,-0.16298478896391688,0.1760902255787095,0.9028535198947051,-0.06666021909346458,0.2942929801988105,0.30627369885423605
1463.966666665664,0.24873987,-1.1375036,-0.19929998,-1.9474027,0.3950994,1.5050582,0.9068724,0.04,0.04,-0.053635845261590376,0.007657712670222638,0.027872711443288622,-0.08192069839673771,-0.1613418388620372,0.1743823406917003,0.9019516689863194,-0.06726527562236802,0.2953689577691151,0.3077592375455634
1463.9833333323306,0.24987867,-1.139126,-0.20021246,-1.9455283,0.39690784,1.5047566,0.9074259,0.04,0.04,-0.053148483280018866,0.007289900705886865,0.02869000664460497,-0.0814481817137675,-0.15968838732254467,0.17265584315860633,0.9010546324182847,-0.06786653780287649,0.29643158902800015,0.309229680772295
1463.9999999989973,0.25100607,-1.1407317,-0.20111579,-1.9436723,0.39869824,1.5044578,0.907974,0.04,0.04,-0.05360701613010832,0.006324524661383002,0.03028568721088476,-0.08095811806542993,-0.1580222609622051,0.1709126240779374,0.9001627573490346,-0.06846377305179129,0.29748050367284345,0.3106848435245065
1464.016666665664,0.25212207,-1.1423217,-0.20200995,-1.9418353,0.4004704,1.5041621,0.9085165,0.04,0.04,-0.05349780922498937,0.006099967867873035,0.029960894721781095,-0.08044946263697943,-0.15634999285478918,0.16915350821006303,0.8992760894597028,-0.06905704789348162,0.29851603797611515,0.31212467722585546
1464.0333333323306,0.25322637,-1.143895,-0.20289482,-1.9400172,0.40222427,1.5038692,0.90905344,0.04,0.04,-0.05381534278363631,0.005218606031009987,0.03190446251628565,-0.0799228569635393,-0.15466490595197993,0.16737774673649575,0.8983949731896197,-0.06964608332551618,0.2995378603135211,0.31354898415372884
1464.0499999989972,0.25431922,-1.1454518,-0.20377035,-1.9382185,0.40395963,1.5035796,0.9095845,0.04,0.04,-0.053683516226366024,0.004577193430277404,0.03270438889622085,-0.07937938069731726,-0.15297249382925937,0.16558779403949553,0.8975195017906148,-0.07023094944269787,0.3005461667210269,0.31495771035997944
1464.066666665664,0.25540027,-1.1469922,-0.20463647,-1.9364393,0.4056764,1.5032932,0.91010994,0.04,0.04,-0.053752950463525906,0.004165921225759983,0.032935773605913266,-0.07881693370319082,-0.15127144175015583,0.16378337524671735,0.8966498670118768,-0.07081139428926068,0.30154096904509725,0.3163507648382382
1464.0833333323305,0.25646958,-1.1485151,-0.20549309,-1.9346793,0.4073743,1.5030099,0.91062963,0.04,0.04,-0.05357054984931331,0.003345585688835362,0.03511167766254708,-0.07823707786248091,-0.14956085510970846,0.1619631159970608,0.8957863693297177,-0.07138723877253615,0.3025220694691703,0.31772793416318634
1464.0999999989972,0.25752681,-1.1500219,-0.20634012,-1.9329388,0.40905315,1.5027299,0.91114354,0.04,0.04,-0.05301975252236524,0.0034022866437416477,0.03364934431563382,-0.07764080086141911,-0.14784328537242547,0.16013043586110973,0.8949289631899927,-0.0719584448558865,0.3034900970694687,0.3190891631478123
1464.1166666656638,0.25857204,-1.1515113,-0.20717752,-1.9312183,0.41071296,1.502453,0.9116516,0.04,0.04,-0.05398869523722816,0.002103505171247022,0.03641918691241752,-0.0770287938712511,-0.14611399032177597,0.1582825702869785,0.894078088903473,-0.07252485896408228,0.3044443394516545,0.3204343301689119
1464.1333333323305,0.2596051,-1.152984,-0.20800525,-1.9295177,0.4123535,1.5021793,0.91215366,0.04,0.04,-0.053427099202751904,0.002020563251364793,0.0359634890136018,-0.07639898800956461,-0.14437851068851523,0.1564205233420136,0.8932337650575792,-0.07308645709443032,0.30538526836254665,0.3217633425634139
1464.1499999989971,0.26062614,-1.154439,-0.20882322,-1.927837,0.4139747,1.5019088,0.91264987,0.04,0.04,-0.053323137989913505,0.0009735702573621108,0.037895348854100064,-0.07575202989321363,-0.14263474207354804,0.15454586604850468,0.8923962839417212,-0.0736430590388525,0.30631256406631235,0.3230761293527091
1464.1666666656638,0.2616348,-1.155876,-0.20963132,-1.9261765,0.4155764,1.5016414,0.9131401,0.04,0.04,-0.05385870554581729,0.0003213827290293736,0.03893672060972797,-0.07508947755981624,-0.14088447711168528,0.15265898840319062,0.891565931929154,-0.07419448278335276,0.3072260752274684,0.32437248102780786
1464.1833333323304,0.2626311,-1.1572957,-0.2104295,-1.9245363,0.41715848,1.5013773,0.91362435,0.04,0.04,-0.05311874399858141,1.8906589643874483e-05,0.03872149182243545,-0.0744099797497634,-0.1391299054608074,0.15075963259410116,0.8907427080402085,-0.07474071606914008,0.30812622010735485,0.3256524004471975
1464.199999998997,0.26361498,-1.1586984,-0.21121779,-1.9229164,0.41872084,1.5011166,0.9141026,0.039999995,0.04,-0.05256431969211661,-0.0001327698995245985,0.03844697889294757,-0.07371735473257979,-0.1373691127608547,0.14885233189525626,0.8899266511559141,-0.07528167745261961,0.30901329815907275,0.3269159007500122
1464.2166666656638,0.26458642,-1.160083,-0.211996,-1.9213172,0.42026335,1.5008595,0.91457486,0.039999984,0.04,-0.05337329151964276,-0.0015025858731254615,0.04125129226626445,-0.07300961672500716,-0.1355974371283431,0.14693130601871524,0.8891181746157198,-0.07581714814704445,0.3098867815371678,0.32816278619519756
1464.2333333323304,0.26554525,-1.1614498,-0.21276416,-1.9197384,0.42178592,1.5006058,0.9150409,0.039999977,0.04,-0.05250034386068414,-0.0016052008455946787,0.04099707620865978,-0.07228623315797636,-0.13382274986725495,0.14499926998968224,0.8883173142279255,-0.07634711738295043,0.310747035760235,0.329392997309333
1464.249999998997,0.26649153,-1.1627985,-0.21352221,-1.9181807,0.4232883,1.5003552,0.91550094,0.03999996,0.04,-0.053543762392260774,-0.002468564772395432,0.042136441128670654,-0.07155093849809237,-0.1320402119023193,0.14305955784877966,0.8875244364024985,-0.07687143670449731,0.3115935860320524,0.3306064036752763
1464.2666666656637,0.26742515,-1.1641291,-0.2142701,-1.9166437,0.42477065,1.5001078,0.9159547,0.039999954,0.04,-0.05266665007188642,-0.0030178891642695937,0.042356604648285945,-0.07079911552205606,-0.1302568286582282,0.14110965537075587,0.8867395833598598,-0.07739016610715223,0.31242667296066345,0.3318030251752091
1464.2833333323304,0.26834604,-1.1654418,-0.21500778,-1.9151278,0.42623278,1.4998635,0.9164022,0.03999994,0.04,-0.05258134519592339,-0.0034375757876237145,0.042886454073720603,-0.07003392638935935,-0.12846841199194065,0.13915251200073847,0.8859629015810552,-0.0779031733601535,0.31324640245395485,0.33298276825107687
1464.299999998997,0.2692541,-1.1667362,-0.21573518,-1.9136331,0.42767453,1.499623,0.91684353,0.03999994,0.04,-0.052501877833233124,-0.004022700028882831,0.04399960112485557,-0.06925335477939357,-0.12667590395086747,0.13718615722204264,0.8851945345557866,-0.07841021738938708,0.31405286747772776,0.3341455823896673
1464.3166666656637,0.2701492,-1.1680125,-0.21645227,-1.9121592,0.42909586,1.4993856,0.9172787,0.039999932,0.04,-0.05170817280992779,-0.004365233813619085,0.04389250278186152,-0.06846160507614571,-0.12488063456983092,0.13521396032455898,0.8844346055418504,-0.07891126196462832,0.3148461759842538,0.3352914056806018
1464.3333333323303,0.27103144,-1.1692705,-0.21715905,-1.9107069,0.43049675,1.4991518,0.91770744,0.039999913,0.04,-0.05227495887880629,-0.0051565114478846485,0.04514017290427885,-0.06765777826192623,-0.12307997402158974,0.1332335340964023,0.8836832906681331,-0.0794063130064686,0.31562621661757434,0.336420229225792
1464.349999998997,0.27190083,-1.17051,-0.21785544,-1.9092749,0.43187702,1.4989214,0.9181299,0.03999991,0.04,-0.05060485922223634,-0.005278907569122859,0.04481054338429935,-0.06683993645173736,-0.12127641843735465,0.13124526383105256,0.8829406138094539,-0.07989529940691974,0.3163933981449315,0.3375319706765071
1464.3666666656636,0.27275714,-1.171731,-0.21854144,-1.9078652,0.43323666,1.4986945,0.91854626,0.0399999,0.04,-0.052614958533236944,-0.006441572700593978,0.04703555956919736,-0.0660122079612345,-0.11946680165553146,0.129253042523221,0.8822069847006909,-0.08037787775384252,0.3171470369841004,0.3386266230604277
1464.3833333323303,0.2736004,-1.1729336,-0.21921699,-1.906477,0.4345756,1.4984711,0.9189561,0.039999887,0.04,-0.051426671127163814,-0.0066390917556558016,0.04644840974173947,-0.06517286155217727,-0.11765938208322134,0.12725421252106672,0.881482379190144,-0.08085424697620276,0.317887605035911,0.3397041013701877
1464.399999998997,0.27443066,-1.1741173,-0.21988204,-1.9051099,0.43589374,1.4982512,0.9193596,0.039999872,0.04,-0.05066190807347937,-0.007141767237045515,0.04717167449982407,-0.06432187007764648,-0.115849592635864,0.12525081107059693,0.8807669239145284,-0.081324264736227,0.3186151587071998,0.3407643912518403
1464.4166666656636,0.27524784,-1.1752822,-0.22053659,-1.9037645,0.43719104,1.4980346,0.91975677,0.039999865,0.04,-0.0512399014806153,-0.007817503859203212,0.048031210942844904,-0.06346122246691481,-0.11403786522785109,0.12324434440341342,0.8800608596138605,-0.08178784299417542,0.31932947848425386,0.3418074257312847
1464.4333333323302,0.27605188,-1.1764288,-0.22118063,-1.9024405,0.43846753,1.4978217,0.9201475,0.03999985,0.04,-0.050071214949864995,-0.00787487119753294,0.04750472505475889,-0.06258858524070093,-0.11222716069079935,0.12123371220699698,0.879364071487927,-0.08224496000512574,0.3200311268265009,0.3428333037965996
1464.4499999989969,0.27684277,-1.1775568,-0.22181414,-1.9011387,0.43972304,1.4976121,0.920532,0.039999854,0.04,-0.05095877766998491,-0.008711868127897482,0.04867176378211546,-0.06170575290098187,-0.11041233355763569,0.11921751202045214,0.8786769120253816,-0.08269543088049278,0.3207196176245152,0.3438419358597993
1464.4666666656635,0.2776204,-1.1786661,-0.22243705,-1.8998584,0.44095773,1.4974059,0.9209098,0.03999984,0.04,-0.049905079052425805,-0.009061191749026865,0.04850819256014827,-0.06081509555085889,-0.10860033365338394,0.11720114842416185,0.8779993586907074,-0.08313943980026432,0.3213953356386984,0.34483329003750945
1464.4833333323302,0.27838486,-1.1797566,-0.22304942,-1.8985999,0.44217142,1.4972032,0.9212812,0.039999835,0.04,-0.04988708620881077,-0.009546045677483184,0.04959197268059601,-0.05991435118924121,-0.10678669542410014,0.11518243938081069,0.8773315746742568,-0.08357675083676629,0.322058197337199,0.3458073919497267
1464.4999999989968,0.27913618,-1.1808282,-0.22365123,-1.8973626,0.44336414,1.497004,0.9216466,0.039999824,0.04,-0.04887263016164489,-0.009785140608886689,0.04952486863662453,-0.05900407655434068,-0.10497459816192642,0.1131616918543243,0.8766736060414895,-0.08400717865510261,0.32270837010861286,0.3467643151572312
1464.5166666656635,0.27987418,-1.1818806,-0.22424242,-1.8961474,0.44453576,1.4968083,0.9220053,0.039999817,0.04,-0.04981266939929618,-0.010680002847246461,0.050992513002212636,-0.05808694332566983,-0.10316290296453437,0.11113830121576294,0.8760257448389962,-0.08443081999507498,0.3233455884261664,0.347703841594506
1464.5333333323301,0.28059906,-1.1829146,-0.22482297,-1.8949538,0.44568646,1.496616,0.9223576,0.039999813,0.04,-0.0485554890730544,-0.010750889383986939,0.04951248288609933,-0.05716036529967014,-0.10135485335997477,0.10911528937776371,0.8753878226135786,-0.08484775386158402,0.3239703445724481,0.34862621032003793
1464.5499999989968,0.28131065,-1.1839299,-0.22539291,-1.8937825,0.44681612,1.4964274,0.9227035,0.03999981,0.04,-0.04891025218074496,-0.011301976499128452,0.05098210660396951,-0.05622791271740869,-0.09954674057999714,0.1070937737673432,0.87476005942245,-0.08525774684983088,0.324582483233344,0.3495313528417699
1464.5666666656634,0.28200898,-1.1849264,-0.22595227,-1.8926325,0.44792476,1.4962425,0.92304295,0.039999798,0.04,-0.04750179103782948,-0.011344322117590178,0.050713299724214345,-0.05528775842126515,-0.09774182307468207,0.10507165895604662,0.8741424042805561,-0.08566078962878179,0.3251823979537567,0.35041931199610965
1464.58333333233,0.2826941,-1.1859039,-0.22650108,-1.8915046,0.4490124,1.496061,0.92337596,0.039999787,0.04,-0.04860582712438166,-0.012228688176874059,0.051821837821031114,-0.054341406873630455,-0.09593686385974651,0.10304928810800948,0.8735351748884326,-0.08605685701360467,0.32576955147824926,0.3512900723379976
1464.5999999989967,0.28336602,-1.1868626,-0.2270392,-1.890398,0.4500789,1.495883,0.92370254,0.039999776,0.04,-0.046822884888531036,-0.012218787916262741,0.05110178642397378,-0.0533888367362513,-0.09413793690102,0.10102959050845435,0.8729382425037547,-0.08644595318823968,0.32634461488122557,0.35214359896192526
1464.6166666656634,0.2840247,-1.1878022,-0.22756681,-1.8893136,0.45112446,1.4957087,0.9240226,0.039999776,0.04,-0.047755770296653566,-0.012935356893767347,0.05268746122418788,-0.052430969833416954,-0.09233968762027887,0.09901185468638055,0.8723518417380846,-0.08682792762624666,0.3269071599259733,0.3529800050844767
1464.63333333233,0.2846702,-1.188723,-0.2280838,-1.8882508,0.4521491,1.495538,0.9243363,0.03999977,0.04,-0.04676985027582958,-0.013207183600810746,0.05201278624984984,-0.051468756384535914,-0.09054890880059492,0.09699851743361193,0.8717759406367682,-0.08720284983827953,0.32745747682471604,0.35379934027432974
1464.6499999989967,0.28530252,-1.1896249,-0.2285902,-1.8872097,0.45315275,1.4953707,0.9246436,0.03999976,0.04,-0.04641203053519227,-0.013450392329467098,0.052143091702877564,-0.050501625381235905,-0.08876184844671364,0.09498757198250901,0.8712106229132628,-0.08757068791059257,0.32799565610634235,0.354601571791948
1464.6666666656633,0.28592166,-1.1905085,-0.2290861,-1.8861903,0.4541356,1.495207,0.92494446,0.039999753,0.04,-0.046173125805193393,-0.013646760158064764,0.051785596646169996,-0.04953039411263083,-0.0869797025619297,0.09298117547239401,0.8706558713830476,-0.08793144819721498,0.3285218182583327,0.35538687225670806
1464.68333333233,0.28652778,-1.1913733,-0.22957143,-1.8851924,0.4550974,1.4950466,0.92523897,0.039999746,0.04,-0.045637052427505154,-0.014025144797535916,0.05234189492461239,-0.048554694283404,-0.08520214930486306,0.09097883778635209,0.8701118032503522,-0.08828510142713543,0.3290360276776212,0.3561551392308589
1464.6999999989966,0.2871207,-1.1922195,-0.23004626,-1.884216,0.4560385,1.4948896,0.92552716,0.039999735,0.04,-0.04531915372534279,-0.014395500828429109,0.05244263857143716,-0.0475764415669538,-0.08342998491278332,0.08898203999132964,0.8695784645009925,-0.08863157879475851,0.3295382806261336,0.35690651285514
1464.7166666656633,0.28770047,-1.1930469,-0.23051065,-1.8832613,0.45695886,1.494736,0.92580897,0.03999974,0.04,-0.04552649527527208,-0.014780766700783765,0.05304059284563234,-0.04659490158591501,-0.08166522504742911,0.08699157851531347,0.8690559813047324,-0.08897084935151388,0.33002846837309935,0.35764102028073497
1464.73333333233,0.28826728,-1.1938556,-0.23096457,-1.8823282,0.45785856,1.4945858,0.92608446,0.03999973,0.04,-0.044655962707240704,-0.015108935145602409,0.05290665595725219,-0.04561200017157223,-0.07990933456407064,0.08500887757412968,0.8685443177558815,-0.08930296647529304,0.3305068100326942,0.35835875431569364
1464.7499999989966,0.288821,-1.194646,-0.23140806,-1.8814167,0.45873755,1.4944388,0.9263536,0.039999723,0.04,-0.04474399312819344,-0.01525189558354012,0.05270490500960401,-0.044625940421126054,-0.07816179921686023,0.08303248781699513,0.8680435605081847,-0.0896279140883582,0.3309733367786005,0.359059694783587
1464.7666666656633,0.28936186,-1.195418,-0.23184118,-1.8805261,0.45959592,1.4942952,0.9266163,0.039999723,0.04,-0.04318307209256744,-0.015139853434931183,0.052202489264496776,-0.04363909378786193,-0.0764223211932614,0.0810652665451272,0.8675535447317311,-0.08994575313422322,0.331428540014937,0.3597439803250265
1464.78333333233,0.28988972,-1.196172,-0.23226397,-1.8796569,0.46043384,1.4941552,0.9268728,0.039999716,0.04,-0.043507781576268556,-0.01552442012222599,0.0523132972551299,-0.0426518914854792,-0.07468974847987633,0.0791068838114197,0.8670743441691372,-0.0902563913538326,0.3318723296080915,0.36041174001958226
1464.7999999989966,0.2904048,-1.1969074,-0.23267646,-1.8788086,0.46125144,1.4940186,0.92712325,0.03999971,0.04,-0.04266846866030072,-0.015922151732272738,0.052903393741005056,-0.04166421620187209,-0.07296588539399766,0.07715747545156743,0.8666060132686988,-0.09055975651948744,0.3323046815940332,0.3610630787775886
1464.8166666656632,0.29090714,-1.1976243,-0.23307881,-1.8779813,0.46204874,1.4938855,0.92736715,0.039999697,0.04,-0.04244631535175181,-0.015965305539350494,0.053099421494234855,-0.04067710263402484,-0.07125118681689743,0.07521591561051821,0.8661485375342078,-0.09085602371814477,0.33272577060778746,0.36169801693530906
1464.8333333323299,0.29139674,-1.1983234,-0.23347086,-1.8771752,0.46282575,1.4937558,0.9276051,0.039999686,0.04,-0.04243895816489207,-0.016348615821665247,0.05234483486725172,-0.03969085028568011,-0.06954600892535794,0.07328543575932106,0.8657019800560659,-0.09114504844129899,0.3331355849983235,0.36231663483680254
1464.8499999989965,0.29187363,-1.1990043,-0.2338528,-1.8763897,0.4635827,1.4936296,0.92783695,0.039999686,0.04,-0.041361151206409374,-0.01624404054477724,0.05239839519172729,-0.038704353702761096,-0.06785294756799458,0.07136465394838624,0.8652662470444659,-0.09142684627576513,0.33353437899416216,0.36291909778162895
