rsonawane2002/My_IMU/logs_2/traj_363/imu_400hz_363.csv
time,j1,j2,j3,j4,j5,j6,j7,gripper1,gripper2,imu_ax,imu_ay,imu_az,imu_gx,imu_gy,imu_gz
0.0,0.00016700293,-0.785875,4.0107683e-05,-2.3551247,9.29385e-05,1.570997,0.786,0.04,0.04,-9.564993,-0.0453375540673732,0.096801996,-1.2937842e-07,-0.0011641273740679,7.4078406e-07
0.0025,0.0001670028475,-0.785857774,4.010816255e-05,-2.35513919,9.29423055e-05,1.570996565,0.786,0.04,0.04,-9.605395950000036,-0.038443335882032484,0.08364593339998803,-6.752734499994374e-08,-0.0013253501732835066,7.132377059999749e-07
0.005,0.000167002765,-0.785840548,4.0108642100000004e-05,-2.3551536800000004,9.294611100000002e-05,1.57099613,0.786,0.04,0.04,-9.645798900000074,-0.03154911769669177,0.07048987079997607,-5.676269999887481e-09,-0.0014865729724991132,6.856913519999498e-07
0.0075,0.0001670026825,-0.7858233219999999,4.010912165e-05,-2.3551681700000002,9.294991650000002e-05,1.570995695,0.786,0.04,0.04,-9.68620185000011,-0.024654899511351056,0.0573338081999641,5.617480500016874e-08,-0.0016477957717147198,6.581449979999248e-07
0.01,0.00016700259999999999,-0.785806096,4.0109601200000006e-05,-2.35518266,9.295372200000002e-05,1.5709952600000001,0.786,0.04,0.04,-9.726604800000146,-0.01776068132601034,0.044177745599952134,1.1802588000022504e-07,-0.0018090185709303264,6.305986439998997e-07
0.0125,0.0001670025175,-0.78578887,4.011008075e-05,-2.3551971500000004,9.295752750000002e-05,1.570994825,0.786,0.04,0.04,-9.767007750000184,-0.010866463140669622,0.031021682999940167,1.7987695500028128e-07,-0.001970241370145933,6.030522899998747e-07
0.015,0.000167002435,-0.785771644,4.01105603e-05,-2.3552116400000003,9.296133300000003e-05,1.57099439,0.786,0.04,0.04,-9.80741070000022,-0.003972244955328913,0.0178656203999282,2.4172803000033747e-07,-0.0021314641693615396,5.755059359998496e-07
0.0175,0.00016700117099999998,-0.785754867,4.0109726649999976e-05,-2.3552257350000003,9.296149649999996e-05,1.57099396,0.786,0.04,0.04,-9.8342608,0.0006198771356137881,0.009014826409998471,3.82221156001896e-07,-0.002288523665630232,4.290194649975527e-07
0.02,0.00016699754399999997,-0.785738988,4.0106266599999975e-05,-2.3552390400000003,9.295437599999995e-05,1.5709935400000001,0.786,0.04,0.04,-9.834005199999998,0.0006078070378860721,0.008774569639998252,6.799983840021666e-07,-0.002437256556005322,4.4652759997203335e-08
0.0225,0.000166993917,-0.7857231089999999,4.0102806549999975e-05,-2.3552523450000002,9.294725549999994e-05,1.57099312,0.786,0.04,0.04,-9.833749599999997,0.0005957369401583561,0.008534312869998034,9.777756120024374e-07,-0.002585989446380412,-3.3971394500314607e-07
0.025,0.00016699028999999998,-0.7857072299999999,4.009934649999997e-05,-2.35526565,9.294013499999994e-05,1.5709927,0.786,0.04,0.04,-9.833493999999998,0.0005836668424306402,0.008294056099997815,1.2755528400027083e-06,-0.0027347223367555026,-7.24080650003496e-07
0.0275,0.00016698666299999997,-0.7856913509999999,4.009588644999997e-05,-2.355278955,9.293301449999993e-05,1.57099228,0.786,0.04,0.04,-9.833238399999997,0.0005715967447029243,0.008053799329997596,1.573330068002979e-06,-0.002883455227130593,-1.1084473550038455e-06
0.03,0.00016698303599999996,-0.7856754719999999,4.0092426399999966e-05,-2.35529226,9.292589399999992e-05,1.57099186,0.786,0.04,0.04,-9.832982799999996,0.0005595266469752083,0.007813542559997378,1.8711072960032498e-06,-0.003032188117505683,-1.4928140600041948e-06
0.0325,0.00016697940899999998,-0.7856595929999999,4.008896634999996e-05,-2.355305565,9.291877349999993e-05,1.57099144,0.786,0.04,0.04,-9.832727199999997,0.0005474565492474923,0.00757328578999716,2.168884524003521e-06,-0.0031809210078807735,-1.877180765004545e-06
0.035,0.00016696938399999984,-0.7856445729999998,4.0078616099999825e-05,-2.3553181,9.289383159999958e-05,1.57099101,0.786,0.04,0.0399999995,-9.832467599999996,0.000529088909388156,0.007353682539997335,2.8339671400108083e-06,-0.003322328394280574,-2.6805892000128986e-06
0.0375,0.00016695615999999983,-0.7856299824999998,4.006482074999981e-05,-2.35533025,9.285997899999954e-05,1.570990575,0.786,0.04,0.03999999875,-9.832205999999996,0.0005075724984631815,0.007144406049997145,3.6827024500115786e-06,-0.0034600730286929293,-3.693518500013818e-06
0.04,0.0001669429359999998,-0.7856153919999997,4.00510253999998e-05,-2.3553424,9.282612639999951e-05,1.57099014,0.786,0.04,0.039999998,-9.831944399999996,0.00048605608753820684,0.006935129559996955,4.5314377600123515e-06,-0.0035978176631052848,-4.70644780001474e-06
0.0425,0.0001669297119999998,-0.7856008014999998,4.003723004999979e-05,-2.35535455,9.279227379999948e-05,1.5709897050000001,0.786,0.04,0.03999999725,-9.831682799999996,0.00046453967661323227,0.006725853069996764,5.380173070013124e-06,-0.00373556229751764,-5.719377100015662e-06
0.045,0.00016691648799999978,-0.7855862109999998,4.002343469999978e-05,-2.3553667000000003,9.275842119999945e-05,1.57098927,0.786,0.04,0.0399999965,-9.831421199999996,0.00044302326568825776,0.006516576579996575,6.228908380013894e-06,-0.003873306931929995,-6.732306400016582e-06
0.0475,0.00016690326399999977,-0.7855716204999997,4.0009639349999764e-05,-2.35537885,9.272456859999942e-05,1.570988835,0.786,0.04,0.03999999575,-9.831159599999996,0.00042150685476328314,0.006307300089996384,7.077643690014666e-06,-0.0040110515663423505,-7.745235700017503e-06
0.05,0.00016689003999999943,-0.7855570299999998,3.99958439999994e-05,-2.355391,9.269071599999837e-05,1.5709884,0.786,0.04,0.039999995,-9.830897999999996,0.00039999044383807775,0.006098023599996161,7.926379000028931e-06,-0.004148796200754519,-8.758165000043662e-06
0.0525,0.0001668584604999994,-0.7855436304999998,3.996257129999937e-05,-2.3554020550000003,9.260167134999829e-05,1.57098798,0.786,0.04,0.03999999575,-9.830702399999996,0.0003657853027100117,0.00588699735999597,9.516763600030375e-06,-0.004276249744000429,-1.115836855004584e-05
0.055,0.00016682688099999937,-0.7855302309999997,3.992929859999934e-05,-2.35541311,9.251262669999821e-05,1.57098756,0.786,0.04,0.0399999965,-9.830506799999995,0.00033158016158194557,0.005675971119995778,1.1107148200031822e-05,-0.0044037032872463406,-1.3558572100048024e-05
0.0575,0.00016679530149999933,-0.7855168314999997,3.989602589999931e-05,-2.3554241650000005,9.242358204999813e-05,1.57098714,0.786,0.04,0.03999999725,-9.830311199999995,0.0002973750204538794,0.005464944879995586,1.269753280003327e-05,-0.004531156830492251,-1.595877565005021e-05
0.06,0.0001667637219999993,-0.7855034319999997,3.986275319999928e-05,-2.3554352200000004,9.233453739999805e-05,1.57098672,0.786,0.04,0.039999998,-9.830115599999996,0.0002631698793258134,0.005253918639995394,1.4287917400034714e-05,-0.0046586103737381625,-1.835897920005239e-05
0.0625,0.0001667321424999993,-0.7854900324999997,3.9829480499999247e-05,-2.3554462750000003,9.224549274999797e-05,1.5709863,0.786,0.04,0.03999999875,-9.829919999999996,0.00022896473819774727,0.005042892399995202,1.587830200003616e-05,-0.004786063916984073,-2.0759182750054573e-05
0.065,0.00016670056299999925,-0.7854766329999997,3.9796207799999216e-05,-2.3554573300000006,9.215644809999789e-05,1.57098588,0.786,0.04,0.0399999995,-9.829724399999995,0.00019475959706968113,0.00483186615999501,1.746868660003761e-05,-0.004913517460229984,-2.3159386300056762e-05
0.0675,0.0001666590929999985,-0.7854636099999996,3.975254189999842e-05,-2.3554680400000003,9.203921874999573e-05,1.570985455,0.786,0.04,0.04,-9.829524849999995,0.00015869547059892613,0.004628118429995354,1.93745697000623e-05,-0.005037868395450592,-2.5944179650087278e-05
0.07,0.00016659784199999844,-0.7854513399999997,3.968808959999836e-05,-2.3554780600000003,9.186561999999557e-05,1.57098502,0.786,0.04,0.04,-9.829317399999995,0.00011891337344319917,0.004438927719995182,2.191144980006461e-05,-0.0051560141146212695,-2.9498152600090514e-05
0.0725,0.00016653659099999838,-0.7854390699999997,3.96236372999983e-05,-2.35548808,9.169202124999542e-05,1.570984585,0.786,0.04,0.04,-9.829109949999994,7.913127628747245e-05,0.004249737009995011,2.4448329900066907e-05,-0.005274159833791946,-3.305212555009373e-05
0.075,0.00016647533999999834,-0.7854267999999996,3.955918499999824e-05,-2.3554981000000006,9.151842249999526e-05,1.57098415,0.786,0.04,0.04,-9.828902499999995,3.934917913174551e-05,0.004060546299994839,2.6985210000069214e-05,-0.005392305552962624,-3.660609850009697e-05
0.0775,0.00016641408899999827,-0.7854145299999996,3.9494732699998186e-05,-2.3555081200000005,9.134482374999511e-05,1.5709837150000001,0.786,0.04,0.04,-9.828695049999993,-4.3291802398145746e-07,0.0038713555899946663,2.9522090100071524e-05,-0.0055104512721333015,-4.01600714501002e-05
0.08,0.00016635283799999823,-0.7854022599999996,3.943028039999813e-05,-2.3555181400000005,9.117122499999495e-05,1.57098328,0.786,0.04,0.04,-9.828487599999994,-4.0215015179708395e-05,0.003682164879994494,3.2058970200073835e-05,-0.005628596991303979,-4.3714044400103435e-05
0.0825,0.00016629158699999817,-0.7853899899999996,3.9365828099998065e-05,-2.3555281600000004,9.09976262499948e-05,1.570982845,0.786,0.04,0.04,-9.828280149999994,-7.999711233543533e-05,0.003492974169994322,3.459585030007615e-05,-0.0057467427104746565,-4.726801735010667e-05
0.085,0.00016620152499999678,-0.7853784439999997,3.9271279599996615e-05,-2.3555375300000003,9.074404699999092e-05,1.5709824000000001,0.786,0.04,0.0399999995,-9.828105199999994,-0.00012498266296607602,0.0033076385199943283,3.785546580011198e-05,-0.0058593437075648465,-5.1721339500151626e-05
0.08750000000000001,0.00016609705749999669,-0.7853672599999997,3.916168299999651e-05,-2.3555465750000004,9.045047749999065e-05,1.57098195,0.786,0.04,0.03999999875,-9.827946499999994,-0.00017256994033381864,0.003124230399994161,4.147644900011528e-05,-0.005969172343615171,-5.6624336250156095e-05
0.09,0.0001659925899999966,-0.7853560759999997,3.9052086399996415e-05,-2.3555556200000005,9.015690799999039e-05,1.5709815,0.786,0.04,0.039999998,-9.827787799999994,-0.00022015721770156095,0.002940822279993995,4.5097432200118554e-05,-0.006079000979665496,-6.152733300016054e-05
0.0925,0.0001658881224999965,-0.7853448919999996,3.894248979999631e-05,-2.355564665,8.986333849999013e-05,1.57098105,0.786,0.04,0.03999999725,-9.827629099999994,-0.0002677444950693036,0.002757414159993828,4.871841540012185e-05,-0.006188829615715821,-6.6430329750165e-05
0.095,0.0001657836549999964,-0.7853337079999996,3.8832893199996215e-05,-2.3555737100000003,8.956976899998985e-05,1.5709806000000002,0.786,0.04,0.0399999965,-9.827470399999994,-0.00031533177243704615,0.0025740060399936614,5.2339398600125144e-05,-0.006298658251766146,-7.133332650016946e-05
0.0975,0.0001656791874999963,-0.7853225239999996,3.872329659999611e-05,-2.3555827550000004,8.927619949998958e-05,1.57098015,0.786,0.04,0.03999999575,-9.827311699999994,-0.0003629190498047887,0.002390597919993494,5.5960381800128445e-05,-0.006408486887816471,-7.623632325017392e-05
0.1,0.00016557471999999407,-0.7853113399999997,3.861369999999379e-05,-2.3555918000000005,8.898262999998325e-05,1.5709797,0.786,0.04,0.039999995,-9.827152999999996,-0.0004105063271729916,0.0022071897999934266,5.958136500017836e-05,-0.006518315523866518,-8.113932000025795e-05
0.10250000000000001,0.0001654115499999917,-0.7853011639999995,3.8443028499991305e-05,-2.3556003800000003,8.852219149997655e-05,1.5709792200000001,0.786,0.04,0.03999999575,-9.827035099999993,-0.00047074501344767825,0.0020265152199907973,6.448369425024971e-05,-0.006620521936570801,-8.822921850036113e-05
0.105,0.00016524837999998932,-0.7852909879999993,3.8272356999988825e-05,-2.3556089600000005,8.806175299996985e-05,1.57097874,0.786,0.04,0.0399999965,-9.826917199999992,-0.0005309836997223645,0.0018458406399881689,6.938602350032102e-05,-0.006722728349275083,-9.531911700046426e-05
0.1075,0.00016508520999998695,-0.7852808119999992,3.810168549998634e-05,-2.355617540000001,8.760131449996314e-05,1.57097826,0.786,0.04,0.03999999725,-9.82679929999999,-0.0005912223859970511,0.0016651660599855396,7.428835275039236e-05,-0.0068249347619793645,-0.00010240901550056745
0.11,0.00016492203999998457,-0.785270635999999,3.793101399998386e-05,-2.355626120000001,8.714087599995645e-05,1.57097778,0.786,0.04,0.039999998,-9.826681399999988,-0.0006514610722717378,0.0014844914799829103,7.91906820004637e-05,-0.006927141174683647,-0.00010949891400067063
0.1125,0.0001647588699999822,-0.7852604599999988,3.776034249998137e-05,-2.355634700000001,8.668043749994975e-05,1.5709773,0.786,0.04,0.03999999875,-9.826563499999986,-0.0007116997585464244,0.001303816899980281,8.409301125053505e-05,-0.00702934758738793,-0.0001165888125007738
0.115,0.00016459569999997982,-0.7852502839999987,3.758967099997889e-05,-2.355643280000001,8.621999899994305e-05,1.57097682,0.786,0.04,0.0399999995,-9.826445599999985,-0.0007719384448211112,0.0011231423199776517,8.899534050060639e-05,-0.007131554000092213,-0.000123678711000877
0.11750000000000001,0.0001644071839999691,-0.7852404369999988,3.739270829996777e-05,-2.355651525000001,8.568866449991307e-05,1.5709763099999998,0.786,0.04,0.04,-9.826345499999992,-0.0008327757299491669,0.0009487412469790963,9.436997200081614e-05,-0.007232293207210951,-0.00013140682700116295
0.12,0.00016416797599997214,-0.7852312479999989,3.7143163199970946e-05,-2.355659100000001,8.501553799992164e-05,1.57097574,0.786,0.04,0.04,-9.826280999999993,-0.0008948102127832417,0.0007868871879811579,0.00010068920800073565,-0.007330098003160366,-0.00014041137800104825
0.1225,0.0001639287679999752,-0.7852220589999991,3.6893618099974124e-05,-2.355666675000001,8.434241149993021e-05,1.5709751699999999,0.786,0.04,0.04,-9.826216499999992,-0.0009568446956173168,0.0006250331289832186,0.0001070084440006552,-0.007427902799109781,-0.00014941592900093363
0.125,0.00016368955999997823,-0.7852128699999992,3.66440729999773e-05,-2.3556742500000007,8.366928499993878e-05,1.5709746,0.786,0.04,0.04,-9.826151999999993,-0.001018879178451392,0.0004631790699852794,0.00011332768000057474,-0.007525707595059196,-0.00015842048000081898
0.1275,0.0001634503519999813,-0.7852036809999993,3.639452789998048e-05,-2.3556818250000005,8.299615849994735e-05,1.57097403,0.786,0.04,0.04,-9.826087499999995,-0.0010809136612854671,0.00030132501098734,0.00011964691600049429,-0.00762351239100861,-0.00016742503100070433
0.13,0.00016321114399998432,-0.7851944919999995,3.614498279998366e-05,-2.3556894000000006,8.232303199995591e-05,1.57097346,0.786,0.04,0.04,-9.826022999999996,-0.0011429481441195422,0.00013947095198940077,0.00012596615200041384,-0.007721317186958025,-0.00017642958200058968
0.1325,0.00016297193599998738,-0.7851853029999996,3.589543769998684e-05,-2.3556969750000003,8.164990549996448e-05,1.57097289,0.786,0.04,0.04,-9.825958499999997,-0.0012049826269536176,-2.2383107008538483e-05,0.00013228538800033336,-0.00781912198290744,-0.00018543413300047503
0.135,0.00016266943199998358,-0.7851767259999997,3.558038839998292e-05,-2.3557038900000005,8.080017299995392e-05,1.5709720299999999,0.786,0.04,0.04,-9.825879499999996,-0.0012746555032244395,-0.00018665250400812762,0.00013957141300038162,-0.007912717573349194,-0.00019591903200055134
0.1375,0.0001623352799999833,-0.7851684549999997,3.52325869999826e-05,-2.3557104750000004,7.986213749995308e-05,1.570971025,0.786,0.04,0.04,-9.825793249999995,-0.0013481475762128015,-0.0003521295700082783,0.00014734083250038868,-0.008004208561037576,-0.00020714410500056156
0.14,0.00016200112799998298,-0.7851601839999995,3.4884785599982284e-05,-2.3557170600000004,7.892410199995222e-05,1.57097002,0.786,0.04,0.04,-9.825706999999996,-0.0014216396492011635,-0.0005176066360084289,0.00015511025200039575,-0.00809569954872596,-0.0002183691780005718
0.14250000000000002,0.00016166697599998266,-0.7851519129999995,3.4536984199981966e-05,-2.3557236450000003,7.798606649995136e-05,1.570969015,0.786,0.04,0.04,-9.825620749999995,-0.0014951317221895254,-0.0006830837020085795,0.00016287967150040283,-0.008187190536414344,-0.000229594251000582
0.145,0.00016133282399998238,-0.7851436419999995,3.4189182799981655e-05,-2.3557302300000003,7.704803099995052e-05,1.57096801,0.786,0.04,0.04,-9.825534499999996,-0.0015686237951778865,-0.0008485607680087284,0.00017064909100040983,-0.008278681524102726,-0.00024081932400059212
0.1475,0.00016099867199998206,-0.7851353709999995,3.384138139998134e-05,-2.3557368150000007,7.610999549994967e-05,1.570967005,0.786,0.04,0.04,-9.825448249999996,-0.0016421158681662483,-0.001014037834008879,0.0001784185105004169,-0.008370172511791108,-0.0002520443970006023
0.15,0.00016066451999997546,-0.7851270999999995,3.349357999997453e-05,-2.3557434000000006,7.517195999993121e-05,1.570966,0.786,0.04,0.04,-9.825361999999995,-0.0017156079411547822,-0.0011795149000076578,0.000186187930000513,-0.008461663499479258,-0.00026326947000074904
0.1525,0.00016021512899997505,-0.7851197799999996,3.30267469999741e-05,-2.3557492950000003,7.391134649993007e-05,1.570964965,0.785999715,0.03999999925,0.04,-9.825267499999995,-0.001792248955466322,-0.0013198502500077855,0.00019558884250052156,-0.008548862393950262,-0.0002769964650007616
0.155,0.00015976573799997466,-0.7851124599999996,3.255991399997368e-05,-2.3557551900000004,7.265073299992892e-05,1.57096393,0.78599943,0.0399999985,0.04,-9.825172999999994,-0.0018688899697778616,-0.0014601856000079133,0.0002049897550005301,-0.008636061288421266,-0.00029072346000077407
0.1575,0.00015931634699997425,-0.7851051399999995,3.209308099997325e-05,-2.355761085,7.139011949992777e-05,1.570962895,0.785999145,0.03999999775,0.04,-9.825078499999995,-0.0019455309840894016,-0.0016005209500080412,0.00021439066750053866,-0.00872326018289227,-0.00030445045500078656
0.16,0.00015886695599997384,-0.7850978199999996,3.1626247999972824e-05,-2.3557669800000003,7.012950599992662e-05,1.57096186,0.78599886,0.039999997,0.04,-9.824983999999994,-0.0020221719984009415,-0.0017408563000081687,0.00022379158000054722,-0.008810459077363275,-0.00031817745000079905
0.1625,0.00015841756499997343,-0.7850904999999996,3.11594149999724e-05,-2.3557728750000004,6.886889249992548e-05,1.570960825,0.785998575,0.03999999625,0.04,-9.824889499999994,-0.002098813012712481,-0.0018811916500082967,0.00023319249250055576,-0.00889765797183428,-0.00033190444500081154
0.165,0.00015796817399997304,-0.7850831799999995,3.0692581999971976e-05,-2.35577877,6.760827899992433e-05,1.57095979,0.78599829,0.0399999955,0.04,-9.824794999999993,-0.002175454027024021,-0.002021527000008424,0.00024259340500056432,-0.008984856866305286,-0.000345631440000824
0.1675,0.0001574731829999643,-0.7850761564999996,3.0178716749962955e-05,-2.355784415,6.622064989989995e-05,1.570958575,0.785998005,0.03999999465,0.0399999994,-9.824727449999997,-0.0022553578950517223,-0.0021647853350090867,0.0002529761570007524,-0.009070660592993135,-0.0003601127100009744
0.17,0.00015688699199996374,-0.7850697259999996,2.95707869999624e-05,-2.3557895600000003,6.457898959989846e-05,1.570957,0.78599772,0.039999993600000006,0.039999997600000003,-9.824713799999998,-0.0023417874705099657,-0.0023138896400092222,0.0002653225880007636,-0.009153673984115434,-0.00037610253000098896
0.17250000000000001,0.00015630080099996322,-0.7850632954999996,2.8962857249961848e-05,-2.355794705,6.293732929989697e-05,1.570955425,0.785997435,0.03999999255,0.0399999958,-9.824700149999998,-0.0024282170459682096,-0.0024629939450093582,0.0002776690190007749,-0.009236687375237735,-0.0003920923500010036
0.17500000000000002,0.0001557146099999627,-0.7850568649999996,2.8354927499961294e-05,-2.3557998500000004,6.129566899989547e-05,1.57095385,0.78599715,0.0399999915,0.039999994,-9.824686499999999,-0.002514646621426453,-0.0026120982500094938,0.0002900154500007861,-0.009319700766360035,-0.0004080821700010181
0.1775,0.00015512841899996215,-0.7850504344999996,2.7746997749960744e-05,-2.355804995,5.9654008699894e-05,1.5709522749999998,0.785996865,0.03999999045,0.0399999922,-9.824672849999999,-0.002601076196884696,-0.0027612025550096276,0.0003023618810007972,-0.009402714157482336,-0.0004240719900010325
0.18,0.00015454222799996163,-0.7850440039999995,2.7139067999960194e-05,-2.3558101400000004,5.80123483998925e-05,1.5709506999999998,0.7859965800000001,0.0399999894,0.0399999904,-9.8246592,-0.0026875057723429394,-0.0029103068600097636,0.00031470831200080846,-0.009485727548604635,-0.00044006181000104703
0.1825,0.00015395603699996108,-0.7850375734999996,2.6531138249959638e-05,-2.3558152850000003,5.637068809989101e-05,1.5709491249999998,0.785996295,0.03999998835,0.0399999886,-9.82464555,-0.002773935347801183,-0.003059411165009899,0.0003270547430008197,-0.009568740939726936,-0.0004560516300010616
0.185,0.00015326356399994982,-0.7850317409999996,2.581370569994803e-05,-2.3558197700000005,5.443393179985972e-05,1.5709475299999998,0.78599601,0.0399999876,0.039999987199999996,-9.824621199999998,-0.002861137990845635,-0.0031900855400081745,0.0003405599360009479,-0.009650570992385806,-0.00047380583800125427
0.1875,0.00015251794999994914,-0.7850262074999996,2.5041521749947327e-05,-2.355823925,5.2349627499857823e-05,1.570945925,0.785995725,0.039999987,0.039999986,-9.824591499999999,-0.0029487271676830744,-0.0033115449500082847,0.0003546445100009607,-0.00973180937581314,-0.0004924422400012712
0.19,0.00015177233599994848,-0.7850206739999996,2.4269337799946626e-05,-2.35582808,5.0265323199855924e-05,1.57094432,0.78599544,0.0399999864,0.0399999848,-9.824561799999998,-0.0030363163445205144,-0.0034330043600083954,0.00036872908400097353,-0.009813047759240474,-0.0005110786420012882
0.1925,0.0001510267219999478,-0.7850151404999997,2.349715384994592e-05,-2.3558322350000003,4.818101889985403e-05,1.570942715,0.7859951550000001,0.0399999858,0.0399999836,-9.824532099999997,-0.003123905521357954,-0.003554463770008506,0.00038281365800098635,-0.009894286142667809,-0.0005297150440013051
0.195,0.0001502811079999471,-0.7850096069999997,2.2724969899945217e-05,-2.3558363900000003,4.609671459985213e-05,1.57094111,0.78599487,0.039999985200000004,0.039999982399999995,-9.824502399999998,-0.003211494698195394,-0.0036759231800086163,0.0003968982320009992,-0.009975524526095143,-0.0005483514460013221
0.1975,0.00014953549399994643,-0.7850040734999996,2.1952785949944516e-05,-2.3558405450000004,4.401241029985023e-05,1.570939505,0.785994585,0.0399999846,0.0399999812,-9.824472699999998,-0.0032990838750328335,-0.003797382590008727,0.00041098280600101203,-0.010056762909522479,-0.0005669878480013391
0.2,0.00014878987999993244,-0.7849985399999997,2.1180601999930107e-05,-2.3558447000000005,4.1928105999811395e-05,1.5709378999999999,0.7859943,0.039999984,0.03999998,-9.824442999999999,-0.0033866730518714618,-0.003918842000010176,0.00042506738000115527,-0.010138001292949455,-0.000585624250001566
0.2025,0.00014786125249993158,-0.7849938989999997,2.022003919992923e-05,-2.3558481350000005,3.9336141549809035e-05,1.5709357549999998,0.785994015,0.03999998295,0.03999997895,-9.8244175,-0.0034905939828680814,-0.004058704400010304,0.00044094435800116975,-0.010214341990655275,-0.0006071459830015855
0.20500000000000002,0.00014693262499993075,-0.7849892579999996,1.9259476399928356e-05,-2.35585157,3.6744177099806675e-05,1.57093361,0.7859937300000001,0.0399999819,0.0399999779,-9.824391999999998,-0.003594514913864701,-0.004198566800010431,0.0004568213360011842,-0.010290682688361094,-0.0006286677160016052
0.20750000000000002,0.0001460039974999299,-0.7849846169999997,1.8298913599927484e-05,-2.355855005,3.415221264980432e-05,1.570931465,0.785993445,0.03999998085,0.03999997685,-9.824366499999998,-0.0036984358448613206,-0.004338429200010559,0.00047269831400119865,-0.010367023386066914,-0.0006501894490016247
0.21,0.00014507536999992907,-0.7849799759999997,1.733835079992662e-05,-2.35585844,3.156024819980199e-05,1.5709293199999999,0.78599316,0.0399999798,0.0399999758,-9.824340999999999,-0.003802356775857939,-0.004478291600010684,0.0004885752920012129,-0.010443364083772732,-0.0006717111820016441
0.2125,0.0001441467424999282,-0.7849753349999996,1.6377787999925744e-05,-2.355861875,2.8968283749799628e-05,1.5709271749999998,0.785992875,0.03999997875,0.03999997475,-9.824315499999997,-0.003906277706854559,-0.004618154000010812,0.0005044522700012274,-0.010519704781478552,-0.0006932329150016637
0.215,0.00014321811499992736,-0.7849706939999996,1.541722519992487e-05,-2.35586531,2.6376319299797268e-05,1.5709250299999997,0.78599259,0.0399999777,0.039999973700000004,-9.824289999999998,-0.004010198637851178,-0.00475801640001094,0.0005203292480012419,-0.010596045479184371,-0.0007147546480016833
0.2175,0.0001422203494999101,-0.7849663484999997,1.4385558399907118e-05,-2.3558685550000003,2.3592824184749444e-05,1.5709228299999998,0.7859923050000001,0.03999997665,0.03999997235,-9.824270449999998,-0.004112333105884753,-0.004886231020008302,0.0005368029775013979,-0.010671941423794575,-0.0007371829330019181
0.22,0.00014108430799990906,-0.7849625939999997,1.3211683599906048e-05,-2.35587142,2.0426267739746563e-05,1.5709205199999998,0.78599202,0.0399999756,0.0399999704,-9.8242628,-0.004210894647993508,-0.004991150080008397,0.000554470210001414,-0.010746947862213863,-0.0007614243220019402
0.2225,0.00013994826649990803,-0.7849588394999997,1.203780879990498e-05,-2.355874285,1.7259711294743678e-05,1.5709182099999999,0.785991735,0.03999997455,0.03999996845,-9.824255149999999,-0.0043094561901022635,-0.005096069140008493,0.0005721374425014302,-0.010821954300633152,-0.0007856657110019622
0.225,0.000138812224999907,-0.7849550849999997,1.0863933999903912e-05,-2.3558771500000004,1.4093154849740796e-05,1.5709159,0.78599145,0.0399999735,0.0399999665,-9.8242475,-0.004408017732211018,-0.005200988200008588,0.0005898046750014462,-0.01089696073905244,-0.0008099071000019844
0.2275,0.00013767618349990596,-0.7849513304999997,9.690059199902844e-06,-2.3558800150000003,1.0926598404737913e-05,1.5709135899999997,0.785991165,0.039999972450000004,0.03999996455,-9.82423985,-0.004506579274319773,-0.005305907260008683,0.0006074719075014623,-0.010971967177471727,-0.0008341484890020064
0.23,0.00013654014199990493,-0.7849475759999996,8.516184399901776e-06,-2.3558828800000002,7.76004195973503e-06,1.5709112799999998,0.7859908800000001,0.0399999714,0.0399999626,-9.824232199999999,-0.004605140816428527,-0.005410826320008779,0.0006251391400014783,-0.011046973615891015,-0.0008583898780020285
0.2325,0.00013540410049990388,-0.7849438214999996,7.342309599900706e-06,-2.355885745,4.593485514732149e-06,1.5709089699999998,0.785990595,0.039999970350000004,0.03999996065,-9.82422455,-0.004703702358537282,-0.005515745380008875,0.0006428063725014944,-0.011121980054310305,-0.0008826312670020505
0.23500000000000001,0.00013411304999988297,-0.7849406559999997,6.0091297198792055e-06,-2.3558878900000004,9.97813029674232e-07,1.57090633,0.785990307,0.0399999703,0.0399999606,-9.824259300000005,-0.004814720526347624,-0.0056325806300104985,0.0006617142650016696,-0.011195786017930759,-0.000908911207002334
0.23750000000000002,0.00013274449499988173,-0.7849377849999998,4.596297299877919e-06,-2.3558896750000002,-2.8124174753292374e-06,1.5709035249999999,0.7859900175,0.03999997075,0.0399999615,-9.824315250000005,-0.004931967007006381,-0.00575537397501061,0.0006812424875016873,-0.011268991744152025,-0.0009362104225023589
0.24,0.00013137593999988051,-0.7849349139999997,3.183464879876649e-06,-2.3558914600000005,-6.622647980332664e-06,1.5709007199999998,0.785989728,0.039999971200000005,0.0399999624,-9.824371200000005,-0.005049213487665137,-0.005878167320010721,0.000700770710001705,-0.01134219747037329,-0.0009635096380023834
0.2425,0.00013000738499987927,-0.7849320429999997,1.7706324598753625e-06,-2.3558932450000003,-1.0432878485336133e-05,1.5708979149999998,0.7859894385,0.03999997165,0.0399999633,-9.824427150000005,-0.005166459968323893,-0.0060009606650108325,0.0007202989325017227,-0.011415403196594558,-0.0009908088535024082
0.245,0.00012863882999987803,-0.7849291719999997,3.5780003987407704e-07,-2.35589503,-1.42431089903396e-05,1.5708951099999997,0.7859891489999999,0.0399999721,0.0399999642,-9.824483100000005,-0.00528370644898265,-0.006123754010010945,0.0007398271550017405,-0.011488608922815825,-0.001018108069002433
0.2475,0.00012727027499987679,-0.7849263009999997,-1.0550323801272085e-06,-2.3558968150000004,-1.805333949534307e-05,1.5708923049999999,0.7859888595,0.03999997255,0.0399999651,-9.824539050000006,-0.005400952929641407,-0.006246547355011056,0.0007593553775017582,-0.011561814649037092,-0.001045407284502458
0.25,0.00012590171999985207,-0.7849234299999998,-2.467864800152618e-06,-2.3558986,-2.1863570000411495e-05,1.5708894999999998,0.78598857,0.039999973,0.039999966,-9.824594999999999,-0.0055181994102996524,-0.006369340700008379,0.0007788836000019434,-0.011635020375258149,-0.0010727065000027557
0.2525,0.00012427498349985058,-0.7849214544999998,-4.145919180154146e-06,-2.3558995,-2.6388009800415615e-05,1.5708861549999997,0.785987997,0.039999973,0.039999966,-9.824573249999998,-0.005629822751517394,-0.006461467745008463,0.0008002516790019628,-0.011705916048965342,-0.0011030038000027832
0.255,0.0001226482469998491,-0.7849194789999998,-5.823973560155673e-06,-2.3559004000000003,-3.091244960041973e-05,1.5708828099999996,0.785987424,0.039999973,0.039999966,-9.824551499999998,-0.005741446092735135,-0.006553594790008547,0.0008216197580019824,-0.011776811722672538,-0.0011333011000028107
0.2575,0.00012102151049984761,-0.7849175034999998,-7.502027940157201e-06,-2.3559013,-3.543688940042385e-05,1.5708794649999998,0.785986851,0.039999973,0.039999966,-9.824529749999998,-0.005853069433952877,-0.006645721835008631,0.0008429878370020018,-0.011847707396379732,-0.0011635984000028382
0.26,0.00011939477399984614,-0.7849155279999998,-9.18008232015873e-06,-2.3559022,-3.996132920042797e-05,1.5708761199999997,0.785986278,0.039999973,0.039999966,-9.824507999999998,-0.005964692775170618,-0.006737848880008715,0.0008643559160020212,-0.011918603070086926,-0.0011938957000028657
0.2625,0.00011776803749984465,-0.7849135524999998,-1.0858136700160257e-05,-2.3559031000000004,-4.448576900043209e-05,1.5708727749999996,0.785985705,0.039999973,0.039999966,-9.824486249999998,-0.006076316116388361,-0.006829975925008799,0.0008857239950020408,-0.011989498743794121,-0.0012241930000028935
0.265,0.00011614130099984317,-0.7849115769999998,-1.2536191080161784e-05,-2.355904,-4.901020880043621e-05,1.5708694299999997,0.785985132,0.039999973,0.039999966,-9.824464499999998,-0.006187939457606102,-0.0069221029700088825,0.0009070920740020602,-0.012060394417501315,-0.001254490300002921
0.2675,0.0001144197727998227,-0.7849099054999998,-1.4311564800182767e-05,-2.3559046450000003,-5.3796654400492675e-05,1.5708658949999996,0.7859845594999999,0.039999973,0.0399999657,-9.824463150000005,-0.006305873836402778,-0.007016227950009103,0.0009295428520022838,-0.01213088184595749,-0.0012857635400030823
0.27,0.00011250866119984703,-0.7849088419999999,-1.6281577200157684e-05,-2.35590478,-5.910711160042506e-05,1.5708619799999997,0.7859839879999999,0.039999973,0.039999964799999996,-9.824502600000004,-0.00643643029035181,-0.007114348800007854,0.0009541590280019704,-0.012200552783911977,-0.0013189886600026594
0.2725,0.00011059754959987136,-0.7849077784999999,-1.8251589600132604e-05,-2.355904915,-6.441756880035744e-05,1.5708580649999997,0.7859834164999999,0.039999973,0.0399999639,-9.824542050000003,-0.006566986744300843,-0.007212469650006605,0.000978775204001657,-0.012270223721866464,-0.0013522137800022363
0.275,0.0001086864379998957,-0.7849067149999999,-2.022160200010752e-05,-2.35590505,-6.972802600028983e-05,1.5708541499999997,0.7859828449999999,0.039999973,0.039999963,-9.824581500000003,-0.006697543198249876,-0.007310590500005355,0.0010033913800013435,-0.012339894659820954,-0.0013854389000018134
0.2775,0.00010677532639992002,-0.7849056514999999,-2.2191614400082437e-05,-2.355905185,-7.503848320022222e-05,1.5708502349999998,0.7859822734999999,0.039999973,0.0399999621,-9.824620950000002,-0.006828099652198908,-0.0074087113500041065,0.0010280075560010302,-0.012409565597775441,-0.0014186640200013903
0.28,0.00010486421479994436,-0.784904588,-2.4161626800057354e-05,-2.35590532,-8.034894040015461e-05,1.5708463199999998,0.785981702,0.039999973,0.0399999612,-9.8246604,-0.006958656106147941,-0.007506832200002857,0.0010526237320007167,-0.012479236535729929,-0.0014518891400009675
0.28250000000000003,0.00010295310319996869,-0.7849035245,-2.6131639200032274e-05,-2.355905455,-8.5659397600087e-05,1.5708424049999998,0.7859811305,0.039999973,0.0399999603,-9.82469985,-0.007089212560096974,-0.007604953050001607,0.0010772399080004034,-0.012548907473684416,-0.0014851142600005444
0.28500000000000003,0.00010083469639995146,-0.784903086,-2.8314408800049994e-05,-2.35590512,-9.154262300013476e-05,1.5708380599999998,0.7859805559999999,0.039999973,0.03999996,-9.8247366,-0.007216123118999292,-0.007688366700001661,0.0011030623500005773,-0.012618320994080544,-0.0015204909400007962
0.28750000000000003,9.861264199991913e-05,-0.7849029599999999,-3.060355700008331e-05,-2.35590455,-9.771223250022453e-05,1.5708334999999998,0.7859799799999999,0.039999973,0.03999996,-9.824772000000001,-0.007341210730378352,-0.007764426750002768,0.0011294879250009619,-0.012687605805697498,-0.0015569434000013266
0.29,9.639058759988684e-05,-0.7849028339999999,-3.289270520011657e-05,-2.35590398,-0.00010388184200031417,1.5708289399999997,0.785979404,0.039999973,0.03999996,-9.824807400000001,-0.00746629834175741,-0.007840486800003873,0.0011559135000013458,-0.01275689061731445,-0.0015933958600018562
0.2925,9.41685331998545e-05,-0.784902708,-3.5181853400149885e-05,-2.35590341,-0.00011005145150040397,1.5708243799999997,0.785978828,0.039999973,0.03999996,-9.824842800000003,-0.00759138595313647,-0.00791654685000498,0.0011823390750017302,-0.012826175428931401,-0.0016298483200023867
0.295,9.194647879982217e-05,-0.784902582,-3.7471001600183196e-05,-2.3559028399999997,-0.00011622106100049374,1.5708198199999996,0.7859782519999999,0.039999973,0.03999996,-9.824878200000002,-0.00771647356451553,-0.007992606900006086,0.0012087646500021148,-0.012895460240548355,-0.0016663007800029172
0.2975,8.972442439978983e-05,-0.784902456,-3.9760149800216514e-05,-2.35590227,-0.00012239067050058352,1.5708152599999996,0.7859776759999999,0.039999973,0.03999996,-9.824913600000004,-0.007841561175894591,-0.008068666950007193,0.0012351902250024994,-0.012964745052165308,-0.0017027532400034477
0.3,8.750236999972063e-05,-0.7849023300000001,-4.204929800028765e-05,-2.3559017,-0.00012856028000077512,1.5708106999999993,0.7859770999999999,0.039999973,0.03999996,-9.82494900000001,-0.007966648787276117,-0.008144727000008727,0.0012616158000030944,-0.01303402986378233,-0.0017392057000043205
0.3025,8.494247299971829e-05,-0.7849031505,-4.468505405029005e-05,-2.3558999899999997,-0.0001356627785007816,1.5708055099999993,0.7859763649999999,0.039999973,0.03999996,-9.82504035000001,-0.008114332193524938,-0.008224688100008799,0.00128996803500312,-0.013103934796534643,-0.0017787941800043565
0.305,8.238257599971597e-05,-0.7849039710000001,-4.732081010029245e-05,-2.35589828,-0.00014276527700078805,1.5708003199999994,0.7859756299999999,0.039999973,0.03999996,-9.82513170000001,-0.008262015599773756,-0.008304649200008871,0.001318320270003146,-0.013173839729286957,-0.0018183826600043926
0.3075,7.982267899971364e-05,-0.7849047915000001,-4.995656615029485e-05,-2.3558965699999996,-0.00014986777550079453,1.5707951299999994,0.785974895,0.039999973,0.03999996,-9.82522305000001,-0.008409699006022576,-0.008384610300008945,0.0013466725050031718,-0.01324374466203927,-0.0018579711400044286
0.31,7.72627819997113e-05,-0.7849056120000001,-5.2592322200297246e-05,-2.35589486,-0.00015697027400080098,1.5707899399999994,0.7859741599999999,0.039999973,0.03999996,-9.82531440000001,-0.008557382412271396,-0.008464571400009018,0.0013750247400031975,-0.013313649594791584,-0.0018975596200044647
0.3125,7.470288499970898e-05,-0.7849064325000001,-5.5228078250299646e-05,-2.35589315,-0.00016407277250080746,1.5707847499999994,0.7859734249999999,0.039999973,0.03999996,-9.82540575000001,-0.008705065818520215,-0.00854453250000909,0.0014033769750032234,-0.013383554527543898,-0.0019371481000045009
0.315,7.214298799970665e-05,-0.7849072530000001,-5.7863834300302046e-05,-2.3558914399999997,-0.0001711752710008139,1.5707795599999994,0.7859726899999999,0.039999973,0.03999996,-9.82549710000001,-0.008852749224769035,-0.008624493600009164,0.0014317292100032492,-0.013453459460296212,-0.001976736580004537
0.3175,6.946142849966215e-05,-0.7849083970000003,-6.062436700034769e-05,-2.3558894049999997,-0.00017861353900093673,1.5707741099999992,0.7859719129999999,0.039999973,0.0399999599,-9.82555915,-0.008996750880048483,-0.008697610150006864,0.0014609519100035767,-0.013522864179693526,-0.0020173376350049238
0.32,6.653654399965949e-05,-0.7849101880000002,-6.363445300035043e-05,-2.3558867199999995,-0.00018672334600094412,1.5707681399999993,0.785971052,0.039999973,0.0399999596,-9.8255626,-0.009133389033393008,-0.00875703760000692,0.0014919155400036047,-0.013591268472381363,-0.0020599638400049624
0.3225,6.361165949965683e-05,-0.7849119790000002,-6.664453900035316e-05,-2.355884035,-0.0001948331530009515,1.5707621699999994,0.7859701909999999,0.039999973,0.0399999593,-9.825566049999999,-0.009270027186737532,-0.008816465050006973,0.001522879170003633,-0.013659672765069202,-0.002102590045005001
0.325,6.068677499965417e-05,-0.7849137700000002,-6.965462500035591e-05,-2.3558813499999998,-0.0002029429600009589,1.5707561999999993,0.7859693299999999,0.039999973,0.039999959,-9.8255695,-0.009406665340082056,-0.008875892500007027,0.0015538428000036611,-0.013728077057757039,-0.0021452162500050402
0.3275,5.77618904996515e-05,-0.7849155610000003,-7.266471100035864e-05,-2.3558786649999996,-0.00021105276700096628,1.5707502299999994,0.785968469,0.039999973,0.039999958700000005,-9.82557295,-0.00954330349342658,-0.00893531995000708,0.0015848064300036894,-0.013796481350444876,-0.002187842455005079
0.33,5.483700599964884e-05,-0.7849173520000002,-7.567479700036139e-05,-2.3558759799999995,-0.00021916257400097366,1.5707442599999994,0.7859676079999999,0.039999973,0.0399999584,-9.8255764,-0.009679941646771106,-0.008994747400007136,0.0016157700600037174,-0.013864885643132712,-0.0022304686600051176
0.3325,5.191212149964617e-05,-0.7849191430000002,-7.868488300036413e-05,-2.355873295,-0.00022727238100098102,1.5707382899999993,0.7859667469999999,0.039999973,0.0399999581,-9.82557985,-0.00981657980011563,-0.00905417485000719,0.0016467336900037456,-0.013933289935820551,-0.0022730948650051563
0.335,4.872571929959571e-05,-0.7849215960000003,-8.19631205004159e-05,-2.3558699899999995,-0.00023610384500112036,1.5707317599999993,0.7859658869999999,0.0399999734,0.039999958200000005,-9.825619200000007,-0.009966037794966588,-0.009109849100006557,0.0016792889700040648,-0.014001787826427154,-0.002317929950005599
0.3375,4.540855824959269e-05,-0.7849243800000003,-8.537543375041899e-05,-2.3558663749999997,-0.00024529613750112875,1.5707249499999991,0.7859650275,0.039999974,0.0399999585,-9.825676500000007,-0.010121905710567265,-0.009163646750006606,0.0017126400750040952,-0.014070332515993118,-0.002363869475005641
0.34,4.209139719958967e-05,-0.7849271640000003,-8.87877470004221e-05,-2.3558627599999995,-0.0002544884300011371,1.5707181399999992,0.7859641679999999,0.0399999746,0.0399999588,-9.825733800000007,-0.010277773626167941,-0.009217444400006655,0.0017459911800041254,-0.01413887720555908,-0.0024098090000056827
0.3425,3.8774236149586646e-05,-0.7849299480000004,-9.22000602504252e-05,-2.3558591449999993,-0.00026368072250114547,1.5707113299999993,0.7859633085,0.0399999752,0.0399999591,-9.825791100000007,-0.010433641541768618,-0.009271242050006704,0.0017793422850041559,-0.014207421895125041,-0.0024557485250057244
0.34500000000000003,3.5457075099583625e-05,-0.7849327320000004,-9.561237350042832e-05,-2.3558555299999995,-0.00027287301500115383,1.5707045199999992,0.7859624489999999,0.0399999758,0.0399999594,-9.825848400000007,-0.010589509457369296,-0.009325039700006752,0.0018126933900041863,-0.014275966584691003,-0.0025016880500057666
0.34750000000000003,3.2139914049580605e-05,-0.7849355160000003,-9.902468675043142e-05,-2.3558519149999992,-0.0002820653075011622,1.5706977099999992,0.7859615895,0.0399999764,0.039999959700000004,-9.825905700000007,-0.010745377372969971,-0.009378837350006802,0.0018460444950042167,-0.014344511274256965,-0.0025476275750058084
0.35000000000000003,2.882275299952414e-05,-0.7849383000000004,-0.00010243700000048932,-2.3558482999999995,-0.00029125760000131795,1.5706908999999991,0.7859607299999999,0.039999977,0.03999996,-9.825963000000012,-0.01090124528857285,-0.0094326350000068,0.0018793956000044793,-0.01441305596382304,-0.002593567100006257
0.3525,2.508590439952082e-05,-0.7849421100000005,-0.00010627955900049274,-2.3558437549999995,-0.0003016074500013272,1.570683354999999,0.7859595854999999,0.039999977,0.03999996,-9.826055550000012,-0.011074395710624548,-0.009486035450006848,0.0019145712600045107,-0.014482472371318842,-0.0026427010850063005
0.355,2.134905579951742e-05,-0.7849459200000005,-0.00011012211800049623,-2.355839209999999,-0.00031195730000133657,1.5706758099999991,0.7859584409999998,0.039999977,0.03999996,-9.826148100000012,-0.01124754613267625,-0.009539435900006896,0.0019497469200045426,-0.014551888778814644,-0.0026918350700063454
0.3575,1.7612207199514016e-05,-0.7849497300000005,-0.00011396467700049974,-2.3558346649999993,-0.000322307150001346,1.570668264999999,0.7859572964999998,0.039999977,0.03999996,-9.826240650000011,-0.011420696554727954,-0.009592836350006946,0.001984922580004575,-0.014621305186310447,-0.00274096905500639
0.36,1.3875358599510614e-05,-0.7849535400000005,-0.00011780723600050323,-2.3558301199999994,-0.0003326570000013554,1.570660719999999,0.7859561519999998,0.039999977,0.03999996,-9.826333200000011,-0.011593846976779657,-0.009646236800006994,0.0020200982400046066,-0.014690721593806251,-0.0027901030400064347
0.3625,1.0138509999507212e-05,-0.7849573500000006,-0.00012164979500050674,-2.3558255749999994,-0.00034300685000136484,1.570653174999999,0.7859550074999998,0.039999977,0.03999996,-9.826425750000013,-0.01176699739883136,-0.009699637250007042,0.0020552739000046388,-0.014760138001302053,-0.002839237025006479
0.365,6.401661399503811e-06,-0.7849611600000005,-0.00012549235400051022,-2.3558210299999995,-0.00035335670000137423,1.570645629999999,0.7859538629999998,0.039999977,0.03999996,-9.826518300000012,-0.011940147820883061,-0.009753037700007091,0.002090449560004671,-0.014829554408797857,-0.002888371010006524
0.3675,2.5157637994406293e-06,-0.7849653200000007,-0.000129487671000575,-2.3558161399999995,-0.0003641175280015485,1.5706377549999988,0.7859527199999998,0.03999997715,0.03999996,-9.826598750000008,-0.012108882423511583,-0.009798187450003831,0.002126662760005119,-0.014899055100986694,-0.0029385310900069805
0.37,-1.66823180056318e-06,-0.7849701800000006,-0.00013378850400057893,-2.355810559999999,-0.00037570031200155905,1.5706292199999987,0.7859515799999998,0.0399999776,0.03999996,-9.826655000000008,-0.012268785387299044,-0.009826835800003857,0.0021649510400051537,-0.014968724362561497,-0.002990743360007028
0.3725,-5.8522274005669885e-06,-0.7849750400000006,-0.00013808933700058283,-2.3558049799999994,-0.00038728309600156963,1.5706206849999989,0.7859504399999998,0.039999978049999996,0.03999996,-9.826711250000008,-0.012428688351086504,-0.009855484150003882,0.0022032393200051886,-0.0150383936241363,-0.0030429556300070756
0.375,-1.0036223000570797e-05,-0.7849799000000006,-0.00014239017000058674,-2.355799399999999,-0.00039886588000158016,1.5706121499999988,0.7859492999999999,0.0399999785,0.03999996,-9.826767500000008,-0.012588591314873965,-0.009884132500003908,0.0022415276000052236,-0.015108062885711105,-0.003095167900007123
0.3775,-1.4220218600574607e-05,-0.7849847600000006,-0.00014669100300059067,-2.3557938199999993,-0.0004104486640015907,1.570603614999999,0.7859481599999998,0.03999997895,0.03999996,-9.826823750000008,-0.012748494278661425,-0.009912780850003935,0.0022798158800052585,-0.015177732147285908,-0.0031473801700071706
0.38,-1.8404214200578412e-05,-0.7849896200000006,-0.00015099183600059457,-2.355788239999999,-0.00042203144800160127,1.5705950799999988,0.7859470199999998,0.039999979399999996,0.03999996,-9.826880000000008,-0.012908397242448886,-0.00994142920000396,0.0023181041600052934,-0.015247401408860712,-0.003199592440007218
0.3825,-2.2588209800582222e-05,-0.7849944800000006,-0.00015529266900059848,-2.355782659999999,-0.0004336142320016118,1.570586544999999,0.7859458799999998,0.03999997985,0.03999996,-9.826936250000008,-0.013068300206236345,-0.009970077550003986,0.002356392440005328,-0.015317070670435515,-0.0032518047100072653
0.385,-2.7088604200652508e-05,-0.7850000500000008,-0.00015991773000067052,-2.355776349999999,-0.0004460694640018057,1.5705774399999988,0.7859446029999998,0.03999998,0.0399999606,-9.827018200000014,-0.013251768332001998,-0.010002355400004775,0.0023958588200056106,-0.015387475583712163,-0.003306416320007817
0.3875,-3.174719800065675e-05,-0.7850059750000008,-0.00016470490500067488,-2.355769674999999,-0.00045896092000181736,1.5705680499999988,0.7859432574999998,0.03999998,0.0399999615,-9.827113000000013,-0.01344701903874935,-0.010036448000004807,0.002435914250005647,-0.015458248322839502,-0.003362227600007868
0.39,-3.640579180066099e-05,-0.7850119000000008,-0.00016949208000067924,-2.3557629999999987,-0.0004718523760018291,1.5705586599999986,0.7859419119999997,0.03999998,0.0399999624,-9.827207800000012,-0.013642269745496703,-0.010070540600004837,0.0024759696800056834,-0.015529021061966842,-0.003418038880007919
0.3925,-4.1064385600665234e-05,-0.7850178250000008,-0.0001742792550006836,-2.355756324999999,-0.00048474383200184084,1.5705492699999986,0.7859405664999998,0.03999998,0.0399999633,-9.827302600000014,-0.013837520452244057,-0.010104633200004869,0.0025160251100057197,-0.015599793801094181,-0.0034738501600079697
0.395,-4.572297940066947e-05,-0.7850237500000008,-0.00017906643000068797,-2.355749649999999,-0.0004976352880018526,1.5705398799999986,0.7859392209999998,0.03999998,0.0399999642,-9.827397400000013,-0.01403277115899141,-0.0101387258000049,0.0025560805400057563,-0.01567056654022152,-0.0035296614400080204
0.3975,-5.038157320067371e-05,-0.7850296750000008,-0.00018385360500069233,-2.3557429749999987,-0.0005105267440018643,1.5705304899999986,0.7859378754999997,0.03999998,0.0399999651,-9.827492200000012,-0.014228021865738762,-0.01017281840000493,0.002596135970005793,-0.01574133927934886,-0.003585472720008071
0.4,-5.504016700075101e-05,-0.7850356000000009,-0.00018864078000077153,-2.3557362999999985,-0.0005234182000020773,1.5705210999999983,0.7859365299999997,0.03999998,0.039999966,-9.827587000000007,-0.014423272572483136,-0.010206911000001434,0.0026361914000062095,-0.01581211201847623,-0.003641284000008529
0.4025,-6.020077645068531e-05,-0.7850426500000008,-0.00019394231700070404,-2.355728499999999,-0.0005376928495018956,1.5705106749999984,0.7859351004999998,0.0399999806,0.039999966,-9.827637850000006,-0.014598053414397716,-0.010216755950001308,0.0026788605650056663,-0.015883102547386684,-0.003699893140007783
0.405,-6.53613859006196e-05,-0.7850497000000008,-0.00019924385400063653,-2.355720699999999,-0.0005519674990017139,1.5705002499999987,0.7859336709999998,0.0399999812,0.039999966,-9.827688700000005,-0.014772834256312295,-0.010226600900001182,0.002721529730005123,-0.01595409307629714,-0.0037585022800070366
0.40750000000000003,-7.052199535055389e-05,-0.7850567500000007,-0.000204545391000569,-2.355712899999999,-0.000566242148501532,1.5704898249999988,0.7859322414999999,0.0399999818,0.039999966,-9.827739550000006,-0.014947615098226875,-0.010236445850001058,0.00276419889500458,-0.0160250836052076,-0.0038171114200062904
0.41000000000000003,-7.568260480048819e-05,-0.7850638000000006,-0.00020984692800050153,-2.3557050999999993,-0.0005805167980013503,1.5704793999999989,0.7859308119999999,0.0399999824,0.039999966,-9.827790400000005,-0.015122395940141455,-0.010246290800000932,0.0028068680600040366,-0.016096074134118055,-0.003875720560005544
0.41250000000000003,-8.084321425042248e-05,-0.7850708500000005,-0.000215148465000434,-2.355697299999999,-0.0005947914475011686,1.5704689749999992,0.7859293824999999,0.039999983,0.039999966,-9.827841250000004,-0.015297176782056034,-0.010256135750000806,0.0028495372250034933,-0.01616706466302851,-0.0039343297000047975
0.41500000000000004,-8.600382370035678e-05,-0.7850779000000004,-0.00022045000200036653,-2.3556894999999995,-0.0006090660970009868,1.5704585499999992,0.785927953,0.039999983600000004,0.039999966,-9.827892100000003,-0.015471957623970614,-0.01026598070000068,0.0028922063900029497,-0.016238055191938966,-0.003992938840004051
0.4175,-9.134086800039842e-05,-0.7850853300000006,-0.0002259322870004092,-2.3556813199999995,-0.0006238269085011017,1.5704477749999992,0.7859264574999999,0.039999984,0.039999966,-9.827960950000007,-0.015659654838979242,-0.010276519050000835,0.0029355849750031366,-0.016309466119860658,-0.004052652870004335
0.42,-9.703078200055886e-05,-0.7850935200000008,-0.00023177606800057395,-2.3556723799999992,-0.0006395600440015452,1.5704362999999988,0.7859248299999999,0.039999984,0.039999966,-9.82806580000001,-0.015873184800168933,-0.010288444200001171,0.0029803824000044,-0.016381717845804594,-0.004114576680006082
0.4225,-0.00010272069600071929,-0.785101710000001,-0.00023761984900073872,-2.355663439999999,-0.0006552931795019888,1.5704248249999986,0.7859232024999998,0.039999984,0.039999966,-9.828170650000013,-0.016086714761358624,-0.010300369350001507,0.003025179825005663,-0.016453969571748533,-0.004176500490007828
0.425,-0.00010841061000087972,-0.7851099000000012,-0.0002434636300009035,-2.3556544999999987,-0.0006710263150024325,1.5704133499999982,0.7859215749999998,0.039999984,0.039999966,-9.828275500000016,-0.016300244722548315,-0.010312294500001843,0.003069977250006926,-0.01652622129769247,-0.004238424300009574
0.4275,-0.00011410052400104014,-0.7851180900000014,-0.00024930741100106824,-2.3556455599999984,-0.000686759450502876,1.5704018749999977,0.7859199474999997,0.039999984,0.039999966,-9.82838035000002,-0.016513774683738006,-0.01032421965000218,0.003114774675008189,-0.016598473023636408,-0.00430034811001132
0.43,-0.00011979043800120058,-0.7851262800000017,-0.000255151192001233,-2.355636619999998,-0.0007024925860033196,1.5703903999999975,0.7859183199999997,0.039999984,0.039999966,-9.828485200000022,-0.016727304644927696,-0.010336144800002516,0.003159572100009452,-0.016670724749580344,-0.004362271920013066
0.4325,-0.00012548035200136103,-0.7851344700000019,-0.0002609949730013978,-2.355627679999998,-0.0007182257215037633,1.570378924999997,0.7859166924999996,0.039999984,0.039999966,-9.828590050000026,-0.016940834606117387,-0.010348069950002854,0.0032043695250107153,-0.016742976475524283,-0.004424195730014812
0.435,-0.0001315412460014998,-0.7851434500000022,-0.00026721875800153996,-2.3556179499999974,-0.0007349807000041456,1.5703667299999968,0.7859150049999997,0.0399999844,0.0399999654,-9.828664000000014,-0.01714106015865679,-0.010340841499995966,0.003250883320011374,-0.01681587230415908,-0.004487973360015536
0.4375,-0.00013778763000142025,-0.785152825000002,-0.0002736325450014583,-2.3556078249999977,-0.0007522466000039258,1.570354174999997,0.7859132874999997,0.039999985,0.0399999645,-9.828722500000014,-0.01733463350687849,-0.01032403624999618,0.003298255300010771,-0.016889090184138946,-0.004552677900014712
0.44,-0.00014403401400134075,-0.785162200000002,-0.00028004633200137664,-2.355597699999998,-0.000769512500003706,1.570341619999997,0.7859115699999997,0.0399999856,0.0399999636,-9.828781000000014,-0.01752820685510019,-0.010307230999996394,0.003345627280010168,-0.016962308064118813,-0.004617382440013888
0.4425,-0.0001502803980012612,-0.7851715750000019,-0.000286460119001295,-2.3555875749999977,-0.0007867784000034861,1.5703290649999975,0.7859098524999997,0.039999986200000004,0.0399999627,-9.828839500000011,-0.01772178020332189,-0.010290425749996607,0.003392999260009565,-0.01703552594409868,-0.004682086980013065
0.445,-0.00015652678200118168,-0.7851809500000018,-0.0002928739060012133,-2.355577449999998,-0.0008040443000032663,1.5703165099999976,0.7859081349999997,0.0399999868,0.0399999618,-9.828898000000011,-0.01791535355154359,-0.010273620499996822,0.0034403712400089617,-0.01710874382407855,-0.004746791520012241
0.4475,-0.00016277316600110214,-0.7851903250000016,-0.0002992876930011317,-2.355567324999998,-0.0008213102000030465,1.5703039549999978,0.7859064174999997,0.0399999874,0.0399999609,-9.828956500000011,-0.01810892689976529,-0.010256815249997036,0.0034877432200083585,-0.01718196170405842,-0.004811496060011417
0.45,-0.00016901955000111812,-0.7851997000000017,-0.00030570148000114784,-2.355557199999998,-0.0008385761000030899,1.5702913999999977,0.7859046999999997,0.039999988,0.03999996,-9.829015000000018,-0.0183025002479947,-0.010240009999998873,0.0035351152000080823,-0.017255179584038452,-0.0048762006000112375
0.4525,-0.00017584935450112434,-0.7852103050000017,-0.00031271285050115424,-2.355545784999998,-0.000857449520003107,1.5702776599999977,0.7859027349999997,0.039999988,0.0399999615,-9.829120900000017,-0.01854316033426907,-0.010233121399998867,0.0035844826150081273,-0.01732940776274826,-0.0049448440500113
0.455,-0.00018267915900113056,-0.7852209100000017,-0.00031972422100116064,-2.3555343699999978,-0.0008763229400031242,1.5702639199999977,0.7859007699999997,0.039999988,0.039999963,-9.829226800000017,-0.018783820420543437,-0.01022623279999886,0.0036338500300081723,-0.017403635941458065,-0.005013487500011363
0.4575,-0.00018950896350113677,-0.7852315150000018,-0.00032673559150116704,-2.355522954999998,-0.0008951963600031414,1.5702501799999977,0.7858988049999996,0.039999988,0.0399999645,-9.829332700000018,-0.019024480506817806,-0.010219344199998854,0.0036832174450082173,-0.017477864120167875,-0.005082130950011425
0.46,-0.000196338768001143,-0.7852421200000018,-0.0003337469620011734,-2.355511539999998,-0.0009140697800031585,1.5702364399999975,0.7858968399999997,0.039999988,0.039999966000000005,-9.829438600000017,-0.019265140593092176,-0.010212455599998848,0.0037325848600082622,-0.01755209229887768,-0.005150774400011488
0.4625,-0.00020316857250114923,-0.7852527250000018,-0.0003407583325011798,-2.355500124999998,-0.0009329432000031757,1.5702226999999975,0.7858948749999997,0.039999988,0.039999967500000004,-9.829544500000017,-0.019505800679366546,-0.010205566999998842,0.003781952275008307,-0.01762632047758749,-0.00521941785001155
0.465,-0.00020999837700115545,-0.7852633300000018,-0.0003477697030011862,-2.355488709999998,-0.000951816620003193,1.5702089599999975,0.7858929099999997,0.039999988,0.039999969,-9.829650400000018,-0.019746460765640912,-0.010198678399998835,0.003831319690008352,-0.017700548656297298,-0.005288061300011613
0.4675,-0.00021703158850126545,-0.785274348500002,-0.00035498938550129885,-2.3554768799999977,-0.0009712501700034959,1.5701948149999974,0.7858909149999996,0.0399999881,0.03999997015,-9.82974090000001,-0.019978367164767485,-0.010179786749992703,0.0038816057600088655,-0.017775157187146774,-0.005357656750012161
0.47000000000000003,-0.00022447161400127223,-0.7852861940000021,-0.0003626256920013058,-2.3554642199999978,-0.0009918039800035146,1.5701798599999974,0.7858888599999997,0.0399999884,0.039999970600000004,-9.82980060000001,-0.02019276618961184,-0.010136888999992665,0.003933729140008913,-0.01785052642227501,-0.0054291562000122265
0.47250000000000003,-0.000231911639501279,-0.7852980395000021,-0.00037026199850131276,-2.355451559999998,-0.0010123577900035333,1.5701649049999975,0.7858868049999996,0.0399999887,0.03999997105,-9.829860300000009,-0.020407165214456197,-0.010093991249992626,0.00398585252000896,-0.01792589565740324,-0.0055006556500122915
0.47500000000000003,-0.00023935166500128576,-0.7853098850000021,-0.0003778983050013197,-2.355438899999998,-0.0010329116000035521,1.5701499499999974,0.7858847499999997,0.039999989,0.0399999715,-9.82992000000001,-0.02062156423930055,-0.010051093499992586,0.004037975900009008,-0.018001264892531475,-0.0055721551000123565
0.47750000000000004,-0.00024679169050129254,-0.7853217305000021,-0.00038553461150132667,-2.3554262399999977,-0.0010534654100035708,1.5701349949999974,0.7858826949999996,0.0399999893,0.039999971950000004,-9.82997970000001,-0.020835963264144906,-0.010008195749992548,0.004090099280009056,-0.018076634127659707,-0.005643654550012422
0.48,-0.00025423171600129916,-0.7853335760000021,-0.00039317091800133346,-2.355413579999998,-0.001074019220003589,1.5701200399999975,0.7858806399999997,0.0399999896,0.0399999724,-9.83003940000001,-0.02105036228898926,-0.00996529799999251,0.004142222660009102,-0.01815200336278794,-0.005715154000012485
0.4825,-0.00026167174150130594,-0.7853454215000021,-0.0004008072245013404,-2.355400919999998,-0.0010945730300036078,1.5701050849999976,0.7858785849999996,0.0399999899,0.03999997285,-9.83009910000001,-0.021264761313833612,-0.00992240024999247,0.0041943460400091495,-0.018227372597916174,-0.005786653450012551
0.485,-0.00026953626500142506,-0.7853581330000023,-0.0004088782470014624,-2.3553874099999974,-0.0011162957200039358,1.5700892499999972,0.7858763699999997,0.03999999,0.0399999745,-9.83019240000002,-0.0215099608526093,-0.009886650549994323,0.004247747270009535,-0.01830370295794166,-0.005860466740013228
0.4875,-0.00027761303750143237,-0.7853712775000024,-0.0004171666275014699,-2.3553734749999977,-0.0011386028500039562,1.5700729749999973,0.7858740749999996,0.03999999,0.03999997675,-9.83030250000002,-0.021770560648338468,-0.009854474874994294,0.004301787425009584,-0.018380513880415398,-0.005935436950013296
0.49,-0.0002856898100014397,-0.7853844220000024,-0.00042545500800147745,-2.3553595399999976,-0.0011609099800039765,1.5700566999999972,0.7858717799999996,0.03999999,0.039999979,-9.830412600000018,-0.022031160444067634,-0.009822299199994266,0.004355827580009633,-0.01845732480288913,-0.006010407160013364
0.4925,-0.0002937665825014471,-0.7853975665000024,-0.000433743388501485,-2.3553456049999975,-0.0011832171100039967,1.570040424999997,0.7858694849999995,0.03999999,0.039999981250000004,-9.830522700000019,-0.0222917602397968,-0.009790123524994235,0.004409867735009682,-0.018534135725362867,-0.0060853773700134325
0.495,-0.00030184335500145444,-0.7854107110000024,-0.00044203176900149254,-2.3553316699999978,-0.001205524240004017,1.5700241499999972,0.7858671899999996,0.03999999,0.0399999835,-9.83063280000002,-0.022552360035525968,-0.009757947849994206,0.004463907890009731,-0.018610946647836604,-0.006160347580013501
0.4975,-0.0003099201275014618,-0.7854238555000024,-0.0004503201495015001,-2.3553177349999976,-0.0012278313700040374,1.570007874999997,0.7858648949999996,0.03999999,0.03999998575,-9.83074290000002,-0.022812959831255135,-0.009725772174994178,0.0045179480450097806,-0.018687757570310336,-0.006235317790013569
0.5,-0.00031799690000158977,-0.7854370000000027,-0.0004586085300016311,-2.3553037999999975,-0.0012501385000043897,1.569991599999997,0.7858625999999995,0.03999999,0.039999988,-9.830853000000012,-0.02307355962697952,-0.009693596499987708,0.004571988200010301,-0.018764568492784347,-0.0063102880000140355
0.5025000000000001,-0.00032673666950159793,-0.7854514750000027,-0.0004675758165016395,-2.3552885599999973,-0.0012742713250044123,1.5699740349999969,0.7858601399999995,0.03999999,0.03999998635,-9.83091765000001,-0.023307872656775624,-0.009626017224987645,0.0046286172200103535,-0.018842884525670935,-0.006387447445014107
0.505,-0.00033547643900160565,-0.7854659500000027,-0.0004765431030016474,-2.355273319999997,-0.0012984041500044338,1.5699564699999968,0.7858576799999996,0.03999999,0.0399999847,-9.830982300000011,-0.023542185686571716,-0.009558437949987585,0.004685246240010404,-0.01892120055855752,-0.0064646068900141756
0.5075000000000001,-0.0003442162085016138,-0.7854804250000027,-0.0004855103895016558,-2.3552580799999974,-0.001322536975004456,1.5699389049999968,0.7858552199999995,0.03999999,0.03999998305,-9.831046950000012,-0.02377649871636782,-0.009490858674987522,0.004741875260010456,-0.018999516591444107,-0.006541766335014247
0.51,-0.0003529559780016216,-0.7854949000000027,-0.0004944776760016637,-2.355242839999997,-0.0013466698000044776,1.5699213399999967,0.7858527599999996,0.03999999,0.0399999814,-9.831111600000012,-0.024010811746163912,-0.009423279399987461,0.004798504280010507,-0.01907783262433069,-0.006618925780014316
0.5125,-0.0003616957475016294,-0.7855093750000027,-0.0005034449625016717,-2.355227599999997,-0.001370802625004499,1.569903774999997,0.7858502999999996,0.03999999,0.03999997975,-9.831176250000013,-0.024245124775960008,-0.009355700124987402,0.004855133300010557,-0.01915614865721728,-0.006696085225014385
0.515,-0.00037043551700163753,-0.7855238500000027,-0.0005124122490016801,-2.3552123599999972,-0.0013949354500045216,1.5698862099999968,0.7858478399999996,0.03999999,0.0399999781,-9.831240900000012,-0.02447943780575611,-0.009288120849987338,0.00491176232001061,-0.019234464690103866,-0.0067732446700144566
0.5175,-0.000379404957001775,-0.785538777500003,-0.0005216146830018209,-2.3551966799999966,-0.0014197004450049,1.5698681899999964,0.7858453224999995,0.0399999899,0.03999997585,-9.831325225000024,-0.02472993507986624,-0.009224282799989391,0.004969146125011086,-0.019313363824054745,-0.0068513263650150456
0.52,-0.00038883373800178376,-0.785554610000003,-0.0005312874120018299,-2.355180119999997,-0.0014457297800049243,1.5698492599999965,0.7858426899999995,0.0399999896,0.0399999724,-9.831448900000023,-0.025012800842577072,-0.009167927199989339,0.005028039500011142,-0.019393429160133226,-0.006931252560015121
0.5225,-0.00039826251900179215,-0.785570442500003,-0.0005409601410018385,-2.3551635599999967,-0.0014717591150049474,1.5698303299999965,0.7858400574999995,0.0399999893,0.03999996895,-9.831572575000024,-0.025295666605287894,-0.009111571599989288,0.0050869328750111934,-0.019473494496211708,-0.007011178755015192
0.525,-0.0004076913000018009,-0.785586275000003,-0.0005506328700018475,-2.3551469999999965,-0.0014977884500049718,1.5698113999999965,0.7858374249999995,0.039999989,0.0399999655,-9.831696250000023,-0.02557853236799873,-0.009055215999989236,0.005145826250011249,-0.019553559832290193,-0.007091104950015266
0.5275,-0.0004171200810018093,-0.785602107500003,-0.0005603055990018561,-2.355130439999997,-0.0015238177850049948,1.5697924699999966,0.7858347924999995,0.0399999887,0.03999996205,-9.831819925000024,-0.025861398130709548,-0.008998860399989187,0.005204719625011301,-0.019633625168368675,-0.007171031145015337
0.53,-0.0004265488620018181,-0.7856179400000031,-0.0005699783280018652,-2.3551138799999967,-0.0015498471200050192,1.5697735399999964,0.7858321599999996,0.0399999884,0.039999958599999996,-9.831943600000024,-0.026144263893420384,-0.008942504799989134,0.005263613000011356,-0.019713690504447157,-0.007250957340015412
0.5325,-0.00043597764300182647,-0.7856337725000031,-0.0005796510570018737,-2.3550973199999965,-0.0015758764550050423,1.5697546099999964,0.7858295274999995,0.0399999881,0.039999955149999995,-9.832067275000025,-0.026427129656131206,-0.008886149199989084,0.0053225063750114085,-0.01979375584052564,-0.007330883535015483
0.535,-0.0004458828130019743,-0.7856505450000033,-0.0005898115840020252,-2.3550797199999964,-0.0016032172700054493,1.5697347399999961,0.7858267449999995,0.0399999869,0.0399999526,-9.832154350000014,-0.026698502153209864,-0.008805463099981928,0.005382810780011875,-0.019874925166384384,-0.007413151140016241
0.5375,-0.00045602617750198333,-0.7856677875000033,-0.0006002160100020345,-2.3550615999999964,-0.0016312138250054742,1.569714399999996,0.7858238874999994,0.03999998525,0.0399999505,-9.832223125000013,-0.02696412801747744,-0.008712611749981846,0.00544382070001193,-0.019956646487132777,-0.0074965894500163156
0.54,-0.0004661695420019928,-0.7856850300000033,-0.0006106204360020441,-2.3550434799999964,-0.0016592103800055003,1.569694059999996,0.7858210299999995,0.0399999836,0.0399999484,-9.832291900000014,-0.027229753881745027,-0.008619760399981758,0.005504830620011987,-0.020038367807881173,-0.007580027760016393
0.5425,-0.00047631290650200183,-0.7857022725000034,-0.0006210248620020534,-2.3550253599999964,-0.0016872069350055252,1.569673719999996,0.7858181724999994,0.03999998195,0.0399999463,-9.832360675000013,-0.027495379746012603,-0.008526909049981676,0.005565840540012041,-0.020120089128629566,-0.007663466070016467
0.545,-0.0004864562710020113,-0.7857195150000034,-0.000631429288002063,-2.3550072399999964,-0.0017152034900055513,1.5696533799999959,0.7858153149999995,0.0399999803,0.0399999442,-9.832429450000014,-0.02776100561028019,-0.00843405769998159,0.005626850460012098,-0.020201810449377963,-0.007746904380016545
0.5475,-0.0004965996355020203,-0.7857367575000034,-0.0006418337140020723,-2.3549891199999964,-0.0017432000450055762,1.569633039999996,0.7858124574999994,0.03999997865,0.0399999421,-9.832498225000013,-0.028026631474547765,-0.008341206349981508,0.005687860380012151,-0.020283531770126356,-0.007830342690016619
0.55,-0.0005067430000021779,-0.7857540000000037,-0.0006522381400022335,-2.354970999999996,-0.0017711966000060098,1.5696126999999955,0.7858095999999993,0.039999977,0.03999994,-9.832567000000017,-0.028292257338824275,-0.00824835499998343,0.005748870300012694,-0.020365253090874887,-0.007913781000017238
0.5525,-0.000517626310002336,-0.785772681000004,-0.0006634001380023957,-2.3549513949999956,-0.0018012295700064462,1.5695908749999954,0.7858065294999993,0.0399999764,0.0399999385,-9.832658950000019,-0.02860246039933656,-0.008165549374982227,0.005812305405013616,-0.020447644963878134,-0.00799992435001849
0.555,-0.0005285096200024946,-0.7857913620000042,-0.0006745621360025585,-2.3549317899999953,-0.001831262540006884,1.569569049999995,0.7858034589999993,0.0399999758,0.039999937,-9.83275090000002,-0.028912663459848862,-0.00808274374998102,0.00587574051001454,-0.020530036836881385,-0.008086067700019746
0.5575,-0.0005393929300026528,-0.7858100430000046,-0.0006857241340027207,-2.3549121849999954,-0.0018612955100073202,1.5695472249999947,0.7858003884999992,0.0399999752,0.0399999355,-9.832842850000022,-0.02922286652036115,-0.007999938124979816,0.005939175615015462,-0.020612428709884632,-0.008172211050020996
0.56,-0.0005502762400028114,-0.7858287240000048,-0.0006968861320028833,-2.354892579999995,-0.001891328480007758,1.5695253999999943,0.7857973179999992,0.0399999746,0.039999934,-9.832934800000023,-0.029533069580873452,-0.007917132499978611,0.006002610720016387,-0.020694820582887883,-0.008258354400022252
0.5625,-0.0005611595500029695,-0.785847405000005,-0.0007080481300030455,-2.354872974999995,-0.0019213614500081942,1.5695035749999942,0.7857942474999992,0.039999974,0.0399999325,-9.833026750000025,-0.02984327264138574,-0.007834326874977407,0.006066045825017309,-0.02077721245589113,-0.008344497750023504
0.5650000000000001,-0.0005720428600031282,-0.7858660860000054,-0.0007192101280032083,-2.3548533699999945,-0.001951394420008632,1.5694817499999938,0.7857911769999991,0.0399999734,0.039999931,-9.833118700000027,-0.03015347570189804,-0.007751521249976199,0.006129480930018233,-0.02085960432889438,-0.00843064110002476
0.5675,-0.0005831811100034113,-0.7858852515000059,-0.0007306331420034982,-2.354833284999994,-0.0019821291350094116,1.5694594099999932,0.785788038499999,0.039999973,0.03999992975,-9.833202900000021,-0.03045672941961413,-0.007655502024964141,0.006193665830019237,-0.02094260277229026,-0.008517843000026159
0.5700000000000001,-0.0005948292400032632,-0.7859053860000057,-0.0007425781880033464,-2.3548122399999944,-0.0020142673400090033,1.5694360399999936,0.7857847639999991,0.039999973,0.039999929000000004,-9.83327160000002,-0.030746084451756424,-0.007533055599965696,0.006259350320018402,-0.02102681435646979,-0.008607162000025023
0.5725,-0.0006064773700031146,-0.7859255205000054,-0.0007545232340031941,-2.3547911949999945,-0.0020464055450085936,1.5694126699999937,0.785781489499999,0.039999973,0.039999928250000004,-9.83334030000002,-0.031035439483898704,-0.007410609174967258,0.006325034810017564,-0.021111025940649317,-0.008696481000023883
0.5750000000000001,-0.0006181255000029666,-0.7859456550000051,-0.0007664682800030423,-2.3547701499999945,-0.0020785437500081853,1.569389299999994,0.7857782149999991,0.039999973,0.0399999275,-9.833409000000017,-0.031324794516041,-0.007288162749968814,0.006390719300016729,-0.021195237524828846,-0.008785800000022747
0.5775,-0.0006297736300028181,-0.7859657895000048,-0.0007784133260028899,-2.354749104999995,-0.0021106819550077752,1.5693659299999942,0.7857749404999992,0.039999973,0.03999992675,-9.833477700000017,-0.03161414954818328,-0.007165716324970376,0.006456403790015891,-0.021279449109008374,-0.008875119000021608
0.58,-0.0006414217600026695,-0.7859859240000047,-0.0007903583720027375,-2.354728059999995,-0.0021428201600073656,1.5693425599999946,0.7857716659999991,0.039999973,0.039999926,-9.833546400000015,-0.03190350458032556,-0.0070432698999719386,0.006522088280015053,-0.0213636606931879,-0.00896443800002047
0.5825,-0.0006530698900025215,-0.7860060585000044,-0.0008023034180025858,-2.3547070149999954,-0.0021749583650069572,1.5693191899999948,0.7857683914999992,0.039999973,0.03999992525,-9.833615100000015,-0.032192859612467845,-0.006920823474973494,0.006587772770014219,-0.021447872277367427,-0.009053757000019334
0.585,-0.0006652443240026468,-0.7860272030000046,-0.000814787275002714,-2.354684919999995,-0.002208545110007302,1.5692947699999946,0.7857649699999992,0.0399999734,0.0399999255,-9.833704000000022,-0.03250468298799705,-0.006798080999973848,0.006654915840014443,-0.021533517353255018,-0.009145165400019674
0.5875,-0.0006776819100026585,-0.7860488525000047,-0.0008275405375027259,-2.354662299999995,-0.0022428561250073336,1.5692698249999946,0.7857614749999993,0.039999974,0.03999992625,-9.833803000000021,-0.032827740535209,-0.0066751904999737335,0.006722788200014507,-0.02161987917499596,-0.009237618500019761
0.59,-0.0006901194960026695,-0.7860705020000047,-0.0008402938000027372,-2.354639679999995,-0.0022771671400073643,1.5692448799999945,0.7857579799999992,0.0399999746,0.039999927,-9.833902000000021,-0.03315079808242094,-0.006552299999973624,0.006790660560014567,-0.021706240996736896,-0.009330071600019843
0.5925,-0.000702557082002681,-0.7860921515000047,-0.0008530470625027491,-2.354617059999995,-0.0023114781550073963,1.5692199349999947,0.7857544849999992,0.0399999752,0.039999927750000004,-9.834001000000022,-0.03347385562963289,-0.00642940949997351,0.00685853292001463,-0.021792602818477835,-0.009422524700019929
0.595,-0.000714994668002692,-0.7861138010000047,-0.0008658003250027604,-2.354594439999995,-0.0023457891700074266,1.5691949899999946,0.7857509899999993,0.0399999758,0.039999928500000004,-9.834100000000022,-0.03379691317684483,-0.006306518999973401,0.00692640528001469,-0.021878964640218775,-0.009514977800020011
0.5975,-0.0007274322540027037,-0.7861354505000048,-0.0008785535875027724,-2.354571819999995,-0.0023801001850074586,1.5691700449999946,0.7857474949999992,0.0399999764,0.03999992925,-9.834199000000021,-0.03411997072405678,-0.006183628499973286,0.006994277640014754,-0.021965326461959714,-0.009607430900020099
0.6,-0.0007398698400028923,-0.7861571000000052,-0.0008913068500029654,-2.354549199999995,-0.002414411200007978,1.5691450999999943,0.7857439999999992,0.039999977,0.03999993,-9.834298000000024,-0.03444302827127647,-0.006060737999972859,0.0070621500000153025,-0.022051688283700927,-0.009699884000020885
0.6025,-0.0007531210080029047,-0.7861803050000051,-0.0009048930325029781,-2.3545248699999948,-0.002450961460008012,1.5691185199999942,0.7857402739999991,0.03999997805,0.039999932550000006,-9.834403300000023,-0.034801596589465,-0.005936388644972743,0.007132258950015367,-0.022139317169804638,-0.009795567200020975
0.605,-0.0007663721760029164,-0.7862035100000051,-0.0009184792150029902,-2.3545005399999948,-0.0024875117200080445,1.5690919399999943,0.7857365479999991,0.0399999791,0.0399999351,-9.834508600000024,-0.03516016490765352,-0.0058120392899726325,0.00720236790001543,-0.022226946055908345,-0.009891250400021059
0.6075,-0.0007796233440029288,-0.7862267150000052,-0.0009320653975030028,-2.3544762099999947,-0.0025240619800080783,1.5690653599999942,0.7857328219999992,0.03999998015,0.039999937650000005,-9.834613900000024,-0.03551873322584206,-0.005687689934972516,0.007272476850015495,-0.02231457494201206,-0.009986933600021149
0.61,-0.0007928745120029405,-0.7862499200000052,-0.0009456515800030148,-2.3544518799999947,-0.002560612240008111,1.569038779999994,0.7857290959999992,0.0399999812,0.0399999402,-9.834719200000023,-0.03587730154403057,-0.005563340579972405,0.007342585800015558,-0.022402203828115766,-0.010082616800021234
0.6125,-0.0008061256800029529,-0.7862731250000052,-0.0009592377625030276,-2.3544275499999947,-0.002597162500008145,1.5690121999999942,0.7857253699999992,0.03999998225,0.03999994275,-9.834824500000025,-0.036235869862219106,-0.00543899122497229,0.0074126947500156234,-0.022489832714219476,-0.010178300000021323
0.615,-0.0008193768480029646,-0.7862963300000052,-0.0009728239450030396,-2.3544032199999947,-0.0026337127600081773,1.568985619999994,0.7857216439999991,0.0399999833,0.0399999453,-9.834929800000024,-0.036594438180407626,-0.005314641869972179,0.007482803700015685,-0.022577461600323187,-0.010273983200021408
0.6175,-0.0008329071570031652,-0.7863200650000056,-0.0009866958800032449,-2.354378399999994,-0.002671031095008729,1.5689584849999938,0.7857178469999991,0.0399999838,0.03999994645,-9.835016200000013,-0.03694183956838996,-0.005175712084962236,0.007553656400016252,-0.022665489278753618,-0.010370333350021946
0.62,-0.0008469957480031778,-0.7863448600000056,-0.0010011393200032577,-2.354352599999994,-0.0027098855800087637,1.5689302399999938,0.7857139079999991,0.0399999832,0.0399999448,-9.835064800000012,-0.037266907095982425,-0.005007621439962086,0.0076259966000163165,-0.022754314541836674,-0.010468017400022032
0.6225,-0.0008610843390031909,-0.7863696550000057,-0.0010155827600032712,-2.354326799999994,-0.0027487400650088,1.5689019949999936,0.7857099689999991,0.0399999826,0.03999994315,-9.835113400000012,-0.0375919746235749,-0.0048395307949619295,0.007698336800016384,-0.022843139804919737,-0.010565701450022124
0.625,-0.0008751729300032034,-0.7863944500000056,-0.001030026200003284,-2.354300999999994,-0.0027875945500088345,1.5688737499999936,0.7857060299999991,0.039999981999999996,0.0399999415,-9.835162000000011,-0.03791704215116736,-0.004671440149961781,0.007770677000016449,-0.022931965068002796,-0.01066338550002221
0.6275000000000001,-0.0008892615210032165,-0.7864192450000057,-0.0010444696400032974,-2.3542751999999942,-0.0028264490350088708,1.5688455049999936,0.7857020909999991,0.0399999814,0.03999993985,-9.83521060000001,-0.03824210967875984,-0.004503349504961624,0.007843017200016516,-0.02302079033108586,-0.010761069550022302
0.63,-0.000903350112003229,-0.7864440400000057,-0.0010589130800033103,-2.354249399999994,-0.0028653035200089053,1.5688172599999937,0.7856981519999992,0.0399999808,0.0399999382,-9.835259200000012,-0.038567177206352304,-0.004335258859961475,0.00791535740001658,-0.02310961559416892,-0.010858753600022388
0.6325000000000001,-0.0009174387030032421,-0.7864688350000058,-0.0010733565200033237,-2.354223599999994,-0.0029041580050089416,1.5687890149999935,0.7856942129999991,0.0399999802,0.03999993655,-9.835307800000011,-0.038892244733944786,-0.0041671682149613185,0.007987697600016648,-0.023198440857251982,-0.01095643765002248
0.635,-0.0009321011500034535,-0.7864947060000061,-0.00108838742000354,-2.3541966299999935,-0.002944591410009523,1.568759629999993,0.7856900999999991,0.0399999797,0.0399999349,-9.835407950000029,-0.039259488135665904,-0.004008494069964431,0.008061447300017201,-0.023288662545403904,-0.0110559552000232
0.6375000000000001,-0.0009470505250034675,-0.7865211150000061,-0.0011037120500035544,-2.3541690749999935,-0.0029858142750095614,1.568729674999993,0.785685899999999,0.03999997925,0.03999993325,-9.83553387500003,-0.039647819474429497,-0.003854528174964288,0.00813590175001727,-0.02337958244608954,-0.011156389500023295
0.64,-0.0009619999000034808,-0.7865475240000062,-0.0011190366800035681,-2.3541415199999935,-0.003027037140009598,1.568699719999993,0.785681699999999,0.039999978799999995,0.0399999316,-9.835659800000029,-0.04003615081319308,-0.0037005622799641514,0.008210356200017336,-0.02347050234677517,-0.011256823800023383
0.6425,-0.0009769492750034941,-0.7865739330000062,-0.0011343613100035818,-2.3541139649999936,-0.003068260005009635,1.568669764999993,0.785677499999999,0.03999997835,0.03999992995,-9.83578572500003,-0.04042448215195666,-0.0035465963849640146,0.008284810650017403,-0.0235614222474608,-0.011357258100023474
0.645,-0.000991898650003508,-0.7866003420000062,-0.0011496859400035961,-2.3540864099999936,-0.003109482870009673,1.568639809999993,0.785673299999999,0.0399999779,0.0399999283,-9.83591165000003,-0.04081281349072025,-0.003392630489963871,0.008359265100017471,-0.023652342148146436,-0.011457692400023567
0.6475,-0.0010068480250035212,-0.7866267510000062,-0.0011650105700036098,-2.3540588549999932,-0.0031507057350097095,1.568609854999993,0.785669099999999,0.03999997745,0.039999926649999996,-9.836037575000029,-0.04120114482948384,-0.003238664594963734,0.008433719550017538,-0.023743262048832064,-0.011558126700023656
0.65,-0.0010217974000037442,-0.7866531600000066,-0.001180335200003838,-2.354031299999993,-0.0031919286000103232,1.5685798999999925,0.785664899999999,0.039999977,0.039999925,-9.836163500000012,-0.04158947616824048,-0.0030846986999529392,0.008508174000018132,-0.023834181949518057,-0.01165856100002435
0.6525,-0.0010376305000037583,-0.7866812250000066,-0.0011965644650038523,-2.354002124999993,-0.003235582860010362,1.5685481599999924,0.785660459999999,0.039999977,0.0399999238,-9.836216225000012,-0.041948401555504104,-0.0028856905199527625,0.0085848462000182,-0.02392660444604558,-0.01176153060002444
0.655,-0.001053463600003773,-0.7867092900000067,-0.0012127937300038675,-2.353972949999993,-0.0032792371200104026,1.5685164199999924,0.7856560199999989,0.039999977,0.0399999226,-9.836268950000012,-0.042307326942767745,-0.0026866823399525766,0.00866151840001827,-0.024019026942573105,-0.011864500200024537
0.6575,-0.001069296700003787,-0.7867373550000066,-0.001229022995003882,-2.3539437749999927,-0.0033228913800104416,1.5684846799999923,0.7856515799999989,0.039999977,0.0399999214,-9.836321675000013,-0.042666252330031365,-0.0024876741599524,0.008738190600018339,-0.024111449439100627,-0.01196746980002463
0.66,-0.001085129800003802,-0.7867654200000067,-0.001245252260003897,-2.353914599999993,-0.0033665456400104824,1.5684529399999922,0.7856471399999989,0.039999977,0.039999920200000004,-9.836374400000013,-0.043025177717295006,-0.0022886659799522145,0.00881486280001841,-0.024203871935628153,-0.012070439400024726
0.6625,-0.0011009629000038159,-0.7867934850000067,-0.0012614815250039115,-2.353885424999993,-0.003410199900010521,1.5684211999999924,0.7856426999999989,0.039999977,0.039999919,-9.836427125000013,-0.04338410310455863,-0.0020896577999520377,0.008891535000018479,-0.024296294432155675,-0.012173409000024817
0.665,-0.0011167960000038307,-0.7868215500000068,-0.0012777107900039265,-2.3538562499999927,-0.003453854160010562,1.5683894599999924,0.7856382599999989,0.039999977,0.0399999178,-9.836479850000012,-0.043743028491822274,-0.0018906496199518521,0.00896820720001855,-0.0243887169286832,-0.012276378600024913
0.6675,-0.0011329311650040649,-0.7868501840000072,-0.0012942492800041663,-2.3538264599999925,-0.003498339650011206,1.5683571299999919,0.7856337319999989,0.039999977,0.03999991715,-9.836557000000031,-0.04412423856566752,-0.0016962585679550387,0.009045597900019142,-0.024481864925496873,-0.012380450500025808
0.67,-0.0011496704600040804,-0.7868799560000073,-0.0013114062200041822,-2.3537954399999923,-0.0035444876000112493,1.5683236199999917,0.7856290279999989,0.039999977,0.039999917600000004,-9.836683000000031,-0.04455001801262741,-0.001511101771954866,0.009124425600019215,-0.02457646392288126,-0.012486727000025906
0.6725,-0.0011664097550040952,-0.7869097280000072,-0.0013285631600041974,-2.353764419999992,-0.00359063555001129,1.5682901099999917,0.7856243239999988,0.039999977,0.03999991805,-9.83680900000003,-0.044975797459587276,-0.0013259449759547015,0.009203253300019285,-0.024671062920265645,-0.012593003500026002
0.675,-0.0011831490500041108,-0.7869395000000072,-0.0013457201000042136,-2.3537333999999923,-0.003636783500011333,1.5682565999999918,0.7856196199999989,0.039999977,0.0399999185,-9.83693500000003,-0.04540157690654716,-0.001140788179954529,0.009282081000019359,-0.024765661917650034,-0.0126992800000261
0.6775,-0.0011998883450041256,-0.7869692720000073,-0.0013628770400042286,-2.353702379999992,-0.003682931450011374,1.5682230899999918,0.7856149159999989,0.039999977,0.039999918950000005,-9.837061000000032,-0.04582735635350703,-0.0009556313839543645,0.009360908700019429,-0.024860260915034415,-0.012805556500026193
0.68,-0.0012166276400041413,-0.7869990440000073,-0.0013800339800042448,-2.3536713599999923,-0.003729079400011417,1.5681895799999916,0.7856102119999988,0.039999977,0.0399999194,-9.837187000000032,-0.046253135800466916,-0.0007704745879541918,0.009439736400019503,-0.024954859912418803,-0.012911833000026293
0.6825,-0.0012333669350041562,-0.7870288160000074,-0.0013971909200042598,-2.353640339999992,-0.003775227350011458,1.5681560699999917,0.7856055079999988,0.039999977,0.03999991985,-9.837313000000032,-0.04667891524742679,-0.0005853177919540274,0.009518564100019573,-0.025049458909803188,-0.013018109500026387
0.685,-0.001250725010004403,-0.7870597510000078,-0.0014149813100045128,-2.353608169999992,-0.0038230778600121373,1.5681213199999913,0.7856006199999988,0.039999977299999996,0.03999992,-9.837377900000009,-0.047079532221056306,-0.0003687147039420991,0.009598833000020185,-0.02514460161330685,-0.013125847800027032
0.6875,-0.0012683924750044187,-0.7870912675000079,-0.0014330884250045289,-2.353575424999992,-0.003871779650012181,1.5680859499999913,0.7855956399999988,0.03999997775,0.03999992,-9.837412250000009,-0.0474675679580347,-0.00013638846994189273,0.009679822500020257,-0.02524001616986984,-0.01323431700002713
0.6900000000000001,-0.0012860599400044352,-0.7871227840000079,-0.0014511955400045456,-2.353542679999992,-0.003920481440012226,1.568050579999991,0.7855906599999988,0.0399999782,0.03999992,-9.837446600000009,-0.04785560369501311,9.593776405832392e-05,0.009760812000020332,-0.025335430726432833,-0.01334278620002723
0.6925,-0.001303727405004451,-0.7871543005000079,-0.0014693026550045617,-2.353509934999992,-0.00396918323001227,1.568015209999991,0.7855856799999987,0.03999997865,0.03999992,-9.837480950000009,-0.0482436394319915,0.0003282639980585302,0.009841801500020404,-0.025430845282995825,-0.013451255400027326
0.6950000000000001,-0.0013213948700044674,-0.787185817000008,-0.0014874097700045786,-2.3534771899999916,-0.004017885020012315,1.5679798399999911,0.7855806999999988,0.0399999791,0.03999992,-9.837515300000009,-0.04863167516896992,0.0005605902320587468,0.009922791000020479,-0.025526259839558817,-0.013559724600027427
0.6975,-0.0013390623350044832,-0.787217333500008,-0.0015055168850045947,-2.3534444449999916,-0.004066586810012358,1.5679444699999912,0.7855757199999988,0.039999979549999995,0.03999992,-9.837549650000009,-0.04901971090594831,0.0007929164660589533,0.010003780500020551,-0.02562167439612181,-0.013668193800027524
0.7000000000000001,-0.0013567298000047416,-0.7872488500000084,-0.001523624000004859,-2.3534116999999912,-0.0041152886000130695,1.5679090999999905,0.7855707399999987,0.03999998,0.03999992,-9.83758400000003,-0.04940774664294526,0.0010252427000554914,0.010084770000021186,-0.02571708895268526,-0.013776663000028406
0.7025,-0.001375347140004758,-0.7872821275000085,-0.001542703415004876,-2.353377154999991,-0.004166603585013115,1.5678718249999906,0.7855654914999987,0.0399999806,0.039999921800000005,-9.83769935000003,-0.04986857194465247,0.001243124825055685,0.01016795520002126,-0.025814293883765695,-0.013888196550028506
0.705,-0.0013939644800047746,-0.7873154050000085,-0.001561782830004893,-2.353342609999991,-0.00421791857001316,1.5678345499999904,0.7855602429999987,0.0399999812,0.0399999236,-9.83781470000003,-0.050329397246359674,0.0014610069500558785,0.010251140400021334,-0.02591149881484613,-0.013999730100028604
0.7075,-0.001412581820004792,-0.7873486825000086,-0.0015808622450049108,-2.3533080649999913,-0.004269233555013208,1.5677972749999904,0.7855549944999987,0.0399999818,0.039999925400000004,-9.837930050000029,-0.05079022254806689,0.0016788890750560816,0.010334325600021411,-0.02600870374592657,-0.014111263650028709
0.71,-0.0014311991600048086,-0.7873819600000086,-0.0015999416600049278,-2.3532735199999912,-0.004320548540013254,1.5677599999999903,0.7855497459999986,0.0399999824,0.0399999272,-9.838045400000029,-0.0512510478497741,0.0018967712000562752,0.010417510800021484,-0.026105908677007007,-0.014222797200028807
0.7125,-0.001449816500004826,-0.7874152375000086,-0.0016190210750049456,-2.353238974999991,-0.004371863525013302,1.5677227249999903,0.7855444974999987,0.039999983,0.039999929000000004,-9.83816075000003,-0.051711873151481326,0.0021146533250564785,0.010500696000021563,-0.02620311360808745,-0.014334330750028912
0.715,-0.0014684338400048425,-0.7874485150000087,-0.0016381004900049626,-2.353204429999991,-0.004423178510013347,1.5676854499999904,0.7855392489999986,0.039999983600000004,0.0399999308,-9.83827610000003,-0.05217269845318853,0.0023325354500566718,0.010583881200021636,-0.026300318539167884,-0.014445864300029011
0.7175,-0.0014873748450050244,-0.787482390000009,-0.0016575112300051486,-2.3531692499999908,-0.004475383875013847,1.5676475399999898,0.7855339124999986,0.039999984550000006,0.0399999334,-9.838370600000014,-0.05262211132805554,0.0025666315400683605,0.010667771175021878,-0.026398154348160407,-0.014558306200029306
0.72,-0.0015069631800047744,-0.7875174600000086,-0.0016775846200048925,-2.353132799999991,-0.004529370000013158,1.5676083599999904,0.7855283999999986,0.039999986200000004,0.0399999376,-9.838423400000012,-0.053048699349268875,0.002833155560064961,0.01075307070002079,-0.026497251912975615,-0.014672564800027849
0.7225,-0.0015265515150045255,-0.7875525300000081,-0.0016976580100046374,-2.3530963499999915,-0.004583356125012473,1.567569179999991,0.7855228874999987,0.03999998785,0.0399999418,-9.838476200000011,-0.053475287370482225,0.0030996795800615736,0.010838370225019706,-0.026596349477790823,-0.014786823400026397
0.725,-0.0015461398500042755,-0.7875876000000076,-0.0017177314000043813,-2.3530598999999923,-0.004637342250011784,1.5675299999999914,0.7855173749999987,0.039999989500000006,0.039999946,-9.83852900000001,-0.05390187539169556,0.003366203600058174,0.010923669750018619,-0.02669544704260603,-0.01490108200002494
0.7275,-0.0015657281850040266,-0.7876226700000072,-0.0017378047900041263,-2.3530234499999927,-0.0046913283750110975,1.567490819999992,0.7855118624999988,0.039999991150000004,0.0399999502,-9.83858180000001,-0.054328463412908916,0.0036327276200547867,0.011008969275017533,-0.026794544607421242,-0.015015340600023488
0.73,-0.0015853165200037768,-0.7876577400000068,-0.0017578781800038701,-2.352986999999993,-0.004745314500010409,1.5674516399999925,0.7855063499999989,0.0399999928,0.0399999544,-9.83863460000001,-0.05475505143412225,0.003899251640051387,0.011094268800016446,-0.026893642172236446,-0.01512959920002203
0.7325,-0.0016049048550035277,-0.7876928100000063,-0.0017779515700036151,-2.3529505499999934,-0.004799300625009723,1.567412459999993,0.785500837499999,0.039999994450000007,0.0399999586,-9.838687400000008,-0.05518163945533561,0.004165775660048,0.011179568325015363,-0.026992739737051658,-0.015243857800020577
0.735,-0.0016251543100038182,-0.7877291000000068,-0.0017987016800039125,-2.352912839999993,-0.004855103950010522,1.5673719599999925,0.7854951399999989,0.0399999955,0.039999964,-9.838771800000018,-0.055653076246472366,0.004421603860046472,0.011266263550016215,-0.02709253262730307,-0.015359801000021668
0.7375,-0.0016457343250041183,-0.7877660000000074,-0.00181979015000422,-2.3528744999999924,-0.004911815875011349,1.5673307999999917,0.7854893499999988,0.03999999625,0.03999997,-9.83887200000002,-0.056146937422553125,0.0046720841500501225,0.011353656625017488,-0.027192673180272315,-0.01547658650002337
0.74,-0.0016663143400044173,-0.787802900000008,-0.0018408786200045262,-2.352836159999992,-0.004968527800012173,1.5672896399999912,0.7854835599999987,0.039999997,0.039999976,-9.838972200000022,-0.056640798598633864,0.0049225644400537625,0.011441049700018758,-0.027292813733241553,-0.015593372000025068
0.7425,-0.0016868943550047172,-0.7878398000000084,-0.0018619670900048336,-2.3527978199999913,-0.005025239725012999,1.5672484799999906,0.7854777699999986,0.03999999775,0.039999982,-9.839072400000022,-0.057134659774714616,0.005173044730057413,0.011528442775020032,-0.0273929542862108,-0.01571015750002677
0.745,-0.0017074743700050163,-0.787876700000009,-0.0018830555600051401,-2.3527594799999907,-0.0050819516500138235,1.56720731999999,0.7854719799999985,0.0399999985,0.039999988,-9.839172600000024,-0.057628520950795355,0.005423525020061053,0.011615835850021301,-0.027493094839180037,-0.015826943000028466
0.7475,-0.0017280543850053162,-0.7879136000000095,-0.0019041440300054475,-2.35272113999999,-0.0051386635750146495,1.5671661599999895,0.7854661899999984,0.03999999925,0.039999994000000004,-9.839272800000026,-0.058122382126876114,0.005674005310064704,0.011703228925022575,-0.027593235392149282,-0.015943728500030167
0.75,-0.0017486344000058913,-0.7879505000000105,-0.0019252325000060366,-2.352682799999989,-0.005195375500016234,1.5671249999999883,0.7854603999999983,0.04,0.04,-9.839373000000013,-0.05861624330294691,0.005924485600081973,0.011790622000024408,-0.027693375945119003,-0.016060514000032354
0.7525000000000001,-0.0017702262700059113,-0.7879892900000106,-0.001947356720006057,-2.352642629999989,-0.0052548711250162885,1.5670817699999882,0.7854543309999983,0.03999999925,0.04,-9.839419950000012,-0.0590736795218051,0.006224918410082253,0.011880075700024492,-0.02779528144749804,-0.016179081350032463
0.755,-0.0017918181400059306,-0.7880280800000107,-0.001969480940006077,-2.3526024599999893,-0.005314366750016342,1.5670385399999882,0.7854482619999983,0.0399999985,0.04,-9.839466900000014,-0.059531115740663276,0.00652535122008252,0.01196952940002457,-0.02789718694987707,-0.016297648700032568
0.7575000000000001,-0.0018134100100059506,-0.7880668700000106,-0.0019916051600060974,-2.352562289999989,-0.005373862375016397,1.566995309999988,0.7854421929999983,0.03999999775,0.04,-9.839513850000014,-0.05998855195952146,0.0068257840300828005,0.012058983100024654,-0.027999092452256104,-0.016416216050032677
0.76,-0.0018350018800059697,-0.7881056600000107,-0.002013729380006117,-2.352522119999989,-0.00543335800001645,1.566952079999988,0.7854361239999983,0.039999997,0.04,-9.839560800000013,-0.06044598817837964,0.007126216840083067,0.012148436800024734,-0.028100997954635134,-0.016534783400032782
0.7625000000000001,-0.00185659375000599,-0.7881444500000108,-0.002035853600006138,-2.352481949999989,-0.005492853625016505,1.566908849999988,0.7854300549999983,0.03999999625,0.04,-9.839607750000013,-0.06090342439723783,0.007426649650083347,0.012237890500024816,-0.02820290345701417,-0.016653350750032894
0.765,-0.001878185620006009,-0.7881832400000108,-0.0020579778200061575,-2.352441779999989,-0.0055523492500165585,1.566865619999988,0.7854239859999983,0.0399999955,0.04,-9.839654700000013,-0.061360860616096,0.007727082460083614,0.012327344200024896,-0.0283048089593932,-0.016771918100033
0.7675000000000001,-0.0019001213400063174,-0.7882226620000113,-0.002080454005006473,-2.3524009249999884,-0.005612791030017406,1.5668217149999872,0.7854178209999982,0.039999994750000004,0.03999999975,-9.839723700000032,-0.0618428338320546,0.008023311850080372,0.012417483650025554,-0.028407349716900912,-0.016891248500033748
0.77,-0.0019227447600063375,-0.7882633480000114,-0.0021036341200064935,-2.3523586999999884,-0.005675125120017462,1.5667764599999874,0.7854114639999983,0.039999994000000004,0.039999999,-9.839836800000032,-0.062373881042152385,0.00831113440008063,0.012508994600025636,-0.028511160984664382,-0.017012105000033854
0.7725,-0.0019453681800063575,-0.7883040340000115,-0.002126814235006514,-2.3523164749999883,-0.005737459210017517,1.5667312049999873,0.7854051069999982,0.039999993250000004,0.03999999825,-9.839949900000033,-0.06290492825225016,0.008598956950080885,0.012600505550025717,-0.02861497225242785,-0.017132961500033964
0.775,-0.001967991600006379,-0.7883447200000114,-0.0021499943500065356,-2.3522742499999882,-0.005799793300017575,1.5666859499999872,0.7853987499999983,0.0399999925,0.0399999975,-9.84006300000003,-0.06343597546234798,0.008886779500081153,0.012692016500025802,-0.02871878352019132,-0.017253818000034078
0.7775,-0.0019906150200063987,-0.7883854060000115,-0.002173174465006556,-2.352232024999988,-0.00586212739001763,1.5666406949999871,0.7853923929999982,0.03999999175,0.03999999675,-9.840176100000031,-0.06396702267244576,0.009174602050081408,0.012783527450025882,-0.028822594787954788,-0.017374674500034184
0.78,-0.00201323844000642,-0.7884260920000116,-0.002196354580006578,-2.352189799999988,-0.005924461480017689,1.5665954399999873,0.7853860359999982,0.039999991,0.039999996,-9.840289200000031,-0.06449806988254357,0.009462424600081676,0.012875038400025969,-0.028926406055718258,-0.017495531000034297
0.7825,-0.00203586186000644,-0.7884667780000116,-0.0022195346950065987,-2.352147574999988,-0.0059867955700177436,1.5665501849999872,0.7853796789999983,0.03999999025,0.03999999525,-9.840402300000031,-0.06502911709264136,0.009750247150081933,0.012966549350026049,-0.029030217323481728,-0.017616387500034403
0.785,-0.002059185820006761,-0.7885087600000121,-0.0022434318900069273,-2.3521040099999873,-0.006051057840018628,1.5665035099999864,0.7853731339999981,0.0399999905,0.0399999955,-9.840455050000006,-0.06553694531335696,0.010071190100096388,0.013059421200026717,-0.02913461215797071,-0.0177386102000351
0.7875,-0.0020828600500067823,-0.7885513900000122,-0.002267687625006949,-2.352059774999987,-0.006116284200018686,1.5664561249999864,0.7853664949999981,0.03999999125,0.03999999625,-9.840477625000005,-0.06603316403939634,0.010408693250096688,0.013152973500026801,-0.029239298775822067,-0.017861516000035212
0.79,-0.0021065342800068044,-0.7885940200000122,-0.0022919433600069716,-2.352015539999987,-0.006181510560018747,1.5664087399999864,0.7853598559999981,0.039999992,0.039999997,-9.840500200000006,-0.06652938276543571,0.010746196400097004,0.013246525800026889,-0.02934398539367343,-0.017984421800035327
0.7925,-0.0021302085100068256,-0.7886366500000123,-0.002316199095006993,-2.351971304999987,-0.006246736920018805,1.5663613549999864,0.7853532169999982,0.039999992750000005,0.03999999775,-9.840522775000005,-0.06702560149147509,0.011083699550097303,0.013340078100026971,-0.029448672011524787,-0.018107327600035434
0.795,-0.0021538827400068477,-0.7886792800000123,-0.0023404548300070154,-2.351927069999987,-0.006311963280018866,1.5663139699999862,0.7853465779999981,0.039999993500000004,0.0399999985,-9.840545350000006,-0.06752182021751447,0.011421202700097617,0.013433630400027059,-0.02955335862937615,-0.01823023340003555
0.7975,-0.0021775569700068684,-0.7887219100000123,-0.002364710565007037,-2.351882834999987,-0.006377189640018924,1.5662665849999862,0.7853399389999981,0.039999994250000004,0.03999999925,-9.840567925000006,-0.06801803894355384,0.011758705850097917,0.013527182700027143,-0.02965804524722751,-0.01835313920003566
0.8,-0.002201231200007202,-0.788764540000013,-0.0023889663000073785,-2.3518385999999865,-0.006442416000019841,1.5662191999999855,0.785333299999998,0.039999995,0.04,-9.84059050000003,-0.06851425766961561,0.012096209000094092,0.013620735000027816,-0.02976273186507934,-0.018476045000036447
0.8025,-0.002225974960007224,-0.788809129000013,-0.0024143170050074008,-2.3517923549999864,-0.006510584205019902,1.5661697299999855,0.7853263549999979,0.039999995,0.04,-9.84069437500003,-0.06908737979846039,0.012419484050094378,0.0137163056250279,-0.029869019705833225,-0.018601270850036558
0.805,-0.002250718720007247,-0.788853718000013,-0.0024396677100074243,-2.3517461099999863,-0.006578752410019965,1.5661202599999855,0.7853194099999979,0.039999995,0.04,-9.84079825000003,-0.06966050192730518,0.01274275910009468,0.01381187625002799,-0.02997530754658712,-0.018726496700036677
0.8075,-0.002275462480007269,-0.7888983070000131,-0.002465018415007447,-2.3516998649999863,-0.006646920615020026,1.5660707899999855,0.785312464999998,0.039999995,0.04,-9.84090212500003,-0.07023362405614995,0.013066034150094967,0.013907446875028075,-0.03008159538734101,-0.018851722550036788
0.81,-0.002300206240007292,-0.7889428960000131,-0.0024903691200074706,-2.3516536199999862,-0.006715088820020089,1.5660213199999855,0.785305519999998,0.039999995,0.04,-9.84100600000003,-0.07080674618499476,0.013389309200095269,0.014003017500028164,-0.030187883228094903,-0.018976948400036903
0.8125,-0.002324950000007314,-0.7889874850000131,-0.0025157198250074933,-2.351607374999986,-0.00678325702502015,1.5659718499999855,0.7852985749999979,0.039999995,0.04,-9.841109875000031,-0.07137986831383954,0.013712584250095555,0.014098588125028249,-0.030294171068848793,-0.019102174250037015
0.8150000000000001,-0.002349693760007337,-0.7890320740000133,-0.002541070530007517,-2.351561129999986,-0.006851425230020213,1.5659223799999855,0.7852916299999979,0.039999995,0.04,-9.841213750000032,-0.07195299044268433,0.014035859300095856,0.014194158750028338,-0.030400458909602687,-0.019227400100037133
0.8175,-0.0023748000950076825,-0.7890773320000138,-0.0025667923750078707,-2.3515142349999856,-0.006920590740021163,1.5658721699999847,0.7852845849999978,0.03999999525,0.04,-9.84129405000001,-0.07251306325213097,0.014376087350111269,0.014290406875029027,-0.030507184285702517,-0.019353301450037847
0.8200000000000001,-0.0024006315800077067,-0.789123928000014,-0.0025932565000078953,-2.3514660399999854,-0.00699175086002123,1.5658204799999846,0.7852773399999978,0.039999996,0.04,-9.841327200000011,-0.07304703742281629,0.014750221400111618,0.014388010000029119,-0.030614784732493062,-0.019480553800037964
0.8225,-0.0024264630650077295,-0.789170524000014,-0.002619720625007919,-2.3514178449999856,-0.007062910980021293,1.5657687899999846,0.7852700949999978,0.03999999675,0.04,-9.841360350000011,-0.07358101159350157,0.015124355450111952,0.014485613125029205,-0.0307223851792836,-0.019607806150038078
0.8250000000000001,-0.0024522945500077536,-0.789217120000014,-0.0026461847500079435,-2.3513696499999854,-0.00713407110002136,1.5657170999999845,0.7852628499999977,0.0399999975,0.04,-9.841393500000011,-0.07411498576418687,0.015498489500112301,0.014583216250029295,-0.030829985626074148,-0.019735058500038195
0.8275,-0.0024781260350077764,-0.789263716000014,-0.002672648875007967,-2.3513214549999852,-0.007205231220021422,1.5656654099999845,0.7852556049999978,0.03999999825,0.04,-9.841426650000011,-0.07464895993487217,0.01587262355011263,0.014680819375029382,-0.030937586072864686,-0.019862310850038308
0.8300000000000001,-0.0025039575200078005,-0.789310312000014,-0.002699113000007992,-2.3512732599999855,-0.007276391340021489,1.5656137199999844,0.7852483599999978,0.039999999,0.04,-9.84145980000001,-0.07518293410555747,0.01624675760011298,0.014778422500029474,-0.03104518651965523,-0.019989563200038425
0.8325,-0.0025297890050078233,-0.7893569080000141,-0.002725577125008015,-2.3512250649999853,-0.007347551460021552,1.5655620299999844,0.7852411149999977,0.03999999975,0.04,-9.84149295000001,-0.07571690827624275,0.016620891650113316,0.01487602562502956,-0.031152786966445772,-0.02011681555003854
0.835,-0.0025563576100081824,-0.7894048560000148,-0.0027527957500083824,-2.3511754499999844,-0.007420738250022539,1.5655088899999836,0.7852336559999976,0.04,0.04,-9.841554650000024,-0.07628479078429815,0.01699764380011484,0.014974978400030262,-0.031261640228364265,-0.020245555800039332
