rsonawane2002/My_IMU/logs_2/traj_381/imu_400hz_381.csv
time,j1,j2,j3,j4,j5,j6,j7,gripper1,gripper2,imu_ax,imu_ay,imu_az,imu_gx,imu_gy,imu_gz
0.0,0.00016700293,-0.785875,4.0107683e-05,-2.3551247,9.29385e-05,1.570997,0.786,0.04,0.04,-9.512171,-0.0100420927628874,0.11320505,-1.419404e-07,-0.0011641273740679,7.8388143e-07
0.0025,0.00016700476150000002,-0.7858577739999998,4.010827730000001e-05,-2.3551391900000005,9.294456600000009e-05,1.570996565,0.786,0.04,0.04,-9.560497400000703,-0.008439042256190337,0.09759316114977282,-2.8129272500202783e-07,-0.0013254409073875375,8.76177010501343e-07
0.005,0.00016700659300000005,-0.7858405479999995,4.010887160000002e-05,-2.355153680000001,9.295063200000018e-05,1.57099613,0.786,0.04,0.04,-9.608823800001407,-0.006835991749493274,0.08198127229954563,-4.206450500040557e-07,-0.0014867544407071748,9.68472591002686e-07
0.0075,0.00016700842450000008,-0.7858233219999993,4.010946590000003e-05,-2.3551681700000007,9.295669800000027e-05,1.570995695,0.786,0.04,0.04,-9.657150200002109,-0.0052329412427962125,0.06636938344931845,-5.599973750060835e-07,-0.0016480679740268124,1.0607681715040292e-06
0.01,0.0001670102560000001,-0.7858060959999991,4.0110060200000035e-05,-2.355182660000001,9.296276400000036e-05,1.57099526,0.786,0.04,0.04,-9.705476600002813,-0.0036298907360991497,0.05075749459909126,-6.993497000081113e-07,-0.0018093815073464497,1.1530637520053723e-06
0.0125,0.00016701208750000013,-0.7857888699999988,4.011065450000004e-05,-2.3551971500000013,9.296883000000045e-05,1.570994825,0.786,0.04,0.04,-9.753803000003515,-0.002026840229402088,0.03514560574886408,-8.387020250101392e-07,-0.0019706950406660874,1.2453593325067153e-06
0.015,0.00016701391900000016,-0.7857716439999985,4.0111248800000055e-05,-2.3552116400000016,9.297489600000053e-05,1.57099439,0.786,0.04,0.04,-9.802129400004219,-0.0004237897227050251,0.019533716898636894,-9.78054350012167e-07,-0.0021320085739857247,1.3376549130080584e-06
0.0175,0.00016701897900000105,-0.7857548644999985,4.0110796249999767e-05,-2.355225735000001,9.2982512000001e-05,1.57099396,0.786,0.04,0.04,-9.834262849999975,0.0006471052067360007,0.009049057819978643,-1.4135782550953542e-06,-0.0022893180023085455,1.5609752650450273e-06
0.02,0.00016703049600000092,-0.7857389779999988,4.01082499999998e-05,-2.355239040000001,9.299322800000086e-05,1.57099354,0.786,0.04,0.04,-9.834010399999979,0.0006536889821295869,0.008818858279981575,-2.4414453200822656e-06,-0.0024386192206412296,2.0463451600388468e-06
0.0225,0.00016704201300000077,-0.785723091499999,4.010570374999983e-05,-2.355252345000001,9.300394400000072e-05,1.57099312,0.786,0.04,0.04,-9.833757949999983,0.000660272757523173,0.008588658739984507,-3.4693123850691775e-06,-0.0025879204389739133,2.5317150550326666e-06
0.025,0.00016705353000000063,-0.7857072049999991,4.010315749999986e-05,-2.3552656500000007,9.301466000000059e-05,1.5709927,0.786,0.04,0.04,-9.833505499999985,0.0006668565329167593,0.008358459199987438,-4.49717945005609e-06,-0.0027372216573065974,3.017084950026487e-06
0.0275,0.00016706504700000048,-0.7856913184999994,4.0100611249999894e-05,-2.3552789550000006,9.302537600000045e-05,1.57099228,0.786,0.04,0.04,-9.833253049999989,0.0006734403083103454,0.008128259659990368,-5.525046515043002e-06,-0.0028865228756392814,3.5024548450203063e-06
0.03,0.00016707656400000035,-0.7856754319999996,4.0098064999999925e-05,-2.35529226,9.30360920000003e-05,1.57099186,0.786,0.04,0.04,-9.833000599999991,0.0006800240837039316,0.0078980601199933,-6.552913580029914e-06,-0.003035824093971965,3.987824740014126e-06
0.0325,0.0001670880810000002,-0.7856595454999997,4.0095518749999955e-05,-2.355305565,9.304680800000018e-05,1.57099144,0.786,0.04,0.04,-9.832748149999995,0.0006866078590975178,0.007667860579996231,-7.5807806450168275e-06,-0.003185125312304649,4.473194635007946e-06
0.035,0.00016711674200000048,-0.7856445099999998,4.0087548999999864e-05,-2.3553181,9.30662080000003e-05,1.57099101,0.786,0.04,0.04,-9.832485599999996,0.0006976277451032486,0.00746808687999765,-9.726571900034442e-06,-0.0033275419147702294,5.41348404001487e-06
0.0375,0.0001671539750000005,-0.7856298999999998,4.0076867499999855e-05,-2.35533025,9.308995000000033e-05,1.570990575,0.786,0.04,0.04,-9.832217999999996,0.0007108656864149306,0.007283526099997482,-1.2431325250036898e-05,-0.003466516209302446,6.58123320001593e-06
0.04,0.00016719120800000054,-0.7856152899999997,4.0066185999999845e-05,-2.3553424,9.311369200000034e-05,1.57099014,0.786,0.04,0.04,-9.831950399999997,0.0007241036277266127,0.007098965319997314,-1.513607860003936e-05,-0.003605490503834662,7.748982360016993e-06
0.0425,0.00016722844100000057,-0.7856006799999997,4.0055504499999836e-05,-2.35535455,9.313743400000037e-05,1.5709897050000001,0.786,0.04,0.04,-9.831682799999996,0.0007373415690382948,0.006914404539997146,-1.7840831950041822e-05,-0.003744464798366879,8.916731520018057e-06
0.045,0.0001672656740000006,-0.7855860699999997,4.004482299999982e-05,-2.3553667000000003,9.316117600000039e-05,1.57098927,0.786,0.04,0.04,-9.831415199999995,0.0007505795103499767,0.006729843759996979,-2.054558530004428e-05,-0.003883439092899095,1.0084480680019118e-05
0.0475,0.00016730290700000064,-0.7855714599999998,4.003414149999981e-05,-2.35537885,9.31849180000004e-05,1.570988835,0.786,0.04,0.04,-9.831147599999996,0.0007638174516616588,0.006545282979996811,-2.3250338650046742e-05,-0.004022413387431312,1.125222984002018e-05
0.05,0.00016734014000000156,-0.7855568499999998,4.0023459999999523e-05,-2.355391,9.320866000000089e-05,1.5709884,0.786,0.04,0.04,-9.830879999999997,0.0007770553929734592,0.006360722199996826,-2.5955092000093685e-05,-0.004161387681963366,1.241997900003903e-05
0.0525,0.00016742613050000163,-0.7855433679999997,3.99974984499995e-05,-2.355402025,9.325772350000094e-05,1.57098798,0.786,0.04,0.04,-9.830688149999997,0.0007967984507562371,0.006186187029996667,-3.1105193200098356e-05,-0.004291449044833519,1.4565486000040976e-05
0.055,0.00016751212100000172,-0.7855298859999997,3.9971536899999476e-05,-2.35541305,9.330678700000098e-05,1.57098756,0.786,0.04,0.04,-9.830496299999997,0.0008165415085390151,0.006011651859996508,-3.625529440010305e-05,-0.004421510407703672,1.671099300004293e-05
0.0575,0.00016759811150000178,-0.7855164039999997,3.994557534999946e-05,-2.355424075,9.335585050000102e-05,1.57098714,0.786,0.04,0.04,-9.830304449999996,0.000836284566321793,0.005837116689996349,-4.1405395600107733e-05,-0.004551571770573826,1.8856500000044884e-05
0.06,0.00016768410200000187,-0.7855029219999997,3.9919613799999436e-05,-2.3554351000000002,9.340491400000107e-05,1.57098672,0.786,0.04,0.04,-9.830112599999996,0.000856027624104571,0.00566258151999619,-4.6555496800112405e-05,-0.004681633133443979,2.100200700004683e-05
0.0625,0.00016777009250000194,-0.7854894399999997,3.989365224999941e-05,-2.3554461250000003,9.345397750000112e-05,1.5709863,0.786,0.04,0.04,-9.829920749999996,0.0008757706818873489,0.005488046349996031,-5.17055980001171e-05,-0.004811694496314132,2.3147514000048782e-05
0.065,0.00016785608300000203,-0.7854759579999997,3.986769069999939e-05,-2.3554571500000003,9.350304100000117e-05,1.57098588,0.786,0.04,0.04,-9.829728899999996,0.0008955137396701269,0.005313511179995872,-5.685569920012179e-05,-0.004941755859184286,2.5293021000050735e-05
0.0675,0.00016796810050000402,-0.7854628244999997,3.983361504999877e-05,-2.3554678350000002,9.356608500000224e-05,1.570985605,0.785999905,0.04,0.03999999975,-9.829531099999995,0.0009172333724569855,0.005149207579996468,-6.308024870020564e-05,-0.005069272196854602,2.789145355008606e-05
0.07,0.00016813217200000417,-0.7854503879999997,3.978331119999872e-05,-2.3554778400000003,9.365709000000233e-05,1.57098562,0.78599962,0.04,0.039999999,-9.829321399999994,0.0009429061552515738,0.005005367119996337,-7.145369480021326e-05,-0.005191698484125798,3.139573720008925e-05
0.0725,0.00016829624350000433,-0.7854379514999997,3.9733007349998676e-05,-2.3554878450000003,9.37480950000024e-05,1.570985635,0.7859993350000001,0.04,0.03999999825,-9.829111699999995,0.0009685789380461621,0.004861526659996207,-7.982714090022083e-05,-0.005314124771396994,3.490002085009242e-05
0.075,0.00016846031500000448,-0.7854255149999997,3.968270349999863e-05,-2.3554978500000003,9.383910000000248e-05,1.5709856500000001,0.78599905,0.04,0.0399999975,-9.828901999999994,0.0009942517208407504,0.004717686199996076,-8.820058700022846e-05,-0.0054365510586681905,3.840430450009561e-05
0.0775,0.00016862438650000464,-0.7854130784999996,3.963239964999858e-05,-2.3555078550000004,9.393010500000257e-05,1.570985665,0.785998765,0.04,0.03999999675,-9.828692299999995,0.001019924503635339,0.004573845739995945,-9.657403310023608e-05,-0.005558977345939387,4.1908588150098807e-05
0.08,0.00016878845800000477,-0.7854006419999997,3.958209579999854e-05,-2.3555178600000004,9.402111000000265e-05,1.57098568,0.78599848,0.04,0.039999996,-9.828482599999994,0.0010455972864299272,0.004430005279995814,-0.0001049474792002437,-0.005681403633210584,4.541287180010199e-05
0.0825,0.00016895252950000492,-0.7853882054999997,3.953179194999849e-05,-2.3555278650000004,9.411211500000273e-05,1.570985695,0.785998195,0.04,0.03999999525,-9.828272899999995,0.0010712700692245155,0.004286164819995683,-0.00011332092530025133,-0.00580382992048178,4.891715545010519e-05
0.085,0.00016919200100000856,-0.7853764189999997,3.945807939999736e-05,-2.35553711,9.424113900000458e-05,1.5709857600000001,0.7859979100000001,0.04,0.0399999955,-9.828108799999995,0.0010995766031564162,0.004141814249995528,-0.00012340988560033853,-0.005920994840565832,5.325303800014695e-05
0.08750000000000001,0.00016946917250000882,-0.7853649574999997,3.937266249999728e-05,-2.3555459750000005,9.438917250000471e-05,1.57098585,0.785997625,0.04,0.03999999625,-9.827967499999996,0.001129200012656793,0.003997208624995396,-0.0001343566030003485,-0.006035529077056671,5.800472000015128e-05
0.09,0.00016974634400000909,-0.7853534959999997,3.9287245599997206e-05,-2.3555548400000004,9.453720600000485e-05,1.57098594,0.78599734,0.04,0.039999997,-9.827826199999995,0.00115882342215717,0.0038526029999952655,-0.0001453033204003584,-0.00615006331354751,6.275640200015557e-05
0.0925,0.00017002351550000932,-0.7853420344999996,3.9201828699997126e-05,-2.3555637050000002,9.468523950000498e-05,1.57098603,0.7859970550000001,0.04,0.03999999775,-9.827684899999996,0.001188446831657547,0.003707997374995134,-0.00015625003780036836,-0.006264597550038349,6.75080840001599e-05
0.095,0.00017030068700000958,-0.7853305729999996,3.911641179999705e-05,-2.35557257,9.483327300000512e-05,1.57098612,0.78599677,0.04,0.0399999985,-9.827543599999995,0.0012180702411579238,0.0035633917499950023,-0.00016719675520037832,-0.006379131786529189,7.225976600016423e-05
0.0975,0.00017057785850000981,-0.7853191114999997,3.903099489999697e-05,-2.3555814350000004,9.498130650000526e-05,1.57098621,0.7859964850000001,0.04,0.03999999925,-9.827402299999996,0.001247693650658301,0.0034187861249948704,-0.00017814347260038829,-0.006493666023020027,7.701144800016855e-05
0.1,0.00017085503000001566,-0.7853076499999997,3.8945577999995164e-05,-2.3555903000000002,9.512934000000832e-05,1.5709863,0.7859962,0.04,0.04,-9.827260999999993,0.0012773170601589321,0.003274180499996243,-0.00018909019000056456,-0.006608200259510647,8.176313000024323e-05
0.10250000000000001,0.00017128530200001603,-0.7852970374999996,3.881266029999505e-05,-2.355598565,9.535816275000853e-05,1.5709864199999999,0.7859958325,0.04,0.03999999925,-9.827087449999993,0.0013139306800453105,0.0031709138249961487,-0.00020460771400057867,-0.006716702040288916,8.844862400024932e-05
0.105,0.00017171557400001643,-0.7852864249999996,3.8679742599994924e-05,-2.35560683,9.558698550000874e-05,1.57098654,0.7859954650000001,0.04,0.0399999985,-9.826913899999994,0.0013505442999316886,0.0030676471499960552,-0.00022012523800059273,-0.006825203821067184,9.513411800025537e-05
0.1075,0.00017214584600001683,-0.7852758124999996,3.85468248999948e-05,-2.355615095,9.581580825000894e-05,1.57098666,0.7859950975000001,0.04,0.03999999775,-9.826740349999994,0.001387157919818067,0.0029643804749959614,-0.00023564276200060684,-0.006933705601845453,0.00010181961200026146
0.11,0.00017257611800001722,-0.7852651999999996,3.8413907199994685e-05,-2.35562336,9.604463100000915e-05,1.57098678,0.78599473,0.04,0.039999997,-9.826566799999993,0.0014237715397044453,0.0028611137999958675,-0.000251160286000621,-0.007042207382623722,0.00010850510600026754
0.1125,0.0001730063900000176,-0.7852545874999995,3.828098949999456e-05,-2.355631625,9.627345375000936e-05,1.5709869,0.7859943625,0.04,0.03999999625,-9.826393249999994,0.0014603851595908234,0.002757847124995773,-0.0002666778100006351,-0.007150709163401991,0.00011519060000027363
0.115,0.000173436662000018,-0.7852439749999995,3.814807179999444e-05,-2.35563989,9.650227650000957e-05,1.57098702,0.785993995,0.04,0.0399999955,-9.826219699999994,0.0014969987794772018,0.0026545804499956793,-0.00028219533400064925,-0.0072592109441802595,0.00012187609400027971
0.11750000000000001,0.00017393283350002685,-0.7852336249999996,3.79947573499917e-05,-2.3556478800000002,9.676527575001416e-05,1.570987145,0.7859935595,0.04,0.039999995,-9.8260923,0.0015347872627916059,0.0025535840499958766,-0.00029933166500087095,-0.0073670919053302085,0.00012915146350036145
0.12,0.00017456080400002743,-0.7852237999999996,3.780064939999153e-05,-2.3556553200000003,9.709662800001447e-05,1.57098728,0.7859929880000001,0.04,0.039999995,-9.8260572,0.0015749254729616122,0.0024571281999957893,-0.0003197056100008894,-0.007473731227223755,0.0001376065840003691
0.1225,0.000175188774500028,-0.7852139749999996,3.760654144999135e-05,-2.35566276,9.742798025001476e-05,1.570987415,0.7859924165,0.04,0.039999995,-9.8260221,0.0016150636831316187,0.0023606723499957015,-0.00034007955500090794,-0.007580370549117302,0.0001460617045003768
0.125,0.00017581674500002857,-0.7852041499999995,3.741243349999117e-05,-2.3556702,9.775933250001507e-05,1.5709875500000001,0.785991845,0.04,0.039999995,-9.825987,0.0016552018933016252,0.002264216499995614,-0.0003604535000009265,-0.007687009871010849,0.0001545168250003845
0.1275,0.00017644471550002915,-0.7851943249999995,3.721832554999099e-05,-2.35567764,9.809068475001536e-05,1.570987685,0.7859912735,0.04,0.039999995,-9.825951899999998,0.001695340103471632,0.0021677606499955256,-0.0003808274450009451,-0.007793649192904396,0.0001629719455003922
0.13,0.00017707268600002972,-0.7851844999999995,3.702421759999082e-05,-2.35568508,9.842203700001567e-05,1.57098782,0.785990702,0.04,0.039999995,-9.825916799999998,0.0017354783136416384,0.002071304799995438,-0.0004012013900009636,-0.007900288514797944,0.0001714270660003999
0.1325,0.0001777006565000303,-0.7851746749999995,3.6830109649990644e-05,-2.3556925200000003,9.875338925001596e-05,1.570987955,0.7859901305,0.04,0.039999995,-9.825881699999998,0.001775616523811645,0.00197484894999535,-0.00042157533500098213,-0.008006927836691491,0.0001798821865004076
0.135,0.00017849280800004294,-0.7851652999999995,3.6585221899986724e-05,-2.35569927,9.916903300002249e-05,1.5709883900000001,0.7859893659999999,0.04,0.0399999955,-9.825811899999996,0.0018172606825849124,0.0018929559199963354,-0.0004452260750012421,-0.008112181257461645,0.00018963328600051077
0.1375,0.00017936705000004376,-0.7851561499999995,3.6314944249986474e-05,-2.3557056750000003,9.96268225000229e-05,1.5709889750000001,0.785988505,0.04,0.03999999625,-9.825724749999996,0.001859657815659646,0.0018183442999962674,-0.00047051521250126514,-0.008216741727670255,0.00020003237500052025
0.14,0.00018024129200004454,-0.7851469999999995,3.604466659998623e-05,-2.3557120800000004,0.00010008461200002332,1.5709895600000001,0.785987644,0.04,0.039999997,-9.825637599999995,0.0019020549487343797,0.0017437326799961995,-0.0004958043500012881,-0.008321302197878865,0.00021043146400052972
0.14250000000000002,0.00018111553400004533,-0.7851378499999995,3.577438894998598e-05,-2.355718485,0.00010054240150002374,1.5709901450000001,0.7859867829999999,0.04,0.03999999775,-9.825550449999996,0.0019444520818091132,0.0016691210599961315,-0.0005210934875013112,-0.008425862668087475,0.00022083055300053917
0.145,0.00018198977600004612,-0.7851286999999995,3.550411129998574e-05,-2.3557248900000003,0.00010100019100002415,1.5709907300000001,0.785985922,0.04,0.0399999985,-9.825463299999996,0.001986849214883846,0.0015945094399960644,-0.0005463826250013339,-0.008530423138296085,0.00023122964200054854
0.1475,0.00018286401800004693,-0.7851195499999994,3.5233833649985496e-05,-2.3557312950000004,0.00010145798050002457,1.570991315,0.785985061,0.04,0.03999999925,-9.825376149999995,0.0020292463479585797,0.0015198978199959965,-0.0005716717625013569,-0.008634983608504695,0.00024162873100055802
0.15,0.000183738260000064,-0.7851103999999995,3.496355599998022e-05,-2.3557377000000006,0.0001019157700000336,1.5709919,0.7859841999999999,0.04,0.04,-9.825288999999996,0.0020716434810338523,0.001445286199996091,-0.0005969609000016547,-0.008739544078713109,0.00025202782000070687
0.1525,0.00018491087300006508,-0.7851018544999995,3.460102504997989e-05,-2.3557429950000004,0.00010253141890003415,1.5709925900000001,0.78598306,0.04,0.0399999985,-9.825208299999995,0.0021239120862475195,0.0013736517649960258,-0.0006272858390016824,-0.008840499352669265,0.00026498182000071866
0.155,0.00018608348600006615,-0.7850933089999995,3.423849409997956e-05,-2.3557482900000006,0.00010314706780003472,1.5709932800000002,0.78598192,0.04,0.039999997,-9.825127599999995,0.002176180691461187,0.0013020173299959606,-0.0006576107780017099,-0.008941454626625423,0.00027793582000073044
0.1575,0.0001872560990000672,-0.7850847634999996,3.387596314997922e-05,-2.3557535850000004,0.00010376271670003528,1.57099397,0.7859807799999999,0.04,0.0399999955,-9.825046899999995,0.002228449296674855,0.0012303828949958955,-0.0006879357170017376,-0.00904240990058158,0.00029088982000074223
0.16,0.00018842871200006826,-0.7850762179999995,3.351343219997889e-05,-2.35575888,0.00010437836560003584,1.57099466,0.78597964,0.04,0.039999994,-9.824966199999995,0.0022807179018885224,0.0011587484599958303,-0.0007182606560017651,-0.009143365174537737,0.000303843820000754
0.1625,0.00018960132500006933,-0.7850676724999995,3.315090124997856e-05,-2.3557641750000005,0.0001049940145000364,1.57099535,0.7859784999999999,0.04,0.0399999925,-9.824885499999995,0.00233298650710219,0.001087114024995765,-0.0007485855950017928,-0.009244320448493893,0.0003167978200007658
0.165,0.0001907739380000704,-0.7850591269999996,3.2788370299978233e-05,-2.3557694700000003,0.00010560966340003696,1.57099604,0.78597736,0.04,0.039999991,-9.824804799999994,0.0023852551123158578,0.0010154795899956998,-0.0007789105340018204,-0.009345275722450051,0.0003297518200007776
0.1675,0.00019206444600008608,-0.7850507659999996,3.238942544997339e-05,-2.3557744750000005,0.0001062854642000449,1.57099674,0.7859761224999999,0.04,0.0399999905,-9.824733249999996,0.002438121719754544,0.0009508035679971376,-0.0008111117920020275,-0.009445609711116118,0.000343329462500836
0.17,0.00019359074400006665,-0.7850427739999997,3.19176527999794e-05,-2.3557789000000002,0.00010708156880003476,1.57099746,0.78597469,0.04,0.039999992,-9.824679999999997,0.0024921843316429403,0.0009000443719977838,-0.0008470656880015697,-0.009544701129202346,0.00035815439000064724
0.17250000000000001,0.0001951170420000472,-0.7850347819999998,3.1445880149985407e-05,-2.355783325,0.00010787767340002462,1.57099818,0.7859732575,0.04,0.0399999935,-9.824626749999998,0.002546246943531337,0.0008492851759984301,-0.000883019584001112,-0.009643792547288576,0.0003729793175004585
0.17500000000000002,0.0001966433400000278,-0.7850267899999999,3.097410749999142e-05,-2.35578775,0.00010867377800001449,1.5709989,0.785971825,0.04,0.039999995,-9.824573499999998,0.0026003095554197335,0.0007985259799990764,-0.0009189734800006541,-0.009742883965374803,0.00038780424500026975
0.1775,0.0001981696380000083,-0.785018798,3.0502334849997428e-05,-2.355792175,0.00010946988260000434,1.57099962,0.7859703925,0.04,0.0399999965,-9.824520249999999,0.00265437216730813,0.0007477667839997232,-0.000954927376000196,-0.009841975383461031,0.00040262917250008084
0.18,0.0001996959359999889,-0.7850108060000001,3.0030562200003435e-05,-2.3557965999999997,0.00011026598719999421,1.57100034,0.78596896,0.04,0.039999998,-9.824467,0.0027084347791965263,0.0006970075880003695,-0.0009908812719997382,-0.00994106680154726,0.0004174540999998921
0.1825,0.00020122223399996944,-0.7850028140000002,2.9558789550009442e-05,-2.355801025,0.00011106209179998408,1.57100106,0.7859675275,0.04,0.0399999995,-9.824413750000001,0.002762497391084923,0.0006462483920010157,-0.0010268351679992805,-0.010040158219633487,0.00043227902749970335
0.185,0.00020302298999997178,-0.7849951490000001,2.9002280500008716e-05,-2.35580491,0.00011199998649998532,1.57100215,0.785965751,0.04,0.04,-9.824376200000001,0.0028189808828747104,0.0006127325260003624,-0.0010669263799993863,-0.010139898397026973,0.00044883631299974644
0.1875,0.000204960975,-0.7849876474999999,2.840340325e-05,-2.3558085249999996,0.00011300877625,1.571003425,0.7859638025,0.04,0.04,-9.8243465,0.002876674814615325,0.000587838325,-0.0011090862499999999,-0.010239962954074125,0.00046625977750000005
0.19,0.0002068989600000282,-0.7849801459999999,2.7804525999991285e-05,-2.35581214,0.00011401756600001468,1.5710047,0.785961854,0.04,0.04,-9.8243168,0.0029343687463559394,0.0005629441239996377,-0.0011512461200006135,-0.010340027511121277,0.00048368324200025355
0.1925,0.0002088369450000564,-0.7849726444999998,2.720564874998257e-05,-2.355815755,0.00011502635575002936,1.571005975,0.7859599055,0.04,0.04,-9.8242871,0.002992062678096554,0.0005380499229992754,-0.001193405990001227,-0.010440092068168427,0.0005011067065005072
0.195,0.00021077493000008462,-0.7849651429999996,2.6606771499973853e-05,-2.35581937,0.00011603514550004404,1.57100725,0.7859579569999999,0.04,0.04,-9.824257399999999,0.003049756609837169,0.0005131557219989132,-0.0012355658600018407,-0.01054015662521558,0.0005185301710007607
0.1975,0.0002127129150001128,-0.7849576414999996,2.6007894249965138e-05,-2.355822985,0.00011704393525005872,1.571008525,0.7859560084999999,0.04,0.04,-9.8242277,0.0031074505415777834,0.00048826152099855087,-0.0012777257300024543,-0.010640221182262731,0.0005359536355010143
0.2,0.00021465090000017536,-0.7849501399999994,2.540901699994582e-05,-2.3558266,0.00011805272500009124,1.5710098000000001,0.7859540599999998,0.04,0.04,-9.824198000000003,0.0031651444733191334,0.0004633673199981361,-0.0013198856000034734,-0.010740285739309841,0.0005533771000014599
0.2025,0.00021706096950017755,-0.7849430239999995,2.4664406949945143e-05,-2.3558294650000002,0.00011930653225009237,1.57101139,0.7859517259999999,0.04,0.04,-9.824211050000002,0.003232944814958865,0.00043775227749811283,-0.0013676199500035169,-0.010839794995270512,0.0005734399690014781
0.20500000000000002,0.00021947103900017974,-0.7849359079999995,2.3919796899944463e-05,-2.35583233,0.00012056033950009352,1.5710129800000001,0.7859493919999998,0.04,0.04,-9.824224100000002,0.003300745156598597,0.0004121372349980895,-0.0014153543000035604,-0.010939304251231182,0.0005935028380014964
0.20750000000000002,0.00022188110850018196,-0.7849287919999994,2.3175186849943786e-05,-2.355835195,0.00012181414675009466,1.57101457,0.7859470579999999,0.04,0.04,-9.824237150000002,0.0033685454982383283,0.0003865221924980662,-0.0014630886500036037,-0.011038813507191853,0.0006135657070015147
0.21,0.00022429117800018412,-0.7849216759999994,2.2430576799943116e-05,-2.3558380600000004,0.00012306795400009578,1.57101616,0.7859447239999998,0.04,0.04,-9.824250200000002,0.0034363458398780594,0.00036090714999804317,-0.0015108230000036465,-0.011138322763152523,0.0006336285760015327
0.2125,0.0002267012475001863,-0.7849145599999994,2.168596674994244e-05,-2.3558409250000003,0.0001243217612500969,1.5710177500000002,0.7859423899999998,0.04,0.04,-9.824263250000001,0.0035041461815177913,0.00033529210749801987,-0.00155855735000369,-0.011237832019113193,0.000653691445001551
0.215,0.0002291113170001885,-0.7849074439999993,2.094135669994176e-05,-2.35584379,0.00012557556850009807,1.57101934,0.7859400559999998,0.04,0.04,-9.824276300000001,0.003571946523157523,0.0003096770649979965,-0.0016062917000037335,-0.011337341275073864,0.0006737543140015693
0.2175,0.000231699572500233,-0.7849004374999994,2.014175324992803e-05,-2.3558462700000002,0.00012692233600012127,1.5710210200000003,0.7859375434999998,0.04,0.04,-9.8242875,0.003639494220265765,0.00029079842049957227,-0.0016562582000043068,-0.011437412677340709,0.0006947441350018075
0.22,0.0002346442000002357,-0.7848936499999994,1.92321629999272e-05,-2.3558479800000005,0.00012845502400012267,1.5710228800000001,0.7859346739999997,0.04,0.04,-9.824295000000001,0.003706536628311206,0.0002853925719995673,-0.0017106890000043564,-0.0115386083722195,0.0007175878600018283
0.2225,0.00023758882750023836,-0.7848868624999994,1.8322572749926373e-05,-2.3558496900000003,0.00012998771200012406,1.5710247400000001,0.7859318044999998,0.04,0.04,-9.8243025,0.003773579036356647,0.0002799867234995624,-0.001765119800004406,-0.011639804067098292,0.0007404315850018491
0.225,0.00024053345500024104,-0.7848800749999993,1.7412982499925545e-05,-2.3558514,0.00013152040000012546,1.5710266000000002,0.7859289349999997,0.04,0.04,-9.82431,0.003840621444402088,0.0002745808749995575,-0.0018195506000044555,-0.011740999761977084,0.0007632753100018699
0.2275,0.00024347808250024374,-0.7848732874999994,1.6503392249924715e-05,-2.3558531100000004,0.00013305308800012685,1.5710284600000002,0.7859260654999998,0.04,0.04,-9.8243175,0.003907663852447529,0.0002691750264995526,-0.001873981400004505,-0.011842195456855876,0.0007861190350018908
0.23,0.0002464227100002464,-0.7848664999999994,1.5593801999923887e-05,-2.3558548200000002,0.00013458577600012825,1.5710303200000002,0.7859231959999997,0.04,0.04,-9.824325,0.00397470626049297,0.0002637691779995476,-0.0019284122000045546,-0.01194339115173467,0.0008089627600019115
0.2325,0.0002493673375002491,-0.7848597124999994,1.468421174992306e-05,-2.3558565300000005,0.00013611846400012965,1.5710321800000002,0.7859203264999998,0.04,0.04,-9.8243325,0.004041748668538411,0.00025836332949954273,-0.001982843000004604,-0.012044586846613461,0.0008318064850019323
0.23500000000000001,0.00025271120200030296,-0.7848531109999994,1.3651478599906438e-05,-2.35585749,0.00013785713800015746,1.5710344200000002,0.7859170529999997,0.0399999995,0.04,-9.824344450000002,0.004115085676318909,0.0002646998070010437,-0.002041572500005205,-0.01214662101120628,0.0008562149140021538
0.23750000000000002,0.0002562546850003062,-0.7848466024999994,1.2557173999905442e-05,-2.355858075,0.00013969880500015915,1.5710368500000003,0.7859135774999997,0.03999999875,0.04,-9.824358625,0.0041915699839657344,0.00027690744750105483,-0.0021024513500052604,-0.012249074410655954,0.0008814056950021767
0.24,0.0002597981680003094,-0.7848400939999994,1.1462869399904458e-05,-2.35585866,0.0001415404720001608,1.5710392800000001,0.7859101019999997,0.039999998,0.04,-9.8243728,0.004268054291612558,0.0002891150880010658,-0.002163330200005315,-0.012351527810105626,0.0009065964760021993
0.2425,0.00026334165100031263,-0.7848335854999994,1.036856479990346e-05,-2.355859245,0.00014338213900016246,1.5710417100000003,0.7859066264999998,0.03999999725,0.04,-9.824386975000001,0.004344538599259383,0.0003013227285010769,-0.0022242090500053705,-0.012453981209555298,0.0009317872570022222
0.245,0.00026688513400031585,-0.7848270769999994,9.274260199902467e-06,-2.35585983,0.00014522380600016414,1.5710441400000001,0.7859031509999997,0.0399999965,0.04,-9.824401150000002,0.004421022906906207,0.00031353036900108806,-0.002285087900005426,-0.012556434609004971,0.0009569780380022453
0.2475,0.0002704286170003191,-0.7848205684999994,8.17995559990147e-06,-2.355860415,0.00014706547300016582,1.5710465700000003,0.7858996754999997,0.03999999575,0.04,-9.824415325000002,0.004497507214553032,0.00032573800950109913,-0.0023459667500054814,-0.012658888008454645,0.0009821688190022682
0.25,0.00027397210000038274,-0.7848140599999994,7.0856509998818295e-06,-2.355861,0.00014890714000019887,1.5710490000000001,0.7858961999999997,0.039999995,0.04,-9.8244295,0.004573991522200045,0.00033794565000178214,-0.002406845600006137,-0.01276134140790438,0.0010073596000025667
0.2525,0.0002781801175003866,-0.7848077809999994,5.786353294880647e-06,-2.355860415,0.00015109364500020086,1.5710519850000002,0.7858920659999996,0.039999994250000004,0.04,-9.824419975,0.004652546090081046,0.0003575404485018,-0.0024743219600061985,-0.012864473322415804,0.0010355810950025924
0.255,0.0002823881350003904,-0.7848015019999994,4.487055589879464e-06,-2.35585983,0.00015328015000020285,1.5710549700000003,0.7858879319999996,0.039999993500000004,0.04,-9.82441045,0.004731100657962048,0.0003771352470018178,-0.00254179832000626,-0.012967605236927228,0.0010638025900026181
0.2575,0.0002865961525003942,-0.7847952229999994,3.187757884878281e-06,-2.355859245,0.00015546665500020484,1.5710579550000003,0.7858837979999996,0.039999992750000005,0.04,-9.824400924999999,0.0048096552258430495,0.0003967300455018357,-0.002609274680006321,-0.01307073715143865,0.0010920240850026438
0.26,0.00029080417000039807,-0.7847889439999994,1.8884601798770978e-06,-2.35585866,0.00015765316000020683,1.5710609400000002,0.7858796639999996,0.039999992,0.04,-9.8243914,0.004888209793724051,0.00041632484400185347,-0.0026767510400063825,-0.013173869065950075,0.0011202455800026696
0.2625,0.0002950121875004019,-0.7847826649999994,5.891624748759153e-07,-2.355858075,0.00015983966500020882,1.5710639250000002,0.7858755299999997,0.03999999125,0.04,-9.824381874999998,0.004966764361605053,0.00043591964250187137,-0.002744227400006444,-0.013277000980461499,0.0011484670750026953
0.265,0.0002992202050004057,-0.7847763859999994,-7.10135230125268e-07,-2.35585749,0.0001620261700002108,1.5710669100000003,0.7858713959999997,0.0399999905,0.04,-9.824372349999999,0.005045318929486053,0.00045551444100188916,-0.0028117037600065057,-0.013380132894972923,0.001176688570002721
0.2675,0.00030367207750048075,-0.7847701684999995,-2.0846372651484073e-06,-2.35585653,0.00016433916750024973,1.5710700650000002,0.7858670309999995,0.0399999899,0.03999999975,-9.824377350000002,0.005127649405048547,0.0004831007880042403,-0.0028814253300072225,-0.01348373787478626,0.001205853565003022
0.27,0.00030861166000048523,-0.7847640739999995,-3.6095479601497955e-06,-2.35585482,0.00016690515000025206,1.5710735600000003,0.7858622039999995,0.0399999896,0.039999999,-9.824411400000002,0.005217531695970729,0.00052667023200428,-0.00295563732000729,-0.01358828898520301,0.0012369055600030504
0.2725,0.0003135512425004897,-0.7847579794999995,-5.134458655151184e-06,-2.35585311,0.0001694711325002544,1.5710770550000004,0.7858573769999995,0.0399999893,0.03999999825,-9.824445450000002,0.0053074139868929116,0.0005702396760043196,-0.0030298493100073577,-0.01369284009561976,0.0012679575550030785
0.275,0.00031849082500049424,-0.7847518849999995,-6.659369350152571e-06,-2.3558514,0.00017203711500025673,1.5710805500000005,0.7858525499999995,0.039999989,0.0399999975,-9.824479500000002,0.005397296277815093,0.0006138091200043592,-0.003104061300007425,-0.01379739120603651,0.001299009550003107
0.2775,0.0003234304075004987,-0.7847457904999994,-8.18428004515396e-06,-2.35584969,0.00017460309750025907,1.5710840450000003,0.7858477229999995,0.0399999887,0.03999999675,-9.824513550000002,0.005487178568737275,0.0006573785640043989,-0.003178273290007493,-0.01390194231645326,0.001330061545003135
0.28,0.00032836999000050325,-0.7847396959999994,-9.70919074015535e-06,-2.35584798,0.0001771690800002614,1.5710875400000004,0.7858428959999995,0.0399999884,0.039999996,-9.824547600000004,0.0055770608596594565,0.0007009480080044385,-0.0032524852800075604,-0.01400649342687001,0.0013611135400031634
0.28250000000000003,0.0003333095725005077,-0.7847336014999994,-1.1234101435156737e-05,-2.35584627,0.00017973506250026374,1.5710910350000005,0.7858380689999994,0.0399999881,0.03999999525,-9.824581650000004,0.005666943150581638,0.0007445174520044782,-0.003326697270007628,-0.01411104453728676,0.0013921655350031916
0.28500000000000003,0.0003387822120005951,-0.7847275759999994,-1.2923384200183693e-05,-2.3558437899999998,0.00018257751200030908,1.5710949000000005,0.7858327289999993,0.0399999876,0.039999994500000004,-9.824602400000002,0.005755548411989312,0.0007987781000061808,-0.00340556826000842,-0.014217050094168506,0.0014251313000035175
0.28750000000000003,0.00034452138000060035,-0.7847215849999994,-1.4694853000185306e-05,-2.355840925,0.0001855581950003118,1.5710989500000005,0.7858271324999994,0.039999987,0.039999993750000004,-9.824616500000001,0.005843515158640027,0.0008583843500062352,-0.003486768750008494,-0.014323782874282414,0.0014590539500035486
0.29,0.0003502605480006054,-0.7847155939999994,-1.6466321800186878e-05,-2.35583806,0.00018853887800031444,1.5711030000000006,0.7858215359999994,0.0399999864,0.039999993000000005,-9.824630600000003,0.00593148190529074,0.0009179906000062881,-0.0035679692400085662,-0.01443051565439632,0.0014929766000035785
0.2925,0.00035599971600061065,-0.7847096029999994,-1.823779060018849e-05,-2.3558351949999996,0.00019151956100031716,1.5711070500000004,0.7858159394999994,0.0399999858,0.03999999225,-9.824644700000002,0.006019448651941455,0.0009775968500063423,-0.00364916973000864,-0.014537248434510226,0.0015268992500036094
0.295,0.0003617388840006159,-0.7847036119999994,-2.0009259400190104e-05,-2.3558323299999997,0.00019450024400031988,1.5711111000000004,0.7858103429999994,0.039999985200000004,0.0399999915,-9.824658800000002,0.00610741539859217,0.0010372031000063966,-0.0037303702200087137,-0.014643981214624133,0.0015608219000036404
0.2975,0.0003674780520006211,-0.7846976209999993,-2.1780728200191714e-05,-2.355829465,0.00019748092700032257,1.5711151500000005,0.7858047464999994,0.0399999846,0.03999999075,-9.824672900000003,0.006195382145242885,0.001096809350006451,-0.0038115707100087877,-0.01475071399473804,0.0015947445500036712
0.3,0.0003732172200007211,-0.7846916299999993,-2.355219700022255e-05,-2.3558265999999994,0.00020046161000037444,1.5711192000000005,0.7857991499999993,0.039999984,0.03999999,-9.824687000000008,0.006283348891895284,0.0011564156000086155,-0.0038927712000096327,-0.014857446774852302,0.001628667200004005
0.3025,0.00037982474400072714,-0.7846856764999993,-2.5591413850224407e-05,-2.3558225649999995,0.00020389257200037757,1.5711238500000007,0.7857926849999993,0.03999998295,0.0399999897,-9.824755850000008,0.006386745185602583,0.0012353590700086873,-0.003981037350009713,-0.014967428101238743,0.0016653656450040385
0.305,0.0003864322680007331,-0.7846797229999993,-2.7630630700226262e-05,-2.3558185299999996,0.00020732353400038068,1.5711285000000006,0.7857862199999993,0.0399999819,0.0399999894,-9.824824700000008,0.006490141479309882,0.0013143025400087593,-0.004069303500009794,-0.015077409427625182,0.0017020640900040718
0.3075,0.00039303979200073916,-0.7846737694999993,-2.966984755022812e-05,-2.3558144949999993,0.0002107544960003838,1.5711331500000005,0.7857797549999993,0.03999998085,0.0399999891,-9.824893550000008,0.0065935377730171815,0.0013932460100088311,-0.004157569650009874,-0.015187390754011623,0.0017387625350041053
0.31,0.00039964731600074515,-0.7846678159999994,-3.170906440022998e-05,-2.3558104599999994,0.00021418545800038695,1.5711378000000005,0.7857732899999993,0.0399999798,0.0399999888,-9.824962400000008,0.006696934066724481,0.001472189480008903,-0.004245835800009954,-0.015297372080398063,0.0017754609800041388
0.3125,0.0004062548400007512,-0.7846618624999994,-3.3748281250231833e-05,-2.3558064249999995,0.00021761642000039006,1.5711424500000004,0.7857668249999993,0.03999997875,0.0399999885,-9.825031250000007,0.006800330360431779,0.001551132950008975,-0.004334101950010035,-0.015407353406784504,0.001812159425004172
0.315,0.00041286236400075717,-0.7846559089999994,-3.5787498100233695e-05,-2.3558023899999996,0.0002210473820003932,1.5711471000000006,0.7857603599999993,0.0399999777,0.0399999882,-9.825100100000007,0.006903726654139079,0.0016300764200090467,-0.004422368100010115,-0.015517334733170943,0.0018488578700042056
0.3175,0.0004197824690009058,-0.7846499579999994,-3.792309095027953e-05,-2.355797924999999,0.0002246404720004703,1.5711519650000005,0.7857535874999991,0.03999997665,0.0399999876,-9.825161500000005,0.007006597868179084,0.0017126625300107894,-0.0045129438900114284,-0.0156285005156087,0.0018865753700047728
0.32,0.00042732773600101564,-0.7846440119999992,-4.0251435800313417e-05,-2.355792599999999,0.0002285578180005273,1.5711572600000006,0.7857461999999991,0.0399999756,0.0399999864,-9.825208000000007,0.007108418922885045,0.0018025339200120974,-0.004608138960012814,-0.015742035210147862,0.0019263309800053514
0.3225,0.00043487300300112545,-0.7846380659999992,-4.2579780650347296e-05,-2.355787274999999,0.00023247516400058433,1.5711625550000008,0.7857388124999989,0.03999997455,0.0399999852,-9.825254500000007,0.0072102399775910075,0.0018924053100134051,-0.0047033340300141994,-0.015855569904687027,0.00196608659000593
0.325,0.00044241827000123527,-0.784632119999999,-4.490812550038118e-05,-2.355781949999999,0.00023639251000064134,1.5711678500000008,0.7857314249999988,0.0399999735,0.039999983999999995,-9.825301000000009,0.00731206103229697,0.001982276700014713,-0.0047985291000155845,-0.015969104599226187,0.0020058422000065086
0.3275,0.00044996353700134503,-0.784626173999999,-4.723647035041506e-05,-2.355776624999999,0.00024030985600069832,1.5711731450000008,0.7857240374999988,0.039999972450000004,0.0399999828,-9.825347500000008,0.007413882087002931,0.002072148090016021,-0.0048937241700169705,-0.01608263929376535,0.002045597810007087
0.33,0.00045750880400145485,-0.7846202279999989,-4.956481520044895e-05,-2.355771299999999,0.00024422720200075533,1.5711784400000008,0.7857166499999986,0.0399999714,0.0399999816,-9.82539400000001,0.007515703141708893,0.0021620194800173287,-0.0049889192400183555,-0.016196173988304512,0.0020853534200076657
0.3325,0.00046505407100156466,-0.7846142819999988,-5.1893160050482835e-05,-2.355765974999999,0.00024814454800081237,1.571183735000001,0.7857092624999985,0.039999970350000004,0.039999980399999996,-9.82544050000001,0.0076175241964148545,0.0022518908700186364,-0.0050841143100197415,-0.016309708682843677,0.002125109030008244
0.335,0.0004732710840017425,-0.7846083199999988,-5.4428597900537655e-05,-2.3557597399999985,0.00025241023700090453,1.5711894200000012,0.7857012349999983,0.039999969,0.039999979299999995,-9.825504000000015,0.007730701519200525,0.0023575397400231314,-0.005184023070020835,-0.016425515525066766,0.0021668282800087
0.3375,0.00048182397000163363,-0.7846023499999989,-5.706758225050405e-05,-2.355753049999999,0.00025685009750084803,1.571195300000001,0.7856928874999984,0.039999967500000004,0.03999997825,-9.825576000000014,0.007849556976020626,0.002471077350021686,-0.005286288675019533,-0.01654245844113074,0.002209529350008156
0.34,0.0004903768560015247,-0.784596379999999,-5.9706566600470454e-05,-2.3557463599999986,0.0002612899580007915,1.571201180000001,0.7856845399999985,0.039999966000000005,0.0399999772,-9.825648000000013,0.007968412432840728,0.0025846149600202402,-0.005388554280018231,-0.01665940135719471,0.0022522304200076125
0.3425,0.0004989297420014159,-0.7845904099999991,-6.234555095043686e-05,-2.355739669999999,0.000265729818500735,1.571207060000001,0.7856761924999986,0.0399999645,0.03999997615,-9.825720000000013,0.00808726788966083,0.002698152570018795,-0.005490819885016929,-0.016776344273258678,0.002294931490007069
0.34500000000000003,0.000507482628001307,-0.784584439999999,-6.498453530040326e-05,-2.355732979999999,0.00027016967900067844,1.5712129400000008,0.7856678449999988,0.039999963,0.0399999751,-9.825792000000012,0.008206123346480932,0.002811690180017349,-0.005593085490015627,-0.01689328718932265,0.002337632560006525
0.34750000000000003,0.000516035514001198,-0.7845784699999991,-6.762351965036966e-05,-2.355726289999999,0.0002746095395006219,1.5712188200000008,0.7856594974999989,0.0399999615,0.03999997405,-9.82586400000001,0.008324978803301034,0.0029252277900159037,-0.005695351095014325,-0.01701023010538662,0.002380333630005981
0.35000000000000003,0.0005245884000012264,-0.7845724999999992,-7.026250400037836e-05,-2.355719599999999,0.0002790494000006365,1.5712247000000008,0.7856511499999987,0.03999996,0.039999973,-9.825936000000006,0.008443834260120513,0.0030387654000164047,-0.00579761670001394,-0.017127173021451125,0.002423034700005814
0.3525,0.0005342189610012349,-0.7845664399999992,-7.3233725900381e-05,-2.355711469999999,0.00028404807500064097,1.5712314350000007,0.7856417224999988,0.039999959700000004,0.03999997255,-9.825982650000006,0.008557801041766634,0.003167589450016519,-0.0059070888450140375,-0.017248294316247696,0.0024686902000058543
0.355,0.0005438495220012437,-0.7845603799999992,-7.620494780038371e-05,-2.355703339999999,0.0002890467500006455,1.5712381700000009,0.7856322949999988,0.0399999594,0.0399999721,-9.826029300000007,0.008671767823412758,0.0032964135000166364,-0.006016560990014137,-0.017369415611044273,0.002514345700005896
0.3575,0.0005534800830012524,-0.7845543199999993,-7.917616970038641e-05,-2.355695209999999,0.00029404542500065006,1.5712449050000008,0.7856228674999988,0.0399999591,0.03999997165,-9.826075950000007,0.008785734605058881,0.0034252375500167537,-0.006126033135014237,-0.017490536905840848,0.0025600012000059373
0.36,0.0005631106440012612,-0.7845482599999992,-8.214739160038912e-05,-2.3556870799999987,0.0002990441000006546,1.5712516400000007,0.7856134399999988,0.0399999588,0.039999971200000005,-9.826122600000007,0.008899701386705006,0.003554061600016871,-0.006235505280014337,-0.017611658200637422,0.002605656700005979
0.3625,0.00057274120500127,-0.7845421999999992,-8.511861350039183e-05,-2.355678949999999,0.00030404277500065916,1.5712583750000009,0.7856040124999988,0.0399999585,0.03999997075,-9.826169250000007,0.009013668168351129,0.0036828856500169885,-0.006344977425014437,-0.017732779495434,0.0026513122000060207
0.365,0.0005823717660012787,-0.7845361399999992,-8.808983540039452e-05,-2.355670819999999,0.0003090414500006637,1.5712651100000008,0.7855945849999988,0.039999958200000005,0.0399999703,-9.826215900000006,0.009127634949997254,0.003811709700017106,-0.0064544495700145366,-0.017853900790230574,0.002696967700006062
0.3675,0.000592384976001441,-0.7845300449999991,-9.117901050044454e-05,-2.355662219999999,0.00031423850000074783,1.5712721100000009,0.7855847899999986,0.039999958,0.03999997015,-9.82627305000001,0.009248570865038146,0.003947131180019869,-0.006566270950015578,-0.01797606023030149,0.0027435662800064818
0.37,0.0006031634840014508,-0.7845238799999992,-9.450409200044757e-05,-2.3556526799999986,0.00031983230000075296,1.5712796400000009,0.7855742599999986,0.039999958,0.039999970600000004,-9.82635120000001,0.009383445046860214,0.004095747520020005,-0.006682790800015684,-0.018100295960919843,0.002792051020006526
0.3725,0.0006139419920014606,-0.7845177149999991,-9.78291735004506e-05,-2.355643139999999,0.000325426100000758,1.5712871700000008,0.7855637299999986,0.039999958,0.03999997105,-9.82642935000001,0.009518319228682282,0.0042443638600201394,-0.006799310650015791,-0.018224531691538197,0.00284053576000657
0.375,0.0006247205000014704,-0.7845115499999992,-0.00010115425500045362,-2.3556335999999987,0.00033101990000076315,1.571294700000001,0.7855531999999986,0.039999958,0.0399999715,-9.82650750000001,0.00965319341050435,0.004392980200020275,-0.006915830500015896,-0.01834876742215655,0.002889020500006614
0.3775,0.0006354990080014803,-0.7845053849999992,-0.00010447933650045665,-2.355624059999999,0.0003366137000007682,1.571302230000001,0.7855426699999986,0.039999958,0.039999971950000004,-9.82658565000001,0.009788067592326418,0.0045415965400204105,-0.007032350350016002,-0.018473003152774902,0.0029375052400066586
0.38,0.0006462775160014901,-0.7844992199999992,-0.00010780441800045967,-2.3556145199999987,0.00034220750000077334,1.571309760000001,0.7855321399999985,0.039999958,0.0399999724,-9.826663800000011,0.009922941774148486,0.004690212880020545,-0.007148870200016109,-0.018597238883393256,0.0029859899800067026
0.3825,0.0006570560240014999,-0.7844930549999992,-0.0001111294995004627,-2.355604979999999,0.0003478013000007784,1.571317290000001,0.7855216099999985,0.039999958,0.03999997285,-9.826741950000011,0.010057815955970554,0.004838829220020681,-0.007265390050016214,-0.01872147461401161,0.0030344747200067466
0.385,0.0006686466280016803,-0.7844867799999992,-0.00011470490400051831,-2.3555944099999984,0.000353816214000872,1.571325420000001,0.7855102869999984,0.039999958,0.039999973,-9.826808500000007,0.010189483966696567,0.0049982953400230954,-0.007386661600017319,-0.018848676607030736,0.003085015880007223
0.3875,0.0006806432800016913,-0.7844804499999991,-0.00011840547000052169,-2.3555833249999982,0.00036004168500087765,1.5713338500000011,0.7854985674999984,0.039999958,0.039999973,-9.826869250000009,0.01031954889187556,0.005163186350023246,-0.007510309000017431,-0.018977361731249316,0.00313658525000727
0.39,0.0006926399320017022,-0.7844741199999992,-0.00012210603600052507,-2.3555722399999985,0.0003662671560008833,1.5713422800000012,0.7854868479999983,0.039999958,0.039999973,-9.826930000000008,0.010449613817054554,0.005328077360023395,-0.007633956400017544,-0.0191060468554679,0.003188154620007317
0.3925,0.0007046365840017131,-0.7844677899999991,-0.00012580660200052843,-2.3555611549999984,0.000372492627000889,1.5713507100000013,0.7854751284999983,0.039999958,0.039999973,-9.826990750000009,0.010579678742233548,0.005492968370023546,-0.007757603800017656,-0.019234731979686483,0.003239723990007364
0.395,0.000716633236001724,-0.7844614599999991,-0.00012950716800053179,-2.3555500699999983,0.0003787180980008947,1.5713591400000013,0.7854634089999983,0.039999958,0.039999973,-9.827051500000008,0.010709743667412541,0.005657859380023696,-0.007881251200017769,-0.019363417103905062,0.003291293360007411
0.3975,0.0007286298880017349,-0.784455129999999,-0.00013320773400053517,-2.355538984999998,0.00038494356900090033,1.5713675700000014,0.7854516894999983,0.039999958,0.039999973,-9.82711225000001,0.010839808592591534,0.005822750390023846,-0.008004898600017882,-0.019492102228123646,0.003342862730007458
0.4,0.0007406265400019333,-0.784448799999999,-0.00013690830000059634,-2.355527899999998,0.0003911690400010032,1.5713760000000014,0.7854399699999981,0.039999958,0.039999973,-9.827173000000009,0.01096987351777273,0.0059876414000273525,-0.008128546000019037,-0.01962078735234276,0.003394432100007934
0.4025,0.0007539113890019454,-0.784442244999999,-0.00014100596700060005,-2.355515164999998,0.00039806236950100946,1.5713853150000014,0.785426984499998,0.039999958,0.039999973,-9.82723750000001,0.011115068197271542,0.006175595240027524,-0.008259356050019156,-0.019753137324024707,0.0034489486850079834
0.405,0.0007671962380019575,-0.784435689999999,-0.00014510363400060378,-2.355502429999998,0.00040495569900101573,1.5713946300000015,0.7854139989999981,0.039999958,0.039999973,-9.82730200000001,0.011260262876770354,0.006363549080027695,-0.008390166100019275,-0.019885487295706654,0.003503465270008033
0.40750000000000003,0.0007804810870019696,-0.784429134999999,-0.0001492013010006075,-2.355489694999998,0.000411849028501022,1.5714039450000015,0.785401013499998,0.039999958,0.039999973,-9.827366500000009,0.011405457556269167,0.006551502920027866,-0.008520976150019394,-0.020017837267388598,0.0035579818550080826
0.41000000000000003,0.0007937659360019817,-0.784422579999999,-0.00015329896800061124,-2.355476959999998,0.0004187423580010283,1.5714132600000015,0.7853880279999981,0.039999958,0.039999973,-9.82743100000001,0.01155065223576798,0.0067394567600280375,-0.008651786200019513,-0.020150187239070545,0.0036124984400081324
0.41250000000000003,0.0008070507850019939,-0.784416024999999,-0.00015739663500061497,-2.355464224999998,0.00042563568750103456,1.5714225750000015,0.785375042499998,0.039999958,0.039999973,-9.82749550000001,0.01169584691526679,0.006927410600028208,-0.008782596250019632,-0.020282537210752488,0.0036670150250081818
0.41500000000000004,0.0008203356340020059,-0.7844094699999989,-0.0001614943020006187,-2.3554514899999983,0.00043252901700104084,1.5714318900000013,0.7853620569999981,0.039999958,0.039999973,-9.827560000000009,0.011841041594765603,0.007115364440028379,-0.00891340630001975,-0.020414887182434435,0.003721531610008231
0.4175,0.000834073158002224,-0.784402841499999,-0.0001657314975006859,-2.355438244999998,0.0004396570050011539,1.5714415200000016,0.7853486324999978,0.0399999581,0.03999997335,-9.827634850000015,0.011991798458645446,0.007311884250032449,-0.009046559050020934,-0.02054866859691422,0.003776983650008706
0.42,0.0008487160320022374,-0.7843960659999989,-0.00017024775000069002,-2.355423979999998,0.00044725431000116077,1.5714517800000014,0.7853343299999979,0.0399999584,0.0399999744,-9.827730400000014,0.012153679691279774,0.007525536000032643,-0.00918439720002106,-0.02068531289698774,0.003834306600008758
0.4225,0.0008633589060022506,-0.784389290499999,-0.00017476400250069415,-2.3554097149999977,0.0004548516150011677,1.5714620400000014,0.7853200274999979,0.039999958700000005,0.03999997545,-9.827825950000014,0.012315560923914101,0.007739187750032838,-0.009322235350021186,-0.020821957197061258,0.0038916295500088104
0.425,0.000878001780002264,-0.784382514999999,-0.00017928025500069824,-2.355395449999998,0.0004624489200011746,1.5714723000000015,0.7853057249999978,0.039999959,0.0399999765,-9.827921500000015,0.012477442156548429,0.007952839500033032,-0.009460073500021312,-0.020958601497134778,0.003948952500008863
0.4275,0.0008926446540022773,-0.784375739499999,-0.00018379650750070236,-2.355381184999998,0.00047004622500118154,1.5714825600000015,0.7852914224999978,0.0399999593,0.039999977549999996,-9.828017050000014,0.012639323389182756,0.008166491250033226,-0.009597911650021437,-0.021095245797208298,0.004006275450008915
0.43,0.0009072875280022907,-0.784368963999999,-0.00018831276000070646,-2.3553669199999976,0.0004776435300011885,1.5714928200000016,0.7852771199999978,0.0399999596,0.0399999786,-9.828112600000015,0.012801204621817084,0.00838014300003342,-0.009735749800021563,-0.021231890097281818,0.004063598400008967
0.4325,0.0009219304020023039,-0.784362188499999,-0.00019282901250071058,-2.3553526549999977,0.00048524083500119537,1.5715030800000016,0.7852628174999978,0.0399999599,0.039999979649999996,-9.828208150000014,0.012963085854451412,0.008593794750033615,-0.009873587950021688,-0.021368534397355338,0.004120921350009019
0.435,0.000937524944002397,-0.784355232999999,-0.00019763859600073925,-2.3553371899999975,0.0004933315430012435,1.5715140500000015,0.7852475849999977,0.039999961,0.0399999808,-9.82828990000001,0.013121141493343669,0.008817630550034147,-0.010016153600021617,-0.021508487872800464,0.004180274170009004
0.4375,0.0009535953200021924,-0.784348187499999,-0.00020259484500067615,-2.355321124999998,0.0005016689525011375,1.5715253750000016,0.7852318874999978,0.0399999625,0.039999981999999996,-9.82836475000001,0.013277284335366252,0.009046558375031231,-0.010161083000019772,-0.02165009593593022,0.004240641925008236
0.44,0.0009696656960019878,-0.7843411419999992,-0.00020755109400061303,-2.355305059999998,0.0005100063620010313,1.5715367000000013,0.7852161899999981,0.039999964,0.0399999832,-9.828439600000008,0.013433427177388834,0.009275486200028316,-0.010306012400017927,-0.021791703999059976,0.004301009680007467
0.4425,0.000985736072001783,-0.7843340964999992,-0.00021250734300054994,-2.355288994999998,0.0005183437715009251,1.5715480250000013,0.7852004924999982,0.039999965500000005,0.0399999844,-9.828514450000009,0.013589570019411416,0.009504414025025403,-0.010450941800016081,-0.021933312062189732,0.004361377435006698
0.445,0.0010018064480015786,-0.7843270509999993,-0.00021746359200048684,-2.355272929999998,0.000526681181000819,1.5715593500000011,0.7851847949999985,0.039999967000000004,0.0399999856,-9.828589300000008,0.013745712861433997,0.009733341850022488,-0.010595871200014236,-0.022074920125319492,0.00442174519000593
0.4475,0.0010178768240013739,-0.7843200054999994,-0.00022241984100042372,-2.3552568649999985,0.0005350185905007128,1.571570675000001,0.7851690974999986,0.039999968500000004,0.0399999868,-9.828664150000007,0.013901855703456579,0.009962269675019573,-0.01074080060001239,-0.02221652818844925,0.004482112945005161
0.45,0.0010339472000012782,-0.7843129599999994,-0.00022737609000039418,-2.3552407999999985,0.0005433560000006633,1.571582000000001,0.7851533999999988,0.03999997,0.039999988,-9.828739000000008,0.014057998545481143,0.010191197500018892,-0.010885730000011052,-0.022358136251579275,0.004542480700004603
0.4525,0.0010515140450015339,-0.7843055934999993,-0.00023279361150047303,-2.3552231299999984,0.0005524697660007959,1.5715943900000011,0.7851362504999985,0.0399999715,0.0399999898,-9.828827800000008,0.014241376006991732,0.010450814275022669,-0.011037608000013261,-0.02250346867368886,0.004605742840005524
0.455,0.0010690808900017895,-0.7842982269999992,-0.00023821113300055187,-2.355205459999998,0.0005615835320009285,1.5716067800000013,0.7851191009999983,0.039999973,0.0399999916,-9.82891660000001,0.01442475346850232,0.010710431050026448,-0.011189486000015472,-0.022648801095798445,0.004669004980006444
0.4575,0.0010866477350020452,-0.7842908604999991,-0.00024362865450063074,-2.355187789999998,0.0005706972980010611,1.5716191700000015,0.785101951499998,0.0399999745,0.0399999934,-9.82900540000001,0.014608130930012909,0.010970047825030227,-0.011341364000017682,-0.02279413351790803,0.004732267120007365
0.46,0.0011042145800023008,-0.784283493999999,-0.00024904617600070956,-2.3551701199999977,0.0005798110640011937,1.5716315600000017,0.7850848019999978,0.039999976,0.0399999952,-9.829094200000013,0.014791508391523498,0.011229664600034004,-0.011493242000019893,-0.022939465940017615,0.0047955292600082855
0.4625,0.0011217814250025564,-0.7842761274999989,-0.00025446369750078843,-2.355152449999997,0.0005889248300013264,1.571643950000002,0.7850676524999974,0.0399999775,0.039999997,-9.829183000000013,0.014974885853034086,0.011489281375037783,-0.011645120000022102,-0.0230847983621272,0.004858791400009206
0.465,0.001139348270002812,-0.7842687609999988,-0.00025988121900086725,-2.355134779999997,0.000598038596001459,1.571656340000002,0.7850505029999972,0.039999979,0.0399999988,-9.829271800000015,0.015158263314544675,0.01174889815004156,-0.011796998000024313,-0.023230130784236785,0.004922053540010127
0.4675,0.001157436760003254,-0.7842612724999987,-0.00026545953300100353,-2.3551164349999967,0.0006074238430016886,1.5716690950000023,0.7850328379999968,0.039999980399999996,0.04,-9.829359250000014,0.015339465532481916,0.012012491300046188,-0.011951224900027032,-0.023377253860260835,0.004986353135011289
0.47000000000000003,0.0011765685400032715,-0.7842535399999987,-0.0002713594320010089,-2.3550967399999965,0.0006173520520016977,1.5716825800000023,0.7850141419999968,0.0399999816,0.04,-9.829444000000015,0.015516317263275781,0.012284037200046434,-0.012110149600027176,-0.02352795824411107,0.005052727640011349
0.47250000000000003,0.001195700320003289,-0.7842458074999986,-0.0002772593310010142,-2.3550770449999963,0.0006272802610017067,1.5716960650000023,0.7849954459999968,0.0399999828,0.04,-9.829528750000014,0.015693168994069646,0.012555583100046681,-0.01226907430002732,-0.023678662627961308,0.00511910214501141
0.47500000000000003,0.0012148321000033063,-0.7842380749999986,-0.0002831592300010196,-2.3550573499999965,0.0006372084700017157,1.5717095500000022,0.7849767499999968,0.039999984,0.04,-9.829613500000015,0.01587002072486351,0.012827129000046929,-0.012427999000027464,-0.023829367011811545,0.0051854766500114705
0.47750000000000004,0.0012339638800033237,-0.7842303424999987,-0.00028905912900102496,-2.3550376549999963,0.0006471366790017247,1.5717230350000024,0.7849580539999967,0.0399999852,0.04,-9.829698250000014,0.01604687245565738,0.013098674900047175,-0.01258692370002761,-0.02398007139566178,0.0052518511550115315
0.48,0.0012530956600033407,-0.7842226099999986,-0.0002949590280010302,-2.3550179599999965,0.0006570648880017336,1.5717365200000024,0.7849393579999968,0.0399999864,0.04,-9.829783000000015,0.01622372418645124,0.013370220800047416,-0.012745848400027751,-0.024130775779512014,0.00531822566001159
0.4825,0.001272227440003358,-0.7842148774999986,-0.0003008589270010356,-2.3549982649999963,0.0006669930970017426,1.5717500050000024,0.7849206619999968,0.0399999876,0.04,-9.829867750000014,0.016400575917245107,0.013641766700047664,-0.012904773100027895,-0.024281480163362252,0.005384600165011651
0.485,0.0012924477700036636,-0.7842068999999986,-0.00030709435400112973,-2.354977339999996,0.0006774867730019014,1.5717642600000026,0.7849009169999964,0.039999988,0.0399999995,-9.829950100000014,0.016595193184948023,0.013937540700054324,-0.013068209800029235,-0.0244346877560292,0.005452769750012187
0.4875,0.0013132123750036826,-0.7841987999999985,-0.00031349754500113557,-2.354955799999996,0.0006882631825019111,1.5717789000000026,0.7848806474999964,0.039999988,0.03999999875,-9.830031250000014,0.01679869322109844,0.014245428750054603,-0.013233902500029385,-0.024589146953103515,0.005521836875012249
0.49,0.0013339769800037014,-0.7841906999999986,-0.0003199007360011414,-2.354934259999996,0.0006990395920019209,1.5717935400000027,0.7848603779999964,0.039999988,0.039999998,-9.830112400000015,0.017002193257248856,0.014553316800054884,-0.013399595200029535,-0.024743606150177833,0.005590904000012312
0.4925,0.0013547415850037204,-0.7841825999999985,-0.00032630392700114724,-2.354912719999996,0.0007098160015019308,1.5718081800000026,0.7848401084999964,0.039999988,0.03999999725,-9.830193550000015,0.01720569329339927,0.014861204850055165,-0.013565287900029687,-0.024898065347252148,0.005659971125012375
0.495,0.0013755061900037392,-0.7841744999999986,-0.0003327071180011531,-2.354891179999996,0.0007205924110019405,1.5718228200000026,0.7848198389999963,0.039999988,0.0399999965,-9.830274700000015,0.017409193329549686,0.015169092900055444,-0.013730980600029837,-0.025052524544326462,0.0057290382500124375
0.4975,0.0013962707950037582,-0.7841663999999985,-0.0003391103090011589,-2.354869639999996,0.0007313688205019504,1.5718374600000027,0.7847995694999963,0.039999988,0.03999999575,-9.830355850000014,0.0176126933657001,0.015476980950055725,-0.013896673300029989,-0.02520698374140078,0.005798105375012501
0.5,0.0014170354000040864,-0.7841582999999984,-0.00034551350000126005,-2.3548480999999954,0.0007421452300021198,1.571852100000003,0.784779299999996,0.039999988,0.039999995,-9.830437000000012,0.0178161934018486,0.0157848690000586,-0.014062366000031395,-0.025361442938475975,0.005867172500012989
0.5025000000000001,0.0014394999550041072,-0.7841498054999985,-0.0003524406260012665,-2.3548247599999956,0.0007537992205021308,1.571867925000003,0.784757354999996,0.0399999874,0.03999999575,-9.830509900000013,0.018009162414854275,0.0161070283500589,-0.014234959600031556,-0.025520751625328582,0.005938581215013056
0.505,0.001461964510004127,-0.7841413109999984,-0.00035936775200127264,-2.354801419999996,0.000765453211002141,1.571883750000003,0.7847354099999959,0.0399999868,0.0399999965,-9.830582800000013,0.018202131427859942,0.01642918770005919,-0.014407553200031708,-0.025680060312181178,0.006009989930013119
0.5075000000000001,0.0014844290650041481,-0.7841328164999984,-0.0003662948780012791,-2.3547780799999956,0.000777107201502152,1.5718995750000029,0.784713464999996,0.039999986200000004,0.03999999725,-9.830655700000014,0.01839510044086562,0.016751347050059488,-0.01458014680003187,-0.02583936899903378,0.006081398645013186
0.51,0.001506893620004168,-0.7841243219999984,-0.00037322200400128524,-2.3547547399999957,0.0007887611920021622,1.5719154000000028,0.784691519999996,0.0399999856,0.039999998,-9.830728600000013,0.018588069453871283,0.017073506400059776,-0.014752740400032022,-0.025998677685886377,0.00615280736001325
0.5125,0.001529358175004188,-0.7841158274999984,-0.0003801491300012914,-2.3547313999999955,0.0008004151825021726,1.571931225000003,0.7846695749999959,0.039999985,0.03999999875,-9.830801500000014,0.01878103846687695,0.01739566575006006,-0.014925334000032176,-0.026157986372738973,0.006224216075013313
0.515,0.001551822730004209,-0.7841073329999984,-0.0003870762560012979,-2.3547080599999957,0.0008120691730021834,1.571947050000003,0.7846476299999959,0.0399999844,0.0399999995,-9.830874400000013,0.018974007479882624,0.017717825100060362,-0.015097927600032337,-0.02631729505959158,0.006295624790013379
0.5175,0.0015748760650045614,-0.7840986834999983,-0.0003941848610014065,-2.3546839849999954,0.0008240285450023663,1.571963300000003,0.7846251134999955,0.0399999838,0.04,-9.830964800000023,0.01917978161950294,0.018053878150068495,-0.015272728500033736,-0.02647838313135624,0.006368077820014033
0.52,0.0015991069600045842,-0.7840897239999983,-0.0004016564240014135,-2.3546584399999952,0.000836598680002378,1.5719804000000033,0.7846014539999955,0.0399999832,0.04,-9.831090200000023,0.019411166012330894,0.018417718600068834,-0.015451944000033904,-0.026643029972942028,0.006442619480014102
0.5225,0.0016233378550046056,-0.7840807644999983,-0.0004091279870014201,-2.354632894999995,0.0008491688150023892,1.5719975000000033,0.7845777944999955,0.0399999826,0.04,-9.831215600000023,0.01964255040515884,0.018781559050069157,-0.01563115950003406,-0.02680767681452781,0.006517161140014168
0.525,0.0016475687500046281,-0.7840718049999983,-0.0004165995500014271,-2.3546073499999953,0.0008617389500024009,1.5720146000000033,0.7845541349999955,0.039999981999999996,0.04,-9.831341000000023,0.019873934797986794,0.019145399500069493,-0.01581037500003423,-0.026972323656113597,0.006591702800014238
0.5275,0.0016717996450046496,-0.7840628454999983,-0.0004240711130014337,-2.354581804999995,0.0008743090850024121,1.5720317000000033,0.7845304754999954,0.0399999814,0.04,-9.831466400000025,0.020105319190814742,0.01950923995006982,-0.01598959050003439,-0.027136970497699378,0.006666244460014304
0.53,0.0016960305400046723,-0.7840538859999983,-0.0004315426760014407,-2.354556259999995,0.0008868792200024238,1.5720488000000032,0.7845068159999954,0.0399999808,0.04,-9.831591800000025,0.020336703583642698,0.019873080400070155,-0.016168806000034557,-0.027301617339285166,0.006740786120014374
0.5325,0.0017202614350046938,-0.7840449264999984,-0.0004390142390014473,-2.354530714999995,0.000899449355002435,1.5720659000000032,0.7844831564999953,0.0399999802,0.04,-9.831717200000025,0.020568087976470643,0.020236920850070478,-0.016348021500034716,-0.027466264180870947,0.00681532778001444
0.535,0.001745713660005073,-0.7840356259999982,-0.0004468622640015642,-2.3545037299999945,0.0009126528400026316,1.5720838400000035,0.784458305999995,0.0399999797,0.0399999995,-9.83179380000001,0.02079044058923186,0.02060524960007213,-0.016531733500036196,-0.027633742801877935,0.0068916952000150425
0.5375,0.0017717765500050962,-0.7840261549999982,-0.00045489852000157134,-2.3544760249999945,0.0009261730000026436,1.5721022000000036,0.784432859999995,0.03999997925,0.03999999875,-9.83184600000001,0.021008277311963645,0.020975822500072457,-0.01671769375003636,-0.027802637312594275,0.006968975500015111
0.54,0.0017978394400051205,-0.7840166839999981,-0.00046293477600157883,-2.3544483199999946,0.0009396931600026562,1.5721205600000037,0.7844074139999949,0.039999978799999995,0.039999998,-9.83189820000001,0.02122611403469544,0.021346395400072805,-0.016903654000036534,-0.027971531823310622,0.007046255800015183
0.5425,0.0018239023300051435,-0.7840072129999981,-0.000470971032001586,-2.3544206149999947,0.0009532133200026682,1.5721389200000035,0.7843819679999949,0.03999997835,0.03999999725,-9.83195040000001,0.02144395075742722,0.021716968300073133,-0.0170896142500367,-0.028140426334026962,0.007123536100015252
0.545,0.001849965220005168,-0.7839977419999982,-0.0004790072880015935,-2.3543929099999947,0.0009667334800026808,1.5721572800000037,0.784356521999995,0.0399999779,0.0399999965,-9.832002600000012,0.021661787480159015,0.02208754120007348,-0.01727557450003687,-0.02830932084474331,0.0072008164000153235
0.5475,0.001876028110005191,-0.7839882709999981,-0.0004870435440016006,-2.354365204999995,0.0009802536400026927,1.5721756400000038,0.7843310759999949,0.03999997745,0.03999999575,-9.83205480000001,0.021879624202890798,0.022458114100073808,-0.017461534750037037,-0.02847821535545965,0.007278096700015392
0.55,0.001902091000005595,-0.783978799999998,-0.0004950798000017251,-2.3543374999999944,0.0009937738000029021,1.572194000000004,0.7843056299999945,0.039999977,0.039999995,-9.83210700000002,0.02209746092562983,0.022828687000082913,-0.01764749500003852,-0.02864710986617687,0.007355377000016003
0.5525,0.0019300505500056198,-0.7839688699999979,-0.0005037006810017328,-2.354307664999994,0.0010082774650029152,1.572213680000004,0.7842783104999945,0.0399999764,0.039999994250000004,-9.83220615000002,0.02235146723692748,0.023243037400083284,-0.01783999360003869,-0.02882037498060364,0.007435349800016074
0.555,0.0019580101000056457,-0.783958939999998,-0.0005123215620017408,-2.3542778299999942,0.0010227811300029287,1.572233360000004,0.7842509909999945,0.0399999758,0.039999993500000004,-9.832305300000021,0.02260547354822514,0.023657387800083668,-0.01803249220003887,-0.028993640095030415,0.007515322600016148
0.5575,0.0019859696500056706,-0.783949009999998,-0.0005209424430017485,-2.354247994999994,0.0010372847950029416,1.572253040000004,0.7842236714999944,0.0399999752,0.039999992750000005,-9.83240445000002,0.022859479859522792,0.02407173820008404,-0.018224990800039042,-0.029166905209457184,0.00759529540001622
0.56,0.0020139292000056967,-0.7839390799999979,-0.0005295633240017566,-2.354218159999994,0.0010517884600029551,1.5722727200000042,0.7841963519999944,0.0399999746,0.039999992,-9.83250360000002,0.023113486170820454,0.024486088600084423,-0.018417489400039223,-0.029340170323883964,0.007675268200016294
0.5625,0.0020418887500057215,-0.783929149999998,-0.0005381842050017642,-2.354188324999994,0.001066292125002968,1.572292400000004,0.7841690324999944,0.039999974,0.03999999125,-9.83260275000002,0.023367492482118103,0.024900439000084793,-0.018609988000039393,-0.029513435438310733,0.007755241000016365
0.5650000000000001,0.0020698483000057477,-0.7839192199999979,-0.0005468050860017723,-2.354158489999994,0.0010807957900029815,1.572312080000004,0.7841417129999944,0.0399999734,0.0399999905,-9.83270190000002,0.023621498793415765,0.025314789400085178,-0.018802486600039574,-0.02968670055273751,0.007835213800016439
0.5675,0.002098461340006177,-0.7839091129999978,-0.0005556273930019046,-2.3541279199999936,0.0010956378450032041,1.5723322250000045,0.784113762499994,0.03999997285,0.03999999,-9.832790350000014,0.023871714249303348,0.0257353621000894,-0.01899710980004106,-0.029861580021716117,0.007916034050017036
0.5700000000000001,0.002128381360006205,-0.7838986519999978,-0.0005648525520019133,-2.3540958799999934,0.0011111566800032185,1.5723533000000045,0.7840845499999939,0.0399999724,0.03999999,-9.832857400000014,0.02411434799437784,0.026168379400089804,-0.019195982200041244,-0.030039688199795418,0.007998549200017113
0.5725,0.0021583013800062314,-0.7838881909999978,-0.0005740777110019214,-2.3540638399999936,0.0011266755150032323,1.5723743750000045,0.7840553374999939,0.039999971950000004,0.03999999,-9.832924450000014,0.02435698173945232,0.026601396700090187,-0.019394854600041422,-0.030217796377874712,0.008081064350017186
0.5750000000000001,0.0021882214000062596,-0.7838777299999978,-0.00058330287000193,-2.3540317999999933,0.0011421943500032467,1.5723954500000044,0.7840261249999938,0.0399999715,0.03999999,-9.832991500000013,0.024599615484526813,0.02703441400009059,-0.019593727000041607,-0.030395904555954013,0.008163579500017263
0.5775,0.002218141420006286,-0.7838672689999978,-0.0005925280290019382,-2.353999759999993,0.0011577131850032604,1.5724165250000044,0.7839969124999938,0.03999997105,0.03999999,-9.833058550000013,0.024842249229601293,0.027467431300090977,-0.019792599400041782,-0.030574012734033304,0.008246094650017338
0.58,0.0022480614400063126,-0.7838568079999978,-0.0006017531880019464,-2.3539677199999933,0.0011732320200032744,1.5724376000000044,0.7839676999999938,0.039999970600000004,0.03999999,-9.833125600000013,0.025084882974675773,0.02790044860009136,-0.01999147180004196,-0.030752120912112598,0.00832860980001741
0.5825,0.0022779814600063404,-0.7838463469999978,-0.0006109783470019549,-2.353935679999993,0.0011887508550032888,1.5724586750000045,0.7839384874999937,0.03999997015,0.03999999,-9.833192650000013,0.025327516719750264,0.028333465900091764,-0.020190344200042145,-0.0309302290901919,0.008411124950017487
0.585,0.0023092504000070883,-0.7838355039999976,-0.0006206192900021854,-2.353902089999992,0.001204967510003676,1.572480740000005,0.7839079599999931,0.03999997,0.039999991,-9.833289900000024,0.025594581291141432,0.02879608500010594,-0.02039351690004556,-0.03111151717607263,0.008495306100018866
0.5875,0.002341193800007554,-0.7838244699999974,-0.0006304681250023289,-2.3538677249999918,0.0012215330750039175,1.5725033000000053,0.7838767749999926,0.03999997,0.0399999925,-9.833402250000026,0.025873861275679293,0.029273505000112898,-0.020598839750048552,-0.03129439521585257,0.008580320250020104
0.59,0.002373137200008018,-0.7838134359999972,-0.0006403169600024721,-2.3538333599999914,0.0012380986400041582,1.5725258600000056,0.7838455899999921,0.03999997,0.039999994,-9.833514600000028,0.02615314126021714,0.029750925000119836,-0.020804162600051537,-0.0314772732556325,0.00866533440002134
0.5925,0.0024050806000084834,-0.7838024019999971,-0.0006501657950026157,-2.3537989949999907,0.0012546642050043995,1.572548420000006,0.7838144049999917,0.03999997,0.0399999955,-9.83362695000003,0.026432421244755002,0.030228345000126795,-0.02100948545005453,-0.03166015129541244,0.008750348550022578
0.595,0.002437024000008948,-0.7837913679999969,-0.0006600146300027587,-2.3537646299999904,0.0012712297700046401,1.5725709800000063,0.7837832199999912,0.03999997,0.039999997,-9.833739300000031,0.02671170122929285,0.030705765000133733,-0.021214808300057512,-0.031843029335192376,0.008835362700023814
0.5975,0.0024689674000094135,-0.7837803339999968,-0.0006698634650029023,-2.3537302649999896,0.0012877953350048817,1.5725935400000066,0.7837520349999908,0.03999997,0.0399999985,-9.833851650000033,0.02699098121383071,0.03118318500014069,-0.021420131150060504,-0.032025907374972316,0.008920376850025053
0.6,0.0025009108000105225,-0.7837692999999964,-0.0006797123000032441,-2.3536958999999884,0.001304360900005456,1.5726161000000074,0.7837208499999897,0.03999997,0.04,-9.833964000000016,0.027270261198365293,0.03166060500014966,-0.02162545400006543,-0.03220878541475353,0.00900539100002707
0.6025,0.00253493950001009,-0.7837576899999965,-0.0006902038550031108,-2.353659269999989,0.0013220055500052317,1.572640115000007,0.7836876264999901,0.0399999694,0.04,-9.834018300000016,0.027538985014041423,0.032144588250143505,-0.02183705480006274,-0.03239580467348871,0.009092932650025956
0.605,0.002568968200009656,-0.7837460799999967,-0.000700695410002977,-2.3536226399999896,0.0013396502000050067,1.5726641300000068,0.7836544029999906,0.0399999688,0.04,-9.834072600000015,0.02780770882971754,0.032628571500137336,-0.022048655600060044,-0.032582823932223885,0.00918047430002484
0.6075,0.0026029969000092236,-0.7837344699999969,-0.0007111869650028436,-2.35358600999999,0.0013572948500047825,1.5726881450000065,0.783621179499991,0.0399999682,0.04,-9.834126900000015,0.02807643264539367,0.03311255475013118,-0.022260256400057354,-0.03276984319095907,0.009268015950023727
0.61,0.0026370256000087895,-0.783722859999997,-0.0007216785200027098,-2.3535493799999903,0.0013749395000045574,1.5727121600000062,0.7835879559999914,0.0399999676,0.04,-9.834181200000014,0.02834515646106979,0.033596538000125006,-0.022471857200054655,-0.032956862449694244,0.00935555760002261
0.6125,0.0026710543000083567,-0.7837112499999972,-0.0007321700750025765,-2.353512749999991,0.001392584150004333,1.572736175000006,0.7835547324999919,0.039999967,0.04,-9.834235500000014,0.02861388027674592,0.03408052125011886,-0.022683458000051965,-0.033143881708429426,0.009443099250021498
0.615,0.002705083000007923,-0.7836996399999973,-0.0007426616300024427,-2.3534761199999914,0.001410228800004108,1.5727601900000057,0.7835215089999923,0.039999966399999996,0.04,-9.834289800000013,0.028882604092422035,0.03456450450011268,-0.022895058800049266,-0.0333309009671646,0.009530640900020381
0.6175,0.002739827080008127,-0.7836878299999972,-0.0007533736970025057,-2.353438694999991,0.0014282444550042142,1.572784705000006,0.7834875919999921,0.0399999657,0.04,-9.83436865000003,0.02916526570923145,0.03506721170012136,-0.023108696150048912,-0.03351967893545173,0.009619115100020295
0.62,0.0027760019200081592,-0.7836756199999972,-0.0007645267880025156,-2.353399679999991,0.0014470021200042307,1.5728102200000058,0.783452287999992,0.039999964799999996,0.04,-9.83449660000003,0.029475802928279282,0.03560736680012183,-0.023326406600049105,-0.03371197432283917,0.009709454400020376
0.6225,0.002812176760008193,-0.7836634099999972,-0.0007756798790025261,-2.353360664999991,0.0014657597850042483,1.5728357350000057,0.7834169839999919,0.0399999639,0.04,-9.83462455000003,0.029786340147327128,0.03614752190012234,-0.02354411705004931,-0.03390426971022663,0.00979979370002046
0.625,0.0028483516000082252,-0.7836511999999972,-0.000786832970002536,-2.3533216499999914,0.0014845174500042648,1.5728612500000059,0.783381679999992,0.039999963,0.04,-9.834752500000029,0.03009687736637496,0.03668767700012282,-0.0237618275000495,-0.03409656509761407,0.00989013300002054
0.6275000000000001,0.002884526440008259,-0.7836389899999971,-0.0007979860610025463,-2.3532826349999914,0.0015032751150042825,1.5728867650000058,0.7833463759999919,0.0399999621,0.04,-9.83488045000003,0.030407414585422805,0.03722783210012332,-0.023979537950049704,-0.03428886048500153,0.009980472300020625
0.63,0.0029207012800082912,-0.7836267799999972,-0.0008091391520025562,-2.3532436199999913,0.001522032780004299,1.5729122800000057,0.7833110719999918,0.0399999612,0.04,-9.83500840000003,0.030717951804470636,0.0377679872001238,-0.0241972484000499,-0.03448115587238897,0.010070811600020706
0.6325000000000001,0.0029568761200083247,-0.7836145699999971,-0.0008202922430025667,-2.3532046049999913,0.0015407904450043166,1.5729377950000059,0.7832757679999919,0.0399999603,0.04,-9.83513635000003,0.031028489023518478,0.03830814230012431,-0.0244149588500501,-0.03467345125977643,0.01016115090002079
0.635,0.0029945214100088667,-0.783601942999997,-0.0008318986460027337,-2.3531639899999908,0.0015603115900045977,1.5729643500000061,0.7832390299999913,0.03999996,0.0399999995,-9.835215200000013,0.03133008964366622,0.03885636110012758,-0.024636732800051703,-0.03486878909175169,0.010253240300021477
0.6375000000000001,0.003032901925008902,-0.783589107499997,-0.0008437317050027447,-2.3531225749999907,0.0015802144750046163,1.5729914250000063,0.7832015749999913,0.03999996,0.03999999875,-9.835269500000013,0.03162722196436857,0.039408611750128095,-0.02486053850005191,-0.035065648146019285,0.010346204750021563
0.64,0.0030712824400089362,-0.783576271999997,-0.0008555647640027552,-2.3530811599999906,0.001600117360004634,1.5730185000000063,0.7831641199999912,0.03999996,0.039999998,-9.835323800000012,0.031924354285070906,0.03996086240012858,-0.02508434420005211,-0.035262507200286876,0.010439169200021647
0.6425,0.0031096629550089704,-0.783563436499997,-0.0008673978230027658,-2.3530397449999905,0.0016200202450046518,1.5730455750000063,0.7831266649999913,0.03999996,0.03999999725,-9.835378100000012,0.03222148660577324,0.04051311305012908,-0.02530814990005231,-0.03545936625455447,0.010532133650021728
0.645,0.003148043470009006,-0.783550600999997,-0.0008792308820027767,-2.3529983299999904,0.0016399231300046704,1.5730726500000063,0.7830892099999912,0.03999996,0.0399999965,-9.835432400000013,0.03251861892647559,0.041065363700129594,-0.025531955600052517,-0.035656225308822065,0.010625098100021815
0.6475,0.0031864239850090403,-0.783537765499997,-0.0008910639410027873,-2.3529569149999903,0.001659826015004688,1.5730997250000065,0.7830517549999912,0.03999996,0.03999999575,-9.835486700000013,0.03281575124717792,0.04161761435013008,-0.025755761300052714,-0.035853084363089656,0.010718062550021898
0.65,0.003224804500009612,-0.7835249299999968,-0.0009028970000029634,-2.3529154999999897,0.0016797289000049845,1.573126800000007,0.7830142999999907,0.03999996,0.039999995,-9.835541000000022,0.033112883567886706,0.04216986500013987,-0.025979567000054334,-0.03604994341735842,0.010811027000022542
0.6525,0.003265449505009648,-0.7835114209999968,-0.0009154280750029745,-2.3528714149999894,0.0017008074100050034,1.573155480000007,0.7829746294999906,0.0399999615,0.03999999575,-9.835636550000022,0.03343722634025162,0.0427613373501404,-0.026209337450054538,-0.03625172320758124,0.010906345850022627
0.655,0.003306094510009686,-0.7834979119999967,-0.0009279591500029862,-2.3528273299999896,0.001721885920005023,1.573184160000007,0.7829349589999905,0.039999963,0.0399999965,-9.835732100000023,0.033761569112616546,0.04335280970014095,-0.026439107900054753,-0.036453502997804074,0.011001664700022715
0.6575,0.003346739515009722,-0.7834844029999968,-0.0009404902250029972,-2.3527832449999893,0.0017429644300050416,1.573212840000007,0.7828952884999906,0.039999964500000006,0.03999999725,-9.835827650000022,0.03408591188498145,0.043944282050141475,-0.026668878350054957,-0.0366552827880269,0.0110969835500228
0.66,0.00338738452000976,-0.7834708939999968,-0.000953021300003009,-2.3527391599999894,0.0017640429400050614,1.573241520000007,0.7828556179999905,0.039999966000000005,0.039999998,-9.835923200000023,0.03441025465734638,0.04453575440014203,-0.026898648800055172,-0.03685706257824973,0.01119230240002289
0.6625,0.0034280295250097956,-0.7834573849999967,-0.00096555237500302,-2.3526950749999895,0.00178512145000508,1.573270200000007,0.7828159474999904,0.039999967500000004,0.03999999875,-9.836018750000022,0.03473459742971129,0.04512722675014255,-0.027128419250055377,-0.03705884236847255,0.011287621250022972
0.665,0.0034686745300098335,-0.7834438759999968,-0.0009780834500030316,-2.3526509899999892,0.0018061999600050998,1.573298880000007,0.7827762769999904,0.039999969,0.0399999995,-9.836114300000023,0.03505894020207622,0.045718699100143104,-0.02735818970005559,-0.03726062215869539,0.011382940100023062
0.6675,0.0035100935550104336,-0.7834301429999966,-0.0009908531550032167,-2.3526060299999885,0.0018276798650054109,1.5733281150000074,0.7827358534999898,0.03999997015,0.04,-9.836207950000022,0.03539273049690943,0.04632491530015437,-0.0275898877500572,-0.03746368065481409,0.011479006450023692
0.67,0.0035530606200104738,-0.7834159619999965,-0.001004100120003229,-2.3525593199999886,0.0018499625600054317,1.5733584600000075,0.7826939239999897,0.039999970600000004,0.04,-9.836297800000022,0.03574541583665861,0.04696061920015496,-0.02782544100005742,-0.03766929656272176,0.011576567800023783
0.6725,0.0035960276850105118,-0.7834017809999966,-0.0010173470850032408,-2.3525126099999887,0.0018722452550054515,1.5733888050000073,0.7826519944999897,0.03999997105,0.04,-9.836387650000022,0.03609810117640778,0.047596323100155526,-0.028060994250057626,-0.03787491247062942,0.011674129150023868
0.675,0.003638994750010552,-0.7833875999999965,-0.0010305940500032532,-2.3524658999999883,0.0018945279500054723,1.5734191500000074,0.7826100649999896,0.0399999715,0.04,-9.836477500000022,0.03645078651615696,0.048232027000156115,-0.028296547500057848,-0.03808052837853709,0.01177169050002396
0.6775,0.00368196181501059,-0.7833734189999966,-0.001043841015003265,-2.3524191899999884,0.001916810645005492,1.5734494950000075,0.7825681354999896,0.039999971950000004,0.04,-9.836567350000022,0.036803471855906135,0.04886773090015668,-0.028532100750058055,-0.03828614428644476,0.011869251850024047
0.68,0.00372492888001063,-0.7833592379999965,-0.0010570879800032773,-2.352372479999988,0.001939093340005513,1.5734798400000074,0.7825262059999896,0.0399999724,0.04,-9.836657200000023,0.03715615719565532,0.04950343480015727,-0.028767654000058276,-0.03849176019435243,0.011966813200024138
0.6825,0.0037678959450106685,-0.7833450569999965,-0.001070334945003289,-2.352325769999988,0.0019613760350055327,1.5735101850000075,0.7824842764999895,0.03999997285,0.04,-9.836747050000023,0.037508842535404485,0.05013913870015784,-0.029003207250058484,-0.03869737610226009,0.012064374550024223
0.685,0.003812448570011301,-0.7833304169999963,-0.001084070710003484,-2.3522773699999875,0.0019844827400058614,1.573541660000008,0.7824407939999889,0.039999973,0.0399999995,-9.836807700000012,0.037854267284359255,0.05078526160016233,-0.02924258040006013,-0.03890572823589301,0.012163628900024948
0.6875,0.003857793975011341,-0.7833155474999963,-0.0010980508750034965,-2.3522281249999875,0.0020080014500058825,1.573573700000008,0.782396534999989,0.039999973,0.03999999875,-9.836853750000012,0.03819606173792087,0.05143659400016291,-0.029483863500060346,-0.039115448482387,0.012263729750025036
0.6900000000000001,0.003903139380011384,-0.7833006779999963,-0.0011120310400035097,-2.3521788799999874,0.002031520160005904,1.573605740000008,0.7823522759999889,0.039999973,0.039999998,-9.836899800000012,0.038537856191482485,0.05208792640016351,-0.02972514660006057,-0.039325168728881005,0.01236383060002513
0.6925,0.003948484785011424,-0.7832858084999963,-0.001126011205003522,-2.3521296349999874,0.0020550388700059253,1.573637780000008,0.7823080169999889,0.039999973,0.03999999725,-9.836945850000012,0.038879650645044096,0.05273925880016409,-0.029966429700060786,-0.039534888975375,0.012463931450025218
0.6950000000000001,0.003993830190011466,-0.7832709389999962,-0.0011399913700035351,-2.352080389999988,0.0020785575800059473,1.573669820000008,0.7822637579999888,0.039999973,0.0399999965,-9.836991900000012,0.03922144509860572,0.0533905912001647,-0.03020771280006101,-0.03974460922186901,0.012564032300025311
0.6975,0.004039175595011506,-0.7832560694999962,-0.0011539715350035475,-2.3520311449999878,0.002102076290005968,1.5737018600000081,0.7822194989999888,0.039999973,0.03999999575,-9.837037950000012,0.039563239552167326,0.05404192360016528,-0.030448995900061226,-0.039954329468363005,0.0126641331500254
0.7000000000000001,0.004084521000012168,-0.783241199999996,-0.0011679517000037516,-2.351981899999987,0.002125595000006311,1.5737339000000086,0.7821752399999882,0.039999973,0.039999995,-9.837084000000033,0.039905034005739436,0.05469325600018053,-0.030690279000062867,-0.04016404971485826,0.012764234000025977
0.7025,0.004132300050012211,-0.783225563999996,-0.0011826820750037647,-2.351929864999987,0.0021503738600063328,1.5737676650000085,0.7821286064999882,0.039999973,0.03999999575,-9.837208650000033,0.04028798528025397,0.05540209840018116,-0.030937113750063087,-0.040378686226959164,0.012866232950026068
0.705,0.004180079100012253,-0.783209927999996,-0.0011974124500037779,-2.351877829999987,0.002175152720006355,1.5738014300000087,0.782081972999988,0.039999973,0.0399999965,-9.837333300000033,0.0406709365547685,0.056110940800181794,-0.031183948500063306,-0.040593322739060064,0.012968231900026158
0.7075,0.004227858150012298,-0.7831942919999959,-0.0012121428250037914,-2.3518257949999866,0.002199931580006378,1.5738351950000087,0.782035339499988,0.039999973,0.03999999725,-9.837457950000033,0.041053887829283056,0.05681978320018245,-0.031430783250063536,-0.04080795925116097,0.013070230850026253
0.71,0.0042756372000123406,-0.7831786559999959,-0.0012268732000038046,-2.3517737599999866,0.0022247104400063998,1.5738689600000086,0.7819887059999879,0.039999973,0.039999998,-9.837582600000033,0.04143683910379759,0.057528625600183084,-0.03167761800006375,-0.04102259576326188,0.013172229800026344
0.7125,0.004323416250012385,-0.7831630199999959,-0.0012416035750038184,-2.3517217249999867,0.0022494893000064233,1.5739027250000088,0.7819420724999879,0.039999973,0.03999999875,-9.837707250000033,0.04181979037831214,0.05823746800018374,-0.03192445275006398,-0.04123723227536279,0.01327422875002644
0.715,0.004371195300012427,-0.783147383999996,-0.0012563339500038316,-2.3516696899999863,0.002274268160006445,1.5739364900000088,0.7818954389999878,0.039999973,0.0399999995,-9.837831900000033,0.04220274165282668,0.058946310400184374,-0.032171287500064205,-0.04145186878746369,0.013376227700026529
0.7175,0.0044198037150131216,-0.7831315169999957,-0.0012713199750040455,-2.3516167599999855,0.002299476980006805,1.5739708300000093,0.7818479939999872,0.03999997285,0.03999999975,-9.83792727500001,0.042582004331149316,0.05965734940018675,-0.03241992580006585,-0.04166784621780857,0.01347899925002723
0.72,0.004470070860013166,-0.7831151879999957,-0.0012868173000040591,-2.3515620399999855,0.002325545720006828,1.5740063200000094,0.7817989259999871,0.0399999724,0.039999999,-9.83796410000001,0.04295388981709678,0.060372781600187386,-0.032672171200066075,-0.04188650548463825,0.013583316000027323
0.7225,0.0045203380050132125,-0.7830988589999957,-0.0013023146250040736,-2.3515073199999854,0.002351614460006852,1.5740418100000093,0.7817498579999871,0.039999971950000004,0.03999999825,-9.83800092500001,0.04332577530304427,0.06108821380018805,-0.03292441660006631,-0.042105164751467944,0.01368763275002742
0.725,0.004570605150013258,-0.7830825299999957,-0.0013178119500040874,-2.351452599999986,0.0023776832000068754,1.5740773000000094,0.781700789999987,0.0399999715,0.0399999975,-9.83803775000001,0.04369766078899173,0.061803646000188686,-0.03317666200006653,-0.04232382401829762,0.013791949500027514
0.7275,0.004620872295013304,-0.7830662009999957,-0.0013333092750041017,-2.3513978799999857,0.0024037519400069,1.5741127900000094,0.781651721999987,0.03999997105,0.03999999675,-9.838074575000011,0.04406954627493921,0.06251907820018936,-0.033428907400066765,-0.04254248328512731,0.01389626625002761
0.73,0.004671139440013349,-0.7830498719999957,-0.0013488066000041155,-2.3513431599999857,0.0024298206800069232,1.5741482800000093,0.781602653999987,0.039999970600000004,0.039999996,-9.838111400000011,0.04444143176088668,0.06323451040018999,-0.03368115280006699,-0.04276114255195699,0.014000583000027704
0.7325,0.004721406585013396,-0.7830335429999956,-0.00136430392500413,-2.3512884399999856,0.0024558894200069474,1.5741837700000094,0.7815535859999869,0.03999997015,0.03999999525,-9.83814822500001,0.04481331724683416,0.06394994260019066,-0.03393339820006722,-0.04297980181878668,0.014104899750027801
0.735,0.0047733674100141205,-0.7830166939999954,-0.0013803233900043532,-2.351231779999985,0.002482835040007322,1.57422044000001,0.7815028669999862,0.03999997,0.0399999955,-9.83823295000003,0.045215338096134094,0.06471320600021048,-0.03418918360006887,-0.0432013653219342,0.01421057610002844
0.7375,0.00482617507501417,-0.7829995849999954,-0.0013966039250043684,-2.3511741499999848,0.0025102191000073476,1.57425770000001,0.7814513224999862,0.03999997,0.03999999625,-9.83834162500003,0.04563242662709219,0.06550038500021121,-0.03444673900006911,-0.043424380943238916,0.014316932250028537
0.74,0.004878982740014216,-0.7829824759999954,-0.0014128844600043828,-2.3511165199999846,0.002537603160007372,1.57429496000001,0.7813997779999862,0.03999997,0.039999997,-9.83845030000003,0.04604951515805026,0.06628756400021191,-0.034704294400069335,-0.04364739656454362,0.014423288400028631
0.7425,0.004931790405014265,-0.7829653669999954,-0.001429164995004398,-2.3510588899999845,0.0025649872200073976,1.57433222000001,0.7813482334999861,0.03999997,0.03999999775,-9.83855897500003,0.04646660368900835,0.06707474300021264,-0.034961849800069576,-0.043870412185848334,0.01452964455002873
0.745,0.004984598070014312,-0.7829482579999953,-0.0014454455300044124,-2.3510012599999843,0.0025923712800074218,1.57436948000001,0.781296688999986,0.03999997,0.0399999985,-9.83866765000003,0.04688369221996643,0.06786192200021335,-0.0352194052000698,-0.044093427807153036,0.014636000700028825
0.7475,0.005037405735014362,-0.7829311489999953,-0.0014617260650044276,-2.350943629999984,0.002619755340007447,1.5744067400000101,0.781245144499986,0.03999997,0.03999999925,-9.83877632500003,0.047300780750924525,0.06864910100021408,-0.035476960600070044,-0.044316443428457745,0.014742356850028924
0.75,0.005090213400015115,-0.7829140399999951,-0.0014780066000046601,-2.3508859999999836,0.0026471394000078387,1.5744440000000106,0.7811935999999853,0.03999997,0.04,-9.83888500000001,0.047717869281879426,0.06943628000021615,-0.03573451600007169,-0.04453945904976358,0.014848713000029651
0.7525000000000001,0.005145613590014412,-0.7828961089999953,-0.0014950863650044432,-2.3508256549999844,0.0026758689600074738,1.5744831350000101,0.781139524999986,0.039999970450000005,0.04,-9.83892175000001,0.048123320378468594,0.07022847500020608,-0.03599724670006835,-0.04476661253726422,0.01495738725002827
0.755,0.005201013780013705,-0.7828781779999955,-0.0015121661300042252,-2.3507653099999852,0.002704598520007107,1.5745222700000097,0.7810854499999866,0.0399999709,0.04,-9.83895850000001,0.04852877147505774,0.07102067000019598,-0.036259977400064994,-0.04499376602476486,0.015066061500026883
0.7575000000000001,0.005256413970013001,-0.7828602469999958,-0.0015292458950040082,-2.3507049649999856,0.0027333280800067423,1.5745614050000092,0.7810313749999873,0.03999997135,0.04,-9.838995250000009,0.04893422257164691,0.07181286500018591,-0.036522708100061654,-0.04522091951226551,0.015174735750025503
0.76,0.005311814160012294,-0.782842315999996,-0.0015463256600037902,-2.3506446199999864,0.0027620576400063756,1.5746005400000087,0.780977299999988,0.0399999718,0.04,-9.839032000000008,0.04933967366823606,0.0726050600001758,-0.0367854388000583,-0.04544807299976615,0.015283410000024117
0.7625000000000001,0.00536721435001159,-0.7828243849999962,-0.0015634054250035733,-2.3505842749999872,0.0027907872000060108,1.5746396750000082,0.7809232249999887,0.03999997225,0.04,-9.839068750000008,0.049745124764825226,0.07339725500016574,-0.03704816950005496,-0.045675226487266796,0.015392084250022735
0.765,0.005422614540010883,-0.7828064539999964,-0.0015804851900033555,-2.350523929999988,0.002819516760005644,1.5746788100000078,0.7808691499999894,0.039999972700000004,0.04,-9.839105500000008,0.05015057586141437,0.07418945000015564,-0.037310900200051615,-0.045902379974767434,0.015500758500021349
0.7675000000000001,0.005478895620011193,-0.7827882799999963,-0.0015978365250034507,-2.3504625499999876,0.0028487038100058052,1.574718565000008,0.7808142124999891,0.039999973,0.0399999995,-9.839168650000023,0.050571798347023925,0.07500236100016476,-0.037575333800051645,-0.0461310533807128,0.015610149700021371
0.77,0.005536938480012036,-0.7827696199999961,-0.0016157310000037108,-2.350399099999987,0.0028788058400062424,1.5747595600000084,0.7807575499999883,0.039999973,0.039999998,-9.839284600000024,0.05102456361064755,0.07585670400017717,-0.03784317320005554,-0.04636276662354501,0.01572097480002298
0.7725,0.00559498134001288,-0.7827509599999959,-0.0016336254750039707,-2.3503356499999857,0.0029089078700066796,1.574800555000009,0.7807008874999873,0.039999973,0.0399999965,-9.839400550000025,0.05147732887427117,0.07671104700018959,-0.03811101260005943,-0.04659447986637722,0.01583179990002459
0.775,0.005653024200013726,-0.7827322999999956,-0.0016515199500042317,-2.350272199999985,0.0029390099000071186,1.5748415500000097,0.7806442249999865,0.039999973,0.039999994999999997,-9.839516500000027,0.05193009413789482,0.07756539000020204,-0.038378852000063336,-0.04682619310920944,0.015942625000026207
0.7775,0.005711067060014569,-0.7827136399999953,-0.0016694144250044916,-2.3502087499999837,0.002969111930007556,1.5748825450000103,0.7805875624999857,0.039999973,0.0399999935,-9.839632450000028,0.05238285940151844,0.07841973300021444,-0.038646691400067226,-0.047057906352041656,0.016053450100027816
0.78,0.005769109920015415,-0.782694979999995,-0.0016873089000047524,-2.350145299999983,0.0029992139600079947,1.574923540000011,0.7805308999999849,0.039999973,0.039999992,-9.839748400000031,0.052835624665142085,0.0792740760002269,-0.03891453080007113,-0.04728961959487388,0.016164275200029433
0.7825,0.0058271527800162586,-0.7826763199999948,-0.0017052033750050125,-2.350081849999982,0.0030293159900084323,1.5749645350000117,0.7804742374999841,0.039999973,0.0399999905,-9.839864350000033,0.05328838992876571,0.08012841900023931,-0.03918237020007502,-0.04752133283770609,0.016275100300031042
0.785,0.005886990160017346,-0.7826570899999945,-0.0017236512100053476,-2.350016449999981,0.0030603482300089954,1.5750067900000124,0.780415834999983,0.039999973,0.03999999,-9.839907700000001,0.053729517385487854,0.08099765260025038,-0.03945346500007789,-0.04775500260300179,0.016387075000032142
0.7875,0.005947724800017399,-0.7826375749999944,-0.0017423757250053641,-2.3499500749999807,0.0030918455750090237,1.5750496750000125,0.780356562499983,0.039999973,0.03999999,-9.839914750000002,0.05416482593876668,0.08187433150025115,-0.03972618750007813,-0.04798965062952797,0.016499624500032242
0.79,0.006008459440017456,-0.7826180599999945,-0.0017611002400053817,-2.349883699999981,0.0031233429200090528,1.5750925600000125,0.7802972899999829,0.039999973,0.03999999,-9.839921800000003,0.05460013449204553,0.08275101040025197,-0.03999891000007839,-0.04822429865605416,0.016612174000032346
0.7925,0.00606919408001751,-0.7825985449999944,-0.0017798247550053984,-2.349817324999981,0.0031548402650090806,1.5751354450000123,0.7802380174999829,0.039999973,0.03999999,-9.839928850000002,0.055035443045324366,0.08362768930025276,-0.040271632500078626,-0.04845894668258034,0.016724723500032446
0.795,0.006129928720017567,-0.7825790299999944,-0.0017985492700054158,-2.3497509499999807,0.00318633761000911,1.5751783300000124,0.7801787449999829,0.039999973,0.03999999,-9.839935900000002,0.055470751598603214,0.08450436820025357,-0.040544355000078885,-0.04869359470910653,0.016837273000032554
0.7975,0.006190663360017621,-0.7825595149999943,-0.0018172737850054325,-2.349684574999981,0.003217834955009138,1.5752212150000124,0.7801194724999828,0.039999973,0.03999999,-9.839942950000003,0.05590606015188205,0.08538104710025435,-0.040817077500079124,-0.048928242735632704,0.016949822500032654
0.8,0.006251398000018475,-0.7825399999999941,-0.0018359983000056958,-2.34961819999998,0.0032493323000095807,1.5752641000000132,0.780060199999982,0.039999973,0.03999999,-9.839950000000032,0.056341368705176,0.08625772600027246,-0.0410898000000808,-0.0491628907621602,0.017062372000033316
0.8025,0.006314872960018531,-0.7825196359999941,-0.0018555676450057131,-2.34954886999998,0.00328224971000961,1.5753089350000131,0.7799982499999819,0.039999973,0.03999999,-9.840061150000032,0.05682855732753189,0.08719380610027329,-0.041367391200081045,-0.04940202143050253,0.017176837150033417
0.805,0.00637834792001859,-0.782499271999994,-0.0018751369900057314,-2.3494795399999795,0.0033151671200096406,1.575353770000013,0.7799362999999818,0.039999973,0.03999999,-9.840172300000033,0.05731574594988781,0.08812988620027416,-0.0416449824000813,-0.049641152098844864,0.017291302300033524
0.8075,0.006441822880018647,-0.782478907999994,-0.0018947063350057487,-2.3494102099999794,0.0033480845300096697,1.5753986050000133,0.7798743499999817,0.039999973,0.03999999,-9.840283450000033,0.0578029345722437,0.089065966300275,-0.041922573600081545,-0.049880282767187194,0.017405767450033627
0.81,0.006505297840018706,-0.782458543999994,-0.001914275680005767,-2.3493408799999793,0.0033810019400097005,1.5754434400000132,0.7798123999999818,0.039999973,0.03999999,-9.840394600000032,0.05829012319459961,0.09000204640027586,-0.042200164800081805,-0.05011941343552953,0.017520232600033735
0.8125,0.006568772800018763,-0.782438179999994,-0.0019338450250057843,-2.3492715499999792,0.00341391935000973,1.5754882750000132,0.7797504499999817,0.039999973,0.03999999,-9.840505750000032,0.05877731181695551,0.09093812650027669,-0.04247775600008205,-0.050358544103871854,0.017634697750033835
0.8150000000000001,0.006632247760018821,-0.7824178159999939,-0.0019534143700058026,-2.349202219999979,0.0034468367600097604,1.5755331100000134,0.7796884999999816,0.039999973,0.03999999,-9.840616900000033,0.05926450043931142,0.09187420660027756,-0.04275534720008231,-0.05059767477221419,0.017749162900033942
0.8175,0.006696651650019707,-0.7823971559999937,-0.0019732700800060756,-2.3491318199999784,0.0034802347000102186,1.575578595000014,0.7796256424999808,0.039999973200000004,0.0399999905,-9.840701450000008,0.05974580179913889,0.09281415600028185,-0.043034485900083935,-0.05083812698729108,0.01786416305003452
0.8200000000000001,0.006762913400019769,-0.7823759039999937,-0.0019936985200060945,-2.3490592799999783,0.0035145937000102506,1.575625380000014,0.7795609699999807,0.0399999738,0.039999992,-9.840732800000008,0.06021532863392526,0.09376184400028273,-0.0433167196000842,-0.05108122229583356,0.01798023320003463
0.8225,0.006829175150019827,-0.7823546519999937,-0.0020141269600061126,-2.348986739999978,0.0035489527000102813,1.575672165000014,0.7794962974999806,0.0399999744,0.0399999935,-9.840764150000009,0.060684855468711614,0.09470953200028358,-0.04359895330008445,-0.05132431760437604,0.01809630335003473
0.8250000000000001,0.006895436900019889,-0.7823333999999936,-0.0020345554000061315,-2.348914199999978,0.0035833117000103132,1.5757189500000142,0.7794316249999806,0.039999975,0.039999995,-9.84079550000001,0.061154382303497984,0.09565722000028445,-0.04388118700008471,-0.05156741291291852,0.01821237350003484
0.8275,0.006961698650019948,-0.7823121479999936,-0.00205498384000615,-2.348841659999978,0.003617670700010344,1.575765735000014,0.7793669524999806,0.0399999756,0.0399999965,-9.84082685000001,0.06162390913828434,0.0966049080002853,-0.044163420700084964,-0.05181050822146099,0.018328443650034942
0.8300000000000001,0.00702796040002001,-0.7822908959999936,-0.002075412280006169,-2.348769119999978,0.003652029700010376,1.5758125200000141,0.7793022799999805,0.0399999762,0.039999998,-9.840858200000008,0.06209343597307071,0.09755259600028618,-0.04444565440008523,-0.05205360353000347,0.01844451380003505
0.8325,0.007094222150020068,-0.7822696439999937,-0.002095840720006187,-2.3486965799999777,0.0036863887000104065,1.5758593050000143,0.7792376074999805,0.039999976799999996,0.0399999995,-9.840889550000009,0.06256296280785706,0.09850028400028703,-0.044727888100085475,-0.052296698838545944,0.018560583950035153
0.835,0.0071623720600209875,-0.7822478039999933,-0.00211685138000647,-2.348621969999977,0.0037217264300108827,1.575907450000015,0.7791711049999795,0.039999977,0.04,-9.840957000000026,0.06306939646617613,0.09949443900030905,-0.04501320080008713,-0.05254218764610626,0.01867802830003588
0.8375,0.007231466050021052,-0.7822256699999933,-0.00213815315000649,-2.348546324999977,0.003757553525010916,1.575956275000015,0.7791036874999795,0.039999977,0.04,-9.841042500000025,0.0635942835362364,0.10051182750030999,-0.0453000530000874,-0.05278887320317389,0.01879615975003599
0.84,0.007300560040021113,-0.7822035359999933,-0.0021594549200065092,-2.348470679999977,0.0037933806200109482,1.576005100000015,0.7790362699999794,0.039999977,0.04,-9.841128000000026,0.06411917060629665,0.1015292160003109,-0.04558690520008765,-0.0530355587602415,0.0189142912000361
0.8425,0.007369654030021178,-0.7821814019999932,-0.002180756690006529,-2.3483950349999767,0.0038292077150109817,1.576053925000015,0.7789688524999794,0.039999977,0.04,-9.841213500000025,0.06464405767635693,0.10254660450031183,-0.04587375740008792,-0.05328224431730912,0.01903242265003621
0.845,0.007438748020021239,-0.7821592679999932,-0.0022020584600065483,-2.348319389999977,0.0038650348100110134,1.576102750000015,0.7789014349999793,0.039999977,0.04,-9.841299000000026,0.06516894474641718,0.10356399300031274,-0.04616060960008818,-0.05352892987437674,0.019150554100036313
