rsonawane2002/My_IMU/share/traj_271/imu_271.csv
time,j1,j2,j3,j4,j5,j6,j7,gripper1,gripper2,imu_ax,imu_ay,imu_az,imu_gx,imu_gy,imu_gz
222.03333333340217,0.00016700293,-0.785875,4.0107683e-05,-2.3551247,9.29385e-05,1.570997,0.786,0.04,0.04,-9.4825115,0.0057558901607990265,0.110527106,-3.1439237e-07,-0.0011641273740679026,6.135519e-07
222.05000000006885,0.00016700655,-0.78576016,4.0111463e-05,-2.3552213,9.296472e-05,1.5709941,0.786,0.04,0.04,-9.834438,0.0006245789700187743,0.00910579,2.7663617e-07,-0.002239551395177841,5.833579e-07
222.06666666673553,0.00016701575,-0.78565425,4.009305e-05,-2.35531,9.292397e-05,1.5709913,0.786,0.04,0.04,-9.832541,0.0005844028783030808,0.007609771,3.0722144e-06,-0.0032326600048691034,-1.8003154e-06
222.0833333334022,0.00016703879,-0.78555685,4.001667e-05,-2.355391,9.272064e-05,1.5709884,0.786,0.04,0.039999995,-9.830926,0.0005063402932137251,0.006313596,1.0487554e-05,-0.004156500566750765,-8.082112e-06
222.1000000000689,0.00016708743,-0.78546697,3.9831295e-05,-2.3554645,9.2180264e-05,1.5709856,0.786,0.04,0.04,-9.829406,0.0003750450850930065,0.005171737,2.462151e-05,-0.005015655420720577,-2.3430008e-05
222.11666666673557,0.00016717597,-0.78538406,3.9471626e-05,-2.3555312,9.112642e-05,1.5709842,0.786,0.04,0.04,-9.828095,0.00023902038810774684,0.004141183,4.807484e-05,-0.005819964222609997,-4.4703567e-05
222.13333333340225,0.00016732125,-0.78530765,3.8859846e-05,-2.3555906,8.932505e-05,1.5709847,0.7860019,0.04,0.04,-9.8269615,4.5226013753563166e-05,0.0031960933,8.258818e-05,-0.006571443285793066,-7.7490935e-05
222.15000000006893,0.00016754244,-0.785237,3.790694e-05,-2.3556466,8.652011e-05,1.5709853,0.7860038,0.04,0.04,-9.825843,-0.0001628295867703855,0.0023928718,0.00012163285,-0.007271467708051205,-0.000120566416
222.1666666667356,0.00016786059,-0.7851717,3.6513804e-05,-2.3556967,8.241726e-05,1.5709862,0.78600574,0.04,0.04,-9.8254385,-0.00040973216528072953,0.0017319494,0.00017564524,-0.007953990250825882,-0.00017702617
222.1833333334023,0.00016829859,-0.78511095,3.457235e-05,-2.3557396,7.669956e-05,1.5709871,0.78600955,0.04,0.04,-9.824802,-0.000683873426169157,0.0011475252,0.00024653602,-0.008611077442765236,-0.00024741387
222.20000000006897,0.00016888099,-0.7850542,3.196677e-05,-2.3557763,6.902605e-05,1.570988,0.78601336,0.04,0.04,-9.824124,-0.0009925441117957234,0.00065024267,0.00032741175,-0.009244028478860855,-0.00033272992
222.21666666673565,0.00016963383,-0.7850012,2.857422e-05,-2.3558087,5.9024813e-05,1.5709925,0.7860191,0.039999995,0.04,-9.823701,-0.0013321974547579885,0.00024465309,0.00042889023,-0.009864180348813534,-0.00043468908
222.23333333340233,0.00017058401,-0.7849517,2.426553e-05,-2.3558354,4.6326964e-05,1.5709972,0.7860267,0.03999999,0.03999999,-9.823545,-0.0016873013228178024,-0.00012106181,0.00054403074,-0.010469614528119564,-0.00055152393
222.250000000069,0.00017175969,-0.78490496,1.890631e-05,-2.355855,3.0535837e-05,1.5710037,0.78603625,0.039999988,0.039999988,-9.823317,-0.002091760281473398,-0.00033121742,0.0006740835,-0.011069652624428272,-0.0006864856
222.2666666667357,0.00017319008,-0.7848607,1.2357513e-05,-2.355868,1.1243829e-05,1.5710121,0.78604764,0.039999984,0.03999998,-9.82306,-0.002519997302442789,-0.0004810028,0.00082111015,-0.011660419404506683,-0.00083845464
222.28333333340237,0.00017490503,-0.7848185,4.476232e-06,-2.3558757,-1.1970152e-05,1.5710212,0.786061,0.03999998,0.039999977,-9.822904,-0.002986650448292494,-0.0005367066,0.0009868692,-0.012246237136423588,-0.001009641
222.30000000006905,0.00017693524,-0.7847778,-4.8837924e-06,-2.355877,-3.953565e-05,1.5710336,0.7860763,0.039999973,0.03999997,-9.823044,-0.003487869631499052,-0.00046047114,0.0011720156,-0.012843232601881027,-0.001199612
222.31666666673573,0.00017931165,-0.7847385,-1.5871623e-05,-2.3558722,-7.188974e-05,1.5710491,0.78609467,0.03999997,0.03999996,-9.823121,-0.004030899610370398,-0.00039669377,0.0013782936,-0.013440519571304321,-0.0014078574
222.3333333334024,0.00018206601,-0.78470016,-2.8638584e-05,-2.3558605,-0.00010947822,1.5710653,0.78611594,0.03999997,0.03999996,-9.823273,-0.004619053564965725,-0.00020540791,0.0016021937,-0.014043126255273819,-0.0016363745
222.3500000000691,0.00018523009,-0.7846623,-4.3337845e-05,-2.3558412,-0.00015275038,1.5710853,0.78614044,0.03999997,0.03999996,-9.823489,-0.005246308166533709,0.00014218531,0.0018454406,-0.01466379128396511,-0.001884513
222.36666666673577,0.00018883623,-0.7846249,-6.012389e-05,-2.3558142,-0.00020216023,1.571109,0.7861684,0.039999973,0.039999966,-9.823638,-0.005920413415879011,0.00047962257,0.0021083364,-0.015289248898625374,-0.0021524613
222.38333333340245,0.00019291663,-0.7845875,-7.9152196e-05,-2.3557796,-0.00025816378,1.571135,0.7862001,0.039999973,0.03999996,-9.82387,-0.006637988146394491,0.000955818,0.0023909328,-0.01592402718961239,-0.0024394626
222.40000000006913,0.000197504,-0.7845499,-0.00010057878,-2.3557365,-0.0003212204,1.571164,0.7862358,0.039999973,0.03999996,-9.824153,-0.007415450178086758,0.001562966,0.0026929842,-0.016576090827584267,-0.002747302
222.4166666667358,0.00020263086,-0.78451186,-0.00012456006,-2.3556845,-0.00039178866,1.5711964,0.7862759,0.039999973,0.03999996,-9.824432,-0.00823485292494297,0.0022534926,0.003015057,-0.01724478043615818,-0.0030751545
222.4333333334025,0.00020832979,-0.78447294,-0.0001512523,-2.3556242,-0.00047032745,1.5712327,0.78632057,0.039999973,0.03999996,-9.824698,-0.00912508461624384,0.003051591,0.0033560703,-0.017927290871739388,-0.0034229977
222.45000000006917,0.00021463327,-0.78443307,-0.00018081155,-2.3555539,-0.0005572944,1.5712732,0.78637,0.039999973,0.039999958,-9.825144,-0.010059650056064129,0.0039410074,0.003716848,-0.01863129995763302,-0.0037899255
222.46666666673585,0.00022157363,-0.78439194,-0.00021339327,-2.3554747,-0.00065314677,1.5713181,0.7864246,0.039999977,0.03999996,-9.825378,-0.01107124425470829,0.0049399035,0.004097399,-0.019347205758094788,-0.0041775787
222.48333333340253,0.00022918315,-0.7843494,-0.00024915216,-2.3553858,-0.0007583389,1.5713675,0.7864843,0.039999977,0.03999996,-9.825835,-0.01213189959526062,0.0060682604,0.0044968924,-0.020084191113710403,-0.0045849755
222.5000000000692,0.0002374937,-0.78430516,-0.00028824192,-2.3552864,-0.0008733205,1.5714213,0.7865496,0.039999977,0.039999958,-9.826248,-0.013265756890177727,0.0073109996,0.004916672,-0.02084125019609928,-0.0050111194
222.5166666667359,0.0002465372,-0.784259,-0.00033081492,-2.3551767,-0.0009985412,1.5714798,0.7866208,0.03999998,0.03999996,-9.826646,-0.014477409422397614,0.008685527,0.0053554005,-0.021618282422423363,-0.005457586
222.53333333340257,0.0002563452,-0.7842109,-0.00037702234,-2.3550565,-0.0011344444,1.5715437,0.7866981,0.03999998,0.039999966,-9.827107,-0.01576264016330242,0.010176084,0.0058135833,-0.02241881750524044,-0.005925097
222.55000000006925,0.0002669484,-0.78416044,-0.00042701376,-2.354925,-0.0012814669,1.5716125,0.78678167,0.039999984,0.03999997,-9.827584,-0.017118092626333237,0.0117967,0.0062900637,-0.02324015460908413,-0.0064099273
222.56666666673593,0.00027837814,-0.7841075,-0.00048093713,-2.3547816,-0.0014400447,1.5716873,0.78687185,0.039999984,0.03999997,-9.828053,-0.018557418137788773,0.013548186,0.006785922,-0.024085398763418198,-0.0069143423
222.5833333334026,0.0002906645,-0.7840517,-0.00053893885,-2.3546264,-0.0016106062,1.5717672,0.7869688,0.039999984,0.03999997,-9.828425,-0.020069440826773643,0.015419925,0.0073000668,-0.024947145953774452,-0.0074364766
222.6000000000693,0.0003038375,-0.7839933,-0.0006011629,-2.3544586,-0.0017935729,1.5718533,0.78707284,0.039999988,0.039999966,-9.828939,-0.02165006287395954,0.017453946,0.007832742,-0.025836685672402382,-0.007974241
222.61666666673597,0.00031792722,-0.78393173,-0.0006677512,-2.3542788,-0.0019893663,1.571945,0.7871841,0.039999988,0.03999998,-9.829304,-0.023395149037241936,0.019636292,0.0083835935,-0.026743371039628983,-0.008537088
222.63333333340265,0.00033296223,-0.78386694,-0.00073884404,-2.354086,-0.0021983923,1.5720433,0.78730303,0.03999999,0.03999997,-9.829896,-0.02512536570429802,0.021957863,0.008952743,-0.02767852693796158,-0.00910898
222.65000000006933,0.00034897184,-0.78379893,-0.00081457925,-2.353879,-0.0024210594,1.5721478,0.78742963,0.03999999,0.039999984,-9.830331,-0.02705654501914978,0.024415115,0.009538823,-0.028634296730160713,-0.0097068995
222.666666666736,0.00036598387,-0.7837274,-0.00089509244,-2.3536587,-0.0026577637,1.572259,0.78756416,0.03999999,0.03999997,-9.83066,-0.028974704444408417,0.027049666,0.010142897,-0.029608990997076035,-0.010314224
222.6833333334027,0.0003840263,-0.78365225,-0.0009805169,-2.3534243,-0.0029088964,1.5723771,0.78770703,0.039999988,0.039999966,-9.831196,-0.031079713255167007,0.029854387,0.0107644545,-0.030608687549829483,-0.010941771
222.70000000006937,0.00040312615,-0.7835733,-0.0010709832,-2.3531752,-0.0031748405,1.5725021,0.78785825,0.03999998,0.039999954,-9.831614,-0.03324906527996063,0.032797676,0.011402168,-0.031628724187612534,-0.01158502
222.71666666673605,0.00042331038,-0.7834905,-0.0011666197,-2.3529117,-0.0034559732,1.5726341,0.7880181,0.039999977,0.039999947,-9.831971,-0.035530976951122284,0.035927553,0.0120567875,-0.032667603343725204,-0.012244311
222.73333333340273,0.00044460516,-0.7834037,-0.001267552,-2.3526335,-0.0037526612,1.5727736,0.7881868,0.039999977,0.03999994,-9.832481,-0.03790447860956192,0.03922663,0.012727766,-0.03373303636908531,-0.012918504
222.7500000000694,0.0004670362,-0.783313,-0.0013739035,-2.3523395,-0.0040652687,1.5729204,0.7883645,0.039999973,0.03999994,-9.832905,-0.040436726063489914,0.042707644,0.013415063,-0.034818291664123535,-0.013611566
222.76666666673609,0.0004906285,-0.783218,-0.0014857943,-2.35203,-0.004394148,1.5730752,0.7885515,0.039999977,0.039999943,-9.8332815,-0.043035801500082016,0.04638589,0.014118067,-0.03592376038432121,-0.014317997
222.78333333340277,0.00051540683,-0.7831185,-0.0016033428,-2.3517044,-0.0047396463,1.5732377,0.7887479,0.039999984,0.039999958,-9.833644,-0.04576168209314346,0.050216082,0.0148365125,-0.037048038095235825,-0.01504085
222.80000000006945,0.0005413949,-0.7830143,-0.0017266645,-2.3513627,-0.0051021003,1.5734079,0.78895396,0.039999984,0.03999997,-9.834074,-0.048625413328409195,0.05423765,0.015570312,-0.03819438815116882,-0.015779808
222.81666666673613,0.00056861644,-0.7829058,-0.0018558713,-2.3510048,-0.0054818387,1.5735863,0.7891699,0.03999998,0.039999958,-9.834478,-0.05155758187174797,0.05845124,0.016319292,-0.039362832903862,-0.016527511
222.8333333334028,0.00059709407,-0.78279245,-0.0019910734,-2.3506303,-0.0058791824,1.5737733,0.7893958,0.039999973,0.039999932,-9.834899,-0.05462804436683655,0.0628932,0.017082548,-0.04055256396532059,-0.017286183
222.85000000006949,0.00062685064,-0.7826742,-0.0021323771,-2.3502374,-0.0062944456,1.5739685,0.78963196,0.039999966,0.039999913,-9.835233,-0.05782848596572876,0.06747392,0.017860262,-0.04176100715994835,-0.018058918
222.86666666673617,0.00065790745,-0.7825511,-0.002279887,-2.349828,-0.0067279395,1.5741721,0.7898783,0.039999973,0.039999925,-9.835454,-0.0612020343542099,0.07229748,0.018651811,-0.04298393800854683,-0.018848833
222.88333333340285,0.00069028576,-0.78242296,-0.0024337047,-2.349401,-0.0071799583,1.5743847,0.79013526,0.039999977,0.039999947,-9.835895,-0.06468890607357025,0.07732743,0.019457782,-0.04423088580369949,-0.019655548
222.90000000006953,0.00072400615,-0.7822894,-0.002593929,-2.3489554,-0.00765079,1.5746063,0.790403,0.03999998,0.039999954,-9.836196,-0.06825987994670868,0.08254913,0.020277074,-0.04549480602145195,-0.02047087
222.9166666667362,0.0007590889,-0.782151,-0.0027606552,-2.3484924,-0.008140716,1.5748366,0.7906816,0.03999998,0.03999997,-9.836411,-0.07198173552751541,0.08794474,0.021108741,-0.046774376183748245,-0.021300202
222.93333333340289,0.0007955529,-0.7820072,-0.0029339779,-2.3480103,-0.00865001,1.5750762,0.7909712,0.039999977,0.03999998,-9.836794,-0.07584845274686813,0.09365375,0.021953756,-0.04807480424642563,-0.022139112
222.95000000006956,0.00083341746,-0.7818577,-0.0031139855,-2.34751,-0.009178939,1.5753247,0.7912719,0.039999977,0.039999984,-9.8369665,-0.07982990145683289,0.09951518,0.02281116,-0.049389053136110306,-0.022987263
222.96666666673624,0.00087270053,-0.78170335,-0.003300766,-2.3469903,-0.00972776,1.575583,0.791584,0.039999977,0.039999958,-9.837324,-0.08393435925245285,0.10559006,0.023681147,-0.05072613060474396,-0.023840321
222.98333333340292,0.00091341994,-0.7815434,-0.003494405,-2.3464518,-0.010296714,1.5758506,0.7919075,0.03999998,0.039999947,-9.8373785,-0.08818893134593964,0.11193592,0.024563104,-0.05207116901874542,-0.024704944
223.0000000000696,0.0009555926,-0.7813777,-0.003694984,-2.3458934,-0.010886044,1.5761279,0.79224265,0.039999988,0.03999997,-9.837629,-0.09265832602977753,0.118487865,0.025456715,-0.053434088826179504,-0.025586909
223.01666666673628,0.0009992351,-0.7812062,-0.0039025818,-2.3453152,-0.01149598,1.576415,0.7925894,0.03999999,0.04,-9.837799,-0.09720322489738464,0.12527095,0.02636124,-0.05481189489364624,-0.02647796
223.03333333340296,0.0010443636,-0.781029,-0.004117276,-2.3447175,-0.012126746,1.5767112,0.7929481,0.03999999,0.04,-9.8379,-0.10186605900526047,0.132261,0.027277334,-0.05620332807302475,-0.02737536
223.05000000006964,0.0010909933,-0.78084594,-0.004339139,-2.3440998,-0.012778561,1.5770179,0.7933191,0.03999999,0.04,-9.838089,-0.10671943426132202,0.13954045,0.028204104,-0.05761245638132095,-0.028281484
223.06666666673632,0.0011391388,-0.78065705,-0.00456824,-2.3434622,-0.013451651,1.5773345,0.7937018,0.03999998,0.04,-9.838169,-0.1117004007101059,0.1470119,0.029140055,-0.059032145887613297,-0.029195724
223.083333333403,0.0011888149,-0.78046227,-0.004804649,-2.342804,-0.014146191,1.5776609,0.7940967,0.039999984,0.03999997,-9.838325,-0.11678744107484818,0.15475032,0.030087896,-0.06046825647354126,-0.030110735
223.10000000006968,0.0012400347,-0.78026146,-0.0050484296,-2.342125,-0.014862374,1.5779977,0.794504,0.03999998,0.03999996,-9.838318,-0.12207026034593582,0.16272178,0.03104591,-0.06191704049706459,-0.031037904
223.11666666673636,0.0012928112,-0.7800546,-0.005299646,-2.3414254,-0.015600387,1.578345,0.7949236,0.03999998,0.03999996,-9.838365,-0.12751224637031555,0.17095785,0.03201308,-0.06337758153676987,-0.0319729
223.13333333340304,0.001347157,-0.7798418,-0.00555836,-2.3407052,-0.016360404,1.5787024,0.7953558,0.039999984,0.03999998,-9.838373,-0.133103609085083,0.1794201,0.032990187,-0.0648493766784668,-0.03291809
223.15000000006972,0.0014030839,-0.7796227,-0.0058246246,-2.339963,-0.017142594,1.5790703,0.7958005,0.03999999,0.03999998,-9.8383665,-0.1388024091720581,0.18814662,0.033976015,-0.06633310765028,-0.033865258
223.1666666667364,0.0014606033,-0.7793973,-0.0060984967,-2.3392,-0.017947117,1.5794487,0.79625785,0.039999988,0.03999999,-9.83817,-0.1446690708398819,0.1971114,0.034971107,-0.06782444566488266,-0.0348217
223.18333333340308,0.0015197262,-0.7791656,-0.0063800286,-2.3384159,-0.01877412,1.5798377,0.7967281,0.039999984,0.03999994,-9.838163,-0.15064656734466553,0.20634934,0.035975438,-0.06932799518108368,-0.035772942
223.20000000006976,0.0015804626,-0.7789277,-0.006669266,-2.3376102,-0.019623749,1.5802373,0.7972112,0.039999988,0.039999932,-9.838113,-0.15685346722602844,0.21583925,0.036987543,-0.07084459066390991,-0.03673496
223.21666666673644,0.0016428226,-0.77868325,-0.006966259,-2.3367827,-0.020496137,1.5806476,0.79770726,0.039999984,0.039999947,-9.837937,-0.16321612894535065,0.22558193,0.038007244,-0.07236941158771515,-0.037709564
223.23333333340312,0.0017068151,-0.7784327,-0.007271048,-2.3359337,-0.021391412,1.5810688,0.79821634,0.03999999,0.03999995,-9.83769,-0.16962724924087524,0.23558018,0.03903497,-0.07390264421701431,-0.03868047
223.2500000000698,0.0017724487,-0.7781758,-0.0075836764,-2.3350637,-0.022309711,1.5815008,0.79873854,0.039999988,0.039999995,-9.837506,-0.17636582255363464,0.24588414,0.040069826,-0.07544352114200592,-0.039672464
223.26666666673648,0.0018397312,-0.7779122,-0.007904182,-2.3341708,-0.023251124,1.5819438,0.7992738,0.039999977,0.039999954,-9.837388,-0.1830320805311203,0.25642005,0.04111235,-0.07699758559465408,-0.040647276
223.28333333340316,0.0019086702,-0.77764225,-0.008232603,-2.3332562,-0.024215763,1.5823977,0.7998222,0.03999998,0.03999995,-9.836957,-0.189970001578331,0.2671967,0.042162023,-0.07855559140443802,-0.041630633
223.30000000006984,0.001979272,-0.7773656,-0.008568968,-2.332319,-0.025203729,1.5828624,0.80038404,0.039999984,0.03999998,-9.836673,-0.19711747765541077,0.27829048,0.043218672,-0.08012104034423828,-0.042624716
223.31666666673652,0.0020515453,-0.77708256,-0.008913314,-2.3313596,-0.02621511,1.5833381,0.80095917,0.039999984,0.04,-9.836246,-0.20434311032295227,0.28962874,0.044281002,-0.08169278502464294,-0.043619726
223.3333333334032,0.0021254933,-0.7767932,-0.009265666,-2.3303778,-0.027249992,1.5838251,0.8015476,0.039999977,0.039999988,-9.835855,-0.2117009162902832,0.30125147,0.045349665,-0.0832706093788147,-0.044612817
223.35000000006988,0.0022011227,-0.776497,-0.009626047,-2.3293736,-0.028308446,1.5843228,0.8021495,0.03999997,0.03999995,-9.835324,-0.21919108927249908,0.31314197,0.04642492,-0.0848516896367073,-0.045601934
223.36666666673656,0.002278438,-0.77619433,-0.009994483,-2.3283472,-0.02939054,1.5848317,0.8027647,0.039999977,0.039999958,-9.834898,-0.22693024575710297,0.32532305,0.047505084,-0.08644144982099533,-0.046599366
223.38333333340324,0.002357444,-0.775885,-0.010370995,-2.3272982,-0.030496342,1.5853518,0.8033935,0.039999977,0.03999999,-9.834349,-0.23479974269866943,0.33776614,0.04859104,-0.08803550899028778,-0.04760359
223.40000000006992,0.0024381445,-0.775569,-0.010755603,-2.326227,-0.0316259,1.5858833,0.8040357,0.039999977,0.04,-9.833771,-0.2427797019481659,0.35048872,0.049682174,-0.08963441848754883,-0.048606385
223.4166666667366,0.002520542,-0.7752463,-0.0111483205,-2.3251328,-0.032779258,1.5864258,0.80469155,0.03999998,0.04,-9.833124,-0.2508734464645386,0.36345747,0.050778408,-0.09123700112104416,-0.04960503
223.43333333340328,0.00260464,-0.774917,-0.011549161,-2.3240163,-0.03395645,1.5869796,0.80536103,0.039999977,0.04,-9.832476,-0.25922444462776184,0.3767509,0.051878933,-0.09284469485282898,-0.050611433
223.45000000006996,0.0026904407,-0.77458113,-0.011958136,-2.322877,-0.035157505,1.5875446,0.80604404,0.03999998,0.04,-9.831747,-0.26763612031936646,0.39030093,0.052983444,-0.09445478767156601,-0.051613517
223.46666666673664,0.0027779462,-0.7742384,-0.012375254,-2.3217149,-0.036382485,1.5881207,0.8067406,0.039999973,0.04,-9.830906,-0.27622464299201965,0.40415305,0.054092348,-0.09606597572565079,-0.052616376
223.48333333340332,0.0028671578,-0.773889,-0.012800522,-2.32053,-0.03763136,1.5887082,0.80745095,0.039999977,0.04,-9.830052,-0.28489282727241516,0.4182419,0.055205874,-0.09768053144216537,-0.053610478
223.50000000007,0.0029580747,-0.7735329,-0.013233947,-2.3193223,-0.038904164,1.5893071,0.8081747,0.039999984,0.04,-9.829171,-0.2938334345817566,0.43265715,0.056321554,-0.09929633140563965,-0.05461151
223.51666666673668,0.0030506991,-0.7731704,-0.013675529,-2.3180923,-0.04020091,1.589917,0.8089119,0.039999977,0.04,-9.828199,-0.3028619885444641,0.44733182,0.057441197,-0.10091185569763184,-0.05561384
223.53333333340336,0.003145031,-0.772801,-0.014125264,-2.3168397,-0.041521586,1.5905381,0.8096628,0.039999973,0.04,-9.827201,-0.3119634687900543,0.46232596,0.058565427,-0.10253065079450607,-0.05660661
223.55000000007004,0.003241068,-0.772425,-0.014583154,-2.3155642,-0.04286618,1.5911708,0.8104274,0.039999977,0.04,-9.826199,-0.32129907608032227,0.47755855,0.059692003,-0.10415114462375641,-0.057598975
223.56666666673672,0.003338812,-0.7720422,-0.0150491875,-2.314266,-0.04423469,1.5918146,0.81120557,0.039999966,0.04,-9.825003,-0.3307721018791199,0.49311164,0.060820732,-0.1057690680027008,-0.058594204
223.5833333334034,0.0034382585,-0.7716527,-0.015523365,-2.3129454,-0.045627076,1.5924697,0.8119975,0.039999977,0.04,-9.823814,-0.34033092856407166,0.5089233,0.061952118,-0.10738719254732132,-0.059582002
223.60000000007008,0.0035394074,-0.77125657,-0.016005674,-2.3116016,-0.04704333,1.5931358,0.8128029,0.03999998,0.04,-9.822577,-0.3500881493091583,0.52500963,0.06308494,-0.10900632292032242,-0.060576525
223.61666666673676,0.003642255,-0.77085376,-0.016496101,-2.3102348,-0.048483394,1.5938132,0.8136217,0.03999997,0.04,-9.821203,-0.3599046468734741,0.5414245,0.06421972,-0.11062227934598923,-0.061557107
223.63333333340344,0.0037467987,-0.7704444,-0.01699463,-2.308845,-0.049947232,1.5945017,0.8144542,0.03999996,0.04,-9.819739,-0.36983782052993774,0.5580974,0.06535734,-0.1122337207198143,-0.06252421
223.65000000007012,0.0038530359,-0.77002823,-0.017501252,-2.3074338,-0.051434807,1.5952014,0.81530017,0.03999998,0.04,-9.818214,-0.38003474473953247,0.57507324,0.066494875,-0.11384177207946777,-0.063502885
223.6666666667368,0.0039609624,-0.76960546,-0.01801595,-2.3060002,-0.05294607,1.5959121,0.8161595,0.039999966,0.04,-9.8168335,-0.3903307318687439,0.59230965,0.06763391,-0.11545390635728836,-0.06448603
223.68333333340348,0.004070574,-0.76917624,-0.018538699,-2.3045442,-0.054480944,1.5966339,0.8170324,0.039999966,0.04,-9.815218,-0.40062928199768066,0.609849,0.068774745,-0.11706221848726273,-0.06544562
223.70000000007016,0.004181867,-0.76874036,-0.01906947,-2.3030655,-0.056039378,1.5973669,0.81791866,0.039999973,0.04,-9.813522,-0.41123253107070923,0.627687,0.06991498,-0.11866746097803116,-0.0664179
223.71666666673684,0.0042948327,-0.768298,-0.019608248,-2.301565,-0.05762128,1.5981114,0.8188182,0.039999973,0.04,-9.81174,-0.42185986042022705,0.64577967,0.0710561,-0.12026755511760712,-0.06738273
223.73333333340352,0.004409469,-0.7678489,-0.020155009,-2.3000417,-0.0592266,1.5988662,0.8197311,0.039999966,0.04,-9.80988,-0.4325847327709198,0.6641472,0.072197825,-0.12186223268508911,-0.06833964
223.7500000000702,0.004525769,-0.76739335,-0.020709718,-2.2984965,-0.06085524,1.5996323,0.82065725,0.039999966,0.04,-9.80796,-0.4434763193130493,0.6828436,0.07333896,-0.1234547421336174,-0.0692889
223.76666666673688,0.004643725,-0.76693135,-0.021272339,-2.2969294,-0.0625071,1.6004092,0.8215967,0.03999997,0.04,-9.805972,-0.4545166492462158,0.7017971,0.07448009,-0.1250418722629547,-0.07023915
223.78333333340356,0.004763334,-0.7664628,-0.021842862,-2.29534,-0.06418209,1.601197,0.8225493,0.03999997,0.04,-9.803842,-0.46560904383659363,0.72103196,0.07562019,-0.1266234964132309,-0.071182184
223.80000000007024,0.004884585,-0.76598775,-0.02242123,-2.2937293,-0.06588012,1.6019958,0.823515,0.03999996,0.04,-9.801662,-0.47684022784233093,0.7405598,0.07675949,-0.12819881737232208,-0.07211568
223.81666666673692,0.0050074738,-0.76550657,-0.023007415,-2.2920966,-0.06760108,1.6028056,0.8244937,0.03999997,0.04,-9.79947,-0.4881705045700073,0.7603545,0.077898,-0.12976951897144318,-0.07303815
223.8333333334036,0.0051319893,-0.7650187,-0.023601383,-2.2904418,-0.06934483,1.6036259,0.82548535,0.039999966,0.04,-9.797066,-0.49968937039375305,0.78045255,0.07903483,-0.13133154809474945,-0.07396657
223.85000000007028,0.0052581243,-0.7645246,-0.024203088,-2.288766,-0.07111132,1.604457,0.82648987,0.039999966,0.04,-9.794526,-0.5111913084983826,0.8007909,0.080170415,-0.1328861117362976,-0.07488122
223.86666666673696,0.0053858706,-0.76402414,-0.024812492,-2.2870681,-0.072900355,1.6052985,0.82750726,0.03999996,0.04,-9.79208,-0.5229101181030273,0.8214625,0.08130448,-0.13443487882614136,-0.07579308
223.88333333340364,0.0055152182,-0.7635174,-0.025429545,-2.2853491,-0.07471187,1.6061506,0.82853746,0.039999966,0.04,-9.789402,-0.5346684455871582,0.8423812,0.082436524,-0.13597527146339417,-0.076694064
223.90000000007032,0.005646158,-0.7630045,-0.026054213,-2.2836092,-0.076545686,1.6070132,0.82958037,0.03999995,0.04,-9.786649,-0.5465002655982971,0.8635915,0.08356593,-0.13750751316547394,-0.07758073
223.916666666737,0.0057786806,-0.76248544,-0.026686437,-2.2818482,-0.07840166,1.6078863,0.83063585,0.039999958,0.04,-9.783804,-0.5584483742713928,0.885058,0.08469259,-0.13903170824050903,-0.07845959
223.93333333340368,0.0059127742,-0.7619601,-0.02732618,-2.2800658,-0.08027968,1.6087698,0.83170384,0.039999958,0.04,-9.780884,-0.5706453919410706,0.9068329,0.085816376,-0.14054708182811737,-0.079350345
223.95000000007036,0.00604843,-0.7614287,-0.027973384,-2.2782629,-0.08217953,1.6096637,0.83278435,0.03999996,0.04,-9.777772,-0.5827586054801941,0.9288498,0.0869372,-0.142051100730896,-0.080226585
223.96666666673704,0.0061856364,-0.76089126,-0.02862799,-2.2764392,-0.08410113,1.6105676,0.83387727,0.039999943,0.04,-9.774661,-0.5949807167053223,0.95115745,0.08805437,-0.14354626834392548,-0.08108797
223.98333333340372,0.006324382,-0.76034784,-0.029289952,-2.2745953,-0.08604431,1.6114817,0.83498245,0.039999966,0.04,-9.7713585,-0.607268214225769,0.97371984,0.08916794,-0.14503124356269836,-0.081936724
224.0000000000704,0.0064646555,-0.75979847,-0.029959213,-2.272731,-0.088008866,1.6124058,0.8360995,0.03999995,0.04,-9.76804,-0.6198492050170898,0.99658203,0.09027709,-0.14650779962539673,-0.08280269
224.01666666673708,0.0066064433,-0.7592431,-0.030635722,-2.2708461,-0.08999467,1.61334,0.83722895,0.03999995,0.04,-9.764571,-0.6322199106216431,1.0196925,0.09138427,-0.14797288179397583,-0.08363518
224.03333333340376,0.006749735,-0.7586817,-0.03131941,-2.268942,-0.09200154,1.6142842,0.83837026,0.039999947,0.04,-9.760888,-0.6447991132736206,1.0430497,0.09248522,-0.1494249701499939,-0.08446477
224.05000000007044,0.0068945154,-0.7581146,-0.03201022,-2.2670183,-0.09402929,1.615238,0.8395235,0.03999995,0.04,-9.757337,-0.6574887633323669,1.0667032,0.09358269,-0.15087011456489563,-0.08528514
224.06666666673712,0.007040774,-0.75754154,-0.03270809,-2.2650745,-0.09607772,1.6162015,0.8406885,0.03999995,0.04,-9.753478,-0.6702468991279602,1.0906078,0.09467477,-0.15230347216129303,-0.08610231
224.0833333334038,0.0071884957,-0.75696284,-0.033412952,-2.2631114,-0.09814665,1.617175,0.8418651,0.039999936,0.04,-9.749542,-0.6830303072929382,1.1147486,0.095761746,-0.15372471511363983,-0.08690741
224.10000000007048,0.0073376694,-0.7563785,-0.03412475,-2.2611287,-0.10023588,1.6181576,0.8430533,0.039999954,0.04,-9.745454,-0.6958439350128174,1.1391642,0.09684365,-0.1551322191953659,-0.08769828
224.11666666673716,0.0074882787,-0.7557884,-0.034843408,-2.2591274,-0.10234521,1.6191502,0.84425294,0.039999954,0.04,-9.741266,-0.708884060382843,1.1638621,0.09791981,-0.15652844309806824,-0.088499226
224.13333333340384,0.0076403106,-0.75519276,-0.03556887,-2.2571068,-0.10447453,1.6201518,0.84546393,0.03999994,0.04,-9.73702,-0.7218193411827087,1.1887821,0.09899016,-0.15791167318820953,-0.089277126
224.15000000007052,0.007793749,-0.75459176,-0.03630104,-2.2550678,-0.106623515,1.6211628,0.8466861,0.039999947,0.04,-9.732551,-0.7347763776779175,1.2139504,0.10005489,-0.15928122401237488,-0.09003036
224.1666666667372,0.007948581,-0.7539852,-0.03703986,-2.25301,-0.108791985,1.6221828,0.8479194,0.039999943,0.04,-9.72799,-0.7479285001754761,1.2393931,0.10111255,-0.16063717007637024,-0.09078846
224.18333333340388,0.008104787,-0.7533732,-0.03778527,-2.2509344,-0.110979736,1.6232121,0.8491636,0.03999993,0.04,-9.723297,-0.7610906362533569,1.2650678,0.10216386,-0.16197873651981354,-0.091535196
224.20000000007056,0.008262356,-0.7527559,-0.038537186,-2.2488399,-0.11318655,1.6242504,0.8504187,0.03999994,0.04,-9.718547,-0.7742602229118347,1.290995,0.10320894,-0.16330817341804504,-0.09226596
224.21666666673724,0.008421271,-0.7521333,-0.039295536,-2.2467282,-0.11541221,1.6252973,0.85168445,0.039999943,0.04,-9.713496,-0.7875531911849976,1.3171599,0.10424608,-0.16461963951587677,-0.09299887
224.23333333340392,0.008581516,-0.75150526,-0.040060233,-2.2445986,-0.11765647,1.6263531,0.85296094,0.039999936,0.04,-9.708473,-0.8008384704589844,1.3435597,0.10527604,-0.16592007875442505,-0.093725465
224.2500000000706,0.008743072,-0.75087225,-0.04083122,-2.2424507,-0.11991913,1.6274177,0.8542478,0.039999936,0.04,-9.703283,-0.8141040205955505,1.370188,0.10629816,-0.16720516979694366,-0.0944268
224.26666666673728,0.008905925,-0.75023425,-0.041608393,-2.2402866,-0.12219992,1.6284908,0.855545,0.039999932,0.04,-9.697801,-0.8274636268615723,1.3970746,0.10731226,-0.16846974194049835,-0.09512222
224.28333333340396,0.009070059,-0.74959093,-0.042391684,-2.2381055,-0.124498636,1.6295722,0.85685235,0.03999993,0.04,-9.6924095,-0.8408183455467224,1.4241905,0.108318835,-0.16972295939922333,-0.09580421
224.30000000007064,0.009235455,-0.7489429,-0.043181,-2.2359073,-0.12681505,1.6306618,0.8581698,0.039999936,0.04,-9.686866,-0.8542755246162415,1.4515185,0.10931706,-0.1709636151790619,-0.09647828
224.31666666673732,0.009402096,-0.7482901,-0.04397627,-2.2336922,-0.12914884,1.6317598,0.85949713,0.039999936,0.04,-9.680976,-0.8677384257316589,1.4790905,0.110306,-0.17218321561813354,-0.09714985
224.333333333404,0.009569965,-0.7476325,-0.04477739,-2.231461,-0.13149978,1.6328659,0.8608343,0.03999993,0.04,-9.6750345,-0.8811643719673157,1.5068896,0.111286335,-0.1733856052160263,-0.09780592
224.35000000007068,0.009739043,-0.74697006,-0.04558429,-2.2292144,-0.13386768,1.6339797,0.86218107,0.039999932,0.04,-9.668973,-0.8945921659469604,1.5348809,0.112257145,-0.1745709329843521,-0.098446146
224.36666666673736,0.009909312,-0.7463029,-0.04639688,-2.2269518,-0.13625224,1.6351016,0.8635373,0.039999932,0.04,-9.662898,-0.9081379175186157,1.5631229,0.11321931,-0.1757449209690094,-0.099079184
224.38333333340404,0.010080756,-0.74563116,-0.047215085,-2.2246735,-0.13865323,1.6362311,0.86490285,0.039999932,0.04,-9.656539,-0.9216271042823792,1.5915538,0.11417197,-0.17689968645572662,-0.09969983
224.40000000007072,0.010253351,-0.74495494,-0.04803881,-2.2223802,-0.14107032,1.6373683,0.8662777,0.039999932,0.04,-9.650021,-0.9351285099983215,1.6201969,0.11511446,-0.1780369132757187,-0.10030953
224.4166666667374,0.010427083,-0.7442743,-0.048867952,-2.2200716,-0.14350331,1.6385131,0.86766154,0.039999932,0.04,-9.643364,-0.9486150741577148,1.6490266,0.116046526,-0.17915575206279755,-0.10090736
224.43333333340408,0.01060193,-0.74358934,-0.049702417,-2.2177482,-0.14595187,1.6396651,0.8690541,0.03999993,0.04,-9.636582,-0.9621409773826599,1.6781057,0.116968356,-0.1802559792995453,-0.101492025
224.45000000007076,0.010777873,-0.7428999,-0.050542127,-2.2154098,-0.14841576,1.6408242,0.8704555,0.03999993,0.04,-9.629629,-0.9756527543067932,1.7073619,0.11788027,-0.18133772909641266,-0.10206435
224.46666666673744,0.010954893,-0.74220634,-0.05138697,-2.2130573,-0.1508947,1.6419905,0.8718656,0.03999993,0.04,-9.622472,-0.9891207218170166,1.7367952,0.118780434,-0.18240094184875488,-0.10262499
224.48333333340412,0.011132967,-0.7415086,-0.052236885,-2.2106905,-0.15338841,1.6431639,0.873284,0.039999913,0.04,-9.615266,-1.00264310836792,1.7664661,0.11966954,-0.18344518542289734,-0.1031747
224.5000000000708,0.01131208,-0.74080694,-0.05309174,-2.2083094,-0.15589663,1.6443442,0.8747106,0.039999932,0.04,-9.607814,-1.0161088705062866,1.7962911,0.12054691,-0.18446865677833557,-0.103711076
224.51666666673748,0.011492207,-0.74010116,-0.053951457,-2.205916,-0.15841906,1.6455312,0.87614524,0.039999913,0.04,-9.60017,-1.0295672416687012,1.8263302,0.121412575,-0.1854696124792099,-0.104237564
224.53333333340416,0.011673331,-0.7393914,-0.054815926,-2.2035093,-0.16095538,1.6467245,0.8775877,0.039999917,0.04,-9.592606,-1.0430160760879517,1.8565202,0.122267745,-0.18645665049552917,-0.10475165
224.55000000007084,0.011855433,-0.7386779,-0.055685047,-2.2010894,-0.16350533,1.6479242,0.8790383,0.03999992,0.04,-9.584772,-1.0564606189727783,1.8869202,0.12311136,-0.1874266117811203,-0.10525259
224.56666666673752,0.012038488,-0.73796076,-0.056558717,-2.198656,-0.16606863,1.6491302,0.8804967,0.03999992,0.04,-9.576666,-1.0700141191482544,1.9174849,0.123940736,-0.18837474286556244,-0.10576981
224.5833333334042,0.012222474,-0.73724,-0.05743685,-2.1962113,-0.16864498,1.6503423,0.8819618,0.039999925,0.04,-9.568408,-1.083039402961731,1.9482031,0.12475594,-0.18929745256900787,-0.106218964
224.60000000007088,0.012407374,-0.7365156,-0.058319345,-2.1937537,-0.17123406,1.6515605,0.88343406,0.039999913,0.04,-9.560172,-1.0965653657913208,1.9791086,0.125562,-0.19020551443099976,-0.10668893
224.61666666673756,0.012593165,-0.73578775,-0.0592061,-2.1912851,-0.1738356,1.6527847,0.8849138,0.039999913,0.04,-9.551571,-1.109875202178955,2.0101564,0.12635563,-0.1910894215106964,-0.1071461
224.63333333340424,0.012779826,-0.7350567,-0.06009699,-2.1888044,-0.17644924,1.6540146,0.8864007,0.039999913,0.04,-9.542992,-1.12311851978302,2.0413935,0.1271343,-0.19195488095283508,-0.1075863
224.65000000007092,0.012967335,-0.73432213,-0.060991943,-2.1863127,-0.17907472,1.65525,0.88789403,0.039999913,0.04,-9.53409,-1.1363292932510376,2.072767,0.12789787,-0.19279612600803375,-0.10801466
224.6666666667376,0.013155667,-0.7335842,-0.06189084,-2.1838098,-0.1817117,1.6564908,0.8893938,0.03999991,0.04,-9.525175,-1.1495025157928467,2.104272,0.12864949,-0.19362041354179382,-0.108430095
224.68333333340428,0.013344802,-0.73284316,-0.062793575,-2.1812963,-0.18435992,1.6577369,0.89090025,0.039999913,0.04,-9.515986,-1.162818193435669,2.135941,0.1293878,-0.19442254304885864,-0.108864576
224.70000000007096,0.01353472,-0.73209935,-0.063700035,-2.1787724,-0.18701904,1.658988,0.892413,0.0399999,0.04,-9.506717,-1.1755549907684326,2.167743,0.13011041,-0.19520170986652374,-0.10922563
224.71666666673764,0.013725396,-0.73135245,-0.064610116,-2.1762388,-0.18968873,1.6602442,0.8939317,0.039999902,0.04,-9.497157,-1.1888525485992432,2.1997094,0.13081792,-0.19595924019813538,-0.109628454
224.73333333340432,0.01391681,-0.73060274,-0.065523714,-2.1736948,-0.19236867,1.6615052,0.8954562,0.0399999,0.04,-9.487649,-1.201697587966919,2.2317865,0.13151217,-0.1966969072818756,-0.10998941
224.750000000071,0.014108937,-0.72985,-0.06644073,-2.1711416,-0.19505854,1.6627709,0.89698637,0.03999989,0.04,-9.477745,-1.2146060466766357,2.2640007,0.13219084,-0.19740934669971466,-0.110341765
224.76666666673768,0.014301755,-0.72909474,-0.067361034,-2.1685793,-0.1977581,1.664041,0.89852184,0.039999884,0.04,-9.467864,-1.2274670600891113,2.2963235,0.132855,-0.19810272753238678,-0.11068229
224.78333333340436,0.014495242,-0.7283371,-0.06828451,-2.166008,-0.20046689,1.6653157,0.90006274,0.03999988,0.04,-9.457723,-1.2402461767196655,2.3287647,0.13350457,-0.19877256453037262,-0.11101185
224.80000000007104,0.014689375,-0.72757655,-0.06921106,-2.1634285,-0.20318471,1.6665946,0.90160894,0.039999876,0.04,-9.4474,-1.2529717683792114,2.3613627,0.13413814,-0.19941771030426025,-0.11133029
224.81666666673772,0.014884128,-0.7268136,-0.0701406,-2.1608412,-0.2059112,1.6678776,0.9031596,0.039999876,0.04,-9.437093,-1.2655671834945679,2.3940187,0.13475586,-0.200044646859169,-0.11162274
224.8333333334044,0.0150794815,-0.72604847,-0.07107298,-2.1582456,-0.20864598,1.6691643,0.9047154,0.039999876,0.04,-9.426522,-1.2781857252120972,2.426806,0.13536005,-0.20064976811408997,-0.11191019
224.85000000007108,0.01527541,-0.725281,-0.0720081,-2.155642,-0.21138877,1.6704549,0.90627545,0.03999987,0.04,-9.415721,-1.2906519174575806,2.4596868,0.13594618,-0.20123156905174255,-0.11218481
224.86666666673776,0.015471891,-0.7245113,-0.07294586,-2.1530318,-0.21413924,1.671749,0.9078401,0.039999865,0.04,-9.404767,-1.3030786514282227,2.4926581,0.13651744,-0.2017882615327835,-0.11244772
224.88333333340444,0.015668903,-0.7237397,-0.073886134,-2.1504142,-0.21689704,1.6730466,0.90940887,0.039999858,0.04,-9.393786,-1.315458059310913,2.5257406,0.13707173,-0.20232585072517395,-0.11270337
224.90000000007112,0.015866414,-0.7229661,-0.07482882,-2.1477895,-0.21966185,1.6743475,0.91098166,0.039999865,0.04,-9.382509,-1.3276158571243286,2.5588908,0.13760947,-0.2028379589319229,-0.112931535
224.9166666667378,0.016064402,-0.72219074,-0.07577379,-2.145159,-0.2224333,1.6756517,0.9125582,0.03999986,0.04,-9.371006,-1.3398240804672241,2.5921133,0.13812956,-0.203323632478714,-0.113162175
224.93333333340448,0.01626285,-0.72141355,-0.07672093,-2.142522,-0.22521107,1.6769587,0.9141384,0.03999986,0.04,-9.359565,-1.3519433736801147,2.62547,0.13863361,-0.20378977060317993,-0.11338204
224.95000000007116,0.01646173,-0.7206345,-0.077670135,-2.1398795,-0.22799484,1.6782686,0.915722,0.039999858,0.04,-9.347805,-1.3639098405838013,2.6588497,0.13912024,-0.20423081517219543,-0.11358818
224.96666666673784,0.016661014,-0.7198539,-0.07862126,-2.1372318,-0.23078425,1.6795813,0.91730887,0.03999985,0.04,-9.336001,-1.3757283687591553,2.6922777,0.13958982,-0.20464925467967987,-0.11376836
224.98333333340452,0.016860688,-0.719072,-0.079574235,-2.134579,-0.23357898,1.6808963,0.91889864,0.03999985,0.04,-9.323983,-1.3875292539596558,2.7258062,0.14004177,-0.20504331588745117,-0.11393574
225.0000000000712,0.017060721,-0.7182886,-0.08052892,-2.1319208,-0.23637865,1.6822137,0.9204913,0.039999843,0.04,-9.311823,-1.3992632627487183,2.759411,0.14047703,-0.20541466772556305,-0.11409662
225.01666666673788,0.017261086,-0.71750396,-0.08148518,-2.129259,-0.23918295,1.6835334,0.9220866,0.03999983,0.04,-9.299399,-1.4108445644378662,2.7930214,0.1408937,-0.2057594656944275,-0.11424813
225.03333333340456,0.017461762,-0.71671826,-0.082442924,-2.1265924,-0.24199156,1.6848551,0.9236844,0.039999824,0.04,-9.287078,-1.4223580360412598,2.8267088,0.14129351,-0.2060847133398056,-0.114383824
225.05000000007124,0.01766273,-0.71593124,-0.083402045,-2.1239226,-0.24480411,1.6861789,0.9252844,0.039999828,0.04,-9.274284,-1.4336942434310913,2.8604376,0.14167373,-0.2063802033662796,-0.11450426
225.06666666673792,0.017863957,-0.7151433,-0.08436244,-2.1212487,-0.24762025,1.687504,0.92688644,0.039999828,0.04,-9.261637,-1.4450057744979858,2.8941996,0.14203706,-0.20665523409843445,-0.114611305
225.0833333334046,0.01806542,-0.7143545,-0.08532393,-2.118572,-0.25043964,1.688831,0.92849034,0.039999817,0.04,-9.24862,-1.4561517238616943,2.9280012,0.1423811,-0.20690402388572693,-0.114708565
225.10000000007128,0.018267095,-0.71356475,-0.08628642,-2.115893,-0.25326195,1.6901593,0.93009603,0.0399998,0.04,-9.235594,-1.4672372341156006,2.9618297,0.14270751,-0.20712991058826447,-0.11479449
225.11666666673796,0.018468965,-0.7127744,-0.08724982,-2.113211,-0.2560869,1.6914884,0.9317032,0.039999794,0.04,-9.222434,-1.4781994819641113,2.995682,0.14301513,-0.20733316242694855,-0.11486591
225.13333333340464,0.018670995,-0.71198326,-0.08821401,-2.110527,-0.25891408,1.692819,0.9333114,0.039999794,0.04,-9.20903,-1.4889883995056152,3.0295548,0.14330348,-0.20751221477985382,-0.114920385
225.15000000007132,0.01887316,-0.71119183,-0.08917882,-2.1078417,-0.26174307,1.6941504,0.9349209,0.039999798,0.04,-9.19559,-1.4997299909591675,3.0634184,0.14357494,-0.20766697824001312,-0.114961915
225.166666666738,0.019075442,-0.71039987,-0.09014417,-2.105155,-0.2645736,1.6954825,0.936531,0.039999787,0.04,-9.18197,-1.5103367567062378,3.0973213,0.14382628,-0.20779824256896973,-0.1149933
225.18333333340468,0.019277815,-0.7096075,-0.091109976,-2.102467,-0.26740515,1.696815,0.938142,0.039999772,0.04,-9.168185,-1.5208346843719482,3.1312182,0.14406024,-0.2079058438539505,-0.11501261
225.20000000007136,0.019480253,-0.70881486,-0.09207608,-2.099778,-0.27023765,1.6981478,0.9397534,0.03999976,0.04,-9.154343,-1.5312148332595825,3.165099,0.1442745,-0.20799164474010468,-0.115019076
225.21666666673804,0.019682728,-0.7080221,-0.09304234,-2.0970886,-0.27307057,1.699481,0.94136506,0.03999976,0.04,-9.140235,-1.5413976907730103,3.1989677,0.14446902,-0.20805123448371887,-0.11500854
225.23333333340472,0.01988522,-0.70722926,-0.09400868,-2.0943992,-0.2759038,1.7008142,0.9429767,0.039999753,0.04,-9.126052,-1.5515273809432983,3.2328422,0.1446447,-0.2080855667591095,-0.11498614
225.2500000000714,0.0200877,-0.7064367,-0.09497493,-2.09171,-0.27873674,1.7021475,0.9445883,0.039999746,0.04,-9.111804,-1.561540961265564,3.2666929,0.14480211,-0.20809778571128845,-0.114950515
225.26666666673808,0.020290148,-0.7056442,-0.095941015,-2.0890212,-0.28156897,1.7034804,0.9461998,0.039999742,0.04,-9.097355,-1.5714054107666016,3.3005428,0.14493975,-0.2080850750207901,-0.11490157
225.28333333340476,0.020492533,-0.704852,-0.0969068,-2.0863333,-0.28440043,1.7048128,0.94781077,0.03999973,0.04,-9.082762,-1.581145167350769,3.3343318,0.14505643,-0.20804749429225922,-0.11484305
225.30000000007144,0.020694837,-0.70405996,-0.09787218,-2.0836465,-0.2872307,1.7061446,0.9494207,0.039999723,0.04,-9.06808,-1.5907552242279053,3.3681197,0.14515398,-0.2079857885837555,-0.11476985
225.31666666673812,0.020897035,-0.70326877,-0.098837055,-2.080961,-0.2900591,1.7074759,0.9510301,0.039999712,0.04,-9.053317,-1.600242257118225,3.4018488,0.14523366,-0.20790185034275055,-0.11468205
225.3333333334048,0.021099096,-0.7024779,-0.09980125,-2.0782773,-0.29288572,1.7088063,0.9526381,0.039999705,0.04,-9.038308,-1.609578013420105,3.4355686,0.14529113,-0.20778976380825043,-0.11458326
225.35000000007147,0.021301,-0.70168763,-0.10076473,-2.0755959,-0.2957101,1.7101355,0.9542448,0.039999697,0.04,-9.023294,-1.6188058853149414,3.4691951,0.1453307,-0.20765449106693268,-0.11447013
225.36666666673815,0.02150272,-0.7008982,-0.10172729,-2.0729165,-0.29853162,1.7114636,0.9558502,0.039999697,0.04,-9.00814,-1.6278789043426514,3.5028143,0.14535053,-0.20749559998512268,-0.11434211
225.38333333340483,0.021704234,-0.7001095,-0.10268881,-2.0702403,-0.30135018,1.7127901,0.95745397,0.039999697,0.04,-8.992805,-1.636847972869873,3.5363512,0.14534917,-0.20731037855148315,-0.11420522
225.40000000007151,0.021905517,-0.6993217,-0.10364929,-2.0675676,-0.30416533,1.7141151,0.9590558,0.039999686,0.04,-8.977472,-1.645681619644165,3.5698538,0.14532816,-0.20710282027721405,-0.11405378
225.4166666667382,0.022106541,-0.69853497,-0.10460847,-2.0648978,-0.306977,1.7154382,0.9606555,0.039999675,0.04,-8.962052,-1.6543790102005005,3.6032774,0.14528802,-0.20687395334243774,-0.113890424
225.43333333340487,0.022307279,-0.6977493,-0.105566286,-2.0622325,-0.3097846,1.7167594,0.9622527,0.039999668,0.04,-8.946388,-1.6629137992858887,3.6366236,0.1452274,-0.2066190093755722,-0.11371334
225.45000000007155,0.02250772,-0.6969649,-0.10652264,-2.059571,-0.31258777,1.7180787,0.96384764,0.03999966,0.04,-8.930773,-1.6713569164276123,3.669915,0.14514934,-0.20634281635284424,-0.1135214
225.46666666673823,0.022707831,-0.69618183,-0.10747743,-2.0569139,-0.31538627,1.719396,0.9654398,0.039999653,0.04,-8.914974,-1.6796396970748901,3.7030914,0.1450498,-0.20604175329208374,-0.11331777
225.48333333340491,0.022907581,-0.6954002,-0.1084305,-2.0542607,-0.3181797,1.7207105,0.9670292,0.039999645,0.04,-8.899074,-1.68779456615448,3.7362127,0.14493103,-0.2057161182165146,-0.11310149
225.5000000000716,0.023106957,-0.69461995,-0.10938176,-2.0516133,-0.32096773,1.7220229,0.96861523,0.039999634,0.04,-8.882979,-1.695758581161499,3.7692301,0.14479028,-0.20536457002162933,-0.11287143
225.51666666673827,0.02330593,-0.69384134,-0.110331066,-2.048972,-0.32375002,1.7233324,0.9701983,0.039999634,0.04,-8.867006,-1.7036606073379517,3.8021739,0.14463249,-0.20499107241630554,-0.11262744
225.53333333340495,0.023504471,-0.6930645,-0.11127831,-2.0463355,-0.32652625,1.724639,0.97177786,0.039999627,0.04,-8.850923,-1.7114299535751343,3.8350163,0.14445442,-0.2045965939760208,-0.11237227
225.55000000007163,0.023702556,-0.6922895,-0.1122234,-2.043705,-0.329296,1.7259425,0.97335374,0.039999615,0.04,-8.834579,-1.7190091609954834,3.8677363,0.14425538,-0.20417550206184387,-0.11210467
225.5666666667383,0.02390017,-0.69151646,-0.11316619,-2.041081,-0.33205903,1.7272431,0.9749259,0.039999608,0.04,-8.818256,-1.7264657020568848,3.9003768,0.1440368,-0.20373199880123138,-0.11182443
225.583333333405,0.024097279,-0.6907454,-0.11410661,-2.0384636,-0.33481497,1.7285403,0.97649395,0.039999593,0.04,-8.801822,-1.7337987422943115,3.9328983,0.143798,-0.20326314866542816,-0.11153372
225.60000000007167,0.024293873,-0.6899764,-0.11504451,-2.0358536,-0.33756346,1.7298338,0.9780577,0.039999582,0.04,-8.785403,-1.740992784500122,3.9653008,0.1435397,-0.20277224481105804,-0.111228324
225.61666666673835,0.024489917,-0.6892093,-0.11597978,-2.033251,-0.34030423,1.7311238,0.9796171,0.03999957,0.04,-8.768861,-1.7480612993240356,3.9975946,0.14326277,-0.2022600769996643,-0.1109118
225.63333333340503,0.024685392,-0.68844455,-0.11691231,-2.0306559,-0.34303692,1.73241,0.981172,0.039999567,0.04,-8.752332,-1.7549997568130493,4.0297318,0.1429668,-0.2017267793416977,-0.1105794
225.6500000000717,0.024880273,-0.6876823,-0.11784199,-2.0280685,-0.34576124,1.7336923,0.98272204,0.039999563,0.04,-8.735599,-1.7617640495300293,4.061758,0.14265037,-0.20116925239562988,-0.11023444
225.6666666667384,0.025074527,-0.6869223,-0.1187687,-2.0254896,-0.34847683,1.7349705,0.9842671,0.039999556,0.04,-8.718845,-1.7684061527252197,4.093655,0.14231421,-0.20058681070804596,-0.109877564
225.68333333340507,0.02526815,-0.6861648,-0.119692326,-2.02292,-0.3511833,1.7362441,0.98580706,0.039999552,0.04,-8.702081,-1.7749212980270386,4.125411,0.14195934,-0.19998346269130707,-0.109506525
225.70000000007175,0.025461106,-0.68541,-0.12061277,-2.0203586,-0.35388038,1.7375135,0.98734164,0.03999954,0.04,-8.685329,-1.7813338041305542,4.1570477,0.14158663,-0.19936154782772064,-0.109121494
225.71666666673843,0.025653375,-0.68465793,-0.12152992,-2.0178063,-0.3565677,1.7387785,0.98887086,0.03999953,0.04,-8.668377,-1.7875611782073975,4.1885004,0.14119388,-0.1987142413854599,-0.108724035
225.7333333334051,0.025844933,-0.68390876,-0.12244369,-2.0152633,-0.359245,1.7400388,0.9903944,0.039999515,0.04,-8.651399,-1.7936655282974243,4.2198186,0.14078084,-0.19804461300373077,-0.10831694
225.7500000000718,0.026035769,-0.6831624,-0.12335393,-2.0127306,-0.361912,1.7412941,0.9919122,0.03999951,0.04,-8.634365,-1.7996217012405396,4.2509933,0.14034781,-0.19735074043273926,-0.10789716
225.76666666673847,0.026225837,-0.682419,-0.12426055,-2.0102084,-0.3645683,1.7425444,0.9934237,0.0399995,0.04,-8.617401,-1.8055100440979004,4.2820125,0.13989666,-0.1966373324394226,-0.107466415
225.78333333340515,0.026415125,-0.6816789,-0.12516345,-2.0076964,-0.36721367,1.7437897,0.99492884,0.03999949,0.04,-8.600435,-1.8112421035766602,4.312884,0.13942806,-0.19590602815151215,-0.10702281
225.80000000007183,0.026603617,-0.6809418,-0.12606251,-2.0051947,-0.36984774,1.7450294,0.99642754,0.039999478,0.04,-8.58325,-1.8167970180511475,4.343562,0.13894138,-0.1951495110988617,-0.10656755
225.8166666667385,0.026791291,-0.6802079,-0.12695765,-2.0027041,-0.37247023,1.746264,0.9979196,0.039999474,0.04,-8.566108,-1.8222347497940063,4.374074,0.13843562,-0.19437144696712494,-0.1060991
225.8333333334052,0.026978109,-0.6794775,-0.12784871,-2.0002248,-0.37508073,1.7474927,0.99940515,0.039999463,0.04,-8.548976,-1.8275678157806396,4.404418,0.13791148,-0.19357235729694366,-0.10561878
225.85000000007187,0.027164066,-0.67875046,-0.12873565,-1.9977573,-0.37767905,1.7487156,1.0008836,0.039999455,0.04,-8.53181,-1.8327641487121582,4.4346094,0.13736813,-0.1927526891231537,-0.10512641
225.86666666673855,0.027349137,-0.6780268,-0.12961835,-1.9953014,-0.38026488,1.7499329,1.0023558,0.03999944,0.04,-8.514621,-1.8378396034240723,4.4645905,0.13680771,-0.19191275537014008,-0.1046239
225.88333333340523,0.027533295,-0.67730683,-0.13049667,-1.9928573,-0.38283783,1.7511439,1.0038203,0.03999943,0.04,-8.497404,-1.842760682106018,4.494386,0.13622399,-0.1910512000322342,-0.10410737
225.9000000000719,0.027716517,-0.6765906,-0.1313705,-1.9904261,-0.38539767,1.7523489,1.0052772,0.03999942,0.04,-8.480141,-1.8475590944290161,4.5240145,0.13562454,-0.1901676058769226,-0.10357963
225.9166666667386,0.027898792,-0.67587817,-0.13223979,-1.9880074,-0.38794407,1.7535475,1.0067263,0.03999941,0.04,-8.462968,-1.8522828817367554,4.5534716,0.13500893,-0.1892649531364441,-0.10304108
225.93333333340527,0.028080095,-0.6751695,-0.13310441,-1.985602,-0.39047688,1.7547396,1.0081677,0.039999403,0.04,-8.445709,-1.8568285703659058,4.5827107,0.1343757,-0.18834197521209717,-0.10249076
225.95000000007195,0.028260402,-0.67446464,-0.13396429,-1.9832095,-0.39299566,1.7559252,1.0096011,0.039999396,0.04,-8.428515,-1.8612831830978394,4.611759,0.13372537,-0.1873999834060669,-0.10192749
225.96666666673863,0.028439697,-0.6737638,-0.13481931,-1.9808306,-0.39550006,1.757104,1.0110265,0.03999938,0.04,-8.411299,-1.8656123876571655,4.6405973,0.13305743,-0.18643803894519806,-0.10135463
225.9833333334053,0.028617954,-0.6730669,-0.13566934,-1.9784656,-0.39798993,1.7582762,1.0124431,0.039999373,0.04,-8.394064,-1.8698021173477173,4.6692357,0.13237244,-0.18545570969581604,-0.10076802
226.000000000072,0.028795157,-0.6723742,-0.13651432,-1.9761146,-0.40046495,1.7594414,1.013851,0.039999355,0.04,-8.376876,-1.8739218711853027,4.6976705,0.13167316,-0.18445450067520142,-0.100172944
226.01666666673867,0.028971283,-0.6716859,-0.13735417,-1.973778,-0.4029248,1.7605994,1.0152507,0.039999343,0.04,-8.359709,-1.8778555393218994,4.7259007,0.1309578,-0.18343397974967957,-0.09955841
226.03333333340535,0.029146317,-0.67100185,-0.13818876,-1.971456,-0.40536928,1.7617501,1.0166414,0.039999336,0.04,-8.34251,-1.8817209005355835,4.7539406,0.13022424,-0.18239322304725647,-0.09893737
226.05000000007203,0.029320236,-0.670322,-0.13901804,-1.9691492,-0.4077981,1.7628937,1.0180234,0.03999933,0.04,-8.32536,-1.8854587078094482,4.7817407,0.12947541,-0.18133455514907837,-0.09830591
226.0666666667387,0.029493015,-0.669647,-0.13984188,-1.9668576,-0.41021094,1.7640296,1.0193963,0.03999931,0.04,-8.308313,-1.889132022857666,4.8093214,0.12871048,-0.18025855720043182,-0.09766415
226.0833333334054,0.029664647,-0.66897637,-0.14066017,-1.9645811,-0.41260764,1.7651579,1.02076,0.0399993,0.04,-8.291182,-1.8926259279251099,4.8367224,0.12792866,-0.17916439473628998,-0.097014725
226.10000000007207,0.029835101,-0.66831034,-0.14147289,-1.9623201,-0.41498783,1.7662783,1.0221143,0.039999288,0.04,-8.274151,-1.8960521221160889,4.8638678,0.12713161,-0.1780511736869812,-0.096351415
226.11666666673875,0.030004367,-0.66764903,-0.1422799,-1.9600749,-0.41735134,1.7673908,1.0234593,0.039999284,0.04,-8.257102,-1.899312973022461,4.890781,0.12631907,-0.17692074179649353,-0.095677376
226.13333333340543,0.030172423,-0.6669924,-0.14308107,-1.957846,-0.41969782,1.7684953,1.0247942,0.039999273,0.04,-8.24011,-1.9024909734725952,4.91747,0.12548974,-0.1757713109254837,-0.094991915
226.1500000000721,0.030339256,-0.66634065,-0.14387654,-1.9556334,-0.42202696,1.7695917,1.0261195,0.03999927,0.04,-8.22322,-1.9056147336959839,4.943949,0.124647796,-0.1746063083410263,-0.09429657
226.1666666667388,0.03050484,-0.6656937,-0.14466597,-1.9534373,-0.4243387,1.7706797,1.027435,0.039999258,0.04,-8.206361,-1.9085851907730103,4.970191,0.123789385,-0.17342402040958405,-0.09359181
226.18333333340547,0.030669162,-0.66505176,-0.14544933,-1.9512585,-0.42663252,1.7717597,1.0287404,0.039999243,0.04,-8.189524,-1.9114577770233154,4.996174,0.12291607,-0.17222535610198975,-0.0928752
226.20000000007215,0.030832205,-0.6644149,-0.14622654,-1.9490968,-0.4289085,1.772831,1.0300354,0.039999228,0.04,-8.17281,-1.9142857789993286,5.0219502,0.12202904,-0.17101064324378967,-0.09215123
226.21666666673883,0.030993957,-0.663783,-0.14699759,-1.946952,-0.43116623,1.7738937,1.0313201,0.039999217,0.04,-8.156117,-1.916970133781433,5.047503,0.121129155,-0.16978053748607635,-0.09141535
226.2333333334055,0.031154381,-0.6631563,-0.14776234,-1.9448245,-0.43340552,1.7749479,1.0325943,0.039999206,0.04,-8.139434,-1.9195365905761719,5.072741,0.12021415,-0.16853323578834534,-0.09067022
226.2500000000722,0.03131348,-0.66253495,-0.14852074,-1.942715,-0.43562612,1.7759932,1.033858,0.039999194,0.04,-8.122837,-1.9219930171966553,5.097771,0.11928501,-0.16726775467395782,-0.08990958
226.26666666673887,0.031471234,-0.6619189,-0.14927268,-1.9406234,-0.4378278,1.7770296,1.035111,0.039999183,0.04,-8.106361,-1.9244210720062256,5.1226025,0.11834308,-0.16598859429359436,-0.08914525
226.28333333340555,0.03162762,-0.6613081,-0.15001811,-1.9385501,-0.44001037,1.7780571,1.036353,0.039999176,0.04,-8.08994,-1.9267487525939941,5.1471567,0.11738701,-0.16469424962997437,-0.08837129
226.30000000007223,0.03178264,-0.6607028,-0.15075694,-1.9364952,-0.44217348,1.7790754,1.0375841,0.039999172,0.04,-8.073593,-1.9289510250091553,5.1714425,0.11641828,-0.1633843183517456,-0.087586366
226.3166666667389,0.03193625,-0.6601029,-0.15148912,-1.9344586,-0.44431722,1.7800846,1.0388038,0.03999916,0.04,-8.05734,-1.9311000108718872,5.195504,0.11543677,-0.16206109523773193,-0.08679553
226.3333333334056,0.03208845,-0.6595086,-0.15221456,-1.932441,-0.44644108,1.7810844,1.0400125,0.039999157,0.04,-8.041155,-1.9331289529800415,5.2192917,0.114444345,-0.16072238981723785,-0.08599303
226.35000000007227,0.03223923,-0.6589198,-0.1529332,-1.9304421,-0.44854498,1.7820748,1.0412098,0.03999915,0.04,-8.025094,-1.9351238012313843,5.242856,0.11343886,-0.1593698412179947,-0.08518415
226.36666666673895,0.03238857,-0.65833664,-0.15364493,-1.928462,-0.45062876,1.7830558,1.0423956,0.039999127,0.04,-8.009059,-1.9369686841964722,5.266134,0.11242064,-0.15800347924232483,-0.08436555
226.38333333340563,0.032536466,-0.6577592,-0.15434974,-1.9265018,-0.452692,1.7840269,1.0435697,0.039999116,0.04,-7.993123,-1.9387518167495728,5.2891555,0.11139089,-0.15662148594856262,-0.08353736
226.4000000000723,0.0326829,-0.65718764,-0.1550475,-1.9245611,-0.4547347,1.7849888,1.0447322,0.03999911,0.04,-7.9773784,-1.9404964447021484,5.3119535,0.11035117,-0.155229389667511,-0.082702085
226.416666666739,0.03282784,-0.6566219,-0.15573819,-1.9226401,-0.4567567,1.7859406,1.0458828,0.039999094,0.04,-7.961709,-1.9421738386154175,5.3344903,0.109300084,-0.15382269024848938,-0.081858136
226.43333333340567,0.03297129,-0.6560619,-0.15642177,-1.9207386,-0.45875782,1.7868825,1.0470216,0.039999086,0.04,-7.946066,-1.9437098503112793,5.356736,0.10823816,-0.15240366756916046,-0.08100765
226.45000000007235,0.03311323,-0.65550786,-0.15709816,-1.9188576,-0.4607377,1.7878147,1.0481485,0.03999908,0.04,-7.9305773,-1.9451978206634521,5.378725,0.10716478,-0.1509724259376526,-0.08014892
226.46666666673903,0.033253647,-0.65495986,-0.15776727,-1.9169967,-0.46269628,1.7887368,1.0492631,0.039999068,0.04,-7.915274,-1.9466277360916138,5.4004908,0.10608155,-0.1495283842086792,-0.07927571
226.4833333334057,0.033392545,-0.6544178,-0.15842906,-1.9151559,-0.46463344,1.7896485,1.0503654,0.03999906,0.04,-7.900003,-1.9479856491088867,5.421952,0.10498952,-0.1480744332075119,-0.07840038
226.5000000000724,0.03352988,-0.65388167,-0.1590835,-1.9133359,-0.46654883,1.7905504,1.0514559,0.039999053,0.04,-7.8848114,-1.949253797531128,5.443146,0.103887044,-0.1466076523065567,-0.077519044
226.51666666673907,0.033665664,-0.65335184,-0.1597305,-1.9115366,-0.4684425,1.791442,1.0525335,0.039999045,0.04,-7.869885,-1.9505105018615723,5.464084,0.102774166,-0.14513222873210907,-0.07663076
226.53333333340575,0.033799887,-0.652828,-0.16037002,-1.9097582,-0.4703143,1.7923234,1.0535986,0.039999027,0.04,-7.854964,-1.9516713619232178,5.4847846,0.10165361,-0.1436433345079422,-0.07573604
226.55000000007243,0.033932533,-0.65231013,-0.16100201,-1.9080006,-0.47216403,1.7931939,1.0546511,0.039999012,0.04,-7.840245,-1.9527671337127686,5.5051866,0.100525685,-0.14214655756950378,-0.07483369
226.5666666667391,0.0340636,-0.6517987,-0.16162643,-1.9062641,-0.47399148,1.7940543,1.055691,0.03999901,0.04,-7.8256226,-1.9538031816482544,5.525308,0.09938923,-0.14064030349254608,-0.07392249
226.5833333334058,0.03419307,-0.6512935,-0.16224325,-1.9045488,-0.47579655,1.794904,1.0567183,0.039998997,0.04,-7.8110995,-1.9547795057296753,5.5451875,0.09824434,-0.1391233503818512,-0.0730077
226.60000000007247,0.03432093,-0.6507947,-0.16285238,-1.9028549,-0.4775791,1.7957433,1.0577327,0.039998986,0.04,-7.7967668,-1.9557076692581177,5.564805,0.097090155,-0.13759736716747284,-0.07208682
226.61666666673915,0.034447167,-0.6503022,-0.16345373,-1.9011828,-0.47933897,1.7965719,1.0587343,0.03999898,0.04,-7.782552,-1.9565765857696533,5.584132,0.095930204,-0.13606201112270355,-0.07116017
226.63333333340583,0.03457177,-0.6498159,-0.16404733,-1.8995317,-0.48107618,1.79739,1.0597228,0.039998963,0.04,-7.7684846,-1.9574024677276611,5.6031985,0.09476288,-0.13451950252056122,-0.07022873
226.6500000000725,0.034694757,-0.64933616,-0.16463313,-1.8979028,-0.4827906,1.7981972,1.0606982,0.03999896,0.04,-7.7545247,-1.958148717880249,5.621972,0.09358887,-0.13296613097190857,-0.06928997
226.6666666667392,0.034816097,-0.64886284,-0.1652111,-1.8962958,-0.48448178,1.7989933,1.0616605,0.039998952,0.04,-7.740804,-1.958910584449768,5.640537,0.092409484,-0.13140670955181122,-0.068346
226.68333333340587,0.034935787,-0.6483961,-0.16578123,-1.8947107,-0.48615003,1.7997786,1.0626097,0.039998945,0.04,-7.727159,-1.9595167636871338,5.6587753,0.09122326,-0.12984010577201843,-0.06739217
226.70000000007255,0.03505382,-0.64793575,-0.16634342,-1.8931471,-0.48779497,1.8005532,1.0635457,0.039998937,0.04,-7.7136855,-1.9601569175720215,5.6767607,0.090031095,-0.12826712429523468,-0.066437304
226.71666666673923,0.03517018,-0.6474818,-0.16689764,-1.8916061,-0.48941663,1.8013165,1.0644685,0.03999892,0.04,-7.700336,-1.9607521295547485,5.6944695,0.08883252,-0.126685231924057,-0.06547981
226.7333333334059,0.035284873,-0.64703447,-0.16744389,-1.8900874,-0.49101496,1.8020691,1.0653782,0.03999891,0.04,-7.6872163,-1.9613070487976074,5.711909,0.08763016,-0.125100240111351,-0.06451798
226.7500000000726,0.03539789,-0.64659375,-0.16798216,-1.8885913,-0.49258974,1.8028107,1.0662746,0.0399989,0.04,-7.6742225,-1.961809754371643,5.7290807,0.086421974,-0.12350894510746002,-0.063552506
226.76666666673927,0.035509232,-0.64615965,-0.16851236,-1.8871169,-0.49414104,1.803541,1.0671576,0.03999889,0.04,-7.661419,-1.9622855186462402,5.745998,0.08520956,-0.12191355973482132,-0.06258351
226.78333333340595,0.03561889,-0.64573216,-0.16903454,-1.8856647,-0.4956687,1.8042601,1.0680273,0.039998885,0.04,-7.6486917,-1.9626964330673218,5.7626276,0.08399161,-0.12031129002571106,-0.061610825
226.80000000007263,0.035726845,-0.64531124,-0.16954862,-1.8842353,-0.49717274,1.8049681,1.0688833,0.039998878,0.04,-7.6361213,-1.9630331993103027,5.7789516,0.08276949,-0.11870277673006058,-0.060634002
226.8166666667393,0.035833105,-0.6448969,-0.17005461,-1.8828286,-0.49865302,1.8056649,1.0697259,0.039998867,0.04,-7.6238317,-1.9634149074554443,5.7950544,0.081544645,-0.11709196120500565,-0.059653737
226.833333333406,0.035937674,-0.64448935,-0.17055246,-1.8814448,-0.50010943,1.8063506,1.0705547,0.03999886,0.04,-7.611699,-1.963759422302246,5.810884,0.08031713,-0.11547930538654327,-0.058672544
226.85000000007267,0.03604053,-0.64408827,-0.17104219,-1.8800832,-0.501542,1.8070251,1.0713701,0.039998848,0.04,-7.59974,-1.9640902280807495,5.8264523,0.07908849,-0.11386271566152573,-0.057688426
226.86666666673935,0.036141675,-0.64369404,-0.17152375,-1.8787441,-0.5029506,1.8076885,1.0721719,0.039998837,0.04,-7.587859,-1.9643230438232422,5.8416944,0.07785568,-0.11224283277988434,-0.056704026
226.88333333340603,0.036241107,-0.6433062,-0.1719972,-1.8774278,-0.5043354,1.8083405,1.0729601,0.03999883,0.04,-7.57618,-1.9645380973815918,5.8567066,0.07662094,-0.11061862111091614,-0.05571613
226.9000000000727,0.036338836,-0.64292556,-0.17246246,-1.8761344,-0.50569636,1.8089813,1.0737348,0.039998826,0.04,-7.5647492,-1.9647493362426758,5.871434,0.07538425,-0.10899312794208527,-0.054723185
226.9166666667394,0.036434844,-0.6425513,-0.17291954,-1.8748637,-0.50703317,1.8096108,1.0744957,0.03999881,0.04,-7.553433,-1.9649180173873901,5.885962,0.07414586,-0.107364721596241,-0.05372785
226.93333333340607,0.03652914,-0.6421839,-0.17336842,-1.8736159,-0.50834596,1.8102291,1.075243,0.039998803,0.04,-7.5423527,-1.9651135206222534,5.9001417,0.0729077,-0.10573753714561462,-0.052734185
226.95000000007275,0.036621712,-0.6418232,-0.17380914,-1.8723911,-0.50963503,1.8108362,1.0759767,0.039998796,0.04,-7.531395,-1.9652385711669922,5.9140916,0.07166816,-0.1041082963347435,-0.051740523
226.96666666673943,0.036712572,-0.64146924,-0.17424177,-1.871189,-0.51090014,1.811432,1.0766968,0.03999879,0.04,-7.520718,-1.9654045104980469,5.9278073,0.070429,-0.10248015075922012,-0.050744854
226.9833333334061,0.036801726,-0.6411219,-0.17466606,-1.8700094,-0.512141,1.8120164,1.0774033,0.039998785,0.04,-7.510117,-1.965449571609497,5.941192,0.06918945,-0.10085097700357437,-0.04974718
227.0000000000728,0.03688915,-0.64078134,-0.1750822,-1.8688526,-0.513358,1.8125893,1.078096,0.03999878,0.04,-7.499708,-1.9655654430389404,5.954342,0.06794931,-0.09922289848327637,-0.048753444
227.01666666673947,0.036974873,-0.6404473,-0.1754902,-1.8677188,-0.514551,1.8131511,1.078775,0.03999877,0.04,-7.489525,-1.9656282663345337,5.9672422,0.06671107,-0.0975964218378067,-0.04775932
227.03333333340615,0.03705888,-0.64012015,-0.17589,-1.8666081,-0.51572,1.8137016,1.0794405,0.039998762,0.04,-7.4795785,-1.9657378196716309,5.9798822,0.065474935,-0.0959722027182579,-0.046764847
227.05000000007283,0.037141178,-0.6397995,-0.17628166,-1.8655201,-0.5168652,1.8142409,1.0800923,0.039998755,0.04,-7.469797,-1.9657893180847168,5.992265,0.06424068,-0.0943523645401001,-0.045773424
227.0666666667395,0.03722178,-0.63948554,-0.17666514,-1.8644545,-0.51798654,1.814769,1.0807304,0.039998744,0.04,-7.460186,-1.9658228158950806,6.0043626,0.063009016,-0.09273500740528107,-0.044780664
227.0833333334062,0.03730066,-0.6391782,-0.1770405,-1.8634115,-0.51908404,1.8152856,1.0813551,0.039998733,0.04,-7.450708,-1.9658385515213013,6.0161943,0.06177972,-0.09111908823251724,-0.04378974
227.10000000007287,0.03737785,-0.63887775,-0.1774078,-1.862391,-0.52015793,1.8157912,1.0819664,0.03999873,0.04,-7.4415073,-1.965888261795044,6.027822,0.060553096,-0.08950867503881454,-0.042801466
227.11666666673955,0.037453342,-0.6385836,-0.177767,-1.8613929,-0.52120787,1.8162855,1.0825639,0.039998725,0.04,-7.4324136,-1.9658504724502563,6.0391455,0.059328407,-0.08790036290884018,-0.04181501
227.13333333340623,0.037527144,-0.63829625,-0.1781181,-1.8604171,-0.5222346,1.8167686,1.0831482,0.03999872,0.04,-7.4235682,-1.9658666849136353,6.0502205,0.05810868,-0.08629831671714783,-0.040830668
227.1500000000729,0.03759927,-0.63801533,-0.17846116,-1.8594636,-0.5232376,1.8172408,1.0837191,0.039998714,0.04,-7.4148636,-1.9658417701721191,6.0610557,0.056891367,-0.08469926565885544,-0.03984862
227.1666666667396,0.037669703,-0.63774115,-0.17879628,-1.8585323,-0.5242171,1.8177022,1.0842766,0.03999871,0.04,-7.4064293,-1.9658764600753784,6.071656,0.055678476,-0.08310623466968536,-0.03886994
227.18333333340627,0.03773847,-0.6374734,-0.17912336,-1.8576235,-0.52517325,1.8181524,1.0848209,0.039998706,0.04,-7.398085,-1.9658033847808838,6.081978,0.054470215,-0.0815173014998436,-0.037894696
227.20000000007295,0.03780557,-0.6372122,-0.17944248,-1.8567367,-0.52610606,1.8185917,1.0853517,0.0399987,0.04,-7.3900394,-1.9658310413360596,6.092081,0.05326692,-0.07993703335523605,-0.036924306
227.21666666673963,0.037871003,-0.63695765,-0.1797537,-1.8558718,-0.5270158,1.8190202,1.0858696,0.039998688,0.04,-7.3821554,-1.965840458869934,6.101951,0.05207008,-0.07836368680000305,-0.035957955
227.2333333334063,0.037934788,-0.6367093,-0.18005702,-1.855029,-0.5279023,1.8194377,1.0863743,0.03999868,0.04,-7.3744106,-1.9657613039016724,6.1115365,0.050878074,-0.07679638266563416,-0.03499228
227.250000000073,0.037996937,-0.6364673,-0.18035255,-1.854208,-0.5287659,1.8198446,1.0868659,0.03999867,0.04,-7.3669496,-1.9657992124557495,6.1209035,0.049693253,-0.07523969560861588,-0.034034256
227.26666666673967,0.038057454,-0.6362318,-0.18064025,-1.8534086,-0.5296069,1.8202406,1.0873445,0.03999866,0.04,-7.3596334,-1.9657891988754272,6.130024,0.04851505,-0.07369131594896317,-0.033082806
227.28333333340635,0.038116343,-0.63600266,-0.18092027,-1.8526309,-0.53042525,1.820626,1.08781,0.039998654,0.04,-7.3525085,-1.965786099433899,6.138932,0.047344472,-0.07215183228254318,-0.032134812
227.30000000007303,0.038173627,-0.6357797,-0.18119258,-1.8518745,-0.5312211,1.8210006,1.0882627,0.039998647,0.04,-7.3455725,-1.96576988697052,6.147576,0.046182286,-0.07062266021966934,-0.031194517
227.3166666667397,0.038229294,-0.63556325,-0.18145725,-1.8511391,-0.5319945,1.8213646,1.0887029,0.03999864,0.04,-7.338849,-1.965768814086914,6.155989,0.04502887,-0.06910500675439835,-0.03025676
227.3333333334064,0.03828338,-0.63535285,-0.18171436,-1.8504251,-0.53274566,1.8217183,1.0891305,0.039998636,0.04,-7.332235,-1.965740442276001,6.1641808,0.043880947,-0.06759639084339142,-0.029328486
227.35000000007307,0.0383359,-0.6351488,-0.18196389,-1.8497317,-0.5334748,1.8220618,1.0895455,0.039998632,0.04,-7.325957,-1.9658098220825195,6.1721606,0.042742852,-0.06610119342803955,-0.028406095
227.36666666673975,0.038386848,-0.6349507,-0.18220606,-1.8490593,-0.53418213,1.822395,1.089948,0.039998624,0.04,-7.319682,-1.9657624959945679,6.1798654,0.041612886,-0.06461477279663086,-0.027491752
227.38333333340643,0.038436245,-0.63475883,-0.18244077,-1.8484075,-0.5348675,1.8227178,1.0903383,0.03999862,0.04,-7.3137813,-1.965822696685791,6.187378,0.0404941,-0.06314317882061005,-0.02658526
227.4000000000731,0.038484108,-0.6345728,-0.18266816,-1.8477762,-0.53553164,1.8230307,1.0907165,0.039998617,0.04,-7.3079486,-1.965834379196167,6.194685,0.039384317,-0.061685118824243546,-0.025687966
227.4166666667398,0.038530435,-0.6343927,-0.18288824,-1.847165,-0.53617436,1.8233336,1.0910823,0.039998613,0.04,-7.3023815,-1.9659175872802734,6.2017674,0.03828528,-0.060240719467401505,-0.024798213
227.43333333340647,0.03857526,-0.6342185,-0.18310116,-1.8465735,-0.53679615,1.8236265,1.0914363,0.039998613,0.04,-7.296945,-1.9659457206726074,6.208599,0.03719856,-0.05881054326891899,-0.02391537
227.45000000007315,0.038618594,-0.63405025,-0.18330695,-1.8460021,-0.53739697,1.8239095,1.0917785,0.039998613,0.04,-7.291658,-1.965970754623413,6.215228,0.036121644,-0.057393983006477356,-0.023042556
227.46666666673983,0.03866045,-0.63388777,-0.18350571,-1.8454506,-0.5379775,1.8241829,1.092109,0.039998606,0.04,-7.286651,-1.9660786390304565,6.2217,0.03505674,-0.05599500611424446,-0.022179704
227.4833333334065,0.038700845,-0.633731,-0.18369749,-1.8449183,-0.53853726,1.8244467,1.0924276,0.039998602,0.04,-7.2817965,-1.9661585092544556,6.227917,0.03400515,-0.05461277812719345,-0.021325815
227.5000000000732,0.03873982,-0.6335795,-0.18388245,-1.8444048,-0.5390772,1.8247011,1.0927347,0.03999859,0.04,-7.2770576,-1.9662398099899292,6.2339196,0.032966405,-0.05324611812829971,-0.020484501
227.51666666673987,0.038777374,-0.6334335,-0.18406057,-1.8439103,-0.5395973,1.824946,1.0930306,0.039998587,0.04,-7.272593,-1.9663667678833008,6.239715,0.031942412,-0.05189794674515724,-0.019651676
227.53333333340655,0.03881352,-0.6332932,-0.18423203,-1.8434346,-0.5400977,1.8251818,1.0933154,0.039998587,0.04,-7.2682543,-1.9664955139160156,6.2453446,0.03093203,-0.05056731402873993,-0.01882745
227.55000000007323,0.03884827,-0.63315845,-0.18439686,-1.8429769,-0.54057866,1.8254085,1.0935891,0.039998587,0.04,-7.2640676,-1.9666023254394531,6.250761,0.029934924,-0.0492553636431694,-0.01801669
227.5666666667399,0.038881656,-0.63302886,-0.18455522,-1.8425375,-0.5410407,1.825626,1.093852,0.039998576,0.04,-7.2600336,-1.9667253494262695,6.2559805,0.028952207,-0.04796162247657776,-0.017219318
227.58333333340659,0.0389137,-0.63290447,-0.18470713,-1.8421162,-0.5414842,1.8258348,1.0941048,0.039998572,0.04,-7.256231,-1.9668885469436646,6.2610235,0.027984174,-0.04668914154171944,-0.01643331
227.60000000007327,0.03894442,-0.6327855,-0.18485273,-1.841712,-0.54190904,1.8260347,1.094347,0.03999857,0.04,-7.252641,-1.967113733291626,6.265898,0.02703147,-0.04543817415833473,-0.015658934
227.61666666673995,0.03897384,-0.63267124,-0.18499215,-1.8413252,-0.54231566,1.8262264,1.0945786,0.039998565,0.04,-7.2490563,-1.9672214984893799,6.2705574,0.026093263,-0.044207047671079636,-0.014898427
227.63333333340663,0.039001998,-0.63256216,-0.18512547,-1.8409549,-0.5427046,1.8264096,1.0947999,0.039998565,0.04,-7.2457724,-1.967455267906189,6.2750244,0.025173469,-0.04299740493297577,-0.014150632
227.6500000000733,0.039028883,-0.6324579,-0.18525282,-1.8406019,-0.5430761,1.8265846,1.0950117,0.039998565,0.04,-7.242535,-1.9676331281661987,6.2793307,0.024270352,-0.04180813208222389,-0.013416725
227.66666666673999,0.039054547,-0.63235843,-0.18537429,-1.8402648,-0.54343045,1.8267514,1.0952135,0.039998565,0.04,-7.239638,-1.9679243564605713,6.2835126,0.023384767,-0.04064493253827095,-0.012695869
227.68333333340667,0.039079014,-0.6322636,-0.18549004,-1.8399438,-0.543768,1.8269104,1.0954058,0.03999856,0.04,-7.236728,-1.9681267738342285,6.287451,0.02251688,-0.039504241198301315,-0.011989992
227.70000000007335,0.039102294,-0.6321735,-0.18560016,-1.8396384,-0.5440889,1.8270617,1.0955888,0.039998557,0.04,-7.2340493,-1.9683983325958252,6.291268,0.021667683,-0.03838855400681496,-0.011299973
227.71666666674002,0.03912442,-0.63208807,-0.1857048,-1.8393482,-0.54439384,1.8272053,1.0957626,0.039998554,0.04,-7.231489,-1.9686707258224487,6.2949305,0.020836765,-0.03729698434472084,-0.010625322
227.7333333334067,0.03914542,-0.6320068,-0.18580405,-1.8390728,-0.54468316,1.8273416,1.0959271,0.03999855,0.04,-7.2290444,-1.9689239263534546,6.298423,0.020025222,-0.03623058274388313,-0.009967327
227.75000000007338,0.039165337,-0.6319297,-0.18589807,-1.8388121,-0.544957,1.8274705,1.0960834,0.03999855,0.04,-7.226791,-1.9692353010177612,6.301737,0.019235497,-0.0351899228990078,-0.009323881
227.76666666674006,0.039184175,-0.631857,-0.185987,-1.8385656,-0.545216,1.8275926,1.0962311,0.039998546,0.04,-7.2247267,-1.9695947170257568,6.304944,0.018464401,-0.034179139882326126,-0.008698359
227.78333333340674,0.03920199,-0.63178825,-0.18607095,-1.8383328,-0.5454606,1.8277076,1.0963705,0.039998543,0.04,-7.2226973,-1.9699101448059082,6.3080015,0.017714381,-0.03319324180483818,-0.008090186
227.80000000007342,0.0392188,-0.63172364,-0.1861501,-1.8381137,-0.54569125,1.8278162,1.0965015,0.03999854,0.04,-7.220868,-1.970258116722107,6.310905,0.016986452,-0.032237377017736435,-0.0074989228
227.8166666667401,0.039234616,-0.63166285,-0.18622458,-1.8379073,-0.5459081,1.8279184,1.0966249,0.03999854,0.04,-7.219162,-1.9706227779388428,6.313687,0.016282305,-0.03130929917097092,-0.0069238604
227.83333333340678,0.03924949,-0.63160557,-0.18629454,-1.8377137,-0.5461116,1.8280143,1.0967407,0.039998535,0.04,-7.217535,-1.9709986448287964,6.3163176,0.015599764,-0.030410533770918846,-0.006369119
227.85000000007346,0.039263446,-0.6315518,-0.18636005,-1.8375323,-0.54630256,1.8281044,1.0968491,0.03999853,0.04,-7.216138,-1.9714469909667969,6.318857,0.01494081,-0.029544590041041374,-0.005833178
227.86666666674014,0.03927653,-0.63150156,-0.18642147,-1.8373624,-0.5464809,1.8281884,1.0969508,0.03999853,0.04,-7.2147703,-1.9718620777130127,6.3212256,0.014306952,-0.02870733104646206,-0.0053147143
227.88333333340682,0.03928876,-0.63145477,-0.18647875,-1.837204,-0.5466475,1.8282671,1.0970458,0.039998528,0.04,-7.213547,-1.9722778797149658,6.3235083,0.013694509,-0.027903515845537186,-0.0048178704
227.9000000000735,0.039300174,-0.6314112,-0.1865321,-1.8370563,-0.5468029,1.82834,1.0971345,0.039998528,0.04,-7.212394,-1.9727197885513306,6.3256774,0.0131065305,-0.027130048722028732,-0.004340379
227.91666666674018,0.0393108,-0.6313704,-0.18658179,-1.8369188,-0.5469472,1.8284081,1.0972164,0.039998524,0.04,-7.211401,-1.973202109336853,6.327765,0.012543559,-0.0263916477560997,-0.003883056
227.93333333340686,0.03932069,-0.63133276,-0.18662794,-1.836791,-0.5470812,1.8284717,1.0972929,0.039998524,0.04,-7.210507,-1.9736759662628174,6.3296924,0.012008889,-0.025686563923954964,-0.003446611
227.95000000007354,0.03932986,-0.63129777,-0.18667072,-1.8366728,-0.54720545,1.8285302,1.0973635,0.03999852,0.04,-7.2096443,-1.974152684211731,6.331548,0.0114968335,-0.02501313015818596,-0.0030330066
227.96666666674022,0.039338384,-0.6312654,-0.18671025,-1.8365636,-0.54732025,1.8285842,1.0974288,0.03999852,0.04,-7.2089596,-1.9746661186218262,6.333334,0.011013405,-0.024376513436436653,-0.0026388855
227.9833333334069,0.039346267,-0.6312356,-0.18674679,-1.8364626,-0.54742616,1.828634,1.0974895,0.039998516,0.04,-7.208361,-1.975222110748291,6.3350277,0.010558319,-0.02377769909799099,-0.0022685514
228.00000000007358,0.039353557,-0.6312082,-0.18678045,-1.8363695,-0.5475238,1.8286799,1.097545,0.039998513,0.04,-7.207804,-1.975740909576416,6.3366337,0.010128129,-0.023214546963572502,-0.0019201982
228.01666666674026,0.039360292,-0.6311828,-0.18681145,-1.8362839,-0.54761374,1.8287224,1.0975963,0.039998513,0.04,-7.2073216,-1.9762932062149048,6.3381653,0.009728276,-0.022688332945108414,-0.0015953914
228.03333333340694,0.039366513,-0.6311594,-0.18684001,-1.8362054,-0.5476964,1.828762,1.0976433,0.03999851,0.04,-7.2069874,-1.97690749168396,6.3396373,0.009358051,-0.022201260551810265,-0.0012947903
228.05000000007362,0.03937227,-0.6311379,-0.18686625,-1.8361329,-0.5477725,1.8287983,1.0976865,0.03999851,0.04,-7.2066755,-1.9774943590164185,6.341021,0.009017987,-0.021750185638666153,-0.0010182121
228.0666666667403,0.039377578,-0.6311181,-0.18689047,-1.8360662,-0.5478424,1.8288307,1.0977263,0.03999851,0.04,-7.206376,-1.9780313968658447,6.342311,0.008704774,-0.021335573866963387,-0.0007632963
228.08333333340698,0.039382502,-0.6311,-0.18691273,-1.836005,-0.5479067,1.8288606,1.0977628,0.03999851,0.04,-7.206153,-1.9785202741622925,6.3435197,0.008416237,-0.02095869556069374,-0.00052811316
228.10000000007366,0.03938705,-0.6310831,-0.18693326,-1.835949,-0.547966,1.8288891,1.0977969,0.039998505,0.04,-7.205908,-1.9789924621582031,6.344624,0.008151604,-0.020611587911844254,-0.00031296033
228.11666666674034,0.03939125,-0.63106763,-0.18695213,-1.8358971,-0.5480205,1.8289142,1.0978283,0.039998505,0.04,-7.2057304,-1.9794539213180542,6.3456006,0.007907122,-0.020289873704314232,-0.00011433435
228.13333333340702,0.039395113,-0.6310533,-0.18696946,-1.8358495,-0.54807067,1.8289387,1.0978565,0.039998505,0.04,-7.205501,-1.9797993898391724,6.3465447,0.007681197,-0.01999741420149803,6.9284244e-05
228.1500000000737,0.039398693,-0.63104016,-0.18698545,-1.8358057,-0.54811674,1.8289597,1.0978831,0.039998505,0.04,-7.2053046,-1.9801956415176392,6.347356,0.007476917,-0.01972254179418087,0.00023658284
228.16666666674038,0.03940201,-0.6310281,-0.18700016,-1.8357654,-0.5481592,1.8289804,1.0979074,0.039998505,0.04,-7.2051673,-1.980505108833313,6.3481765,0.0072857924,-0.019476301968097687,0.0003922443
228.18333333340706,0.039405074,-0.6310169,-0.18701369,-1.8357279,-0.5481983,1.8289981,1.0979301,0.0399985,0.04,-7.204963,-1.9808186292648315,6.348868,0.0071107256,-0.019243808463215828,0.00053247134
228.20000000007374,0.039407905,-0.6310067,-0.18702614,-1.8356935,-0.5482343,1.8290151,1.0979506,0.0399985,0.04,-7.204829,-1.981067180633545,6.3495436,0.0069479328,-0.019034935161471367,0.0006646849
228.21666666674042,0.039410513,-0.6309973,-0.18703762,-1.8356621,-0.54826725,1.829032,1.0979698,0.0399985,0.04,-7.2046595,-1.9813191890716553,6.350135,0.006799445,-0.01883847638964653,0.000785024
228.2333333334071,0.03941291,-0.6309886,-0.18704818,-1.8356333,-0.5482977,1.8290453,1.0979866,0.0399985,0.04,-7.204553,-1.98158597946167,6.350689,0.0066620135,-0.018654797226190567,0.00089371606
228.25000000007378,0.039415147,-0.63098055,-0.18705794,-1.8356065,-0.5483258,1.8290585,1.098003,0.0399985,0.04,-7.204497,-1.9817867279052734,6.3512583,0.0065396926,-0.01849503070116043,0.0009974537
228.26666666674046,0.039417192,-0.6309731,-0.18706688,-1.8355819,-0.5483515,1.8290715,1.098018,0.0399985,0.04,-7.204339,-1.9819762706756592,6.351687,0.0064219926,-0.01834270730614662,0.0010913684
228.28333333340714,0.039419092,-0.6309662,-0.18707511,-1.8355589,-0.5483751,1.8290819,1.098031,0.0399985,0.04,-7.204243,-1.9821857213974,6.3521156,0.0063146986,-0.01819985918700695,0.0011766161
228.30000000007382,0.03942085,-0.6309599,-0.18708268,-1.8355383,-0.5483969,1.8290914,1.0980437,0.0399985,0.04,-7.2041483,-1.982322096824646,6.3525367,0.006218871,-0.01807381957769394,0.001256577
228.3166666667405,0.03942248,-0.63095427,-0.18708967,-1.835519,-0.54841685,1.8291008,1.0980556,0.0399985,0.04,-7.2041235,-1.98250150680542,6.3529315,0.006128711,-0.017959916964173317,0.0013305828
228.33333333340718,0.039423984,-0.630949,-0.18709609,-1.8355014,-0.54843533,1.8291101,1.098066,0.0399985,0.04,-7.203983,-1.9826126098632812,6.353239,0.00604327,-0.017850643023848534,0.0013972129
228.35000000007386,0.039425377,-0.630944,-0.18710202,-1.8354853,-0.54845244,1.8291192,1.0980752,0.039998498,0.04,-7.2039285,-1.9827784299850464,6.353554,0.0059682466,-0.017748456448316574,0.0014571496
228.36666666674054,0.03942666,-0.63093954,-0.18710747,-1.8354702,-0.54846805,1.8291258,1.0980841,0.039998498,0.04,-7.203876,-1.9829113483428955,6.3538246,0.005901433,-0.017652636393904686,0.0015132758
228.38333333340722,0.03942783,-0.63093543,-0.18711248,-1.8354568,-0.5484823,1.8291315,1.0980929,0.039998498,0.04,-7.203804,-1.982973337173462,6.3541293,0.0058364626,-0.01757054217159748,0.0015665009
228.4000000000739,0.03942892,-0.6309316,-0.18711713,-1.8354445,-0.54849553,1.8291372,1.0981009,0.039998498,0.04,-7.2038307,-1.9831106662750244,6.3544016,0.0057751597,-0.017498916015028954,0.0016157723
228.41666666674058,0.03942993,-0.6309281,-0.18712138,-1.8354326,-0.5485076,1.8291428,1.0981078,0.039998498,0.04,-7.203766,-1.9832018613815308,6.3545923,0.005719164,-0.017430411651730537,0.0016608655
228.43333333340726,0.03943086,-0.63092476,-0.18712528,-1.8354218,-0.54851884,1.8291483,1.0981135,0.039998498,0.04,-7.2036614,-1.9832712411880493,6.35477,0.0056687007,-0.017364559695124626,0.0017011039
228.45000000007394,0.03943172,-0.6309217,-0.18712889,-1.8354123,-0.548529,1.8291538,1.0981189,0.039998498,0.04,-6.689967,-1.7627935409545898,6.352009,0.0,-0.0,0.0
228.46666666674062,0.03943172,-0.6309217,-0.18712889,-1.8354123,-0.548529,1.8291538,1.0981189,0.039998498,0.04,-7.2042923,-1.9843367338180542,6.355839,0.0,-0.0,0.0
228.4833333334073,0.03943172,-0.6309217,-0.18712889,-1.8354123,-0.548529,1.8291538,1.0981189,0.039998498,0.04,-7.2042923,-1.9843367338180542,6.355839,0.0,-0.0,0.0
228.50000000007398,0.03943172,-0.6309217,-0.18712889,-1.8354123,-0.548529,1.8291538,1.0981189,0.039998498,0.04,-7.2042923,-1.9843367338180542,6.355839,0.0,-0.0,0.0
228.51666666674066,0.03943172,-0.6309217,-0.18712889,-1.8354123,-0.548529,1.8291538,1.0981189,0.039998498,0.04,-7.2042923,-1.9843367338180542,6.355839,0.0,-0.0,0.0
228.53333333340734,0.03943172,-0.6309217,-0.18712889,-1.8354123,-0.548529,1.8291538,1.0981189,0.039998498,0.04,-7.2042923,-1.9843367338180542,6.355839,0.0,-0.0,0.0
228.55000000007402,0.03943172,-0.6309217,-0.18712889,-1.8354123,-0.548529,1.8291538,1.0981189,0.039998498,0.04,-7.2042923,-1.9843367338180542,6.355839,0.0,-0.0,0.0
228.5666666667407,0.03943172,-0.6309217,-0.18712889,-1.8354123,-0.548529,1.8291538,1.0981189,0.039998498,0.04,-7.2042923,-1.9843367338180542,6.355839,0.0,-0.0,0.0
228.58333333340738,0.03943172,-0.6309217,-0.18712889,-1.8354123,-0.548529,1.8291538,1.0981189,0.039998498,0.04,-7.2042923,-1.9843367338180542,6.355839,0.0,-0.0,0.0
228.60000000007406,0.03943172,-0.6309217,-0.18712889,-1.8354123,-0.548529,1.8291538,1.0981189,0.039998498,0.04,-7.2042923,-1.9843367338180542,6.355839,0.0,-0.0,0.0
228.61666666674074,0.03943172,-0.6309217,-0.18712889,-1.8354123,-0.548529,1.8291538,1.0981189,0.039998498,0.04,-7.2042923,-1.9843367338180542,6.355839,0.0,-0.0,0.0
228.63333333340742,0.03943172,-0.6309217,-0.18712889,-1.8354123,-0.548529,1.8291538,1.0981189,0.039998498,0.04,-7.2042923,-1.9843367338180542,6.355839,0.0,-0.0,0.0
228.6500000000741,0.03943172,-0.6309217,-0.18712889,-1.8354123,-0.548529,1.8291538,1.0981189,0.039998498,0.04,-7.2042923,-1.9843367338180542,6.355839,0.0,-0.0,0.0
228.66666666674078,0.03943172,-0.6309217,-0.18712889,-1.8354123,-0.548529,1.8291538,1.0981189,0.039998498,0.04,-7.2042923,-1.9843367338180542,6.355839,0.0,-0.0,0.0
228.68333333340746,0.03943172,-0.6309217,-0.18712889,-1.8354123,-0.548529,1.8291538,1.0981189,0.039998498,0.04,-7.2042923,-1.9843367338180542,6.355839,0.0,-0.0,0.0
228.70000000007414,0.03943172,-0.6309217,-0.18712889,-1.8354123,-0.548529,1.8291538,1.0981189,0.039998498,0.04,-7.2042923,-1.9843367338180542,6.355839,0.0,-0.0,0.0
228.71666666674082,0.03943172,-0.6309217,-0.18712889,-1.8354123,-0.548529,1.8291538,1.0981189,0.039998498,0.04,-7.2042923,-1.9843367338180542,6.355839,0.0,-0.0,0.0
228.7333333334075,0.03943172,-0.6309217,-0.18712889,-1.8354123,-0.548529,1.8291538,1.0981189,0.039998498,0.04,-7.2042923,-1.9843367338180542,6.355839,0.0,-0.0,0.0
228.75000000007418,0.03943172,-0.6309217,-0.18712889,-1.8354123,-0.548529,1.8291538,1.0981189,0.039998498,0.04,-7.2042923,-1.9843367338180542,6.355839,0.0,-0.0,0.0
228.76666666674086,0.03943172,-0.6309217,-0.18712889,-1.8354123,-0.548529,1.8291538,1.0981189,0.039998498,0.04,-7.2042923,-1.9843367338180542,6.355839,0.0,-0.0,0.0
228.78333333340754,0.03943172,-0.6309217,-0.18712889,-1.8354123,-0.548529,1.8291538,1.0981189,0.039998498,0.04,-7.2042923,-1.9843367338180542,6.355839,0.0,-0.0,0.0
228.80000000007422,0.03943172,-0.6309217,-0.18712889,-1.8354123,-0.548529,1.8291538,1.0981189,0.039998498,0.04,-7.2042923,-1.9843367338180542,6.355839,0.0,-0.0,0.0
228.8166666667409,0.03943172,-0.6309217,-0.18712889,-1.8354123,-0.548529,1.8291538,1.0981189,0.039998498,0.04,-7.2042923,-1.9843367338180542,6.355839,0.0,-0.0,0.0
228.83333333340758,0.03943172,-0.6309217,-0.18712889,-1.8354123,-0.548529,1.8291538,1.0981189,0.039998498,0.04,-7.2042923,-1.9843367338180542,6.355839,0.0,-0.0,0.0
228.85000000007426,0.03943172,-0.6309217,-0.18712889,-1.8354123,-0.548529,1.8291538,1.0981189,0.039998498,0.04,-7.2042923,-1.9843367338180542,6.355839,0.0,-0.0,0.0
228.86666666674094,0.03943172,-0.6309217,-0.18712889,-1.8354123,-0.548529,1.8291538,1.0981189,0.039998498,0.04,-7.2042923,-1.9843367338180542,6.355839,0.0,-0.0,0.0
228.88333333340762,0.03943172,-0.6309217,-0.18712889,-1.8354123,-0.548529,1.8291538,1.0981189,0.039998498,0.04,-7.2042923,-1.9843367338180542,6.355839,0.0,-0.0,0.0
228.9000000000743,0.03943172,-0.6309217,-0.18712889,-1.8354123,-0.548529,1.8291538,1.0981189,0.039998498,0.04,-7.2042923,-1.9843367338180542,6.355839,0.0,-0.0,0.0
228.91666666674098,0.03943172,-0.6309217,-0.18712889,-1.8354123,-0.548529,1.8291538,1.0981189,0.039998498,0.04,-7.2042923,-1.9843367338180542,6.355839,0.0,-0.0,0.0
228.93333333340766,0.03943172,-0.6309217,-0.18712889,-1.8354123,-0.548529,1.8291538,1.0981189,0.039998498,0.04,-7.2042923,-1.9843367338180542,6.355839,0.0,-0.0,0.0
228.95000000007434,0.03943172,-0.6309217,-0.18712889,-1.8354123,-0.548529,1.8291538,1.0981189,0.039998498,0.04,-7.2042923,-1.9843367338180542,6.355839,0.0,-0.0,0.0
228.96666666674102,0.03943172,-0.6309217,-0.18712889,-1.8354123,-0.548529,1.8291538,1.0981189,0.039998498,0.04,-7.2042923,-1.9843367338180542,6.355839,0.0,-0.0,0.0
228.9833333334077,0.03943172,-0.6309217,-0.18712889,-1.8354123,-0.548529,1.8291538,1.0981189,0.039998498,0.04,-7.2042923,-1.9843367338180542,6.355839,0.0,-0.0,0.0
229.00000000007438,0.03943172,-0.6309217,-0.18712889,-1.8354123,-0.548529,1.8291538,1.0981189,0.039998498,0.04,-7.2042923,-1.9843367338180542,6.355839,0.0,-0.0,0.0
229.01666666674106,0.03943172,-0.6309217,-0.18712889,-1.8354123,-0.548529,1.8291538,1.0981189,0.039998498,0.04,-7.2042923,-1.9843367338180542,6.355839,0.0,-0.0,0.0
229.03333333340774,0.03943172,-0.6309217,-0.18712889,-1.8354123,-0.548529,1.8291538,1.0981189,0.039998498,0.04,-7.2042923,-1.9843367338180542,6.355839,0.0,-0.0,0.0
229.05000000007442,0.03943172,-0.6309217,-0.18712889,-1.8354123,-0.548529,1.8291538,1.0981189,0.039998498,0.04,-7.2042923,-1.9843367338180542,6.355839,0.0,-0.0,0.0
229.0666666667411,0.03943172,-0.6309217,-0.18712889,-1.8354123,-0.548529,1.8291538,1.0981189,0.039998498,0.04,-7.2042923,-1.9843367338180542,6.355839,0.0,-0.0,0.0
229.08333333340778,0.03943172,-0.6309217,-0.18712889,-1.8354123,-0.548529,1.8291538,1.0981189,0.039998498,0.04,-7.2042923,-1.9843367338180542,6.355839,0.0,-0.0,0.0
229.10000000007446,0.03943172,-0.6309217,-0.18712889,-1.8354123,-0.548529,1.8291538,1.0981189,0.039998498,0.04,-7.2042923,-1.9843367338180542,6.355839,0.0,-0.0,0.0
229.11666666674114,0.03943172,-0.6309217,-0.18712889,-1.8354123,-0.548529,1.8291538,1.0981189,0.039998498,0.04,-7.2042923,-1.9843367338180542,6.355839,0.0,-0.0,0.0
229.13333333340782,0.03943172,-0.6309217,-0.18712889,-1.8354123,-0.548529,1.8291538,1.0981189,0.039998498,0.04,-7.2042923,-1.9843367338180542,6.355839,0.0,-0.0,0.0
229.1500000000745,0.03943172,-0.6309217,-0.18712889,-1.8354123,-0.548529,1.8291538,1.0981189,0.039998498,0.04,-7.2042923,-1.9843367338180542,6.355839,0.0,-0.0,0.0
229.16666666674118,0.03943172,-0.6309217,-0.18712889,-1.8354123,-0.548529,1.8291538,1.0981189,0.039998498,0.04,-7.2042923,-1.9843367338180542,6.355839,0.0,-0.0,0.0
229.18333333340786,0.03943172,-0.6309217,-0.18712889,-1.8354123,-0.548529,1.8291538,1.0981189,0.039998498,0.04,-7.2042923,-1.9843367338180542,6.355839,0.0,-0.0,0.0
229.20000000007454,0.03943172,-0.6309217,-0.18712889,-1.8354123,-0.548529,1.8291538,1.0981189,0.039998498,0.04,-7.2042923,-1.9843367338180542,6.355839,0.0,-0.0,0.0
229.21666666674122,0.03943172,-0.6309217,-0.18712889,-1.8354123,-0.548529,1.8291538,1.0981189,0.039998498,0.04,-7.2042923,-1.9843367338180542,6.355839,0.0,-0.0,0.0
229.2333333334079,0.03943172,-0.6309217,-0.18712889,-1.8354123,-0.548529,1.8291538,1.0981189,0.039998498,0.04,-7.2042923,-1.9843367338180542,6.355839,0.0,-0.0,0.0
229.25000000007458,0.03943172,-0.6309217,-0.18712889,-1.8354123,-0.548529,1.8291538,1.0981189,0.039998498,0.04,-7.2042923,-1.9843367338180542,6.355839,0.0,-0.0,0.0
229.26666666674126,0.03943172,-0.6309217,-0.18712889,-1.8354123,-0.548529,1.8291538,1.0981189,0.039998498,0.04,-7.2042923,-1.9843367338180542,6.355839,0.0,-0.0,0.0
229.28333333340794,0.03943172,-0.6309217,-0.18712889,-1.8354123,-0.548529,1.8291538,1.0981189,0.039998498,0.04,-7.2042923,-1.9843367338180542,6.355839,0.0,-0.0,0.0
229.30000000007462,0.03943172,-0.6309217,-0.18712889,-1.8354123,-0.548529,1.8291538,1.0981189,0.039998498,0.04,-7.2042923,-1.9843367338180542,6.355839,0.0,-0.0,0.0
229.3166666667413,0.03943172,-0.6309217,-0.18712889,-1.8354123,-0.548529,1.8291538,1.0981189,0.039998498,0.04,-7.2042923,-1.9843367338180542,6.355839,0.0,-0.0,0.0
229.33333333340798,0.03943172,-0.6309217,-0.18712889,-1.8354123,-0.548529,1.8291538,1.0981189,0.039998498,0.04,-7.2042923,-1.9843367338180542,6.355839,0.0,-0.0,0.0
229.35000000007466,0.03943172,-0.6309217,-0.18712889,-1.8354123,-0.548529,1.8291538,1.0981189,0.039998498,0.04,-7.2042923,-1.9843367338180542,6.355839,0.0,-0.0,0.0
229.36666666674134,0.03943172,-0.6309217,-0.18712889,-1.8354123,-0.548529,1.8291538,1.0981189,0.039998498,0.04,-7.2042923,-1.9843367338180542,6.355839,0.0,-0.0,0.0
229.38333333340802,0.03943172,-0.6309217,-0.18712889,-1.8354123,-0.548529,1.8291538,1.0981189,0.039998498,0.04,-7.2042923,-1.9843367338180542,6.355839,0.0,-0.0,0.0
229.4000000000747,0.03943172,-0.6309217,-0.18712889,-1.8354123,-0.548529,1.8291538,1.0981189,0.039998498,0.04,-7.2042923,-1.9843367338180542,6.355839,0.0,-0.0,0.0
229.41666666674138,0.03943172,-0.6309217,-0.18712889,-1.8354123,-0.548529,1.8291538,1.0981189,0.039998498,0.04,-7.2042923,-1.9843367338180542,6.355839,0.0,-0.0,0.0
229.43333333340806,0.03943172,-0.6309217,-0.18712889,-1.8354123,-0.548529,1.8291538,1.0981189,0.039998498,0.04,-7.2042923,-1.9843367338180542,6.355839,0.0,-0.0,0.0
229.45000000007474,0.03943172,-0.6309217,-0.18712889,-1.8354123,-0.548529,1.8291538,1.0981189,0.039998498,0.04,-7.2042923,-1.9843367338180542,6.355839,0.0,-0.0,0.0
229.46666666674142,0.03943172,-0.6309217,-0.18712889,-1.8354123,-0.548529,1.8291538,1.0981189,0.039998498,0.04,-7.2042923,-1.9843367338180542,6.355839,0.0,-0.0,0.0
229.4833333334081,0.03943172,-0.6309217,-0.18712889,-1.8354123,-0.548529,1.8291538,1.0981189,0.039998498,0.04,-7.2042923,-1.9843367338180542,6.355839,0.0,-0.0,0.0
229.50000000007478,0.03943172,-0.6309217,-0.18712889,-1.8354123,-0.548529,1.8291538,1.0981189,0.039998498,0.04,-7.2042923,-1.9843367338180542,6.355839,0.0,-0.0,0.0
229.51666666674146,0.03943172,-0.6309217,-0.18712889,-1.8354123,-0.548529,1.8291538,1.0981189,0.039998498,0.04,-7.2042923,-1.9843367338180542,6.355839,0.0,-0.0,0.0
229.53333333340814,0.03943172,-0.6309217,-0.18712889,-1.8354123,-0.548529,1.8291538,1.0981189,0.039998498,0.04,-7.2042923,-1.9843367338180542,6.355839,0.0,-0.0,0.0
229.55000000007482,0.03943172,-0.6309217,-0.18712889,-1.8354123,-0.548529,1.8291538,1.0981189,0.039998498,0.04,-7.2042923,-1.9843367338180542,6.355839,0.0,-0.0,0.0
229.5666666667415,0.03943172,-0.6309217,-0.18712889,-1.8354123,-0.548529,1.8291538,1.0981189,0.039998498,0.04,-7.2042923,-1.9843367338180542,6.355839,0.0,-0.0,0.0
229.58333333340818,0.03943172,-0.6309217,-0.18712889,-1.8354123,-0.548529,1.8291538,1.0981189,0.039998498,0.04,-7.2042923,-1.9843367338180542,6.355839,0.0,-0.0,0.0
229.60000000007486,0.03943172,-0.6309217,-0.18712889,-1.8354123,-0.548529,1.8291538,1.0981189,0.039998498,0.04,-7.2042923,-1.9843367338180542,6.355839,0.0,-0.0,0.0
229.61666666674154,0.03943172,-0.6309217,-0.18712889,-1.8354123,-0.548529,1.8291538,1.0981189,0.039998498,0.04,-7.2042923,-1.9843367338180542,6.355839,0.0,-0.0,0.0
229.63333333340822,0.03943172,-0.6309217,-0.18712889,-1.8354123,-0.548529,1.8291538,1.0981189,0.039998498,0.04,-7.2042923,-1.9843367338180542,6.355839,0.0,-0.0,0.0
229.6500000000749,0.03943172,-0.6309217,-0.18712889,-1.8354123,-0.548529,1.8291538,1.0981189,0.039998498,0.04,-7.2042923,-1.9843367338180542,6.355839,0.0,-0.0,0.0
229.66666666674158,0.03943172,-0.6309217,-0.18712889,-1.8354123,-0.548529,1.8291538,1.0981189,0.039998498,0.04,-7.2042923,-1.9843367338180542,6.355839,0.0,-0.0,0.0
229.68333333340826,0.03943172,-0.6309217,-0.18712889,-1.8354123,-0.548529,1.8291538,1.0981189,0.039998498,0.04,-7.2042923,-1.9843367338180542,6.355839,0.0,-0.0,0.0
229.70000000007494,0.03943172,-0.6309217,-0.18712889,-1.8354123,-0.548529,1.8291538,1.0981189,0.039998498,0.04,-7.2042923,-1.9843367338180542,6.355839,0.0,-0.0,0.0
229.71666666674162,0.03943172,-0.6309217,-0.18712889,-1.8354123,-0.548529,1.8291538,1.0981189,0.039998498,0.04,-7.2042923,-1.9843367338180542,6.355839,0.0,-0.0,0.0
229.7333333334083,0.03943172,-0.6309217,-0.18712889,-1.8354123,-0.548529,1.8291538,1.0981189,0.039998498,0.04,-7.2042923,-1.9843367338180542,6.355839,0.0,-0.0,0.0
229.75000000007498,0.03943172,-0.6309217,-0.18712889,-1.8354123,-0.548529,1.8291538,1.0981189,0.039998498,0.04,-7.2042923,-1.9843367338180542,6.355839,0.0,-0.0,0.0
229.76666666674166,0.03943172,-0.6309217,-0.18712889,-1.8354123,-0.548529,1.8291538,1.0981189,0.039998498,0.04,-7.2042923,-1.9843367338180542,6.355839,0.0,-0.0,0.0
229.78333333340834,0.03943172,-0.6309217,-0.18712889,-1.8354123,-0.548529,1.8291538,1.0981189,0.039998498,0.04,-7.2042923,-1.9843367338180542,6.355839,0.0,-0.0,0.0
229.80000000007502,0.03943172,-0.6309217,-0.18712889,-1.8354123,-0.548529,1.8291538,1.0981189,0.039998498,0.04,-7.2042923,-1.9843367338180542,6.355839,0.0,-0.0,0.0
229.8166666667417,0.03943172,-0.6309217,-0.18712889,-1.8354123,-0.548529,1.8291538,1.0981189,0.039998498,0.04,-7.2042923,-1.9843367338180542,6.355839,0.0,-0.0,0.0
229.83333333340838,0.03943172,-0.6309217,-0.18712889,-1.8354123,-0.548529,1.8291538,1.0981189,0.039998498,0.04,-7.2042923,-1.9843367338180542,6.355839,0.0,-0.0,0.0
229.85000000007506,0.03943172,-0.6309217,-0.18712889,-1.8354123,-0.548529,1.8291538,1.0981189,0.039998498,0.04,-7.2042923,-1.9843367338180542,6.355839,0.0,-0.0,0.0
229.86666666674174,0.03943172,-0.6309217,-0.18712889,-1.8354123,-0.548529,1.8291538,1.0981189,0.039998498,0.04,-7.2042923,-1.9843367338180542,6.355839,0.0,-0.0,0.0
229.88333333340842,0.03943172,-0.6309217,-0.18712889,-1.8354123,-0.548529,1.8291538,1.0981189,0.039998498,0.04,-7.2042923,-1.9843367338180542,6.355839,0.0,-0.0,0.0
229.9000000000751,0.03943172,-0.6309217,-0.18712889,-1.8354123,-0.548529,1.8291538,1.0981189,0.039998498,0.04,-7.2042923,-1.9843367338180542,6.355839,0.0,-0.0,0.0
229.91666666674178,0.03943172,-0.6309217,-0.18712889,-1.8354123,-0.548529,1.8291538,1.0981189,0.039998498,0.04,-7.2042923,-1.9843367338180542,6.355839,0.0,-0.0,0.0
229.93333333340846,0.03943172,-0.6309217,-0.18712889,-1.8354123,-0.548529,1.8291538,1.0981189,0.039998498,0.04,-7.2042923,-1.9843367338180542,6.355839,0.0,-0.0,0.0
229.95000000007514,0.03943172,-0.6309217,-0.18712889,-1.8354123,-0.548529,1.8291538,1.0981189,0.039998498,0.04,-7.2042923,-1.9843367338180542,6.355839,0.0,-0.0,0.0
229.96666666674182,0.03943172,-0.6309217,-0.18712889,-1.8354123,-0.548529,1.8291538,1.0981189,0.039998498,0.04,-7.2042923,-1.9843367338180542,6.355839,0.0,-0.0,0.0
229.9833333334085,0.03943172,-0.6309217,-0.18712889,-1.8354123,-0.548529,1.8291538,1.0981189,0.039998498,0.04,-7.2042923,-1.9843367338180542,6.355839,0.0,-0.0,0.0
230.00000000007518,0.03943172,-0.6309217,-0.18712889,-1.8354123,-0.548529,1.8291538,1.0981189,0.039998498,0.04,-7.2042923,-1.9843367338180542,6.355839,0.0,-0.0,0.0
230.01666666674186,0.03943172,-0.6309217,-0.18712889,-1.8354123,-0.548529,1.8291538,1.0981189,0.039998498,0.04,-7.2042923,-1.9843367338180542,6.355839,0.0,-0.0,0.0
230.03333333340854,0.03943172,-0.6309217,-0.18712889,-1.8354123,-0.548529,1.8291538,1.0981189,0.039998498,0.04,-7.2042923,-1.9843367338180542,6.355839,0.0,-0.0,0.0
230.05000000007522,0.03943172,-0.6309217,-0.18712889,-1.8354123,-0.548529,1.8291538,1.0981189,0.039998498,0.04,-7.2042923,-1.9843367338180542,6.355839,0.0,-0.0,0.0
