rsonawane2002/My_IMU/logs_2/traj_473/imu_473.csv
time,j1,j2,j3,j4,j5,j6,j7,gripper1,gripper2,imu_ax,imu_ay,imu_az,imu_gx,imu_gy,imu_gz
2454.1333333369707,0.00016700293,-0.785875,4.0107683e-05,-2.3551247,9.29385e-05,1.570997,0.786,0.04,0.04,-9.45504,-0.01717158779501915,0.123934016,-3.3064342e-07,-0.0011641274904832244,5.193811e-07
2454.1500000036376,0.00016699766,-0.78576016,4.0107843e-05,-2.3552213,9.2976334e-05,1.5709941,0.786,0.04,0.04,-9.834491,0.0006124032661318779,0.009073506,4.2922835e-07,-0.0022376850247383118,1.4007916e-06
2454.1666666703045,0.0001669359,-0.7856541,4.0060793e-05,-2.35531,9.302734e-05,1.5709913,0.786,0.04,0.04,-9.832406,0.0005083587020635605,0.007587176,3.6645558e-06,-0.003219649428501725,4.6485657e-06
2454.1833333369714,0.00016672199,-0.78555655,3.9889248e-05,-2.355391,9.31162e-05,1.5709884,0.786,0.04,0.04,-9.830135,0.0003089630918111652,0.006399845,1.2850249e-05,-0.004113692790269852,1.2479018e-05
2454.2000000036383,0.00016621719,-0.7854664,3.9482435e-05,-2.3554652,9.327958e-05,1.5709856,0.786,0.04,0.04,-9.828372,9.399664122611284e-06,0.0051664626,2.9385217e-05,-0.00491494731977582,2.6882582e-05
2454.216666670305,0.00016524368,-0.78538287,3.8699007e-05,-2.3555326,9.356084e-05,1.5709827,0.786,0.04,0.04,-9.826439,-0.00036092515802010894,0.0041552777,5.5921148e-05,-0.005628321785479784,4.9077604e-05
2454.233333336972,0.00016358863,-0.78530526,3.7370246e-05,-2.3555977,9.4022886e-05,1.5709798,0.7859981,0.04,0.04,-9.82426,-0.0007731757941655815,0.0033152313,9.3385235e-05,-0.006250700913369656,8.243383e-05
2454.250000003639,0.000161008,-0.7852328,3.530307e-05,-2.3556561,9.472467e-05,1.570977,0.7859962,0.04,0.04,-9.823051,-0.001290721818804741,0.0024129562,0.00015169028,-0.00680147297680378,0.00012661978
2454.2666666703058,0.0001572298,-0.7851648,3.2282696e-05,-2.3557122,9.573613e-05,1.570974,0.7859943,0.04,0.04,-9.821041,-0.0018425791058689356,0.001662449,0.00022373765,-0.007258829660713673,0.00018352528
2454.2833333369726,0.00015195715,-0.78510046,2.807494e-05,-2.355763,9.712252e-05,1.5709709,0.7859905,0.039999995,0.04,-9.819539,-0.0024358276277780533,0.0009767492,0.00030926178,-0.007640018593519926,0.00025350254
2454.3000000036395,0.00014487107,-0.7850391,2.2428121e-05,-2.3558125,9.8972305e-05,1.5709674,0.78598666,0.039999988,0.039999988,-9.817565,-0.002987944521009922,0.0003795619,0.00041817295,-0.007932471111416817,0.00034010847
2454.3166666703064,0.00013563334,-0.78498024,1.5075665e-05,-2.3558578,0.00010137466,1.5709608,0.78598094,0.039999984,0.03999998,-9.816261,-0.0036880886182188988,-0.00024945836,0.0005417749,-0.008150903508067131,0.00044252057
2454.3333333369733,0.0001238886,-0.7849228,5.737575e-06,-2.355901,0.000104418636,1.570954,0.7859741,0.03999998,0.039999977,-9.81451,-0.004357379395514727,-0.0007448986,0.0006889818,-0.008294828236103058,0.0005606647
2454.35000000364,0.00010926691,-0.7848661,-5.877707e-06,-2.355944,0.00010819943,1.5709469,0.7859661,0.039999973,0.039999966,-9.812966,-0.005028193816542625,-0.0013382037,0.0008558959,-0.008358342573046684,0.0006969504
2454.366666670307,9.138547e-05,-0.7848096,-2.0071493e-05,-2.355986,0.000112813934,1.5709364,0.7859561,0.039999966,0.039999958,-9.811585,-0.005613935645669699,-0.0018994049,0.0010425495,-0.008348853327333927,0.0008502706
2454.383333336974,6.985039e-05,-0.78475267,-3.715416e-05,-2.356028,0.00011836291,1.5709258,0.7859437,0.03999997,0.03999996,-9.810281,-0.006381883751600981,-0.0024484126,0.0012523738,-0.008277667686343193,0.0010220011
2454.400000003641,4.4258584e-05,-0.7846948,-5.744309e-05,-2.35607,0.00012494891,1.5709139,0.7859287,0.03999997,0.039999958,-9.808875,-0.007037839852273464,-0.003091086,0.001486468,-0.008129747584462166,0.0012134277
2454.4166666703077,1.4199523e-05,-0.78463537,-8.1261496e-05,-2.356112,0.00013267546,1.5708995,0.78591156,0.039999973,0.03999996,-9.807493,-0.007688829675316811,-0.003730314,0.0017455025,-0.007909457199275494,0.0014232049
2454.4333333369746,-2.0743824e-05,-0.78457326,-0.00010893775,-2.356154,0.0001416493,1.5708822,0.7858915,0.039999973,0.03999996,-9.8061695,-0.008164230734109879,-0.004411884,0.0020264622,-0.007620446849614382,0.001652507
2454.4500000036414,-6.09934e-05,-0.7845084,-0.0001408041,-2.3561962,0.00015197806,1.5708636,0.78586835,0.039999973,0.039999958,-9.804793,-0.008901940658688545,-0.005157944,0.0023322515,-0.007266348693519831,0.0019024427
2454.4666666703083,-0.00010697479,-0.7844399,-0.00017719567,-2.356239,0.0001637689,1.5708416,0.78584206,0.039999977,0.03999996,-9.80337,-0.009467128664255142,-0.005992083,0.0026626505,-0.0068365600891411304,0.0021714792
2454.483333336975,-0.00015911639,-0.78436744,-0.00021844968,-2.3562825,0.00017713115,1.5708165,0.78581226,0.039999977,0.03999996,-9.8021755,-0.009793213568627834,-0.0069038505,0.0030167797,-0.006342950742691755,0.002460642
2454.500000003642,-0.0002178482,-0.78429013,-0.0002649048,-2.3563285,0.00019217478,1.5707893,0.7857787,0.03999998,0.03999996,-9.800665,-0.010449872352182865,-0.007842027,0.0033953497,-0.005780181847512722,0.0027708905
2454.516666670309,-0.00028360094,-0.78420764,-0.00031690026,-2.3563778,0.00020900852,1.5707588,0.7857411,0.03999998,0.039999958,-9.79956,-0.010869476944208145,-0.00895172,0.0037986804,-0.005154049955308437,0.0031014418
2454.533333336976,-0.00035680516,-0.78411937,-0.00037477494,-2.3564286,0.00022774185,1.5707246,0.7856991,0.039999988,0.039999966,-9.798507,-0.011239809915423393,-0.010142523,0.00422673,-0.004471308551728725,0.0034514873
2454.5500000036427,-0.00043789076,-0.78402466,-0.0004388673,-2.3564825,0.0002484825,1.5706866,0.78565264,0.039999984,0.03999996,-9.797378,-0.011315212585031986,-0.01152914,0.004679788,-0.0037233438342809677,0.0038209374
2454.5666666703096,-0.00052728597,-0.7839232,-0.00050951494,-2.3565404,0.00027134307,1.5706447,0.7856014,0.039999984,0.039999958,-9.796121,-0.011774027720093727,-0.012937019,0.005157566,-0.0029188974294811487,0.004213387
2454.5833333369765,-0.00062541675,-0.78381455,-0.00058705313,-2.3565996,0.00029642953,1.570599,0.7855452,0.03999999,0.03999996,-9.795123,-0.011943903751671314,-0.014540298,0.005659358,-0.0020596010144799948,0.00462528
2454.6000000036433,-0.0007327063,-0.7836981,-0.0006718151,-2.3566651,0.0003238478,1.5705491,0.78548384,0.039999988,0.039999958,-9.793725,-0.012048520147800446,-0.016297696,0.0061855353,-0.0011311742709949613,0.005055573
2454.61666667031,-0.00084957486,-0.78357273,-0.00076413224,-2.3567326,0.00035370965,1.570495,0.78541696,0.039999995,0.03999996,-9.793228,-0.011750276200473309,-0.018295506,0.0067347907,-0.0001575810747453943,0.005508879
2454.633333336977,-0.0009764382,-0.7834389,-0.00086433155,-2.356806,0.0003861141,1.5704361,0.78534424,0.039999995,0.03999996,-9.791725,-0.011987166479229927,-0.020359965,0.007308431,0.0008788820705376565,0.0059793657
2454.650000003644,-0.0011137084,-0.78329563,-0.00097273843,-2.356886,0.00042117084,1.5703721,0.7852656,0.04,0.03999996,-9.79092,-0.011815311387181282,-0.022613112,0.0079061175,0.001961616799235344,0.0064716362
2454.666666670311,-0.0012617926,-0.78314257,-0.0010896734,-2.3569674,0.00045898012,1.5703032,0.78518087,0.04,0.03999997,-9.790173,-0.011580784805119038,-0.02509864,0.008526665,0.003086474258452654,0.006980223
2454.6833333369777,-0.0014210939,-0.7829795,-0.0012154533,-2.357056,0.000499649,1.5702294,0.7850898,0.04,0.039999958,-9.789113,-0.010850062593817711,-0.027888715,0.009170262,0.004277522675693035,0.0075158584
2454.7000000036446,-0.001592008,-0.78280556,-0.0013503911,-2.3571513,0.0005432734,1.5701501,0.78499204,0.04,0.039999958,-9.788045,-0.010753532871603966,-0.030679911,0.009835757,0.005513685289770365,0.008067934
2454.7166666703115,-0.0017749273,-0.78262055,-0.0014947954,-2.3572488,0.00058995443,1.5700651,0.7848875,0.04,0.039999954,-9.7873535,-0.01020851731300354,-0.03380607,0.010524059,0.00679009547457099,0.0086385505
2454.7333333369784,-0.0019702367,-0.78242403,-0.0016489698,-2.357353,0.00063979084,1.5699747,0.7847758,0.04,0.039999943,-9.786383,-0.009167933836579323,-0.037251726,0.011234123,0.008127809502184391,0.009228682
2454.7500000036453,-0.0021783158,-0.7822156,-0.0018132128,-2.3574646,0.0006928781,1.5698781,0.7846568,0.04,0.039999947,-9.785213,-0.008770456537604332,-0.040715266,0.011965932,0.009511816315352917,0.009837715
2454.766666670312,-0.0023995375,-0.7819948,-0.001987819,-2.3575835,0.00074931217,1.5697758,0.78453034,0.039999988,0.03999992,-9.784545,-0.007877778261899948,-0.04452002,0.012719177,0.010933520272374153,0.010465989
2454.783333336979,-0.0026342687,-0.7817612,-0.002173078,-2.357709,0.0008091855,1.5696669,0.7843961,0.03999998,0.039999913,-9.783842,-0.006876910105347633,-0.0486017,0.013493223,0.012395752593874931,0.011112423
2454.800000003646,-0.0028828692,-0.7815145,-0.0023692718,-2.357838,0.00087258907,1.5695517,0.78425395,0.03999998,0.03999991,-9.783399,-0.005329098552465439,-0.053070888,0.014287878,0.013900197111070156,0.011777837
2454.8166666703128,-0.003145691,-0.78125435,-0.00257668,-2.3579743,0.0009396126,1.5694301,0.78410375,0.039999984,0.03999991,-9.781824,-0.004494655877351761,-0.057532996,0.015103054,0.015460721217095852,0.012461627
2454.8333333369796,-0.0034230805,-0.7809802,-0.0027955747,-2.3581178,0.0010103441,1.5693017,0.7839453,0.039999988,0.03999991,-9.781056,-0.003113815560936928,-0.06238937,0.01593753,0.017061913385987282,0.013163734
2454.8500000036465,-0.0037153775,-0.78069204,-0.0030262235,-2.358269,0.0010848697,1.5691664,0.7837783,0.039999995,0.039999913,-9.780301,-0.0016030874103307724,-0.06751567,0.016790975,0.018702248111367226,0.013883968
2454.8666666703134,-0.004022912,-0.78038913,-0.0032688875,-2.3584278,0.0011632728,1.5690241,0.78360265,0.04,0.039999913,-9.78001,0.000508798286318779,-0.0730627,0.017663581,0.020380306988954544,0.014622958
2454.8833333369803,-0.0043460103,-0.7800714,-0.0035238224,-2.3585944,0.0012456368,1.5688745,0.7834181,0.04,0.03999991,-9.7788725,0.0018354542553424835,-0.078647554,0.018554607,0.022094465792179108,0.015378656
2454.900000003647,-0.004684988,-0.7797384,-0.0037912785,-2.3587697,0.0013320418,1.5687175,0.78322446,0.04,0.039999913,-9.778164,0.003759171813726425,-0.08464752,0.019463686,0.02384396269917488,0.0161516
2454.916666670314,-0.005040153,-0.77939,-0.004071499,-2.358953,0.0014225673,1.568553,0.7830216,0.04,0.039999906,-9.77755,0.00583016499876976,-0.090971686,0.020390758,0.025625433772802353,0.016943581
2454.933333336981,-0.00541181,-0.77902573,-0.0043647224,-2.359145,0.0015172893,1.568381,0.7828093,0.04,0.039999906,-9.777318,0.008537698537111282,-0.097751655,0.02133484,0.02744101919233799,0.017752144
2454.950000003648,-0.005800253,-0.7786453,-0.004671183,-2.3593454,0.0016162823,1.5682014,0.7825874,0.04,0.039999906,-9.776181,0.010405309498310089,-0.1045491,0.022296125,0.02928939275443554,0.018578084
2454.9666666703147,-0.0062057655,-0.77824825,-0.0049911025,-2.3595545,0.0017196195,1.5680139,0.78235584,0.04,0.039999902,-9.77554,0.01291680708527565,-0.11185226,0.023273885,0.031169725582003593,0.01942137
2454.9833333369816,-0.0066286293,-0.7778345,-0.0053247055,-2.3597727,0.0018273721,1.5678183,0.78211445,0.04,0.039999906,-9.775389,0.016106359660625458,-0.119616434,0.0242672,0.033079370856285095,0.020281164
2455.0000000036484,-0.0070691165,-0.7774038,-0.005672203,-2.3599997,0.0019396082,1.5676144,0.7818629,0.04,0.039999906,-9.774276,0.018406525254249573,-0.12740973,0.025275601,0.0350169911980629,0.02115802
2455.0166666703153,-0.0075274883,-0.7769558,-0.0060338033,-2.3602355,0.0020563956,1.5674022,0.7816012,0.04,0.03999989,-9.773637,0.021392744034528732,-0.13568574,0.026299885,0.03698265552520752,0.022052223
2455.033333336982,-0.008004001,-0.7764903,-0.006409709,-2.3604803,0.0021777994,1.567182,0.7813291,0.04,0.039999895,-9.77294,0.024530190974473953,-0.14431362,0.02733844,0.03897750750184059,0.022962384
2455.050000003649,-0.008498907,-0.77600694,-0.0068001165,-2.3607347,0.0023038825,1.5669532,0.7810465,0.04,0.039999884,-9.772821,0.028392601758241653,-0.15347059,0.028391477,0.041000526398420334,0.023888944
2455.066666670316,-0.009012443,-0.77550554,-0.0072052144,-2.3609982,0.002434706,1.5667158,0.78075325,0.04,0.039999876,-9.771697,0.03131093829870224,-0.16263673,0.029458538,0.04304724186658859,0.02483261
2455.083333336983,-0.00954484,-0.7749859,-0.007625188,-2.3612716,0.0025703276,1.56647,0.78044933,0.04,0.039999872,-9.770991,0.034947771579027176,-0.17233732,0.030538956,0.04512131214141846,0.025791949
2455.1000000036497,-0.010096324,-0.77444786,-0.008060215,-2.3615546,0.0027108076,1.566215,0.78013444,0.04,0.039999865,-9.770457,0.03875749558210373,-0.18239087,0.031631764,0.047216061502695084,0.026767928
2455.1166666703166,-0.010667117,-0.773891,-0.008510463,-2.3618472,0.0028561992,1.565951,0.7798086,0.04,0.03999987,-9.770321,0.043321311473846436,-0.192974,0.032737628,0.049333542585372925,0.027759502
2455.1333333369835,-0.011257423,-0.7733152,-0.008976102,-2.3621495,0.003006556,1.5656782,0.7794716,0.04,0.03999986,-9.769111,0.046888720244169235,-0.20359957,0.03385533,0.05147237330675125,0.028766895
2455.1500000036503,-0.011867448,-0.7727203,-0.00945729,-2.3624623,0.0031619284,1.5653963,0.77912325,0.04,0.03999985,-9.768494,0.05122332647442818,-0.21476737,0.0349851,0.05363193526864052,0.02979091
2455.166666670317,-0.012497384,-0.7721062,-0.009954181,-2.362785,0.0033223678,1.5651052,0.77876365,0.04,0.039999846,-9.76786,0.05572592467069626,-0.22631614,0.03612612,0.05581003054976463,0.030830149
2455.183333336984,-0.013147418,-0.7714723,-0.01046692,-2.3631177,0.0034879213,1.5648048,0.7783926,0.04,0.039999854,-9.767773,0.06102695316076279,-0.23840638,0.037277505,0.058005981147289276,0.031885635
2455.200000003651,-0.013817734,-0.770819,-0.010995652,-2.3634608,0.0036586341,1.5644951,0.7780099,0.04,0.0399999,-9.766537,0.06529174745082855,-0.25056693,0.038439106,0.060219138860702515,0.0329577
2455.216666670318,-0.0145085,-0.7701456,-0.011540511,-2.3638144,0.0038345486,1.5641757,0.77761555,0.04,0.039999906,-9.765836,0.07034513354301453,-0.2632454,0.03961139,0.06244979798793793,0.03404467
2455.2333333369847,-0.015219879,-0.7694523,-0.012101628,-2.3641782,0.004015707,1.563847,0.7772095,0.04,0.039999902,-9.765737,0.07619855552911758,-0.27653024,0.040793046,0.06469368934631348,0.035145994
2455.2500000036516,-0.015952032,-0.7687387,-0.012679125,-2.3645527,0.0042021507,1.5635086,0.7767917,0.04,0.0399999,-9.764459,0.0810035765171051,-0.2898318,0.041983187,0.06695228070020676,0.03626306
2455.2666666703185,-0.016705105,-0.7680049,-0.013273123,-2.364938,0.0043939166,1.5631604,0.77636176,0.04,0.0399999,-9.763748,0.08661475777626038,-0.30372012,0.04318197,0.06922335177659988,0.037395407
2455.2833333369854,-0.017479246,-0.7672507,-0.013883733,-2.3653343,0.004591041,1.5628028,0.77592,0.04,0.0399999,-9.76301,0.09242231398820877,-0.3179952,0.044389583,0.07150539755821228,0.0385439
2455.3000000036523,-0.018274583,-0.7664758,-0.014511061,-2.365741,0.004793558,1.5624354,0.77546597,0.04,0.03999989,-9.76284,0.09906262159347534,-0.33286086,0.045604374,0.07379990816116333,0.039706867
2455.316666670319,-0.01909124,-0.76568,-0.0151552055,-2.3661587,0.0050015002,1.5620581,0.7749999,0.04,0.039999884,-9.761463,0.10460647940635681,-0.34778443,0.046827275,0.07610396295785904,0.040885814
2455.333333336986,-0.019929342,-0.76486355,-0.015816264,-2.3665867,0.005214896,1.5616708,0.7745216,0.04,0.039999876,-9.7606735,0.11098651587963104,-0.36328697,0.04805636,0.07841558754444122,0.04207914
2455.350000003653,-0.02078901,-0.76402605,-0.01649432,-2.3670263,0.0054337773,1.5612735,0.77403086,0.04,0.03999987,-9.759696,0.11757399886846542,-0.37916747,0.04929258,0.08073995262384415,0.04328896
2455.36666667032,-0.02167034,-0.7631675,-0.017189462,-2.3674767,0.005658169,1.560866,0.7735278,0.04,0.039999872,-9.75955,0.1250058114528656,-0.3956663,0.05053526,0.08306634426116943,0.044512305
2455.3833333369867,-0.02257343,-0.76228803,-0.017901774,-2.367938,0.005888096,1.5604489,0.77301246,0.04,0.03999987,-9.758006,0.13132257759571075,-0.41219845,0.051783416,0.08539939671754837,0.045751523
2455.4000000036535,-0.023498375,-0.76138705,-0.018631319,-2.3684108,0.0061235814,1.5600215,0.7724846,0.04,0.03999986,-9.756986,0.13849283754825592,-0.4293319,0.05303626,0.08774188160896301,0.047004282
2455.4166666703204,-0.02444526,-0.7604646,-0.019378167,-2.3688943,0.0063646515,1.5595839,0.7719442,0.04,0.039999858,-9.75606,0.1458769589662552,-0.4468846,0.05429467,0.09008561074733734,0.048272904
2455.4333333369873,-0.025414161,-0.75952077,-0.020142378,-2.3693895,0.0066113207,1.5591362,0.77139133,0.04,0.039999858,-9.75562,0.15412911772727966,-0.46502933,0.055557024,0.09243163466453552,0.049556352
2455.450000003654,-0.026405146,-0.7585554,-0.020924015,-2.3698957,0.0068636085,1.5586783,0.77082586,0.04,0.03999985,-9.753976,0.16123780608177185,-0.48322964,0.05682359,0.09477896988391876,0.050854087
2455.466666670321,-0.02741829,-0.75756854,-0.021723121,-2.370413,0.0071215318,1.5582103,0.77024764,0.04,0.03999986,-9.752807,0.16923454403877258,-0.5020249,0.05809372,0.09712923318147659,0.052167512
2455.483333336988,-0.02845364,-0.7565601,-0.02253974,-2.370942,0.0073851044,1.557732,0.76965684,0.04,0.03999985,-9.752208,0.17809639871120453,-0.5214139,0.0593676,0.09948134422302246,0.053494677
2455.500000003655,-0.029511252,-0.75552994,-0.023373919,-2.3714821,0.0076543395,1.5572432,0.76905334,0.04,0.039999846,-9.750423,0.18582947552204132,-0.5408586,0.060644105,0.1018308773636818,0.0548371
2455.5166666703217,-0.030591166,-0.75447816,-0.024225688,-2.372034,0.007929251,1.5567443,0.7684371,0.04,0.039999854,-9.74908,0.19443318247795105,-0.5608906,0.061922815,0.10417996346950531,0.056193385
2455.5333333369886,-0.03169343,-0.75340474,-0.025095081,-2.3725967,0.008209844,1.5562352,0.76780814,0.04,0.039999906,-9.747813,0.20326709747314453,-0.58135235,0.063203625,0.10652389377355576,0.057566155
2455.5500000036554,-0.032818053,-0.7523095,-0.025982114,-2.373171,0.008496131,1.5557157,0.76716644,0.04,0.039999902,-9.746879,0.21296831965446472,-0.6023988,0.064486265,0.10886933654546738,0.058951385
2455.5666666703223,-0.03396508,-0.7511924,-0.026886813,-2.3737571,0.008788109,1.5551857,0.7665119,0.04,0.0399999,-9.744826,0.22152644395828247,-0.62351066,0.065769896,0.11120890825986862,0.06035191
2455.583333336989,-0.035134505,-0.7500535,-0.027809195,-2.3743548,0.009085788,1.5546453,0.76584464,0.04,0.039999895,-9.74332,0.2309703677892685,-0.6452264,0.06705447,0.11354106664657593,0.061765555
2455.600000003656,-0.036326364,-0.7488927,-0.028749261,-2.374963,0.009389173,1.5540948,0.7651647,0.04,0.039999887,-9.74169,0.2406328320503235,-0.6673469,0.06833936,0.11586681753396988,0.063193575
2455.616666670323,-0.037540637,-0.7477102,-0.029707016,-2.375583,0.0096982615,1.5535338,0.7644719,0.04,0.03999989,-9.740448,0.25121060013771057,-0.690066,0.06962398,0.11819032579660416,0.0646372
2455.63333333699,-0.038777348,-0.74650586,-0.03068246,-2.3762143,0.010013055,1.5529625,0.76376635,0.04,0.03999989,-9.738119,0.260597288608551,-0.71282953,0.07090845,0.12050415575504303,0.0660927
2455.6500000036567,-0.040036477,-0.74527967,-0.031675592,-2.3768575,0.010333551,1.5523809,0.763048,0.04,0.039999895,-9.736194,0.2709084153175354,-0.73620206,0.07219184,0.12281135469675064,0.067563616
2455.6666666703236,-0.041318014,-0.7440317,-0.032686383,-2.3775122,0.01065975,1.5517889,0.7623165,0.04,0.03999989,-9.7343025,0.2814248204231262,-0.7599683,0.07347415,0.12510603666305542,0.06904773
2455.6833333369905,-0.042621944,-0.74276215,-0.033714853,-2.3781781,0.010991644,1.5511867,0.7615726,0.04,0.039999887,-9.732796,0.292853444814682,-0.78431696,0.07475664,0.12739066779613495,0.07054585
2455.7000000036574,-0.043948226,-0.7414707,-0.034760937,-2.3788557,0.011329224,1.5505737,0.76081586,0.04,0.03999989,-9.730012,0.303114116191864,-0.8087394,0.07603545,0.12966670095920563,0.072057724
2455.7166666703242,-0.045296848,-0.74015754,-0.035824638,-2.3795443,0.011672485,1.5499506,0.7600464,0.04,0.039999884,-9.727802,0.31427791714668274,-0.83374375,0.077312596,0.1319270133972168,0.073582985
2455.733333336991,-0.04666775,-0.73882264,-0.03690594,-2.3802445,0.012021417,1.5493172,0.7592642,0.04,0.03999989,-9.725916,0.3263509273529053,-0.8593051,0.078586414,0.1341777890920639,0.07512204
2455.750000003658,-0.0480609,-0.73746604,-0.03800477,-2.3809557,0.012376006,1.5486736,0.7584693,0.04,0.039999947,-9.722929,0.3372691571712494,-0.8849716,0.0798578,0.13641345500946045,0.07667476
2455.766666670325,-0.04947625,-0.73608774,-0.039121103,-2.3816783,0.012736242,1.5480198,0.75766164,0.04,0.03999994,-9.720254,0.34908539056777954,-0.9111883,0.08112559,0.13863763213157654,0.07824135
2455.7833333369917,-0.050913732,-0.7346881,-0.040254902,-2.3824122,0.013102112,1.5473558,0.75684154,0.04,0.03999994,-9.717573,0.3611135184764862,-0.93779963,0.082389675,0.1408449411392212,0.07981878
2455.8000000036586,-0.05237331,-0.73326695,-0.04140612,-2.3831573,0.013473598,1.5466816,0.7560088,0.04,0.039999943,-9.715233,0.3740699887275696,-0.9649437,0.083648644,0.14303946495056152,0.08141401
2455.8166666703255,-0.05385489,-0.7318241,-0.04257469,-2.3839138,0.013850686,1.5459973,0.75516355,0.04,0.039999936,-9.711734,0.38581445813179016,-0.9921935,0.08490336,0.14521677792072296,0.08301463
2455.8333333369924,-0.05535841,-0.7303601,-0.04376058,-2.3846815,0.0142333545,1.5453029,0.7543058,0.04,0.03999994,-9.708687,0.3985200524330139,-1.020011,0.086152814,0.14737482368946075,0.08463167
2455.8500000036593,-0.056883793,-0.7288749,-0.044963717,-2.3854606,0.014621584,1.544598,0.7534355,0.04,0.039999947,-9.705437,0.4114353358745575,-1.0481732,0.08739678,0.1495157778263092,0.086261064
2455.866666670326,-0.058430962,-0.72736853,-0.04618403,-2.3862503,0.015015355,1.5438836,0.7525528,0.04,0.039999947,-9.702614,0.42526930570602417,-1.0768604,0.08863498,0.15163643658161163,0.08790748
2455.883333336993,-0.05999982,-0.7258409,-0.047421448,-2.3870506,0.015414642,1.543159,0.7516578,0.04,0.039999954,-9.698491,0.4378664791584015,-1.1056896,0.089867204,0.15374314785003662,0.089556225
2455.90000000366,-0.061590277,-0.72429234,-0.048675913,-2.3878624,0.015819423,1.542424,0.7507505,0.04,0.039999947,-9.694798,0.45146098732948303,-1.1350183,0.09109243,0.1558295041322708,0.09122285
2455.916666670327,-0.063202225,-0.7227229,-0.049947325,-2.3886847,0.016229672,1.5416793,0.7498309,0.04,0.039999958,-9.69103,0.465257853269577,-1.1646967,0.0923107,0.15789227187633514,0.092904076
2455.9333333369937,-0.06483558,-0.7211324,-0.05123561,-2.389519,0.016645383,1.5409248,0.74889916,0.04,0.03999996,-9.687503,0.4799313545227051,-1.194901,0.09352181,0.1599365472793579,0.094599456
2455.9500000036605,-0.0664902,-0.7195217,-0.052540686,-2.390364,0.017066509,1.5401607,0.7479553,0.04,0.03999996,-9.683039,0.4934040307998657,-1.225242,0.09472453,0.1619533747434616,0.09629368
2455.9666666703274,-0.06816601,-0.7178901,-0.05386245,-2.3912191,0.017493024,1.5393866,0.74699926,0.04,0.039999958,-9.6786375,0.5079094171524048,-1.2560158,0.095919475,0.16395257413387299,0.09801261
2455.9833333369943,-0.06986284,-0.7162382,-0.05520083,-2.3920858,0.017924892,1.538603,0.74603134,0.04,0.03999996,-9.674647,0.5231602191925049,-1.2873132,0.09710656,0.16592799127101898,0.09973429
2456.000000003661,-0.07158061,-0.71456593,-0.056555707,-2.3929627,0.018362083,1.5378095,0.74505144,0.04,0.039999958,-9.669598,0.5373728275299072,-1.3187138,0.09828395,0.16787734627723694,0.10146877
2456.016666670328,-0.073319174,-0.7128732,-0.05792699,-2.3938506,0.018804569,1.5370065,0.7440597,0.04,0.039999958,-9.664703,0.5524446964263916,-1.3505893,0.09945262,0.16980481147766113,0.10321287
2456.033333336995,-0.075078405,-0.7111605,-0.05931457,-2.3947482,0.019252308,1.5361943,0.743056,0.04,0.039999954,-9.659797,0.5677320957183838,-1.3828424,0.100611396,0.1717037409543991,0.1049666
2456.050000003662,-0.07685815,-0.70942795,-0.060718335,-2.3956563,0.019705266,1.5353724,0.7420408,0.04,0.03999996,-9.654941,0.5838732123374939,-1.415503,0.1017613,0.1735832244157791,0.1067294
2456.0666666703287,-0.07865826,-0.7076754,-0.062138155,-2.3965752,0.020163415,1.534541,0.741014,0.04,0.039999943,-9.649146,0.5989817976951599,-1.4482898,0.10290004,0.17543451488018036,0.10850798
2456.0833333369956,-0.08047859,-0.70590335,-0.063573934,-2.3975046,0.020626716,1.5337002,0.7399756,0.04,0.039999966,-9.643589,0.6148843169212341,-1.4815494,0.10402774,0.17725802958011627,0.11029304
2456.1000000036624,-0.08231903,-0.7041119,-0.06502556,-2.3984442,0.02109512,1.5328505,0.73892576,0.04,0.03999996,-9.637837,0.6310201287269592,-1.5151036,0.10514518,0.17905382812023163,0.1120866
2456.1166666703293,-0.08417938,-0.70230097,-0.06649288,-2.3993936,0.021568598,1.5319911,0.7378646,0.04,0.039999966,-9.632303,0.647998034954071,-1.5490952,0.10625085,0.18082262575626373,0.113887765
2456.133333336996,-0.0860595,-0.70047075,-0.067975774,-2.4003532,0.0220471,1.531123,0.73679215,0.04,0.039999958,-9.625645,0.6639320254325867,-1.5832112,0.10734476,0.18256309628486633,0.11569958
2456.150000003663,-0.08795919,-0.6986214,-0.069474146,-2.4013228,0.022530587,1.5302457,0.73570853,0.04,0.039999966,-9.619294,0.680688738822937,-1.6177719,0.10842685,0.1842750906944275,0.117516644
2456.16666667033,-0.0898783,-0.6967534,-0.0709878,-2.402302,0.023019005,1.5293595,0.7346138,0.04,0.039999966,-9.612683,0.6976712346076965,-1.652602,0.10949618,0.18595659732818604,0.11934249
2456.183333336997,-0.09181664,-0.6948667,-0.07251665,-2.4032912,0.023512317,1.5284643,0.7335082,0.04,0.039999966,-9.606191,0.7154483199119568,-1.6878155,0.11055328,0.18761087954044342,0.12117486
2456.2000000036637,-0.09377409,-0.6929616,-0.074060515,-2.4042904,0.024010487,1.5275604,0.7323919,0.04,0.039999958,-9.598768,0.7322386503219604,-1.7231798,0.11159665,0.18923474848270416,0.12301658
2456.2166666703306,-0.09575036,-0.6910379,-0.075619295,-2.405299,0.024513453,1.5266479,0.73126477,0.04,0.039999966,-9.591524,0.7498207688331604,-1.7589095,0.11262603,0.19082625210285187,0.12486355
2456.2333333369975,-0.09774534,-0.6890961,-0.07719281,-2.4063168,0.025021194,1.5257268,0.730127,0.04,0.039999966,-9.584362,0.7682198882102966,-1.7950138,0.11364183,0.192388117313385,0.12671986
2456.2500000036644,-0.09975881,-0.6871363,-0.07878092,-2.4073434,0.025533643,1.5247971,0.72897863,0.04,0.03999997,-9.576211,0.785610556602478,-1.8312415,0.114643954,0.19391901791095734,0.12858067
2456.2666666703312,-0.10179059,-0.6851588,-0.08038345,-2.4083803,0.026050746,1.5238589,0.7278198,0.04,0.039999977,-9.568159,0.8037784099578857,-1.86782,0.11563129,0.19542036950588226,0.13044405
2456.283333336998,-0.10384046,-0.6831637,-0.08200026,-2.4094267,0.026572458,1.5229123,0.72665066,0.04,0.039999977,-9.560037,0.8221822381019592,-1.9046563,0.116604045,0.19688591361045837,0.13231447
2456.300000003665,-0.10590825,-0.6811513,-0.08363119,-2.4104817,0.02709871,1.5219574,0.7254713,0.04,0.039999977,-9.551917,0.841320812702179,-1.9418244,0.11756205,0.1983172595500946,0.13418801
2456.316666670332,-0.107993715,-0.6791217,-0.08527606,-2.4115453,0.027629467,1.5209945,0.72428197,0.04,0.039999988,-9.542805,0.8595402240753174,-1.9791423,0.118504524,0.19971807301044464,0.13606705
2456.3333333369987,-0.11009666,-0.67707497,-0.08693469,-2.4126186,0.028164677,1.5200237,0.7230826,0.04,0.039999984,-9.533765,0.8785018920898438,-2.0167515,0.11943103,0.20108747482299805,0.1379499
2456.3500000036656,-0.11221687,-0.6750116,-0.088606946,-2.4137,0.028704278,1.5190448,0.7218734,0.04,0.03999999,-9.524639,0.897667646408081,-2.054635,0.12034175,0.2024191915988922,0.13983679
2456.3666666703325,-0.11435414,-0.67293155,-0.09029262,-2.4147902,0.029248228,1.5180581,0.7206545,0.04,0.039999988,-9.515348,0.9175560474395752,-2.0927503,0.12123653,0.20372021198272705,0.14172694
2456.3833333369994,-0.116508216,-0.67083526,-0.09199158,-2.4158895,0.029796448,1.5170634,0.719426,0.04,0.039999995,-9.505281,0.9365484118461609,-2.1310575,0.12211419,0.20498663187026978,0.14361909
2456.4000000036663,-0.1186789,-0.6687229,-0.09370363,-2.4169967,0.030348893,1.5160611,0.71818805,0.04,0.04,-9.49535,0.9562667012214661,-2.1695976,0.122975565,0.2062138020992279,0.14551342
2456.416666670333,-0.12086594,-0.66659456,-0.09542857,-2.4181118,0.030905517,1.5150511,0.7169409,0.04,0.03999999,-9.484938,0.9761756062507629,-2.2083707,0.12381926,0.20741020143032074,0.14740951
2456.433333337,-0.123069115,-0.66445065,-0.09716625,-2.4192362,0.031466223,1.5140342,0.71568453,0.04,0.04,-9.474599,0.9967499375343323,-2.2473805,0.124645315,0.20857179164886475,0.1493059
2456.450000003667,-0.1252882,-0.6622912,-0.098916456,-2.4203682,0.032031,1.5130097,0.7144191,0.04,0.039999995,-9.463577,1.0165302753448486,-2.286561,0.1254533,0.2096954733133316,0.15120456
2456.466666670334,-0.12752295,-0.6601167,-0.100679025,-2.421508,0.03259975,1.5119778,0.71314466,0.04,0.04,-9.452401,1.0369428396224976,-2.325946,0.12624353,0.21078459918498993,0.15310133
2456.4833333370007,-0.12977313,-0.6579272,-0.10245372,-2.4226558,0.03317244,1.5109389,0.71186155,0.04,0.04,-9.441207,1.0580508708953857,-2.3655205,0.12701604,0.21183718740940094,0.15499887
2456.5000000036675,-0.13203846,-0.65572304,-0.1042404,-2.423811,0.033748966,1.5098932,0.71056986,0.04,0.04,-9.429275,1.0783237218856812,-2.4052691,0.1277694,0.21285361051559448,0.15689255
2456.5166666703344,-0.13431871,-0.6535043,-0.10603884,-2.4249742,0.034329288,1.5088407,0.7092696,0.04,0.04,-9.417221,1.09928560256958,-2.4452066,0.12850404,0.21383631229400635,0.15878771
2456.5333333370013,-0.13661362,-0.6512714,-0.10784883,-2.4261448,0.034913324,1.5077813,0.7079611,0.04,0.04,-9.404974,1.120388388633728,-2.4853191,0.12921979,0.21478165686130524,0.16067886
2456.550000003668,-0.13892293,-0.6490243,-0.10967021,-2.4273226,0.035501048,1.506715,0.7066442,0.04,0.04,-9.392638,1.1421356201171875,-2.5255775,0.12991555,0.2156880497932434,0.16257016
2456.566666670335,-0.14124642,-0.64676356,-0.111502714,-2.4285076,0.036092382,1.5056422,0.70531934,0.04,0.04,-9.379523,1.1631025075912476,-2.566017,0.13059317,0.21655774116516113,0.16445665
2456.583333337002,-0.14358379,-0.6444893,-0.11334618,-2.4296994,0.036687255,1.5045633,0.7039867,0.04,0.04,-9.366348,1.1846959590911865,-2.606577,0.13125019,0.2173900604248047,0.16633976
2456.600000003669,-0.14593479,-0.6422017,-0.11520041,-2.4308982,0.037285607,1.5034782,0.7026462,0.04,0.04,-9.352861,1.206440806388855,-2.6472957,0.13188684,0.2181873768568039,0.16821879
2456.6166666703357,-0.14829917,-0.6399016,-0.117065154,-2.4321039,0.03788734,1.5023866,0.701298,0.04,0.04,-9.339236,1.2287410497665405,-2.6881204,0.13250388,0.2189474254846573,0.1700907
2456.6333333370026,-0.15067668,-0.6375886,-0.118940234,-2.4333167,0.038492404,1.5012892,0.69994235,0.04,0.04,-9.325025,1.250382423400879,-2.7290804,0.13310102,0.21966852247714996,0.17195925
2456.6500000036694,-0.15306702,-0.6352634,-0.12082541,-2.4345355,0.039100744,1.500186,0.6985795,0.04,0.04,-9.310657,1.2725800275802612,-2.7701833,0.13367735,0.2203531265258789,0.17382218
2456.6666666703363,-0.1554699,-0.6329257,-0.12272047,-2.43576,0.03971228,1.499077,0.69720954,0.04,0.04,-9.295914,1.2948914766311646,-2.8113575,0.13423283,0.22100131213665009,0.17567673
2456.683333337003,-0.15788502,-0.6305761,-0.124625206,-2.4369917,0.040326923,1.4979622,0.6958327,0.04,0.04,-9.280972,1.3177342414855957,-2.8526392,0.13476701,0.22161485254764557,0.17752264
2456.70000000367,-0.1603122,-0.6282149,-0.1265394,-2.4382293,0.04094462,1.4968418,0.694449,0.04,0.04,-9.265677,1.3399739265441895,-2.8940685,0.13527939,0.22218488156795502,0.17936137
2456.716666670337,-0.16275105,-0.6258428,-0.12846282,-2.4394732,0.04156529,1.495716,0.69305855,0.04,0.04,-9.249992,1.362711787223816,-2.935546,0.13577095,0.2227192372083664,0.18119237
2456.733333337004,-0.16520135,-0.6234594,-0.13039528,-2.4407227,0.04218887,1.4945852,0.69166166,0.04,0.04,-9.234188,1.3859196901321411,-2.9770262,0.13624147,0.22321583330631256,0.1830132
2456.7500000036707,-0.16766283,-0.6210653,-0.13233648,-2.4419775,0.042815275,1.4934492,0.6902585,0.04,0.04,-9.217827,1.4085651636123657,-3.0187368,0.1366901,0.22367548942565918,0.18482432
2456.7666666703376,-0.1701352,-0.61866045,-0.13428624,-2.4432378,0.04344444,1.4923084,0.6888491,0.04,0.04,-9.201246,1.431680679321289,-3.060403,0.13711648,0.22409842908382416,0.18662621
2456.7833333370045,-0.17261812,-0.61624545,-0.13624436,-2.4445033,0.044076297,1.4911625,0.6874336,0.04,0.04,-9.184351,1.4549143314361572,-3.1021874,0.13752136,0.2244846224784851,0.18841746
2456.8000000036714,-0.17511131,-0.61382043,-0.1382106,-2.445774,0.044710767,1.4900117,0.6860123,0.04,0.04,-9.16722,1.478566288948059,-3.1439123,0.13790463,0.2248334139585495,0.19019505
2456.8166666703382,-0.17761451,-0.61138576,-0.1401846,-2.44705,0.04534776,1.4888564,0.6845854,0.04,0.04,-9.149655,1.5017204284667969,-3.1858113,0.13826518,0.22514291107654572,0.19196191
2456.833333337005,-0.18012737,-0.608942,-0.14216629,-2.4483309,0.04598721,1.4876968,0.6831529,0.04,0.04,-9.131866,1.5252693891525269,-3.2277029,0.13860339,0.2254141867160797,0.19371505
2456.850000003672,-0.18264963,-0.6064892,-0.14415537,-2.4496167,0.046629038,1.4865329,0.6817151,0.04,0.04,-9.113706,1.5489401817321777,-3.269588,0.13891989,0.2256506234407425,0.19545443
2456.866666670339,-0.185181,-0.60402757,-0.14615163,-2.4509068,0.047273204,1.4853647,0.68027246,0.04,0.04,-9.095299,1.5729880332946777,-3.3114364,0.13921411,0.22584910690784454,0.19718133
2456.8833333370058,-0.18772116,-0.6015575,-0.1481548,-2.4522018,0.047919605,1.4841923,0.67882466,0.04,0.04,-9.076467,1.5965710878372192,-3.3534336,0.13948375,0.22601188719272614,0.19889121
2456.9000000036726,-0.1902698,-0.599079,-0.15016465,-2.453501,0.048568156,1.483016,0.67737216,0.04,0.04,-9.057479,1.620514154434204,-3.3953826,0.13973147,0.2261333018541336,0.20058495
2456.9166666703395,-0.19282663,-0.59659266,-0.15218091,-2.4548037,0.04921878,1.4818361,0.6759148,0.04,0.04,-9.038054,1.6445728540420532,-3.4373302,0.1399558,0.22621867060661316,0.20226349
2456.9333333370064,-0.19539136,-0.5940988,-0.15420339,-2.4561107,0.04987143,1.4806526,0.6744533,0.04,0.04,-9.01825,1.668900966644287,-3.479165,0.14015882,0.22627101838588715,0.20392531
2456.9500000036733,-0.19796367,-0.59159786,-0.15623184,-2.457421,0.050525974,1.4794654,0.6729873,0.04,0.04,-8.998284,1.6928741931915283,-3.5211527,0.14033756,0.22628548741340637,0.20556769
2456.96666667034,-0.2005432,-0.5890898,-0.15826596,-2.4587357,0.051182352,1.4782752,0.67151684,0.04,0.04,-8.977901,1.7171541452407837,-3.5630124,0.1404942,0.22626470029354095,0.20719205
2456.983333337007,-0.2031297,-0.58657503,-0.16030556,-2.4600534,0.05184048,1.477082,0.6700424,0.04,0.04,-8.957285,1.741693377494812,-3.6047843,0.14062981,0.22620779275894165,0.20879708
2457.000000003674,-0.20572284,-0.58405375,-0.16235037,-2.4613745,0.052500296,1.4758859,0.66856414,0.04,0.04,-8.9363165,1.7659013271331787,-3.6466784,0.14074285,0.2261161506175995,0.21038203
2457.016666670341,-0.20832226,-0.58152664,-0.16440013,-2.4626992,0.053161737,1.4746867,0.6670831,0.04,0.04,-8.915053,1.790408968925476,-3.6884477,0.14083278,0.22598931193351746,0.21194856
2457.0333333370077,-0.21092772,-0.5789936,-0.16645463,-2.464027,0.053824667,1.4734846,0.6655986,0.04,0.04,-8.893525,1.81491219997406,-3.7301288,0.1408965,0.2258262038230896,0.21349232
2457.0500000036745,-0.21353893,-0.5764551,-0.16851361,-2.4653573,0.054489058,1.4722799,0.66411054,0.04,0.04,-8.871632,1.8396830558776855,-3.7716687,0.1409375,0.22562527656555176,0.21501605
2457.0666666703414,-0.21615548,-0.57391155,-0.17057681,-2.4666898,0.055154808,1.4710728,0.66261977,0.04,0.04,-8.849506,1.8641626834869385,-3.8133323,0.1409566,0.22538909316062927,0.21651626
2457.0833333370083,-0.21877714,-0.5713633,-0.17264397,-2.4680257,0.05582184,1.4698632,0.6611259,0.04,0.04,-8.826913,1.8888330459594727,-3.8548193,0.14095207,0.22512367367744446,0.21799459
2457.100000003675,-0.22140352,-0.5688104,-0.17471494,-2.4693637,0.056490082,1.4686517,0.65962964,0.04,0.04,-8.804292,1.913576602935791,-3.89622,0.14092517,0.2248174548149109,0.2194494
2457.116666670342,-0.2240343,-0.56625336,-0.17678931,-2.4707034,0.057159416,1.4674381,0.65813065,0.04,0.04,-8.781079,1.9384478330612183,-3.937429,0.14087398,0.22448021173477173,0.2208783
2457.133333337009,-0.22666924,-0.5636923,-0.17886688,-2.4720457,0.05782979,1.4662225,0.65662915,0.04,0.04,-8.757729,1.963108777999878,-3.9787512,0.14080197,0.22411246597766876,0.2222834
2457.150000003676,-0.22930796,-0.5611277,-0.18094741,-2.4733899,0.058501143,1.4650053,0.65512556,0.04,0.04,-8.734201,1.987964391708374,-4.0198717,0.14070748,0.2237054705619812,0.2236642
2457.1666666703427,-0.23195013,-0.5585597,-0.1830307,-2.4747353,0.059173346,1.4637867,0.65362,0.04,0.04,-8.710238,2.01279354095459,-4.060862,0.14059038,0.22326673567295074,0.22501707
2457.1833333370096,-0.23459546,-0.5559887,-0.18511643,-2.4760826,0.059846345,1.4625663,0.6521126,0.04,0.04,-8.685833,2.037729263305664,-4.101643,0.14045066,0.22279757261276245,0.22634372
2457.2000000036765,-0.2372436,-0.55341524,-0.18720432,-2.4774313,0.06052007,1.461345,0.6506043,0.04,0.04,-8.661526,2.0625555515289307,-4.1425123,0.14028847,0.2222917675971985,0.22764318
2457.2166666703433,-0.23989424,-0.55083936,-0.18929419,-2.4787812,0.061194405,1.4601226,0.6490945,0.04,0.04,-8.63674,2.0874202251434326,-4.183131,0.14010148,0.22175559401512146,0.2289126
2457.23333333701,-0.24254708,-0.54826146,-0.19138567,-2.480132,0.061869297,1.4588991,0.6475831,0.04,0.04,-8.61153,2.112377643585205,-4.2235045,0.13989224,0.22118821740150452,0.23015666
2457.250000003677,-0.24520175,-0.5456819,-0.19347863,-2.481484,0.06254465,1.4576747,0.6460712,0.04,0.04,-8.586323,2.1372039318084717,-4.263972,0.1396624,0.22059005498886108,0.23136725
2457.266666670344,-0.24785794,-0.543101,-0.19557275,-2.482836,0.063220374,1.4564499,0.6445579,0.04,0.04,-8.56075,2.162104368209839,-4.304155,0.13940886,0.21995878219604492,0.23254862
2457.283333337011,-0.25051537,-0.5405191,-0.19766782,-2.484189,0.063896395,1.4552246,0.6430444,0.04,0.04,-8.534824,2.1869938373565674,-4.3441916,0.13913575,0.21930080652236938,0.23370191
2457.3000000036777,-0.25317374,-0.53793645,-0.19976354,-2.4855423,0.0645726,1.453999,0.6415305,0.04,0.04,-8.508581,2.211852550506592,-4.3839345,0.13883832,0.21861140429973602,0.23482163
2457.3166666703446,-0.2558326,-0.5353532,-0.20185962,-2.486896,0.065248944,1.4527731,0.6400163,0.04,0.04,-8.482391,2.2367334365844727,-4.423771,0.13851921,0.2178914099931717,0.23591094
2457.3333333370115,-0.25849167,-0.53276974,-0.20395584,-2.4882493,0.06592533,1.451547,0.63850194,0.04,0.04,-8.455789,2.2615621089935303,-4.4633007,0.1381785,0.21714040637016296,0.23696794
2457.3500000036784,-0.26115057,-0.53018665,-0.20605198,-2.4896026,0.066601686,1.4503211,0.63698775,0.04,0.04,-8.428842,2.28635573387146,-4.502652,0.13781737,0.2163626253604889,0.23799238
2457.3666666703452,-0.26380908,-0.52760416,-0.20814775,-2.4909554,0.06727791,1.4490955,0.63547397,0.04,0.04,-8.401579,2.311072826385498,-4.5416718,0.13743466,0.2155551314353943,0.23898359
2457.383333337012,-0.26646677,-0.5250224,-0.21024287,-2.492308,0.06795394,1.4478704,0.63396037,0.04,0.04,-8.3743925,2.335883855819702,-4.5807643,0.1370303,0.21472078561782837,0.23994213
2457.400000003679,-0.26912344,-0.5224418,-0.2123371,-2.49366,0.06862969,1.4466455,0.6324472,0.04,0.04,-8.34683,2.3605780601501465,-4.619547,0.13660693,0.21385805308818817,0.240866
2457.416666670346,-0.27177873,-0.51986283,-0.21443026,-2.4950116,0.069305085,1.4454211,0.6309354,0.04,0.04,-8.319039,2.3852381706237793,-4.658108,0.13616373,0.21296626329421997,0.24175462
2457.4333333370128,-0.27443227,-0.51728565,-0.21652198,-2.4963622,0.06997999,1.4441979,0.62942404,0.04,0.04,-8.290833,2.409747362136841,-4.6963186,0.13569723,0.21204544603824615,0.24260537
2457.4500000036796,-0.27708375,-0.5147105,-0.21861205,-2.4977117,0.07065438,1.4429756,0.62791437,0.04,0.04,-8.2627945,2.434429883956909,-4.7346125,0.13521303,0.2110992670059204,0.24342293
2457.4666666703465,-0.27973294,-0.5121378,-0.22070022,-2.4990597,0.071328126,1.4417547,0.6264062,0.04,0.04,-8.234354,2.458915948867798,-4.772552,0.1347072,0.21012639999389648,0.24420278
2457.4833333370134,-0.28237942,-0.5095678,-0.22278622,-2.5004065,0.07200119,1.4405346,0.6248992,0.04,0.04,-8.205398,2.4832258224487305,-4.810111,0.13418093,0.2091299593448639,0.2449449
2457.5000000036803,-0.28502288,-0.5070008,-0.22486976,-2.5017517,0.07267346,1.4393162,0.6233939,0.04,0.04,-8.176809,2.507748603820801,-4.8477273,0.13363655,0.20810529589653015,0.24565017
2457.516666670347,-0.28766292,-0.50443727,-0.22695068,-2.5030947,0.07334486,1.4380993,0.6218905,0.04,0.04,-8.147724,2.532052993774414,-4.8849907,0.13307339,0.20705711841583252,0.24631818
2457.533333337014,-0.29029927,-0.5018774,-0.2290286,-2.5044363,0.074015304,1.4368842,0.6203898,0.04,0.04,-8.118451,2.5562758445739746,-4.9219804,0.13249198,0.2059847116470337,0.2469464
2457.550000003681,-0.2929318,-0.49932143,-0.23110333,-2.5057757,0.074684724,1.435671,0.6188916,0.04,0.04,-8.088794,2.5802619457244873,-4.958614,0.13188861,0.20488795638084412,0.24753806
2457.566666670348,-0.2955599,-0.49676988,-0.23317468,-2.5071132,0.07535304,1.4344599,0.6173956,0.04,0.04,-8.059423,2.604506731033325,-4.9952793,0.13126622,0.20376786589622498,0.24808796
2457.5833333370147,-0.2981834,-0.49422288,-0.2352423,-2.5084476,0.07602017,1.4332508,0.615902,0.04,0.04,-8.029691,2.6285130977630615,-5.031557,0.13062662,0.2026229351758957,0.24859887
2457.6000000036815,-0.30080196,-0.4916809,-0.23730598,-2.5097797,0.076686025,1.4320444,0.6144117,0.04,0.04,-7.999634,2.652400493621826,-5.0675693,0.12997033,0.201458141207695,0.24907136
2457.6166666703484,-0.3034153,-0.48914412,-0.23936549,-2.5111096,0.07735049,1.4308403,0.6129239,0.04,0.04,-7.969272,2.675973892211914,-5.1032004,0.12929459,0.20027212798595428,0.24950258
2457.6333333370153,-0.30602306,-0.48661292,-0.24142058,-2.5124354,0.07801351,1.4296384,0.6114397,0.04,0.04,-7.939335,2.699927568435669,-5.1388283,0.12860331,0.19906148314476013,0.24989288
2457.650000003682,-0.30862483,-0.4840875,-0.24347095,-2.513759,0.07867503,1.4284397,0.6099591,0.04,0.04,-7.9087825,2.723515033721924,-5.1740346,0.12789395,0.19783352315425873,0.25024316
2457.666666670349,-0.31122056,-0.48156828,-0.24551642,-2.5150793,0.07933497,1.427244,0.6084822,0.04,0.04,-7.8783283,2.747028350830078,-5.209032,0.12716624,0.19658249616622925,0.2505528
2457.683333337016,-0.31380972,-0.47905558,-0.24755666,-2.516396,0.0799932,1.4260513,0.60700893,0.04,0.04,-7.847345,2.770159959793091,-5.243566,0.12642133,0.19531139731407166,0.2508195
2457.700000003683,-0.31639194,-0.47654957,-0.24959148,-2.5177093,0.08064972,1.4248616,0.60553956,0.04,0.04,-7.816773,2.7936959266662598,-5.27812,0.12566096,0.1940225511789322,0.25104553
2457.7166666703497,-0.31896707,-0.47405073,-0.2516206,-2.5190184,0.08130436,1.4236751,0.6040743,0.04,0.04,-7.785835,2.8168396949768066,-5.31225,0.1248855,0.19271330535411835,0.25122854
2457.7333333370166,-0.3215347,-0.47155923,-0.25364384,-2.5203238,0.08195712,1.4224923,0.60261345,0.04,0.04,-7.75446,2.8395845890045166,-5.3459415,0.12409393,0.19138531386852264,0.25136918
2457.7500000036835,-0.3240946,-0.4690754,-0.25566095,-2.5216255,0.08260786,1.4213129,0.60115683,0.04,0.04,-7.723554,2.8627872467041016,-5.379653,0.123286836,0.19004228711128235,0.2514674
2457.7666666703503,-0.32664642,-0.4665996,-0.25767154,-2.5229225,0.083256505,1.4201375,0.59970516,0.04,0.04,-7.6923795,2.8855838775634766,-5.4129252,0.12246537,0.1886776238679886,0.25152016
2457.783333337017,-0.32918984,-0.46413207,-0.25967544,-2.5242157,0.08390302,1.418966,0.5982581,0.04,0.04,-7.6609383,2.9082257747650146,-5.4459004,0.1216282,0.1872996985912323,0.251531
2457.800000003684,-0.33172455,-0.461673,-0.26167247,-2.5255044,0.08454728,1.4177985,0.59681606,0.04,0.04,-7.6292324,2.930408000946045,-5.478465,0.12077791,0.1859024614095688,0.25149867
2457.816666670351,-0.3342503,-0.45922285,-0.26366243,-2.526788,0.085189246,1.4166353,0.5953795,0.04,0.04,-7.598029,2.953129529953003,-5.5109935,0.119913004,0.1844881922006607,0.25142306
2457.833333337018,-0.3367668,-0.45678186,-0.26564506,-2.528067,0.08582885,1.4154768,0.59394807,0.04,0.04,-7.56635,2.9753658771514893,-5.543079,0.11903359,0.18306218087673187,0.25130263
2457.8500000036847,-0.33927375,-0.4543503,-0.26761997,-2.529341,0.086466014,1.4143226,0.592522,0.04,0.04,-7.5347347,2.997501850128174,-5.5748816,0.11814112,0.18162007629871368,0.25114182
2457.8666666703516,-0.3417707,-0.45192847,-0.26958713,-2.5306096,0.08710063,1.413173,0.59110165,0.04,0.04,-7.502629,3.0189707279205322,-5.606235,0.117236465,0.18016572296619415,0.25092462
2457.8833333370185,-0.3442575,-0.44951668,-0.27154627,-2.5318735,0.08773264,1.4120277,0.5896873,0.04,0.04,-7.47118,3.041261672973633,-5.637538,0.11631982,0.17869573831558228,0.25068074
2457.9000000036854,-0.34673378,-0.44711524,-0.27349713,-2.533132,0.08836199,1.4108877,0.588279,0.04,0.04,-7.4394336,3.0628368854522705,-5.668405,0.11538894,0.17720887064933777,0.2503785
2457.9166666703522,-0.34919938,-0.44472435,-0.27543926,-2.5343847,0.08898857,1.4097525,0.586877,0.04,0.04,-7.4075584,3.0843563079833984,-5.6989884,0.11444635,0.17571066319942474,0.25003722
2457.933333337019,-0.3516539,-0.4423443,-0.2773729,-2.5356317,0.089612335,1.4086226,0.58548117,0.04,0.04,-7.375281,3.105212926864624,-5.7291045,0.11349206,0.17420057952404022,0.24964586
2457.950000003686,-0.3540971,-0.4399754,-0.27929744,-2.5368733,0.09023318,1.407498,0.58409196,0.04,0.04,-7.343703,3.126894474029541,-5.759181,0.112526625,0.17267857491970062,0.24922195
2457.966666670353,-0.35652873,-0.437618,-0.28121278,-2.5381083,0.090851046,1.4063787,0.5827094,0.04,0.04,-7.311855,3.14782452583313,-5.7888203,0.11154959,0.17114241421222687,0.24874084
2457.9833333370198,-0.35894847,-0.43527225,-0.2831185,-2.5393374,0.091465846,1.4052652,0.5813337,0.04,0.04,-7.2794404,3.1682615280151367,-5.8179865,0.11056261,0.1695988029241562,0.24822421
2458.0000000036866,-0.36135596,-0.43293837,-0.28501457,-2.5405598,0.09207757,1.4041572,0.5799652,0.04,0.04,-7.247902,3.1893343925476074,-5.8471327,0.10956521,0.16804340481758118,0.24765952
2458.0166666703535,-0.36375096,-0.43061683,-0.28690082,-2.5417762,0.092686065,1.4030551,0.5786037,0.04,0.04,-7.215927,3.2098405361175537,-5.8758063,0.108557135,0.16647781431674957,0.24705447
2458.0333333370204,-0.36613333,-0.42830774,-0.288777,-2.5429854,0.09329132,1.4019587,0.5772494,0.04,0.04,-7.184052,3.2301390171051025,-5.9041734,0.10754022,0.1649022102355957,0.24639998
2458.0500000036873,-0.36850265,-0.42601147,-0.2906429,-2.544189,0.09389322,1.4008685,0.57590264,0.04,0.04,-7.1516824,3.249846935272217,-5.932077,0.106514454,0.1633194088935852,0.24570768
2458.066666670354,-0.37085873,-0.42372823,-0.2924982,-2.5453854,0.09449176,1.3997848,0.57456344,0.04,0.04,-7.1203413,3.2702829837799072,-5.9599466,0.105478786,0.16172252595424652,0.24496683
2458.083333337021,-0.37320122,-0.42145824,-0.29434276,-2.5465748,0.09508682,1.3987068,0.5732321,0.04,0.04,-7.0884256,3.2900280952453613,-5.9873524,0.10443531,0.16012072563171387,0.24417989
2458.100000003688,-0.37552986,-0.41920188,-0.29617646,-2.547757,0.09567834,1.3976356,0.57190895,0.04,0.04,-7.056635,3.3096680641174316,-6.0144215,0.10338333,0.15850830078125,0.24335453
2458.116666670355,-0.3778445,-0.4169593,-0.29799908,-2.5489318,0.09626626,1.3965709,0.5705937,0.04,0.04,-7.0244694,3.3285322189331055,-6.041079,0.10232235,0.15689167380332947,0.24247885
2458.1333333370217,-0.38014477,-0.4147307,-0.29981032,-2.5500996,0.096850514,1.395513,0.5692866,0.04,0.04,-6.993175,3.348296880722046,-6.0676312,0.10125433,0.15526659786701202,0.24156219
2458.1500000036885,-0.38243046,-0.4125165,-0.30161,-2.5512595,0.097431056,1.3944618,0.56798804,0.04,0.04,-6.9615436,3.367349624633789,-6.093762,0.10017981,0.15363480150699615,0.24060567
2458.1666666703554,-0.3847013,-0.4103168,-0.30339795,-2.5524118,0.09800778,1.393417,0.56669796,0.04,0.04,-6.929935,3.386137008666992,-6.1195493,0.0990977,0.15199878811836243,0.23959824
2458.1833333370223,-0.38695708,-0.4081319,-0.30517387,-2.5535567,0.09858065,1.3923795,0.5654165,0.04,0.04,-6.89811,3.4043006896972656,-6.144912,0.09800888,0.1503535509109497,0.23855034
2458.200000003689,-0.38919747,-0.4059621,-0.30693775,-2.5546935,0.099149585,1.3913492,0.56414384,0.04,0.04,-6.8670883,3.4232747554779053,-6.1701913,0.096913904,0.1487044394016266,0.23746021
2458.216666670356,-0.39142227,-0.40380752,-0.3086892,-2.5558224,0.09971455,1.3903263,0.5628801,0.04,0.04,-6.8357606,3.4415512084960938,-6.195013,0.09581359,0.14705047011375427,0.23632693
2458.233333337023,-0.39363116,-0.4016684,-0.31042814,-2.5569434,0.10027545,1.3893104,0.5616254,0.04,0.04,-6.804203,3.45908522605896,-6.2194333,0.09470788,0.14539051055908203,0.23515512
2458.25000000369,-0.39582404,-0.39954495,-0.31215438,-2.5580564,0.100832224,1.3883022,0.56038,0.04,0.04,-6.773478,3.477449417114258,-6.243733,0.093597144,0.14372611045837402,0.23393394
2458.2666666703567,-0.39800063,-0.39743757,-0.31386775,-2.5591607,0.10138483,1.3873017,0.5591439,0.04,0.04,-6.7425256,3.495164632797241,-6.267629,0.092480704,0.14205682277679443,0.2326736
2458.2833333370236,-0.40016067,-0.3953463,-0.31556797,-2.5602565,0.101933226,1.3863088,0.55791736,0.04,0.04,-6.7116003,3.5126214027404785,-6.2911725,0.091360055,0.1403866857290268,0.23137164
2458.3000000036905,-0.4023039,-0.3932715,-0.31725496,-2.5613432,0.10247731,1.3853235,0.5567004,0.04,0.04,-6.6804514,3.5293397903442383,-6.314304,0.090235144,0.1387118697166443,0.23003317
2458.3166666703573,-0.40443012,-0.39121333,-0.31892854,-2.5624213,0.10301708,1.384346,0.55549324,0.04,0.04,-6.6501336,3.5469207763671875,-6.33731,0.08910686,0.13703866302967072,0.2286485
2458.333333337024,-0.4065392,-0.38917196,-0.32058856,-2.5634913,0.10355244,1.3833767,0.5542958,0.04,0.04,-6.6197224,3.5637855529785156,-6.3599086,0.08797466,0.13536004722118378,0.22722289
2458.350000003691,-0.40863082,-0.38714758,-0.3222347,-2.5645514,0.10408333,1.3824157,0.5531084,0.04,0.04,-6.589437,3.58048152923584,-6.3822045,0.086839214,0.1336786299943924,0.22575785
2458.366666670358,-0.4107049,-0.3851405,-0.32386693,-2.5656028,0.10460974,1.3814627,0.5519312,0.04,0.04,-6.5587196,3.596264362335205,-6.4040656,0.085701354,0.1320011019706726,0.22425026
2458.383333337025,-0.41276112,-0.38315076,-0.32548502,-2.5666454,0.105131574,1.380518,0.5507641,0.04,0.04,-6.529146,3.6131787300109863,-6.4258084,0.08455972,0.13031995296478271,0.22270925
2458.4000000036917,-0.41479927,-0.38117877,-0.32708883,-2.5676785,0.10564878,1.3795815,0.5496075,0.04,0.04,-6.4993315,3.629199743270874,-6.447158,0.083416276,0.1286354660987854,0.22112623
2458.4166666703586,-0.4168191,-0.37922472,-0.32867828,-2.5687022,0.10616133,1.3786535,0.54846126,0.04,0.04,-6.4695973,3.64497971534729,-6.46817,0.0822701,0.12695245444774628,0.2194999
2458.4333333370255,-0.41882047,-0.37728867,-0.33025303,-2.5697167,0.10666916,1.3777343,0.54732555,0.04,0.04,-6.4396844,3.6600441932678223,-6.4887857,0.081123106,0.12526904046535492,0.21784407
2458.4500000036924,-0.42080325,-0.37537065,-0.33181316,-2.5707214,0.10717221,1.3768234,0.5462005,0.04,0.04,-6.410775,3.676035165786743,-6.5092883,0.079974756,0.1235857605934143,0.21614458
2458.4666666703592,-0.42276716,-0.37347126,-0.33335835,-2.5717163,0.10767045,1.3759214,0.5450864,0.04,0.04,-6.3815703,3.6912639141082764,-6.5293837,0.078824386,0.12190364301204681,0.21440992
2458.483333337026,-0.424712,-0.3715904,-0.3348884,-2.572702,0.108163826,1.3750284,0.543983,0.04,0.04,-6.3522353,3.7056140899658203,-6.5490713,0.07767355,0.12022223323583603,0.21263838
2458.500000003693,-0.42663768,-0.36972827,-0.3364033,-2.5736778,0.108652286,1.374144,0.5428908,0.04,0.04,-6.323914,3.720993995666504,-6.5686536,0.07652275,0.11854255944490433,0.21082643
2458.51666667036,-0.42854393,-0.36788502,-0.33790284,-2.5746439,0.10913581,1.3732688,0.54180956,0.04,0.04,-6.295378,3.7356035709381104,-6.587818,0.07537038,0.11686202883720398,0.2089828
2458.5333333370268,-0.43043053,-0.3660609,-0.3393869,-2.5755994,0.10961433,1.3724025,0.5407396,0.04,0.04,-6.2670703,3.7500083446502686,-6.6067076,0.074218355,0.11518311500549316,0.20710827
2458.5500000036936,-0.43229744,-0.3642561,-0.34085542,-2.576545,0.11008779,1.3715456,0.5396809,0.04,0.04,-6.2384763,3.7634243965148926,-6.6251936,0.073066875,0.11350854486227036,0.20519137
2458.5666666703605,-0.4341444,-0.36247078,-0.3423082,-2.57748,0.11055617,1.3706977,0.5386335,0.04,0.04,-6.210987,3.778092622756958,-6.6435347,0.07191586,0.11183632910251617,0.20324947
2458.5833333370274,-0.4359713,-0.36070493,-0.34374517,-2.578405,0.11101943,1.3698592,0.53759784,0.04,0.04,-6.1832886,3.7917726039886475,-6.661508,0.07076619,0.1101687103509903,0.20126796
2458.6000000036943,-0.43777806,-0.35895887,-0.34516612,-2.5793197,0.11147753,1.36903,0.53657365,0.04,0.04,-6.155837,3.8053102493286133,-6.6791844,0.06961615,0.10850446671247482,0.19925639
2458.616666670361,-0.43956438,-0.3572327,-0.346571,-2.580224,0.1119304,1.3682104,0.535561,0.04,0.04,-6.1282964,3.8179733753204346,-6.696497,0.06846759,0.10684091597795486,0.19721134
2458.633333337028,-0.44133016,-0.35552648,-0.34795967,-2.5811179,0.11237806,1.3674,0.5345601,0.04,0.04,-6.1017046,3.831713914871216,-6.7136626,0.067321,0.10518428683280945,0.19513215
2458.650000003695,-0.4430753,-0.35384038,-0.349332,-2.582001,0.11282045,1.3665992,0.53357095,0.04,0.04,-6.0750117,3.8446311950683594,-6.730453,0.066176444,0.10352881252765656,0.19302519
2458.666666670362,-0.44479957,-0.35217455,-0.35068792,-2.5828743,0.11325752,1.3658081,0.5325937,0.04,0.04,-6.0485587,3.857361316680908,-6.7469597,0.065033555,0.10187668353319168,0.1908935
2458.6833333370287,-0.44650304,-0.3505292,-0.3520273,-2.5837362,0.11368926,1.3650271,0.53162855,0.04,0.04,-6.0220284,3.869105577468872,-6.7631483,0.06389249,0.10022784024477005,0.18872267
2458.7000000036955,-0.4481853,-0.3489044,-0.35335,-2.5845876,0.11411561,1.3642554,0.5306754,0.04,0.04,-5.9963975,3.882124900817871,-6.779137,0.06275375,0.09858741611242294,0.18653402
2458.7166666703624,-0.4498463,-0.34730026,-0.35465604,-2.5854282,0.11453657,1.3634936,0.5297343,0.04,0.04,-5.970757,3.894091844558716,-6.7947993,0.061617825,0.096951425075531,0.18430589
2458.7333333370293,-0.451486,-0.34571683,-0.3559453,-2.586258,0.11495205,1.3627416,0.5288053,0.04,0.04,-5.9449763,3.9053125381469727,-6.810117,0.060485188,0.09531830251216888,0.1820563
2458.750000003696,-0.45310426,-0.34415418,-0.35721755,-2.587077,0.11536206,1.3619992,0.5278886,0.04,0.04,-5.920215,3.9176855087280273,-6.8252645,0.05935592,0.09369123727083206,0.17978515
2458.766666670363,-0.454701,-0.34261253,-0.35847288,-2.5878847,0.11576662,1.3612669,0.52698416,0.04,0.04,-5.8954306,3.9291069507598877,-6.840101,0.058229234,0.09206659346818924,0.17748417
2458.78333333703,-0.45627618,-0.341092,-0.3597111,-2.588681,0.116165645,1.3605446,0.526092,0.04,0.04,-5.8708076,3.9403092861175537,-6.8546453,0.057106555,0.09045126289129257,0.17515276
2458.800000003697,-0.4578295,-0.33959258,-0.36093226,-2.5894668,0.11655913,1.3598324,0.52521247,0.04,0.04,-5.8460717,3.95068621635437,-6.8688607,0.055987827,0.08884350955486298,0.17280237
2458.8166666703637,-0.45936105,-0.3381144,-0.3621361,-2.5902414,0.11694706,1.3591303,0.52434516,0.04,0.04,-5.822544,3.96226167678833,-6.882932,0.054871745,0.08723931759595871,0.17043449
2458.8333333370306,-0.46087068,-0.33665752,-0.36332256,-2.5910044,0.11732939,1.3584385,0.5234903,0.04,0.04,-5.79884,3.9728078842163086,-6.8966703,0.053760808,0.08564269542694092,0.16803326
2458.8500000036975,-0.46235827,-0.33522207,-0.3644919,-2.5917563,0.11770611,1.3577567,0.5226481,0.04,0.039999977,-5.775392,3.9833197593688965,-6.910147,0.052654687,0.08405429869890213,0.16562332
2458.8666666703643,-0.4638238,-0.33380806,-0.36564368,-2.5924969,0.11807719,1.3570849,0.52181864,0.04,0.039999954,-5.751906,3.9927754402160645,-6.923308,0.051552296,0.08247324824333191,0.16317804
2458.883333337031,-0.46526706,-0.33241552,-0.3667779,-2.5932264,0.11844263,1.3564236,0.52100164,0.04,0.039999954,-5.7294726,4.003523826599121,-6.936293,0.050454248,0.08089885115623474,0.16072074
2458.900000003698,-0.4666882,-0.33104455,-0.36789468,-2.5939448,0.11880243,1.3557726,0.5201974,0.04,0.039999936,-5.7070365,4.013400077819824,-6.9490123,0.04936155,0.0793304443359375,0.15825039
2458.916666670365,-0.46808705,-0.32969534,-0.36899388,-2.594652,0.119156554,1.3551319,0.5194056,0.04,0.039999936,-5.6848674,4.022971153259277,-6.961453,0.04827316,0.07776987552642822,0.15575033
2458.933333337032,-0.46946356,-0.32836783,-0.3700755,-2.5953474,0.119504996,1.3545009,0.518627,0.04,0.039999936,-5.662573,4.031782150268555,-6.9735804,0.047191426,0.07621730118989944,0.15324382
2458.9500000036987,-0.4708177,-0.32706207,-0.3711396,-2.596032,0.11984773,1.3538808,0.5178608,0.04,0.039999932,-5.6414123,4.041680812835693,-6.9855423,0.04611285,0.07467161864042282,0.15071608
2458.9666666703656,-0.47214937,-0.325778,-0.37218595,-2.5967047,0.12018476,1.3532709,0.5171074,0.04,0.03999993,-5.6201816,4.050705909729004,-6.997238,0.045041233,0.07313553243875504,0.14816685
2458.9833333370325,-0.4734586,-0.32451582,-0.3732146,-2.5973654,0.12051608,1.3526715,0.5163665,0.04,0.039999925,-5.598867,4.0589375495910645,-7.0086412,0.043974776,0.0716068297624588,0.14561424
2459.0000000036994,-0.47474533,-0.3232754,-0.3742255,-2.598015,0.12084169,1.3520824,0.5156388,0.04,0.039999917,-5.57854,4.068244934082031,-7.0198526,0.04291648,0.07009213417768478,0.14304532
2459.0166666703662,-0.47600955,-0.3220568,-0.3752187,-2.5986533,0.121161565,1.3515035,0.51492393,0.04,0.039999872,-5.5583487,4.076666831970215,-7.030812,0.041861784,0.06858334690332413,0.14045438
2459.033333337033,-0.47725114,-0.32086012,-0.37619412,-2.5992799,0.1214757,1.3509351,0.5142216,0.04,0.039999865,-5.5383725,4.085035800933838,-7.0415106,0.040813234,0.06708259135484695,0.13786463
2459.0500000037,-0.4784703,-0.31968534,-0.3771518,-2.5998952,0.12178408,1.3503772,0.5135322,0.04,0.039999858,-5.518361,4.092389106750488,-7.051953,0.03977286,0.06559228152036667,0.13525917
2459.066666670367,-0.47966674,-0.31853232,-0.3780917,-2.6004992,0.12208676,1.3498294,0.5128558,0.04,0.03999985,-5.4994574,4.101010322570801,-7.0622225,0.038737897,0.06411199271678925,0.1326445
2459.0833333370338,-0.4808407,-0.31740123,-0.3790138,-2.6010919,0.122383684,1.3492919,0.51219213,0.04,0.039999843,-5.4805093,4.108663082122803,-7.0722365,0.03770896,0.06263943761587143,0.13001426
2459.1000000037006,-0.48199213,-0.31629202,-0.3799182,-2.6016734,0.122674905,1.3487649,0.5115413,0.04,0.03999984,-5.46189,4.116300106048584,-7.0820026,0.036687,0.06117439270019531,0.12738824
2459.1166666703675,-0.48312095,-0.3152046,-0.38080484,-2.6022427,0.122960374,1.3482486,0.5109033,0.04,0.039999846,-5.443255,4.122927665710449,-7.091536,0.03567179,0.0597185343503952,0.1247496
2459.1333333370344,-0.48422733,-0.31413895,-0.38167384,-2.602801,0.12324012,1.3477429,0.5102779,0.04,0.039999843,-5.4255548,4.130722999572754,-7.100896,0.034664113,0.058279067277908325,0.12210042
2459.1500000037013,-0.48531115,-0.31309518,-0.38252506,-2.6033473,0.123514205,1.3472471,0.5096654,0.04,0.039999835,-5.407982,4.137823104858398,-7.109997,0.033663847,0.056846678256988525,0.11945765
2459.166666670368,-0.48637247,-0.31207314,-0.38335872,-2.6038828,0.12378256,1.3467613,0.50906575,0.04,0.03999984,-5.3905807,4.144556522369385,-7.1188555,0.03267149,0.05542784184217453,0.11680734
2459.183333337035,-0.48741138,-0.3110729,-0.3841746,-2.6044064,0.124045216,1.3462858,0.5084787,0.04,0.039999828,-5.3733706,4.150540351867676,-7.1275053,0.031685323,0.05401436984539032,0.11415256
2459.200000003702,-0.4884279,-0.31009418,-0.3849729,-2.6049192,0.12430218,1.345821,0.5079044,0.04,0.039999813,-5.3570023,4.157639503479004,-7.135959,0.030708322,0.052615489810705185,0.1114983
2459.216666670369,-0.4894221,-0.309137,-0.38575378,-2.60542,0.1245535,1.3453666,0.5073427,0.04,0.0399998,-5.3408046,4.163938045501709,-7.144218,0.029738363,0.05122576653957367,0.108840756
2459.2333333370357,-0.49039412,-0.3082014,-0.3865171,-2.6059103,0.12479918,1.344922,0.5067937,0.04,0.039999783,-5.324418,4.169378757476807,-7.1522293,0.028776566,0.04985057935118675,0.10618533
2459.2500000037026,-0.49134392,-0.3072874,-0.387263,-2.6063886,0.12503919,1.3444875,0.5062573,0.04,0.03999978,-5.3092217,4.175956726074219,-7.160055,0.027822254,0.0484834760427475,0.10352529
2459.2666666703694,-0.49227154,-0.3063947,-0.3879915,-2.6068568,0.12527359,1.3440636,0.50573355,0.04,0.03999977,-5.2938685,4.181755065917969,-7.1676497,0.026876647,0.047130294144153595,0.10087515
2459.2833333370363,-0.4931772,-0.30552337,-0.38870263,-2.6073134,0.12550242,1.3436497,0.5052222,0.04,0.03999977,-5.2790318,4.187415599822998,-7.1750917,0.02593828,0.045785363763570786,0.09823402
2459.300000003703,-0.4940609,-0.30467317,-0.38939655,-2.607759,0.1257257,1.3432456,0.50472337,0.04,0.039999772,-5.2640347,4.192140579223633,-7.1822753,0.025009107,0.04445427283644676,0.09559276
2459.31666667037,-0.49492273,-0.3038441,-0.39007327,-2.608193,0.12594345,1.3428519,0.5042369,0.04,0.03999977,-5.2501273,4.198060989379883,-7.1893034,0.024088055,0.043133337050676346,0.092956305
2459.333333337037,-0.4957627,-0.303036,-0.3907329,-2.6086164,0.12615567,1.3424684,0.5037626,0.04,0.03999976,-5.236083,4.203149795532227,-7.1961193,0.023176689,0.041829559952020645,0.090329535
2459.350000003704,-0.49658114,-0.30224887,-0.39137557,-2.6090286,0.12636237,1.3420943,0.50330067,0.04,0.03999976,-5.222555,4.208095550537109,-7.202771,0.022274254,0.04053674638271332,0.0877107
2459.3666666703707,-0.49737802,-0.30148256,-0.3920012,-2.6094296,0.12656367,1.3417302,0.5028509,0.04,0.039999772,-5.2089357,4.212188720703125,-7.2091694,0.021380665,0.03925587981939316,0.0850945
2459.3833333370376,-0.49815345,-0.3007368,-0.39261016,-2.6098201,0.12675951,1.3413762,0.5024132,0.04,0.03999977,-5.1962686,4.217475891113281,-7.215423,0.02049698,0.037990372627973557,0.082496315
2459.4000000037045,-0.49890757,-0.30001166,-0.39320236,-2.6102,0.12694998,1.3410314,0.50198776,0.04,0.03999976,-5.183696,4.221998691558838,-7.2214923,0.019622458,0.03673568740487099,0.07991687
2459.4166666703713,-0.49964058,-0.29930696,-0.39377797,-2.6105685,0.12713511,1.3406967,0.5015741,0.04,0.039999757,-5.1714144,4.22623348236084,-7.2273617,0.018756911,0.03549421206116676,0.07734318
2459.433333337038,-0.50035274,-0.2986224,-0.3943371,-2.6109273,0.12731497,1.3403715,0.5011724,0.04,0.03999976,-5.159077,4.229714870452881,-7.233055,0.017902276,0.03427066281437874,0.07477835
2459.450000003705,-0.5010439,-0.29795793,-0.39487988,-2.6112754,0.1274895,1.3400558,0.5007825,0.04,0.039999757,-5.147841,4.23445987701416,-7.2385783,0.017055977,0.03305592015385628,0.07224136
2459.466666670372,-0.5017144,-0.2973134,-0.39540648,-2.6116126,0.12765878,1.3397496,0.5004043,0.04,0.03999976,-5.1365466,4.238240718841553,-7.243939,0.01622028,0.03185586631298065,0.06971404
2459.483333337039,-0.5023646,-0.29668856,-0.39591703,-2.6119397,0.12782294,1.3394527,0.50003755,0.04,0.039999742,-5.125149,4.241315841674805,-7.2490864,0.0153950425,0.030673017725348473,0.06720552
2459.5000000037057,-0.5029944,-0.29608324,-0.3964116,-2.6122565,0.12798192,1.3391653,0.49968237,0.04,0.03999973,-5.1148286,4.245486259460449,-7.254105,0.0145801725,0.0295038353651762,0.06471482
2459.5166666703726,-0.5036042,-0.29549745,-0.39689037,-2.6125634,0.12813587,1.3388869,0.49933842,0.04,0.039999723,-5.1044803,4.2488861083984375,-7.2589426,0.013775408,0.028349556028842926,0.06224383
2459.5333333370395,-0.5041937,-0.2949309,-0.39735362,-2.61286,0.12828481,1.3386178,0.4990057,0.04,0.03999972,-5.0944395,4.252142906188965,-7.2635994,0.0129821105,0.02720913477241993,0.059794527
2459.5500000037064,-0.50476366,-0.2943832,-0.39780146,-2.6131465,0.1284287,1.3383574,0.4986842,0.04,0.039999712,-5.0843816,4.254674911499023,-7.268107,0.012200633,0.026086263358592987,0.05736936
2459.5666666703733,-0.5053141,-0.2938543,-0.39823386,-2.6134236,0.12856765,1.3381062,0.49837372,0.04,0.039999712,-5.075282,4.258246421813965,-7.2724543,0.011428981,0.024976210668683052,0.05496612
2459.58333333704,-0.50584525,-0.29334396,-0.39865115,-2.6136909,0.12870175,1.3378638,0.4980741,0.04,0.039999712,-5.066151,4.261070728302002,-7.276652,0.010668929,0.02388312667608261,0.052588925
2459.600000003707,-0.50635743,-0.29285195,-0.39905345,-2.6139483,0.12883109,1.3376298,0.49778527,0.04,0.039999716,-5.0573535,4.263782501220703,-7.2806897,0.009920163,0.022805599495768547,0.05023763
2459.616666670374,-0.50685066,-0.29237813,-0.39944112,-2.6141963,0.12895562,1.3374044,0.49750704,0.04,0.03999971,-5.0485,4.265784740447998,-7.2845616,0.009183366,0.021744847297668457,0.047914647
2459.6333333370408,-0.50732553,-0.2919221,-0.39981416,-2.6144352,0.12907544,1.3371878,0.49723935,0.04,0.039999716,-5.040537,4.26876163482666,-7.2882857,0.008458536,0.020701086148619652,0.04561954
2459.6500000037076,-0.507782,-0.29148376,-0.40017295,-2.6146648,0.12919065,1.336979,0.4969819,0.04,0.039999723,-5.032633,4.271087169647217,-7.291893,0.0077446927,0.01967429183423519,0.043353986
2459.6666666703745,-0.50822043,-0.29106265,-0.40051752,-2.6148856,0.12930134,1.3367788,0.49673462,0.04,0.039999716,-5.024985,4.273247241973877,-7.2953186,0.0070438944,0.01866248808801174,0.041118726
2459.6833333370414,-0.5086411,-0.29065874,-0.4008482,-2.615097,0.12940757,1.3365865,0.49649736,0.04,0.039999716,-5.017367,4.274787425994873,-7.298639,0.0063550333,0.017668070271611214,0.038916536
2459.7000000037083,-0.50904405,-0.2902716,-0.40116516,-2.6152997,0.12950942,1.3364025,0.4962701,0.04,0.039999716,-5.01049,4.277218341827393,-7.301787,0.0056793117,0.016692928969860077,0.03674708
2459.716666670375,-0.5094299,-0.28990096,-0.40146866,-2.6154935,0.12960689,1.3362265,0.49605244,0.04,0.039999716,-5.0036583,4.2789435386657715,-7.304839,0.005016526,0.015737736597657204,0.034607626
2459.733333337042,-0.50979894,-0.28954652,-0.40175894,-2.615679,0.1297001,1.3360584,0.4958443,0.04,0.03999972,-4.996802,4.280231952667236,-7.307718,0.0043669986,0.014801278710365295,0.032517638
2459.750000003709,-0.5101514,-0.28920808,-0.40203613,-2.615856,0.1297891,1.3358976,0.49564552,0.04,0.03999972,-4.9907985,4.282242774963379,-7.310498,0.003730176,0.013884949497878551,0.030457702
2459.766666670376,-0.5104875,-0.28888533,-0.4023006,-2.616025,0.12987399,1.3357443,0.49545595,0.04,0.039999723,-4.984754,4.283668041229248,-7.3131185,0.0031074123,0.012986830435693264,0.028437078
2459.7833333370427,-0.51080734,-0.28857782,-0.4025526,-2.6161857,0.12995486,1.3355983,0.49527523,0.04,0.03999973,-4.9789867,4.284985065460205,-7.3156376,0.0024983042,0.012108342722058296,0.026455844
2459.8000000037096,-0.5111118,-0.28828534,-0.40279236,-2.6163385,0.13003181,1.3354595,0.49510345,0.04,0.03999973,-4.9732003,4.2857208251953125,-7.3180275,0.0019045451,0.011250168085098267,0.024517559
2459.8166666703764,-0.5114008,-0.28800744,-0.40302023,-2.6164837,0.13010494,1.3353271,0.49494025,0.04,0.03999973,-4.968148,4.287275314331055,-7.3202953,0.0013240884,0.010412836447358131,0.022620376
2459.8333333370433,-0.511675,-0.2877439,-0.4032364,-2.6166215,0.1301743,1.3352015,0.4947854,0.04,0.03999973,-4.963089,4.2882585525512695,-7.3224416,0.0007585391,0.009594864211976528,0.020767096
2459.85000000371,-0.5119348,-0.28749433,-0.4034412,-2.6167521,0.13023998,1.3350829,0.4946387,0.04,0.039999727,-4.958322,4.289139747619629,-7.3244815,0.0002076845,0.00879564881324768,0.018957455
2459.866666670377,-0.5121802,-0.28725827,-0.40363482,-2.6168761,0.1303021,1.3349708,0.49450007,0.04,0.03999973,-4.9534926,4.2895331382751465,-7.3264203,-0.00032837153,0.00802079401910305,0.017194498
2459.883333337044,-0.51241195,-0.28703544,-0.40381777,-2.616994,0.13036075,1.3348646,0.49436918,0.039999995,0.03999973,-4.949396,4.290600299835205,-7.32827,-0.00084922835,0.007265076041221619,0.015478625
2459.900000003711,-0.51263016,-0.28682545,-0.40399015,-2.617105,0.130416,1.334765,0.49424586,0.039999995,0.03999973,-4.94532,4.2912139892578125,-7.329991,-0.0013554923,0.006526547484099865,0.013809175
2459.9166666703777,-0.5128353,-0.28662795,-0.40415242,-2.6172087,0.13046801,1.3346709,0.4941298,0.039999995,0.039999735,-4.9413414,4.291663646697998,-7.331637,-0.0018453808,0.005812870804220438,0.0121908
2459.9333333370446,-0.513028,-0.2864425,-0.4043048,-2.6173048,0.13051687,1.3345827,0.4940208,0.039999995,0.039999735,-4.9373155,4.291665554046631,-7.333149,-0.0023182437,0.005124625284224749,0.0106244
2459.9500000037115,-0.51320845,-0.28626868,-0.40444762,-2.6173942,0.13056263,1.3344998,0.49391863,0.04,0.039999742,-4.933767,4.292300224304199,-7.3345604,-0.002773922,0.004466795828193426,0.009112773
2459.9666666703783,-0.5133771,-0.2861061,-0.40458125,-2.6174812,0.13060546,1.3344226,0.49382305,0.04,0.039999742,-4.9303365,4.292473793029785,-7.3358865,-0.0032122864,0.0038343300111591816,0.007656256
2459.983333337045,-0.5135343,-0.28595442,-0.40470612,-2.6175609,0.1306455,1.3343501,0.49373373,0.04,0.03999975,-4.9274106,4.292324066162109,-7.3372073,-0.0036354247,0.003211643546819687,0.006249493
2460.000000003712,-0.51368093,-0.28581306,-0.4048225,-2.617634,0.13068277,1.3342831,0.49365065,0.04,0.039999753,-4.924323,4.292628288269043,-7.3383427,-0.0040392107,0.002620727987959981,0.004901731
2460.016666670379,-0.51381695,-0.28568164,-0.40493074,-2.617701,0.13071741,1.3342209,0.49357334,0.04,0.039999753,-4.9213223,4.292568683624268,-7.339425,-0.0044260556,0.0020631239749491215,0.0036126624
2460.033333337046,-0.51394296,-0.28555974,-0.40503117,-2.6177654,0.13074957,1.3341628,0.49350163,0.04,0.039999753,-4.9185357,4.29239559173584,-7.3404264,-0.004793398,0.001535461749881506,0.0023856615
2460.0500000037127,-0.51405954,-0.2854468,-0.40512434,-2.6178231,0.13077937,1.3341088,0.49343517,0.04,0.039999753,-4.91617,4.291940212249756,-7.341392,-0.005143671,0.0010208355961367488,0.0012145393
2460.0666666703796,-0.5141672,-0.2853424,-0.40521038,-2.6178796,0.13080694,1.3340586,0.49337366,0.04,0.039999757,-4.913656,4.291883945465088,-7.342227,-0.005473979,0.0005422236863523722,0.00010805357
2460.0833333370465,-0.5142664,-0.28524604,-0.40528983,-2.6179292,0.13083237,1.3340123,0.49331695,0.039999995,0.03999975,-4.9117546,4.291576385498047,-7.343074,-0.0057865335,7.569517765659839e-05,-0.0009402849
2460.1000000037134,-0.5143576,-0.2851573,-0.4053631,-2.6179779,0.13085584,1.3339697,0.49326456,0.039999995,0.039999753,-4.909311,4.29108190536499,-7.3437853,-0.0060784193,-0.00035186667810194194,-0.0019209769
2460.1166666703803,-0.51444143,-0.28507555,-0.40543067,-2.6180196,0.13087745,1.333931,0.4932165,0.039999995,0.039999753,-4.9074802,4.290444374084473,-7.34452,-0.0063515846,-0.0007617581868544221,-0.0028398666
2460.133333337047,-0.51451826,-0.28500047,-0.40549284,-2.6180606,0.13089733,1.3338958,0.49317226,0.039999995,0.039999757,-4.905306,4.290025234222412,-7.345124,-0.0066038226,-0.001127650961279869,-0.0036876176
2460.150000003714,-0.51458865,-0.2849314,-0.40555006,-2.6180952,0.13091566,1.3338624,0.49313155,0.039999995,0.039999757,-4.903788,4.2894721031188965,-7.3457494,-0.0068365657,-0.0014732774579897523,-0.004470432
2460.166666670381,-0.514653,-0.28486785,-0.4056027,-2.618129,0.13093255,1.3338317,0.49309397,0.039999995,0.039999757,-4.901757,4.288808822631836,-7.3462114,-0.007048168,-0.0017824661917984486,-0.0051867007
2460.1833333370478,-0.5147122,-0.28480947,-0.40565127,-2.6181602,0.13094805,1.3338044,0.49305943,0.03999999,0.039999753,-4.9004016,4.288156986236572,-7.3467383,-0.007242445,-0.002076626056805253,-0.00584762
2460.2000000037146,-0.5147667,-0.28475562,-0.405696,-2.618187,0.13096231,1.333778,0.49302766,0.039999995,0.03999976,-4.89904,4.287843704223633,-7.347213,-0.0074213124,-0.002342839725315571,-0.006455338
2460.2166666703815,-0.51481646,-0.28470623,-0.40573713,-2.6182132,0.13097546,1.3337548,0.4929984,0.04,0.039999764,-4.8975244,4.287369728088379,-7.347562,-0.007585018,-0.002584790578112006,-0.007012248
2460.2333333370484,-0.514862,-0.28466082,-0.40577498,-2.6182382,0.13098748,1.3337322,0.49297157,0.04,0.03999977,-4.8964562,4.286856174468994,-7.347995,-0.0077353,-0.0028101718053221703,-0.0075257677
2460.2500000037153,-0.5149038,-0.284619,-0.4058098,-2.618259,0.13099855,1.3337127,0.49294683,0.04,0.039999764,-4.8955345,4.286600112915039,-7.3483357,-0.00787395,-0.0030269441194832325,-0.007999356
2460.266666670382,-0.51494217,-0.28458053,-0.4058419,-2.6182775,0.13100874,1.333694,0.4929241,0.04,0.03999977,-4.8942165,4.28621244430542,-7.348659,-0.007999599,-0.0032115555368363857,-0.00842975
2460.283333337049,-0.5149774,-0.28454503,-0.4058714,-2.6182961,0.1310182,1.3336781,0.49290314,0.04,0.039999764,-4.8932652,4.285892963409424,-7.3489175,-0.008114996,-0.0033826008439064026,-0.008826118
2460.300000003716,-0.51500976,-0.28451246,-0.40589857,-2.618314,0.13102683,1.3336626,0.4928838,0.04,0.039999772,-4.892539,4.285559177398682,-7.349255,-0.008221784,-0.0035408930853009224,-0.009191232
2460.316666670383,-0.5150392,-0.2844825,-0.40592358,-2.6183314,0.13103487,1.3336477,0.49286604,0.04,0.03999977,-4.8918943,4.285389423370361,-7.34948,-0.008319927,-0.0036935987882316113,-0.009529075
2460.3333333370497,-0.5150664,-0.284455,-0.40594658,-2.6183448,0.13104218,1.3336357,0.49284965,0.04,0.039999764,-4.891282,4.28513765335083,-7.3497224,-0.008410137,-0.003841501660645008,-0.009841486
2460.3500000037166,-0.5150913,-0.28442952,-0.4059678,-2.6183562,0.13104889,1.333624,0.49283472,0.04,0.039999764,-4.890245,4.284879207611084,-7.349927,-0.008491385,-0.003958388697355986,-0.010122553
2460.3666666703834,-0.5151141,-0.28440616,-0.4059873,-2.6183672,0.13105509,1.3336127,0.49282095,0.04,0.039999764,-4.889555,4.284599304199219,-7.350091,-0.008566598,-0.004065832123160362,-0.010380793
2460.3833333370503,-0.51513505,-0.2843846,-0.40600526,-2.6183782,0.13106081,1.3336017,0.49280816,0.04,0.03999977,-4.8891053,4.284464359283447,-7.350254,-0.008635496,-0.004169006831943989,-0.010619391
2460.400000003717,-0.5151542,-0.28436488,-0.40602174,-2.6183887,0.13106607,1.3335923,0.49279642,0.04,0.03999977,-4.888716,4.284313201904297,-7.3504167,-0.00869879,-0.004270382225513458,-0.010840942
2460.416666670384,-0.5151718,-0.28434688,-0.40603703,-2.618399,0.1310709,1.3335843,0.4927856,0.04,0.039999776,-4.8882694,4.284149169921875,-7.3505936,-0.008756795,-0.00436226325109601,-0.011044442
2460.433333337051,-0.51518786,-0.28433013,-0.40605098,-2.6184087,0.13107532,1.3335764,0.4927757,0.04,0.03999977,-4.88785,4.283992290496826,-7.3507433,-0.008810333,-0.0044456180185079575,-0.011231456
2460.450000003718,-0.51520264,-0.2843149,-0.40606388,-2.6184185,0.13107945,1.3335689,0.4927667,0.04,0.039999772,-4.887522,4.283889293670654,-7.350883,-0.008859951,-0.004527568817138672,-0.011403661
2460.4666666703847,-0.51521605,-0.2843008,-0.40607572,-2.6184263,0.13108325,1.3335617,0.49275833,0.04,0.039999772,-4.887214,4.2837815284729,-7.350996,-0.008906099,-0.004606442525982857,-0.011564102
2460.4833333370516,-0.51522845,-0.28428784,-0.40608656,-2.6184323,0.1310867,1.3335546,0.49275059,0.04,0.039999772,-4.886712,4.28359842300415,-7.3510904,-0.008947265,-0.004676565062254667,-0.011709808
2460.5000000037185,-0.5152398,-0.28427592,-0.40609667,-2.6184375,0.13108991,1.3335483,0.49274352,0.04,0.03999977,-4.8862543,4.283502578735352,-7.3511643,-0.008984206,-0.0047369711101055145,-0.011842248
2460.5166666703853,-0.5152502,-0.28426495,-0.4061059,-2.618442,0.13109286,1.333544,0.49273688,0.04,0.03999977,-4.88594,4.2834153175354,-7.351256,-0.00901836,-0.004790826700627804,-0.01196389
2460.533333337052,-0.5152596,-0.2842549,-0.40611443,-2.618446,0.13109556,1.3335398,0.49273092,0.04,0.03999977,-4.885627,4.283336162567139,-7.3513665,-0.009048914,-0.0048323930241167545,-0.0120731825
2460.550000003719,-0.51526856,-0.28424564,-0.40612233,-2.6184494,0.13109805,1.3335358,0.49272528,0.04,0.03999978,-4.7808986,4.030716419219971,-7.3145638,0.0,-0.0,0.0
2460.566666670386,-0.51526856,-0.28424564,-0.40612233,-2.6184494,0.13109805,1.3335358,0.49272528,0.04,0.03999978,-4.884714,4.281649589538574,-7.3514047,0.0,-0.0,0.0
2460.583333337053,-0.51526856,-0.28424564,-0.40612233,-2.6184494,0.13109805,1.3335358,0.49272528,0.04,0.03999978,-4.884714,4.281649589538574,-7.3514047,0.0,-0.0,0.0
2460.6000000037197,-0.51526856,-0.28424564,-0.40612233,-2.6184494,0.13109805,1.3335358,0.49272528,0.04,0.03999978,-4.884714,4.281649589538574,-7.3514047,0.0,-0.0,0.0
2460.6166666703866,-0.51526856,-0.28424564,-0.40612233,-2.6184494,0.13109805,1.3335358,0.49272528,0.04,0.03999978,-4.884714,4.281649589538574,-7.3514047,0.0,-0.0,0.0
2460.6333333370535,-0.51526856,-0.28424564,-0.40612233,-2.6184494,0.13109805,1.3335358,0.49272528,0.04,0.03999978,-4.884714,4.281649589538574,-7.3514047,0.0,-0.0,0.0
2460.6500000037204,-0.51526856,-0.28424564,-0.40612233,-2.6184494,0.13109805,1.3335358,0.49272528,0.04,0.03999978,-4.884714,4.281649589538574,-7.3514047,0.0,-0.0,0.0
2460.6666666703873,-0.51526856,-0.28424564,-0.40612233,-2.6184494,0.13109805,1.3335358,0.49272528,0.04,0.03999978,-4.884714,4.281649589538574,-7.3514047,0.0,-0.0,0.0
2460.683333337054,-0.51526856,-0.28424564,-0.40612233,-2.6184494,0.13109805,1.3335358,0.49272528,0.04,0.03999978,-4.884714,4.281649589538574,-7.3514047,0.0,-0.0,0.0
2460.700000003721,-0.51526856,-0.28424564,-0.40612233,-2.6184494,0.13109805,1.3335358,0.49272528,0.04,0.03999978,-4.884714,4.281649589538574,-7.3514047,0.0,-0.0,0.0
2460.716666670388,-0.51526856,-0.28424564,-0.40612233,-2.6184494,0.13109805,1.3335358,0.49272528,0.04,0.03999978,-4.884714,4.281649589538574,-7.3514047,0.0,-0.0,0.0
2460.733333337055,-0.51526856,-0.28424564,-0.40612233,-2.6184494,0.13109805,1.3335358,0.49272528,0.04,0.03999978,-4.884714,4.281649589538574,-7.3514047,0.0,-0.0,0.0
2460.7500000037217,-0.51526856,-0.28424564,-0.40612233,-2.6184494,0.13109805,1.3335358,0.49272528,0.04,0.03999978,-4.884714,4.281649589538574,-7.3514047,0.0,-0.0,0.0
2460.7666666703885,-0.51526856,-0.28424564,-0.40612233,-2.6184494,0.13109805,1.3335358,0.49272528,0.04,0.03999978,-4.884714,4.281649589538574,-7.3514047,0.0,-0.0,0.0
2460.7833333370554,-0.51526856,-0.28424564,-0.40612233,-2.6184494,0.13109805,1.3335358,0.49272528,0.04,0.03999978,-4.884714,4.281649589538574,-7.3514047,0.0,-0.0,0.0
2460.8000000037223,-0.51526856,-0.28424564,-0.40612233,-2.6184494,0.13109805,1.3335358,0.49272528,0.04,0.03999978,-4.884714,4.281649589538574,-7.3514047,0.0,-0.0,0.0
2460.816666670389,-0.51526856,-0.28424564,-0.40612233,-2.6184494,0.13109805,1.3335358,0.49272528,0.04,0.03999978,-4.884714,4.281649589538574,-7.3514047,0.0,-0.0,0.0
2460.833333337056,-0.51526856,-0.28424564,-0.40612233,-2.6184494,0.13109805,1.3335358,0.49272528,0.04,0.03999978,-4.884714,4.281649589538574,-7.3514047,0.0,-0.0,0.0
2460.850000003723,-0.51526856,-0.28424564,-0.40612233,-2.6184494,0.13109805,1.3335358,0.49272528,0.04,0.03999978,-4.884714,4.281649589538574,-7.3514047,0.0,-0.0,0.0
2460.86666667039,-0.51526856,-0.28424564,-0.40612233,-2.6184494,0.13109805,1.3335358,0.49272528,0.04,0.03999978,-4.884714,4.281649589538574,-7.3514047,0.0,-0.0,0.0
2460.8833333370567,-0.51526856,-0.28424564,-0.40612233,-2.6184494,0.13109805,1.3335358,0.49272528,0.04,0.03999978,-4.884714,4.281649589538574,-7.3514047,0.0,-0.0,0.0
2460.9000000037236,-0.51526856,-0.28424564,-0.40612233,-2.6184494,0.13109805,1.3335358,0.49272528,0.04,0.03999978,-4.884714,4.281649589538574,-7.3514047,0.0,-0.0,0.0
2460.9166666703904,-0.51526856,-0.28424564,-0.40612233,-2.6184494,0.13109805,1.3335358,0.49272528,0.04,0.03999978,-4.884714,4.281649589538574,-7.3514047,0.0,-0.0,0.0
2460.9333333370573,-0.51526856,-0.28424564,-0.40612233,-2.6184494,0.13109805,1.3335358,0.49272528,0.04,0.03999978,-4.884714,4.281649589538574,-7.3514047,0.0,-0.0,0.0
2460.950000003724,-0.51526856,-0.28424564,-0.40612233,-2.6184494,0.13109805,1.3335358,0.49272528,0.04,0.03999978,-4.884714,4.281649589538574,-7.3514047,0.0,-0.0,0.0
2460.966666670391,-0.51526856,-0.28424564,-0.40612233,-2.6184494,0.13109805,1.3335358,0.49272528,0.04,0.03999978,-4.884714,4.281649589538574,-7.3514047,0.0,-0.0,0.0
2460.983333337058,-0.51526856,-0.28424564,-0.40612233,-2.6184494,0.13109805,1.3335358,0.49272528,0.04,0.03999978,-4.884714,4.281649589538574,-7.3514047,0.0,-0.0,0.0
2461.000000003725,-0.51526856,-0.28424564,-0.40612233,-2.6184494,0.13109805,1.3335358,0.49272528,0.04,0.03999978,-4.884714,4.281649589538574,-7.3514047,0.0,-0.0,0.0
2461.0166666703917,-0.51526856,-0.28424564,-0.40612233,-2.6184494,0.13109805,1.3335358,0.49272528,0.04,0.03999978,-4.884714,4.281649589538574,-7.3514047,0.0,-0.0,0.0
2461.0333333370586,-0.51526856,-0.28424564,-0.40612233,-2.6184494,0.13109805,1.3335358,0.49272528,0.04,0.03999978,-4.884714,4.281649589538574,-7.3514047,0.0,-0.0,0.0
2461.0500000037255,-0.51526856,-0.28424564,-0.40612233,-2.6184494,0.13109805,1.3335358,0.49272528,0.04,0.03999978,-4.884714,4.281649589538574,-7.3514047,0.0,-0.0,0.0
2461.0666666703924,-0.51526856,-0.28424564,-0.40612233,-2.6184494,0.13109805,1.3335358,0.49272528,0.04,0.03999978,-4.884714,4.281649589538574,-7.3514047,0.0,-0.0,0.0
2461.0833333370592,-0.51526856,-0.28424564,-0.40612233,-2.6184494,0.13109805,1.3335358,0.49272528,0.04,0.03999978,-4.884714,4.281649589538574,-7.3514047,0.0,-0.0,0.0
2461.100000003726,-0.51526856,-0.28424564,-0.40612233,-2.6184494,0.13109805,1.3335358,0.49272528,0.04,0.03999978,-4.884714,4.281649589538574,-7.3514047,0.0,-0.0,0.0
2461.116666670393,-0.51526856,-0.28424564,-0.40612233,-2.6184494,0.13109805,1.3335358,0.49272528,0.04,0.03999978,-4.884714,4.281649589538574,-7.3514047,0.0,-0.0,0.0
2461.13333333706,-0.51526856,-0.28424564,-0.40612233,-2.6184494,0.13109805,1.3335358,0.49272528,0.04,0.03999978,-4.884714,4.281649589538574,-7.3514047,0.0,-0.0,0.0
2461.1500000037267,-0.51526856,-0.28424564,-0.40612233,-2.6184494,0.13109805,1.3335358,0.49272528,0.04,0.03999978,-4.884714,4.281649589538574,-7.3514047,0.0,-0.0,0.0
2461.1666666703936,-0.51526856,-0.28424564,-0.40612233,-2.6184494,0.13109805,1.3335358,0.49272528,0.04,0.03999978,-4.884714,4.281649589538574,-7.3514047,0.0,-0.0,0.0
2461.1833333370605,-0.51526856,-0.28424564,-0.40612233,-2.6184494,0.13109805,1.3335358,0.49272528,0.04,0.03999978,-4.884714,4.281649589538574,-7.3514047,0.0,-0.0,0.0
2461.2000000037274,-0.51526856,-0.28424564,-0.40612233,-2.6184494,0.13109805,1.3335358,0.49272528,0.04,0.03999978,-4.884714,4.281649589538574,-7.3514047,0.0,-0.0,0.0
2461.2166666703943,-0.51526856,-0.28424564,-0.40612233,-2.6184494,0.13109805,1.3335358,0.49272528,0.04,0.03999978,-4.884714,4.281649589538574,-7.3514047,0.0,-0.0,0.0
2461.233333337061,-0.51526856,-0.28424564,-0.40612233,-2.6184494,0.13109805,1.3335358,0.49272528,0.04,0.03999978,-4.884714,4.281649589538574,-7.3514047,0.0,-0.0,0.0
2461.250000003728,-0.51526856,-0.28424564,-0.40612233,-2.6184494,0.13109805,1.3335358,0.49272528,0.04,0.03999978,-4.884714,4.281649589538574,-7.3514047,0.0,-0.0,0.0
2461.266666670395,-0.51526856,-0.28424564,-0.40612233,-2.6184494,0.13109805,1.3335358,0.49272528,0.04,0.03999978,-4.884714,4.281649589538574,-7.3514047,0.0,-0.0,0.0
2461.283333337062,-0.51526856,-0.28424564,-0.40612233,-2.6184494,0.13109805,1.3335358,0.49272528,0.04,0.03999978,-4.884714,4.281649589538574,-7.3514047,0.0,-0.0,0.0
2461.3000000037287,-0.51526856,-0.28424564,-0.40612233,-2.6184494,0.13109805,1.3335358,0.49272528,0.04,0.03999978,-4.884714,4.281649589538574,-7.3514047,0.0,-0.0,0.0
2461.3166666703955,-0.51526856,-0.28424564,-0.40612233,-2.6184494,0.13109805,1.3335358,0.49272528,0.04,0.03999978,-4.884714,4.281649589538574,-7.3514047,0.0,-0.0,0.0
2461.3333333370624,-0.51526856,-0.28424564,-0.40612233,-2.6184494,0.13109805,1.3335358,0.49272528,0.04,0.03999978,-4.884714,4.281649589538574,-7.3514047,0.0,-0.0,0.0
2461.3500000037293,-0.51526856,-0.28424564,-0.40612233,-2.6184494,0.13109805,1.3335358,0.49272528,0.04,0.03999978,-4.884714,4.281649589538574,-7.3514047,0.0,-0.0,0.0
2461.366666670396,-0.51526856,-0.28424564,-0.40612233,-2.6184494,0.13109805,1.3335358,0.49272528,0.04,0.03999978,-4.884714,4.281649589538574,-7.3514047,0.0,-0.0,0.0
2461.383333337063,-0.51526856,-0.28424564,-0.40612233,-2.6184494,0.13109805,1.3335358,0.49272528,0.04,0.03999978,-4.884714,4.281649589538574,-7.3514047,0.0,-0.0,0.0
2461.40000000373,-0.51526856,-0.28424564,-0.40612233,-2.6184494,0.13109805,1.3335358,0.49272528,0.04,0.03999978,-4.884714,4.281649589538574,-7.3514047,0.0,-0.0,0.0
2461.416666670397,-0.51526856,-0.28424564,-0.40612233,-2.6184494,0.13109805,1.3335358,0.49272528,0.04,0.03999978,-4.884714,4.281649589538574,-7.3514047,0.0,-0.0,0.0
2461.4333333370637,-0.51526856,-0.28424564,-0.40612233,-2.6184494,0.13109805,1.3335358,0.49272528,0.04,0.03999978,-4.884714,4.281649589538574,-7.3514047,0.0,-0.0,0.0
2461.4500000037306,-0.51526856,-0.28424564,-0.40612233,-2.6184494,0.13109805,1.3335358,0.49272528,0.04,0.03999978,-4.884714,4.281649589538574,-7.3514047,0.0,-0.0,0.0
2461.4666666703974,-0.51526856,-0.28424564,-0.40612233,-2.6184494,0.13109805,1.3335358,0.49272528,0.04,0.03999978,-4.884714,4.281649589538574,-7.3514047,0.0,-0.0,0.0
2461.4833333370643,-0.51526856,-0.28424564,-0.40612233,-2.6184494,0.13109805,1.3335358,0.49272528,0.04,0.03999978,-4.884714,4.281649589538574,-7.3514047,0.0,-0.0,0.0
2461.500000003731,-0.51526856,-0.28424564,-0.40612233,-2.6184494,0.13109805,1.3335358,0.49272528,0.04,0.03999978,-4.884714,4.281649589538574,-7.3514047,0.0,-0.0,0.0
2461.516666670398,-0.51526856,-0.28424564,-0.40612233,-2.6184494,0.13109805,1.3335358,0.49272528,0.04,0.03999978,-4.884714,4.281649589538574,-7.3514047,0.0,-0.0,0.0
2461.533333337065,-0.51526856,-0.28424564,-0.40612233,-2.6184494,0.13109805,1.3335358,0.49272528,0.04,0.03999978,-4.884714,4.281649589538574,-7.3514047,0.0,-0.0,0.0
2461.550000003732,-0.51526856,-0.28424564,-0.40612233,-2.6184494,0.13109805,1.3335358,0.49272528,0.04,0.03999978,-4.884714,4.281649589538574,-7.3514047,0.0,-0.0,0.0
2461.5666666703987,-0.51526856,-0.28424564,-0.40612233,-2.6184494,0.13109805,1.3335358,0.49272528,0.04,0.03999978,-4.884714,4.281649589538574,-7.3514047,0.0,-0.0,0.0
2461.5833333370656,-0.51526856,-0.28424564,-0.40612233,-2.6184494,0.13109805,1.3335358,0.49272528,0.04,0.03999978,-4.884714,4.281649589538574,-7.3514047,0.0,-0.0,0.0
2461.6000000037325,-0.51526856,-0.28424564,-0.40612233,-2.6184494,0.13109805,1.3335358,0.49272528,0.04,0.03999978,-4.884714,4.281649589538574,-7.3514047,0.0,-0.0,0.0
2461.6166666703994,-0.51526856,-0.28424564,-0.40612233,-2.6184494,0.13109805,1.3335358,0.49272528,0.04,0.03999978,-4.884714,4.281649589538574,-7.3514047,0.0,-0.0,0.0
2461.6333333370662,-0.51526856,-0.28424564,-0.40612233,-2.6184494,0.13109805,1.3335358,0.49272528,0.04,0.03999978,-4.884714,4.281649589538574,-7.3514047,0.0,-0.0,0.0
2461.650000003733,-0.51526856,-0.28424564,-0.40612233,-2.6184494,0.13109805,1.3335358,0.49272528,0.04,0.03999978,-4.884714,4.281649589538574,-7.3514047,0.0,-0.0,0.0
2461.6666666704,-0.51526856,-0.28424564,-0.40612233,-2.6184494,0.13109805,1.3335358,0.49272528,0.04,0.03999978,-4.884714,4.281649589538574,-7.3514047,0.0,-0.0,0.0
2461.683333337067,-0.51526856,-0.28424564,-0.40612233,-2.6184494,0.13109805,1.3335358,0.49272528,0.04,0.03999978,-4.884714,4.281649589538574,-7.3514047,0.0,-0.0,0.0
2461.7000000037337,-0.51526856,-0.28424564,-0.40612233,-2.6184494,0.13109805,1.3335358,0.49272528,0.04,0.03999978,-4.884714,4.281649589538574,-7.3514047,0.0,-0.0,0.0
2461.7166666704006,-0.51526856,-0.28424564,-0.40612233,-2.6184494,0.13109805,1.3335358,0.49272528,0.04,0.03999978,-4.884714,4.281649589538574,-7.3514047,0.0,-0.0,0.0
2461.7333333370675,-0.51526856,-0.28424564,-0.40612233,-2.6184494,0.13109805,1.3335358,0.49272528,0.04,0.03999978,-4.884714,4.281649589538574,-7.3514047,0.0,-0.0,0.0
2461.7500000037344,-0.51526856,-0.28424564,-0.40612233,-2.6184494,0.13109805,1.3335358,0.49272528,0.04,0.03999978,-4.884714,4.281649589538574,-7.3514047,0.0,-0.0,0.0
2461.7666666704013,-0.51526856,-0.28424564,-0.40612233,-2.6184494,0.13109805,1.3335358,0.49272528,0.04,0.03999978,-4.884714,4.281649589538574,-7.3514047,0.0,-0.0,0.0
2461.783333337068,-0.51526856,-0.28424564,-0.40612233,-2.6184494,0.13109805,1.3335358,0.49272528,0.04,0.03999978,-4.884714,4.281649589538574,-7.3514047,0.0,-0.0,0.0
2461.800000003735,-0.51526856,-0.28424564,-0.40612233,-2.6184494,0.13109805,1.3335358,0.49272528,0.04,0.03999978,-4.884714,4.281649589538574,-7.3514047,0.0,-0.0,0.0
2461.816666670402,-0.51526856,-0.28424564,-0.40612233,-2.6184494,0.13109805,1.3335358,0.49272528,0.04,0.03999978,-4.884714,4.281649589538574,-7.3514047,0.0,-0.0,0.0
2461.833333337069,-0.51526856,-0.28424564,-0.40612233,-2.6184494,0.13109805,1.3335358,0.49272528,0.04,0.03999978,-4.884714,4.281649589538574,-7.3514047,0.0,-0.0,0.0
2461.8500000037357,-0.51526856,-0.28424564,-0.40612233,-2.6184494,0.13109805,1.3335358,0.49272528,0.04,0.03999978,-4.884714,4.281649589538574,-7.3514047,0.0,-0.0,0.0
2461.8666666704025,-0.51526856,-0.28424564,-0.40612233,-2.6184494,0.13109805,1.3335358,0.49272528,0.04,0.03999978,-4.884714,4.281649589538574,-7.3514047,0.0,-0.0,0.0
2461.8833333370694,-0.51526856,-0.28424564,-0.40612233,-2.6184494,0.13109805,1.3335358,0.49272528,0.04,0.03999978,-4.884714,4.281649589538574,-7.3514047,0.0,-0.0,0.0
2461.9000000037363,-0.51526856,-0.28424564,-0.40612233,-2.6184494,0.13109805,1.3335358,0.49272528,0.04,0.03999978,-4.884714,4.281649589538574,-7.3514047,0.0,-0.0,0.0
2461.916666670403,-0.51526856,-0.28424564,-0.40612233,-2.6184494,0.13109805,1.3335358,0.49272528,0.04,0.03999978,-4.884714,4.281649589538574,-7.3514047,0.0,-0.0,0.0
2461.93333333707,-0.51526856,-0.28424564,-0.40612233,-2.6184494,0.13109805,1.3335358,0.49272528,0.04,0.03999978,-4.884714,4.281649589538574,-7.3514047,0.0,-0.0,0.0
2461.950000003737,-0.51526856,-0.28424564,-0.40612233,-2.6184494,0.13109805,1.3335358,0.49272528,0.04,0.03999978,-4.884714,4.281649589538574,-7.3514047,0.0,-0.0,0.0
2461.966666670404,-0.51526856,-0.28424564,-0.40612233,-2.6184494,0.13109805,1.3335358,0.49272528,0.04,0.03999978,-4.884714,4.281649589538574,-7.3514047,0.0,-0.0,0.0
2461.9833333370707,-0.51526856,-0.28424564,-0.40612233,-2.6184494,0.13109805,1.3335358,0.49272528,0.04,0.03999978,-4.884714,4.281649589538574,-7.3514047,0.0,-0.0,0.0
2462.0000000037376,-0.51526856,-0.28424564,-0.40612233,-2.6184494,0.13109805,1.3335358,0.49272528,0.04,0.03999978,-4.884714,4.281649589538574,-7.3514047,0.0,-0.0,0.0
2462.0166666704044,-0.51526856,-0.28424564,-0.40612233,-2.6184494,0.13109805,1.3335358,0.49272528,0.04,0.03999978,-4.884714,4.281649589538574,-7.3514047,0.0,-0.0,0.0
2462.0333333370713,-0.51526856,-0.28424564,-0.40612233,-2.6184494,0.13109805,1.3335358,0.49272528,0.04,0.03999978,-4.884714,4.281649589538574,-7.3514047,0.0,-0.0,0.0
2462.050000003738,-0.51526856,-0.28424564,-0.40612233,-2.6184494,0.13109805,1.3335358,0.49272528,0.04,0.03999978,-4.884714,4.281649589538574,-7.3514047,0.0,-0.0,0.0
2462.066666670405,-0.51526856,-0.28424564,-0.40612233,-2.6184494,0.13109805,1.3335358,0.49272528,0.04,0.03999978,-4.884714,4.281649589538574,-7.3514047,0.0,-0.0,0.0
2462.083333337072,-0.51526856,-0.28424564,-0.40612233,-2.6184494,0.13109805,1.3335358,0.49272528,0.04,0.03999978,-4.884714,4.281649589538574,-7.3514047,0.0,-0.0,0.0
2462.100000003739,-0.51526856,-0.28424564,-0.40612233,-2.6184494,0.13109805,1.3335358,0.49272528,0.04,0.03999978,-4.884714,4.281649589538574,-7.3514047,0.0,-0.0,0.0
2462.1166666704057,-0.51526856,-0.28424564,-0.40612233,-2.6184494,0.13109805,1.3335358,0.49272528,0.04,0.03999978,-4.884714,4.281649589538574,-7.3514047,0.0,-0.0,0.0
2462.1333333370726,-0.51526856,-0.28424564,-0.40612233,-2.6184494,0.13109805,1.3335358,0.49272528,0.04,0.03999978,-4.884714,4.281649589538574,-7.3514047,0.0,-0.0,0.0
2462.1500000037395,-0.51526856,-0.28424564,-0.40612233,-2.6184494,0.13109805,1.3335358,0.49272528,0.04,0.03999978,-4.884714,4.281649589538574,-7.3514047,0.0,-0.0,0.0
