rsonawane2002/My_IMU/logs_2/traj_489/clean_489.csv
time,j1,j2,j3,j4,j5,j6,j7,gripper1,gripper2,imu_ax,imu_ay,imu_az,imu_gx,imu_gy,imu_gz,quat_x,quat_y,quat_z,quat_w
2630.933333339222,0.00016700293,-0.785875,4.0107683e-05,-2.3551247,9.29385e-05,1.570997,0.786,0.04,0.04,0.0,-0.0,0.0,2.875329272945135e-08,-0.0011641195053377316,4.421952117202833e-08,0.9999995971961153,0.00020320632366974898,0.0008736418299892524,3.263050917662294e-05
2630.950000005889,0.00016699874,-0.78576016,4.011568e-05,-2.3552213,9.2976545e-05,1.5709941,0.786,0.04,0.04,-0.29199845999139384,-3.06612909529221e-05,0.02012840981211461,9.75597217171128e-07,-0.0022381869486321573,1.868414963285379e-07,0.9999996850581112,0.00020321033549922327,0.0007665025185278986,3.260562991278407e-05
2630.9666666725557,0.00016694609,-0.7856543,4.0130373e-05,-2.35531,9.302916e-05,1.5709913,0.786,0.04,0.04,0.02332872547758935,3.4580624202909614e-05,-0.0016704244431675619,7.68085812799224e-06,-0.0032293848081851083,9.304540148568952e-07,0.9999997558399685,0.00020323581990932475,0.0006677972517022108,3.258888475124617e-05
2630.9833333392226,0.00016676485,-0.78555703,4.0163493e-05,-2.355391,9.312466e-05,1.5709884,0.786,0.04,0.04,0.02246074710121615,8.816374916565707e-05,-0.0015248661339617442,2.5724153221411517e-05,-0.004145885336672769,2.8294645532896194e-06,0.9999998122207917,0.00020331870759540338,0.0005771982038678747,3.25901501175831e-05
2631.0000000058894,0.00016634002,-0.78546757,4.0231665e-05,-2.3554652,9.331354e-05,1.5709856,0.786,0.04,0.039999995,0.020387201485005946,0.00015800599285927365,-0.0013913007815835599,6.021234259382968e-05,-0.004992178578771878,7.1396800508973855e-06,0.9999998567609939,0.00020351064421140482,0.0004939603130427109,3.262849208316314e-05
2631.0166666725563,0.00016552501,-0.7853855,4.0356084e-05,-2.355532,9.363699e-05,1.5709827,0.7860019,0.04,0.039999995,0.02073531400841322,0.00026417410189144195,-0.0009302944892430887,0.00011607378059351193,-0.005776557365865612,1.2738814927192172e-05,0.9999998910775024,0.0002048311020531803,0.0004181133486603409,3.2717434150623206e-05
2631.033333339223,0.00016414495,-0.78531027,4.0562063e-05,-2.3555954,9.4144496e-05,1.5709798,0.7860038,0.04,0.04,0.013252672575947422,0.00039117156213253784,-0.0024286434897158315,0.0001895658459450936,-0.006499461763387094,2.0073642895856603e-05,0.9999999178278419,0.00020640502914910086,0.00034736256047899626,3.2871336406626416e-05
2631.05000000589,0.00016199963,-0.7852414,4.0878345e-05,-2.3556535,9.491595e-05,1.5709797,0.78600764,0.04,0.04,0.016836567028954974,0.0005183239123087888,0.0007443141091467709,0.00029406861217960495,-0.007185854877097416,3.0476688675519173e-05,0.9999999372837254,0.00020927604051014384,0.0002837940708223346,3.3121135806281616e-05
2631.066666672557,0.00015886594,-0.7851786,4.1336716e-05,-2.355705,9.603193e-05,1.5709798,0.78601146,0.04,0.04,0.018077035003694064,0.0006674459721104037,-0.0002705905611577464,0.00042472039910579394,-0.007814714879275916,4.446422155651502e-05,0.9999999511468473,0.00021259071855689999,0.00022669264726774357,3.349527303011347e-05
2631.083333339224,0.00015450094,-0.7851215,4.197207e-05,-2.3557546,9.757668e-05,1.5709803,0.7860172,0.04,0.04,0.009681151146945233,0.0008325494518493374,-0.0021416384505812402,0.0005949054632486313,-0.008396942436904243,6.203886957649908e-05,0.9999999607214122,0.00021741202960448195,0.00017358465699017007,3.402279032173987e-05
2631.1000000058907,0.00014864362,-0.7850698,4.2821594e-05,-2.3557982,9.964489e-05,1.5709808,0.7860257,0.04,0.04,0.016125941108446895,0.0010060809900352128,-0.0004196967873237867,0.0007997879752028466,-0.008954803370420851,8.414121617530259e-05,0.999999966281129,0.00022430426892390892,0.00012616880572273985,3.4738570985303864e-05
2631.1166666725576,0.0001410175,-0.7850233,4.3924745e-05,-2.3558402,0.000102341,1.5709814,0.78603715,0.04,0.039999995,0.008540991095573602,0.0011877608846729687,-0.0020803220220466656,0.0010390857320384044,-0.009474858128535827,0.00011008384120401149,0.9999999687344371,0.00023345149377938562,8.220990343069859e-05,3.567991905222469e-05
2631.1333333392245,0.00013133246,-0.78498167,4.5323282e-05,-2.3558762,0.000105738,1.570982,0.78605103,0.04,0.04,0.015598052925280825,0.0014041795477608924,-0.0001412417001356303,0.0013159798252869504,-0.009979153636756569,0.0001377041698241178,0.9999999684151045,0.000244745464673581,4.3704706270524303e-05,3.686931141657837e-05
2631.1500000058913,0.000119285796,-0.78494483,4.7060243e-05,-2.355911,0.000109964494,1.5709828,0.7860683,0.04,0.04,0.007372725387400081,0.0015926720651810073,-0.0019965972219537775,0.0016360299954532721,-0.010449519913909598,0.0001720850218779825,0.999999965741464,0.00025879934826548827,8.298794019649017e-06,3.835489586758303e-05
2631.166666672558,0.00010456493,-0.7849125,4.918028e-05,-2.3559418,0.0001151236,1.5709836,0.7860896,0.04,0.04,0.011895157760388742,0.0018082225237956264,-0.000754097642730045,0.001998123859733853,-0.01090960092058654,0.00020999813818498193,0.9999999608305468,0.0002760515942152268,-2.281576837058196e-05,4.017291279701238e-05
2631.183333339225,8.684836e-05,-0.7848846,5.17294e-05,-2.3559694,0.000121327656,1.5709845,0.7861152,0.04,0.04,0.010076752242427212,0.002025628840535138,-0.0010782051833357897,0.002403270337128742,-0.011350681096976786,0.0002524201927936696,0.9999999537896951,0.0002968255634095664,-5.020525273154052e-05,4.23630183174797e-05
2631.200000005892,6.580693e-05,-0.7848611,5.475458e-05,-2.3559961,0.00012869126,1.5709854,0.7861456,0.04,0.04,0.006600038960158372,0.002248773980103805,-0.0020177770698293074,0.002852679475602209,-0.011776329602447821,0.0002994492222121744,0.9999999445157476,0.00032147794740989665,-7.482336567482318e-05,4.496548587139207e-05
2631.216666672559,4.1105443e-05,-0.78484195,5.83037e-05,-2.356019,0.00013732085,1.5709864,0.7861812,0.039999995,0.04,0.011291846955074902,0.0024830098469984492,-0.0007539629690578309,0.0033472226761037524,-0.012199846548523175,0.0003503616686910997,0.9999999329216746,0.00035036793585519453,-9.535883947194114e-05,4.80171594894267e-05
2631.2333333392257,1.2403353e-05,-0.784827,6.242525e-05,-2.356039,0.00014734644,1.5709873,0.78622264,0.03999999,0.03999999,0.009473573151352888,0.002705282241054272,-0.0010792603616804897,0.003888254635762428,-0.012608943199890279,0.0004077499042117221,0.9999999186370954,0.0003839765319899383,-0.00011237796814374896,5.1565662459854895e-05
2631.2500000058926,-2.064363e-05,-0.7848162,6.716847e-05,-2.3560581,0.00015888677,1.5709916,0.7862704,0.03999999,0.03999999,0.007289405189259135,0.002939291544038263,0.0005532607652014576,0.004475712364766714,-0.013009284588363966,0.00046908973103703875,0.9999999012817307,0.00042269708419550927,-0.00012516554576883602,5.565330196695445e-05
2631.2666666725595,-5.838293e-05,-0.78480977,7.258288e-05,-2.3560755,0.00017206381,1.570996,0.786325,0.039999988,0.039999984,0.0076831522849873934,0.003173806759871641,-0.0016249544106283764,0.005109474835106199,-0.013396355043569024,0.00053613280143352,0.9999998800607446,0.00046695390931474236,-0.00013488392204670947,6.032305189455462e-05
2631.2833333392264,-0.00010116412,-0.7848074,7.871851e-05,-2.3560898,0.00018699825,1.5710007,0.7863868,0.039999984,0.03999998,0.009822067445575122,0.0034108650303936753,-0.0007247060048065634,0.005789924358452258,-0.013780713440806969,0.0006071940136216719,0.999999854232364,0.000517082844963935,-0.00014090731009153696,6.561792543691688e-05
2631.3000000058933,-0.00014933819,-0.7848091,8.5625514e-05,-2.3561022,0.00020381388,1.5710053,0.7864563,0.03999998,0.039999973,0.007786900331741009,0.003647210157316429,-0.0014709465825379908,0.0065182281138228115,-0.014159536561635738,0.000683999142399225,0.9999998226416256,0.0005734801101058561,-0.00014392123800216334,7.158182824209634e-05
2631.31666667256,-0.00020325668,-0.78481513,9.335385e-05,-2.3561137,0.0002226318,1.5710101,0.786534,0.039999977,0.03999997,0.006401843492520598,0.0038862692930079993,-0.0019113556511518581,0.007294143428040911,-0.014538860818145012,0.0007648306221666949,0.9999997839212962,0.000636572077736836,-0.00014425361819044445,7.825755194418188e-05
2631.333333339227,-0.00026327107,-0.7848254,0.00010195389,-2.3561242,0.00024357541,1.5710149,0.7866207,0.03999997,0.03999996,0.0062981839353826174,0.004122857158915695,-0.0019665791884948547,0.008117662230023876,-0.014922656574850146,0.000850541147337597,0.9999997364119094,0.0007068742620052192,-0.0001419939652988053,8.568899152188236e-05
2631.350000005894,-0.00032973208,-0.7848399,0.0001114757,-2.356132,0.00026676734,1.5710229,0.7867166,0.039999966,0.039999954,0.010218786665650015,0.004360275349257312,0.0011475487576184662,0.008987923496342278,-0.015314490330776654,0.0009419984796786804,0.9999996786497128,0.0007846933151534535,-0.00013466879212673747,9.392118303450331e-05
2631.3666666725608,-0.00040298924,-0.7848588,0.00012196909,-2.3561375,0.00029232833,1.5710311,0.7868222,0.039999966,0.039999954,0.008936099902645545,0.004596898902507619,-0.001214931135495867,0.009905676750024121,-0.01568947328696887,0.0010374579864191017,0.9999996082059234,0.0008704246240119256,-0.00012385774760895058,0.00010299627174326343
2631.3833333392276,-0.00048339018,-0.7848819,0.0001334838,-2.3561418,0.00032038047,1.5710396,0.7869382,0.03999996,0.03999995,0.006712928072216684,0.004830890776856655,-0.0016497405929349895,0.01087028262514385,-0.01606559493525578,0.0011377381996890061,0.9999995223625155,0.0009645522614255091,-0.00011024643809474955,0.00011295750813331863
2631.4000000058945,-0.0005712805,-0.7849096,0.00014606911,-2.3561456,0.0003510439,1.5710481,0.7870649,0.03999996,0.03999995,0.0059868697693366,0.005064259681047056,-0.0023303951922182264,0.011881347281066046,-0.016449901267926424,0.001242797775688307,0.9999994182289548,0.0010674103794454624,-9.401383367417647e-05,0.0001238476194237156
2631.4166666725614,-0.00066700246,-0.7849418,0.00015977402,-2.3561492,0.00038443843,1.5710567,0.78720295,0.03999996,0.03999995,0.005346283975127264,0.005294567724131996,-0.0024261399377500936,0.01293899339128024,-0.01684334072996384,0.0013525888005759665,0.99999929239449,0.0011794507612658113,-7.54283451814102e-05,0.0001357091948293631
2631.4333333392283,-0.0007708962,-0.78497833,0.00017464707,-2.35615,0.00042068324,1.5710688,0.78735274,0.03999996,0.039999947,0.010765757930131237,0.005525527896852963,0.0013933394204412863,0.014042250315403397,-0.01725120254780778,0.0014679681550960897,0.9999991412883016,0.0013010347181125008,-5.150994271901676e-05,0.00014858683495030137
2631.450000005895,-0.00088329776,-0.7850198,0.00019073627,-2.356149,0.0004598944,1.571081,0.78751487,0.039999966,0.03999995,0.0083797922513007,0.005751095172547667,-0.0018795706760998954,0.015190925989033453,-0.017645453520692172,0.0015871534399315,0.9999989603137777,0.0014326110304479472,-2.4166212568724496e-05,0.00016252074794793968
2631.466666672562,-0.0010045395,-0.78506577,0.00020808907,-2.3561466,0.0005021882,1.5710934,0.78768957,0.039999973,0.039999958,0.007409897969412604,0.005974810415951093,-0.0018075720987997812,0.016384001222071367,-0.01804549343326551,0.0017109353812154804,0.9999987447740579,0.0015744482146223947,6.1853765996471285e-06,0.00017755244036407884
2631.483333339229,-0.00113495,-0.7851168,0.00022675232,-2.3561432,0.0005476794,1.5711058,0.78787756,0.039999977,0.03999996,0.007220600806867594,0.0061951956503390835,-0.0024499258090227016,0.01762207871542345,-0.018455727489204463,0.0018392475220022405,0.9999984890995346,0.0017270513258407358,3.9544521814616195e-05,0.000193722989251995
2631.500000005896,-0.0012748531,-0.78517264,0.00024677246,-2.3561394,0.0005964813,1.5711218,0.78807926,0.039999977,0.039999958,0.0072800610729784054,0.006415907742189095,0.00013362467152777668,0.01890356896595502,-0.01887697886540292,0.001972917412680455,0.9999981872165344,0.0018907748668251826,7.734142435672705e-05,0.00021107428100682128
2631.5166666725627,-0.0014245687,-0.7852335,0.00026819506,-2.3561347,0.000648705,1.571138,0.7882951,0.039999977,0.039999958,0.007230491755327861,0.006628552657117199,-0.0022438212210262876,0.020227952201787816,-0.019295992815593112,0.0021101457322200423,0.9999978325223848,0.0020659705228077835,0.0001182346399831721,0.00022964516394693649
2631.5333333392296,-0.0015844109,-0.7852996,0.00029106514,-2.3561277,0.0007044607,1.5711542,0.7885255,0.03999998,0.03999996,0.009444260950686179,0.006838514348985938,-0.002025325769694497,0.021594692277974774,-0.01972719503049194,0.002251720322887469,0.999997417578978,0.002253017278561852,0.00016281983409908055,0.00024947588939181956
2631.5500000058964,-0.0017546896,-0.7853709,0.000315427,-2.3561199,0.00076385617,1.5711726,0.788771,0.03999998,0.03999996,0.00803293466484778,0.0070489987698647665,-0.0009307908985567437,0.02300327386364182,-0.02016460840899798,0.002397590966164707,0.9999969342087746,0.002452263220710224,0.00021154363159273137,0.0002706056911904988
2631.5666666725633,-0.0019357093,-0.7854473,0.00034132396,-2.35611,0.00082699844,1.5711925,0.78903186,0.039999984,0.03999996,0.009399197323256558,0.00725258377379382,-0.0009179427671979212,0.02445284736120667,-0.020604737210370892,0.0025485552131879873,0.999996373462991,0.0026640532152231063,0.0002645545961241406,0.0002930737078672296
2631.58333333923,-0.002127769,-0.7855292,0.000368799,-2.3560991,0.0008939909,1.5712125,0.78930867,0.039999988,0.039999966,0.008125315808582556,0.007450733690540995,-0.0025112049785613877,0.025942867316367763,-0.02104843649704802,0.0027027969525886255,0.9999957257999941,0.0028887595323719996,0.00032095816259555083,0.00031691633746330105
2631.600000005897,-0.0023311626,-0.7856167,0.00039789404,-2.3560877,0.0009649365,1.571234,0.7896018,0.039999988,0.039999966,0.00745745709265222,0.007648580125945393,-0.0019266681290375232,0.027472511141905267,-0.02150360780984991,0.0028610989964935624,0.9999949806258399,0.0031267228816646655,0.00038111142736760225,0.000342171342283013
2631.616666672564,-0.0025461786,-0.7857098,0.00042865035,-2.356076,0.001039936,1.5712577,0.7899116,0.039999984,0.03999996,0.00731727275711247,0.007842692311142846,-0.0014165636341934018,0.029040943454210145,-0.021968851800466163,0.003023388756979532,0.9999941265050765,0.003378251531767853,0.00044531184846324237,0.0003688757173799575
2631.633333339231,-0.002773099,-0.7858086,0.00046110814,-2.3560622,0.0011190885,1.5712816,0.7902387,0.03999999,0.039999966,0.010010063053056406,0.008027171472420585,-0.0022348261699223215,0.03064753435182282,-0.022439850547474622,0.0031904506127019786,0.9999931508885539,0.003643738923348473,0.0005134991762016067,0.0003970657834151374
2631.6500000058977,-0.0030122,-0.7859131,0.00049530703,-2.3560472,0.0012024894,1.571307,0.79058325,0.039999988,0.03999996,0.008777617492849998,0.00821385654124888,-0.0015682265498195846,0.03229092953104519,-0.0229185090358716,0.003360498989148572,0.9999920405094317,0.003923457994322246,0.0005858813769268237,0.0004267764778022591
2631.6666666725646,-0.003263753,-0.78602356,0.00053128565,-2.3560307,0.0012902344,1.5713345,0.79094565,0.039999995,0.03999997,0.009702015919654805,0.008395711363584938,-0.0011933842370304149,0.033971082835681246,-0.023404424692087006,0.0035343329810635007,0.9999907808450951,0.004217679432113793,0.0006630239976211914,0.0004580438882974324
2631.6833333392315,-0.003528022,-0.7861399,0.0005690819,-2.3560128,0.0013824156,1.5713621,0.79132646,0.039999995,0.039999966,0.008992557331577444,0.008565959598824105,-0.002676112862309843,0.03568740589852998,-0.02389134760563482,0.003712705407297598,0.9999893567272462,0.004526818604009455,0.0007438831416737743,0.0004909006276263659
2631.7000000058983,-0.003805266,-0.7862626,0.000608733,-2.3559937,0.0014791227,1.5713919,0.791726,0.03999999,0.03999996,0.00969266558334958,0.008742161737059677,-0.0015176932864457982,0.03743792097830875,-0.02439117239837421,0.003893833497952434,0.9999877510445306,0.004851140557021683,0.000829560686280115,0.0005253810670153241
2631.716666672565,-0.0040957374,-0.7863914,0.0006502748,-2.3559747,0.0015804445,1.5714234,0.79214454,0.039999995,0.039999966,0.007317217842839341,0.008906944618158495,-0.0023110961040906375,0.03922230618016295,-0.024893917323320823,0.004078477177478383,0.9999859470882942,0.0051909075309014415,0.0009191318994387717,0.0005615171272682123
2631.733333339232,-0.004399684,-0.7865265,0.00069374277,-2.3559542,0.0016864679,1.5714552,0.79258245,0.039999995,0.03999996,0.009529832149213213,0.009066923340399474,-0.002759094166937537,0.04104024082868373,-0.025408033476181414,0.004267387523428199,0.9999839261203552,0.005546407740312894,0.0010127448588730218,0.000599341262405464
2631.750000005899,-0.004717344,-0.7866679,0.00073917105,-2.3559322,0.0017972756,1.5714897,0.79304016,0.04,0.03999997,0.010185268496809563,0.00923191673035278,-0.0010480830399561825,0.042890620682511024,-0.025932165899843693,0.0044588251556875675,0.9999816669205357,0.005917956759141713,0.0011115012342850668,0.0006388862417170828
2631.766666672566,-0.0050489516,-0.7868159,0.00078659336,-2.355909,0.0019129501,1.571525,0.79351795,0.04,0.039999973,0.009606199720679776,0.009377556819915303,-0.00269864107440565,0.04477219573103269,-0.02645823287612358,0.00465352941263286,0.9999791492732264,0.006305807034529345,0.0012145655185992167,0.0006801816219125719
2631.7833333392327,-0.005394738,-0.7869704,0.00083604205,-2.3558848,0.0020335712,1.571562,0.79401606,0.04,0.039999973,0.009778631561085938,0.0095344510167821,-0.0019311881785721852,0.04668446156376285,-0.026992704194756165,0.004852067444548476,0.9999763505925163,0.006710181304208941,0.0013223538599815268,0.0007232584644553007
2631.8000000058996,-0.00575492,-0.78713155,0.00088754896,-2.3558593,0.002159216,1.5716012,0.79453504,0.04,0.039999977,0.010052782956071482,0.009674612536604591,-0.0018663004006214123,0.04862699635606067,-0.027532366091609306,0.005053313062323448,0.999973246155067,0.007131443677881906,0.0014350736147071626,0.0007681463969614057
2631.8166666725665,-0.0061297175,-0.7872994,0.0009411446,-2.3558326,0.002289959,1.5716406,0.79507506,0.04,0.039999977,0.009520932892082001,0.009813274934578863,-0.003119894280323443,0.05059788871415059,-0.028078279058766694,0.00525755067792729,0.9999698125653691,0.0075697807965210495,0.0015518891212077783,0.0008148722775597579
2631.8333333392334,-0.0065193363,-0.78747404,0.0009968592,-2.3558054,0.0024258746,1.5716827,0.7956365,0.04,0.039999966,0.009159032620531526,0.009953268614807179,-0.0018314425803911405,0.05259675878067159,-0.02863399134768115,0.005465208725062333,0.999966022074923,0.008025463998039118,0.001673633502201348,0.0008634663694842718
2631.8500000059003,-0.0069239796,-0.7876558,0.0010547218,-2.355776,0.0025670333,1.5717257,0.79621947,0.04,0.039999958,0.011794787782060112,0.010078198690302749,-0.0025151496277686647,0.05462276196613944,-0.029195193896221754,0.005675756077186763,0.9999618470970304,0.008498670388137477,0.0018004544336753193,0.0009139561046089346
2631.866666672567,-0.007343845,-0.78784436,0.0011147605,-2.3557458,0.0027135026,1.5717709,0.7968244,0.04,0.03999996,0.00988506010926038,0.010211870467716905,-0.002034838809050754,0.05667528635660704,-0.029761339695572157,0.005888988324220493,0.9999572583330573,0.008989667578220333,0.0019322312246756444,0.00096636761266617
2631.883333339234,-0.0077791223,-0.78804,0.0011770022,-2.355714,0.00286535,1.5718176,0.79745156,0.04,0.039999954,0.01070391706350371,0.010330416760298469,-0.002382862942962305,0.05875312321852888,-0.030332304775396286,0.006104332768632979,0.9999522250176197,0.009498687736534265,0.002068992138153065,0.0010207277441870212
2631.900000005901,-0.008229989,-0.78824276,0.0012414734,-2.3556812,0.0030226395,1.5718662,0.7981012,0.04,0.039999954,0.010506817122735157,0.010440706949971668,-0.002393796025201844,0.06085573014315553,-0.030908946054610163,0.006323101985208601,0.999946715128632,0.010025927692441757,0.002210795189338622,0.001077061741649031
2631.9166666725678,-0.008696631,-0.7884528,0.0013081993,-2.355647,0.0031854324,1.5719162,0.7987734,0.04,0.03999995,0.010562742340991527,0.010562184495462382,-0.0026545480411810374,0.06298192095278991,-0.03149021107895441,0.00654399211351768,0.9999406959746377,0.010571529459764134,0.0023575791846306916,0.001135393776095557
2631.9333333392347,-0.009179218,-0.7886702,0.0013772047,-2.3556123,0.003353789,1.5719681,0.79946876,0.03999999,0.039999943,0.009894006394972621,0.010667914995695499,-0.002737704533073426,0.06513164783090113,-0.032077920666008355,0.006767442762641621,0.9999341313285641,0.01113583589025772,0.00250925280847854,0.0011957481166422115
2631.9500000059015,-0.009677914,-0.7888949,0.0014485128,-2.3555753,0.003527768,1.5720216,0.8001871,0.04,0.03999995,0.012290867789332971,0.010772047388538444,-0.002211820987962909,0.06730287413513207,-0.03267303714895185,0.006994005713829259,0.9999269850219441,0.011718857443646782,0.002666470089476406,0.0012581503893070935
2631.9666666725684,-0.010192877,-0.78912705,0.0015221471,-2.3555377,0.003707423,1.5720767,0.8009287,0.04,0.03999995,0.00995037745739058,0.010865396324696765,-0.0030171559556757543,0.06949590057391584,-0.033268196759279896,0.007222027284356294,0.9999192209840797,0.0123207829252778,0.0028285138924475507,0.0013226200738137835
2631.9833333392353,-0.010724261,-0.7893665,0.0015981285,-2.3554986,0.0038928099,1.5721337,0.80169433,0.04,0.039999943,0.01108572781292061,0.01096789511008103,-0.0023518005914713314,0.07171034721138034,-0.03387227808539435,0.007452820553620474,0.9999107950578122,0.012942067326773917,0.0029958288996663673,0.0013891829853999841
2632.000000005902,-0.011272208,-0.7896136,0.0016764788,-2.355458,0.0040839794,1.5721922,0.80248386,0.04,0.03999995,0.011432221889351446,0.011043981898304842,-0.0028753357620869835,0.07394288447136918,-0.03448083710853178,0.007685617916995144,0.9999016679648444,0.013582710127012818,0.0031684430533891242,0.001457859850964425
2632.016666672569,-0.011836865,-0.7898685,0.0017572176,-2.3554163,0.00428098,1.5722529,0.80329746,0.04,0.039999947,0.011284473322570321,0.01114395895521307,-0.002591236976789979,0.07619345624285187,-0.03509270954075372,0.007920698091145153,0.9998917963642541,0.014242866353449181,0.0033465628484484907,0.0015286721702725136
2632.033333339236,-0.012418362,-0.79013085,0.0018403643,-2.3553734,0.0044838567,1.5723152,0.8041352,0.04,0.039999954,0.010868731390489828,0.011218694681473795,-0.0028292761531600874,0.07846231326540254,-0.03570719531954223,0.008157543651763651,0.9998811381645074,0.01492262075752187,0.0035298285470418025,0.0016016376010146022
2632.050000005903,-0.0130168265,-0.7904009,0.0019259371,-2.355329,0.0046926565,1.5723795,0.8049973,0.04,0.039999954,0.01154957711668736,0.01129323448428362,-0.0026710860827172667,0.08074850899063879,-0.036327617423613685,0.008396404151912127,0.9998696461197536,0.01562214620798316,0.0037185656296658516,0.001676778420954621
2632.0666666725697,-0.013632382,-0.7906788,0.0020139534,-2.3552833,0.0049074213,1.5724454,0.8058841,0.04,0.03999995,0.011605138557735373,0.011365695111430554,-0.0029386680918674912,0.08305096015789047,-0.036951239969488,0.008637829911631284,0.9998572720266987,0.016341644549358318,0.0039127120120486785,0.001754113297817716
2632.0833333392366,-0.014265147,-0.7909643,0.0021044293,-2.3552363,0.0051281913,1.5725135,0.80679566,0.04,0.039999954,0.011156444259219356,0.011441035445078872,-0.002608789206459683,0.085368745106703,-0.03757728010057949,0.008880235191560682,0.9998439675537459,0.017081196207542938,0.004112295122963557,0.0018336606351082552
2632.1000000059034,-0.01491523,-0.7912578,0.0021973825,-2.3551877,0.0053550084,1.572583,0.80773216,0.04,0.039999947,0.012133195892194415,0.011489016927756536,-0.003160435124205385,0.08770131600451027,-0.03820858403529919,0.009125257209320744,0.9998296812039221,0.017840963394364855,0.004317371937463853,0.0019154394738598293
2632.1166666725703,-0.015582732,-0.7915591,0.002292826,-2.3551383,0.005587904,1.5726547,0.80869377,0.04,0.03999995,0.010581705222456605,0.011558285118959746,-0.0028781155808621506,0.09004775641571255,-0.03884188983396878,0.009371035178664382,0.9998143616281259,0.01862105082354483,0.004527790850304244,0.001999464524817047
2632.133333339237,-0.01626775,-0.79186857,0.002390774,-2.3550873,0.005826915,1.572728,0.8096807,0.04,0.039999954,0.01237045845039475,0.011600223633753508,-0.0032239293992430973,0.09240669305884097,-0.03947999076843187,0.009618711309537,0.9997979528007521,0.01942161462840694,0.0047438470494984555,0.00208575545586734
2632.150000005904,-0.016970377,-0.79218584,0.0024912406,-2.355035,0.006072074,1.5728036,0.8106929,0.04,0.039999954,0.011395965590588197,0.01165902872842222,-0.002720511988285601,0.09477752188427113,-0.04011957394546378,0.009867949614998803,0.9997804013295734,0.020242663942486937,0.004965478327568824,0.0021743271987902037
2632.166666672571,-0.017690705,-0.79251117,0.0025942377,-2.3549817,0.0063234107,1.5728806,0.8117306,0.04,0.03999995,0.011389299739117398,0.011699206036680683,-0.003503014630368284,0.09716024821218666,-0.040761942316032376,0.010119094437370522,0.9997616506136238,0.02108435465682633,0.005192383675997909,0.0022651937640812514
2632.183333339238,-0.018428812,-0.7928446,0.002699776,-2.3549268,0.0065809544,1.57296,0.81279397,0.04,0.03999994,0.012171579676545363,0.011749567884830267,-0.0027535609824269613,0.09955308535287288,-0.041408192998472704,0.01037168768527333,0.9997416388151183,0.021946777616239754,0.005425185942519892,0.002358374231077326
2632.2000000059047,-0.019184764,-0.7931862,0.0028078675,-2.3548706,0.0068447297,1.573041,0.8138832,0.04,0.039999943,0.011967322135264524,0.01176613422557947,-0.003434870347951424,0.1019558219506716,-0.04205557454958781,0.010625174613703076,0.9997203063578308,0.022830075763686952,0.005663494487679747,0.002453879910938761
2632.2166666725716,-0.019958641,-0.7935358,0.0029185212,-2.3548129,0.007114761,1.5731242,0.8149982,0.04,0.03999994,0.012069325306973688,0.011820125795413208,-0.00286451680895361,0.10436671218676333,-0.04270490948266629,0.010880429181755993,0.9996975913866605,0.023734251177449237,0.005907604376159201,0.0025517263352570364
2632.2333333392385,-0.020750506,-0.79389346,0.0030317465,-2.3547535,0.0073910696,1.5732088,0.8161389,0.04,0.03999994,0.012139552686885047,0.011838264402848006,-0.003375309890985001,0.10678602468305957,-0.043354216450412784,0.011136495167437591,0.9996734351650813,0.024659266041936096,0.006157184855812697,0.0026519234849971722
2632.2500000059053,-0.021560408,-0.79425967,0.003147552,-2.3546932,0.0076736775,1.5732958,0.8173057,0.04,0.03999994,0.011888466082377036,0.011855915682195545,-0.0033513997183431954,0.1092134599845346,-0.04400840084699556,0.011393704712048966,0.9996477671755134,0.025605317920593312,0.006412649483232912,0.002754487575024715
2632.2666666725722,-0.022388408,-0.7946338,0.0032659462,-2.3546314,0.007962603,1.5733846,0.8184985,0.04,0.039999947,0.011785493565663607,0.011883434390296856,-0.0032390035012097584,0.11164736550464015,-0.04466048376903236,0.011652479531811515,0.9996205243742942,0.026572427089943923,0.006673607561320081,0.0028594283219040553
2632.283333339239,-0.023234546,-0.7950161,0.0033869338,-2.3545685,0.008257862,1.5734755,0.81971735,0.04,0.039999958,0.011720345042287583,0.011894922800062546,-0.00333391028943808,0.11408736482915002,-0.0453149669888326,0.011912342094127086,0.9995916392498071,0.02756060707241237,0.006940174923573575,0.0029667577780656713
2632.300000005906,-0.024098866,-0.79540676,0.0035105208,-2.3545043,0.008559468,1.5735682,0.82096237,0.04,0.04,0.01187920868273018,0.011904221457453498,-0.0035577376143125505,0.11653297477377736,-0.04597243976581986,0.012174267588129385,0.9995610416177346,0.028569930309451284,0.007212377749267834,0.0030764865324559437
2632.316666672573,-0.024981407,-0.7958055,0.003636713,-2.3544383,0.008867433,1.573663,0.8222336,0.04,0.04,0.012876977985110116,0.011925537875275005,-0.0030584199566918713,0.11898281657963512,-0.04663087409314461,0.012434631797394293,0.9995286584363196,0.029600437106851174,0.007490510409368887,0.003188626880285572
2632.3333333392397,-0.025882194,-0.7962126,0.0037655144,-2.354371,0.009181771,1.5737598,0.8235312,0.04,0.04,0.011920232647355533,0.011910652999468085,-0.003536116685864954,0.12143645721865129,-0.04728772198589243,0.01269675484096453,0.9994944181287944,0.03065219170584103,0.007774330645013194,0.0033031887674147037
2632.3500000059066,-0.026801253,-0.7966281,0.0038969286,-2.3543026,0.00950249,1.5738585,0.8248552,0.04,0.04,0.0119474824987309,0.011910488563909166,-0.0036929978099564664,0.12389263155098602,-0.047944637595013,0.012960136715022169,0.9994582468689548,0.03172522942353836,0.008063804824035174,0.00342018061204541
2632.3666666725735,-0.027738605,-0.7970518,0.0040309597,-2.354233,0.009829595,1.5739592,0.82620555,0.04,0.04,0.011724754793451808,0.011911757363721256,-0.003500363676711693,0.1263507947330841,-0.04860235509015737,0.013224167847549831,0.999420071536819,0.032819522728648395,0.008358869623383544,0.003539609557910386
2632.3833333392404,-0.028694257,-0.7974838,0.0041676075,-2.354162,0.010163091,1.5740618,0.8275822,0.04,0.04,0.012251080267056125,0.011890534557705557,-0.003714878192861981,0.12881029807787875,-0.04926224525448389,0.013489084760779306,0.9993798166701692,0.03393503653513833,0.008659610629981232,0.003661484862045548
2632.4000000059073,-0.029668229,-0.79792404,0.0043068747,-2.3540895,0.010502982,1.5741663,0.82898533,0.04,0.04,0.012199172282545412,0.011893512505734352,-0.0035053906045856564,0.13127099341997006,-0.04992089594803971,0.013753299951872109,0.9993374001875817,0.03507189110121756,0.008966083028344642,0.0037858151088555046
2632.416666672574,-0.030660514,-0.7983725,0.004448761,-2.354015,0.010849273,1.5742728,0.8304147,0.04,0.04,0.012975398861359011,0.011863938662572474,-0.0034291445906831086,0.13373093127826863,-0.05058016228884645,0.014019166344384933,0.9992927469924568,0.03622992455658722,0.009278462044755015,0.003912609995617851
2632.433333339241,-0.031671114,-0.79882944,0.004593266,-2.3539395,0.0112019535,1.5743814,0.8318703,0.04,0.04,0.012095835126313403,0.011851396341403322,-0.0037322345218360198,0.13619104116582767,-0.05123651178277468,0.014285151225852076,0.9992457780350148,0.03740913211450633,0.009596624389418268,0.0040418701074675985
2632.450000005908,-0.03270002,-0.7992945,0.0047403895,-2.353863,0.011561029,1.5744917,0.83335257,0.04,0.04,0.011177081117441645,0.011813578223166324,-0.003924182787717889,0.13865056182630292,-0.05189103632987278,0.014551889361978886,0.9991964087187091,0.038609709841996596,0.009920088132569444,0.004173602879231281
2632.466666672575,-0.033747233,-0.799768,0.004890132,-2.353785,0.011926497,1.5746042,0.834861,0.04,0.04,0.012465028329522454,0.011793760683482049,-0.003795554284669045,0.14110683944601843,-0.05254892819069801,0.014819254267143697,0.9991445599855466,0.03983140783034166,0.010249386300204385,0.00430781638543161
2632.4833333392417,-0.034812734,-0.8002496,0.0050424873,-2.3537056,0.012298348,1.5747186,0.8363959,0.04,0.04,0.012072400671137018,0.011775343008659303,-0.0036251799294451104,0.14356101144369474,-0.05320369422964599,0.015086133160824364,0.9990901424250084,0.04107438917114574,0.010584334917694801,0.004444515467814465
2632.5000000059085,-0.03589648,-0.8007397,0.0051974547,-2.3536243,0.012676578,1.574835,0.837957,0.04,0.04,0.013307971375686733,0.011702777976476189,-0.003798930740783746,0.14601086527666154,-0.05385799599241261,0.015353217427385709,0.9990330742460005,0.04233844150386451,0.010925317566949649,0.004583706979114969
2632.5166666725754,-0.036998473,-0.8012379,0.00535503,-2.353542,0.013061176,1.5749532,0.8395445,0.04,0.04,0.01115352796201563,0.011696445577989364,-0.003956933505255833,0.14845753582003396,-0.05450723207291288,0.01562133652405352,0.9989732721687132,0.04362365071670033,0.011271614142131018,0.004725389434962103
2632.5333333392423,-0.038118664,-0.8017442,0.005515207,-2.3534584,0.013452129,1.5750734,0.8411582,0.04,0.04,0.012100580451446241,0.011637349093714458,-0.0038682355310903915,0.15089899915989582,-0.0551579161922381,0.015889044103676746,0.9989106469335067,0.044929951871194286,0.011623518036890339,0.004869568377298583
2632.550000005909,-0.039257016,-0.8022589,0.0056779822,-2.353374,0.013849428,1.5751954,0.8427982,0.04,0.04,0.011074110782782753,0.011575902012765996,-0.004310273340446535,0.15333441578859933,-0.055807063716828566,0.016156694973111826,0.9988451140681766,0.0462572899232965,0.011980756427352668,0.005016244263567766
2632.566666672576,-0.040413484,-0.8027817,0.0058433497,-2.3532882,0.014253055,1.5753194,0.8444641,0.04,0.04,0.012035790646924838,0.011532370878153397,-0.003914128899795699,0.15576387604574005,-0.0564568797417213,0.016424887373542314,0.998776586708118,0.04760551145617765,0.012343563437963362,0.005165420053587341
2632.583333339243,-0.04158805,-0.8033128,0.006011303,-2.353201,0.014662995,1.5754455,0.84615606,0.04,0.04,0.012312990401275314,0.011509299589199107,-0.0038870555552295016,0.1581869509493212,-0.057105421293601306,0.016692515156047215,0.9987049707749783,0.04897459767702395,0.012712142808638246,0.005317100425619129
2632.60000000591,-0.04278065,-0.803852,0.006181835,-2.3531117,0.015079235,1.5755736,0.84787405,0.04,0.04,0.012919041506576079,0.011433121205641633,-0.003838955793455945,0.16060308444531818,-0.05774974993385195,0.016960784722626306,0.9986301722389228,0.05036453426378475,0.013086548897429169,0.005471290561341702
2632.6166666725767,-0.04399122,-0.8043993,0.0063549373,-2.3530211,0.015501752,1.5757035,0.8496179,0.04,0.04,0.011972575890495385,0.011364592323772488,-0.004007549470275151,0.16301062363765167,-0.058389310699145505,0.017228491391029693,0.99855210632594,0.05177519348885216,0.013466479115449554,0.005627986447523191
2632.6333333392436,-0.045219712,-0.8049549,0.006530602,-2.3529294,0.015930528,1.5758353,0.8513876,0.04,0.04,0.011826698579864292,0.011299252669622756,-0.00428977413091669,0.16540966819532635,-0.05902536584265814,0.017496055935239153,0.9984706788289999,0.053206541295925835,0.013851928316249582,0.00578718964633425
2632.6500000059104,-0.04646605,-0.8055183,0.0067088213,-2.3528366,0.016365537,1.5759692,0.85318315,0.04,0.04,0.011000361584634355,0.011228803743061622,-0.004093647247782606,0.1677991435226177,-0.05966055341058687,0.017763689443394917,0.9983858004610954,0.054658501276665515,0.014242623223819964,0.005948895658078455
2632.6666666725773,-0.04773016,-0.8060899,0.006889583,-2.3527422,0.016806755,1.5761049,0.8550042,0.04,0.04,0.01240722493485169,0.01114912014072017,-0.004163124350653469,0.17017839695244308,-0.060292822456583114,0.018030467699971842,0.9982973790289602,0.05613087439941069,0.014638916949739395,0.0061131067064686155
2632.683333339244,-0.049011976,-0.8066695,0.0070728776,-2.3526466,0.017254159,1.5762426,0.8568508,0.04,0.04,0.011605879007436926,0.01108227116299182,-0.004190379685042878,0.172547763695112,-0.06092239226127326,0.01829732303935492,0.9982053183271251,0.05762364958620747,0.015040654955592047,0.0062798224748425065
2632.700000005911,-0.050311442,-0.8072572,0.0072586946,-2.3525496,0.017707724,1.5763819,0.85872275,0.04,0.04,0.011958773062414885,0.011010749051702101,-0.004437070416485334,0.1749059152094808,-0.06154833564364289,0.018563888903671735,0.9981095280404324,0.05913666626303299,0.015447802775057097,0.00644904082967645
2632.716666672578,-0.051628456,-0.80785286,0.0074470215,-2.3524508,0.018167416,1.5765233,0.86062,0.04,0.04,0.01235820832348189,0.010928081094010306,-0.004052152954581167,0.17725228777290436,-0.06217034913203402,0.018829609013437484,0.9980099072725507,0.060669861438905834,0.01586059321052831,0.0066207614236632045
2632.733333339245,-0.05296293,-0.80845636,0.0076378444,-2.3523517,0.018633217,1.5766666,0.86254233,0.04,0.04,0.010077913988726372,0.010824648838662215,-0.004555483805579463,0.17958660845365526,-0.062787486138902,0.01909536525968295,0.9979063779613591,0.062223040859073056,0.016278276704845534,0.006794977395973608
2632.7500000059117,-0.054314777,-0.8090678,0.007831153,-2.3522513,0.019105084,1.5768118,0.8644897,0.04,0.04,0.011434622039430131,0.0107481502963927,-0.004383598193236082,0.18190853535260837,-0.06340497940721684,0.01936278570492859,0.9977988350905329,0.06379614445447479,0.01670126483599758,0.006971685420137283
2632.7666666725786,-0.055683922,-0.8096871,0.008026934,-2.3521495,0.019582981,1.5769587,0.8664619,0.04,0.04,0.011696555589679747,0.010672287775102818,-0.004473285381911829,0.1842169195859088,-0.06401697908518658,0.0196259470992747,0.9976871849712089,0.0653890305595242,0.0171295227914252,0.00715087936191895
2632.7833333392455,-0.057070233,-0.8103141,0.008225176,-2.3520458,0.02006688,1.5771074,0.8684589,0.04,0.04,0.012465586349752478,0.010551934061938523,-0.004082019587947627,0.18651142378623947,-0.06462656663077332,0.019889539874031192,0.997571323557579,0.06700161878634886,0.01756334253288223,0.007332563989577502
2632.8000000059124,-0.058473617,-0.81094867,0.008425858,-2.3519404,0.020556755,1.5772581,0.8704805,0.04,0.04,0.011795897255773014,0.010467459005763374,-0.004080350849400283,0.18879133469897308,-0.06522943489073886,0.020153018386325314,0.9974511656365749,0.06863367612991789,0.018002481079413084,0.007516737731020702
2632.8166666725792,-0.059893988,-0.81159085,0.008628966,-2.351834,0.021052558,1.5774106,0.8725266,0.04,0.04,0.010657911435796308,0.010381976880916022,-0.004568840785901251,0.19105655210005373,-0.06582578207470777,0.02041534692737012,0.9973266140114508,0.07028518137293562,0.018446574999851712,0.007703384619943028
2632.833333339246,-0.06133122,-0.8122406,0.008834487,-2.351727,0.021554247,1.577565,0.87459695,0.04,0.04,0.010223501634465393,0.010264193413299372,-0.004582527432717143,0.19330531174966087,-0.06642086173434576,0.02067667639443991,0.9971975803203879,0.07195591200743018,0.01889553006177838,0.007892494791055719
2632.850000005913,-0.0627852,-0.81289786,0.009042403,-2.3516188,0.022061795,1.5777209,0.8766914,0.04,0.04,0.01085305812940085,0.010140851620382696,-0.00466406014389964,0.19553836589859208,-0.0670127312650736,0.020936999164374415,0.9970639696964944,0.07364570596422314,0.019349370636157905,0.00808406964864085
2632.86666667258,-0.06425581,-0.8135628,0.009252698,-2.3515093,0.02257515,1.5778787,0.87880975,0.04,0.04,0.01117160218453428,0.010046840378260397,-0.004556305115399617,0.19775506094266657,-0.06760251667484486,0.021196359129079544,0.9969256823537307,0.07535440141646657,0.019808359626262637,0.008278100001279907
2632.8833333392467,-0.06574293,-0.8142352,0.0094653545,-2.3513982,0.023094276,1.578038,0.88095194,0.04,0.04,0.011564224492000008,0.009923010529479248,-0.004620045533143546,0.19995472791406466,-0.06818638131228962,0.021455285864951452,0.9967826214071764,0.07708189170167368,0.02027237189223352,0.008474583776914879
2632.9000000059136,-0.06724643,-0.81491494,0.009680354,-2.3512855,0.02361912,1.5781995,0.8831181,0.04,0.04,0.011722886929588228,0.009851629664778955,-0.003985433029796148,0.20213642672456464,-0.06876510466143883,0.021713073487317665,0.9966346727707341,0.07882815855327649,0.020741758245505195,0.008673518038040349
2632.9166666725805,-0.06876618,-0.8156022,0.009897678,-2.3511717,0.024149645,1.5783623,0.8853072,0.04,0.04,0.010357747576428267,0.00966551359004586,-0.0051124838218896684,0.20429805925468453,-0.06933438189476218,0.021969555845435786,0.9964817895417027,0.08059262167213334,0.021215772023984957,0.008874878095178182
2632.9333333392474,-0.07030204,-0.81629664,0.010117306,-2.3510573,0.024685804,1.5785273,0.88751954,0.04,0.04,0.009910684202107944,0.009598521083603595,-0.004458005903629214,0.20644346103219624,-0.0699020687091627,0.02222541439772032,0.996323855468624,0.08237535552120302,0.021694554712043124,0.009078663047932858
2632.9500000059143,-0.07185391,-0.81699824,0.01033922,-2.350942,0.025227543,1.5786937,0.88975483,0.04,0.04,0.010004847688716012,0.009480990118699434,-0.004896090247030749,0.20856929422168152,-0.07046487332469308,0.022479687618374537,0.9961607864640005,0.08417614081753902,0.02217783345801698,0.009284854958391967
2632.966666672581,-0.073421635,-0.8177072,0.010563403,-2.3508255,0.02577482,1.5788622,0.8920133,0.04,0.04,0.010407491474628827,0.009341912646416983,-0.004612973656259456,0.21067579339091047,-0.07102493398963818,0.022732331448645487,0.9959924634821503,0.08599499944219542,0.022665987894796787,0.009493458297540006
2632.983333339248,-0.07500503,-0.8184232,0.010789832,-2.3507073,0.026327586,1.5790322,0.8942941,0.04,0.04,0.011620079834351316,0.009182155076300352,-0.004494958245016001,0.2127601994359004,-0.07157874682720407,0.02298406500156266,0.9958188223885612,0.08783137752325293,0.023159134764785875,0.009704461652926233
2633.000000005915,-0.07660398,-0.8191462,0.011018485,-2.3505878,0.026885781,1.5792038,0.8965975,0.04,0.04,0.010299798721913334,0.009082624081173385,-0.0046540546740470035,0.21482592791672317,-0.072123529482047,0.023234656935613378,0.9956397536713943,0.08968538241168514,0.023656908713204562,0.00991785062250598
2633.016666672582,-0.07821834,-0.8198761,0.011249337,-2.3504667,0.027449364,1.5793772,0.898923,0.04,0.04,0.010989727167087793,0.008974047469902796,-0.004445664602648058,0.21686909922971687,-0.07266363303253086,0.023484326186902854,0.9954551784176401,0.09155663162491082,0.024159484862421744,0.010133620191574095
2633.0333333392487,-0.079847954,-0.820613,0.011482373,-2.3503451,0.028018266,1.5795519,0.90127045,0.04,0.04,0.0091118162335313,0.008789859941461114,-0.005257983725015514,0.218891370224419,-0.07319656806617839,0.023732097462746658,0.9952650139268087,0.09344500570449507,0.02466626154616846,0.010351739153029244
2633.0500000059155,-0.081492655,-0.82135683,0.011717563,-2.3502223,0.028592441,1.5797286,0.9036396,0.04,0.04,0.01024996853713489,0.00869266909963029,-0.004537995338105283,0.2208911570155766,-0.07372564997653407,0.02397842330190901,0.9950691633045435,0.0953502567638494,0.02517771017774715,0.010572212903134943
2633.0666666725824,-0.083152264,-0.8221072,0.011954891,-2.3500986,0.029171832,1.5799063,0.9060303,0.04,0.04,0.009216470194228776,0.008486311568623589,-0.005089850216499769,0.2228689772190446,-0.07424837765585653,0.024222539786310414,0.9948675547420772,0.09727218910585816,0.025693140085681885,0.010795012765701427
2633.0833333392493,-0.084826656,-0.8228645,0.01219433,-2.3499744,0.029756382,1.5800861,0.9084423,0.04,0.04,0.009121406701151358,0.008419114941548428,-0.004839016002899932,0.224823958095341,-0.07476815779869031,0.024466140440491845,0.9946600855157551,0.09921064182862059,0.026212962896407562,0.01102013638460842
2633.100000005916,-0.08651563,-0.8236282,0.012435856,-2.3498483,0.030346036,1.5802673,0.9108754,0.04,0.04,0.01085342884366014,0.008241393368996208,-0.004486248584623098,0.22675491598634026,-0.07528170058264684,0.024708261663284613,0.9944466707674114,0.10116533494409054,0.026737352011917914,0.011247578079406089
2633.116666672583,-0.08821904,-0.8243985,0.012679446,-2.3497207,0.030940732,1.5804502,0.9133291,0.04,0.04,0.010310429221593864,0.008125180822297906,-0.004646135876029689,0.22866203221446907,-0.07578656599051725,0.02494900276917541,0.9942272302719547,0.10313600748850305,0.02726627329072831,0.011477320502826105
2633.13333333925,-0.089936696,-0.82517534,0.012925076,-2.3495922,0.031540412,1.5806345,0.9158035,0.04,0.04,0.009271152155987394,0.007931168436203784,-0.004960210891225003,0.23054579329642158,-0.07628300283591563,0.02518739201491373,0.9940016830020275,0.10512251991048772,0.027799303429888015,0.01170934351785472
2633.150000005917,-0.09166841,-0.8259583,0.013172718,-2.349463,0.032145005,1.5808203,0.9182981,0.04,0.04,0.008510093639779726,0.007807108046642419,-0.004778349730694131,0.2324041952344593,-0.07677370627976629,0.02542386745819627,0.9937699590071285,0.10712459200923544,0.028336199726566053,0.01194362369137993
2633.1666666725837,-0.09341404,-0.8267478,0.013422348,-2.3493328,0.032754466,1.5810078,0.9208129,0.04,0.04,0.009352374619542303,0.007658078704762816,-0.004867142355546861,0.23423802770698665,-0.07726082990349287,0.02565860648177777,0.9935319590828926,0.10914206637751113,0.028877313574126328,0.012180163730345308
2633.1833333392506,-0.09517339,-0.82754356,0.013673939,-2.349202,0.03336871,1.5811964,0.9233474,0.04,0.04,0.00852859550541929,0.007480300464808576,-0.005312535072254931,0.23604562825217387,-0.07773916367284517,0.025891371538515298,0.9932876273127033,0.11117462725736783,0.029422134915346457,0.012418923411827211
2633.2000000059174,-0.09694627,-0.82834524,0.013927466,-2.3490705,0.033987675,1.5813868,0.9259013,0.04,0.04,0.00791685860268565,0.007380338483116422,-0.004657105963068453,0.23782746019275103,-0.07821304879367035,0.026121415358918945,0.9930368904128846,0.11322199121322535,0.02997068909271774,0.012659888630180518
2633.2166666725843,-0.098732494,-0.829153,0.014182903,-2.3489373,0.03461132,1.5815786,0.9284743,0.04,0.04,0.010451730788441083,0.007188312696020105,-0.0045501771094969,0.23958393651932564,-0.07868341104301152,0.02635025905300518,0.9927796540510163,0.11528390754734798,0.030523595910682846,0.0129030715583601
2633.233333339251,-0.10053186,-0.8299667,0.014440218,-2.3488028,0.035239547,1.5817714,0.93106633,0.04,0.04,0.00891133751630413,0.00700108781991754,-0.005116275260452774,0.24131395739730557,-0.07914163168758026,0.026577245893739755,0.9925158547911052,0.11736020741454847,0.031080194792563604,0.013148429394890934
2633.250000005918,-0.1023442,-0.83078617,0.014699388,-2.348667,0.035872307,1.5819662,0.9336769,0.04,0.04,0.009450831935442494,0.006943881023729892,-0.004147266030796182,0.243017214750315,-0.07959428765423729,0.02680185061107941,0.992245413152651,0.11945055145711071,0.031641018126672596,0.01339596230304842
2633.266666672585,-0.10416929,-0.8316116,0.014960385,-2.3485305,0.036509525,1.582162,0.936306,0.04,0.04,0.0077134252153499006,0.006652591898434479,-0.005356272574075227,0.24469330830779812,-0.08003660795506104,0.027024606028386133,0.9919682690160535,0.1215548165270042,0.03220522563299858,0.013645632499390638
2633.283333339252,-0.10600693,-0.8324425,0.015223175,-2.3483932,0.037151136,1.5823593,0.9389533,0.04,0.04,0.008210728030677572,0.006554041128864485,-0.004702307169446307,0.24634160056987947,-0.08047313030617967,0.027245219040932734,0.9916843506551847,0.12367270971616375,0.03277302143675709,0.013897431524279693
2633.3000000059187,-0.10785693,-0.83327913,0.015487736,-2.3482552,0.037797075,1.5825579,0.9416183,0.04,0.04,0.007881728441505587,0.006361307177853159,-0.004980111212615768,0.24796124743975173,-0.08090295868897875,0.027463130424550744,0.9913936025327893,0.12580390831016713,0.0333442827706578,0.014151336242747328
2633.3166666725856,-0.10971909,-0.83412135,0.015754038,-2.3481169,0.03844727,1.5827576,0.9443008,0.04,0.04,0.006900866024617258,0.006173562631268947,-0.005311757545012341,0.24955301517132666,-0.08132587717494844,0.02767959553710775,0.9910959765263064,0.12794812202508524,0.03391861876798951,0.01440731357654466
2633.3333333392525,-0.11159321,-0.83496904,0.016022045,-2.3479776,0.039101638,1.5829589,0.9470005,0.04,0.04,0.008224088932262674,0.006086150096720755,-0.004593071781711089,0.2511164287005737,-0.08174646430314733,0.027892559319045697,0.9907913783791215,0.13010516845457912,0.03449661919809245,0.014665365147451275
2633.3500000059194,-0.11347906,-0.8358219,0.016291738,-2.3478374,0.0397601,1.5831614,0.94971716,0.04,0.04,0.007677788699211874,0.005863346253258406,-0.0048621061908615815,0.25265079166273213,-0.08215648164280792,0.02810346986667247,0.9904797679778902,0.13227473586973992,0.03507783365710709,0.014925450176782425
2633.3666666725862,-0.115376465,-0.8366802,0.016563075,-2.3476956,0.040422603,1.5833646,0.9524504,0.04,0.04,0.009019822404976452,0.005691765858566178,-0.004935048180310098,0.254155959717451,-0.08255996557921835,0.028311656918368358,0.9901610782164724,0.13445652429437668,0.035662585597418126,0.015187568876400671
2633.383333339253,-0.11728519,-0.8375434,0.01683603,-2.3475528,0.041089054,1.5835696,0.95519996,0.04,0.04,0.007742069220517678,0.005605388145459023,-0.004301969844555664,0.2556314048624983,-0.08295430381541744,0.02851818774507848,0.9898352483653701,0.13665030165714095,0.03625081102170154,0.015451694106065188
2633.40000000592,-0.11920503,-0.8384117,0.01711057,-2.347409,0.041759375,1.5837759,0.9579655,0.04,0.04,0.007519166701674962,0.0053860860480522965,-0.004759089721306786,0.2570767553917241,-0.08333830800455518,0.02872212574377016,0.9895022384061183,0.1388557624844189,0.03684220866045387,0.015717794857155288
2633.416666672587,-0.12113571,-0.83928484,0.017386673,-2.3472645,0.04243351,1.583983,0.9607467,0.04,0.04,0.006840115734219054,0.005105268405375396,-0.005040755089735782,0.2584923241814527,-0.08371278080323163,0.028923750827286307,0.9891620122848881,0.14107260862494456,0.03743641671014934,0.01598584536920861
2633.4333333392537,-0.12307704,-0.8401629,0.017664298,-2.3471196,0.04311137,1.5841916,0.9635433,0.04,0.04,0.006689164793671765,0.005030155210111742,-0.004640318385740194,0.25987754490808523,-0.08408422544276796,0.029122148872462325,0.9888145076884772,0.14330058414486133,0.038033669738014766,0.016255827717948784
2633.4500000059206,-0.12502885,-0.84104574,0.017943421,-2.3469741,0.043792874,1.5844012,0.9663549,0.04,0.04,0.006442819824048485,0.004855607471673795,-0.004970380843105637,0.26123234620808483,-0.08444449970922413,0.029318385859126276,0.9884596878549072,0.14553940297367432,0.038633696900083225,0.016527707998336912
2633.4666666725875,-0.12699085,-0.8419332,0.018223999,-2.3468285,0.04447795,1.5846118,0.96918124,0.04,0.04,0.005677545717963639,0.004621337366358946,-0.005086074306315247,0.2625555964801634,-0.08479988074702996,0.029511576142414217,0.9880975234564074,0.1477887704035716,0.039236136837691726,0.01680145969755413
2633.4833333392544,-0.12896287,-0.84282506,0.01850601,-2.3466818,0.045166537,1.5848231,0.97202194,0.04,0.04,0.006719670524812926,0.00448193806190933,-0.0047575643272956825,0.2638474488259498,-0.08515194047030139,0.029703194470303167,0.9877279639304036,0.15004838332013687,0.039841254164050675,0.017077072335390558
2633.5000000059213,-0.13094465,-0.8437214,0.01878942,-2.3465343,0.045858525,1.585036,0.97487676,0.04,0.04,0.0070488224049647386,0.004351979496025615,-0.004311649563182307,0.2651082890698119,-0.08549496497612803,0.02988998126398441,0.9873509490875262,0.15231798088811818,0.040449431885807574,0.01735452374003431
2633.516666672588,-0.13293593,-0.844622,0.019074194,-2.3463857,0.046553846,1.5852497,0.9777452,0.04,0.04,0.006538267541777998,0.004058381782147402,-0.0048090594776395434,0.266336944468365,-0.08582646068569626,0.030073106753603397,0.9869664816390882,0.15459714448382358,0.04106016210022849,0.017633778004452712
2633.533333339255,-0.13493656,-0.8455268,0.019360296,-2.3462358,0.047252417,1.585464,0.9806268,0.04,0.04,0.007232851303484722,0.0040002093250834925,-0.00460888460016573,0.2675345764231454,-0.08615138435974307,0.030254756962899046,0.9865745161653655,0.15688560413256306,0.04167362134292859,0.01791481379198993
2633.550000005922,-0.13694625,-0.84643584,0.01964769,-2.3460855,0.04795415,1.5856797,0.98352146,0.04,0.04,0.005448862798962395,0.0037867690746345994,-0.004626552132402928,0.2687005886609404,-0.08646608770751751,0.030433668884772606,0.986175026558114,0.15918310012728462,0.042289537753446196,0.018197599390308104
2633.566666672589,-0.1389647,-0.84734875,0.019936351,-2.3459346,0.048658963,1.5858965,0.986429,0.04,0.04,0.005840837143944455,0.0035461471331377226,-0.004336698194951083,0.2698344074516722,-0.08677142027782225,0.030610017926535667,0.9857679735056296,0.1614893974521303,0.04290790580258694,0.01848211407789986
2633.5833333392557,-0.14099178,-0.8482655,0.020226238,-2.345783,0.049366787,1.586114,0.9893494,0.04,0.04,0.005656359054340143,0.003424315068450978,-0.004701361914172253,0.27093491777643297,-0.08706911960132353,0.030782570126968316,0.9853533002484436,0.1638044395684642,0.04352848167268427,0.018768339042989614
2633.6000000059225,-0.14302719,-0.849186,0.020517318,-2.345631,0.05007753,1.5863324,0.9922815,0.04,0.04,0.005089245359934935,0.0032001430700118183,-0.004587209398732028,0.27199992905146964,-0.08735820168432035,0.030951721020209485,0.9849310731794126,0.16612742065661,0.044151122648068274,0.01905622104583133
2633.6166666725894,-0.14507072,-0.85011035,0.020809555,-2.3454783,0.05079112,1.5865517,0.99522525,0.04,0.04,0.005277769072176142,0.0030228888933878095,-0.004720681799263993,0.2730341321577639,-0.0876405835075066,0.031117362110564893,0.98450123386466,0.16845824503645515,0.04477591206203468,0.019345746230439817
2633.6333333392563,-0.14712209,-0.8510383,0.02110292,-2.3453255,0.051507454,1.5867718,0.9981804,0.04,0.04,0.0045816937963572,0.002828603371392291,-0.004526229927459546,0.274034966630088,-0.0879156463219695,0.031280046958462135,0.9840637731400385,0.17079661527947085,0.04540263872741035,0.019636878546640636
2633.650000005923,-0.14918111,-0.85196954,0.021397376,-2.3451724,0.052226454,1.5869927,1.0011464,0.04,0.04,0.004227905941345256,0.002707634509402368,-0.004555301782582788,0.2750020861289098,-0.08818226119862232,0.0314388718461339,0.983618693632252,0.17314219171204934,0.04603106446938475,0.01992957827314343
2633.66666667259,-0.15124756,-0.85290414,0.02169289,-2.3450189,0.05294803,1.5872145,1.0041231,0.04,0.04,0.004683594007826031,0.0025385200546124143,-0.004408130323763082,0.27593572760986496,-0.08844274165104311,0.03159422643011413,0.9831659721972102,0.17549468651293584,0.046661365342184666,0.020223825148673106
2633.683333339257,-0.15332107,-0.853842,0.021989426,-2.3448644,0.053672098,1.5874369,1.0071106,0.04,0.04,0.005398796415923002,0.0022322749562944666,-0.004307210613174739,0.27683559879010733,-0.08869562996440841,0.031746217613042395,0.9827055527630748,0.17785401254211053,0.04729368099907974,0.020519613272372852
2633.700000005924,-0.15540147,-0.8547828,0.022286942,-2.3447096,0.05439858,1.5876602,1.0101069,0.04,0.04,0.003810284979532952,0.0021480617528213397,-0.004222072844939362,0.2776990446749476,-0.08893742746092942,0.03189483484826007,0.9822375923635044,0.1802190890272412,0.047927551517561916,0.02081686584644567
2633.7166666725907,-0.15748852,-0.85572684,0.02258541,-2.344554,0.05512739,1.5878843,1.013114,0.04,0.04,0.005372266374958912,0.0019610854737367456,-0.004212079132681623,0.27853346759031716,-0.08917356898071072,0.03203999249162923,0.9817618633532701,0.18259070287737772,0.04856345783324833,0.021115621021851383
2633.7333333392576,-0.15958196,-0.85667366,0.02288479,-2.3443975,0.055858426,1.588109,1.0161294,0.04,0.04,0.004410611123528696,0.001760698490492485,-0.004183394690859821,0.2793279975227003,-0.08939646530926916,0.03218168724398424,0.9812785733167277,0.1849675375986319,0.04920097352543443,0.021415783626463666
2633.7500000059244,-0.16168155,-0.85762346,0.023185046,-2.34424,0.056591615,1.5883344,1.0191536,0.04,0.04,0.0054763996169882034,0.0015867284659812353,-0.004084632251233344,0.28009186596306146,-0.08961039574659459,0.032320373577524306,0.9807876316622095,0.18734968556763887,0.04984047515095845,0.021717364777237656
2633.7666666725913,-0.163787,-0.85857576,0.02348615,-2.3440824,0.057326846,1.5885602,1.0221864,0.04,0.04,0.0027401252203240745,0.0013659264110787994,-0.004378021214557215,0.2808214301178181,-0.08981265702381676,0.03245572608086436,0.9802890839287413,0.18973690387838002,0.05048094989212304,0.022020284620882607
2633.783333339258,-0.1658981,-0.8595307,0.02378806,-2.343924,0.058064047,1.5887866,1.0252274,0.04,0.04,0.0042040195536774405,0.0012090276053186577,-0.0040812197877215795,0.28151611550781197,-0.09000894066779183,0.03258709626542334,0.9797829140419225,0.19212886781571425,0.051122931565857906,0.022324546389183592
2633.800000005925,-0.16801454,-0.860488,0.024090728,-2.3437657,0.05880312,1.5890136,1.0282762,0.04,0.04,0.002695555371712288,0.0010226836338902978,-0.004134161049695884,0.28217489195636164,-0.09019559064177025,0.032714628048732236,0.9792691702253746,0.19452521157683753,0.05176594514309783,0.02263009568107736
2633.816666672592,-0.17013606,-0.8614478,0.024394134,-2.3436067,0.05954398,1.5892411,1.0313321,0.04,0.04,0.004065740361181014,0.0007907573556578673,-0.004000599158948681,0.28279901738209845,-0.0903754634670881,0.03283806704013033,0.9787478764947221,0.19692547169606245,0.05241040851656162,0.022936912030235537
2633.833333339259,-0.17226249,-0.86240965,0.024698233,-2.3434477,0.060286526,1.5894693,1.0343951,0.04,0.04,0.002300754298678598,0.0007461762860469512,-0.0039002799885778927,0.2833892576528891,-0.09054326097875756,0.03295838496533082,0.9782190488079866,0.1993295140614283,0.0530557253041182,0.023244943228300206
2633.8500000059257,-0.17439349,-0.8633736,0.025002994,-2.3432882,0.06103069,1.5896981,1.0374651,0.04,0.04,0.003192492234171951,0.0004593646430614551,-0.0037891197961270606,0.2839438046021501,-0.09070490662519701,0.033074366678152306,0.9776826691881494,0.20173714797468614,0.053702157185339584,0.023554188795548124
2633.8666666725926,-0.17652886,-0.8643394,0.025308367,-2.3431284,0.06177636,1.5899273,1.0405412,0.04,0.04,0.002532449039671647,0.00035518547518154087,-0.0038272195528765707,0.28446167427612656,-0.09085649372726792,0.0331863298528098,0.9771388306192496,0.20414780250180534,0.05434944460941946,0.023864582551915398
2633.8833333392595,-0.17866826,-0.86530715,0.025614325,-2.3429685,0.06252346,1.5901569,1.0436231,0.04,0.04,0.0024801295013698876,5.093519235138677e-05,-0.003893416995803811,0.284944336694854,-0.09099903444598467,0.03329446151949249,0.9765875619641929,0.2065611825238208,0.054997525626117774,0.02417610113725676
2633.9000000059264,-0.18081151,-0.8662765,0.025920829,-2.3428085,0.06327189,1.590387,1.0467105,0.04,0.04,0.0017856961173734476,-2.263069281971397e-06,-0.0036808707348123804,0.2853919558319187,-0.09113462039415177,0.033398116996724736,0.9760288986895636,0.20897701769802773,0.05564619380970675,0.024488693541475953
2633.9166666725932,-0.18295828,-0.8672476,0.02622784,-2.3426485,0.06402154,1.5906173,1.0498031,0.04,0.04,0.0018131452339531506,-0.00030486866049173056,-0.003910269341722561,0.28580437169517214,-0.09126125537083872,0.03349688030198919,0.9754628752824975,0.21139501595924304,0.05629538803856849,0.02480232768876594
2633.93333333926,-0.18510836,-0.86822015,0.026535323,-2.3424885,0.06477237,1.590848,1.0529006,0.04,0.04,0.0016004492447319052,-0.00040503646953904404,-0.0036604614847224326,0.28618071370201575,-0.09138134770916882,0.033591842083193976,0.9748895386931999,0.21381484016579866,0.056945050928915435,0.025116979239889918
2633.950000005927,-0.18726148,-0.86919415,0.026843239,-2.3423285,0.06552426,1.5910791,1.0560023,0.04,0.04,0.0015790893916456383,-0.0005953005881492723,-0.003524702915336242,0.28652162088764765,-0.09149354800949255,0.03368288585579181,0.9743089454582692,0.2162361034828405,0.05759521434924612,0.025432609669836886
2633.966666672594,-0.18941739,-0.8701694,0.027151551,-2.3421683,0.06627711,1.5913105,1.059108,0.04,0.04,0.0017032823043994227,-0.0007410954039194229,-0.0034974930084086253,0.2868264235858122,-0.09159672983677425,0.0337687041122219,0.9737211305617375,0.21865856434655762,0.05824578937105812,0.02574917777359882
2633.9833333392608,-0.19157577,-0.8711458,0.02746022,-2.342008,0.067030855,1.5915424,1.0622175,0.04,0.04,0.0012509447326003453,-0.0009825818493347516,-0.0032924798461619886,0.2870958528391361,-0.09169025944231227,0.033851303098377146,0.9731261520072478,0.2210818810455586,0.05889671604125263,0.026066664391139558
2634.0000000059276,-0.19373639,-0.8721232,0.027769206,-2.341848,0.06778538,1.5917743,1.0653298,0.04,0.04,0.0009735764322726936,-0.0011290748887338165,-0.0034524554393344786,0.2873286142220769,-0.09177636684573857,0.03392856527118592,0.9725241233700531,0.22350553669787046,0.05954776555147698,0.02638499851304076
2634.0166666725945,-0.195899,-0.8731014,0.028078476,-2.341687,0.06854058,1.5920064,1.068445,0.04,0.04,0.0020282303928365053,-0.0012780800066031217,-0.0031266474687319246,0.2875279510783424,-0.09185378043181606,0.03400140212219006,0.9719150486888548,0.22592937379164932,0.060199202303772036,0.026704161328220608
2634.0333333392614,-0.19806331,-0.87408054,0.028387995,-2.3415258,0.06929637,1.5922388,1.0715628,0.04,0.04,0.0013013515964832578,-0.001477029598903612,-0.003195740174088968,0.2876909785800422,-0.09192056313120259,0.03407092433630331,0.9712989794666723,0.2283531480151448,0.060850877748104645,0.027024118040363476
2634.0500000059283,-0.20022905,-0.8750602,0.028697722,-2.3413644,0.07005267,1.5924712,1.0746825,0.04,0.04,0.0008672572200385531,-0.0016719829876610248,-0.003011590753176918,0.2878177780267949,-0.09197658273676207,0.03413590352464846,0.9706760347213063,0.230776366283313,0.06150255991210883,0.027344825964871016
2634.066666672595,-0.20239593,-0.87604046,0.029007617,-2.341203,0.07080939,1.5927036,1.0778041,0.04,0.04,0.0004111824540853348,-0.0019008966972738905,-0.00325934605225342,0.28790921643350065,-0.09202429383940465,0.03419595635040813,0.9700462511587025,0.2331988955969969,0.0621540383863587,0.027666246900429438
2634.083333339262,-0.20456374,-0.87702113,0.029317638,-2.3410413,0.07156639,1.592936,1.0809269,0.04,0.04,0.0007292075023812572,-0.0019410642681433332,-0.0029039865852009683,0.2879645455408796,-0.09206381095564928,0.034251822360123085,0.9694097239582997,0.23562027425510007,0.06280547037715285,0.02798832516870618
2634.100000005929,-0.20673218,-0.878002,0.029627752,-2.3408794,0.07232363,1.5931686,1.0840507,0.04,0.04,0.00047196947350336416,-0.0021502246887517007,-0.002710991329224477,0.28798474240247046,-0.09209259454996063,0.034302415254683825,0.9687665193706868,0.2380402448373059,0.06345673627769924,0.028311047405258864
2634.116666672596,-0.20890097,-0.87898314,0.02993792,-2.3407176,0.07308102,1.5934014,1.087175,0.04,0.04,0.0002262901426242081,-0.0023679923271485714,-0.002746475748027777,0.28796841562255077,-0.09211270804341902,0.03434963727453552,0.9681167139880206,0.24045849003552683,0.0641078382954043,0.028634380313916127
2634.1333333392627,-0.21106991,-0.87996423,0.030248104,-2.3405557,0.073838435,1.5936344,1.0902997,0.04,0.04,-0.00020893253607212614,-0.0024181239184267733,-0.002571775199400328,0.2879172092882851,-0.09212155452592106,0.034391852836047766,0.9674603764300631,0.242874803341228,0.06475854171413553,0.028958266778572293
2634.1500000059295,-0.21323872,-0.8809454,0.030558264,-2.340394,0.074595794,1.5938673,1.0934241,0.04,0.04,-0.0005530910377693488,-0.0026507278486687103,-0.002768104128114679,0.28782839174272695,-0.09212241671624645,0.034429349199548154,0.9667976392641512,0.24528870363552654,0.0654087358644681,0.02928265450192583
2634.1666666725964,-0.21540706,-0.88192624,0.030868366,-2.3402324,0.075353004,1.5941001,1.0965475,0.04,0.04,-0.0005697312453811776,-0.0028650929527612723,-0.002506986768180397,0.28770464594559575,-0.09211374640476885,0.03446233534258686,0.966128632717696,0.24769973978280252,0.06605830767426724,0.02960749806685633
2634.1833333392633,-0.21757478,-0.8829068,0.031178372,-2.3400707,0.07610998,1.5943328,1.09967,0.04,0.04,-0.0005735410646412475,-0.0029403451013987336,-0.0024926605040054284,0.2875469390775057,-0.09209713730808608,0.03449058648467146,0.9654533727520865,0.25010788859655864,0.06670725483792546,0.0299327789451647
2634.20000000593,-0.21974154,-0.88388705,0.03148824,-2.339909,0.07686662,1.5945654,1.1027913,0.04,0.04,-0.0005783447037277512,-0.003164899713578584,-0.0024600477519065578,0.28735300606996705,-0.09207093519646652,0.0345132528406394,0.9647719714143297,0.2525127618117658,0.06735558241465678,0.030258450275662086
2634.216666672597,-0.22190702,-0.8848667,0.03179795,-2.3397477,0.07762284,1.594798,1.1059105,0.04,0.04,-0.001268728004655273,-0.0033765412078334833,-0.0021869628038517774,0.28712302824758273,-0.0920353616732516,0.03453193907406366,0.9640845875696025,0.25491386493338913,0.06800309053314978,0.03058445934476473
2634.233333339264,-0.22407103,-0.8858457,0.03210743,-2.3395863,0.07837851,1.5950303,1.109028,0.04,0.04,-0.0010158239229784982,-0.003437568622630116,-0.002240266798270163,0.28685896919549947,-0.09199034577513836,0.03454647330958285,0.9633912341498124,0.25731122396792533,0.06864974642661963,0.030910779656786867
2634.250000005931,-0.22623324,-0.88682383,0.03241666,-2.339425,0.07913359,1.5952623,1.1121428,0.04,0.04,-0.0017409211796159951,-0.0036855846398037295,-0.002165755048899598,0.28655842971936757,-0.09193518676507458,0.03455570967537453,0.9626920964319421,0.2597042959265083,0.06929526306566773,0.03123736002687694
2634.2666666725977,-0.22839347,-0.8878011,0.032725606,-2.339264,0.079887964,1.5954942,1.1152546,0.04,0.04,-0.0011644304856339716,-0.003763459228281474,-0.0019660996041226397,0.28622315727163694,-0.0918732410127151,0.034559306562925454,0.9619872536074142,0.2620928002920644,0.06993991338919449,0.031564163968661386
2634.2833333392646,-0.2305514,-0.88877726,0.033034217,-2.339103,0.08064154,1.5957255,1.1183634,0.04,0.04,-0.0020520438024806964,-0.0039465072493721776,-0.002022545172142287,0.2858525530045515,-0.09180214977323506,0.03455821157618237,0.9612768100083734,0.26447656565792454,0.07058325296897118,0.03189114545188328
2634.3000000059315,-0.23270683,-0.8897523,0.03334247,-2.3389423,0.08139424,1.5959567,1.1214684,0.04,0.04,-0.001893054496759916,-0.004090286260369225,-0.001866302267927722,0.28544608689478057,-0.09172173905001099,0.03455224129676372,0.9605608923109815,0.2668551895211787,0.07122543870237094,0.032218269196240046
2634.3166666725983,-0.23485944,-0.8907261,0.03365032,-2.3387818,0.08214596,1.5961876,1.1245695,0.04,0.04,-0.0021494761750506797,-0.0042304135083742755,-0.0016635961546329625,0.28500481574350184,-0.09163268843887376,0.034540931332963785,0.9598396071225855,0.2692284283471129,0.0718663550815146,0.032545490867424656
2634.333333339265,-0.23700893,-0.8916986,0.033957727,-2.338622,0.08289658,1.596418,1.1276661,0.04,0.04,-0.0030295989449147243,-0.004463215880304294,-0.001935776802852729,0.28452813195590443,-0.09153411367907371,0.03452384084369814,0.9591131261532799,0.2715958764501828,0.07250568553950894,0.03287273490577849
2634.350000005932,-0.23915508,-0.89266944,0.034264658,-2.3384624,0.083646044,1.5966482,1.1307578,0.04,0.04,-0.0021157643093516754,-0.004496429216535591,-0.0012832980080590417,0.2840171545250141,-0.09142921065938972,0.03450212148011353,0.9583815454136733,0.27395724612961764,0.0731437017268463,0.033199993995022714
2634.366666672599,-0.24129768,-0.8936387,0.034571078,-2.3383026,0.08439423,1.596878,1.1338441,0.04,0.04,-0.002106933154744084,-0.004636902864424419,-0.0013762238073145028,0.28347210385634847,-0.09131332763351221,0.034475896949556245,0.9576449995342993,0.27631220773808246,0.07378038313502873,0.03352720964093126
2634.383333339266,-0.24343644,-0.8946063,0.034876954,-2.338143,0.08514107,1.5971078,1.1369256,0.04,0.04,-0.0024271849010659707,-0.004781451277588444,-0.0012281623266385822,0.28289249324684657,-0.09118798683565973,0.03444463466609776,0.956903493651841,0.2786608783254809,0.07441572108544536,0.03385438203697961
2634.4000000059327,-0.24557099,-0.895572,0.035182226,-2.3379836,0.085886486,1.5973371,1.1400002,0.04,0.04,-0.0024240791921759097,-0.005045233403006,-0.0010695194298193655,0.28227604416746077,-0.09105037836018197,0.034408048403633526,0.956157395856522,0.281002174841821,0.07504959649317396,0.03418142988894486
2634.4166666725996,-0.24770118,-0.89653575,0.03548688,-2.337824,0.08663036,1.5975658,1.1430688,0.04,0.04,-0.002645354980668202,-0.005126316678649712,-0.0012450501297944783,0.2816290620291946,-0.09090205068790413,0.034368048290283726,0.9554066869804667,0.2833363811874811,0.07568179333716167,0.03450831386582263
2634.4333333392665,-0.24982677,-0.8974975,0.03579088,-2.3376648,0.08737261,1.5977939,1.1461309,0.04,0.04,-0.003028450904452029,-0.00523084294776488,-0.0010550413954479865,0.2809474929413326,-0.09074530051615523,0.03432268803651679,0.9546514951169959,0.285663228987864,0.07631228830983328,0.03483499860813338
2634.4500000059334,-0.25194746,-0.8984568,0.03609416,-2.3375058,0.08811311,1.5980214,1.1491859,0.04,0.04,-0.0035100701433421477,-0.005344375459356843,-0.0009244139533848283,0.2802302622001776,-0.09057743449757581,0.034272557730293786,0.9538920290439825,0.2879822664886744,0.07694079829637854,0.035161408844300746
2634.4666666726002,-0.2540629,-0.8994139,0.036396716,-2.337347,0.08885182,1.5982482,1.1522332,0.04,0.04,-0.003336134620957054,-0.005679881269265996,-0.0008543552283635236,0.27947962655655834,-0.09040271683209086,0.03421696526810869,0.9531284515803163,0.29029309572415807,0.07756744756832559,0.03548752514234241
2634.483333339267,-0.256173,-0.90036863,0.036698498,-2.3371885,0.08958866,1.5984746,1.1552726,0.04,0.04,-0.0033482014648811287,-0.005563115579149125,-0.0007258078022598369,0.27869644407155103,-0.09021733822528223,0.03415652735764334,0.9523608665234635,0.29259554764129153,0.07819227631945495,0.03581331231752466
2634.500000005934,-0.25827748,-0.9013208,0.03699946,-2.3370306,0.09032349,1.5987005,1.1583037,0.04,0.04,-0.0044427206933317365,-0.005730536195244773,-0.0006051349959124153,0.27788096459882644,-0.09002100363033327,0.034091443966656275,0.9515894341302736,0.29488938503186024,0.07881493427890099,0.03613869922630852
2634.516666672601,-0.26037592,-0.9022703,0.037299577,-2.336873,0.09105625,1.5989261,1.1613266,0.04,0.04,-0.0036783777759730185,-0.005964143729011995,-0.000275209853306535,0.2770315396684367,-0.08981729083280522,0.0340216397004402,0.950814245989926,0.29717443644644853,0.0794356567796403,0.03646368573431975
2634.5333333392678,-0.2624682,-0.90321696,0.03759881,-2.3367164,0.091786854,1.5991505,1.1643414,0.04,0.04,-0.005438310658600898,-0.00609842707213204,-0.000735273451324403,0.27614876357485274,-0.08960051855331438,0.033945743761768774,0.9500354188989619,0.2994507389771489,0.08005364480705547,0.036788200779860836
2634.5500000059346,-0.26455408,-0.90416056,0.03789712,-2.3365602,0.092515215,1.5993743,1.1673458,0.04,0.04,-0.004632762769007925,-0.0060916264254612384,-0.00023349232127767294,0.2752292129430808,-0.0893804132781215,0.033864085110924404,0.9492533736649433,0.3017170694084471,0.08066926979827996,0.0371121479237468
2634.5666666726015,-0.2666333,-0.9051013,0.038194485,-2.3364046,0.09324122,1.5995973,1.1703413,0.04,0.04,-0.0044485979012520716,-0.00631464287959016,-0.0003063876704345603,0.2742822281786506,-0.08915251231288852,0.0337775311204777,0.9484679598743236,0.3039740917043195,0.08128259172336673,0.03743555725650166
2634.5833333392684,-0.2687056,-0.9060389,0.038490854,-2.3362498,0.09396483,1.5998195,1.1733261,0.04,0.04,-0.005653398436988866,-0.006417661380969664,-0.00021607334141915402,0.2732995626987861,-0.08891364925652201,0.033685771119704756,0.9476795734538997,0.30622089809337427,0.08189320014701217,0.03775832886666821
2634.6000000059353,-0.2707707,-0.9069732,0.0387862,-2.336096,0.09468592,1.6000413,1.1763018,0.04,0.04,-0.005625846746859509,-0.006499367881060425,0.00015970176201474118,0.2722869631740664,-0.08866887183461049,0.03358756923955682,0.9468880926135912,0.308458052593858,0.08250118859999837,0.038080490230396384
2634.616666672602,-0.27282834,-0.90790397,0.039080482,-2.335943,0.0954044,1.6002623,1.1792661,0.04,0.04,-0.00556063648047278,-0.006616231618522539,0.0002695747433278939,0.27123680280787554,-0.08841643243992808,0.033484448370959694,0.9460939774731292,0.31068439136541093,0.08310648352423858,0.03840191593154763
2634.633333339269,-0.2748783,-0.90883136,0.039373655,-2.3357906,0.09612019,1.6004822,1.1822189,0.04,0.04,-0.005592093977080381,-0.0068173299498097695,-3.00137474873452e-06,0.27015924409082737,-0.08815481662557846,0.033374572085556053,0.945297343779767,0.31289982820139656,0.08370896906842083,0.03872257548195156
2634.650000005936,-0.27692035,-0.90975535,0.039665703,-2.3356388,0.09683324,1.6007013,1.1851603,0.04,0.04,-0.005068571929367494,-0.006911246530172388,0.0002533864058573698,0.26905093436157007,-0.08788649236551987,0.03326062474993301,0.9444982765245277,0.3151042742512599,0.08430888402571332,0.03904246489557735
2634.666666672603,-0.27895424,-0.9106755,0.03995659,-2.3354871,0.09754341,1.6009196,1.1880903,0.04,0.04,-0.005086928751829589,-0.006955626620100408,0.0006463993672323198,0.2679120249782824,-0.0876087492285424,0.033142662239106474,0.943696874842897,0.3172976903830451,0.08490613991131132,0.03936154842858409
2634.6833333392697,-0.28097975,-0.91159195,0.040246285,-2.335336,0.09825067,1.601137,1.1910086,0.04,0.04,-0.005444270904497728,-0.007096446524013089,0.0006119375913993252,0.26673960748928344,-0.08732099120224991,0.03301959397539885,0.9428933226971855,0.31947978597516297,0.08550065899710521,0.039679789281019076
2634.7000000059365,-0.28299668,-0.9125045,0.040534735,-2.335185,0.09895489,1.6013534,1.1939136,0.04,0.04,-0.005253300865515342,-0.00715057173372724,0.0006179581846232907,0.2655358489758737,-0.08702152357095383,0.03288901019208005,0.9420879591151243,0.32164981979723944,0.08609241509822207,0.03999708460948877
2634.7166666726034,-0.28500473,-0.91341305,0.04082191,-2.3350344,0.099656016,1.601569,1.1968061,0.04,0.04,-0.0052190372379801175,-0.007268754191372406,0.0010031595322423925,0.26430367079298345,-0.08671417876349058,0.032757135301452384,0.9412807796869633,0.32380801999025094,0.08668151294608945,0.040313462953120306
2634.7333333392703,-0.2870036,-0.9143174,0.041107778,-2.3348844,0.10035395,1.6017835,1.1996862,0.04,0.04,-0.006459911287093334,-0.007497434519171398,0.0007962757667234754,0.2630403170651159,-0.08639318795214619,0.03261988011397337,0.9404719309895896,0.3259543604173081,0.08726739007038162,0.04062886382807334
2634.750000005937,-0.28899312,-0.91521764,0.04139233,-2.3347354,0.10104862,1.601997,1.202552,0.04,0.04,-0.006777499065968584,-0.007545287039967263,0.0009604975395038906,0.26174400078532356,-0.08606551610747114,0.03247631604481321,0.9396618281195619,0.3280878956454328,0.08785008932974807,0.04094317172264377
2634.766666672604,-0.2909731,-0.9161135,0.041675508,-2.3345869,0.10173996,1.6022093,1.205404,0.04,0.04,-0.006224523282005734,-0.007596882249547021,0.0010609937792338542,0.2604215076263819,-0.08573159127218682,0.03232783376028202,0.938850481389037,0.33020884731312816,0.08842963142198093,0.0412564060272015
2634.783333339271,-0.29294327,-0.917005,0.04195729,-2.3344398,0.102427855,1.6024209,1.2082423,0.04,0.04,-0.007699236156621936,-0.007634519373964088,0.0012575090243105436,0.2590693320535448,-0.08538724249659849,0.0321745223696698,0.9380380414549175,0.3323171110252725,0.08900578672454283,0.04156850289322501
2634.800000005938,-0.29490343,-0.9178921,0.04223763,-2.3342936,0.10311223,1.6026316,1.2110661,0.04,0.04,-0.007023414278961582,-0.0077476212642174636,0.00127916368537484,0.25768677354767816,-0.08503462550325795,0.03201395809620083,0.9372247182683391,0.3344123282594993,0.089578659768367,0.04187942082929031
2634.8166666726047,-0.2968533,-0.9187743,0.0425165,-2.3341491,0.10379302,1.6028405,1.2138752,0.04,0.04,-0.009105334300540946,-0.00794772526291343,0.001109626271866837,0.2562748671194053,-0.08467482923362128,0.03185082357274728,0.9364107741319585,0.33649428971367484,0.09014731420319073,0.04218906044968047
2634.8333333392716,-0.2987927,-0.91965187,0.042793874,-2.3340049,0.10447016,1.6030487,1.2166692,0.04,0.04,-0.005951749915311666,-0.007959868917895019,0.001778982708144916,0.2548338629914314,-0.0843132607463973,0.031678862334892297,0.9355962708294279,0.3385627463946763,0.0907129989295262,0.04249748920787817
2634.8500000059385,-0.30072135,-0.9205247,0.04306971,-2.333861,0.10514358,1.6032559,1.2194473,0.04,0.04,-0.006486697888830051,-0.008068972209795966,0.0017542588625740763,0.253364778753052,-0.08393933354180638,0.031501668000876726,0.9347815081147471,0.3406171952900174,0.09127553123865847,0.04280462307487014
2634.8666666726053,-0.30263904,-0.9213924,0.043343995,-2.3337176,0.10581314,1.6034617,1.2222097,0.04,0.04,-0.006725162258280903,-0.008152885195505943,0.001966527257435402,0.25186955484245194,-0.08355456442034565,0.031322616959512134,0.9339665818028374,0.34265773089853196,0.09183461280745268,0.04311040966516073
2634.883333339272,-0.3045456,-0.9222551,0.043616675,-2.3335743,0.106478795,1.6036662,1.2249562,0.04,0.04,-0.0065252006446137045,-0.008248140107039448,0.0017530607743454496,0.25034643795186795,-0.08316153224919692,0.031138684662854924,0.9331516574557878,0.3446841548740939,0.09239031491997786,0.043414827826853
2634.900000005939,-0.3064408,-0.92311245,0.043887723,-2.3334322,0.1071405,1.6038696,1.2276862,0.04,0.04,-0.00848255385053065,-0.008238124474616026,0.0021979246390912976,0.24879588515199497,-0.08275700664378634,0.03095007787141292,0.9323369783701017,0.3466962198079079,0.09294214785957548,0.04371781199767788
2634.916666672606,-0.30832458,-0.9239648,0.04415713,-2.333291,0.10779814,1.6040717,1.2303998,0.04,0.04,-0.007744330503278718,-0.008256372746459628,0.001920906019048374,0.24721813436056833,-0.08234709038111235,0.03075690503671108,0.9315226033741831,0.34869398006005503,0.09349035526759511,0.04401932694625063
2634.933333339273,-0.3101965,-0.92481184,0.044424843,-2.333151,0.10845164,1.6042725,1.2330962,0.04,0.04,-0.008580795725565693,-0.008546187276783912,0.002042160964732531,0.24561157776513806,-0.08192753513481767,0.0305584433932842,0.9307088928489955,0.35067685397815734,0.09403457307241501,0.04431929515309974
2634.9500000059397,-0.31205627,-0.92565346,0.04469084,-2.3330123,0.10910098,1.6044722,1.2357754,0.04,0.04,-0.008538412127734318,-0.008630445537302633,0.002434832883513316,0.243979962372522,-0.08150365253676001,0.030356419590975313,0.9298959696385966,0.35264476224003816,0.09457492057987166,0.044617728672271394
2634.9666666726066,-0.313904,-0.92648953,0.044955093,-2.3328753,0.10974605,1.6046705,1.2384369,0.04,0.04,-0.009615046106103975,-0.008431945918860317,0.0022944463716978447,0.24232317949638815,-0.08106937396705555,0.030145779278592515,0.9290839880036383,0.35459769562102794,0.09511100220118626,0.044914527224474504
2634.9833333392735,-0.31573927,-0.92732,0.045217577,-2.3327389,0.110386774,1.6048675,1.2410806,0.04,0.04,-0.008040338420256532,-0.008717296505195149,0.0025019941926274214,0.2406397056817053,-0.08063291551710558,0.029933366287464187,0.9282731421474495,0.3565353187491265,0.09564320980056912,0.04520969443829306
2635.0000000059404,-0.31756192,-0.9281448,0.045478255,-2.3326027,0.11102308,1.6050632,1.2437063,0.04,0.04,-0.0071456891755694585,-0.008736378503951259,0.0028209064164563813,0.2389309129654048,-0.08018751249839803,0.02971430600553889,0.9274635538917188,0.35845750487909406,0.09617187527805095,0.04550322849974659
2635.0166666726072,-0.31937167,-0.9289636,0.045737103,-2.3324673,0.11165493,1.6052574,1.2463136,0.04,0.04,-0.008520591851279846,-0.00889369662937789,0.0028560807918687203,0.23719702390392433,-0.07972925580827225,0.029489444696448014,0.9266554969718762,0.3603639898080001,0.09669642102527386,0.045795053688881676
2635.033333339274,-0.32116845,-0.9297766,0.045994084,-2.3323326,0.11228221,1.6054503,1.248902,0.04,0.04,-0.008162095306030182,-0.008803856855682524,0.002848884800066287,0.23543868767982978,-0.07926575410397836,0.029261642574219975,0.9258491156373857,0.36225462236208106,0.0972171012087182,0.04608512648730285
2635.050000005941,-0.32295203,-0.9305838,0.04624919,-2.3321986,0.112904884,1.6056417,1.2514713,0.04,0.04,-0.008275575004068614,-0.008980018778656507,0.0028900591773739492,0.23365690900465197,-0.0787912063091644,0.029030610342311455,0.9250445993803112,0.36412922526736274,0.09773383537249573,0.046373417890979166
2635.066666672608,-0.3247222,-0.93138474,0.046502374,-2.332066,0.11352289,1.6058315,1.2540213,0.04,0.04,-0.010018188929628025,-0.009002922789669299,0.0029498452924325846,0.23185109935502418,-0.07830829348143167,0.028795218249572575,0.924242171199116,0.3659876962878285,0.09824598454279852,0.04665985066723333
2635.0833333392748,-0.32647884,-0.9321795,0.04675362,-2.3319352,0.11413615,1.6060201,1.256552,0.04,0.04,-0.010218596819910886,-0.008899401741910284,0.003259370128794181,0.23002188338113433,-0.07782191253563452,0.028553762767906665,0.9234419286395091,0.3678300406374819,0.09875367381827377,0.04694440906610727
2635.1000000059416,-0.3282217,-0.9329682,0.047002897,-2.331806,0.11474458,1.6062071,1.2590628,0.04,0.04,-0.0102587478596039,-0.009107518248463453,0.003006484815504251,0.22816854203966697,-0.07732917615324755,0.028307299143430713,0.922644133186387,0.36965591999149194,0.09925680487803185,0.047227015546067855
2635.1166666726085,-0.32995057,-0.9337507,0.04725017,-2.3316772,0.11534815,1.6063929,1.2615532,0.04,0.04,-0.008152000084171718,-0.009196638025371628,0.003487462660856089,0.22629292422118824,-0.07683258079802281,0.02805589001411983,0.92184896116585,0.37146499558290613,0.09975603885376774,0.04750771059775749
2635.1333333392754,-0.33166534,-0.9345266,0.047495447,-2.331549,0.11594678,1.6065768,1.2640237,0.04,0.04,-0.008743205808148247,-0.009205551542945667,0.0034908841331615648,0.22439639836440722,-0.07632475310120002,0.027801287497578243,0.9210564799052899,0.3732575014394876,0.10025095989039634,0.04778643619983964
2635.1500000059423,-0.3333659,-0.9352961,0.047738668,-2.3314214,0.116540425,1.6067592,1.2664733,0.04,0.04,-0.008922619944895516,-0.009164044838172458,0.0035532097432344756,0.22247562976106083,-0.07580894641621255,0.027542408514337403,0.9202669682052901,0.37503301107331766,0.10074165502776378,0.048063154055800056
2635.166666672609,-0.3350518,-0.93605906,0.047979802,-2.3312948,0.11712901,1.6069403,1.2689018,0.04,0.04,-0.009354001308325977,-0.009364020441274268,0.003851327323256548,0.22053490415087978,-0.07528480805253165,0.027280488647243546,0.9194806426505678,0.3767912939178458,0.10122807166436654,0.04833783327506492
2635.183333339276,-0.33672312,-0.9368155,0.04821886,-2.3311696,0.11771248,1.6071196,1.2713096,0.04,0.04,-0.010359673396731495,-0.009368016631453036,0.00346616427919777,0.21857443597486187,-0.0747518065104022,0.027014390499197787,0.9186975703903154,0.378532594531431,0.10170976999249011,0.04861040757193474
2635.200000005943,-0.3383797,-0.937565,0.048455797,-2.331046,0.11829074,1.6072974,1.2736961,0.04,0.04,-0.011041720441173908,-0.009123618333278793,0.003994427486775365,0.21659238974987266,-0.074213160003604,0.026742183361300572,0.9179179818182017,0.38025667482151504,0.10218662511891205,0.04888080968326201
2635.21666667261,-0.34002125,-0.93830794,0.048690587,-2.3309243,0.11886379,1.6074735,1.2760608,0.04,0.04,-0.010893106980436329,-0.009552806225754384,0.0036522084510659525,0.21458873256206223,-0.07367215925189613,0.0264661212417484,0.9171421098885644,0.3819632590219574,0.10265861508520752,0.049149036361507276
2635.2333333392767,-0.34164765,-0.93904406,0.048923217,-2.3308032,0.11943156,1.607648,1.2784036,0.04,0.04,-0.009272668278414997,-0.009451556815673334,0.004096971372957725,0.2125664058457425,-0.07312617407123555,0.026185223974862632,0.9163700747907059,0.38365220067203565,0.10312625457730934,0.04941508438155523
2635.2500000059435,-0.34325874,-0.93977314,0.049153663,-2.3306825,0.11999398,1.6078209,1.2807245,0.04,0.04,-0.009147050981450633,-0.00948091536284168,0.004280807522261121,0.2105256919995167,-0.0725720680613906,0.025901453333972722,0.9156020136414217,0.38532346746800616,0.10358949019517302,0.04967892465935973
2635.2666666726104,-0.34485435,-0.9404952,0.049381897,-2.330563,0.12055099,1.6079922,1.2830235,0.04,0.04,-0.010353758507752886,-0.009470845534070849,0.004307026259242619,0.20846562043028405,-0.07200847781673547,0.025614673375541124,0.9148380651333529,0.3869770869152394,0.1040480331310479,0.049940520494070904
2635.2833333392773,-0.34643444,-0.94121027,0.04960789,-2.330444,0.12110256,1.6081619,1.2852997,0.04,0.04,-0.009017097736485624,-0.009461625900814008,0.004385605283929728,0.2063860503642491,-0.07144016843375477,0.02532322706466067,0.9140784684253909,0.3886126601990439,0.10450229435534704,0.050199844308349374
2635.300000005944,-0.3479988,-0.9419183,0.049831644,-2.3303275,0.12164861,1.6083297,1.2875532,0.04,0.04,-0.012685438825776885,-0.009607319937174341,0.003952118639749536,0.20428893560501205,-0.07085996037655753,0.02503010298394224,0.9133234324810121,0.3902303109315366,0.10495106979993585,0.05045676425641595
2635.316666672611,-0.34954727,-0.94261897,0.050053116,-2.3302124,0.12218913,1.608496,1.2897834,0.04,0.04,-0.011072159309399865,-0.009449317472812191,0.004763488343573208,0.20217466433643913,-0.07028066662310964,0.024731309174335345,0.9125731648337571,0.39182966019495813,0.10539496978528014,0.05071130604474676
2635.333333339278,-0.35107973,-0.94331235,0.050272297,-2.3300986,0.122724056,1.6086602,1.2919908,0.04,0.04,-0.011226276971232352,-0.009641726127396222,0.004352940789220661,0.20004495217719073,-0.06969629804603643,0.02442801188915813,0.9118276970210728,0.39341097441882505,0.10583375058924163,0.05096345149508076
2635.350000005945,-0.35259596,-0.9439986,0.050489176,-2.3299854,0.123253316,1.6088232,1.2941751,0.04,0.04,-0.009071774738611538,-0.009668333130172235,0.0048884041400798495,0.19789736572009606,-0.06910901860202966,0.024120824631778046,0.9110871370593882,0.3949740245639565,0.10626830623646309,0.05121323749102252
2635.3666666726117,-0.35409588,-0.94467735,0.05070372,-2.329873,0.12377689,1.6089841,1.2963357,0.04,0.04,-0.010552371831540341,-0.009698456926054977,0.0046419108932660436,0.19573298417470597,-0.06850955033509334,0.023812286957370546,0.910351822059131,0.39651850336380223,0.10669792781942775,0.051460555406941125
2635.3833333392786,-0.3555793,-0.9453485,0.050915908,-2.3297615,0.124294735,1.6091434,1.2984729,0.04,0.04,-0.010138020519878665,-0.009686601307418163,0.005087300383155302,0.19355413861435944,-0.06790532677101634,0.02350006574007954,0.9096217694321236,0.3980445789672892,0.10712281264830043,0.051705442075698764
2635.4000000059455,-0.35704622,-0.94601214,0.051125735,-2.3296514,0.12480677,1.6093009,1.300586,0.04,0.04,-0.011340060904707627,-0.009577989529321873,0.00484477477735723,0.1913597778719576,-0.06729328241470103,0.02318460430867592,0.9088972353195852,0.39955203031650693,0.10754263871199102,0.05194777721167535
2635.4166666726123,-0.3584965,-0.94666815,0.051333174,-2.3295436,0.12531298,1.6094565,1.3026752,0.04,0.04,-0.013147415849612543,-0.009606298825154402,0.004882915028114887,0.18915172489679935,-0.066677139642067,0.02286585237529042,0.9081783352067054,0.4010410031354517,0.10795687341779346,0.052187534403746814
2635.433333339279,-0.35992995,-0.94731647,0.051538214,-2.3294373,0.1258133,1.6096103,1.30474,0.04,0.04,-0.011568821106289207,-0.009690448121710271,0.005016545488611968,0.18692802777586126,-0.06606168934294535,0.02254200748170021,0.9074653109367903,0.4025111042521331,0.10836592433982074,0.05242467779680821
2635.450000005946,-0.36134645,-0.9479573,0.051740836,-2.3293316,0.12630777,1.6097624,1.3067806,0.04,0.04,-0.009991600832304215,-0.009820332691859446,0.005179364628982164,0.18469215148896717,-0.06544278010702725,0.022214582830910268,0.9067581399807076,0.4039624810731158,0.10877033911398988,0.05265930870233289
2635.466666672613,-0.36274597,-0.94859064,0.051941022,-2.3292267,0.12679628,1.6099126,1.3087965,0.04,0.04,-0.010041807649008305,-0.009783484070829962,0.0049963061124369545,0.18244269709254973,-0.06481498113926502,0.021885498930923408,0.9060570494082539,0.405394904679075,0.10917005665048603,0.05289133396674956
2635.48333333928,-0.36412838,-0.9492161,0.052138768,-2.3291228,0.1272788,1.610061,1.3107879,0.04,0.04,-0.010829924825728199,-0.00968772003050733,0.005407228565301736,0.18018091126348762,-0.06417995405991914,0.02155403556560897,0.9053621480081743,0.40680845623783063,0.1095648130764226,0.05312073628016062
2635.5000000059467,-0.3654935,-0.9498339,0.052334026,-2.3290205,0.12775533,1.6102074,1.3127544,0.04,0.04,-0.012020993684469516,-0.009822377670945515,0.005092365267067578,0.17790658928542646,-0.06353894809264647,0.02122051134341596,0.9046736592250271,0.4082029933830283,0.10995423979931716,0.05334746149245768
2635.5166666726136,-0.36684138,-0.950444,0.052526817,-2.3289204,0.12822576,1.6103522,1.3146963,0.04,0.04,-0.012761192591437265,-0.009588727100004468,0.0053166648821489915,0.17562162277357315,-0.06289547794483556,0.02088322936492607,0.9039915941441936,0.4095787669270755,0.11033825208193976,0.05357146186766196
2635.5333333392805,-0.36817175,-0.9510462,0.052717116,-2.3288214,0.1286901,1.6104949,1.3166127,0.04,0.04,-0.01128922768547369,-0.00985903076003436,0.005325860250415815,0.17332319947562144,-0.06224980257804531,0.020542598786144083,0.9033162725296535,0.4109352376808046,0.11071713973131198,0.05379272427634085
2635.5500000059474,-0.36948454,-0.9516406,0.05290492,-2.3287234,0.12914832,1.6106358,1.3185039,0.04,0.04,-0.010806893017667463,-0.009825144978178879,0.0055875661283844025,0.17101705192694128,-0.06159827832770913,0.020198065668794687,0.9026477313074723,0.4122725084274778,0.11109110728147747,0.05401127515032133
2635.5666666726142,-0.37077975,-0.9522268,0.0530902,-2.3286262,0.12960045,1.6107746,1.3203698,0.04,0.04,-0.010790990153441982,-0.009739381392370738,0.005716700477598202,0.16870148105441302,-0.06094304392424696,0.019853580032736275,0.9019860475133841,0.4135906861848282,0.11146000950102707,0.05422712120680138
2635.583333339281,-0.37205732,-0.9528053,0.053272948,-2.3285303,0.13004637,1.610912,1.3222101,0.04,0.04,-0.011407356663672985,-0.009635530405835424,0.005624666426018443,0.16637534135203674,-0.06028158223461207,0.01950683668028442,0.9013314187061403,0.4148895542884011,0.11182396362518977,0.05444017408771387
2635.600000005948,-0.37331715,-0.95337564,0.053453155,-2.3284361,0.13048606,1.6110471,1.3240248,0.04,0.04,-0.012475884971507867,-0.009689210962510186,0.005550907039419961,0.1640411660723556,-0.05961604699082922,0.019159622475619798,0.900683958112228,0.41616926414648425,0.11218237977041644,0.05465038744702631
2635.616666672615,-0.37455916,-0.95393777,0.05363082,-2.328344,0.13091949,1.6111807,1.325814,0.04,0.04,-0.013211932571977059,-0.009541458034217909,0.005922811760838975,0.16169912163729877,-0.05894640464075635,0.018805396709081226,0.9000437600390119,0.41742985708508756,0.11253520533988572,0.054857743189735055
2635.6333333392818,-0.37578323,-0.954492,0.05380592,-2.3282533,0.1313467,1.6113118,1.3275775,0.04,0.04,-0.011544685594300219,-0.009920426470449994,0.005422841006441637,0.15934756901871575,-0.05827913942423639,0.018451616023144435,0.8994109765520202,0.41867115302252966,0.11288271204116834,0.055062275713571675
2635.6500000059486,-0.37698936,-0.9550379,0.053978458,-2.328163,0.13176772,1.6114416,1.329315,0.04,0.04,-0.010114584996356868,-0.009557737167109615,0.0064481424783657815,0.15699253704771704,-0.05759962916147296,0.0180812400352307,0.8987856633303567,0.4198930528904006,0.11322561645698474,0.055264050739388386
2635.6666666726155,-0.37817746,-0.9555758,0.054148413,-2.328074,0.13218231,1.611569,1.3310264,0.04,0.04,-0.012028378795392314,-0.009733825451713196,0.005464046228675912,0.15462742494129175,-0.05692359787975054,0.017726723578376583,0.8981680051933597,0.4210956311707788,0.11356308350189841,0.05546286975450588
2635.6833333392824,-0.37934744,-0.9561053,0.05431578,-2.327986,0.13259065,1.611695,1.3327119,0.04,0.04,-0.011188982239529466,-0.009531848398955378,0.006530677427640796,0.15225779893139219,-0.05624229873537369,0.017366445343253795,0.8975580427891613,0.42227887353798615,0.11389557722760008,0.055658874188860376
2635.7000000059493,-0.3804993,-0.9566267,0.05448057,-2.3278997,0.1329927,1.6118186,1.3343714,0.04,0.04,-0.012551664937410223,-0.009840296706975504,0.005521247419659758,0.14988257520063689,-0.05555632531251512,0.017005598997167116,0.8969559316629856,0.4234428551804932,0.11422243123417215,0.055851958373294694
2635.716666672616,-0.38163292,-0.95713985,0.05464275,-2.3278158,0.13338839,1.6119404,1.3360047,0.04,0.04,-0.013657146654377783,-0.009510715911195677,0.006155907241955916,0.14750271233735235,-0.054870412502156615,0.01664056889127207,0.8963618013274481,0.4245875280897577,0.11454360046659218,0.056042088681554844
2635.733333339283,-0.38274834,-0.95764476,0.054802325,-2.3277326,0.13377771,1.6120598,1.3376118,0.04,0.04,-0.010969287679785111,-0.009716813041182881,0.005868755333104936,0.14511857880970214,-0.05418545974957873,0.016272965931943655,0.8957757073405787,0.4257128404974965,0.11485959024681189,0.05622929932316016
2635.75000000595,-0.38384572,-0.9581415,0.054959293,-2.3276505,0.13416065,1.6121777,1.3391924,0.04,0.04,-0.011348316133208414,-0.009280615418660876,0.006259366146799117,0.14273055557103398,-0.0534991386828662,0.015906302205067654,0.8951976988948638,0.4268188321230822,0.11517062561350906,0.05641357491084937
2635.766666672617,-0.38492465,-0.95862997,0.055113643,-2.3275695,0.1345372,1.612293,1.3407465,0.04,0.04,-0.01155842016897779,-0.009871579633324856,0.00583835746328365,0.14033945200073838,-0.052806380511351336,0.015538707758496938,0.8946280017877747,0.42790536086224834,0.11547623108333802,0.056594881547275384
2635.7833333392837,-0.3859852,-0.9591102,0.05526536,-2.3274903,0.1349074,1.612407,1.3422747,0.04,0.04,-0.012548535654577364,-0.009420952355931878,0.006499135031545755,0.13794783570694502,-0.05211357361608357,0.015170480526856309,0.8940665181633934,0.42897276474494256,0.11577660577848922,0.05677328386379334
2635.8000000059506,-0.38702747,-0.9595821,0.055414464,-2.3274128,0.13527115,1.6125185,1.343776,0.04,0.04,-0.01276826699250222,-0.00947694693985146,0.005958687993823375,0.13555347115786598,-0.05141854328972186,0.014798571073692906,0.8935135418944926,0.4300207599686415,0.11607131652857346,0.056948625325588836
2635.8166666726174,-0.3880514,-0.9600456,0.05556095,-2.3273365,0.1356285,1.6126287,1.3452505,0.04,0.04,-0.011507711990121905,-0.009318148387393865,0.006671537933300442,0.13315894588439708,-0.05072426613225291,0.01442653460362368,0.8929690862062629,0.43104931344627784,0.11636103929758718,0.05712100306393278
2635.8333333392843,-0.38905698,-0.9605007,0.055704806,-2.3272614,0.13597944,1.6127363,1.3466988,0.04,0.04,-0.011963402379144839,-0.009501070387091248,0.005989078014523308,0.13076663973963984,-0.050024953643462385,0.014051171328176272,0.892433149956633,0.4320587546426583,0.11664526606492547,0.057290377025812377
2635.850000005951,-0.3900441,-0.9609476,0.05584604,-2.3271875,0.13632396,1.6128424,1.3481207,0.04,0.04,-0.01143440586015565,-0.009402717415574191,0.006572336078769503,0.1283719833162996,-0.0493316693405695,0.01368094806337716,0.8919057953394017,0.4330489926738147,0.11692450109150923,0.057456794451877284
2635.866666672618,-0.391013,-0.96138626,0.05598465,-2.3271148,0.13666211,1.6129462,1.3495163,0.04,0.04,-0.01171054586142084,-0.009383536131762904,0.005957759103658589,0.12597916621518787,-0.04863168468386044,0.013307840779222042,0.8913870789171715,0.4340201840202583,0.11719840209870243,0.057620221693814436
2635.883333339285,-0.39196342,-0.96181655,0.056120627,-2.3270438,0.13699386,1.6130484,1.3508855,0.04,0.04,-0.012331765252548976,-0.009233156429522271,0.006731554027994413,0.12358555835792226,-0.04793621810194472,0.012939592372202158,0.8908770866237917,0.43497229101997176,0.11746708667160091,0.057780672568159414
2635.900000005952,-0.39289546,-0.9622386,0.056253985,-2.3269746,0.1373192,1.6131482,1.3522284,0.04,0.04,-0.013093819975873444,-0.009447295357062346,0.005945199371604204,0.12119471315820612,-0.047237286299705805,0.012567499397425953,0.890375935106244,0.4359054024206061,0.11773000477302216,0.05793807297757711
2635.9166666726187,-0.3938092,-0.96265215,0.05638472,-2.3269067,0.13763817,1.6132466,1.3535447,0.04,0.04,-0.011593727565584189,-0.008992480193781294,0.0068741531964677804,0.11880586144376407,-0.046543711192729334,0.012195262984746498,0.8898836364385001,0.4368194493453091,0.1179879038880533,0.05809248495937947
2635.9333333392856,-0.39470464,-0.9630575,0.056512844,-2.3268397,0.13795069,1.6133425,1.3548348,0.04,0.04,-0.011272090043767946,-0.00930633485524135,0.006068851789109431,0.11642171749546272,-0.04584680190692155,0.011823074633225364,0.8894002136189074,0.4377145998772589,0.11824060579107382,0.05824386844203175
2635.9500000059525,-0.3955819,-0.9634545,0.05663834,-2.3267736,0.13825685,1.6134368,1.3560984,0.04,0.04,-0.011151903817196995,-0.00893134659904482,0.006678189090125741,0.11404036852617087,-0.04515177051473322,0.011452677454378571,0.8889257128198631,0.43859084482690047,0.1184883559486841,0.05839227197414044
2635.9666666726193,-0.3964407,-0.9638434,0.056761224,-2.3267097,0.13855667,1.613529,1.3573358,0.04,0.04,-0.01313902198800676,-0.009368575742885188,0.0061098820131277876,0.11166382493092902,-0.04445467178940063,0.011081868250408723,0.8884602574896364,0.4394482702329412,0.11873049910187089,0.058537656544704164
2635.983333339286,-0.39728135,-0.96422404,0.056881502,-2.3266468,0.13885014,1.6136193,1.3585469,0.04,0.04,-0.011082576179166637,-0.008960021606063684,0.0065620837889524,0.10929398175010548,-0.04375971442861666,0.010710980091022344,0.8880038188586513,0.440286902754984,0.11896769730348301,0.05868004731747986
2636.000000005953,-0.39810386,-0.9645963,0.05699918,-2.3265858,0.13913725,1.6137075,1.3597318,0.04,0.04,-0.013070294110217873,-0.008882248261599113,0.006366999899509729,0.10692994547227883,-0.043064383569663064,0.010340927853777451,0.887556448924931,0.44110698225532,0.11919924554482991,0.058819384890649716
2636.01666667262,-0.3989082,-0.96496063,0.057114262,-2.3265257,0.139418,1.613794,1.3608904,0.04,0.04,-0.01065181501762602,-0.00903964667305357,0.0062813548796336605,0.10457233199367284,-0.04237424871520783,0.009968549990218855,0.8871181876985413,0.44190831409294495,0.11942606469017276,0.058955729684276766
2636.033333339287,-0.39969435,-0.96531653,0.057226755,-2.3264668,0.1396925,1.6138783,1.362023,0.04,0.04,-0.011844063946409022,-0.008976191684090251,0.006547983069560281,0.1022232191140125,-0.04168363955617463,0.009602405375123572,0.8866890676757745,0.44269113220293915,0.11964755479474358,0.05908909683506988
2636.0500000059537,-0.4004625,-0.9656644,0.05733667,-2.326409,0.13996068,1.6139609,1.3631295,0.04,0.04,-0.011188911644799404,-0.008753057336441383,0.00647625300207455,0.09988215764988267,-0.04099623266377299,0.009235507511846194,0.8862690788971087,0.4434554701192956,0.11986417369186673,0.059219470424100085
2636.0666666726206,-0.40121284,-0.9660042,0.05744403,-2.326353,0.1402226,1.6140411,1.3642102,0.04,0.04,-0.012383979221697317,-0.008768352227994658,0.0060106085135069875,0.09755131627160804,-0.040308124323643564,0.00887108792550936,0.8858582196467236,0.44420162685657405,0.12007533081317226,0.059346813835430674
2636.0833333392875,-0.40194502,-0.96633565,0.05754883,-2.326299,0.14047828,1.6141199,1.3652653,0.04,0.04,-0.012634062644867328,-0.008729149931335778,0.006880000343034709,0.09522942570324971,-0.03962403779906551,0.008504595202381327,0.8854565680641819,0.4449295120471276,0.12028122389793915,0.059471191001354284
2636.1000000059544,-0.40265954,-0.9666591,0.05765107,-2.3262455,0.14072776,1.6141963,1.3662946,0.04,0.04,-0.010614368566885801,-0.008664673195935002,0.0060499392102064675,0.09291870456871121,-0.038944358440248225,0.008138312801445377,0.8850640447736478,0.44563932465886424,0.12048215975808581,0.05959260144119452
2636.1166666726212,-0.40335628,-0.96697456,0.057750773,-2.3261933,0.14097098,1.6142713,1.3672982,0.04,0.04,-0.011056145323262712,-0.00843239573846688,0.006651269715396424,0.09061892376255634,-0.03826538430444071,0.007773556030923924,0.8846807010284748,0.4463310259152037,0.12067835177636715,0.059711037051682236
2636.133333339288,-0.40403545,-0.96728194,0.057847958,-2.326142,0.14120822,1.614344,1.3682764,0.04,0.04,-0.011022425802487135,-0.008672525987302171,0.00622659695423966,0.08833169196552008,-0.03758701835084625,0.007412436618278725,0.8843065380024024,0.44700479994454656,0.1208694921816735,0.059826595528122736
2636.150000005955,-0.40469703,-0.9675815,0.057942625,-2.3260927,0.14143926,1.614415,1.3692293,0.039999995,0.04,-0.012196731726188403,-0.008362363969233177,0.006277206853910755,0.08605814110149228,-0.03691215045537326,0.007051473501672165,0.8839415015764501,0.447660893432387,0.12105552984160958,0.05993917731212816
