rsonawane2002/My_IMU/logs_2/traj_489/imu_400hz_489.csv
time,j1,j2,j3,j4,j5,j6,j7,gripper1,gripper2,imu_ax,imu_ay,imu_az,imu_gx,imu_gy,imu_gz
0.0,0.00016700293,-0.785875,4.0107683e-05,-2.3551247,9.29385e-05,1.570997,0.786,0.04,0.04,-9.441266,0.0269323084503412,0.09176986,-3.7547102e-07,-0.0011641273740679,6.910512e-07
0.0025,0.0001670023015,-0.7858577740000002,4.010888254999999e-05,-2.35513919,9.294420674999993e-05,1.570996565,0.786,0.04,0.04,-9.50025229999925,0.022986304565033797,0.07936672135015792,-1.945386620023038e-07,-0.0013252448756227186,7.514733899992307e-07
0.005,0.000167001673,-0.7858405480000005,4.011008209999997e-05,-2.35515368,9.294991349999985e-05,1.57099613,0.786,0.04,0.04,-9.559238599998498,0.01904030067972639,0.06696358270031585,-1.3606304004607608e-08,-0.001486362377177537,8.118955799984613e-07
0.0075,0.00016700104450000002,-0.7858233220000007,4.0111281649999956e-05,-2.35516817,9.295562024999979e-05,1.5709956950000001,0.786,0.04,0.04,-9.618224899997747,0.015094296794418984,0.054560444050473784,1.6732605399308862e-07,-0.0016474798787323554,8.72317769997692e-07
0.01,0.000167000416,-0.785806096000001,4.0112481199999936e-05,-2.3551826599999997,9.296132699999972e-05,1.5709952600000001,0.786,0.04,0.04,-9.677211199996997,0.011148292909111578,0.04215730540063171,3.482584119907848e-07,-0.001808597380287174,9.327399599969226e-07
0.0125,0.00016699978750000003,-0.7857888700000011,4.011368074999992e-05,-2.355197149999999,9.296703374999964e-05,1.570994825,0.786,0.04,0.04,-9.736197499996244,0.007202289023804171,0.029754166750789637,5.291907699884811e-07,-0.0019697148818419927,9.931621499961534e-07
0.015,0.00016699915900000005,-0.7857716440000013,4.011488029999991e-05,-2.355211639999999,9.297274049999957e-05,1.57099439,0.786,0.04,0.04,-9.795183799995494,0.0032562851384967673,0.017351028100947574,7.101231279861773e-07,-0.002130832383396811,1.053584339995384e-06
0.0175,0.00016699610750000077,-0.7857548670000016,4.011641464999978e-05,-2.355225734999999,9.297917574999922e-05,1.57099396,0.786,0.04,0.04,-9.834411000000028,0.000624194083502849,0.009004769650022837,1.162853649902136e-06,-0.002287801576298002,1.1507190799832468e-06
0.02,0.00016698821000000108,-0.7857389880000022,4.011861859999969e-05,-2.355239039999998,9.298706799999891e-05,1.5709935400000001,0.786,0.04,0.04,-9.83412000000004,0.0006199286901397097,0.008772271600032142,2.159180499862265e-06,-0.002436474151888767,1.3212789199764213e-06
0.0225,0.0001669803125000014,-0.7857231090000029,4.0120822549999605e-05,-2.3552523449999976,9.29949602499986e-05,1.57099312,0.786,0.04,0.04,-9.833829000000051,0.0006156632967765704,0.008539773550041445,3.155507349822393e-06,-0.0025851467274795323,1.4918387599695958e-06
0.025,0.00016697241500000172,-0.7857072300000035,4.0123026499999517e-05,-2.355265649999997,9.300285249999828e-05,1.5709927000000001,0.786,0.04,0.04,-9.833538000000063,0.000611397903413431,0.00830727550005075,4.151834199782524e-06,-0.0027338193030702978,1.6623985999627705e-06
0.0275,0.00016696451750000205,-0.7856913510000041,4.012523044999943e-05,-2.3552789549999966,9.301074474999796e-05,1.57099228,0.786,0.04,0.04,-9.833247000000075,0.0006071325100502917,0.008074777450060053,5.148161049742652e-06,-0.0028824918786610632,1.832958439955945e-06
0.03,0.00016695662000000235,-0.7856754720000048,4.012743439999934e-05,-2.3552922599999957,9.301863699999765e-05,1.5709918600000001,0.786,0.04,0.04,-9.832956000000086,0.0006028671166871524,0.007842279400069358,6.144487899702781e-06,-0.0030311644542518287,2.0035182799491194e-06
0.0325,0.00016694872250000268,-0.7856595930000054,4.012963834999925e-05,-2.355305564999995,9.302652924999733e-05,1.57099144,0.786,0.04,0.04,-9.832665000000098,0.0005986017233240131,0.007609781350078662,7.140814749662911e-06,-0.003179837029842594,2.1740781199422945e-06
0.035,0.0001669279660000093,-0.785644573000005,4.0133684999998296e-05,-2.355318099999996,9.30387099999951e-05,1.5709910100000002,0.786,0.04,0.04,-9.832364800000104,0.0005911543150462609,0.0074044202000655875,9.271575629077376e-06,-0.003321051457849754,2.456032159884534e-06
0.0375,0.0001669007800000089,-0.7856299825000048,4.013865299999837e-05,-2.3553302499999957,9.305303499999531e-05,1.5709905750000002,0.786,0.04,0.04,-9.8320600000001,0.0005821158993086844,0.007212627500062797,1.1969553524116631e-05,-0.0034585368120592097,2.793683299889447e-06
0.04,0.00016687359400000852,-0.7856153920000046,4.0143620999998445e-05,-2.355342399999996,9.306735999999552e-05,1.5709901400000001,0.786,0.04,0.04,-9.831755200000096,0.0005730774835711078,0.007020834800060005,1.4667531419155897e-05,-0.0035960221662686654,3.1313344398943606e-06
0.0425,0.0001668464080000081,-0.7856008015000043,4.0148588999998516e-05,-2.3553545499999964,9.308168499999573e-05,1.5709897050000001,0.786,0.04,0.04,-9.831450400000092,0.0005640390678335313,0.006829042100057215,1.736550931419516e-05,-0.003733507520478121,3.4689855798992746e-06
0.045,0.00016681922200000772,-0.7855862110000041,4.015355699999859e-05,-2.3553666999999967,9.309600999999594e-05,1.57098927,0.786,0.04,0.04,-9.831145600000086,0.0005550006520959549,0.006637249400054424,2.0063487209234417e-05,-0.003870992874687577,3.8066367199041874e-06
0.0475,0.00016679203600000734,-0.785571620500004,4.015852499999866e-05,-2.3553788499999966,9.311033499999615e-05,1.570988835,0.786,0.04,0.04,-9.830840800000082,0.0005459622363583783,0.0064454567000516326,2.276146510427368e-05,-0.004008478228897033,4.144287859909101e-06
0.05,0.00016676485000000692,-0.7855570300000037,4.016349299999873e-05,-2.355390999999997,9.312465999999636e-05,1.5709884,0.786,0.04,0.04,-9.830536000000079,0.0005369238206208017,0.006253664000048842,2.545944299931294e-05,-0.004145963583106488,4.4819389999140146e-06
0.0525,0.0001667011255000153,-0.7855436110000033,4.017371879999754e-05,-2.355402129999997,9.31529919999932e-05,1.5709879800000002,0.786,0.04,0.03999999925,-9.83033185000005,0.0005244965490448889,0.006049679960048978,3.062502404875971e-05,-0.004272892209670704,5.1755415498334615e-06
0.055,0.0001666374010000144,-0.7855301920000031,4.018394459999769e-05,-2.3554132599999975,9.318132399999361e-05,1.57098756,0.786,0.04,0.0399999985,-9.830127700000046,0.000512069277468113,0.00584569592004601,3.5790605098834884e-05,-0.004399820836232231,5.869144099843555e-06
0.0575,0.00016657367650001344,-0.7855167730000028,4.019417039999784e-05,-2.3554243899999974,9.320965599999403e-05,1.5709871400000002,0.786,0.04,0.03999999775,-9.829923550000043,0.0004996420058913372,0.005641711880043041,4.095618614891005e-05,-0.004526749462793758,6.562746649853648e-06
0.06,0.00016650995200001253,-0.7855033540000026,4.020439619999799e-05,-2.3554355199999977,9.323798799999444e-05,1.57098672,0.786,0.04,0.039999997,-9.82971940000004,0.00048721473431456133,0.005437727840040073,4.6121767198985216e-05,-0.004653678089355285,7.25634919986374e-06
0.0625,0.0001664462275000116,-0.7854899350000024,4.021462199999814e-05,-2.355446649999998,9.326631999999484e-05,1.5709863000000002,0.786,0.04,0.03999999625,-9.829515250000037,0.0004747874627377855,0.005233743800037104,5.128734824906039e-05,-0.004780606715916812,7.949951749873834e-06
0.065,0.00016638250300001067,-0.7854765160000022,4.022484779999829e-05,-2.355457779999998,9.329465199999526e-05,1.57098588,0.786,0.04,0.0399999955,-9.829311100000034,0.00046236019116100964,0.005029759760034135,5.645292929913556e-05,-0.004907535342478338,8.643554299883928e-06
0.0675,0.00016629926950002092,-0.7854634665000021,4.023788594999681e-05,-2.355468539999998,9.33297124999917e-05,1.570985455,0.786000095,0.04,0.039999995,-9.829101900000037,0.00044850113627318926,0.004835110680030089,6.268723599856857e-05,-0.005031379172558304,9.400128449849105e-06
0.07,0.0001661770180000258,-0.7854511560000026,4.0256548799996064e-05,-2.3554785599999977,9.337822999998977e-05,1.5709850200000002,0.7860003799999999,0.04,0.039999995,-9.828882600000046,0.00043177851476124845,0.004659131520037132,7.105899399823356e-05,-0.005149053409670771,1.028264579981379e-05
0.0725,0.0001660547665000307,-0.7854388455000031,4.027521164999532e-05,-2.3554885799999976,9.342674749998782e-05,1.5709845850000002,0.786000665,0.04,0.039999995,-9.828663300000054,0.00041505589324930775,0.004483152360044175,7.94307519978985e-05,-0.005266727646783236,1.116516314977847e-05
0.075,0.0001659325150000356,-0.7854265350000036,4.029387449999457e-05,-2.355498599999997,9.347526499998589e-05,1.5709841500000001,0.7860009499999999,0.04,0.039999995,-9.828444000000063,0.00039833327173736694,0.004307173200051217,8.780250999756349e-05,-0.005384401883895702,1.2047680499743152e-05
0.0775,0.00016581026350004049,-0.7854142245000041,4.031253734999382e-05,-2.3555086199999966,9.352378249998394e-05,1.5709837150000001,0.786001235,0.04,0.039999995,-9.828224700000073,0.00038161065022542613,0.004131194040058259,9.617426799722847e-05,-0.005502076121008169,1.2930197849707837e-05
0.08,0.00016568801200004537,-0.7854019140000046,4.0331200199993076e-05,-2.3555186399999966,9.3572299999982e-05,1.5709832800000003,0.7860015199999999,0.04,0.039999995,-9.82800540000008,0.0003648880287134853,0.003955214880065301,0.00010454602599689347,-0.0056197503581206345,1.3812715199672522e-05
0.0825,0.00016556576050005028,-0.785389603500005,4.034986304999233e-05,-2.355528659999996,9.362081749998005e-05,1.5709828450000003,0.7860018049999999,0.04,0.039999995,-9.82778610000009,0.0003481654072015445,0.0037792357200723435,0.00011291778399655846,-0.0057374245952331,1.4695232549637205e-05
0.085,0.00016538700400008964,-0.7853779770000049,4.0376681899986625e-05,-2.355538339999996,9.368774059996704e-05,1.5709824100000003,0.7860020899999999,0.04,0.0399999955,-9.827563750000095,0.0003296318522272155,0.0036117802000706495,0.00012305287599523066,-0.005848940974054466,1.575089259950551e-05
0.08750000000000001,0.00016517999500009227,-0.785366692500005,4.040757874998623e-05,-2.355547849999996,9.376386649996607e-05,1.5709819750000003,0.7860023749999999,0.04,0.03999999625,-9.8273398750001,0.00031019283051996296,0.003448586500072727,0.0001340696349950904,-0.0059573784237244,1.6893123999490965e-05
0.09,0.0001649729860000949,-0.7853554080000051,4.043847559998584e-05,-2.3555573599999957,9.38399923999651e-05,1.5709815400000002,0.7860026599999999,0.04,0.039999997,-9.827116000000101,0.0002907538088127106,0.003285392800074806,0.00014508639399495005,-0.006065815873394334,1.8035355399476415e-05
0.0925,0.00016476597700009754,-0.7853441235000053,4.0469372449985446e-05,-2.3555668699999956,9.391611829996413e-05,1.5709811050000002,0.7860029449999999,0.04,0.03999999775,-9.826892125000105,0.0002713147871054581,0.003122199100076884,0.0001561031529948098,-0.006174253323064268,1.9177586799461875e-05
0.095,0.00016455896800010017,-0.7853328390000054,4.050026929998505e-05,-2.3555763799999956,9.399224419996317e-05,1.5709806700000002,0.7860032299999999,0.04,0.0399999985,-9.826668250000107,0.0002518757653982056,0.0029590054000789615,0.00016711991199466953,-0.006282690772734203,2.0319818199447332e-05
0.0975,0.0001643519590001028,-0.7853215545000056,4.0531166149984655e-05,-2.355585889999995,9.406837009996219e-05,1.5709802350000002,0.7860035149999999,0.04,0.03999999925,-9.826444375000111,0.0002324367436909531,0.002795811700081039,0.00017813667099452927,-0.006391128222404137,2.146204959943279e-05
0.1,0.00016414495000010543,-0.7853102700000058,4.056206299998427e-05,-2.355595399999995,9.414449599996122e-05,1.5709798000000001,0.7860037999999999,0.04,0.04,-9.826220500000113,0.0002129977219837006,0.0026326180000831173,0.000189153429994389,-0.0064995656720740706,2.2604280999418245e-05
0.10250000000000001,0.000163823152000168,-0.7852999395000053,4.060950529997523e-05,-2.3556041149999953,9.426021409993958e-05,1.570979785,0.7860043759999997,0.04,0.04,-9.826063075000082,0.00019179770607676125,0.0024925873300731026,0.00020482243149182004,-0.006602514511851786,2.4205360749164163e-05
0.105,0.0001635013540001721,-0.7852896090000056,4.065694759997463e-05,-2.355612829999995,9.437593219993811e-05,1.5709797699999999,0.7860049519999998,0.04,0.04,-9.825905650000085,0.0001705976901689251,0.0023525566600748862,0.00022049143299162046,-0.006705463351626704,2.580644049914377e-05
0.1075,0.0001631795560001762,-0.7852792785000057,4.0704389899974024e-05,-2.355621544999995,9.449165029993664e-05,1.570979755,0.7860055279999997,0.04,0.04,-9.825748225000085,0.00014939767426108886,0.002212525990076669,0.00023616043449142097,-0.0068084121914016235,2.7407520249123384e-05
0.11,0.00016285775800018029,-0.7852689480000058,4.075183219997342e-05,-2.355630259999995,9.460736839993516e-05,1.57097974,0.7860061039999997,0.04,0.04,-9.825590800000088,0.0001281976583532526,0.002072495320078452,0.0002518294359912215,-0.006911361031176543,2.9008599999102998e-05
0.1125,0.00016253596000018438,-0.7852586175000059,4.0799274499972815e-05,-2.355638974999995,9.472308649993369e-05,1.5709797250000002,0.7860066799999997,0.04,0.04,-9.82543337500009,0.00010699764244541634,0.001932464650080235,0.00026749843749102194,-0.007014309870951463,3.0609679749082615e-05
0.115,0.00016221416200018848,-0.785248287000006,4.084671679997221e-05,-2.3556476899999947,9.483880459993221e-05,1.57097971,0.7860072559999997,0.04,0.04,-9.825275950000092,8.57976265375801e-05,0.0017924339800820177,0.00028316743899082245,-0.007117258710726382,3.2210759499062225e-05
0.11750000000000001,0.0001618429455002813,-0.7852382600000056,4.0901263549958855e-05,-2.3556560749999953,9.497174899989982e-05,1.570979705,0.7860078309999997,0.04,0.04,-9.825124150000084,6.329406752822499e-05,0.0016449026525972668,0.0003001438169882758,-0.007217334583345214,3.399176269871882e-05
0.12,0.00016137289200028729,-0.7852288400000057,4.097001919995798e-05,-2.355663799999995,9.513914599989769e-05,1.57097972,0.7860084039999996,0.04,0.04,-9.824983600000085,3.818342230886119e-05,0.001482370010099337,0.00031973494798802625,-0.007311664521636507,3.613261279869155e-05
0.1225,0.00016090283850029327,-0.7852194200000059,4.10387748499571e-05,-2.355671524999995,9.530654299989555e-05,1.570979735,0.7860089769999996,0.04,0.04,-9.824843050000087,1.3072777089497256e-05,0.0013198373676014063,0.0003393260789877768,-0.0074059944599278015,3.8273462898664296e-05
0.125,0.00016043278500029926,-0.785210000000006,4.1107530499956224e-05,-2.355679249999995,9.547393999989342e-05,1.57097975,0.7860095499999996,0.04,0.04,-9.82470250000009,-1.203786812986668e-05,0.0011573047251034756,0.00035891720998752736,-0.007500324398219096,4.0414312998637035e-05
0.1275,0.00015996273150030525,-0.785200580000006,4.117628614995535e-05,-2.355686974999995,9.564133699989129e-05,1.570979765,0.7860101229999996,0.04,0.04,-9.824561950000092,-3.714851334923063e-05,0.0009947720826055451,0.0003785083409872779,-0.007594654336510389,4.2555163098609774e-05
0.13,0.0001594926780003112,-0.7851911600000062,4.124504179995447e-05,-2.3556946999999946,9.580873399988916e-05,1.57097978,0.7860106959999996,0.04,0.04,-9.824421400000093,-6.225915856859456e-05,0.0008322394401076144,0.0003980994719870285,-0.007688984274801683,4.469601319858252e-05
0.1325,0.0001590226245003172,-0.7851817400000063,4.13137974499536e-05,-2.3557024249999947,9.597613099988704e-05,1.570979795,0.7860112689999996,0.04,0.04,-9.824280850000095,-8.736980378795851e-05,0.0006697067976096838,0.00041769060298677907,-0.007783314213092978,4.683686329855526e-05
0.135,0.0001584294400004502,-0.7851728900000059,4.140025139993447e-05,-2.3557099599999947,9.618640499984067e-05,1.5709798499999998,0.7860120339999994,0.04,0.04,-9.82411800000012,-0.00011300073818385685,0.000529242445088993,0.00044123491698245246,-0.007872983999490228,4.933726999815717e-05
0.1375,0.00015777469000045853,-0.785164325000006,4.1495554499933256e-05,-2.3557173999999947,9.641811749983772e-05,1.5709799249999998,0.7860128949999994,0.04,0.04,-9.823944000000122,-0.00013889181716881738,0.00039981223759064083,0.0004667558224821275,-0.007960323709933336,5.201745499812305e-05
0.14,0.00015711994000046687,-0.7851557600000061,4.159085759993204e-05,-2.355724839999995,9.664982999983477e-05,1.5709799999999998,0.7860137559999993,0.04,0.04,-9.823770000000124,-0.0001647828961537779,0.00027038203009228874,0.0004922767279818026,-0.008047663420376444,5.469763999808892e-05
0.14250000000000002,0.0001564651900004752,-0.7851471950000062,4.1686160699930834e-05,-2.3557322799999945,9.688154249983182e-05,1.5709800749999998,0.7860146169999993,0.04,0.04,-9.823596000000126,-0.00019067397513873846,0.00014095182259393665,0.0005177976334814776,-0.008135003130819551,5.7377824998054806e-05
0.145,0.00015581044000048354,-0.7851386300000063,4.178146379992962e-05,-2.3557397199999945,9.711325499982887e-05,1.57098015,0.7860154779999994,0.04,0.04,-9.823422000000129,-0.00021656505412369868,1.1521615095586024e-05,0.0005433185389811525,-0.008222342841262659,6.005800999802065e-05
0.1475,0.00015515569000049188,-0.7851300650000065,4.1876766899928405e-05,-2.3557471599999946,9.734496749982592e-05,1.570980225,0.7860163389999993,0.04,0.04,-9.823248000000131,-0.00024245613310865924,-0.00011790859240276618,0.0005688394444808275,-0.008309682551705767,6.273819499798653e-05
0.15,0.00015450094000050022,-0.7851215000000066,4.197206999992719e-05,-2.3557545999999943,9.757667999982297e-05,1.5709803,0.7860171999999993,0.04,0.04,-9.823074000000133,-0.00026834721209361974,-0.00024733879990111827,0.0005943603499805025,-0.008397022262148874,6.54183799979524e-05
0.1525,0.00015362234200068243,-0.7851137450000061,4.209949859990103e-05,-2.355761139999995,9.788691149975904e-05,1.570980375,0.786018474999999,0.04,0.04,-9.822993600000062,-0.00029494638727305014,-0.0003638695999094894,0.0006250850884761358,-0.00848069014021214,6.878523649738493e-05
0.155,0.0001527437440006936,-0.7851059900000061,4.2226927199899404e-05,-2.3557676799999947,9.819714299975509e-05,1.57098045,0.786019749999999,0.04,0.04,-9.822913200000064,-0.00032154556245302145,-0.00048040039990800577,0.0006558098269757445,-0.0085643580182726,7.215209299734207e-05
0.1575,0.0001518651460007048,-0.7850982350000063,4.235435579989778e-05,-2.355774219999995,9.850737449975114e-05,1.570980525,0.7860210249999989,0.04,0.04,-9.822832800000064,-0.0003481447376329928,-0.0005969311999065221,0.0006865345654753534,-0.008648025896333058,7.55189494972992e-05
0.16,0.00015098654800071597,-0.7850904800000064,4.248178439989616e-05,-2.3557807599999947,9.88176059997472e-05,1.5709806,0.786022299999999,0.04,0.04,-9.822752400000065,-0.0003747439128129642,-0.0007134619999050384,0.0007172593039749622,-0.008731693774393519,7.888580599725634e-05
0.1625,0.00015010795000072716,-0.7850827250000064,4.2609212999894535e-05,-2.355787299999995,9.912783749974324e-05,1.570980675,0.786023574999999,0.04,0.04,-9.822672000000066,-0.0004013430879929355,-0.0008299927999035547,0.0007479840424745711,-0.008815361652453979,8.225266249721347e-05
0.165,0.00014922935200073833,-0.7850749700000066,4.2736641599892917e-05,-2.3557938399999947,9.943806899973929e-05,1.57098075,0.786024849999999,0.04,0.04,-9.822591600000067,-0.0004279422631729068,-0.0009465235999020711,0.0007787087809741799,-0.008899029530514437,8.561951899717059e-05
0.1675,0.00014826231400097588,-0.785067475000006,4.287675154985883e-05,-2.355800299999995,9.9779695499655e-05,1.5709808299999999,0.7860262724999986,0.04,0.03999999975,-9.822480850000145,-0.00045419991945525723,-0.0010574661049148895,0.0008111538479693858,-0.008980809897117758,8.918160349662808e-05
0.17,0.00014711839600099045,-0.785060500000006,4.304222419985673e-05,-2.355806599999995,0.00010018411199964984,1.57098092,0.7860279899999986,0.04,0.039999999,-9.82230940000015,-0.00047977453793975663,-0.0011572320199136194,0.0008470395719689289,-0.00905881524079238,9.313414399657776e-05
0.17250000000000001,0.000145974478001005,-0.7850535250000061,4.320769684985462e-05,-2.3558128999999943,0.0001005885284996447,1.57098101,0.7860297074999986,0.04,0.03999999825,-9.822137950000151,-0.000505349156424256,-0.001256997934912349,0.0008829252959684721,-0.009136820584467001,9.708668449652744e-05
0.17500000000000002,0.00014483056000101958,-0.7850465500000062,4.3373169499852515e-05,-2.3558191999999942,0.00010099294499963955,1.5709811,0.7860314249999985,0.04,0.0399999975,-9.821966500000153,-0.0005309237749087554,-0.0013567638499110788,0.0009188110199680152,-0.009214825928141624,0.0001010392249964771
0.1775,0.00014368664200103414,-0.7850395750000063,4.3538642149850406e-05,-2.355825499999994,0.00010139736149963439,1.57098119,0.7860331424999984,0.04,0.03999999675,-9.821795050000155,-0.0005564983933932545,-0.0014565297649098076,0.0009546967439675578,-0.009292831271816245,0.00010499176549642674
0.18,0.0001425427240010487,-0.7850326000000064,4.37041147998483e-05,-2.355831799999994,0.00010180177799962925,1.5709812799999998,0.7860348599999984,0.04,0.039999996,-9.821623600000157,-0.0005820730118777539,-0.0015562956799085373,0.0009905824679671009,-0.009370836615490867,0.00010894430599637641
0.1825,0.00014139880600106327,-0.7850256250000065,4.386958744984619e-05,-2.355838099999994,0.00010220619449962409,1.57098137,0.7860365774999983,0.04,0.03999999525,-9.82145215000016,-0.0006076476303622533,-0.001656061594907267,0.001026468191966644,-0.009448841959165488,0.00011289684649632609
0.185,0.00014004899600136882,-0.7850191370000058,4.406459869980234e-05,-2.355843799999995,0.00010268069999951988,1.5709814599999998,0.786038537999998,0.04,0.0399999955,-9.821373900000031,-0.0006396261974837416,-0.0017617295098976552,0.0010661131399608739,-0.009525270946252547,0.00011702563299602667
0.1875,0.00013859624000138733,-0.7850128925000059,4.4274379249799666e-05,-2.355849199999995,0.0001031902499995134,1.57098155,0.786040619999998,0.04,0.03999999625,-9.821342250000031,-0.0006748067389371786,-0.0018703484248962722,0.0011076376999603452,-0.009600911755042515,0.00012124254249597298
0.19,0.00013714348400140582,-0.785006648000006,4.4484159799796994e-05,-2.3558545999999945,0.0001036997999995069,1.5709816399999998,0.7860427019999979,0.04,0.039999997,-9.82131060000003,-0.0007099872803906157,-0.0019789673398948895,0.0011491622599598165,-0.009676552563832482,0.00012545945199591928
0.1925,0.00013569072800142433,-0.7850004035000061,4.469394034979432e-05,-2.3558599999999945,0.00010420934999950042,1.57098173,0.7860447839999979,0.04,0.03999999775,-9.821278950000032,-0.0007451678218440528,-0.0020875862548935063,0.0011906868199592878,-0.00975219337262245,0.0001296763614958656
0.195,0.00013423797200144282,-0.7849941590000061,4.490372089979165e-05,-2.3558653999999946,0.00010471889999949393,1.5709818199999999,0.786046865999998,0.04,0.0399999985,-9.821247300000032,-0.0007803483632974899,-0.0021962051698921235,0.001232211379958759,-0.009827834181412415,0.00013389327099581192
0.1975,0.0001327852160014613,-0.7849879145000063,4.511350144978898e-05,-2.3558707999999946,0.00010522844999948744,1.57098191,0.7860489479999979,0.04,0.03999999925,-9.821215650000033,-0.000815528904750927,-0.0023048240848907403,0.0012737359399582304,-0.009903474990202383,0.00013811018049575822
0.2,0.00013133246000147981,-0.7849816700000063,4.532328199978631e-05,-2.3558761999999946,0.00010573799999948095,1.570982,0.7860510299999979,0.04,0.04,-9.821184000000033,-0.0008507094462043641,-0.0024134429998893575,0.0013152604999577017,-0.00997911579899235,0.00014232708999570453
0.2025,0.00012952546040191295,-0.7849761440000058,4.558382614972417e-05,-2.3558814199999945,0.00010637197409932884,1.57098212,0.7860536204999973,0.04,0.04,-9.821044800000148,-0.0008786727237451718,-0.0025050028499030703,0.0013632568249491888,-0.010049688490032928,0.0001475704749944491
0.20500000000000002,0.00012771846080198527,-0.784970618000006,4.584437029971375e-05,-2.3558866399999943,0.00010700594819930347,1.57098224,0.7860562109999971,0.04,0.04,-9.820905600000154,-0.0009066360012786278,-0.0025965626998994064,0.001411253149947268,-0.010120261181068345,0.00015281385999423928
0.20750000000000002,0.0001259114612020576,-0.7849650920000063,4.610491444970332e-05,-2.355891859999994,0.0001076399222992781,1.57098236,0.7860588014999971,0.04,0.04,-9.820766400000158,-0.0009345992788120837,-0.0026881225498957425,0.0014592494749453475,-0.010190833872103759,0.00015805724499402945
0.21,0.0001241044616021299,-0.7849595660000065,4.636545859969289e-05,-2.355897079999994,0.00010827389639925273,1.5709824799999998,0.7860613919999969,0.04,0.04,-9.820627200000164,-0.0009625625563455394,-0.0027796823998920777,0.0015072457999434263,-0.010261406563139175,0.00016330062999381958
0.2125,0.00012229746200220223,-0.7849540400000068,4.6626002749682464e-05,-2.3559022999999937,0.00010890787049922735,1.5709825999999998,0.7860639824999969,0.04,0.04,-9.82048800000017,-0.0009905258338789953,-0.0028712422498884138,0.0015552421249415056,-0.010331979254174591,0.00016854401499360975
0.215,0.00012049046240227454,-0.784948514000007,4.688654689967204e-05,-2.3559075199999935,0.00010954184459920199,1.5709827199999997,0.7860665729999968,0.04,0.04,-9.820348800000176,-0.0010184891114124513,-0.00296280209988475,0.001603238449939585,-0.010402551945210007,0.00017378739999339993
0.2175,0.00011854975270282766,-0.7849432135000063,4.716624484959277e-05,-2.355912539999994,0.00011022244929900901,1.5709828399999997,0.7860693649999959,0.04,0.04,-9.820243600000047,-0.0010474645648685375,-0.0030513367098943733,0.0016533363349304638,-0.010472605470479486,0.00017921326999258442
0.22,0.00011634162280279553,-0.7849383640000062,4.74842503995974e-05,-2.355917159999994,0.00011099631519902028,1.5709829599999998,0.786072559999996,0.04,0.04,-9.820206400000048,-0.0010784643701815936,-0.003133820839895574,0.001707637339931254,-0.010541620664211085,0.00018500410999266868
0.2225,0.00011413349290276339,-0.7849335145000061,4.780225594960203e-05,-2.3559217799999943,0.00011177018109903153,1.5709830799999998,0.786075754999996,0.04,0.04,-9.820169200000047,-0.0011094641754946497,-0.003216304969896774,0.0017619383449320443,-0.010610635857942684,0.00019079494999275296
0.225,0.00011192536300273125,-0.784928665000006,4.812026149960666e-05,-2.355926399999994,0.0001125440469990428,1.5709831999999997,0.7860789499999961,0.04,0.04,-9.820132000000045,-0.001140463980807706,-0.0032987890998979748,0.0018162393499328345,-0.010679651051674285,0.00019658578999283725
0.2275,0.00010971723310269912,-0.7849238155000059,4.8438267049611285e-05,-2.3559310199999945,0.00011331791289905407,1.5709833199999998,0.7860821449999962,0.04,0.04,-9.820094800000046,-0.0011714637861207622,-0.003381273229899175,0.0018705403549336248,-0.010748666245405884,0.0002023766299929215
0.23,0.00010750910320266698,-0.7849189660000059,4.8756272599615914e-05,-2.3559356399999944,0.00011409177879906532,1.5709834399999998,0.7860853399999962,0.04,0.04,-9.820057600000045,-0.0012024635914338183,-0.0034637573599003756,0.001924841359934415,-0.010817681439137482,0.0002081674699930058
0.2325,0.00010530097330263484,-0.7849141165000058,4.9074278149620535e-05,-2.3559402599999943,0.00011486564469907659,1.5709835599999997,0.7860885349999962,0.04,0.04,-9.820020400000043,-0.0012334633967468745,-0.003546241489901576,0.001979142364935205,-0.010886696632869083,0.00021395830999309005
0.23500000000000001,0.00010279327300318071,-0.784909710000005,4.943519199954235e-05,-2.3559445599999953,0.00011574400559888616,1.5709836899999998,0.7860921599999955,0.04,0.04,-9.819939650000123,-0.0012610995908887955,-0.003618604429919447,0.002037747289927281,-0.010953801590870066,0.00022021284099223653
0.23750000000000002,0.00010013578750321455,-0.7849055250000051,4.981755999953748e-05,-2.355948699999995,0.00011667461399887431,1.570983825,0.7860959999999954,0.04,0.04,-9.819837125000124,-0.001287053979436155,-0.00368590677491859,0.002098504174926507,-0.011019951431000635,0.00022669921749215394
0.24,9.747830200324841e-05,-0.7849013400000051,5.0199927999532604e-05,-2.355952839999995,0.00011760522239886245,1.5709839599999997,0.7860998399999953,0.04,0.04,-9.819734600000125,-0.0013130083679835144,-0.0037532091199177324,0.0021592610599257328,-0.0110861012711312,0.00023318559399207128
0.2425,9.482081650328225e-05,-0.7848971550000052,5.0582295999527736e-05,-2.355956979999995,0.0001185358307988506,1.5709840949999998,0.7861036799999953,0.04,0.04,-9.819632075000127,-0.0013389627565308737,-0.0038205114649168754,0.0022200179449249594,-0.011152251111261769,0.0002396719704919887
0.245,9.216333100331608e-05,-0.7848929700000052,5.096466399952287e-05,-2.355961119999995,0.00011946643919883875,1.5709842299999999,0.7861075199999953,0.04,0.04,-9.819529550000128,-0.0013649171450782333,-0.0038878138099160187,0.002280774829924186,-0.011218400951392336,0.0002461583469919061
0.2475,8.950584550334993e-05,-0.7848887850000054,5.1347031999518e-05,-2.355965259999995,0.0001203970475988269,1.5709843649999997,0.7861113599999952,0.04,0.04,-9.81942702500013,-0.0013908715336255928,-0.003955116154915162,0.002341531714923412,-0.011284550791522904,0.00025264472349182353
0.25,8.684836000338376e-05,-0.7848846000000054,5.172939999951313e-05,-2.355969399999995,0.00012132765599881506,1.5709844999999998,0.7861151999999951,0.04,0.04,-9.81932450000013,-0.0014168259221729524,-0.004022418499914305,0.0024022885999226387,-0.011350700631653473,0.0002591310999917409
0.2525,8.369214550405897e-05,-0.7848810750000046,5.218317699941643e-05,-2.355973404999995,0.00012243219659857952,1.5709846349999999,0.7861197599999942,0.04,0.04,-9.819275675000062,-0.0014524353201973955,-0.004097972074902837,0.0024696835399133283,-0.011414560396142115,0.0002663302389907417
0.255,8.053593100409916e-05,-0.7848775500000046,5.263695399941065e-05,-2.355977409999995,0.00012353673719856548,1.57098477,0.7861243199999941,0.04,0.04,-9.819226850000064,-0.001488044718234132,-0.0041735256499018745,0.0025370784799124703,-0.011478420160627842,0.00027352937799065007
0.2575,7.737971650413934e-05,-0.7848740250000046,5.3090730999404876e-05,-2.3559814149999947,0.0001246412777985514,1.5709849049999998,0.786128879999994,0.04,0.04,-9.819178025000063,-0.0015236541162708687,-0.004249079224900912,0.0026044734199116124,-0.011542279925113568,0.00028072851699055844
0.26,7.422350200417953e-05,-0.7848705000000047,5.35445079993991e-05,-2.355985419999995,0.00012574581839853733,1.5709850399999998,0.786133439999994,0.04,0.04,-9.819129200000065,-0.0015592635143076052,-0.004324632799899951,0.0026718683599107544,-0.011606139689599296,0.00028792765599046675
0.2625,7.106728750421971e-05,-0.7848669750000047,5.399828499939332e-05,-2.355989424999995,0.00012685035899852328,1.570985175,0.7861379999999939,0.04,0.04,-9.819080375000064,-0.0015948729123443418,-0.004400186374898989,0.002739263299909896,-0.011669999454085022,0.0002951267949903751
0.265,6.79110730042599e-05,-0.7848634500000048,5.4452061999387544e-05,-2.3559934299999945,0.0001279548995985092,1.57098531,0.7861425599999938,0.04,0.04,-9.819031550000066,-0.0016304823103810784,-0.004475739949898027,0.002806658239909038,-0.01173385921857075,0.00030232593399028343
0.2675,6.457185565504805e-05,-0.7848601425000039,5.493203599927469e-05,-2.3559972449999953,0.00012912273949823642,1.5709854499999998,0.7861473799999927,0.03999999975,0.04,-9.81899415000002,-0.0016643116366636358,-0.004545700649919924,0.002876308399898962,-0.01179760638615767,0.0003097277544893634
0.27,6.086663260509523e-05,-0.7848572700000039,5.5464403999267914e-05,-2.3560006799999953,0.00013041717799821995,1.5709855999999998,0.7861527199999927,0.039999999,0.04,-9.81897960000002,-0.0016945808194160754,-0.004604475599919176,0.002950468999898018,-0.011861128359945607,0.00031753493798926396
0.2725,5.716140955514241e-05,-0.784854397500004,5.599677199926114e-05,-2.3560041149999953,0.00013171161649820347,1.57098575,0.7861580599999926,0.03999999825,0.04,-9.81896505000002,-0.001724850002168515,-0.0046632505499184275,0.003024629599897074,-0.011924650333733543,0.0003253421214891646
0.275,5.345618650518958e-05,-0.784851525000004,5.652913999925436e-05,-2.3560075499999953,0.000133006054998187,1.5709859,0.7861633999999925,0.0399999975,0.04,-9.81895050000002,-0.0017551191849209545,-0.004722025499917679,0.0030987901998961297,-0.011988172307521479,0.0003331493049890652
0.2775,4.975096345523676e-05,-0.784848652500004,5.706150799924758e-05,-2.3560109849999953,0.0001343004934981705,1.57098605,0.7861687399999925,0.03999999675,0.04,-9.81893595000002,-0.001785388367673394,-0.004780800449916931,0.0031729507998951856,-0.012051694281309417,0.00034095648848896576
0.28,4.604574040528393e-05,-0.784845780000004,5.7593875999240806e-05,-2.356014419999995,0.00013559493199815403,1.5709861999999999,0.7861740799999924,0.039999996,0.04,-9.81892140000002,-0.0018156575504258339,-0.004839575399916182,0.0032471113998942414,-0.012115216255097353,0.00034876367198886633
0.28250000000000003,4.2340517355331106e-05,-0.7848429075000042,5.8126243999234024e-05,-2.356017854999995,0.00013688937049813755,1.5709863499999999,0.7861794199999923,0.03999999525,0.04,-9.81890685000002,-0.0018459267331782734,-0.0048983503499154335,0.003321271999893297,-0.012178738228885289,0.0003565708554887669
0.28500000000000003,3.823523400624934e-05,-0.7848404550000033,5.8715854999102614e-05,-2.3560209999999957,0.00013832340899781712,1.57098649,0.786185343999991,0.039999994500000004,0.039999999,-9.818844300000125,-0.0018695709295275377,-0.004947711499935182,0.003400079919882234,-0.012240821029901799,0.0003650430969872195
0.28750000000000003,3.3929920506304156e-05,-0.7848382125000033,5.933408749909474e-05,-2.3560239999999957,0.00013982724749779797,1.5709866249999997,0.7861915599999909,0.039999993750000004,0.0399999975,-9.818757750000126,-0.0018899026326537037,-0.004992365749934614,0.0034812114998812012,-0.012302184244527923,0.0003738478674871074
0.29,2.9624607006359066e-05,-0.7848359700000034,5.995231999908686e-05,-2.3560269999999957,0.0001413310859977788,1.5709867599999998,0.7861977759999909,0.039999993000000005,0.039999996,-9.818671200000127,-0.0019102343357798694,-0.005037019999934045,0.0035623430798801662,-0.012363547459154045,0.0003826526379869951
0.2925,2.531929350641388e-05,-0.7848337275000034,6.057055249907898e-05,-2.3560299999999956,0.00014283492449775965,1.5709868949999999,0.7862039919999907,0.039999992250000005,0.039999994500000004,-9.818584650000128,-0.0019305660389060356,-0.005081674249933476,0.0036434746598791334,-0.012424910673780168,0.000391457408486883
0.295,2.1013980006468697e-05,-0.7848314850000034,6.118878499907111e-05,-2.3560329999999956,0.0001443387629977405,1.57098703,0.7862102079999906,0.0399999915,0.039999993000000005,-9.818498100000129,-0.0019508977420322018,-0.005126328499932908,0.0037246062398781006,-0.012486273888406292,0.0004002621789867709
0.2975,1.6708666506523516e-05,-0.7848292425000034,6.180701749906325e-05,-2.3560359999999956,0.00014584260149772135,1.5709871649999998,0.7862164239999906,0.03999999075,0.0399999915,-9.81841155000013,-0.0019712294451583678,-0.0051709827499323395,0.0038057378198770673,-0.012547637103032416,0.0004090669494866588
0.3,1.2403353006578331e-05,-0.7848270000000035,6.242524999905538e-05,-2.3560389999999956,0.0001473464399977022,1.5709872999999999,0.7862226399999904,0.03999999,0.03999999,-9.818325000000131,-0.001991561148284534,-0.00521563699993177,0.0038868693998760345,-0.01260900031765854,0.00041787171998654667
0.3025,7.446305557637263e-06,-0.7848253800000026,6.313673299890383e-05,-2.3560418649999955,0.000149077489497333,1.570987944999999,0.786229803999989,0.03999999,0.03999999,-9.818294550000047,-0.002027186087743378,-0.005266013974922385,0.003974962044864277,-0.012669063219707993,0.00042729775448547744
0.305,2.4892581077003766e-06,-0.7848237600000025,6.384821599889477e-05,-2.3560447299999954,0.00015080853899731095,1.5709885899999991,0.7862369679999889,0.03999999,0.03999999,-9.818264100000047,-0.0020628110272255897,-0.0053163909499217435,0.004063054689863155,-0.012729126121755457,0.0004367237889853574
0.3075,-2.4677893422365102e-06,-0.7848221400000025,6.455969899888571e-05,-2.3560475949999953,0.00015253958849728892,1.570989234999999,0.7862441319999888,0.03999999,0.03999999,-9.818233650000048,-0.002098435966707801,-0.005366767924921102,0.004151147334862033,-0.012789189023802923,0.00044614982348523737
0.31,-7.424836792173395e-06,-0.7848205200000026,6.527118199887665e-05,-2.356050459999995,0.00015427063799726686,1.570989879999999,0.7862512959999887,0.03999999,0.03999999,-9.818203200000049,-0.0021340609061900125,-0.005417144899920461,0.004239239979860912,-0.012849251925850388,0.00045557585798511736
0.3125,-1.2381884242110282e-05,-0.7848189000000025,6.59826649988676e-05,-2.356053324999995,0.00015600168749724483,1.570990524999999,0.7862584599999887,0.03999999,0.03999999,-9.818172750000048,-0.002169685845672224,-0.005467521874919819,0.00432733262485979,-0.012909314827897853,0.00046500189248499735
0.315,-1.733893169204717e-05,-0.7848172800000026,6.669414799885853e-05,-2.3560561899999954,0.0001577327369972228,1.570991169999999,0.7862656239999886,0.03999999,0.03999999,-9.81814230000005,-0.002205310785154435,-0.005517898849919178,0.004415425269858668,-0.012969377729945318,0.00047442792698487734
0.3175,-2.253059499084588e-05,-0.7848158785000016,6.743919049868667e-05,-2.3560589699999954,0.00015954562199680376,1.5709918199999988,0.7862731299999868,0.0399999899,0.0399999897,-9.818116350000029,-0.0022377623826774213,-0.00556670447492616,0.004505831964846321,-0.013028770871366498,0.0004841489374833263
0.32,-2.8191489990773807e-05,-0.7848149140000016,6.825135199867632e-05,-2.3560615799999955,0.00016152217799677857,1.5709924799999988,0.7862813199999867,0.0399999896,0.039999988800000004,-9.818099400000028,-0.002263867296235894,-0.005612367399925578,0.004600866759845111,-0.013086824491525383,0.000494459899983195
0.3225,-3.3852384990701733e-05,-0.7848139495000015,6.906351349866599e-05,-2.3560641899999957,0.00016349873399675342,1.5709931399999988,0.7862895099999866,0.0399999893,0.0399999879,-9.818082450000029,-0.0022899722097943667,-0.005658030324924996,0.004695901554843901,-0.01314487811168427,0.0005047708624830638
0.325,-3.951327999062966e-05,-0.7848129850000015,6.987567499865565e-05,-2.356066799999996,0.00016547528999672826,1.570993799999999,0.7862976999999864,0.039999989,0.039999987,-9.818065500000028,-0.0023160771233528394,-0.0057036932499244155,0.004790936349842691,-0.013202931731843155,0.0005150818249829325
0.3275,-4.5174174990557585e-05,-0.7848120205000015,7.06878364986453e-05,-2.356069409999996,0.0001674518459967031,1.570994459999999,0.7863058899999864,0.0399999887,0.0399999861,-9.818048550000029,-0.0023421820369113116,-0.005749356174923834,0.004885971144841481,-0.013260985352002042,0.0005253927874828013
0.33,-5.083506999048552e-05,-0.7848110560000016,7.149999799863496e-05,-2.3560720199999956,0.00016942840199667792,1.570995119999999,0.7863140799999863,0.0399999884,0.039999985200000004,-9.818031600000028,-0.0023682869504697843,-0.005795019099923252,0.004981005939840272,-0.013319038972160926,0.0005357037499826699
0.3325,-5.6495964990413444e-05,-0.7848100915000016,7.231215949862463e-05,-2.3560746299999957,0.00017140495799665276,1.570995779999999,0.7863222699999862,0.0399999881,0.039999984300000006,-9.818014650000029,-0.002394391864028257,-0.005840682024922671,0.0050760407348390615,-0.013377092592319813,0.0005460147124825386
0.335,-6.266104898905099e-05,-0.7848095330000006,7.31964429984297e-05,-2.3560769299999964,0.00017355725399617784,1.5709964699999988,0.7863311799999843,0.0399999876,0.039999983600000004,-9.817993600000039,-0.0024203707463596523,-0.0058713310599605145,0.005175742049825909,-0.013434886000952025,0.0005567498599813218
0.3375,-6.907822748896928e-05,-0.7848091775000006,7.411678749841799e-05,-2.3560790749999962,0.0001757974199961493,1.570997174999999,0.7863404499999841,0.039999987,0.039999983,-9.81797050000004,-0.0024462866130770273,-0.00589447314996022,0.005277776624824609,-0.013492549303819905,0.0005676970999811823
0.34,-7.549540598888758e-05,-0.7848088220000006,7.503713199840627e-05,-2.3560812199999965,0.00017803758599612077,1.5709978799999988,0.786349719999984,0.0399999864,0.0399999824,-9.81794740000004,-0.0024722024797944023,-0.005917615239959925,0.00537981119982331,-0.013550212606687786,0.000578644339981043
0.3425,-8.191258448880588e-05,-0.7848084665000006,7.595747649839455e-05,-2.3560833649999964,0.00018027775199609225,1.5709985849999988,0.7863589899999839,0.039999985800000006,0.0399999818,-9.81792430000004,-0.0024981183465117773,-0.0059407573299596304,0.005481845774822011,-0.013607875909555667,0.0005895915799809037
0.34500000000000003,-8.832976298872418e-05,-0.7848081110000007,7.687782099838283e-05,-2.356085509999996,0.00018251791799606373,1.5709992899999987,0.7863682599999837,0.039999985200000004,0.0399999812,-9.81790120000004,-0.0025240342132291523,-0.005963899419959336,0.005583880349820712,-0.013665539212423548,0.0006005388199807642
0.34750000000000003,-9.474694148864246e-05,-0.7848077555000007,7.779816549837111e-05,-2.356087654999996,0.0001847580839960352,1.5709999949999987,0.7863775299999837,0.0399999846,0.0399999806,-9.81787810000004,-0.0025499500799465277,-0.005987041509959041,0.005685914924819413,-0.01372320251529143,0.0006114860599806249
0.35000000000000003,-0.00010116411998856076,-0.7848074000000007,7.87185099983594e-05,-2.356089799999996,0.00018699824999600668,1.5710006999999986,0.7863867999999835,0.039999984,0.03999998,-9.81785500000004,-0.0025758659466639027,-0.006010183599958747,0.005787949499818114,-0.01378086581815931,0.0006224332999804855
0.3525,-0.0001083902304870266,-0.7848076549999996,7.975456059813993e-05,-2.3560916599999966,0.0001895205944954715,1.5710013899999986,0.7863972249999813,0.0399999834,0.03999997895,-9.817802200000095,-0.0025900323060086615,-0.0060219414099788905,0.005897159069803931,-0.013837696937742118,0.0006342768889787367
0.355,-0.0001156163409869346,-0.7848079099999996,8.079061119812673e-05,-2.3560935199999964,0.0001920429389954394,1.5710020799999986,0.7864076499999811,0.0399999828,0.0399999779,-9.817749400000096,-0.002604198665332476,-0.006033699219978741,0.006006368639802541,-0.013894528057323444,0.0006461204779785859
0.3575,-0.0001228424514868426,-0.7848081649999996,8.182666179811354e-05,-2.3560953799999966,0.00019456528349540728,1.5710027699999987,0.7864180749999811,0.0399999822,0.03999997685,-9.817696600000096,-0.0026183650246562906,-0.006045457029978591,0.0061155782098011495,-0.013951359176904772,0.0006579640669784351
0.36,-0.0001300685619867506,-0.7848084199999996,8.286271239810036e-05,-2.3560972399999964,0.00019708762799537516,1.5710034599999987,0.7864284999999809,0.0399999816,0.039999975800000004,-9.817643800000097,-0.002632531383980105,-0.006057214839978442,0.006224787779799759,-0.014008190296486098,0.0006698076559782843
0.3625,-0.00013729467248665858,-0.7848086749999996,8.389876299808716e-05,-2.3560990999999967,0.00019960997249534305,1.5710041499999987,0.7864389249999808,0.039999981,0.03999997475,-9.817591000000098,-0.00264669774330392,-0.006068972649978292,0.006333997349798368,-0.014065021416067424,0.0006816512449781334
0.365,-0.0001445207829865666,-0.7848089299999995,8.493481359807397e-05,-2.3561009599999965,0.0002021323169953109,1.5710048399999987,0.7864493499999806,0.039999980399999996,0.039999973700000004,-9.817538200000099,-0.0026608641026277346,-0.006080730459978143,0.006443206919796978,-0.01412185253564875,0.0006934948339779826
0.3675,-0.00015203411448486178,-0.7848094014999983,8.601193079783018e-05,-2.356102774999997,0.00020475477599471664,1.5710055399999987,0.7864601849999782,0.03999997985,0.03999997285,-9.817502800000002,-0.0026806232402452343,-0.0060936218099716275,0.006554795184782231,-0.014178704144326607,0.000705552801976628
0.37,-0.0001601218879847588,-0.7848103059999983,8.717118119781543e-05,-2.3561044999999967,0.0002075774639946807,1.5710062599999985,0.786471839999978,0.039999979399999996,0.0399999724,-9.817502200000002,-0.0027115679345441055,-0.0061087802399714345,0.006671140839780749,-0.014235596731197868,0.0007180395279764691
0.3725,-0.00016820966148465582,-0.7848112104999984,8.833043159780066e-05,-2.356106224999997,0.00021040015199464475,1.5710069799999986,0.7864834949999778,0.03999997895,0.039999971950000004,-9.817501600000002,-0.0027425126288429763,-0.0061239386699712415,0.0067874864947792685,-0.014292489318069129,0.0007305262539763101
0.375,-0.00017629743498455284,-0.7848121149999983,8.94896819977859e-05,-2.3561079499999966,0.00021322283999460884,1.5710076999999987,0.7864951499999777,0.0399999785,0.0399999715,-9.817501000000002,-0.0027734573231418475,-0.006139097099971048,0.006903832149777787,-0.014349381904940388,0.0007430129799761512
0.3775,-0.00018438520848444986,-0.7848130194999983,9.064893239777115e-05,-2.356109674999997,0.0002160455279945729,1.5710084199999987,0.7865068049999776,0.03999997805,0.039999971050000006,-9.817500400000002,-0.0028044020174407187,-0.006154255529970855,0.007020177804776305,-0.014406274491811649,0.0007554997059759922
0.38,-0.00019247298198434687,-0.7848139239999983,9.180818279775638e-05,-2.3561113999999965,0.00021886821599453695,1.5710091399999986,0.7865184599999774,0.0399999776,0.039999970600000004,-9.8174998,-0.0028353467117395894,-0.006169413959970662,0.007136523459774824,-0.01446316707868291,0.0007679864319758332
0.3825,-0.00020056075548424392,-0.7848148284999983,9.296743319774163e-05,-2.3561131249999967,0.00022169090399450103,1.5710098599999986,0.7865301149999773,0.03999997715,0.03999997015,-9.8174992,-0.0028662914060384606,-0.006184572389970469,0.007252869114773342,-0.014520059665554171,0.0007804731579756742
0.385,-0.00020925811898234796,-0.784816156999997,9.421385399747048e-05,-2.3561147499999966,0.00022472616099383986,1.5710105799999987,0.7865426699999745,0.039999976300000004,0.039999969,-9.817498500000001,-0.002889618207662268,-0.006189370810000748,0.007373972999757866,-0.014577400591111532,0.0007934749899740001
0.3875,-0.00021826027748223333,-0.784817697499997,9.550385999745405e-05,-2.356116324999997,0.00022786770249379984,1.5710112999999986,0.7865556749999743,0.03999997525,0.039999967500000004,-9.817497750000001,-0.0029091360629150795,-0.006188989225000753,0.0074974559997562935,-0.014634965686013916,0.0008067343749738313
0.39,-0.00022726243598211873,-0.784819237999997,9.679386599743763e-05,-2.356117899999997,0.00023100924399375986,1.5710120199999986,0.7865686799999742,0.0399999742,0.039999966000000005,-9.817497000000001,-0.002928653918167891,-0.006188607640000758,0.0076209389997547216,-0.014692530780916297,0.0008199937599736625
0.3925,-0.00023626459448200412,-0.784820778499997,9.80838719974212e-05,-2.3561194749999967,0.00023415078549371987,1.5710127399999987,0.7865816849999739,0.03999997315000001,0.039999964500000006,-9.817496250000001,-0.0029481717734207028,-0.006188226055000763,0.007744421999753149,-0.01475009587581868,0.0008332531449734937
0.395,-0.0002452667529818895,-0.7848223189999969,9.937387799740477e-05,-2.356121049999997,0.00023729232699367986,1.5710134599999985,0.7865946899999738,0.0399999721,0.039999963000000006,-9.817495500000001,-0.002967689628673514,-0.006187844470000768,0.007867904999751577,-0.014807660970721061,0.0008465125299733249
0.3975,-0.0002542689114817749,-0.7848238594999969,0.00010066388399738835,-2.3561226249999967,0.00024043386849363987,1.5710141799999986,0.7866076949999736,0.039999971050000006,0.03999996150000001,-9.817494750000002,-0.0029872074839263256,-0.006187462885000773,0.007991387999750004,-0.014865226065623443,0.000859771914973156
0.4,-0.0002632710699816603,-0.7848253999999969,0.00010195388999737192,-2.356124199999997,0.0002435754099935999,1.5710148999999984,0.7866206999999734,0.03999997,0.03999996,-9.817494000000002,-0.003006725339179137,-0.006187081300000777,0.008114870999748433,-0.014922791160525826,0.0008730312999729872
0.4025,-0.0002732402214795634,-0.7848275749999956,0.00010338216149707206,-2.3561253699999978,0.00024705419949286854,1.5710160999999976,0.7866350849999705,0.0399999694,0.0399999591,-9.81750929999997,-0.0030232435906897975,-0.006180898465012675,0.008245359599732499,-0.014981587836398339,0.0008871955899709634
0.405,-0.00028320937297943643,-0.7848297499999956,0.00010481043299705387,-2.3561265399999978,0.00025053298899282425,1.5710172999999976,0.7866494699999703,0.0399999688,0.039999958200000005,-9.817524599999969,-0.0030397618421943474,-0.006174715630012754,0.008375848199730838,-0.01504038451227336,0.000901359879970783
0.40750000000000003,-0.0002931785244793095,-0.7848319249999955,0.00010623870449703568,-2.3561277099999978,0.00025401177849277996,1.5710184999999974,0.7866638549999702,0.0399999682,0.0399999573,-9.817539899999968,-0.003056280093698897,-0.0061685327950128325,0.008506336799729177,-0.01509918118814838,0.0009155241699706027
0.41000000000000003,-0.00030314767597918254,-0.7848340999999954,0.0001076669759970175,-2.3561288799999978,0.0002574905679927356,1.5710196999999975,0.7866782399999699,0.0399999676,0.0399999564,-9.817555199999967,-0.003072798345203447,-0.006162349960012911,0.008636825399727516,-0.015157977864023403,0.0009296884599704223
0.41250000000000003,-0.00031311682747905566,-0.7848362749999954,0.0001090952474969993,-2.3561300499999978,0.0002609693574926913,1.5710208999999975,0.7866926249999697,0.039999967,0.0399999555,-9.817570499999968,-0.0030893165967079963,-0.00615616712501299,0.008767313999725855,-0.015216774539898423,0.000943852749970242
0.41500000000000004,-0.0003230859789789287,-0.7848384499999954,0.00011052351899698113,-2.3561312199999978,0.00026444814699264703,1.5710220999999975,0.7867070099999696,0.039999966399999996,0.0399999546,-9.817585799999968,-0.0031058348482125462,-0.006149984290013069,0.008897802599724192,-0.015275571215773444,0.0009580170399700617
0.4175,-0.00033339493797663385,-0.784840844999994,0.00011200036949665301,-2.3561322749999984,0.00026804538949184705,1.5710233099999973,0.7867218799999663,0.039999966,0.039999954,-9.817576500000124,-0.003118441987306875,-0.006142043440024362,0.009030664849707387,-0.015333515684932006,0.000972393749968526
0.42,-0.00034438351197649394,-0.7848436799999939,0.00011357437799663297,-2.3561330999999983,0.00027187953799179824,1.5710245399999974,0.7867377199999661,0.039999966,0.039999954,-9.817518000000126,-0.0031232269015060645,-0.006130586560024508,0.009168274399705634,-0.015389755740641376,0.0009871952999683375
0.4225,-0.00035537208597635403,-0.7848465149999939,0.00011514838649661294,-2.356133924999998,0.00027571368649174943,1.5710257699999972,0.7867535599999659,0.039999966,0.039999954,-9.817459500000126,-0.0031280118157052533,-0.006119129680024654,0.009305883949703882,-0.015445995796350745,0.001001996849968149
0.425,-0.0003663606599762141,-0.7848493499999939,0.0001167223949965929,-2.356134749999998,0.00027954783499170056,1.5710269999999973,0.7867693999999658,0.039999966,0.039999954,-9.817401000000126,-0.0031327967299044426,-0.0061076728000248,0.009443493499702131,-0.015502235852060113,0.0010167983999679606
0.4275,-0.0003773492339760742,-0.7848521849999939,0.00011829640349657286,-2.3561355749999984,0.00028338198349165175,1.5710282299999974,0.7867852399999655,0.039999966,0.039999954,-9.817342500000128,-0.0031375816441036315,-0.006096215920024945,0.009581103049700378,-0.015558475907769483,0.001031599949967772
0.43,-0.0003883378079759343,-0.7848550199999937,0.00011987041199655282,-2.3561363999999982,0.00028721613199160295,1.5710294599999972,0.7868010799999653,0.039999966,0.039999954,-9.817284000000129,-0.003142366558302821,-0.006084759040025091,0.009718712599698627,-0.015614715963478852,0.0010464014999675836
0.4325,-0.0003993263819757944,-0.7848578549999937,0.00012144442049653279,-2.356137224999998,0.00029105028049155414,1.5710306899999973,0.7868169199999652,0.039999966,0.039999954,-9.817225500000129,-0.00314715147250201,-0.006073302160025237,0.009856322149696874,-0.01567095601918822,0.0010612030499673952
0.435,-0.000411029333973061,-0.7848611099999923,0.0001231205609961419,-2.3561379299999987,0.0002951335439906009,1.571031949999997,0.7868337999999612,0.0399999654,0.0399999536,-9.817205900000001,-0.003164236643299629,-0.0060559330200454006,0.009998613699676933,-0.015727314539127648,0.001076515989965224
0.4375,-0.0004230894749725784,-0.7848645749999921,0.00012484776749607278,-2.3561385749999983,0.0002993413649904325,1.571033224999997,0.7868511999999604,0.0399999645,0.039999953,-9.817205750000001,-0.003187471942457544,-0.006035607750046214,0.010143246249671145,-0.015783732291182698,0.001092084624964601
0.44,-0.0004351496159720958,-0.784868039999992,0.00012657497399600368,-2.3561392199999984,0.0003035491859902641,1.571034499999997,0.7868685999999597,0.0399999636,0.0399999524,-9.817205600000001,-0.003210707241615459,-0.006015282480047028,0.010287878799665357,-0.015840150043237744,0.001107653259963978
0.4425,-0.00044720975697161317,-0.7848715049999918,0.00012830218049593456,-2.3561398649999985,0.00030775700699009576,1.571035774999997,0.7868859999999591,0.0399999627,0.0399999518,-9.81720545,-0.0032339425407733745,-0.005994957210047841,0.010432511349659569,-0.01589656779529279,0.001123221894963355
0.445,-0.00045926989797113056,-0.7848749699999917,0.00013002938699586543,-2.3561405099999986,0.00031196482798992735,1.5710370499999968,0.7869033999999584,0.039999961800000004,0.0399999512,-9.8172053,-0.0032571778399312894,-0.005974631940048654,0.010577143899653781,-0.01595298554734784,0.0011387905299627319
0.4475,-0.00047133003897064795,-0.7848784349999915,0.0001317565934957963,-2.3561411549999987,0.000316172648989759,1.5710383249999968,0.7869207999999577,0.039999960900000006,0.0399999506,-9.81720515,-0.003280413139089205,-0.005954306670049468,0.010721776449647993,-0.016009403299402886,0.0011543591649621088
0.45,-0.00048339017997016534,-0.7848818999999915,0.0001334837999957272,-2.3561417999999983,0.00032038046998959064,1.5710395999999969,0.786938199999957,0.03999996,0.03999995,-9.817205,-0.0033036484382471198,-0.005933981400050281,0.010866408999642205,-0.016065821051457933,0.0011699277999614858
0.4525,-0.0004965737279675781,-0.7848860549999898,0.0001353715964953574,-2.356142369999999,0.0003249799844886886,1.571040874999997,0.7869572049999533,0.03999996,0.03999995,-9.81721729999997,-0.0033126718364433487,-0.005899924335083755,0.011018004099627188,-0.01612347541362761,0.0011862638049598253
0.455,-0.00050975727596777,-0.7848902099999898,0.00013725939299538486,-2.3561429399999985,0.0003295794989887555,1.571042149999997,0.7869762099999535,0.03999996,0.03999995,-9.817229599999969,-0.0033216952346044205,-0.00586586727008326,0.011169599199629393,-0.016181129775800343,0.001202599809960063
0.4575,-0.0005229408239679618,-0.7848943649999899,0.00013914718949541234,-2.3561435099999986,0.0003341790134888224,1.571043424999997,0.7869952149999538,0.03999996,0.03999995,-9.81724189999997,-0.003330718632765492,-0.005831810205082764,0.0113211942996316,-0.016238784137973077,0.0012189358149603008
0.46,-0.0005361243719681537,-0.7848985199999899,0.00014103498599543981,-2.3561440799999986,0.00033877852798888935,1.571044699999997,0.787014219999954,0.03999996,0.03999995,-9.81725419999997,-0.003339742030926563,-0.005797753140082269,0.011472789399633806,-0.01629643850014581,0.0012352718199605385
0.4625,-0.0005493079199683456,-0.78490267499999,0.0001429227824954673,-2.3561446499999987,0.0003433780424889563,1.571045974999997,0.7870332249999543,0.03999996,0.03999995,-9.81726649999997,-0.0033487654290876344,-0.005763696075081773,0.011624384499636011,-0.016354092862318544,0.0012516078249607762
0.465,-0.0005624914679685374,-0.7849068299999901,0.00014481057899549477,-2.356145219999999,0.00034797755698902323,1.571047249999997,0.7870522299999546,0.03999996,0.03999995,-9.81727879999997,-0.0033577888272487057,-0.005729639010081277,0.011775979599638218,-0.016411747224491277,0.0012679438299610139
0.4675,-0.0005760665979658123,-0.7849112099999885,0.0001467543554951052,-2.356145779999999,0.0003527136264880729,1.571048529999997,0.7870718024999507,0.03999996,0.03999995,-9.817293049999957,-0.0033658332191262483,-0.00569172387010865,0.011929901999622421,-0.016469857282795985,0.0012845341549592864
0.47000000000000003,-0.0005904248919656295,-0.7849160399999884,0.00014881009199507901,-2.356146319999999,0.0003577228059880091,1.571049819999997,0.7870925099999504,0.03999996,0.03999995,-9.817311199999956,-0.0033719195984157906,-0.005646092580109232,0.012088478999620402,-0.016528878733374396,0.0013016331199590687
0.47250000000000003,-0.0006047831859654466,-0.7849208699999883,0.00015086582849505284,-2.3561468599999986,0.00036273198548794535,1.5710511099999969,0.7871132174999501,0.03999996,0.03999995,-9.817329349999957,-0.0033780059777053333,-0.005600461290109812,0.012247055999618383,-0.016587900183952804,0.0013187320849588511
0.47500000000000003,-0.0006191414799652638,-0.7849256999999883,0.00015292156499502668,-2.356147399999999,0.0003677411649878816,1.5710523999999968,0.7871339249999498,0.03999996,0.03999995,-9.817347499999956,-0.0033840923569948755,-0.005554830000110394,0.012405632999616363,-0.01664692163453121,0.0013358310499586334
0.47750000000000004,-0.000633499773965081,-0.7849305299999882,0.0001549773014950005,-2.3561479399999987,0.00037275034448781775,1.571053689999997,0.7871546324999495,0.03999996,0.03999995,-9.817365649999957,-0.003390178736284418,-0.005509198710110974,0.012564209999614344,-0.01670594308510962,0.0013529300149584156
0.48,-0.0006478580679648979,-0.7849353599999882,0.0001570330379949743,-2.3561484799999985,0.0003777595239877539,1.5710549799999969,0.7871753399999494,0.03999996,0.03999995,-9.817383799999956,-0.0033962651155739604,-0.0054635674201115566,0.012722786999612322,-0.01676496453568803,0.0013700289799581976
0.4825,-0.000662216361964715,-0.7849401899999882,0.00015908877449494812,-2.356149019999999,0.0003827687034876901,1.5710562699999968,0.7871960474999491,0.03999996,0.03999995,-9.817401949999956,-0.003402351494863503,-0.005417936130112137,0.012881363999610302,-0.016823985986266436,0.0013871279449579799
0.485,-0.0006773918339615043,-0.7849454529999865,0.0001612613249944891,-2.3561492799999995,0.00038806291098657025,1.5710579099999955,0.7872179289999445,0.03999996,0.0399999497,-9.817418199999963,-0.003397010755752436,-0.005362776430148024,0.013044498799591396,-0.01688444279119154,0.0014048202899555634
0.4875,-0.000692975894961306,-0.7849509324999864,0.0001634922824944607,-2.3561493999999996,0.000393499632486501,1.5710597249999954,0.7872403974999442,0.03999996,0.03999994925,-9.817433499999963,-0.003385956457377772,-0.005302852525148787,0.01320991249958929,-0.016945617273297933,0.0014228093249553345
0.49,-0.0007085599559611076,-0.7849564119999863,0.00016572323999443229,-2.3561495199999998,0.0003989363539864318,1.5710615399999954,0.7872628659999439,0.03999996,0.039999948800000004,-9.817448799999962,-0.003374902159003108,-0.00524292862014955,0.013375326199587183,-0.01700679175540433,0.0014407983599551055
0.4925,-0.0007241440169609092,-0.7849618914999862,0.00016795419749440389,-2.3561496399999995,0.0004043730754863626,1.5710633549999955,0.7872853344999436,0.03999996,0.03999994835,-9.817464099999961,-0.0033638478606284436,-0.005183004715150313,0.013540739899585078,-0.017067966237510727,0.0014587873949548765
0.495,-0.0007397280779607107,-0.7849673709999861,0.00017018515499437549,-2.3561497599999996,0.0004098097969862934,1.5710651699999953,0.7873078029999433,0.03999996,0.0399999479,-9.817479399999963,-0.0033527935622537793,-0.005123080810151076,0.013706153599582972,-0.01712914071961712,0.0014767764299546474
0.4975,-0.0007553121389605123,-0.7849728504999861,0.00017241611249434706,-2.35614988,0.00041524651848622414,1.5710669849999954,0.7873302714999431,0.03999996,0.039999947450000004,-9.817494699999962,-0.003341739263879115,-0.005063156905151839,0.013871567299580867,-0.017190315201723518,0.0014947654649544184
0.5,-0.0007708961999603139,-0.784978329999986,0.00017464706999431866,-2.3561499999999995,0.0004206832399861549,1.5710687999999953,0.7873527399999428,0.03999996,0.039999947,-9.817509999999961,-0.0033306849655044507,-0.005003233000152601,0.014036980999578761,-0.017251489683829915,0.0015127544999541894
0.5025000000000001,-0.0007877564339568498,-0.7849845504999841,0.00017706044999382344,-2.3561498500000004,0.00042656491398494707,1.5710706299999952,0.7873770594999377,0.0399999609,0.03999994745,-9.817496350000035,-0.003344107849954642,-0.0049659439000954335,0.014209201399559238,-0.01731064468607066,0.0015313566299523917
0.505,-0.0008046166679566346,-0.7849907709999839,0.00017947382999379267,-2.3561497000000005,0.00043244658798487207,1.5710724599999952,0.7874013789999375,0.0399999618,0.0399999479,-9.817482700000035,-0.0033575307344671655,-0.00492865480009591,0.01438142179955704,-0.01736979968830626,0.0015499587599521545
0.5075000000000001,-0.0008214769019564204,-0.7849969914999839,0.00018188720999376198,-2.3561495500000005,0.0004383282619847973,1.5710742899999952,0.7874256984999372,0.039999962699999995,0.03999994835,-9.817469050000035,-0.00337095361897969,-0.004891365700096384,0.014553642199554852,-0.017428954690541863,0.001568560889951918
0.51,-0.0008383371359562054,-0.7850032119999838,0.0001843005899937312,-2.3561494,0.0004442099359847223,1.5710761199999952,0.7874500179999369,0.039999963599999994,0.0399999488,-9.817455400000036,-0.0033843765034922138,-0.004854076600096859,0.014725862599552655,-0.017488109692777462,0.0015871630199516807
0.5125,-0.0008551973699559902,-0.7850094324999838,0.00018671396999370043,-2.35614925,0.0004500916099846473,1.5710779499999952,0.7874743374999364,0.0399999645,0.03999994925,-9.817441750000036,-0.0033977993880047377,-0.0048167875000973345,0.014898082999550458,-0.017547264695013064,0.0016057651499514435
0.515,-0.000872057603955776,-0.7850156529999838,0.00018912734999366977,-2.3561491,0.0004559732839845725,1.5710797799999952,0.7874986569999362,0.0399999654,0.039999949699999995,-9.817428100000035,-0.003411222272517262,-0.004779498400097808,0.01507030339954827,-0.017606419697248667,0.001624367279951207
0.5175,-0.0008893598469520659,-0.7850220984999818,0.0001916039099931394,-2.356148880000001,0.00046200908998327874,1.571081619999995,0.7875236049999309,0.03999996634999999,0.0399999504,-9.817419199999998,-0.00341900989879833,-0.004728892365203584,0.01524474234952853,-0.01766585772841246,0.0016432174849490082
0.52,-0.0009075461079518347,-0.7850289939999818,0.00019420682999310632,-2.356148520000001,0.0004683531599831981,1.571083479999995,0.7875498099999305,0.039999967399999996,0.0399999516,-9.817419799999998,-0.003415527008483024,-0.0046516524602045655,0.015423618399526258,-0.01772586181743934,0.0016625638399487624
0.5225,-0.0009257323689516029,-0.7850358894999817,0.00019680974999307312,-2.356148160000001,0.0004746972299831172,1.5710853399999951,0.7875760149999302,0.03999996845,0.039999952799999995,-9.817420399999998,-0.0034120441181677186,-0.00457441255520555,0.015602494449523975,-0.017785865906466223,0.0016819101949485157
0.525,-0.0009439186299513716,-0.7850427849999816,0.00019941266999304005,-2.356147800000001,0.0004810412999830366,1.5710871999999951,0.7876022199999299,0.039999969499999996,0.039999954,-9.817420999999998,-0.0034085612278524128,-0.004497172650206532,0.0157813704995217,-0.017845869995493105,0.0017012565499482696
0.5275,-0.0009621048909511397,-0.7850496804999815,0.00020201558999300684,-2.356147440000001,0.0004873853699829557,1.571089059999995,0.7876284249999296,0.03999997055,0.0399999552,-9.817421599999998,-0.0034050783375371074,-0.004419932745207517,0.01596024654951942,-0.017905874084519983,0.0017206029049480229
0.53,-0.0009802911519509086,-0.7850565759999814,0.00020461850999297377,-2.3561470800000013,0.000493729439982875,1.571090919999995,0.7876546299999292,0.039999971599999996,0.0399999564,-9.817422199999998,-0.0034015954472218016,-0.004342692840208499,0.016139122599517147,-0.017965878173546865,0.001739949259947777
0.5325,-0.0009984774129506767,-0.7850634714999813,0.00020722142999294056,-2.3561467200000012,0.0005000735099827941,1.571092779999995,0.7876808349999289,0.03999997265,0.0399999576,-9.817422799999997,-0.003398112556906496,-0.004265452935209484,0.016317998649514866,-0.018025882262573747,0.0017592956149475303
0.535,-0.001017580549946698,-0.7850708729999791,0.00020995539499237185,-2.3561462600000014,0.0005067373199814067,1.571094639999995,0.7877083689999231,0.0399999734,0.0399999582,-9.817421000000008,-0.003381867543855812,-0.004180178700243304,0.01650137029949422,-0.018086909688841437,0.0017791347799452702
0.5375,-0.0010371421249464484,-0.7850785274999791,0.00021275488249233615,-2.3561457500000014,0.0005135609999813197,1.571096499999995,0.7877365674999227,0.039999974,0.0399999585,-9.817418000000009,-0.003359241469359441,-0.004090887300244443,0.01668698974949185,-0.018148448783735782,0.001799220349945014
0.54,-0.0010567036999462,-0.7850861819999789,0.00021555436999230057,-2.3561452400000014,0.0005203846799812329,1.571098359999995,0.7877647659999224,0.0399999746,0.0399999588,-9.817415000000008,-0.0033366153948630687,-0.004001595900245578,0.01687260919948949,-0.01820998787863013,0.0018193059199447586
0.5425,-0.0010762652749459504,-0.7850938364999788,0.00021835385749226487,-2.3561447300000014,0.0005272083599811458,1.5711002199999948,0.7877929644999221,0.039999975199999996,0.0399999591,-9.817412000000008,-0.003313989320366697,-0.003912304500246717,0.017058228649487125,-0.018271526973524476,0.0018393914899445024
0.545,-0.0010958268499457018,-0.7851014909999787,0.00022115334499222928,-2.3561442200000013,0.0005340320399810591,1.5711020799999948,0.7878211629999217,0.0399999758,0.0399999594,-9.817409000000008,-0.003291363245870325,-0.0038230131002478514,0.017243848099484767,-0.018333066068418825,0.0018594770599442473
0.5475,-0.0011153884249454522,-0.7851091454999786,0.0002239528324921936,-2.3561437100000013,0.0005408557199809721,1.5711039399999949,0.7878493614999214,0.0399999764,0.0399999597,-9.817406000000009,-0.0032687371713739535,-0.0037337217002489905,0.017429467549482398,-0.01839460516331317,0.001879562629943991
0.55,-0.0011349499999452036,-0.7851167999999785,0.000226752319992158,-2.3561432000000013,0.0005476793999808854,1.571105799999995,0.787877559999921,0.039999977,0.03999996,-9.81740300000001,-0.003246111096877581,-0.0036444303002501253,0.01761508699948004,-0.018456144258207515,0.0018996481999437357
0.5525,-0.0011559354649409474,-0.7851251759999763,0.00022975534099154956,-2.3561426300000017,0.0005549996849794009,1.5711081999999932,0.7879078149999148,0.039999977,0.039999959700000004,-9.817439899999897,-0.0032484723138555757,-0.0035577329552439643,0.017807211949459365,-0.018519335146815544,0.0019205949649410562
0.555,-0.0011769209299406806,-0.7851335519999763,0.0002327583619915114,-2.3561420600000016,0.0005623199699793078,1.5711105999999933,0.7879380699999144,0.039999977,0.0399999594,-9.817476799999897,-0.0032508335309035657,-0.003471035610245066,0.017999336899456923,-0.0185825260354282,0.0019415417299407899
0.5575,-0.001197906394940413,-0.7851419279999762,0.00023576138299147308,-2.3561414900000015,0.0005696402549792146,1.571112999999993,0.7879683249999141,0.039999977,0.0399999591,-9.817513699999894,-0.0032531947479515553,-0.003384338265246172,0.01819146184945447,-0.018645716924040854,0.0019624884949405227
0.56,-0.0012188918599401464,-0.7851503039999761,0.0002387644039914349,-2.3561409200000014,0.0005769605399791215,1.5711153999999932,0.7879985799999136,0.039999977,0.039999958800000006,-9.817550599999894,-0.0032555559649995454,-0.003297640920247274,0.01838358679945203,-0.01870890781265351,0.0019834352599402564
0.5625,-0.0012398773249398787,-0.785158679999976,0.0002417674249913966,-2.3561403500000018,0.0005842808249790281,1.5711177999999932,0.7880288349999133,0.039999977,0.0399999585,-9.817587499999894,-0.0032579171820475354,-0.0032109435752483797,0.01857571174944958,-0.018772098701266164,0.002004382024939989
0.5650000000000001,-0.001260862789939612,-0.7851670559999758,0.00024477044599135843,-2.3561397800000017,0.000591601109978935,1.571120199999993,0.7880590899999129,0.039999977,0.039999958200000005,-9.817624399999893,-0.0032602783990955254,-0.0031242462302494816,0.01876783669944714,-0.01883528958987882,0.002025328789939723
0.5675,-0.00128233887993509,-0.7851756829999736,0.0002478435899907121,-2.356139165000002,0.0005990924849773581,1.571122609999993,0.7880900519999063,0.039999977,0.039999958,-9.817653699999958,-0.0032567726448618083,-0.0030366056302587666,0.01896210409942611,-0.018898367788460928,0.002046471244937759
0.5700000000000001,-0.0013047962199348045,-0.7851848119999735,0.00025105697999067123,-2.356138460000002,0.0006069260399772585,1.571125039999993,0.788122427999906,0.039999977,0.039999958,-9.817667799999958,-0.003241532947912282,-0.0029470785202599043,0.019160656399423586,-0.018961220606979013,0.0020680050799374854
0.5725,-0.001327253559934518,-0.7851939409999734,0.00025427036999063027,-2.356137755000002,0.0006147595949771587,1.5711274699999929,0.7881548039999056,0.039999977,0.039999958,-9.81768189999996,-0.0032262932509627565,-0.0028575514102610463,0.019359208699421055,-0.019024073425497095,0.002089538914937211
0.5750000000000001,-0.0013497108999342327,-0.7852030699999732,0.0002574837599905894,-2.3561370500000023,0.000622593149977059,1.5711298999999928,0.7881871799999052,0.039999977,0.039999958,-9.817695999999959,-0.00321105355401323,-0.002768024300262184,0.01955776099941853,-0.019086926244015184,0.002111072749936937
0.5775,-0.0013721682399339462,-0.7852121989999732,0.00026069714999054847,-2.356136345000002,0.0006304267049769592,1.5711323299999929,0.7882195559999048,0.039999977,0.039999958,-9.817710099999958,-0.0031958138570637043,-0.002678497190263326,0.019756313299415997,-0.019149779062533265,0.0021326065849366625
0.58,-0.0013946255799336597,-0.785221327999973,0.0002639105399905075,-2.356135640000002,0.0006382602599768592,1.5711347599999927,0.7882519319999044,0.039999977,0.039999958,-9.817724199999958,-0.0031805741601141787,-0.0025889700802644677,0.019954865599413465,-0.019212631881051347,0.002154140419936388
0.5825,-0.0014170829199333743,-0.785230456999973,0.00026712392999046666,-2.3561349350000023,0.0006460938149767596,1.5711371899999926,0.788284307999904,0.039999977,0.039999958,-9.817738299999958,-0.0031653344631646526,-0.002499442970265606,0.02015341789941094,-0.019275484699569436,0.002175674254936114
0.585,-0.001440552919928562,-0.7852401099999705,0.00027048206798977874,-2.356134000000003,0.0006542805699750812,1.5711396199999927,0.7883181399998971,0.039999977299999996,0.0399999582,-9.817759799999925,-0.00314720771281285,-0.0023937435003390265,0.020356202799389492,-0.019339557736919314,0.002197685839933704
0.5875,-0.0014645292499282573,-0.7852500249999703,0.00027391257998973513,-2.3561329500000032,0.0006626439249749748,1.5711420499999926,0.7883526999998967,0.03999997775,0.0399999585,-9.817784999999924,-0.003127637435740609,-0.0022799578503404725,0.02056110399938689,-0.019404240883693254,0.0022199362999334215
0.59,-0.0014885055799279516,-0.7852599399999702,0.0002773430919896914,-2.3561319000000034,0.0006710072799748682,1.5711444799999927,0.7883872599998961,0.039999978199999994,0.0399999588,-9.817810199999924,-0.0031080671586683683,-0.0021661722003419237,0.020766005199384277,-0.019468924030467186,0.002242186759933138
0.5925,-0.0015124819099276467,-0.78526985499997,0.0002807736039896478,-2.356130850000003,0.0006793706349747619,1.5711469099999926,0.7884218199998957,0.03999997865,0.0399999591,-9.817835399999923,-0.0030884968815961273,-0.00205238655034337,0.02097090639938167,-0.019533607177241126,0.0022644372199328547
0.595,-0.001536458239927341,-0.78527976999997,0.000284204115989604,-2.3561298000000033,0.0006877339899746553,1.5711493399999927,0.7884563799998953,0.0399999791,0.0399999594,-9.817860599999925,-0.0030689266045238867,-0.0019386009003448212,0.021175807599379058,-0.019598290324015062,0.002286687679932571
0.5975,-0.0015604345699270362,-0.7852896849999699,0.0002876346279895604,-2.3561287500000034,0.0006960973449745489,1.5711517699999926,0.7884909399998948,0.039999979549999995,0.0399999597,-9.817885799999925,-0.0030493563274516457,-0.0018248152503462676,0.021380708799376456,-0.019662973470789,0.0023089381399322884
0.6,-0.0015844108999267304,-0.7852995999999697,0.0002910651399895167,-2.356127700000003,0.0007044606999744423,1.5711541999999927,0.7885254999998944,0.03999998,0.03999996,-9.817910999999924,-0.003029786050379405,-0.0017110296003477188,0.021585609999373843,-0.019727656617562934,0.0023311885999320043
0.6025,-0.001609952704921622,-0.7853102949999672,0.0002947194189887864,-2.3561265300000036,0.0007133700204726606,1.5711569599999915,0.788562324999887,0.03999998,0.03999996,-9.817889100000068,-0.0029883506709117895,-0.0015758321854148695,0.02179677744935201,-0.019793279655076303,0.0023541420349295645
0.605,-0.001635494509921296,-0.785320989999967,0.0002983736979887398,-2.3561253600000036,0.000722279340972547,1.5711597199999916,0.7885991499998866,0.03999998,0.03999996,-9.817867200000068,-0.002946915291377358,-0.001440634770416594,0.022007944899349315,-0.01985890269259254,0.002377095469929272
0.6075,-0.0016610363149209715,-0.7853316849999669,0.00030202797698869336,-2.3561241900000036,0.0007311886614724338,1.5711624799999915,0.788635974999886,0.03999998,0.03999996,-9.817845300000068,-0.002905479911842925,-0.0013054373554183124,0.02221911234934663,-0.01992452573010878,0.00240004890492898
0.61,-0.0016865781199206457,-0.7853423799999668,0.0003056822559886468,-2.3561230200000036,0.0007400979819723202,1.5711652399999914,0.7886727999998856,0.03999998,0.03999996,-9.817823400000067,-0.0028640445323084933,-0.0011702399404200366,0.02243027979934394,-0.01999014876762502,0.0024230023399286873
0.6125,-0.0017121199249203211,-0.7853530749999666,0.0003093365349886003,-2.3561218500000036,0.0007490073024722069,1.5711679999999912,0.7887096249998852,0.03999998,0.03999996,-9.817801500000067,-0.0028226091527740597,-0.001035042525421755,0.022641447249341255,-0.02005577180514126,0.0024459557749283954
0.615,-0.0017376617299199953,-0.7853637699999665,0.0003129908139885537,-2.3561206800000036,0.0007579166229720933,1.5711707599999913,0.7887464499998846,0.03999998,0.03999996,-9.817779600000069,-0.002781173773239628,-0.0008998451104234793,0.02285261469933856,-0.020121394842657497,0.0024689092099281027
0.6175,-0.0017637405849143567,-0.7853747199999639,0.00031672184798774773,-2.3561194050000047,0.0007670132834701264,1.5711735949999905,0.7887840429998766,0.03999998019999999,0.03999996,-9.817775549999899,-0.0027495407965412934,-0.0007703698596722824,0.02306583069931457,-0.020187151990622612,0.0024921362399250133
0.62,-0.0017908935399132695,-0.7853861799999634,0.0003206063919875922,-2.356117920000005,0.0007764846239697471,1.5711765799999904,0.7888231719998751,0.039999980799999994,0.03999996,-9.817807199999898,-0.0027375126257922397,-0.0006523389375770081,0.02328314379930587,-0.020253177359489265,0.0025159104599240616
0.6225,-0.0018180464949121835,-0.7853976399999629,0.00032449093598743684,-2.356116435000005,0.0007859559644693684,1.5711795649999902,0.7888623009998734,0.039999981399999995,0.03999996,-9.817838849999898,-0.002725484455043186,-0.0005343080154817288,0.023500456899297178,-0.02031920272835592,0.002539684679923111
0.625,-0.0018451994499110963,-0.7854090999999624,0.0003283754799872813,-2.3561149500000047,0.0007954273049689891,1.57118254999999,0.7889014299998719,0.039999981999999996,0.03999996,-9.817870499999897,-0.0027134562842941324,-0.0004162770933864546,0.023717769999288478,-0.020385228097222572,0.0025634588999221587
0.6275000000000001,-0.0018723524049100103,-0.785420559999962,0.00033226002398712595,-2.356113465000005,0.0008048986454686103,1.5711855349999901,0.7889405589998704,0.0399999826,0.03999996,-9.817902149999895,-0.0027014281135450784,-0.0002982461712911752,0.02393508309927979,-0.020451253466089225,0.002587233119921208
0.63,-0.001899505359908923,-0.7854320199999615,0.0003361445679869704,-2.356111980000005,0.0008143699859682311,1.57118851999999,0.7889796879998687,0.0399999832,0.03999996,-9.817933799999894,-0.002689399942796025,-0.00018021524919590106,0.024152396199271085,-0.02051727883495588,0.0026110073399202563
0.6325000000000001,-0.0019266583149078371,-0.7854434799999611,0.00034002911198681505,-2.356110495000005,0.0008238413264678523,1.5711915049999898,0.7890188169998672,0.0399999838,0.03999996,-9.817965449999893,-0.002677371772046971,-6.218432710062172e-05,0.024369709299262396,-0.020583304203822532,0.0026347815599193055
0.635,-0.001954915269902111,-0.7854554899999582,0.00034407146398599653,-2.356108910000006,0.0008336976859658553,1.5711944999999898,0.789059540999859,0.0399999844,0.039999960599999995,-9.817978799999986,-0.002651274856292516,7.203924211641571e-05,0.02459106219924101,-0.02064968366153266,0.0026589241699173406
0.6375000000000001,-0.0019837242249025307,-0.7854677749999585,0.0003481927199860566,-2.3561072750000056,0.0008437465549660017,1.5711974999999898,0.7891010624998596,0.039999985,0.0399999615,-9.817982999999986,-0.002618143567927493,0.00021435913501849,0.024814434999244264,-0.020716240163667243,0.002683250974917695
0.64,-0.0020125331799029493,-0.7854800599999586,0.00035231397598611646,-2.3561056400000053,0.0008537954239661477,1.5712004999999898,0.7891425839998601,0.0399999856,0.0399999624,-9.817987199999985,-0.0025850122795624715,0.000356679027920558,0.02503780779924751,-0.020782796665801826,0.0027075777799180486
0.6425,-0.002041342134903368,-0.7854923449999588,0.00035643523198617636,-2.3561040050000055,0.0008638442929662937,1.57120349999999,0.7891841054998607,0.0399999862,0.0399999633,-9.817991399999986,-0.00255188099119745,0.0004989989208226261,0.025261180599250758,-0.02084935316793641,0.002731904584918402
0.645,-0.0020701510899037876,-0.785504629999959,0.00036055648798623643,-2.356102370000005,0.0008738931619664402,1.57120649999999,0.7892256269998613,0.0399999868,0.039999964199999995,-9.817995599999986,-0.002518749702832427,0.0006413188137247003,0.025484553399254012,-0.02091590967007099,0.0027562313899187566
0.6475,-0.0020989600449042066,-0.7855169149999591,0.0003646777439862963,-2.3561007350000054,0.0008839420309665863,1.57120949999999,0.789267148499862,0.0399999874,0.03999996509999999,-9.817999799999987,-0.002485618414467406,0.0007836387066267684,0.02570792619925726,-0.020982466172205574,0.00278055819491911
0.65,-0.0021277689999046265,-0.7855291999999594,0.00036879899998635635,-2.356099100000005,0.0008939908999667326,1.57121249999999,0.7893086699998626,0.039999988,0.039999966,-9.818003999999986,-0.0024524871261023826,0.0009259585995288427,0.025931298999260513,-0.02104902267434016,0.002804884999919465
0.6525,-0.002158278039898609,-0.7855423249999564,0.00037316325598549623,-2.3560973900000053,0.0009046327399646339,1.5712157249999892,0.7893526394998539,0.039999988,0.039999966,-9.818024099999933,-0.00241406147846676,0.001085725084469047,0.02616060714923794,-0.02111730333394958,0.002829891424916896
0.655,-0.0021887870798982215,-0.7855554499999562,0.00037752751198544076,-2.3560956800000055,0.0009152745799644986,1.5712189499999891,0.7893966089998533,0.039999988,0.039999966,-9.818044199999933,-0.0023756358308136085,0.0012454915694670166,0.026389915299235026,-0.021185583993564714,0.002854897849916578
0.6575,-0.002219296119897832,-0.785568574999956,0.0003818917679853851,-2.3560939700000056,0.0009259164199643629,1.571222174999989,0.7894405784998528,0.039999988,0.039999966,-9.818064299999932,-0.0023372101831604587,0.001405258054464979,0.0266192234492321,-0.021253864653179844,0.002879904274916259
0.66,-0.0022498051598974444,-0.7855816999999559,0.00038625602398532964,-2.3560922600000054,0.0009365582599642276,1.5712253999999892,0.7894845479998522,0.039999988,0.039999966,-9.818084399999933,-0.0022987845355073072,0.0015650245394629482,0.026848531599229186,-0.021322145312794975,0.0029049106999159413
0.6625,-0.0022803141998970554,-0.7855948249999557,0.00039062027998527395,-2.3560905500000056,0.000947200099964092,1.5712286249999892,0.7895285174998516,0.039999988,0.039999966,-9.818104499999931,-0.002260358887854157,0.0017247910244609106,0.027077839749226264,-0.021390425972410105,0.0029299171249156223
0.665,-0.0023108232398966677,-0.7856079499999555,0.0003949845359852185,-2.3560888400000057,0.0009578419399639567,1.571231849999989,0.789572486999851,0.039999988,0.039999966,-9.818124599999932,-0.0022219332402010055,0.0018845575094588798,0.02730714789922335,-0.02145870663202524,0.0029549235499153046
0.6675,-0.0023419133998903515,-0.7856213549999524,0.00039943185548431566,-2.3560871150000056,0.0009686864749617536,1.571235184999988,0.789617289999842,0.039999987800000004,0.0399999657,-9.818142049999958,-0.002175980247764493,0.002050224524396662,0.027538393199200664,-0.021527492347867425,0.0029801523399127176
0.67,-0.0023741657998899417,-0.7856353199999523,0.000404045301984257,-2.3560853600000056,0.0009799363999616105,1.5712387399999879,0.7896637599998414,0.0399999872,0.0399999648,-9.818154199999958,-0.002114972565531223,0.0022276925993944064,0.027773512799197677,-0.021597288176179168,0.0030058258599123915
0.6725,-0.0024064181998895303,-0.7856492849999521,0.0004086587484841982,-2.356083605000006,0.000991186324961467,1.5712422949999878,0.7897102299998409,0.0399999866,0.039999963900000005,-9.818166349999958,-0.002053964883297956,0.002405160674392143,0.02800863239919468,-0.021667084004490907,0.003031499379912064
0.675,-0.0024386705998891206,-0.785663249999952,0.0004132721949841396,-2.356081850000006,0.0010024362499613242,1.5712458499999877,0.7897566999998403,0.039999986,0.039999963,-9.818178499999958,-0.0019929572010646867,0.0025826287493898874,0.02824375199919169,-0.02173687983280265,0.003057172899911738
0.6775,-0.002470922999888709,-0.7856772149999518,0.0004178856414840807,-2.356080095000006,0.0010136861749611807,1.5712494049999879,0.7898031699998397,0.0399999854,0.0399999621,-9.818190649999957,-0.0019319495188314197,0.002760096824387624,0.02847887159918869,-0.02180667566111439,0.0030828464199114105
0.68,-0.002503175399888299,-0.7856911799999516,0.0004224990879840221,-2.356078340000006,0.0010249360999610377,1.5712529599999878,0.7898496399998391,0.039999984800000006,0.0399999612,-9.818202799999957,-0.00187094183659815,0.0029375648993853684,0.0287139911991857,-0.021876471489426133,0.003108519939911084
0.6825,-0.0025354277998878875,-0.7857051449999515,0.0004271125344839632,-2.356076585000006,0.0010361860249608942,1.5712565149999878,0.7898961099998385,0.039999984200000005,0.039999960300000005,-9.818214949999957,-0.001809934154364883,0.003115032974383105,0.028949110799182703,-0.021946267317737876,0.0031341934599107566
0.685,-0.002568870639881248,-0.7857196799999483,0.0004318961289830142,-2.356074620000007,0.001047851249958578,1.5712600899999876,0.7899443099998289,0.039999984599999996,0.039999960599999995,-9.818249249999841,-0.0017695655115996553,0.003284124199424687,0.029188042599159764,-0.022016631625346193,0.003160387569907706
0.6875,-0.0026029086998808136,-0.7857344999999482,0.0004367647974829521,-2.356072550000007,0.0010597241249584264,1.5712636749999875,0.7899933749998282,0.0399999855,0.0399999615,-9.81829462499984,-0.0017395163887300685,0.0034490269994225838,0.029428880499156693,-0.022087280172607245,0.0031868419749073685
0.6900000000000001,-0.002636946759880381,-0.7857493199999479,0.0004416334659828902,-2.356070480000007,0.0010715969999582757,1.5712672599999875,0.7900424399998276,0.0399999864,0.0399999624,-9.81833999999984,-0.0017094672658604804,0.003613929799420488,0.02966971839915363,-0.022157928719868304,0.0032132963799070325
0.6925,-0.002670984819879947,-0.7857641399999478,0.00044650213448282813,-2.3560684100000073,0.001083469874958124,1.5712708449999875,0.7900915049998269,0.0399999873,0.0399999633,-9.818385374999838,-0.0016794181429908939,0.0037788325994183845,0.02991055629915056,-0.022228577267129356,0.003239750784906695
0.6950000000000001,-0.0027050228798795144,-0.7857789599999475,0.0004513708029827662,-2.3560663400000075,0.0010953427499579733,1.5712744299999875,0.7901405699998263,0.039999988199999996,0.039999964199999995,-9.81843074999984,-0.0016493690201213058,0.0039437353994162885,0.0301513941991475,-0.022299225814390415,0.0032662051899063588
0.6975,-0.00273906093987908,-0.7857937799999474,0.0004562394714827041,-2.3560642700000076,0.0011072156249578218,1.5712780149999874,0.7901896349998256,0.039999989099999994,0.03999996509999999,-9.818476124999838,-0.001619319897251719,0.004108638199414185,0.030392232099144427,-0.022369874361651467,0.0032926595949060214
0.7000000000000001,-0.0027730989998786476,-0.7858085999999471,0.00046110813998264224,-2.3560622000000078,0.001119088499957671,1.5712815999999872,0.790238699999825,0.03999999,0.039999966,-9.818521499999838,-0.001589270774382131,0.00427354099941209,0.030633069999141366,-0.022440522908912526,0.003319113999905685
0.7025,-0.0028089641498716764,-0.7858242749999439,0.0004662379734816457,-2.356059950000008,0.0011315986349552394,1.5712854099999864,0.7902903824998151,0.0399999897,0.0399999651,-9.818523524999993,-0.0015368921916942679,0.004467690199305344,0.030879419499118575,-0.022512326203029703,0.0033460865499034937
0.705,-0.0028448292998712187,-0.7858399499999437,0.0004713678069815803,-2.356057700000008,0.00114410876995508,1.5712892199999864,0.7903420649998144,0.0399999894,0.0399999642,-9.818525549999993,-0.001484513608926796,0.004661839399302868,0.03112576899911543,-0.022584129497150995,0.00337305909990315
0.7075,-0.002880694449870763,-0.7858556249999435,0.00047649764048151514,-2.3560554500000084,0.001156618904954921,1.5712930299999863,0.7903937474998137,0.0399999891,0.039999963300000003,-9.818527574999992,-0.0014321350261593216,0.0048559885993004,0.031372118499112304,-0.022655932791272294,0.003400031649902807
0.71,-0.0029165595998703058,-0.7858712999999433,0.00048162747398144967,-2.3560532000000083,0.0011691290399547614,1.5712968399999863,0.790445429999813,0.039999988800000004,0.039999962400000005,-9.818529599999993,-0.0013797564433918497,0.005050137799297924,0.03161846799910916,-0.022727736085393586,0.0034270041999024626
0.7125,-0.0029524247498698497,-0.7858869749999431,0.0004867573074813845,-2.356050950000008,0.0011816391749546024,1.5713006499999862,0.7904971124998124,0.0399999885,0.0399999615,-9.818531624999993,-0.0013273778606243754,0.005244286999295456,0.03186481749910603,-0.022799539379514885,0.00345397674990212
0.715,-0.0029882898998693924,-0.785902649999943,0.0004918871409813191,-2.356048700000008,0.0011941493099544428,1.5713044599999861,0.7905487949998118,0.0399999882,0.0399999606,-9.818533649999994,-0.0012749992778569035,0.00543843619929298,0.03211116699910289,-0.022871342673636177,0.003480949299901776
0.7175,-0.003024777649862111,-0.7859186229999395,0.0004971059609802784,-2.356046375000009,0.0012068766499519026,1.571308374999985,0.7906013699998014,0.039999988349999994,0.039999960499999994,-9.818541249999932,-0.0012205368375685095,0.0056347360992669345,0.03235935199907963,-0.02294350629645765,0.003508133384899114
0.72,-0.0030625105998616296,-0.7859351919999392,0.0005025027539802095,-2.356043900000009,0.0012200383999517346,1.5713124999999848,0.7906557299998006,0.0399999894,0.03999996199999999,-9.818559999999932,-0.0011619066821698222,0.005835337399264376,0.03261120799907642,-0.023016390576691307,0.003535740539898762
0.7225,-0.00310024354986115,-0.785951760999939,0.0005078995469801409,-2.356041425000009,0.0012332001499515675,1.5713166249999848,0.7907100899998,0.039999990449999995,0.0399999635,-9.818578749999931,-0.0011032765267711324,0.006035938699261827,0.032863063999073225,-0.023089274856924965,0.003563347694898411
0.725,-0.0031379764998606687,-0.7859683299999388,0.0005132963399800721,-2.356038950000009,0.0012463618999513995,1.5713207499999848,0.7907644499997992,0.0399999915,0.039999965,-9.818597499999932,-0.0010446463713724452,0.0062365399992592675,0.03311491999907001,-0.02316215913715862,0.003590954849898059
0.7275,-0.003175709449860189,-0.7859848989999386,0.0005186931329800035,-2.356036475000009,0.0012595236499512322,1.5713248749999849,0.7908188099997985,0.039999992549999995,0.0399999665,-9.81861624999993,-0.0009860162159737553,0.006437141299256719,0.03336677599906681,-0.023235043417392277,0.003618562004897708
0.73,-0.0032134423998597082,-0.7860014679999384,0.0005240899259799347,-2.356034000000009,0.0012726853999510644,1.5713289999999847,0.7908731699997978,0.0399999936,0.039999968,-9.81863499999993,-0.0009273860605750682,0.00663774259925416,0.0336186319990636,-0.023307927697625935,0.003646169159897356
0.7325,-0.003251175349859228,-0.7860180369999381,0.0005294867189798661,-2.356031525000009,0.001285847149950897,1.5713331249999847,0.7909275299997971,0.03999999465,0.039999969499999996,-9.81865374999993,-0.0008687559051763783,0.00683834389925161,0.033870487999060395,-0.023380811977859593,0.0036737763148970053
0.735,-0.0032901798998516067,-0.7860351939999346,0.0005350652749787766,-2.35602891000001,0.0012994525199482383,1.5713372599999846,0.7909837309997861,0.039999995,0.039999969600000004,-9.818650300000053,-0.0007920460778704526,0.007053722699166072,0.0341259561990369,-0.023453816957498232,0.0037018786598938726
0.7375,-0.003329820249851103,-0.7860526449999344,0.0005407347124787046,-2.3560262250000097,0.0013132796999480625,1.5713413999999846,0.7910408524997854,0.039999995,0.039999969,-9.818635750000054,-0.0007062964144589675,0.007276490249163241,0.03438323049903363,-0.023526882286840377,0.0037302285998935124
0.74,-0.0033694605998505975,-0.7860700959999342,0.0005464041499786322,-2.35602354000001,0.001327106879947886,1.5713455399999845,0.7910979739997847,0.039999995,0.0399999684,-9.818621200000054,-0.0006205467510474862,0.007499257799160401,0.03464050479903035,-0.02359994761618252,0.0037585785398931504
0.7425,-0.0034091009498500935,-0.786087546999934,0.0005520735874785602,-2.35602085500001,0.0013409340599477104,1.5713496799999844,0.7911550954997839,0.039999995,0.0399999678,-9.818606650000055,-0.000534797087636001,0.00772202534915757,0.034897779099027075,-0.023673012945524666,0.00378692847989279
0.745,-0.0034487412998495883,-0.7861049979999337,0.0005577430249784878,-2.35601817000001,0.001354761239947534,1.5713538199999844,0.7912122169997832,0.039999995,0.0399999672,-9.818592100000055,-0.0004490474242245197,0.007944792899154729,0.0351550533990238,-0.02374607827486681,0.0038152784198924286
0.7475,-0.0034883816498490843,-0.7861224489999336,0.0005634124624784158,-2.35601548500001,0.0013685884199473584,1.5713579599999843,0.7912693384997825,0.039999995,0.0399999666,-9.818577550000054,-0.0003632977608130346,0.008167560449151897,0.03541232769902053,-0.023819143604208955,0.0038436283598920684
0.75,-0.0035280219998485786,-0.7861398999999334,0.0005690818999783435,-2.35601280000001,0.001382415599947182,1.5713620999999842,0.7913264599997818,0.039999995,0.039999966,-9.818563000000054,-0.00027754809740155326,0.008390327999149056,0.035669601999017246,-0.0238922089335511,0.003871978299891707
0.7525000000000001,-0.0035696085998406157,-0.7861583049999294,0.0005750295649772051,-2.356009935000011,0.0013969216649444044,1.5713665699999828,0.7913863909997703,0.039999994250000004,0.0399999651,-9.818603499999844,-0.00022980156372902724,0.008613670499144022,0.03593199759899435,-0.0239671730433511,0.0039008180048894694
0.755,-0.0036111951998400852,-0.7861767099999293,0.0005809772299771292,-2.356007070000011,0.0014114277299442193,1.5713710399999827,0.7914463219997695,0.039999993500000004,0.0399999642,-9.818643999999844,-0.00018205503020167068,0.008837012999141173,0.036194393198991,-0.024042137153158345,0.003929657709889102
0.7575000000000001,-0.0036527817998395565,-0.786195114999929,0.0005869248949770536,-2.3560042050000107,0.001425933794944035,1.5713755099999829,0.7915062529997687,0.039999992750000005,0.039999963300000003,-9.818684499999843,-0.00013430849667431198,0.009060355499138334,0.036456788798987665,-0.0241171012629656,0.003958497414888735
0.76,-0.0036943683998390264,-0.7862135199999288,0.0005928725599769777,-2.356001340000011,0.0014404398599438498,1.5713799799999828,0.791566183999768,0.039999992000000005,0.039999962400000005,-9.818724999999842,-8.656196314695542e-05,0.009283697999135485,0.03671918439898432,-0.024192065372772846,0.003987337119888367
0.7625000000000001,-0.0037359549998384977,-0.7862319249999286,0.0005988202249769021,-2.355998475000011,0.0014549459249436655,1.5713844499999827,0.7916261149997673,0.039999991250000005,0.03999996150000001,-9.818765499999841,-3.881542961959675e-05,0.009507040499132646,0.03698157999898098,-0.0242670294825801,0.0040161768248880006
0.765,-0.003777541599837967,-0.7862503299999283,0.0006047678899768263,-2.355995610000011,0.0014694519899434806,1.5713889199999826,0.7916860459997666,0.039999990500000006,0.0399999606,-9.818805999999842,8.931103907759837e-06,0.009730382999129797,0.03724397559897764,-0.024341993592387347,0.004045016529887633
0.7675000000000001,-0.0038197895698296827,-0.7862690399999245,0.0006108100899756421,-2.355992750000011,0.0014841887899405904,1.5713934749999816,0.7917469269997546,0.03999999025,0.0399999603,-9.818836999999952,6.589977972532901e-05,0.009959646949057517,0.03750806279895447,-0.024417107458862844,0.004074054949884936
0.77,-0.003863360279829127,-0.7862883599999243,0.0006170413599755626,-2.355989900000011,0.0014993870599403964,1.5713981999999815,0.7918097079997538,0.039999991,0.039999961199999996,-9.818848999999952,0.00014131274044740664,0.010200753799054444,0.03777553319895105,-0.024492520838680087,0.004103490799884561
0.7725,-0.003906930989828571,-0.786307679999924,0.0006232726299754831,-2.355987050000011,0.0015145853299402027,1.5714029249999815,0.791872488999753,0.03999999175,0.039999962099999994,-9.818860999999952,0.00021672570116948429,0.010441860649051369,0.03804300359894764,-0.02456793421849733,0.004132926649884185
0.775,-0.003950501699828017,-0.7863269999999237,0.0006295038999754039,-2.355984200000011,0.0015297835999400094,1.5714076499999814,0.7919352699997522,0.0399999925,0.03999996299999999,-9.818872999999952,0.00029213866189156527,0.010682967499048304,0.038310473998944244,-0.024643347598314578,0.004162362499883812
0.7775,-0.0039940724098274615,-0.7863463199999234,0.0006357351699753245,-2.355981350000011,0.0015449818699398157,1.5714123749999813,0.7919980509997514,0.03999999325,0.0399999639,-9.818884999999952,0.0003675516226136429,0.010924074349045229,0.03857794439894083,-0.02471876097813182,0.004191798349883436
0.78,-0.0040376431198269076,-0.7863656399999233,0.0006419664399752453,-2.355978500000011,0.0015601801399396224,1.5714170999999812,0.7920608319997506,0.039999994,0.039999964799999996,-9.818896999999952,0.00044296458333572386,0.011165181199042164,0.03884541479893743,-0.02479417435794907,0.004221234199883061
0.7825,-0.004081213829826352,-0.786384959999923,0.0006481977099751658,-2.3559756500000115,0.0015753784099394286,1.5714218249999812,0.7921236129997498,0.039999994750000004,0.039999965699999994,-9.818908999999952,0.0005183775440578015,0.01140628804903909,0.03911288519893402,-0.024869587737766312,0.004250670049882686
0.785,-0.004126132059817717,-0.786404909999919,0.0006546215969739314,-2.3559726500000124,0.0015910468399364158,1.571426579999981,0.7921883309997374,0.039999995,0.039999965400000004,-9.818925399999927,0.0006129261102089696,0.011662702098944225,0.03938370379891054,-0.024946141987730618,0.004280589649879411
0.7875,-0.004171724049817136,-0.7864251749999187,0.0006611417924738482,-2.3559695750000125,0.001606950349936213,1.5714313499999808,0.7922540174997366,0.039999995,0.039999964500000006,-9.818943999999926,0.0007170424792464518,0.011926769748940858,0.039656196498907066,-0.025023266672778686,0.004310751124879026
0.79,-0.004217316039816556,-0.7864454399999184,0.0006676619879737654,-2.3559665000000125,0.0016228538599360107,1.571436119999981,0.7923197039997357,0.039999995,0.0399999636,-9.818962599999924,0.0008211588482839383,0.0121908373989375,0.0399286891989036,-0.02510039135782676,0.004340912599878643
0.7925,-0.0042629080298159745,-0.7864657049999182,0.0006741821834736823,-2.3559634250000125,0.001638757369935808,1.5714408899999808,0.7923853904997349,0.039999995,0.0399999627,-9.818981199999925,0.0009252752173214204,0.012454905048934133,0.040201181898900124,-0.025177516042874833,0.004371074074878258
0.795,-0.004308500019815396,-0.7864859699999179,0.0006807023789735994,-2.3559603500000126,0.0016546608799356058,1.5714456599999806,0.792451076999734,0.039999995,0.039999961800000004,-9.818999799999924,0.0010293915863589071,0.012718972698930776,0.04047367459889666,-0.025254640727922908,0.004401235549877875
0.7975,-0.004354092009814814,-0.7865062349999177,0.0006872225744735162,-2.3559572750000126,0.001670564389935403,1.5714504299999805,0.7925167634997332,0.039999995,0.039999960900000006,-9.819018399999925,0.0011335079553963893,0.012983040348927409,0.04074616729889319,-0.02533176541297098,0.00443139702487749
0.8,-0.004399683999814235,-0.7865264999999174,0.0006937427699734333,-2.3559542000000127,0.0016864678999352009,1.5714551999999804,0.7925824499997324,0.039999995,0.03999996000000001,-9.819036999999923,0.001237624324433876,0.013247107998924052,0.04101865999888972,-0.025408890098019055,0.004461558499877106
0.8025,-0.0044473329998052456,-0.7865477099999133,0.0007005570119721483,-2.3559509000000136,0.0017030890549320648,1.5714603749999787,0.7926511064997194,0.03999999575,0.03999996149999999,-9.819071799999858,0.0013016926587733752,0.013506683598939044,0.04129600549886641,-0.025487514305538382,0.004492176829874854
0.805,-0.00449498199980464,-0.7865689199999131,0.0007073712539720617,-2.3559476000000137,0.0017197102099318535,1.5714655499999788,0.7927197629997186,0.0399999965,0.03999996299999999,-9.819106599999857,0.001365760992949701,0.013766259198935744,0.04157335099886288,-0.025566138513063823,0.004522795159874465
0.8075,-0.004542630999804032,-0.7865901299999127,0.0007141854959719747,-2.3559443000000138,0.0017363313649316416,1.5714707249999786,0.7927884194997177,0.03999999725,0.0399999645,-9.819141399999857,0.0014298293271260238,0.014025834798932433,0.04185069649885935,-0.02564476272058926,0.0045534134898740745
0.81,-0.004590279999803427,-0.7866113399999125,0.0007209997379718882,-2.3559410000000134,0.0017529525199314303,1.5714758999999787,0.7928570759997168,0.039999998,0.039999966,-9.819176199999857,0.0014938976613023494,0.014285410398929135,0.04212804199885582,-0.0257233869281147,0.004584031819873686
0.8125,-0.004637928999802819,-0.7866325499999122,0.0007278139799718013,-2.3559377000000135,0.0017695736749312183,1.5714810749999786,0.7929257324997159,0.03999999875,0.0399999675,-9.819210999999855,0.0015579659954786723,0.014544985998925824,0.04240538749885229,-0.025802011135640138,0.004614650149873295
0.8150000000000001,-0.004685577999802213,-0.7866537599999119,0.0007346282219717146,-2.3559344000000135,0.0017861948299310072,1.5714862499999787,0.792994388999715,0.0399999995,0.039999968999999996,-9.819245799999855,0.001622034329654998,0.014804561598922525,0.04268273299884876,-0.02588063534316558,0.004645268479872906
0.8175,-0.004733924379792895,-0.7866752999999076,0.0007415421654703824,-2.3559310400000144,0.0018030593249277556,1.571491464999978,0.7930640494997016,0.04,0.03999997015,-9.819273299999946,0.0016959503289139088,0.015069409198853361,0.04296163864882573,-0.02595935566317952,0.0046760721898702
0.8200000000000001,-0.0047836655197922625,-0.7866974999999072,0.000748655511970292,-2.3559275600000142,0.001820410499927535,1.571496759999978,0.7931357179997007,0.04,0.039999970600000004,-9.819286199999945,0.001789561658706644,0.015344800798849862,0.04324366459882215,-0.02603826820817407,0.004707246659869804
0.8225,-0.004833406659791628,-0.786719699999907,0.0007557688584702013,-2.3559240800000145,0.0018377616749273137,1.5715020549999779,0.7932073864996998,0.04,0.03999997105,-9.819299099999945,0.001883172988499375,0.015620192398846348,0.04352569054881856,-0.02611718075316862,0.0047384211298694065
0.8250000000000001,-0.004883147799790996,-0.7867418999999067,0.0007628822049701109,-2.3559206000000144,0.0018551128499270932,1.5715073499999779,0.7932790549996989,0.04,0.0399999715,-9.819311999999945,0.00197678431829211,0.01589558399884285,0.04380771649881497,-0.02619609329816317,0.00476959559986901
0.8275,-0.004932888939790361,-0.7867640999999065,0.0007699955514700201,-2.3559171200000146,0.0018724640249268719,1.5715126449999777,0.7933507234996979,0.04,0.03999997195,-9.819324899999945,0.0020703956480848415,0.016170975598839336,0.04408974244881138,-0.02627500584315772,0.004800770069868612
