rsonawane2002/My_IMU/logs_2/traj_400/clean_400.csv
time,j1,j2,j3,j4,j5,j6,j7,gripper1,gripper2,imu_ax,imu_ay,imu_az,imu_gx,imu_gy,imu_gz,quat_x,quat_y,quat_z,quat_w
1647.4833333321637,0.00016700293,-0.785875,4.0107683e-05,-2.3551247,9.29385e-05,1.570997,0.786,0.04,0.04,0.0,-0.0,0.0,2.875329272945135e-08,-0.0011641195053377316,4.421952117202833e-08,0.9999995971961153,0.00020320632366974898,0.0008736418299892524,3.263050917662294e-05
1647.4999999988304,0.0001670032,-0.78576016,4.010465e-05,-2.3552213,9.296911e-05,1.5709941,0.786,0.04,0.04,-0.29199845943883584,-1.7006471038984476e-05,0.020128412639452975,6.629315266913757e-07,-0.0022392423490761016,2.058849747913988e-07,0.9999996850577659,0.0002032120052907498,0.0007665025186200864,3.2605811851679664e-05
1647.516666665497,0.00016698481,-0.7856541,4.0032384e-05,-2.35531,9.296289e-05,1.5709913,0.786,0.04,0.04,0.023131103820350774,0.00012976632741618695,-0.0015688270111002822,4.604110166573603e-06,-0.0032296289044506273,1.0784134194852734e-06,0.9999997558965087,0.00020325113574971767,0.0006677078456379003,3.259035993633478e-05
1647.5333333321637,0.00016691428,-0.78555644,3.9777486e-05,-2.355391,9.286249e-05,1.5709884,0.786,0.04,0.04,0.022197246276656202,0.0003436007600731946,-0.0013895230094540523,1.5138150542156907e-05,-0.004144550561405516,3.3245254159901625e-06,0.9999998123800099,0.00020338058239451924,0.0005769001844360817,3.259541285043961e-05
1647.5499999988303,0.00016674156,-0.785466,3.9177394e-05,-2.3554645,9.2586975e-05,1.5709856,0.786,0.04,0.04,0.021010031254364847,0.0006513367838704574,-0.0007673391959839293,3.495505074044089e-05,-0.004989087020096288,7.535086543178126e-06,0.9999998569316273,0.000203682885403761,0.0004935430929208424,3.263774839992298e-05
1647.566666665497,0.00016640162,-0.7853822,3.802487e-05,-2.3555312,9.203429e-05,1.5709827,0.786,0.04,0.04,0.018663131995633186,0.0010443573371715187,-0.0008102528727960134,6.644449891901209e-05,-0.005768415620669586,1.4234723928992957e-05,0.9999998917277738,0.00020426390547464304,0.00041683190660933567,3.273925799171816e-05
1647.5833333321636,0.00016581616,-0.7853042,3.607277e-05,-2.3555903,9.1081696e-05,1.5709828,0.786,0.04,0.04,0.020306274827230908,0.001513925735580372,0.002319175803799922,0.00011199685108739116,-0.006492260444379424,2.389750780936602e-05,0.9999999177319541,0.000205250221737438,0.0003483163430120071,3.2926533232789395e-05
1647.5999999988303,0.00016489481,-0.78523123,3.303838e-05,-2.3556454,8.958872e-05,1.5709834,0.786,0.04,0.04,0.0126416471287083,0.0020533882758204847,-0.0007315964951848386,0.0001734767875183518,-0.0071449564194237345,3.694246703335635e-05,0.9999999375692241,0.000206787090731572,0.00028459893351392084,3.3227910404604405e-05
1647.616666665497,0.00016353646,-0.7851623,2.8606793e-05,-2.355695,8.739886e-05,1.570984,0.786,0.04,0.04,0.013800979110722977,0.002653713218012582,0.00013340829980723612,0.000252792651658847,-0.007760718420671032,5.375035790914273e-05,0.9999999521259106,0.00020903638656171006,0.00022564986965317816,3.36764240284996e-05
1647.6333333321636,0.00016163074,-0.7850968,2.2435031e-05,-2.3557377,8.432622e-05,1.5709848,0.786,0.03999999,0.03999999,0.015582229693156258,0.003319361646604167,0.0013286687456259827,0.00035137378401778606,-0.008340665555186842,7.4955420984135e-05,0.9999999621148775,0.00021217456514551798,0.00017197578559016222,3.430053142934198e-05
1647.6499999988303,0.00015905855,-0.7850337,1.4154654e-05,-2.3557732,8.0200516e-05,1.5709858,0.786,0.039999988,0.039999988,0.014828698989122202,0.0040133242888966405,0.0019261468733988707,0.0004704294415615871,-0.008879613477840921,0.00010010726505095048,0.9999999683893166,0.0002163914971671419,0.00012312963275687178,3.514511696977745e-05
1647.666666665497,0.00015569357,-0.78497237,3.375153e-06,-2.3558028,7.482784e-05,1.5709867,0.786,0.03999998,0.039999977,0.012105449160482173,0.004759171721797657,0.001645213661904954,0.0006113015646424063,-0.009383997393545373,0.00013099733610945726,0.9999999716713724,0.00022188849084109848,7.815772164590902e-05,3.6250827491239654e-05
1647.6833333321636,0.00015140293,-0.78491163,-1.0313314e-05,-2.3558269,6.8003166e-05,1.5709912,0.786,0.039999973,0.039999966,0.011072138763434936,0.005543067263605734,0.004686038405909976,0.000775146826550055,-0.009861955503219406,0.00016676748282333173,0.9999999723782391,0.00022887706571049786,3.795410155019362e-05,3.766027066916073e-05
1647.6999999988302,0.00014604829,-0.784851,-2.7337695e-05,-2.355846,5.9513717e-05,1.5709958,0.7859981,0.039999966,0.039999958,0.008713792977577128,0.00635974213851185,0.002346303202926947,0.0009624256381333835,-0.010307032937951304,0.00020674623757228905,0.9999999712276644,0.00023662370684472293,4.326201926059426e-07,3.9417059372204634e-05
1647.7166666654969,0.00013948615,-0.78479004,-4.8139522e-05,-2.3558574,4.9140082e-05,1.5710006,0.7859962,0.039999966,0.039999958,0.012604587531717115,0.007204138505616502,0.0037056833731563543,0.0011827921191415987,-0.010740061822320512,0.0002519576923727761,0.9999999682441701,0.0002463100635600136,-3.3393513566720845e-05,4.156783188342812e-05
1647.7333333321635,0.00013156889,-0.7847275,-7.31729e-05,-2.3558612,3.6656642e-05,1.5710088,0.7859943,0.03999997,0.039999958,0.012342833490874838,0.008072873636067844,0.0068702391641695115,0.0014282178990102656,-0.011150274128507467,0.0003033894221427032,0.9999999637487544,0.00025817080587008074,-6.245146277701365e-05,4.416038464504783e-05
1647.7499999988302,0.0001221456,-0.784663,-0.00010290259,-2.3558574,2.1831103e-05,1.5710174,0.7859924,0.03999997,0.039999958,0.01089846915593995,0.008963584983902383,0.004798171003517204,0.0016990643071438623,-0.011530365365896977,0.00035943357899786,0.9999999578546169,0.0002724459319252229,-8.849962455503637e-05,4.72418764454575e-05
1647.7666666654968,0.00011106229,-0.78459585,-0.00013780211,-2.355846,4.4282624e-06,1.5710282,0.7859905,0.039999973,0.03999996,0.010710277803238633,0.009870504746110516,0.006625413719252293,0.0019955885436869305,-0.011897056995820074,0.0004210346250597646,0.9999999506819924,0.0002893802926126265,-0.00011094202985315941,5.086182098951516e-05
1647.7833333321635,9.816255e-05,-0.7845251,-0.00017835216,-2.3558269,-1.5790176e-05,1.5710406,0.78598857,0.039999977,0.03999996,0.009493540041294324,0.01079142239466265,0.006598740616525767,0.002318496499743121,-0.012245038839732277,0.000489109797166751,0.9999999421483429,0.00030922250480177845,-0.00013058343908912016,5.507012746255622e-05
1647.7999999988301,8.3288076e-05,-0.78445,-0.00022503921,-2.3558,-3.906794e-05,1.5710552,0.78598666,0.03999998,0.039999966,0.009228565050345416,0.01172607830647,0.007588273142244972,0.002667871995485172,-0.012583243429623638,0.0005619904486844414,0.999999932155997,0.0003322243420966631,-0.00014739417149455764,5.991615938391322e-05
1647.8166666654968,6.627919e-05,-0.7843698,-0.0002783539,-2.3557649,-6.5647975e-05,1.5710714,0.78598386,0.039999977,0.039999958,0.00868936985105595,0.01266728631562704,0.007743900625345468,0.0030434502489864847,-0.012911391500089629,0.0006414108986775669,0.9999999206091412,0.0003581928031678405,-0.00016185118523926394,6.545090446726369e-05
1647.8333333321634,4.697527e-05,-0.78428406,-0.00033879018,-2.3557203,-9.577585e-05,1.5710913,0.78598005,0.03999998,0.03999996,0.011165398827706063,0.013617361428271054,0.010199012005740471,0.0034497435204924078,-0.013235785137569255,0.0007256509608164605,0.999999907540515,0.0003873243214515359,-0.0001724943369405383,7.172541564611775e-05
1647.84999999883,2.5214971e-05,-0.7841921,-0.00040684358,-2.3556664,-0.00012969963,1.5711113,0.78597623,0.03999998,0.039999958,0.008965656328352445,0.014571475744467335,0.0077618993192807295,0.0038875823644238293,-0.013542257364311534,0.0008163360139036087,0.9999998920590415,0.0004203823799365063,-0.0001815292471334421,7.878890955349333e-05
1647.8666666654967,8.364703e-07,-0.78409284,-0.000483011,-2.3556032,-0.00016766416,1.5711352,0.7859724,0.039999984,0.03999996,0.008944811890176929,0.015527970443839747,0.0111206295758004,0.0043516170818129925,-0.013851854737351118,0.0009119634897970445,0.9999998739264914,0.00045762505913559456,-0.00018764487529099314,8.669318029675415e-05
1647.8833333321634,-2.6321546e-05,-0.783986,-0.0005677887,-2.3555303,-0.00020991958,1.5711626,0.7859686,0.039999988,0.03999997,0.009279165938425038,0.01648817521481799,0.01135611067122344,0.004842322651101379,-0.01415328232424587,0.0010112131937345817,0.9999998525642454,0.0004993100787070332,-0.00019090113568159153,9.548659169746605e-05
1647.89999999883,-5.6420584e-05,-0.78387105,-0.0006616725,-2.3554459,-0.00025670932,1.571192,0.7859629,0.039999984,0.03999997,0.0111573746679694,0.017445204822246103,0.011182916559371314,0.005359254958485743,-0.014448417727808234,0.0011161580625322558,0.9999998277664226,0.0005447418507693585,-0.0001914473039816662,0.00010522058243947039
1647.9166666654967,-8.962138e-05,-0.78374684,-0.00076515606,-2.355351,-0.00030827904,1.5712239,0.78595716,0.039999988,0.039999966,0.008259016869205382,0.018400687449757005,0.011724199636331534,0.005910939819561402,-0.014739278537546474,0.0012300001498999251,0.9999997980985108,0.0005951310593443808,-0.00019020775663704487,0.00011594381953483049
1647.9333333321633,-0.00012608366,-0.7836129,-0.00087873096,-2.3552442,-0.00036487385,1.5712591,0.78595144,0.03999999,0.039999966,0.010560117644931033,0.01935696134510858,0.013396843964974536,0.006488460631147222,-0.015034502646118886,0.001349200913392327,0.9999997627942139,0.0006507342239152691,-0.00018613990128748013,0.00012770443581308996
1647.94999999883,-0.00016596616,-0.7834691,-0.001002885,-2.3551266,-0.00042673774,1.5712982,0.78594536,0.039999995,0.039999977,0.00844141420484057,0.020305539908863912,0.013221666912710539,0.007091598770582334,-0.015324961134565666,0.0014693613941928183,0.9999997207611974,0.0007116269932549067,-0.00017975091480868522,0.00014054948816689968
1647.9666666654966,-0.00020942657,-0.7833148,-0.0011381028,-2.354996,-0.0004941102,1.5713412,0.7859377,0.039999995,0.039999977,0.01188938961422803,0.021253046905801206,0.014588662745640413,0.007721898937303844,-0.01561495130895605,0.0015972608211491162,0.999999671362992,0.0007774673987836881,-0.00017011746910095257,0.00015452636865311635
1647.9833333321633,-0.00025662105,-0.7831491,-0.001284864,-2.3548534,-0.0005672301,1.5713878,0.7859301,0.04,0.03999997,0.00869363418933844,0.02218962998771605,0.014528055909290849,0.008384111331555642,-0.015899317857594596,0.001732751360795517,0.9999996124190123,0.0008492814284096217,-0.0001584026815658068,0.00016968049713704257
1647.99999999883,-0.00030770394,-0.78297144,-0.0014436445,-2.354698,-0.0006463348,1.5714381,0.7859222,0.04,0.039999973,0.009707842513262399,0.02312490667741602,0.015249657569316177,0.009071051016839148,-0.01618660522086882,0.0018696937689926408,0.999999542416193,0.0009271998191681309,-0.0001443987378078208,0.00018605618606596378
1648.0166666654966,-0.0003628284,-0.7827813,-0.0016149138,-2.3545282,-0.00073165394,1.5714923,0.7859127,0.039999988,0.03999994,0.011672277299301648,0.024050613489647755,0.016328255891573384,0.009783423366807329,-0.016477576799108117,0.002018944539278992,0.9999994603107462,0.001010755274442178,-0.00012751036574041005,0.00020369854801662317
1648.0333333321632,-0.00042214547,-0.78257805,-0.0017991358,-2.3543448,-0.0008234215,1.5715507,0.78590316,0.039999977,0.03999992,0.009790739084269973,0.024968919322451797,0.016541945995784957,0.010527273812438008,-0.016765003889359066,0.002168090015088526,0.9999993632186296,0.0011010268902762691,-0.00010830498600457405,0.00022264804588324042
1648.04999999883,-0.00048580358,-0.7823611,-0.0019967693,-2.354147,-0.00092186534,1.5716133,0.78589296,0.03999998,0.03999992,0.010733744492630315,0.025881002630832352,0.017292969769355793,0.011294812644622333,-0.017055711556693845,0.002320455998794051,0.9999992492205076,0.0011979296698902146,-8.660485954390339e-05,0.0002429455195704599
1648.0666666654965,-0.0005539496,-0.7821303,-0.0022082648,-2.3539343,-0.0010272108,1.5716807,0.7858815,0.03999998,0.039999917,0.011176506815635534,0.026782422892670295,0.017894751743408044,0.012088526339677594,-0.01734990266518749,0.0024770438490925445,0.9999991162324244,0.0013014050234977604,-6.205354063598566e-05,0.0002646293501971385
1648.0833333321632,-0.0006267283,-0.7818848,-0.0024340677,-2.3537066,-0.0011396784,1.5717524,0.7858701,0.039999984,0.039999917,0.010456555676330304,0.02767437746860127,0.01822302915006624,0.01291042962566148,-0.017643531191384496,0.0026375930512402834,0.9999989606665065,0.0014123160524508532,-3.515922225861556e-05,0.00028773790787707103
1648.0999999988298,-0.00070428173,-0.78162414,-0.0026746162,-2.3534634,-0.0012594863,1.5718285,0.7858572,0.03999999,0.03999992,0.010743306294780375,0.028558313029593448,0.018564153247235815,0.013755025917360792,-0.017940261648202428,0.0028012020806782653,0.9999987804855732,0.0015301817200203982,-5.953043285950449e-06,0.00031230727048115804
1648.1166666654965,-0.00078675,-0.7813478,-0.0029303413,-2.353204,-0.0013868475,1.5719092,0.78584385,0.039999995,0.03999992,0.011451798285455617,0.029434083292234937,0.019433392347334433,0.014627727905264426,-0.01824291391572873,0.0029692127623831624,0.9999985717287212,0.0016557105732047854,2.583139835973524e-05,0.0003383722127569029
1648.1333333321631,-0.00087427057,-0.7810553,-0.0032016647,-2.3529289,-0.001521973,1.5719955,0.78582966,0.04,0.03999992,0.010320631392302104,0.03029545101633245,0.020208668080745618,0.015524311606742407,-0.018548037242149637,0.003140158850095968,0.9999983310513091,0.0017889508528963045,6.016251262617184e-05,0.00036596436217637736
1648.1499999988298,-0.00096697826,-0.78074634,-0.0034890017,-2.3526373,-0.0016650696,1.5720868,0.7858144,0.039999995,0.03999992,0.011118668171761215,0.03114935188566828,0.02015997982212081,0.01644547968515861,-0.01885832516161436,0.0033155232446127995,0.9999980547688648,0.0019300083174875252,9.700853640725262e-05,0.00039511482461753963
1648.1666666654965,-0.0010650055,-0.7804204,-0.003792762,-2.3523273,-0.0018163372,1.5721831,0.78579855,0.039999995,0.03999991,0.01366619322007434,0.03200382655617236,0.021325775670977265,0.017391995887567933,-0.019172129215900877,0.0034933442637140894,0.9999977380949963,0.0020793457151505514,0.00013702284392357955,0.00042585329421445674
1648.183333332163,-0.0011684824,-0.78007686,-0.0041133417,-2.3520002,-0.0019759766,1.5722849,0.78578144,0.04,0.039999913,0.011027591355072808,0.03282853575667828,0.02148473708800669,0.018361557288458848,-0.01948464477862897,0.0036740212265472857,0.9999973771557538,0.0022368511864352845,0.00017951775045850856,0.0004582049324249623
1648.1999999988298,-0.0012775355,-0.77971536,-0.0044511342,-2.3516555,-0.0021441828,1.572392,0.78576386,0.04,0.039999902,0.01139281435271755,0.033655214403804055,0.021655563072364714,0.019356602637213755,-0.019803893651972316,0.003858940412201455,0.9999969661633529,0.0024031281803921683,0.00022446071533657283,0.0004921955159047896
1648.2166666654964,-0.001392289,-0.7793353,-0.0048065223,-2.3512917,-0.002321144,1.5725049,0.7857451,0.04,0.039999895,0.013309656453763807,0.03447741857274811,0.02304348199535511,0.020372766838372868,-0.020128718199564875,0.004044508301164545,0.9999965004113981,0.0025780324719239574,0.0002725643895818357,0.000527846742919877
1648.233333332163,-0.0015128645,-0.77893656,-0.005179882,-2.3509097,-0.0025070475,1.5726233,0.7857256,0.04,0.039999887,0.011331675248937856,0.03527305676626329,0.022408972965637375,0.021413296383062587,-0.020453150246335094,0.004232010001937228,0.9999959737369055,0.002762009958937107,0.0003230806146160799,0.0005651812818751402
1648.2499999988297,-0.0016393808,-0.7785187,-0.0055715763,-2.3505085,-0.0027020753,1.5727477,0.785705,0.039999995,0.03999988,0.01303564358277054,0.036072641220343676,0.02358220656171195,0.022475039521253827,-0.02078391809994332,0.00442106282291568,0.9999953803207128,0.0029550576218414296,0.0003766917465482804,0.0006042143764232018
1648.2666666654964,-0.0017719542,-0.77808124,-0.0059819636,-2.3500881,-0.002906405,1.5728781,0.78568345,0.03999999,0.039999872,0.012077332962112663,0.036852720162635494,0.023576317056428486,0.02356011673204819,-0.02111703421733975,0.004611093080477241,0.9999947133580213,0.003157496360843639,0.00043300685115309093,0.0006449634152784779
1648.283333332163,-0.0019106973,-0.77762383,-0.0064113936,-2.3496478,-0.0031202103,1.5730144,0.78566086,0.039999995,0.03999987,0.013141993280019193,0.037633031896433695,0.024103221467930425,0.024666578412596094,-0.021455809812466073,0.004803261500573801,0.9999939659968611,0.0033694365940941974,0.0004922309140134476,0.0006874413678005402
1648.2999999988297,-0.002055721,-0.7771459,-0.0068602045,-2.3491871,-0.003343658,1.5731571,0.7856373,0.04,0.039999865,0.013081176126505945,0.03839671102604733,0.02490598974738134,0.02579500596765935,-0.021796917049676345,0.004996244408058806,0.9999931304554094,0.0035911330992864374,0.0005545089754120314,0.0007316589710854622
1648.3166666654963,-0.0022071318,-0.7766474,-0.007328729,-2.3487062,-0.0035769164,1.5733058,0.78561276,0.04,0.03999986,0.012773049826231286,0.03914957555473681,0.024650110111101853,0.02694418842243056,-0.022140867612141013,0.005189148888301876,0.9999921989682603,0.003822747653428012,0.0006195984342767233,0.0007776250906102333
1648.333333332163,-0.0023650364,-0.77612776,-0.007817289,-2.3482049,-0.0038201425,1.5734609,0.78558713,0.04,0.039999854,0.01265723024950205,0.039892761801057115,0.025145520240821284,0.028114056834690503,-0.022488504995666413,0.005382755675458335,0.9999911632031059,0.00406443958006065,0.0006874948501597224,0.0008253468544875669
1648.3499999988296,-0.0025295336,-0.7755867,-0.008326195,-2.3476822,-0.0040734927,1.5736226,0.78556037,0.04,0.03999985,0.013547653859546926,0.04062944613045974,0.025749702245847494,0.029304538357436086,-0.022841827727306467,0.005576568813095312,0.999990014116185,0.004316363427943791,0.000758521317674079,0.0008748257429106337
1648.3666666654963,-0.0027007246,-0.7750238,-0.008855756,-2.347138,-0.004337119,1.5737907,0.7855326,0.04,0.039999843,0.013715298900995876,0.04136495724531217,0.026078431817611047,0.030515418087026833,-0.023197607480185158,0.005769000173758627,0.999988741977339,0.004578764041624469,0.0008326131337954928,0.0009260636045273256
1648.383333332163,-0.0028787039,-0.7744389,-0.009406266,-2.3465717,-0.004611167,1.5739654,0.78550357,0.039999995,0.039999835,0.013986325485570994,0.04207732996546268,0.02635839495188641,0.031745815227871704,-0.023556583421032656,0.005961697259495573,0.9999873371497019,0.004851699454776205,0.0009099438759283231,0.0009790581145856735
1648.3999999988296,-0.0030635647,-0.7738318,-0.009978014,-2.3459837,-0.0048957826,1.5741467,0.78547364,0.03999999,0.039999828,0.013195352712291886,0.0427823989838854,0.026221454539876454,0.03299591381026989,-0.02391659689202312,0.006152637436571528,0.9999857884594693,0.0051355240777828815,0.0009902096871900743,0.0010338067108459279
1648.4166666654962,-0.0032553973,-0.7732018,-0.010571275,-2.3453734,-0.0051911003,1.5743351,0.7854424,0.03999999,0.03999982,0.013811850800871106,0.043484722239928164,0.02715728950879459,0.03426429595006661,-0.024280739521207087,0.006344007044068758,0.9999840855311725,0.005430201933291008,0.0010737028157688194,0.001090299780793272
1648.4333333321629,-0.003454289,-0.7725487,-0.011186321,-2.344741,-0.0054972554,1.5745304,0.78541017,0.04,0.039999824,0.012472370478811001,0.04416538151827479,0.026973203712787885,0.03555212523795077,-0.02464647106668412,0.006532240300614851,0.9999822164149614,0.0057360500828600456,0.0011599399610451742,0.0011485306068666754
1648.4499999988295,-0.0036603238,-0.7718726,-0.01182341,-2.3440857,-0.0058143768,1.5747328,0.7853767,0.039999995,0.039999813,0.014749248017720262,0.044859273139202446,0.02745948275182375,0.03685774848467345,-0.02502017915737704,0.006718266999183254,0.9999801683590094,0.006053146707658966,0.0012497490054656697,0.0012084829524429419
1648.4666666654962,-0.0038735832,-0.7711728,-0.012482793,-2.3434072,-0.0061425883,1.5749422,0.78534204,0.04,0.03999981,0.013811707943944818,0.04552583458419211,0.02768523653688959,0.03818159730706667,-0.02539130040694798,0.0069028515070645065,0.9999779291326861,0.006381624171799944,0.0013427057506712311,0.001270142394156367
1648.4833333321628,-0.0040941467,-0.7704492,-0.013164716,-2.3427055,-0.0064820116,1.575159,0.78530633,0.04,0.0399998,0.013583915553594395,0.04619229755188359,0.027865371244439885,0.03952356233149634,-0.025766319320734046,0.007084952360663553,0.9999754844363674,0.006721762235643171,0.0014388324670282344,0.001333491594084583
1648.4999999988295,-0.0043220897,-0.7697016,-0.013869407,-2.34198,-0.006832763,1.5753828,0.78526926,0.04,0.039999798,0.014454898022941975,0.04684928616879615,0.028095803168781686,0.04088189452423061,-0.026142646080980887,0.007264179107031352,0.9999728210199491,0.007073538200507453,0.001538330238393007,0.0013985059200733684
1648.5166666654961,-0.0045574834,-0.7689296,-0.014597098,-2.341231,-0.007194956,1.5756141,0.78523105,0.04,0.039999798,0.01320550563179701,0.04749139295283644,0.028154480588304942,0.04225811980440029,-0.02652096207829778,0.007438835619988142,0.9999699237788385,0.00743722395848027,0.001640892751014387,0.0014651650128574727
1648.5333333321628,-0.0048004,-0.76813287,-0.015348,-2.3404582,-0.0075686914,1.5758526,0.7851917,0.039999995,0.03999978,0.013865655413236588,0.048130288920944855,0.028477764870649125,0.04365061393532365,-0.026902714802514882,0.007611393034213869,0.9999667771121529,0.007812970749091043,0.0017466306851382472,0.0015334409860101798
1648.5499999988294,-0.005050906,-0.7673115,-0.016122328,-2.3396616,-0.00795408,1.5760986,0.785151,0.04,0.03999978,0.013104283829656893,0.048755649766873965,0.0281634554803345,0.04505892096375415,-0.027288226118613687,0.007779003518071821,0.9999633661471067,0.008200805170487383,0.001855416064145178,0.0016033058136427324
1648.566666665496,-0.005309065,-0.7664652,-0.016920267,-2.3388402,-0.008351213,1.576352,0.7851091,0.04,0.039999776,0.01464310522976131,0.04938403970841804,0.028867681630728725,0.046483861983200696,-0.02767665600338078,0.007942944565780177,0.9999596726273013,0.00860096063052051,0.001967716222825941,0.0016747203345866524
1648.5833333321627,-0.00557494,-0.7655938,-0.017742021,-2.3379946,-0.008760192,1.576613,0.78506595,0.04,0.03999977,0.013633116133404677,0.050003284573822,0.028556149330771774,0.04792447507952507,-0.02806568359129208,0.008102934305861672,0.9999556798478233,0.009013551019831562,0.002083253197402461,0.0017476539148269226
1648.5999999988294,-0.005848589,-0.76469713,-0.018587764,-2.3371236,-0.009181101,1.5768815,0.78502154,0.03999999,0.039999753,0.014823502808836153,0.05061855220342901,0.02910781367118087,0.04938049368892497,-0.028455680420228405,0.008255722932745287,0.9999513688938828,0.009438715349527805,0.0022024041856621686,0.0018220635564013268
1648.616666665496,-0.006130067,-0.76377493,-0.019457666,-2.3362288,-0.009614025,1.5771576,0.7849759,0.04,0.039999753,0.012007126756063968,0.05116091716337243,0.028337951900647695,0.05085111800706525,-0.028844813953222068,0.0084055463736828,0.9999467229740107,0.009876577892011908,0.0023242943406289497,0.001897914249483545
1648.6333333321627,-0.0064194296,-0.7628269,-0.020351904,-2.335308,-0.010059051,1.5774416,0.7849289,0.04,0.039999757,0.015293062408239244,0.05183925297786024,0.029589575279187486,0.05233677317283301,-0.029240168672431368,0.008547273187663976,0.9999417202771806,0.010327257753178177,0.0024500151253089198,0.0019751512088804265
1648.6499999988293,-0.0067167254,-0.7618528,-0.021270622,-2.3343625,-0.010516255,1.5777334,0.7848807,0.04,0.03999975,0.01277535450447953,0.05236472657470792,0.02907309912654199,0.05383669638792847,-0.029631667907511757,0.008684274953182792,0.9999363421606573,0.010790901703174613,0.0025788099183843547,0.0020537298269569125
1648.666666665496,-0.0070220046,-0.76085263,-0.022213968,-2.3333914,-0.01098571,1.5780329,0.78483117,0.04,0.039999742,0.013829131084674984,0.052954940966593034,0.029021566518561137,0.05535062584218642,-0.0300282208270928,0.0088149374450677,0.9999305673711963,0.011267609745152117,0.002710934898041607,0.002133597742567738
1648.6833333321626,-0.0073353075,-0.75982636,-0.023182092,-2.3323944,-0.011467483,1.57834,0.78478026,0.04,0.039999735,0.014452091683581081,0.05354561407627939,0.029191210272605517,0.05687839119808946,-0.03042427042418983,0.008940166125722356,0.9999243738283549,0.011757479505197834,0.0028466457439142905,0.0022147026134290613
1648.6999999988293,-0.007656681,-0.7587736,-0.024175113,-2.3313727,-0.011961643,1.578655,0.78472817,0.04,0.03999973,0.01144440462397256,0.054036950983633175,0.02858442760029778,0.058419952726769926,-0.030818495620854047,0.00905699353205464,0.9999177408466149,0.01226070711748982,0.002985035259066176,0.0022969905709920115
1648.716666665496,-0.00798616,-0.7576945,-0.025193157,-2.3303246,-0.012468245,1.5789782,0.78467476,0.04,0.03999972,0.014745183017383923,0.054662748636555986,0.029579428520953854,0.05997425996820825,-0.03121956719083763,0.009166147924736676,0.9999106423472357,0.012777362022217737,0.00312731173198951,0.002380391107046051
1648.7333333321626,-0.008323788,-0.7565887,-0.026236342,-2.3292508,-0.012987345,1.5793093,0.7846199,0.04,0.039999716,0.013004374728664558,0.055183036445623224,0.02903342797617725,0.06154108249872456,-0.03161539795336257,0.009266711976002446,0.9999030569925466,0.013307497472921813,0.0032728652644993567,0.002464849068190676
1648.7499999988293,-0.008669594,-0.7554561,-0.027304774,-2.3281505,-0.013519001,1.5796486,0.7845639,0.04,0.0399997,0.013878761614560808,0.05574569530379103,0.02935365902725362,0.06312109019037976,-0.032012577367623175,0.0093599061389225,0.9998949575278812,0.01385134604618245,0.0034220086588792912,0.002550290133318584
1648.766666665496,-0.009023613,-0.7542968,-0.02839855,-2.327025,-0.01406326,1.5799959,0.78450644,0.04,0.039999697,0.011760496135337917,0.05621347014063763,0.028462125003847483,0.06471255292682447,-0.032407235553043715,0.009443626287546344,0.9998863223531007,0.014408886368543521,0.003574131172349287,0.0026366553002256073
1648.7833333321626,-0.0093858745,-0.7531105,-0.02951776,-2.3258724,-0.014620164,1.580351,0.7844476,0.04,0.039999686,0.01410635732204124,0.0568084128841892,0.02905296298598703,0.0663162538121895,-0.03280441025095822,0.009519272329224449,0.9998771225520868,0.014980267782306428,0.003729872489153552,0.0027238622109787883
1648.7999999988292,-0.009756403,-0.7518973,-0.030662486,-2.3246942,-0.015189756,1.5807142,0.7843875,0.04,0.03999968,0.011889542547893761,0.05726114893956566,0.028517932133564905,0.06793161653319531,-0.03319843930175799,0.00958682570653984,0.9998673323723574,0.015565639502212502,0.003888709698998424,0.00281184251866636
1648.8166666654959,-0.010135223,-0.7506568,-0.0318328,-2.3234894,-0.01577207,1.5810859,0.7843262,0.04,0.039999682,0.012753517432328998,0.05780696749594916,0.02902238205959584,0.06955798674705728,-0.03359407729731804,0.009642692493155795,0.999856922481838,0.01616510650198025,0.004051043065666403,0.002900508060254861
1648.8333333321625,-0.010522354,-0.74938905,-0.033028778,-2.3222585,-0.016367145,1.5814654,0.7842634,0.04,0.039999675,0.011912822504855924,0.05828485034615333,0.02815681445120788,0.07119458657189626,-0.03398616768760831,0.0096906827721705,0.9998458683115651,0.016778645278219654,0.004216378746542919,0.002989788150665949
1648.8499999988292,-0.010917818,-0.74809426,-0.03425047,-2.3210006,-0.016975,1.5818532,0.78419924,0.04,0.039999668,0.013323982159985093,0.05881305744847298,0.028579512843696087,0.07284279961478131,-0.03438203894724817,0.009726388084854494,0.9998341361160477,0.01740644357306066,0.004385443438247309,0.0030795884570155346
1648.8666666654958,-0.01132163,-0.74677205,-0.035497922,-2.319717,-0.017595673,1.582249,0.7841338,0.04,0.039999668,0.010591812378968335,0.059216367652156765,0.02783754291799667,0.0745007033043337,-0.03476991292980651,0.00975329569180513,0.999821700068295,0.0180485753307577,0.0045573246461618816,0.0031698254122226716
1648.8833333321625,-0.011733804,-0.74542266,-0.036771175,-2.3184059,-0.01822918,1.5826533,0.7840669,0.04,0.03999966,0.013574912088820668,0.059786089452155966,0.02837053046669258,0.07616865199859504,-0.035162924561514264,0.009767606005068534,0.9998085254822744,0.018705084801693497,0.004733075918191112,0.0032603938219775627
1648.8999999988291,-0.012154355,-0.7440458,-0.03807029,-2.3170688,-0.018875524,1.5830656,0.78399867,0.04,0.039999645,0.010493080775275665,0.06019189265336067,0.027471103724607815,0.07784631389709086,-0.03554703877221802,0.009772312645861161,0.9997945848595136,0.019376083045699412,0.004911694309637667,0.0033512311778804756
1648.9166666654958,-0.012583284,-0.7426414,-0.039395284,-2.315704,-0.019534733,1.5834862,0.78392917,0.04,0.039999634,0.0130871621427886,0.06073228829384658,0.028076507814667195,0.07953359569607928,-0.03593340891819401,0.009764474513171084,0.9997798405377094,0.020061718836741106,0.005094022950646629,0.0034422117724132477
1648.9333333321624,-0.013020604,-0.74120975,-0.040746167,-2.3143146,-0.02020682,1.583915,0.7838583,0.04,0.039999627,0.008320609786571787,0.06099879520158891,0.02635144981661952,0.08122907735026687,-0.03631420090365631,0.009744097023954783,0.9997642677182159,0.02076197804804423,0.005278760167080787,0.003533263716517769
1648.949999998829,-0.013466317,-0.73975074,-0.042122953,-2.3128982,-0.020891778,1.5843521,0.783786,0.04,0.039999627,0.011652646262505506,0.061562664437704584,0.02718840696400715,0.08293306994350742,-0.036698450107311445,0.00971200836587479,0.9997478275190841,0.02147692825233196,0.0054669568659160535,0.0036242663177353364
1648.9666666654957,-0.013920426,-0.7382642,-0.043525655,-2.3114543,-0.02158962,1.5847971,0.7837123,0.04,0.039999615,0.011868938725845268,0.062033829041724386,0.026864519102076656,0.0846463289090634,-0.0370786122887842,0.00966796351576036,0.99973048500968,0.02220668047250201,0.005658500986203451,0.0037151112084683135
1648.9833333321624,-0.014382933,-0.73675036,-0.044954278,-2.3099842,-0.022300344,1.5852505,0.78363734,0.04,0.03999961,0.010025704772576027,0.062398155238510555,0.026249133405875646,0.08636700763515241,-0.03745462368141964,0.009609888618259711,0.9997122057407636,0.022951321935164144,0.005853131291628328,0.003805702096643444
1648.999999998829,-0.01485383,-0.7352088,-0.0464088,-2.308487,-0.023023935,1.5857122,0.783561,0.04,0.0399996,0.010927135991645187,0.06285485799461116,0.026619872151578683,0.0880954332733331,-0.037827486420752635,0.009539326236229037,0.999692952675774,0.02371089412372662,0.006051092301166356,0.00389591481026018
1649.0166666654957,-0.015333116,-0.7336401,-0.04788921,-2.3069632,-0.023760404,1.5861821,0.78348327,0.04,0.039999604,0.01004441769498765,0.06322813326988808,0.025581827859255668,0.08983104535336002,-0.038195635766165026,0.009455588058693232,0.9996726899790319,0.024485453547452313,0.006252210680436759,0.003985641261988187
1649.0333333321623,-0.015820783,-0.7320438,-0.049395498,-2.3054125,-0.024509728,1.5866601,0.7834042,0.04,0.03999959,0.010153682190439106,0.06366065163398715,0.025598983851482515,0.0915733732494397,-0.038559503484577665,0.009358523631912648,0.9996513798487021,0.02527506958495839,0.0064564614443802255,0.00407476743858072
1649.049999998829,-0.016316818,-0.7304202,-0.050927624,-2.3038356,-0.025271889,1.5871459,0.7833238,0.04,0.039999586,0.008770989129391893,0.06396100488549467,0.024583928392396537,0.09332248233898321,-0.03891904373861769,0.009246675912497476,0.9996289857424235,0.026079842776525513,0.006663372039763879,0.0041631883676965355
1649.0666666654956,-0.016821217,-0.72876924,-0.052485555,-2.3022323,-0.026046872,1.5876406,0.7832421,0.04,0.039999574,0.009381436670907739,0.06442166107721164,0.025200381715384523,0.09507745952502532,-0.03927833256794838,0.00911979104872529,0.9996054650921576,0.026899776393223673,0.006873661043472887,0.004250761313598909
1649.0833333321623,-0.017333955,-0.7270909,-0.054069225,-2.3006024,-0.026834656,1.5881432,0.783159,0.04,0.039999574,0.008634146343289295,0.06470339184085488,0.024138260142092527,0.09683828951430914,-0.03962937645234288,0.008979270843084204,0.9995807825888274,0.027734904309147115,0.007086705647821351,0.004337368456889366
1649.099999998829,-0.017855015,-0.72538555,-0.05567862,-2.2989461,-0.027635217,1.588654,0.78307444,0.04,0.03999957,0.008977510453034299,0.06512528755684283,0.023798902491911633,0.09860468004574949,-0.039979283584388015,0.008823125528545042,0.999554896415036,0.02858522777549368,0.007302865616515089,0.004422890405261265
1649.1166666654956,-0.018384388,-0.7236529,-0.057313673,-2.2972631,-0.02844852,1.5891727,0.7829887,0.04,0.03999955,0.008655428446369129,0.06547142122478311,0.02346014994250023,0.10037674506489257,-0.04032138303878752,0.00865245181206973,0.999527761687063,0.02945097215119501,0.007521903251014571,0.004507197320030943
1649.1333333321622,-0.018922046,-0.72189337,-0.058974296,-2.2955542,-0.029274538,1.5896995,0.78290164,0.04,0.039999545,0.007737545895003528,0.06571791825744355,0.022704858575850473,0.1021527096832344,-0.04066025600927027,0.008465988822468143,0.9994993408384167,0.03033203422093693,0.007743760430684325,0.004590156640296978
1649.149999998829,-0.019467983,-0.7201067,-0.060660448,-2.293819,-0.030113231,1.5902348,0.7828131,0.04,0.039999545,0.0077120726285073715,0.06614351621554437,0.02283831101475009,0.10393330373835592,-0.040994738066900065,0.008264695152506607,0.9994695910923994,0.031228415858553397,0.007968586272209375,0.004671633266802686
1649.1666666654955,-0.02002216,-0.7182931,-0.06237204,-2.2920575,-0.030964563,1.5907781,0.78272325,0.04,0.039999533,0.007466317876159145,0.06640918439704824,0.022122880898600705,0.10571840983345561,-0.041322169839767296,0.008046797190939155,0.9994384668876028,0.03214025563414007,0.008196230566371587,0.004751492148031287
1649.1833333321622,-0.020584546,-0.7164526,-0.06410899,-2.2902703,-0.031828497,1.5913293,0.7826322,0.04,0.039999537,0.006512069813791044,0.06665865874243004,0.02123745178037595,0.10750673087931416,-0.041643054431408824,0.007812745986105395,0.9994059267224112,0.03306757378146955,0.00842639413645341,0.00482960435053222
1649.1999999988288,-0.021155115,-0.7145854,-0.065871224,-2.288457,-0.032704987,1.5918885,0.7825396,0.04,0.03999953,0.007234602875971774,0.06702684837104067,0.02106421279381987,0.10929819693517936,-0.04196097237481179,0.007562646383991269,0.9993719265888631,0.03401029243062163,0.008659402901803146,0.004905822686530965
1649.2166666654955,-0.021733835,-0.7126914,-0.06765862,-2.2866175,-0.033593975,1.5924556,0.78244585,0.04,0.039999522,0.006373193623243623,0.06724018623151806,0.020540225866572115,0.11109296191603044,-0.042271370938807215,0.007297057265502387,0.9993364188170301,0.03496856878788087,0.00889498553892224,0.0049800055364534355
1649.2333333321621,-0.022320675,-0.710771,-0.06947111,-2.284752,-0.034495413,1.5930305,0.7823508,0.04,0.039999526,0.00696003102591547,0.06758704559667317,0.019885771736882774,0.112889937866108,-0.04257679252218907,0.007015002430114353,0.9992993563634573,0.03594238319099569,0.00913337689843087,0.005052018266254611
1649.2499999988288,-0.022915602,-0.70882416,-0.07130855,-2.2828605,-0.035409257,1.5936134,0.7822544,0.04,0.03999953,0.0059185397426997355,0.0677684681187285,0.01955748112099087,0.11468844482353674,-0.04287407980684191,0.006712814862515119,0.9992606944238478,0.03693172696296277,0.009374453685953047,0.0051216931958475926
1649.2666666654954,-0.023518581,-0.706851,-0.07317082,-2.280944,-0.036335435,1.5942045,0.7821567,0.04,0.039999522,0.004670718977584087,0.06792698738456726,0.0187934765649711,0.11648869030494788,-0.043162255970421025,0.006395762264157202,0.9992203883836288,0.03793659668249977,0.009617973378925235,0.005188897638391012
1649.283333332162,-0.024129568,-0.7048517,-0.07505786,-2.2790027,-0.037273888,1.5948036,0.78205776,0.04,0.039999533,0.004412422530952753,0.06821979882456197,0.018013377937475816,0.11829047711576567,-0.04344422800957251,0.006060773368837702,0.9991783897522151,0.03895705219862945,0.009863781173323092,0.005253509030025293
1649.2999999988288,-0.024748527,-0.7028264,-0.07696947,-2.2770357,-0.03822457,1.5954101,0.78195745,0.04,0.039999526,0.005053636717500254,0.06839618460044716,0.017414118834935266,0.12009281622218689,-0.043722356520640104,0.005707870447796533,0.999134652130572,0.039993021387824144,0.010111989828275722,0.005315337609856601
1649.3166666654954,-0.025375409,-0.70077515,-0.078905575,-2.2750435,-0.0391874,1.5960244,0.7818559,0.04,0.039999522,0.004513922999782594,0.06865060356429364,0.01699105707670956,0.12189584201120464,-0.04399141902141354,0.005337699912980352,0.9990891234090238,0.04104458017628026,0.010362592257975612,0.005374253960904759
1649.333333332162,-0.02601017,-0.69869816,-0.08086601,-2.2730265,-0.040162314,1.5966463,0.781753,0.04,0.039999507,0.003598197435206174,0.06873572402240069,0.016130257789459534,0.12369862162206988,-0.04425331049673718,0.0049505267487541665,0.9990417586615467,0.04211167214721813,0.010615343093518548,0.005430102247295655
1649.3499999988287,-0.02665276,-0.69659543,-0.08285062,-2.2709844,-0.04114924,1.5972757,0.7816489,0.04,0.039999515,0.0036904744344479212,0.06893315870083183,0.015682773006830963,0.1255012512554138,-0.04450870266138371,0.004543615949649152,0.9989925063561769,0.04319432193495348,0.01087026331062254,0.005482715781551706
1649.3666666654954,-0.027303135,-0.69446737,-0.08485928,-2.2689178,-0.042148102,1.5979128,0.78154355,0.04,0.0399995,0.00313914558907058,0.06907446544488771,0.01482947492124076,0.12730270824730305,-0.0447560965594974,0.0041197335908560034,0.9989413145344774,0.044292548094906715,0.011127344123714111,0.005531953736527088
1649.383333332162,-0.027961252,-0.692314,-0.08689187,-2.2668266,-0.043158818,1.5985574,0.78143686,0.04,0.03999949,0.002894597664759857,0.06926550570984513,0.014219864492304168,0.12910249181506908,-0.044996086719750195,0.003678847549902879,0.9988881359810714,0.04540626247783378,0.011386516802343042,0.005577666103723356
1649.3999999988287,-0.028627053,-0.6901356,-0.08894818,-2.2647111,-0.044181306,1.5992093,0.78132904,0.04,0.039999478,0.002392591170385927,0.06930788425252021,0.013438085225181418,0.13090110296216712,-0.04522771460365614,0.0032173588837027325,0.9988329162188037,0.04653554313039299,0.011647651579065202,0.005619690035241207
1649.4166666654953,-0.029300481,-0.6879322,-0.09102805,-2.262571,-0.04521549,1.599869,0.78121984,0.04,0.039999478,0.0027950083175909413,0.06948043795352299,0.013240133805525467,0.13269701226609787,-0.04545119328658708,0.002738937295210006,0.9987756050278362,0.04768024990912479,0.011911065137592701,0.0056578350250950545
1649.433333332162,-0.02998148,-0.68570393,-0.093131304,-2.2604072,-0.04626128,1.600536,0.7811096,0.04,0.039999474,0.0012832406665275187,0.06945696244166355,0.012005264232928248,0.1344904018320612,-0.04566312192681306,0.0022415920414407126,0.9987161502171635,0.04884048915458103,0.012176180138468495,0.005691972574144769
1649.4499999988286,-0.030669993,-0.68345124,-0.095257774,-2.2582197,-0.04731859,1.6012105,0.78099805,0.04,0.039999466,0.001194604772303265,0.0695335317370177,0.011313215362118711,0.13628041300588883,-0.045867684477418305,0.0017258454649111132,0.998654501459129,0.05001613567566992,0.01244316364018323,0.005721937269410186
1649.4666666654953,-0.03136597,-0.681174,-0.09740728,-2.2560086,-0.04838732,1.6018921,0.7808852,0.04,0.03999946,0.000662793639172321,0.0695986331794296,0.010612003235954681,0.13806689642790593,-0.046063573405436396,0.0011918924039437118,0.9985906102566332,0.05120713156947077,0.012711735162063774,0.005747571041870176
1649.483333332162,-0.032069325,-0.6788728,-0.09957963,-2.2537737,-0.049467396,1.602581,0.7807714,0.04,0.03999945,0.0016533989425582263,0.06967608142769421,0.009883739377136713,0.1398495384846535,-0.046251073596883276,0.0006386065078207992,0.9985244099949314,0.05241357935167531,0.012982355987670518,0.005768689351072413
1649.4999999988286,-0.03278003,-0.67654777,-0.10177465,-2.2515154,-0.050558727,1.6032772,0.7806562,0.04,0.039999444,0.0005748762689883335,0.06970571146761584,0.00914552816098091,0.14162705152912042,-0.04642655527618103,6.68594403335776e-05,0.9984558573956578,0.053635294254311856,0.01325474523685213,0.005785133642471456
1649.5166666654952,-0.033498008,-0.6741987,-0.103992105,-2.2492344,-0.05166119,1.6039805,0.7805399,0.04,0.03999944,-0.0010945249206972818,0.06955406302611156,0.008303746993809646,0.14339987638612844,-0.046590192867212984,-0.0005237758009657006,0.9983849037096997,0.05487225596728854,0.013528383361027314,0.005796758859148576
1649.5333333321619,-0.03422319,-0.6718262,-0.10623185,-2.2469304,-0.05277468,1.6046909,0.7804225,0.04,0.039999444,0.00015916220861278418,0.0696845420478237,0.007511555997008479,0.14516730790528282,-0.04674693348441478,-0.0011323124687255132,0.998311482013688,0.05612453304323506,0.013803700638340197,0.005803405810352788
1649.5499999988285,-0.03495551,-0.66943055,-0.10849365,-2.2446036,-0.05389911,1.6054085,0.7803038,0.04,0.039999433,-0.0004554189701355682,0.06957673528560637,0.006762702859108849,0.14692763372414608,-0.04689225636572767,-0.00175979474779836,0.998235549318542,0.05739186133978607,0.014080682444733959,0.0058048867821942265
1649.5666666654952,-0.03569489,-0.66701144,-0.110777274,-2.2422547,-0.055034358,1.6061329,0.78018403,0.04,0.039999418,-0.0021644487170568993,0.06940827899541424,0.005807116583400607,0.14868254564214808,-0.04702475999116784,-0.00240540995040929,0.9981570520737849,0.058674343134650815,0.014358568481814106,0.005801065784989296
1649.5833333321618,-0.03644127,-0.6645696,-0.11308251,-2.2398837,-0.05618034,1.6068642,0.7800631,0.04,0.039999414,-0.001325004753516268,0.06941064672043029,0.0050354150433307154,0.1504300977282739,-0.047150003947215066,-0.003070668661671383,0.9980759329822779,0.05997182790852779,0.014637877657763174,0.005791752458610958
1649.5999999988285,-0.03719459,-0.66210526,-0.11540919,-2.2374907,-0.057336934,1.6076025,0.7799411,0.04,0.039999407,-0.0017936966655973663,0.06936473670224319,0.004173276817720506,0.15217021340384027,-0.04726405114114199,-0.0037538845343635108,0.9979921339919012,0.061284322543662485,0.014918473706716395,0.005776802135911736
1649.6166666654951,-0.03795476,-0.65961844,-0.117757015,-2.2350757,-0.05850402,1.608347,0.77981806,0.04,0.0399994,-0.0021463874597671406,0.06912093491718285,0.003166222195627455,0.153901988517203,-0.04736501446413344,-0.004455697591949817,0.9979056044139685,0.0626117507231879,0.015200041824930136,0.005756047175801383
1649.6333333321618,-0.038721696,-0.65710944,-0.1201258,-2.2326398,-0.059681486,1.6090981,0.7796936,0.04,0.0399994,-0.003605936513784158,0.06890846749277868,0.002095053382777934,0.15562474359233522,-0.047457200214650996,-0.0051762117030857285,0.9978163078120046,0.0639538098236292,0.015482268517588363,0.005729348567787785
1649.6499999988284,-0.039495334,-0.65457845,-0.12251531,-2.2301822,-0.060869213,1.6098562,0.77956843,0.04,0.039999384,-0.00213320636195391,0.06900948661044959,0.00224848597061289,0.15734029180558878,-0.04754128002787591,-0.0059145000628493954,0.9977241526066547,0.06531080708678458,0.01576590540488957,0.005696491004961799
1649.666666665495,-0.040275607,-0.65202594,-0.1249253,-2.2277038,-0.062067095,1.6106203,0.7794421,0.04,0.039999384,-0.0038343713832045268,0.06855868118221253,2.368752274328756e-05,0.15904445176095475,-0.04760968588519547,-0.0066715455073961955,0.9976291149825531,0.0666823826859929,0.016050014352007987,0.005657368447154145
1649.6833333321617,-0.041062426,-0.64945203,-0.12735553,-2.225205,-0.06327498,1.6113908,0.77931464,0.04,0.039999377,-0.004063939990928134,0.06841320862795985,-0.00019201643055577478,0.16073901582834976,-0.04766950604721787,-0.007447121263272252,0.9975311321955738,0.06806850036975895,0.0163348444638895,0.005611810257795254
1649.6999999988284,-0.041855697,-0.646857,-0.12980579,-2.2226853,-0.06449278,1.6121676,0.7791861,0.04,0.039999377,-0.0036094812562836864,0.06829612551445541,-0.0011111952522124824,0.16242318665030475,-0.047719066204544754,-0.008240805457012265,0.9974301472710809,0.0694690786847746,0.016620433781838,0.0055596404903565
1649.716666665495,-0.04265536,-0.6442413,-0.13227576,-2.2201455,-0.06572035,1.612951,0.77905655,0.04,0.03999936,-0.004005013917707245,0.06799273780864756,-0.001750943501188651,0.1640961704723868,-0.04775484932048142,-0.00905223680086184,0.9973261045542325,0.0708839901330934,0.016906912411111728,0.005500675432573678
1649.7333333321617,-0.043461323,-0.64160496,-0.13476518,-2.2175856,-0.06695755,1.6137407,0.778926,0.04,0.03999935,-0.00454045273099446,0.0676340970655942,-0.0028703960802234363,0.1657575696694352,-0.04777698185711145,-0.009881227666819606,0.9972189508930245,0.07231317163270815,0.017193963686122922,0.005434776995838899
1649.7499999988283,-0.044273496,-0.63894826,-0.1372738,-2.215006,-0.068204276,1.6145362,0.77879435,0.04,0.039999362,-0.005445086893773876,0.06730787819173023,-0.0040189841960414086,0.16740697370582372,-0.047786158996019235,-0.010727521086994332,0.9971086449507243,0.07375641405747561,0.017481210243312954,0.005361794321114176
1649.766666665495,-0.0450918,-0.6362715,-0.13980141,-2.2124066,-0.069460355,1.6153375,0.77866185,0.04,0.039999355,-0.0044295531310911684,0.06718082550306037,-0.0045818522534046835,0.16904408443764216,-0.04778526964975663,-0.011592251015154278,0.9969951120787007,0.07521379208777221,0.017768987899271015,0.005281575521752344
1649.7833333321616,-0.04591614,-0.63357514,-0.14234768,-2.2097888,-0.07072569,1.6161448,0.7785283,0.04,0.03999936,-0.006740302642427309,0.06648728396860815,-0.0060923794525269415,0.17066656645400852,-0.04776993789083943,-0.012471840180299287,0.9968783229293332,0.07668497792148245,0.01805674356318411,0.005193981774638018
1649.7999999988283,-0.046746433,-0.6308592,-0.14491239,-2.2071517,-0.07200013,1.616958,0.77839386,0.04,0.03999937,-0.005346845092679686,0.06649151657667218,-0.006237031622169376,0.17227689032866395,-0.047745633534503625,-0.013369240346896544,0.996758202122704,0.07817003445608706,0.018344869104324476,0.005098822588999877
1649.816666665495,-0.04758259,-0.6281242,-0.14749524,-2.2044964,-0.07328355,1.6177771,0.7782584,0.04,0.039999377,-0.006904185848632949,0.06584076624160384,-0.007721119638848251,0.17387165147745368,-0.047706213299643176,-0.014283939458859377,0.9966347171901925,0.07966865515991087,0.018632930578986212,0.0049959758080788475
1649.8333333321616,-0.048424527,-0.6253703,-0.15009597,-2.2018223,-0.07457582,1.6186017,0.77812207,0.04,0.039999384,-0.005640189763234105,0.06566398798297235,-0.008406602330657265,0.1754525116955861,-0.04765464306866957,-0.015216072211457987,0.9965077971313062,0.08118087032721631,0.018921171522063646,0.004885265362242151
1649.8499999988283,-0.04927215,-0.62259763,-0.15271427,-2.1991305,-0.07587677,1.6194317,0.77798474,0.04,0.039999384,-0.007829479876830803,0.06498299344880887,-0.009452758404626671,0.1770172581378661,-0.047589922038558455,-0.016163035394619718,0.9963774125123556,0.08270639553443869,0.019208950031232897,0.004766572309512627
1649.866666665495,-0.050125353,-0.61980706,-0.15534982,-2.1964211,-0.07718627,1.6202673,0.77784663,0.04,0.039999377,-0.006726892424291364,0.06452317048080691,-0.010610051591108949,0.17856678057215566,-0.04751496081511156,-0.017127769844185833,0.9962434941360249,0.08424519136398012,0.01949669060449434,0.0046397391266024685
1649.8833333321616,-0.050984044,-0.61699843,-0.15800248,-2.1936936,-0.07850415,1.6211079,0.7777075,0.04,0.039999373,-0.006402967472629584,0.06438269199561253,-0.011150477154409089,0.18009970784753362,-0.04742543557661136,-0.018107787009190093,0.9961059940218961,0.08579707432724093,0.019784310947026654,0.00450463659881255
1649.8999999988282,-0.05184813,-0.6141722,-0.16067177,-2.1909494,-0.07983031,1.621954,0.7775677,0.04,0.039999373,-0.008253333447871825,0.06341921734570044,-0.0123803166936165,0.1816154622443264,-0.04732119446339528,-0.01910295824779204,0.9959648668602633,0.08736191106914282,0.020071405793336137,0.004361094340238246
1649.9166666654949,-0.052717514,-0.61132866,-0.16335754,-2.188189,-0.081164554,1.6228052,0.7774269,0.04,0.03999936,-0.00893603824136946,0.06301664044533473,-0.013402513676674666,0.18311372409536367,-0.04720543572379799,-0.02011285946437373,0.995820072235809,0.08893947238900822,0.02035774861895782,0.004209044380863324
1649.9333333321615,-0.053592112,-0.6084682,-0.1660594,-2.1854124,-0.08250676,1.6236616,0.77728534,0.04,0.03999936,-0.008515789394447637,0.062426987307168114,-0.014277705119991602,0.18459379125643433,-0.047077544468806395,-0.021138374826281434,0.9956715528431825,0.09052965624380976,0.020643436177881794,0.004048301124278487
1649.9499999988282,-0.05447182,-0.605591,-0.1687771,-2.18262,-0.08385679,1.6245229,0.777143,0.04,0.039999347,-0.009201996167451654,0.06183402513710301,-0.015346248178826905,0.1860557591728176,-0.04693943328717097,-0.022178641403487492,0.9955192650849498,0.0921322928775567,0.020928180745062662,0.003878750384769486
1649.9666666654948,-0.05535654,-0.6026976,-0.17151028,-2.1798112,-0.08521448,1.6253891,0.7769998,0.04,0.039999347,-0.007417373955842521,0.06144800381864268,-0.015883351662115963,0.18749870233180868,-0.04678885693822636,-0.023233958018795867,0.9953631517295027,0.09374717843828752,0.021212524549843303,0.0037002048852696765
1649.9833333321615,-0.056246165,-0.59978807,-0.17425871,-2.1769872,-0.08657963,1.6262602,0.77685577,0.04,0.039999343,-0.009471929836468718,0.06066213939210918,-0.016945486485209216,0.18892238864073518,-0.04662236905335299,-0.024301917448479357,0.9952031736643457,0.09537417257745812,0.021495857709267225,0.0035126108412753152
1649.9999999988281,-0.05714059,-0.59686285,-0.17702201,-2.1741483,-0.08795214,1.6271358,0.77671087,0.04,0.039999343,-0.009841104345831297,0.05986422828282434,-0.018206757412508878,0.19032526434253624,-0.04644405880451041,-0.025384113521973284,0.9950392987665446,0.09701298910579631,0.02177795180848573,0.0033158211606298766
1650.0166666654948,-0.05803971,-0.59392214,-0.17979985,-2.1712947,-0.08933181,1.6280159,0.7765654,0.04,0.03999934,-0.009650909266945007,0.05924027653905206,-0.018821870823115816,0.19170923021986358,-0.04625465789094245,-0.026480008957875445,0.9948714652149702,0.09866359344788712,0.02205884749246033,0.003109706782448771
1650.0333333321614,-0.058943424,-0.59096664,-0.182592,-2.1684258,-0.09071849,1.6289005,0.77641916,0.04,0.03999934,-0.007936278013565001,0.05885654216057912,-0.019623534600476944,0.19307099038724762,-0.0460529213741108,-0.027588203663147418,0.9946996147338422,0.10032579746585342,0.022339087449556032,0.002894129075824174
1650.049999998828,-0.05985164,-0.58799624,-0.18539801,-2.1655421,-0.092112064,1.6297897,0.77627206,0.04,0.03999933,-0.008919175207600105,0.057993183686516625,-0.020200479216359035,0.19441070171491384,-0.04583351203662332,-0.028709072371070725,0.9945237251972072,0.10199925654743837,0.02261832529411154,0.0026689032446707245
1650.0666666654947,-0.06076423,-0.58501166,-0.18821771,-2.1626434,-0.093512334,1.6306831,0.77612424,0.04,0.039999325,-0.007731622074169664,0.057528769658132806,-0.02135948496313489,0.1957294863429684,-0.04560054364898786,-0.0298405441739015,0.9943437297897408,0.10368393801410224,0.022896808517574956,0.0024339649595399066
1650.0833333321614,-0.061681114,-0.58201325,-0.19105072,-2.1597316,-0.09491913,1.6315807,0.7759759,0.04,0.03999932,-0.010502720074434535,0.05629294217663339,-0.02273597399369276,0.19702434221947618,-0.04534666712693397,-0.030982642871470664,0.9941596030817677,0.10537962993272044,0.023173784399631893,0.002189272058132609
1650.099999998828,-0.06260217,-0.5790012,-0.19389667,-2.1568086,-0.09633228,1.6324824,0.77582675,0.04,0.039999317,-0.013630592316848933,0.05494650338881968,-0.024223249370147748,0.19829575957852275,-0.04508136416836368,-0.032136751990512316,0.9939713515436601,0.1070858958650085,0.023448235251884997,0.0019348076985669484
1650.1166666654947,-0.06352729,-0.5759758,-0.19675522,-2.1538713,-0.097751655,1.6333882,0.77567697,0.04,0.03999932,-0.00786414903397592,0.05512212469751532,-0.023639793039298418,0.19954531473391215,-0.04481182510041602,-0.033302010425983665,0.9937788737189234,0.10880274381574498,0.023721790935690813,0.0016702463641762176
1650.1333333321613,-0.06445641,-0.5729376,-0.19962607,-2.1509213,-0.09917705,1.6342977,0.77552664,0.04,0.039999314,-0.010016178028982026,0.053945078432759974,-0.025333003901417683,0.20077023801964394,-0.0445218912968325,-0.034476434342003606,0.9935821435679825,0.11052997644099392,0.02399376099554987,0.0013956088617417843
1650.149999998828,-0.06538934,-0.5698867,-0.20250893,-2.1479602,-0.10060836,1.635211,0.77537555,0.04,0.039999317,-0.012499408586164051,0.05275652565646105,-0.02640214637716909,0.20196943626808597,-0.04421856118043057,-0.03566085716343862,0.9933811656357592,0.1122671662176304,0.02426333028941422,0.0011108343126325715
1650.1666666654946,-0.06632603,-0.5668236,-0.20540342,-2.144986,-0.10204533,1.6361278,0.7752239,0.04,0.039999317,-0.008393849614174442,0.05247398561240013,-0.026543020800096073,0.20314547394967544,-0.0439069329155688,-0.036855223191377795,0.993175848394397,0.11401433024584917,0.02453163747706609,0.0008157373070927868
1650.1833333321613,-0.06726635,-0.56374884,-0.20830919,-2.1420012,-0.10348785,1.6370481,0.77507186,0.04,0.03999931,-0.012267907723684246,0.050889247542229565,-0.028378318104427258,0.2042946363050868,-0.043576812594535226,-0.038056216355497316,0.9929661930164384,0.1157711625163555,0.02479752006531916,0.0005103475901987563
1650.199999998828,-0.06821017,-0.5606625,-0.21122596,-2.1390047,-0.10493574,1.637972,0.774919,0.04,0.039999317,-0.009946740749455785,0.05048944175545245,-0.028304601593331924,0.20541778913893624,-0.043238093274363544,-0.03926689704708848,0.9927521636400185,0.11753730458820867,0.02506163993216266,0.00019447907657467282
1650.2166666654946,-0.06915742,-0.55756515,-0.21415327,-2.135997,-0.10638881,1.638899,0.7747656,0.04,0.03999934,-0.010114545163020239,0.049315182178677475,-0.029535997877871978,0.2065152726415079,-0.04288262661941643,-0.04048406774064898,0.9925337162257648,0.11931266607241658,0.025323753020933707,-0.00013191929326560018
1650.2333333321612,-0.07010793,-0.554457,-0.21709092,-2.1329803,-0.107846886,1.6398293,0.7746119,0.04,0.039999362,-0.013356339179848575,0.047956363976620064,-0.0307463794606333,0.2075851992487245,-0.042514244065610565,-0.04170947892835995,0.9923108441856986,0.12109698220718122,0.025582995092814496,-0.0004688004486822274
1650.249999998828,-0.07106163,-0.5513385,-0.22003843,-2.129953,-0.10930979,1.6407628,0.7744576,0.04,0.039999355,-0.009820072752564357,0.0474495788406637,-0.03077674670395325,0.20862802303953712,-0.04213757130966684,-0.042942332677845675,0.9920834987436752,0.12288996716728698,0.02584029783885516,-0.0008163931225626577
1650.2666666654945,-0.0720184,-0.54821,-0.22299558,-2.1269155,-0.110777356,1.6416992,0.77430266,0.04,0.039999355,-0.010533460560591124,0.046425938063621164,-0.03196297565062345,0.20964326445686718,-0.04174533227610523,-0.04418055845822448,0.9918516585708945,0.12469139079287186,0.02609529755286583,-0.0011746905687771776
1650.2833333321612,-0.07297815,-0.545072,-0.2259619,-2.1238692,-0.11224943,1.6426383,0.77414733,0.04,0.03999936,-0.011921804870507202,0.044985253416940374,-0.03306085628642652,0.2106301243481029,-0.04133998512783778,-0.045424451372255835,0.9916153097256792,0.12650099884855276,0.026347517748799367,-0.0015437345757368193
1650.2999999988278,-0.0739407,-0.54192483,-0.22893709,-2.120814,-0.1137258,1.6435802,0.7739915,0.04,0.03999936,-0.011316316682918881,0.044048165947419005,-0.03359158236071469,0.21158874380034992,-0.04092377489227269,-0.046673473227255374,0.9913744253938804,0.12831852086815962,0.026597099887605422,-0.0019235786258822996
1650.3166666654945,-0.074905984,-0.53876853,-0.23192081,-2.1177506,-0.115206316,1.6445249,0.7738354,0.04,0.03999936,-0.011874562731906124,0.043035765560694994,-0.034032138145767554,0.21251837880820376,-0.040495683604669624,-0.047926914355320295,0.991128975418164,0.13014378704602472,0.026843859403362546,-0.002314301663970749
1650.3333333321611,-0.075873844,-0.53560376,-0.23491263,-2.114679,-0.11669078,1.6454718,0.7736788,0.04,0.03999936,-0.011478588505298148,0.04167076272413306,-0.03526633116095468,0.21341834203162532,-0.04005702377614243,-0.04918487070677333,0.9908789639578554,0.13197637478064106,0.027087619325978043,-0.002715909574683223
1650.3499999988278,-0.07684422,-0.5324312,-0.23791227,-2.1115997,-0.118179,1.6464212,0.7735217,0.04,0.039999355,-0.010713522621452753,0.04081769369211896,-0.03584643924792186,0.21428927239991058,-0.03960776357374167,-0.050445943005869284,0.990624346690957,0.13381613106795687,0.02732873101779986,-0.0031284612950611052
1650.3666666654944,-0.077816986,-0.52925086,-0.24091934,-2.1085126,-0.119670846,1.6473731,0.7733643,0.04,0.03999935,-0.01086524614479778,0.039728186530330056,-0.036194976160253134,0.21513017063337567,-0.03914620114301425,-0.05171055748902452,0.9903651063808873,0.13566280136003273,0.027567070937878985,-0.0035520402908534136
1650.383333332161,-0.07879198,-0.52606326,-0.24393348,-2.1054184,-0.12116608,1.6483272,0.7732066,0.04,0.03999934,-0.010936017776952411,0.03841643778460524,-0.03703851717489215,0.21594011929399423,-0.038670686698581376,-0.05297598214706635,0.9901012299331727,0.1375161170507382,0.02780249658309365,-0.003986630137528906
1650.3999999988278,-0.07976912,-0.5228685,-0.24695435,-2.1023169,-0.12266451,1.6492833,0.7730486,0.04,0.039999343,-0.01029229122209152,0.0374166345825766,-0.037476962008331505,0.21671926021487078,-0.038183258995897626,-0.054242625587297304,0.9898326974048487,0.1393758445357228,0.028034977239464645,-0.004432286021669924
1650.4166666654944,-0.0807483,-0.5196674,-0.24998155,-2.09921,-0.12416598,1.6502415,0.77289027,0.04,0.03999934,-0.0126470624624897,0.03567122545574675,-0.03879771276928956,0.21746649920900746,-0.037682768728769245,-0.05551002030514705,0.9895595284964068,0.14124159436220687,0.028263935005526354,-0.004888922375562197
1650.433333332161,-0.08172934,-0.5164603,-0.25301477,-2.0960975,-0.12567034,1.6512012,0.7727315,0.04,0.039999347,-0.011253492112972552,0.034636790308406606,-0.03945408775545278,0.21818267389099746,-0.03717481793663489,-0.05678019506040596,0.9892817172813888,0.1431130323999096,0.02848948568648802,-0.005356586171084341
1650.4499999988277,-0.08271218,-0.5132473,-0.25605354,-2.092979,-0.1271774,1.652163,0.7725724,0.04,0.03999934,-0.010334003281498028,0.033646687751465176,-0.03917107229058914,0.21886818841973382,-0.03665742286586374,-0.05804877243606678,0.9889992303761147,0.1449899723494771,0.02871198740276578,-0.005835410262701744
1650.4666666654944,-0.08369671,-0.5100291,-0.25909764,-2.0898547,-0.12868701,1.6531262,0.772413,0.04,0.03999934,-0.009855626213939317,0.032574687451836226,-0.04031000261923712,0.21952149355627718,-0.036126922123778535,-0.05931595144627065,0.9887120537626504,0.14687220015261485,0.028931325173023874,-0.006325345089791874
1650.483333332161,-0.08468276,-0.50680566,-0.26214662,-2.0867267,-0.13019879,1.6540908,0.77225345,0.04,0.03999934,-0.012864256226663429,0.0304802073986421,-0.04110304655715602,0.2201418439119515,-0.03558472070549315,-0.060581613534895655,0.988420225400106,0.14875933856171042,0.029146530933625157,-0.006826195515896725
1650.4999999988277,-0.08567024,-0.50357777,-0.26520017,-2.0835934,-0.13171282,1.6550567,0.7720937,0.04,0.03999934,-0.009099720577454562,0.030104027713540038,-0.04112339035240442,0.22072992930219196,-0.03503645335487232,-0.06184734956630129,0.9881236911029826,0.15065121836637077,0.029358675910573076,-0.0073382310213862155
1650.5166666654943,-0.08665901,-0.5003457,-0.26825795,-2.0804572,-0.13322873,1.656024,0.7719337,0.04,0.03999934,-0.012615823140560423,0.0280047932394889,-0.04228112900275249,0.22128441171213173,-0.03447562709526521,-0.06310759546420489,0.9878225103809605,0.15254737441885516,0.029566679145021972,-0.007861172107646227
1650.533333332161,-0.087648965,-0.49710986,-0.27131942,-2.0773165,-0.13474636,1.6569922,0.7717736,0.04,0.039999347,-0.00899430237768506,0.0271431199523664,-0.042115398398512305,0.22180597597326746,-0.03390983560368123,-0.06436776869883697,0.9875166321462501,0.1544476875855989,0.029771356293102708,-0.008395199727120621
1650.5499999988276,-0.08863998,-0.49387053,-0.2743844,-2.0741735,-0.13626555,1.6579617,0.77161336,0.04,0.039999343,-0.011945212253339221,0.025579824711507992,-0.04294425926985035,0.22229408606243556,-0.033331562506150894,-0.06562217313518061,0.9872060944279697,0.15635179008389333,0.02997196146396586,-0.008940155918061778
1650.5666666654943,-0.08963194,-0.49062815,-0.27745235,-2.0710263,-0.13778615,1.658932,0.7714531,0.04,0.039999355,-0.008299317403714923,0.024583410690615093,-0.04291224907475577,0.22274810758287064,-0.032747061393115104,-0.06687327855784525,0.9868908685364316,0.15825945010042813,0.03016922360309822,-0.009496209796761409
1650.583333332161,-0.0906247,-0.48738322,-0.28052306,-2.0678768,-0.139308,1.6599029,0.77129275,0.04,0.039999343,-0.010284410407690459,0.023061804296331534,-0.04388528287508908,0.2231676310359839,-0.03214929196762324,-0.06811756536627461,0.9865709828718053,0.16017035835610072,0.03036254755509355,-0.010063188629995244
1650.5999999988276,-0.09161817,-0.48413607,-0.2835961,-2.0647266,-0.14083084,1.6608745,0.77113193,0.04,0.039999343,-0.012406137016096608,0.02108169586610975,-0.04466861152023771,0.22355268752207436,-0.03154410734041702,-0.06935655205178608,0.9862465215552347,0.16208390294662794,0.030551235409968274,-0.010640918226944771
1650.6166666654942,-0.09261221,-0.48088712,-0.28667104,-2.061574,-0.1423545,1.6618466,0.7709711,0.04,0.03999936,-0.008639081750771993,0.020368998387476633,-0.044182029865869055,0.22390574417973375,-0.030937143737636168,-0.07059122917724633,0.9859174125991353,0.16400010145529706,0.03073628503718847,-0.01122956092602603
1650.6333333321609,-0.093606696,-0.4776367,-0.2897475,-2.0584192,-0.14387876,1.6628193,0.7708103,0.04,0.039999347,-0.008272360644490107,0.01900341483284107,-0.044450618868308034,0.22422360389859933,-0.030319107536308,-0.07181695742782035,0.9855836691644667,0.16591865584364857,0.0309176954147875,-0.011829067147591046
1650.6499999988275,-0.09460152,-0.4743853,-0.29282528,-2.0552635,-0.14540355,1.6637924,0.77064943,0.04,0.039999366,-0.00939111262434622,0.01765274135537842,-0.04517273509931918,0.2245068308277664,-0.029690926715834124,-0.07303285752040893,0.9852453227039507,0.1678392428626753,0.03109510293254104,-0.01243934157769382
1650.6666666654942,-0.09559655,-0.47113326,-0.2959038,-2.0521076,-0.14692858,1.6647656,0.77048856,0.04,0.039999366,-0.0098810180773512,0.01567465385987621,-0.04556431216089507,0.22475481208592307,-0.029052637602366344,-0.07424374922042455,0.9849024181841208,0.1697614730046762,0.031268173488906974,-0.013060255166777624
1650.6833333321608,-0.09659169,-0.46788102,-0.29898283,-2.0489514,-0.14845365,1.6657389,0.7703276,0.04,0.039999377,-0.008990981957346378,0.014637241013648605,-0.04573598138832846,0.2249680039294662,-0.02841079585446824,-0.07544230748235776,0.9845549612310949,0.17168509620589273,0.03143711051863899,-0.013691754389037865
1650.6999999988275,-0.097586796,-0.46462902,-0.30206192,-2.0457957,-0.14997853,1.6667122,0.7701667,0.04,0.03999938,-0.009328789882978583,0.012874129972284543,-0.04613860042403939,0.22514675327494055,-0.027761356906519513,-0.07663576308554865,0.9842029906309946,0.1736097688649651,0.0316016799746177,-0.014333708886458024
1650.7166666654941,-0.09858176,-0.46137765,-0.3051409,-2.0426404,-0.1515032,1.667685,0.7700059,0.04,0.039999396,-0.00857818398154464,0.01200967034220568,-0.04650731347213277,0.22529040682463353,-0.027106521716607376,-0.07781737048732142,0.9838464987812693,0.17553536061357833,0.03176193957460746,-0.014986100378614206
1650.7333333321608,-0.099576466,-0.4581272,-0.30821905,-2.0394862,-0.15302736,1.6686574,0.76984507,0.04,0.039999377,-0.008569918385736841,0.00983457346959149,-0.04635652905238263,0.22539741675188174,-0.026445610906994127,-0.07898788086327824,0.9834855617855213,0.17746131592579398,0.031917773189406605,-0.01564886142608317
1650.7499999988274,-0.10057075,-0.4548782,-0.31129625,-2.0363343,-0.15455079,1.6696295,0.7696844,0.04,0.039999384,-0.00998285385196418,0.008439696208994985,-0.046998833685063524,0.22547057683411248,-0.025780098184077397,-0.0801483309853192,0.9831202073580018,0.17938742920451187,0.032068814900523344,-0.016321741286759398
1650.766666665494,-0.10156456,-0.45163095,-0.31437197,-2.033184,-0.1560734,1.6706009,0.7695237,0.04,0.039999392,-0.008028063432830024,0.007209718523393249,-0.04668457456473707,0.2255080425399972,-0.025115603251340508,-0.08129377651699735,0.9827504645725993,0.1813133368378959,0.032215432166205385,-0.017004828649314768
1650.7833333321607,-0.102557704,-0.44838583,-0.3174459,-2.0300353,-0.15759495,1.671572,0.76936316,0.04,0.03999939,-0.00658499528265466,0.006077224596257036,-0.046361236043179765,0.2255114408678635,-0.024444741074404346,-0.08243047658350136,0.9823763294250061,0.18323886127201405,0.032358081972954714,-0.01769806871438241
1650.7999999988274,-0.10355009,-0.4451433,-0.32051778,-2.0268886,-0.15911525,1.672542,0.76920277,0.04,0.039999373,-0.007114965982779609,0.004509867108859478,-0.04709101962914186,0.2254791915539654,-0.023762917902203723,-0.08355666237553472,0.9819978567689095,0.18516369479519118,0.032496297754251266,-0.01840125167831316
1650.816666665494,-0.1045416,-0.44190377,-0.32358712,-2.0237458,-0.16063417,1.6735114,0.76904243,0.04,0.03999939,-0.008892898481205336,0.0025458922198406952,-0.047104322238955554,0.2254109194043833,-0.02307908789830246,-0.0846647432806294,0.9816151339479772,0.1870873508315988,0.03262971308856505,-0.019114229957467168
1650.8333333321607,-0.10553211,-0.4386677,-0.32665357,-2.0206053,-0.16215146,1.6744795,0.7688823,0.04,0.039999373,-0.005565072868529697,0.0015959309843660563,-0.047004847907983205,0.2253081402557392,-0.022395438617756988,-0.08575368072144252,0.9812281459048292,0.18900971309976283,0.03275894601090262,-0.01983697291350756
1650.8499999988273,-0.10652152,-0.43543524,-0.32971677,-2.0174694,-0.163667,1.6754466,0.7687223,0.04,0.03999937,-0.008673627909505655,-0.00034734359788402003,-0.047108295839404235,0.2251703199661997,-0.021701182088167608,-0.08683815304653958,0.9808369910311072,0.19093034850882942,0.032883191133028455,-0.020569267956083628
1650.866666665494,-0.10750967,-0.4322069,-0.33277637,-2.0143373,-0.16518052,1.6764125,0.76856256,0.04,0.03999938,-0.006369612613754683,-0.0015447928170653213,-0.046965339900117975,0.22499693812804875,-0.02101318594248236,-0.08789672605153305,0.9804416821255846,0.19284904614480225,0.033002931699424275,-0.02131102651299062
1650.8833333321606,-0.1084965,-0.42898327,-0.33583203,-2.0112097,-0.16669185,1.6773767,0.76840305,0.04,0.03999937,-0.006520497512330081,-0.003081564084006505,-0.0472927398566636,0.2247893525400467,-0.02031660895011304,-0.0889509105039864,0.9800422736440698,0.1947655130366119,0.03311801022845831,-0.022062053409767343
1650.8999999988273,-0.10948184,-0.4257646,-0.3388833,-2.008087,-0.16820085,1.6783395,0.7682439,0.04,0.039999362,-0.006187559523151975,-0.004622682715116344,-0.046898376844417555,0.22454573476851558,-0.019619787953114504,-0.08998335316880152,0.9796388159679184,0.1966794441280439,0.03322845727497386,-0.022822272752377498
1650.916666665494,-0.11046559,-0.42255124,-0.34192994,-2.0049694,-0.16970736,1.6793007,0.768085,0.04,0.039999366,-0.006104628927960931,-0.00590836123786076,-0.04685250983942346,0.22426707356757483,-0.018922248705337354,-0.09099818987429886,0.9792313686682877,0.1985905161475169,0.033334256516638294,-0.023591542017803953
1650.9333333321606,-0.11144762,-0.41934365,-0.3449715,-2.001858,-0.17121112,1.6802603,0.7679262,0.04,0.03999935,-0.006770219896701235,-0.007748091449433225,-0.046764661362130866,0.22395325094788654,-0.01822338194086697,-0.09199505183067058,0.9788200271687112,0.2004982867632025,0.03343519564434865,-0.02436963501344033
1650.9499999988273,-0.1124278,-0.41614223,-0.3480076,-1.9987531,-0.17271198,1.6812179,0.7677678,0.04,0.03999935,-0.006360870028299104,-0.009333425531143913,-0.04678439438934312,0.22360513821003003,-0.017528806704009685,-0.09296691271433971,0.9784048353052255,0.2024025570301899,0.03353117099694284,-0.025156385482992292
1650.966666665494,-0.11340603,-0.41294733,-0.35103792,-1.9956537,-0.17420974,1.6821736,0.76760966,0.04,0.03999934,-0.0039829460953377804,-0.010091653204491458,-0.04612244662913767,0.22322417817985638,-0.016829669858278933,-0.09393707853567737,0.9779858095147331,0.20430312155896266,0.033622852341759234,-0.02595177661510166
1650.9833333321606,-0.11438219,-0.40975934,-0.3540621,-1.9925612,-0.17570421,1.6831273,0.76745206,0.04,0.039999343,-0.005157841344427538,-0.011946325042200279,-0.04614685142891872,0.22280777476912383,-0.01612993495775228,-0.09487825550644967,0.9775630220111131,0.2061997215339172,0.033709844660562344,-0.026755545384007796
1650.9999999988272,-0.115356185,-0.4065786,-0.3570797,-1.9894757,-0.17719524,1.6840787,0.7672947,0.04,0.039999332,-0.004778953793493912,-0.013468143685502199,-0.045863196921036575,0.2223561419872434,-0.01543033070624137,-0.09580140225610424,0.9771365761847591,0.20809188802008222,0.03379211539675156,-0.027567563533555158
1651.0166666654939,-0.116327874,-0.4034056,-0.3600905,-1.9863977,-0.17868266,1.6850278,0.76713765,0.04,0.03999932,-0.004528473169251868,-0.014775552592838359,-0.045731705029261605,0.2218712800277167,-0.01473303119456944,-0.09670311345385176,0.9767065274667969,0.20997938711022507,0.033869725347689526,-0.028387636348194006
1651.0333333321605,-0.117297135,-0.40024066,-0.363094,-1.9833279,-0.18016624,1.6859744,0.766981,0.04,0.039999317,-0.00486659890945873,-0.016565318843841936,-0.04551327112030101,0.2213527498142232,-0.014035549678857291,-0.09758413793518231,0.97627295996425,0.21186191953071867,0.03394241742431319,-0.02921552660478572
1651.0499999988272,-0.11826384,-0.3970841,-0.36609,-1.9802665,-0.18164589,1.6869187,0.766825,0.04,0.03999931,-0.004490816260060981,-0.017624564920692976,-0.044881209145741785,0.22080082030658124,-0.013342305382422554,-0.09844465267677087,0.9758359044556284,0.21373934209267964,0.03401045519564455,-0.030051125676742813
1651.0666666654938,-0.1192279,-0.3939364,-0.36907804,-1.9772131,-0.1831213,1.6878601,0.76666945,0.04,0.039999302,-0.0030380112297834216,-0.019151156553198767,-0.04478877211970822,0.2202142066103986,-0.012650324707821708,-0.09928359619458985,0.975395453272894,0.2156112832849305,0.03407391622857367,-0.030894214468718345
1651.0833333321605,-0.120189205,-0.3907978,-0.37205786,-1.9741689,-0.18459238,1.6887988,0.7665142,0.04,0.039999302,-0.003962794085676791,-0.02052118557502869,-0.044363051830487166,0.219594551832627,-0.011959407281622834,-0.10010149352059589,0.9749517091235118,0.2174773788384802,0.034132600184877994,-0.03174460860219782
1651.0999999988271,-0.121147625,-0.38766897,-0.37502906,-1.9711343,-0.18605895,1.6897346,0.76635927,0.04,0.03999929,-0.0036683771396539555,-0.02215029192764728,-0.04420801726170431,0.2189419725933216,-0.011273434589221452,-0.10089612636676479,0.9745047556369387,0.21933733294463792,0.034186562802208956,-0.032602063454543605
1651.1166666654938,-0.12210304,-0.38455006,-0.37799126,-1.9681091,-0.1875208,1.6906676,0.76620513,0.04,0.039999284,-0.0026102807983097165,-0.02330085509079094,-0.04326070806521809,0.2182576720487398,-0.010589445686336693,-0.10166927934435405,0.9740546131070997,0.22119108028749015,0.034236117341377534,-0.033466475097010936
1651.1333333321604,-0.12305536,-0.38144144,-0.3809441,-1.9650942,-0.1889778,1.6915975,0.76605135,0.04,0.03999927,-0.003360521647355341,-0.024980579614863885,-0.04320880901356183,0.21753936900324353,-0.009908234221426235,-0.10241711439286386,0.9736014369953692,0.22303810481376588,0.03428085831736159,-0.03433756593966164
1651.149999998827,-0.12400446,-0.37834367,-0.3838873,-1.9620895,-0.19042975,1.692524,0.7658979,0.04,0.039999265,-0.0022291402591800846,-0.02617566730187537,-0.04281459124573228,0.21679015889307346,-0.009232610504382338,-0.10314278433785057,0.9731452946941358,0.2248781733932479,0.034321068049782584,-0.03521515063011909
1651.1666666654937,-0.124950245,-0.37525684,-0.38682047,-1.9590957,-0.19187646,1.6934471,0.7657454,0.04,0.039999254,-0.0027853712876169112,-0.027621500871743976,-0.04212924482971392,0.21600948882860702,-0.008560402183932095,-0.10384543043238281,0.9726862283378731,0.22671124652594393,0.03435658315134589,-0.03609899021662758
1651.1833333321604,-0.12589258,-0.37218156,-0.38974333,-1.9561131,-0.19331774,1.6943667,0.7655933,0.04,0.039999243,-0.002245532237354908,-0.0290203527240962,-0.04189798725422467,0.21519556660559222,-0.00789373660901042,-0.10452207126420254,0.9722243792273425,0.22853683151471899,0.03438748451120123,-0.03698883596726688
1651.199999998827,-0.12683131,-0.36911818,-0.39265543,-1.953142,-0.19475348,1.6952827,0.76544166,0.04,0.03999923,-0.0020112876384370537,-0.03053189726163197,-0.041142125039606015,0.21435103912873615,-0.00723335420317128,-0.10517637450486,0.9717598498603328,0.23035460789533696,0.034413830471977366,-0.03788452313353102
1651.2166666654937,-0.12776645,-0.36606687,-0.39555648,-1.9501827,-0.19618349,1.6961952,0.7652909,0.04,0.039999228,-0.0015839458612720847,-0.03146866608354504,-0.04040600552726037,0.21347630807797047,-0.006578348057850125,-0.10580409459311499,0.9712926602279284,0.2321645985292199,0.0344357861846929,-0.038785873806867904
1651.2333333321603,-0.12869777,-0.3630282,-0.3984462,-1.9472356,-0.19760755,1.6971041,0.7651406,0.04,0.039999217,-0.001572444181263677,-0.033039367853993085,-0.040066324276732956,0.21256951366113128,-0.005928694301218926,-0.10640688360162207,0.9708229777328894,0.23396626941118845,0.03445330044757792,-0.039692578297785004
1651.249999998827,-0.1296252,-0.3600024,-0.4013242,-1.9443017,-0.19902556,1.6980088,0.76499075,0.04,0.039999224,-0.0027294891758788964,-0.03472237293189462,-0.03980067908688767,0.2116335316528299,-0.005284941719386868,-0.106984466783616,0.9703509306618934,0.2357593342667376,0.03446587587750284,-0.04060432328827223
1651.2666666654936,-0.1305486,-0.3569898,-0.40419027,-1.9413803,-0.20043738,1.6989096,0.764842,0.04,0.03999921,-0.00034621517133182067,-0.03525177082641662,-0.03859627677960109,0.21066874325060297,-0.0046515471935301015,-0.10753829913569457,0.9698764895981027,0.23754392357201837,0.03447432314728263,-0.041521083107368614
1651.2833333321603,-0.13146795,-0.35399082,-0.407044,-1.9384713,-0.20184277,1.6998066,0.7646936,0.04,0.039999202,0.0003473939148346261,-0.03644242303004752,-0.03797883857403761,0.20967234624480238,-0.004023745266887986,-0.10806371321688259,0.969399817945192,0.23931951014716657,0.03447880886406174,-0.04244262916060056
1651.299999998827,-0.13238311,-0.35100588,-0.40988487,-1.9355769,-0.20324157,1.7006993,0.7645461,0.04,0.039999183,-0.002324861733926653,-0.03883843367653572,-0.03769171942697991,0.2086468388783158,-0.0033997808260455703,-0.1085620968768199,0.9689210679460772,0.2410858068811424,0.034478559047150616,-0.043368499821115195
1651.3166666654936,-0.13329396,-0.34803528,-0.41271284,-1.9326957,-0.20463364,1.7015879,0.7643993,0.04,0.03999919,0.0006488856775899166,-0.03891962423760997,-0.03673194236715194,0.20759340143058566,-0.0027871892468547413,-0.10903606224893254,0.9684402623504674,0.24284275163928618,0.03447440740355532,-0.04429866215803259
1651.3333333321602,-0.13420036,-0.34507933,-0.41552746,-1.9298292,-0.2060188,1.7024717,0.76425296,0.04,0.039999183,-0.0012755734148939268,-0.04102728259365307,-0.036486824986359245,0.20651042562948294,-0.002179019147095532,-0.10948114928301264,0.9679576105056737,0.24458983814963806,0.034465635680523236,-0.04523267950517157
1651.349999998827,-0.13510227,-0.3421384,-0.41832855,-1.9269778,-0.20739692,1.7033511,0.7641079,0.04,0.039999176,-0.0009902839336550784,-0.04183051667769888,-0.03569829338814223,0.2054010953032867,-0.0015828311660389988,-0.1099017317479081,0.9674730997108257,0.24632727381365319,0.03445251816000111,-0.046170331425005
1651.3666666654935,-0.1359995,-0.3392128,-0.4211156,-1.9241409,-0.2087678,1.7042259,0.76396316,0.04,0.039999187,0.0003270592137116779,-0.04317870624968023,-0.03455251979533891,0.20426149765823853,-0.0009975600238159043,-0.11029628364446242,0.9669869547871083,0.24805432031515834,0.03443533610127455,-0.047111474951778046
1651.3833333321602,-0.13689207,-0.33630282,-0.42388844,-1.921319,-0.21013133,1.7050962,0.7638192,0.04,0.03999918,0.0006789870521828334,-0.0438118613418359,-0.0338338953605799,0.20309710255564337,-0.00042042955028361983,-0.1106616464560495,0.9664991983642512,0.24977106047782277,0.03441432023476172,-0.04805592025778534
1651.3999999988268,-0.1377798,-0.33340883,-0.42664668,-1.9185128,-0.2114873,1.7059616,0.7636761,0.04,0.03999919,-0.00015770444870000233,-0.04561304097447927,-0.03339335132612753,0.20190501607425018,0.00014866012112208296,-0.11099951933869145,0.9660099834177422,0.25147720414967395,0.03438908698475762,-0.04900324914402481
1651.4166666654935,-0.1386626,-0.3305313,-0.42939004,-1.9157228,-0.2128356,1.7068219,0.76353383,0.04,0.039999183,-8.360756806879976e-05,-0.04671333926455912,-0.03273943833597137,0.20068662933052347,0.0007071661615235692,-0.1113105948988049,0.9655194237927438,0.2531725274875226,0.03435971378867234,-0.049953214840167785
1651.4333333321601,-0.13954037,-0.32767048,-0.43211827,-1.9129488,-0.21417604,1.7076774,0.76339245,0.04,0.0399992,0.0010194771882687803,-0.047489636253850165,-0.03164766578480638,0.19944228939137126,0.0012540362626594643,-0.1115950311149346,0.9650275978439797,0.2548568911005596,0.0343266007285779,-0.050905647431856306
1651.4499999988268,-0.140413,-0.3248267,-0.434831,-1.9101912,-0.21550846,1.7085277,0.7632518,0.04,0.039999202,0.0009986791078109292,-0.04876764071590767,-0.03085441399335309,0.19817175131677728,0.0017912417474810311,-0.11185152589852611,0.9645346580589643,0.2565299640396419,0.0342897080942227,-0.05186026293521702
1651.4666666654934,-0.1412804,-0.3220001,-0.43752798,-1.9074508,-0.21683277,1.7093728,0.763112,0.04,0.039999206,-0.00024273397092322568,-0.049988766347519586,-0.030229599410480645,0.19687628666908188,0.0023188806683750096,-0.1120782769351025,0.9640407244858177,0.25819159550479587,0.03424870553398541,-0.05281673705175313
1651.48333333216,-0.14214253,-0.3191912,-0.44020888,-1.9047276,-0.21814877,1.7102125,0.76297307,0.04,0.039999213,0.0009159915989709333,-0.050930595034959225,-0.02942100477942855,0.1955561820135862,0.0028317977928622173,-0.11227947729221555,0.9635459010015632,0.25984159302661436,0.0342039474575237,-0.05377483774777936
1651.4999999988268,-0.14299925,-0.31640026,-0.44287342,-1.9020215,-0.2194563,1.7110469,0.76283514,0.04,0.039999243,0.0015718061036729125,-0.051819204222991466,-0.028289461305708308,0.19421237347439727,0.0033362975724306365,-0.11245637727814384,0.9630502744502379,0.261479834254937,0.0341557273196978,-0.0547343717475067
1651.5166666654934,-0.14385043,-0.31362757,-0.44552124,-1.8993336,-0.22075531,1.7118759,0.76269794,0.04,0.039999254,0.0004292115039383759,-0.05324591374171739,-0.02761483852786739,0.19284367660475996,0.0038271186310595306,-0.11259944473322034,0.9625540478613004,0.2631058872793037,0.034103698786128886,-0.05569501552114569
1651.53333333216,-0.14469601,-0.3108735,-0.44815218,-1.8966637,-0.2220456,1.7126993,0.7625619,0.04,0.039999288,0.001327773990356107,-0.05388243603858811,-0.026876185197166613,0.19145267718216727,0.004306200933997538,-0.11271904824552327,0.9620572429418192,0.264719896999048,0.03404816669138202,-0.056656506960406604
1651.5499999988267,-0.14553595,-0.30813834,-0.45076594,-1.894012,-0.22332701,1.713517,0.7624266,0.04,0.03999931,0.0014634067753593882,-0.054863630644752526,-0.025984375805432336,0.19003756268557825,0.004771672588662578,-0.11280824035264367,0.9615600438024909,0.26632145083797837,0.03398918718157109,-0.05761859197205429
1651.5666666654934,-0.14637008,-0.30542222,-0.45336208,-1.8913789,-0.22459939,1.714329,0.76229244,0.04,0.039999336,0.0013214317296394995,-0.05605276452051999,-0.02466379608685454,0.18860820049566634,0.005268041444231591,-0.11293851380050018,0.9610625462784432,0.2679104568475155,0.03392684751109817,-0.058581040196547404
1651.58333333216,-0.1471983,-0.3027256,-0.45594057,-1.8887646,-0.22586259,1.7151352,0.762159,0.04,0.039999284,0.0016197585772648182,-0.05672243570982172,-0.024225145068945686,0.18714025988619934,0.005662132997674569,-0.11289422350167155,0.9605649024613029,0.2694866466126897,0.03386124091767645,-0.05954352878751973
1651.5999999988267,-0.14802061,-0.3000488,-0.45850098,-1.8861697,-0.22711657,1.7159355,0.7620267,0.04,0.039999377,0.0013512540190774303,-0.057822804245710735,-0.023322034125916602,0.18566053231499371,0.006095587598660043,-0.11290866384954137,0.9600671924646176,0.27105001433114323,0.03379233120663404,-0.060505818198048025
1651.6166666654933,-0.14883691,-0.29739204,-0.4610431,-1.8835939,-0.2283611,1.7167296,0.76189536,0.04,0.039999448,0.002048279496813521,-0.058515009900705905,-0.022363112347334457,0.18416831605632458,0.006565622306186094,-0.11297437470601575,0.9595695581993443,0.27260030808910535,0.033720356934122155,-0.06146765438078423
1651.63333333216,-0.14964706,-0.29475558,-0.46356672,-1.8810385,-0.22959606,1.7175176,0.76176506,0.04,0.039999392,0.00036962425480346894,-0.05975574207470746,-0.021706716118363723,0.18264302836551316,0.006953415831991511,-0.11289902742766529,0.9590721460879743,0.27413738345811467,0.033644931270005306,-0.06242861674570836
1651.6499999988266,-0.15045099,-0.2921397,-0.4660715,-1.8785025,-0.23082131,1.7182997,0.7616358,0.04,0.039999437,0.0030254853374600543,-0.060008861415195014,-0.020078413176483068,0.18110057479145822,0.007344593151754323,-0.11283161618215806,0.9585750297161467,0.27566109596311567,0.03356698526822348,-0.06338872200246047
1651.6666666654933,-0.1512486,-0.28954476,-0.4685572,-1.875987,-0.23203677,1.7190753,0.7615075,0.04,0.039999504,0.0010236280167497114,-0.06141864067912284,-0.019932029625002734,0.17953821767517159,0.0077280044807545994,-0.11273611045580598,0.9580783902775222,0.27717125054645814,0.033485826409807094,-0.06434745825125218
1651.68333333216,-0.15203983,-0.28697094,-0.47102356,-1.8734924,-0.23324229,1.7198449,0.7613804,0.04,0.039999552,0.0014944109949510676,-0.06201847629550006,-0.018430405803115946,0.1779557483589623,0.00808970725169298,-0.11260646517472062,0.9575823299591784,0.2786677095020474,0.03340190546665533,-0.06530468392106686
1651.6999999988266,-0.15282463,-0.28441852,-0.47347027,-1.8710182,-0.23443776,1.7206079,0.7612541,0.04,0.039999567,0.0021554757311026407,-0.06275531002073453,-0.017820342003238565,0.17635393190922344,0.008433370468882442,-0.11244373648911286,0.9570869995703125,0.2801502557654789,0.03331522133690993,-0.06626013488747358
1651.7166666654932,-0.15360291,-0.28188783,-0.47589725,-1.8685653,-0.23562305,1.7213641,0.7611291,0.04,0.03999963,0.0012201371868858502,-0.06355291238888672,-0.017198098837645226,0.1747355079381835,0.008769220580273991,-0.11226218791967432,0.956592468684434,0.2816189973576801,0.033225670540098305,-0.06721342128351857
1651.7333333321599,-0.15437451,-0.27937904,-0.4783042,-1.8661336,-0.23679806,1.7221144,0.76100516,0.04,0.03999972,0.002301291353479229,-0.06395996342596355,-0.015441593334797332,0.17309827043418696,0.009092116240003683,-0.11205973130003272,0.9560988825052004,0.28307361391593056,0.0331338930304524,-0.06816451503185735
1651.7499999988265,-0.1551395,-0.2768925,-0.48069087,-1.8637234,-0.23796266,1.7228572,0.76088226,0.04,0.03999976,0.001473641956062366,-0.06517160317989212,-0.01568973085412928,0.17144233444161613,0.0093949242491096,-0.11181616440500172,0.9556063933450396,0.2845140441019651,0.03303921800254667,-0.06911287709689481
1651.7666666654932,-0.15589766,-0.27442843,-0.48305696,-1.8613348,-0.23911671,1.7235938,0.76076055,0.04,0.039999805,0.0023367507141269783,-0.0655111502703365,-0.013559746792002336,0.1697692692749843,0.009680528041489712,-0.11154847886019889,0.9551150965878035,0.28594012086786724,0.03294248308043845,-0.07005849239482173
1651.7833333321598,-0.15664898,-0.2719869,-0.48540226,-1.8589686,-0.2402601,1.7243232,0.7606398,0.04,0.03999986,0.0006806896998057255,-0.06671976083276743,-0.013367025132371424,0.16807946919509312,0.009953552127184448,-0.11125149083820436,0.9546251958342353,0.28735162016421395,0.03284295381832971,-0.07100086092390896
1651.7999999988265,-0.1573934,-0.2695683,-0.48772654,-1.8566248,-0.2413927,1.7250463,0.76052034,0.04,0.03999996,0.0016883852643978514,-0.06680129954055314,-0.011809325761680256,0.16637514303045167,0.010211638932142053,-0.11093800899630124,0.954136729251,0.28874858806751513,0.032741436905952284,-0.071939926970729
1651.8166666654931,-0.15813082,-0.26717287,-0.4900297,-1.8543032,-0.24251445,1.7257622,0.76040184,0.04,0.04,0.0021608514441773252,-0.06741004006634022,-0.01143809383747918,0.16465428089113276,0.010454302058980795,-0.11059180681930225,0.9536498549697958,0.2901308446934897,0.03263781405800413,-0.07287537421547162
1651.8333333321598,-0.1588612,-0.26480085,-0.49231142,-1.8520044,-0.24362525,1.7264713,0.76028466,0.04,0.04,0.0015729362304650607,-0.06814489201762974,-0.010322309419219522,0.16291824190250387,0.010679166650934008,-0.11021689581786887,0.9531646714192653,0.29149837386154254,0.03253214860901847,-0.07380695428725668
1651.8499999988264,-0.15958445,-0.26245236,-0.49457148,-1.8497286,-0.24472494,1.7271732,0.76016873,0.04,0.04,0.001311047678420607,-0.06889061340626945,-0.009361024752752023,0.16116682817532738,0.01088821838065936,-0.10981431373235237,0.952681326796655,0.2928510248223316,0.032424414953755996,-0.07473435721528748
1651.866666665493,-0.16030052,-0.26012772,-0.49680972,-1.847476,-0.24581346,1.727868,0.76005375,0.04,0.04,0.0013434236799003685,-0.06928054479125034,-0.008596565362561925,0.15940086088152583,0.011080575075863089,-0.10938548172673407,0.9521999755790894,0.29418859494830146,0.032314739130349004,-0.07565735089509235
1651.8833333321597,-0.16100936,-0.25782704,-0.49902597,-1.8452468,-0.24689068,1.7285556,0.75994,0.04,0.04,0.0013168188931267366,-0.06972209437694499,-0.007564387390068816,0.15762030925435694,0.011246865201328598,-0.10891838310730087,0.9517206941392551,0.29551113866900025,0.03220324948701468,-0.0765757010553776
1651.8999999988264,-0.16171084,-0.25555068,-0.50122,-1.8430407,-0.24795656,1.7292358,0.7598275,0.04,0.04,0.0022056457900099247,-0.07019461929074211,-0.006672188705136861,0.15582577482768392,0.011394409722558368,-0.10842367852464883,0.9512436023186219,0.2968185410698822,0.032090223477224546,-0.07748922687844945
1651.916666665493,-0.16240498,-0.2532988,-0.5033916,-1.8408583,-0.24901088,1.7299086,0.75971615,0.04,0.04,0.001344475584064142,-0.07075137275547316,-0.005866295940015753,0.15401800358541737,0.01152900981451424,-0.10790391557210505,0.9507688320049373,0.29811073705466856,0.03197558688841533,-0.07839756618563387
1651.9333333321597,-0.16309166,-0.25107148,-0.5055405,-1.8386997,-0.2500536,1.730574,0.75960606,0.04,0.04,0.0015757380792180697,-0.07141102521333043,-0.004522889073066416,0.1521978608543036,0.011647877419557574,-0.10736172176480878,0.9502965220893866,0.29938755729111804,0.03185951171284582,-0.07930058106655063
1651.9499999988263,-0.16377087,-0.24886896,-0.5076668,-1.8365661,-0.2510847,1.731232,0.7594973,0.04,0.04,-0.0006004388082736511,-0.07164604378973038,-0.004474066348603145,0.1503654559158041,0.011750471503638445,-0.10679255014049713,0.9498267799247967,0.30064908571878396,0.03174157692933167,-0.0801978035122572
1651.966666665493,-0.1644425,-0.24669144,-0.5097702,-1.834456,-0.252104,1.7318827,0.75938964,0.04,0.04,0.0025386688191630924,-0.07168314639092177,-0.0027946507206388915,0.14852123487483262,0.011835148635753481,-0.10620428555415472,0.9493596983580346,0.30189515794627764,0.03162272072558751,-0.08108933515601771
1651.9833333321596,-0.16510653,-0.24453914,-0.5118503,-1.8323705,-0.25311148,1.7325258,0.75928324,0.04,0.04,0.0007185587025393403,-0.07276436347678494,-0.0020228958891976845,0.14666586669415968,0.011907390321805544,-0.10559016620200296,0.9488954527363868,0.3031256285914062,0.03150257670748455,-0.08197475665143222
1651.9999999988263,-0.16576289,-0.24241221,-0.51390713,-1.8303097,-0.2541071,1.7331616,0.7591781,0.04,0.04,0.0008757849101925785,-0.07267989819221832,-0.0012438553459226398,0.14479978364716656,0.011962380695159536,-0.10495361196491254,0.9484341256571455,0.30434051556553526,0.03138135035872799,-0.08285391194103645
1652.016666665493,-0.16641155,-0.2403108,-0.5159405,-1.8282737,-0.2550907,1.7337896,0.7590742,0.04,0.04,0.0009527486791505169,-0.07312917846460376,-0.0004695707562785145,0.14292382384493768,0.012003501398729726,-0.1042942567207509,0.9479758338270241,0.30553977643888736,0.0312590701919822,-0.08372654312920114
1652.0333333321596,-0.16705248,-0.23823509,-0.51795024,-1.8262624,-0.25606233,1.7344099,0.7589716,0.04,0.04,0.0009771523622248424,-0.0732809272883106,0.00041935740480170125,0.14103814415445698,0.01202849718214227,-0.1036131857226977,0.9475206812793757,0.3067233701496287,0.03113591405373591,-0.08459247961822475
1652.0499999988263,-0.16768552,-0.23618515,-0.5199361,-1.8242766,-0.25702178,1.7350225,0.7588703,0.04,0.04,-0.0002376378649859845,-0.0742249891611868,0.001514032131666454,0.13914308566320543,0.012037422799326425,-0.10290748729633693,0.947068835886421,0.307891147889699,0.031011678431048555,-0.08545137181340191
1652.066666665493,-0.16831072,-0.2341612,-0.5218981,-1.8223157,-0.25796896,1.735627,0.7587702,0.04,0.04,0.0008744961387030514,-0.07393336775656234,0.001935337696301609,0.13723898238579962,0.012029810075962353,-0.10218234325108146,0.9466203607594317,0.3090431883362996,0.030886661177982316,-0.08630303876396471
1652.0833333321596,-0.16892809,-0.23216337,-0.5238357,-1.8203799,-0.25890392,1.7362238,0.75867146,0.04,0.04,0.0010524368320830035,-0.07441336705107382,0.0033946640130899652,0.1353280646961199,0.012012442079302391,-0.10144596151205688,0.946175383516288,0.3101793343754829,0.030761148002045817,-0.08714743787274529
1652.0999999988262,-0.16953747,-0.23019186,-0.5257493,-1.8184695,-0.2598265,1.7368128,0.75857395,0.04,0.04,0.0002794820319174107,-0.07429051167000544,0.003656363129267426,0.13340675848505268,0.01196971697572241,-0.1006696024809697,0.9457339914347542,0.31129967188685564,0.03063510621426363,-0.08798421446637418
1652.1166666654929,-0.17013888,-0.22824672,-0.5276388,-1.816585,-0.26073676,1.7373939,0.7584778,0.04,0.04,-0.0002248470829524507,-0.07448252651622855,0.004241289501405454,0.13147724524725826,0.011907605829979425,-0.09986831625595287,0.9452962735267332,0.3124042475660026,0.03050843155612928,-0.0888131576016548
1652.1333333321595,-0.17073224,-0.22632809,-0.5295035,-1.8147264,-0.2616345,1.737967,0.75838304,0.04,0.04,-0.0003772329764561988,-0.07543065778632396,0.00584571807380474,0.1295407191192413,0.011835800787313677,-0.09905627361324686,0.9448624153027947,0.3134927887139313,0.030381287580285254,-0.08963406125740038
1652.1499999988262,-0.17131752,-0.22443606,-0.5313439,-1.8128936,-0.2625197,1.7385324,0.75828946,0.04,0.04,-0.00019338024181969615,-0.07475366020712748,0.006137976868170192,0.1275981369646236,0.01174924935739229,-0.0982267258976039,0.944432467044328,0.31456541372711677,0.030253886160745955,-0.09044676915968146
1652.1666666654928,-0.17189474,-0.22257079,-0.5331594,-1.8110868,-0.26339236,1.7390897,0.75819737,0.04,0.04,-8.307035499477422e-05,-0.0753461134723743,0.007065073663703458,0.12564970884363721,0.011647716050749289,-0.09737693722382755,0.9440065209026018,0.3156221320308546,0.030126254889482736,-0.0912511207163913
1652.1833333321595,-0.17246379,-0.22073236,-0.53494996,-1.8093058,-0.2642524,1.7396389,0.7581065,0.04,0.04,-9.015261976941247e-05,-0.07550431287495218,0.0079931681267853,0.12369460867777131,0.011532872150478914,-0.0965100969540382,0.9435847199912861,0.31666279995714125,0.02999852910815975,-0.09204692050045161
1652.1999999988261,-0.17302471,-0.21892087,-0.5367157,-1.8075511,-0.26509988,1.7401801,0.75801694,0.04,0.04,-0.0008699783233812042,-0.07530303674319061,0.008332610552352904,0.12173461783442294,0.011403185704663664,-0.0956239535727284,0.9431671429731642,0.31768747923100027,0.02987065452167326,-0.09283399137244228
1652.2166666654928,-0.1735774,-0.2171364,-0.5384564,-1.8058226,-0.2659346,1.7407129,0.7579288,0.04,0.04,-0.0006289958498051362,-0.07574650260822047,0.009212559836790923,0.11977016776142352,0.01125708053139924,-0.0947195814670388,0.9427538768510608,0.31869622390804236,0.029742698091102384,-0.09361205295960129
1652.2333333321594,-0.17412183,-0.21537909,-0.5401719,-1.8041204,-0.26675662,1.7412379,0.757842,0.04,0.04,-0.0006340011415861824,-0.07552950647995438,0.010242477421207319,0.11780061562413509,0.011096824405347936,-0.09379921801308164,0.9423450210173107,0.3196889412207118,0.029615019702375463,-0.09438110421632359
1652.249999998826,-0.17465803,-0.21364895,-0.54186237,-1.8024449,-0.26756594,1.7417548,0.7577564,0.04,0.04,-0.0015706268082116281,-0.07555766625666482,0.010477904270622673,0.11582682725899547,0.01092305861972439,-0.09286024565130478,0.941940691255134,0.3206656319471717,0.02948736281757597,-0.09514085389455883
1652.2666666654927,-0.1751859,-0.2119461,-0.5435278,-1.800796,-0.26836258,1.7422634,0.7576722,0.04,0.04,-0.0013465697716874558,-0.07540473000260395,0.01098766534477491,0.11385004031395991,0.010733829988104637,-0.09190712281928934,0.9415409292579259,0.3216264270912301,0.02935986614766763,-0.09589117888754024
1652.2833333321594,-0.17570558,-0.21027051,-0.5451675,-1.7991732,-0.26914626,1.7427641,0.75758946,0.04,0.04,-0.0004678989967477065,-0.07579890868349981,0.012723947052784013,0.11186974004629921,0.010531039033900343,-0.09093899746143869,0.9411458364992871,0.3225712353315772,0.029233003811789945,-0.09663200331596858
1652.299999998826,-0.1762169,-0.20862237,-0.54678166,-1.7975769,-0.26991713,1.7432561,0.75750804,0.04,0.04,-0.0012579197415707455,-0.07604152504949724,0.01269432055812647,0.10988556550722861,0.010315116257127378,-0.08995190988395473,0.9407555462224517,0.323500007813389,0.029106414277988324,-0.0973630517409557
1652.3166666654927,-0.17671986,-0.20700161,-0.54837036,-1.7960067,-0.27067512,1.7437403,0.7574278,0.03999998,0.04,-0.0004980836423307267,-0.07517026362588997,0.013798059824310371,0.10789917973153006,0.010083359634270692,-0.08894962850979377,0.9403700952142502,0.32441277872641366,0.028980744704159785,-0.09808439968792922
1652.3333333321593,-0.17721446,-0.20540835,-0.54993373,-1.7944636,-0.27142027,1.7442162,0.7573491,0.039999954,0.04,-0.0026709268452940194,-0.07552040079894518,0.013541581947573711,0.10591273108319788,0.009844122953970826,-0.08793300388329599,0.9399895566763488,0.3253097433451528,0.028855355553912092,-0.0987956106310867
1652.349999998826,-0.1777007,-0.20384255,-0.5514711,-1.7929472,-0.27215257,1.7446841,0.7572718,0.03999993,0.04,-0.0014840315280650884,-0.07581883216016827,0.015394252686196097,0.10392313441981386,0.00958790629086288,-0.08690412545972609,0.9396140552476633,0.3261906758999206,0.02873078193565504,-0.09949679545774252
1652.3666666654926,-0.1781785,-0.20230433,-0.552983,-1.7914569,-0.27287206,1.7451434,0.7571958,0.03999991,0.04,-0.0011590862026178428,-0.07514609237468939,0.01500062357369103,0.10193325868074027,0.00932064844718711,-0.08586050391377117,0.9392436309555628,0.32705573511113895,0.02860698985105404,-0.10018776358410593
1652.3833333321593,-0.17864795,-0.20079365,-0.554469,-1.7899939,-0.27357864,1.7455945,0.7571211,0.0399999,0.04,-0.002859186335690822,-0.07565870540291453,0.016025387228024712,0.09994325904623773,0.009041803469443303,-0.08480491659503428,0.9388784170329249,0.3279048375087105,0.028483805362437966,-0.10086827251524669
1652.399999998826,-0.179109,-0.19931051,-0.55592924,-1.7885579,-0.27427232,1.7460375,0.7570478,0.039999872,0.04,-0.0027700260541330124,-0.07523493628291966,0.016517685789341208,0.09795317702110483,0.00875021374494172,-0.08373947979814497,0.9385184560625714,0.3287380789558902,0.028361399822634494,-0.10153823946877642
1652.4166666654926,-0.17956159,-0.19785492,-0.55736375,-1.787149,-0.2749531,1.7464722,0.7569758,0.039999854,0.04,-0.002939546191260689,-0.07519945158533936,0.017086104457075812,0.09596441617470529,0.008446693850399154,-0.08266280321677862,0.9381638279476696,0.32955547509499283,0.028239796793094688,-0.10219752757563842
1652.4333333321592,-0.18000576,-0.1964269,-0.55877256,-1.7857658,-0.27562094,1.7468985,0.7569054,0.03999983,0.04,-0.0008196129998694346,-0.07437187204224482,0.01753095801086957,0.09397646040994248,0.00813079499625635,-0.08157776023006832,0.9378144774308435,0.33035731137725177,0.02811955530184458,-0.10284621213410793
1652.449999998826,-0.1804415,-0.19502641,-0.56015545,-1.7844095,-0.276276,1.7473165,0.7568361,0.039999805,0.04,-0.0030257362967134327,-0.07492869726977158,0.01819601900774348,0.09198896493076987,0.007807079958775511,-0.0804803728757843,0.9374706251074751,0.3311432640737554,0.028000216248125438,-0.10348407418166865
1652.4666666654925,-0.18086882,-0.19365343,-0.5615126,-1.7830803,-0.2769182,1.7477264,0.7567683,0.03999979,0.04,-0.00333264446799042,-0.07440248844385877,0.01862338321336754,0.09000385456737557,0.007469959962179245,-0.07937368881087947,0.9371322660445436,0.3319135598763503,0.02788195141740015,-0.10411100563141608
1652.4833333321592,-0.1812877,-0.19230798,-0.56284404,-1.7817779,-0.27754748,1.7481283,0.75670207,0.03999978,0.04,-0.002882778379209583,-0.07408470008323231,0.01906303055929648,0.08802080114046315,0.007121050541343462,-0.07825826951372758,0.9367994042251275,0.33266839297309225,0.027764959494868163,-0.10472690000374715
1652.4999999988258,-0.18169822,-0.19098999,-0.5641494,-1.7805018,-0.27816403,1.7485219,0.75663686,0.03999976,0.04,-0.0026104292791373496,-0.07421465846528807,0.01998124342403873,0.086039658538251,0.006766152737438866,-0.07713708165609631,0.9364722349174214,0.3334073748728061,0.027649279349029818,-0.10533182311473271
1652.5166666654925,-0.18210034,-0.18969938,-0.56542885,-1.7792524,-0.2787676,1.7489073,0.75657296,0.039999742,0.04,-0.0031647255284372733,-0.07389218760467386,0.020249145107276156,0.08406334234788139,0.006398746819820101,-0.07600443633148443,0.9361507464889478,0.3341308026246017,0.027534931098266158,-0.10592551229538048
1652.5333333321591,-0.182494,-0.18843615,-0.5666825,-1.7780296,-0.27935836,1.7492845,0.7565106,0.039999727,0.04,-0.0033160769594253736,-0.07360564900722455,0.020629500198898754,0.08209122826349945,0.006023268118805314,-0.07486609184442404,0.9358349538731557,0.33483881361252416,0.027421940033447046,-0.10650795844718763
1652.5499999988258,-0.1828793,-0.18720017,-0.5679104,-1.776833,-0.2799364,1.7496533,0.7564498,0.03999971,0.04,-0.0032447180750239113,-0.07318666512583505,0.020939963895649782,0.0801228596494267,0.005639331244802507,-0.07372232646288299,0.9355248822932983,0.3355315184595057,0.02731034096956507,-0.10707912964950164
1652.5666666654924,-0.18325616,-0.18599147,-0.56911254,-1.7756629,-0.28050163,1.7500141,0.7563899,0.039999686,0.04,-0.0033015327367991176,-0.07287853840829417,0.0214557304169416,0.0781583509667934,0.005245695833950119,-0.07257275971457584,0.9352206870713039,0.3362086717061404,0.0272002854576069,-0.10763893354402805
1652.583333332159,-0.18362464,-0.1848099,-0.5702891,-1.7745188,-0.2810542,1.750367,0.75633144,0.039999668,0.04,-0.003058766669949975,-0.07221560760803936,0.02198407544746761,0.07620144135053407,0.004843848077382979,-0.07141723119212048,0.9349222929365009,0.33687060085083187,0.027092029557953635,-0.10818745947283331
1652.5999999988258,-0.18398477,-0.18365541,-0.57144,-1.7734011,-0.28159425,1.7507119,0.7562747,0.039999653,0.04,-0.003814527016654523,-0.07214631397041149,0.022024897740013927,0.0742492827908695,0.004433699420486591,-0.070253493571206,0.9346297109405081,0.33751749924339947,0.026985317917214237,-0.10872457748205275
