rsonawane2002/My_IMU/logs_2/traj_400/imu_400hz_400.csv
time,j1,j2,j3,j4,j5,j6,j7,gripper1,gripper2,imu_ax,imu_ay,imu_az,imu_gx,imu_gy,imu_gz
0.0,0.00016700293,-0.785875,4.0107683e-05,-2.3551247,9.29385e-05,1.570997,0.786,0.04,0.04,-9.464946,0.015770923346281,0.118966304,-1.6831493e-07,-0.0011641276068985,2.4808114e-07
0.0025,0.0001670029705,-0.7858577740000002,4.010722805000001e-05,-2.35513919,9.294309149999994e-05,1.570996565,0.786,0.04,0.04,-9.520382699999294,0.013497191225207442,0.10248311555020988,-6.535651550131097e-08,-0.0013254035962724515,3.779427339983465e-07
0.005,0.000167003011,-0.7858405480000005,4.010677310000001e-05,-2.35515368,9.294768299999989e-05,1.57099613,0.786,0.04,0.04,-9.575819399998588,0.011223459104133882,0.08599992710041976,3.760189899737806e-08,-0.001486679585646403,5.07804327996693e-07
0.0075,0.0001670030515,-0.7858233220000007,4.0106318150000016e-05,-2.35516817,9.295227449999983e-05,1.5709956950000001,0.786,0.04,0.04,-9.631256099997882,0.008949726983060324,0.06951673865062963,1.4056031349606708e-07,-0.0016479555750203542,6.376659219950395e-07
0.01,0.000167003092,-0.785806096000001,4.010586320000002e-05,-2.3551826599999997,9.295686599999977e-05,1.5709952600000001,0.786,0.04,0.04,-9.686692799997177,0.006675994861986764,0.05303355020083951,2.435187279947561e-07,-0.0018092315643943057,7.67527515993386e-07
0.0125,0.0001670031325,-0.7857888700000011,4.010540825000003e-05,-2.355197149999999,9.296145749999971e-05,1.570994825,0.786,0.04,0.04,-9.742129499996471,0.004402262740913206,0.03655036175104939,3.4647714249344516e-07,-0.001970507553768257,8.973891099917325e-07
0.015,0.000167003173,-0.7857716440000013,4.0104953300000037e-05,-2.355211639999999,9.296604899999966e-05,1.57099439,0.786,0.04,0.04,-9.797566199995766,0.0021285306198396484,0.020067173301259275,4.4943555699213414e-07,-0.0021317835431422087,1.027250703990079e-06
0.0175,0.00016700228050000023,-0.7857548570000014,4.0101036700000916e-05,-2.355225734999999,9.296879900000008e-05,1.57099396,0.786,0.04,0.04,-9.834419100000027,0.0006070961826494793,0.00900874615001767,7.120002599507918e-07,-0.00228881704386923,1.1772874299838967e-06
0.02,0.00016699952200000022,-0.7857389480000013,4.009019680000091e-05,-2.355239039999999,9.296786600000008e-05,1.5709935400000001,0.786,0.04,0.04,-9.834104400000026,0.0005902571138008291,0.00879984160001748,1.2937775399513207e-06,-0.0024373655672991503,1.3676744199840696e-06
0.0225,0.00016699676350000024,-0.7857230390000014,4.00793569000009e-05,-2.355252344999999,9.296693300000008e-05,1.57099312,0.786,0.04,0.04,-9.833789700000025,0.0005734180449521787,0.00859093705001729,1.8755548199518495e-06,-0.0025859140907290704,1.5580614099842428e-06
0.025,0.00016699400500000023,-0.7857071300000014,4.0068517000000885e-05,-2.355265649999999,9.296600000000009e-05,1.5709927000000001,0.786,0.04,0.04,-9.833475000000027,0.0005565789761035284,0.0083820325000171,2.4573320999523787e-06,-0.0027344626141589906,1.7484483999844162e-06
0.0275,0.00016699124650000022,-0.7856912210000013,4.005767710000088e-05,-2.355278954999999,9.296506700000007e-05,1.57099228,0.786,0.04,0.04,-9.833160300000026,0.000539739907254878,0.00817312795001691,3.0391093799529075e-06,-0.0028830111375889107,1.938835389984589e-06
0.03,0.0001669884880000002,-0.7856753120000013,4.004683720000087e-05,-2.355292259999999,9.296413400000007e-05,1.5709918600000001,0.786,0.04,0.04,-9.832845600000025,0.0005229008384062278,0.00796422340001672,3.6208866599534363e-06,-0.0030315596610188305,2.129222379984762e-06
0.0325,0.00016698572950000023,-0.7856594030000013,4.003599730000086e-05,-2.3553055649999988,9.296320100000008e-05,1.57099144,0.786,0.04,0.04,-9.832530900000025,0.0005060617695575774,0.00775531885001653,4.202663939953966e-06,-0.003180108184448751,2.3196093699849356e-06
0.035,0.00016697775700000083,-0.7856443340000012,4.000689420000299e-05,-2.355318099999999,9.295285000000118e-05,1.57099101,0.786,0.04,0.04,-9.832270600000019,0.0004784605349439697,0.007557786300015005,5.444345129877074e-06,-0.0033211222151186552,2.643708929969421e-06
0.0375,0.00016696717750000082,-0.7856296850000012,3.9968659500002956e-05,-2.355330249999999,9.293779000000116e-05,1.570990575,0.786,0.04,0.04,-9.832037500000018,0.00044547821744597477,0.007365939750014832,7.015978274878501e-06,-0.003458368999407215,3.034664774969776e-06
0.04,0.00016695659800000081,-0.7856150360000012,3.993042480000292e-05,-2.355342399999999,9.292273000000115e-05,1.5709901400000001,0.786,0.04,0.04,-9.831804400000017,0.00041249589994797977,0.007174093200014657,8.587611419879933e-06,-0.003595615783695775,3.425620619970132e-06
0.0425,0.0001669460185000008,-0.7856003870000011,3.989219010000289e-05,-2.355354549999999,9.290767000000114e-05,1.5709897050000001,0.786,0.04,0.04,-9.831571300000018,0.0003795135824499847,0.0069822466500144825,1.0159244564881363e-05,-0.003732862567984335,3.816576464970488e-06
0.045,0.0001669354390000008,-0.7855857380000011,3.985395540000285e-05,-2.355366699999999,9.289261000000112e-05,1.57098927,0.786,0.04,0.04,-9.831338200000017,0.0003465312649519898,0.006790400100014308,1.1730877709882789e-05,-0.003870109352272894,4.207532309970843e-06
0.0475,0.00016692485950000076,-0.785571089000001,3.9815720700002814e-05,-2.3553788499999992,9.287755000000111e-05,1.570988835,0.786,0.04,0.04,-9.831105100000016,0.0003135489474539948,0.006598553550014133,1.3302510854884222e-05,-0.004007356136561454,4.598488154971199e-06
0.05,0.00016691428000000075,-0.7855564400000011,3.977748600000278e-05,-2.355390999999999,9.28624900000011e-05,1.5709884,0.786,0.04,0.04,-9.830872000000017,0.0002805666299559998,0.006406707000013959,1.4874143999885651e-05,-0.004144602920850014,4.989443999971555e-06
0.0525,0.00016688837200000184,-0.785542874000001,3.968747220000647e-05,-2.355402024999999,9.282116275000297e-05,1.5709879800000002,0.786,0.04,0.04,-9.830612875000018,0.00023354856239496936,0.006258216660010669,1.7839235999786956e-05,-0.004271276039062228,5.6698565999511125e-06
0.055,0.00016686246400000182,-0.785529308000001,3.959745840000638e-05,-2.3554130499999992,9.277983550000294e-05,1.57098756,0.786,0.04,0.04,-9.830353750000018,0.0001865304948329176,0.006109726320010534,2.0804327999789655e-05,-0.004397949157273674,6.350269199951732e-06
0.0575,0.0001668365560000018,-0.785515742000001,3.95074446000063e-05,-2.3554240749999993,9.27385082500029e-05,1.57098714,0.786,0.04,0.04,-9.830094625000017,0.00013951242727086585,0.005961235980010399,2.3769419999792356e-05,-0.004524622275485119,7.0306817999523505e-06
0.06,0.00016681064800000179,-0.7855021760000009,3.941743080000622e-05,-2.3554350999999993,9.269718100000287e-05,1.57098672,0.786,0.04,0.04,-9.829835500000017,9.249435970881421e-05,0.005812745640010264,2.6734511999795048e-05,-0.004651295393696565,7.711094399952967e-06
0.0625,0.00016678474000000177,-0.7854886100000009,3.932741700000614e-05,-2.3554461249999994,9.265585375000282e-05,1.5709863,0.786,0.04,0.04,-9.829576375000018,4.547629214676245e-05,0.005664255300010129,2.9699603999797746e-05,-0.0047779685119080095,8.391506999953588e-06
0.065,0.00016675883200000175,-0.7854750440000009,3.9237403200006054e-05,-2.3554571499999994,9.261452650000278e-05,1.57098588,0.786,0.04,0.04,-9.829317250000017,-1.5417754152893012e-06,0.005515764960009994,3.266469599980045e-05,-0.004904641630119454,9.071919599954208e-06
0.0675,0.00016672456300000337,-0.7854618100000008,3.911976780001148e-05,-2.3554678349999993,9.25593407500055e-05,1.570985455,0.786,0.04,0.04,-9.829077075000013,-5.2945490456844925e-05,0.005370499895009216,3.621357129968687e-05,-0.005028057331211509,9.87542239993031e-06
0.07,0.00016667357200000335,-0.7854492400000008,3.894688920001132e-05,-2.3554778399999994,9.247643800000543e-05,1.57098502,0.786,0.04,0.04,-9.828874800000014,-0.00011312050046004076,0.00523168538000909,4.0930013199691167e-05,-0.0051449581980628255,1.0925105599931266e-05
0.0725,0.0001666225810000033,-0.7854366700000008,3.877401060001116e-05,-2.3554878449999994,9.239353525000535e-05,1.570984585,0.786,0.04,0.04,-9.828672525000012,-0.00017329551046323626,0.005092870865008964,4.564645509969543e-05,-0.005261859064914141,1.1974788799932216e-05
0.075,0.00016657159000000324,-0.7854241000000008,3.8601132000011004e-05,-2.3554978499999994,9.231063250000528e-05,1.5709841500000001,0.786,0.04,0.04,-9.828470250000013,-0.00023347052046643208,0.004954056350008838,5.036289699969973e-05,-0.005378759931765458,1.3024471999933171e-05
0.0775,0.00016652059900000322,-0.7854115300000009,3.8428253400010846e-05,-2.3555078549999995,9.22277297500052e-05,1.5709837150000001,0.786,0.04,0.04,-9.828267975000012,-0.0002936455304696279,0.004815241835008711,5.5079338899704014e-05,-0.005495660798616774,1.4074155199934126e-05
0.08,0.00016646960800000316,-0.7853989600000008,3.8255374800010694e-05,-2.3555178599999995,9.214482700000513e-05,1.57098328,0.786,0.04,0.04,-9.828065700000012,-0.00035382054047282375,0.004676427320008585,5.9795780799708315e-05,-0.00561256166546809,1.5123838399935083e-05
0.0825,0.0001664186170000031,-0.7853863900000008,3.8082496200010536e-05,-2.3555278649999996,9.206192425000505e-05,1.570982845,0.786,0.04,0.04,-9.827863425000011,-0.00041399555047601954,0.004537612805008458,6.45122226997126e-05,-0.005729462532319407,1.6173521599936036e-05
0.085,0.0001663430740000053,-0.7853744000000007,3.7829660000017576e-05,-2.3555371099999998,9.193903060000857e-05,1.57098271,0.786,0.04,0.04,-9.827662500000011,-0.0004807636898434044,0.004419976100006426,7.063547739959023e-05,-0.005840819235884532,1.751767739991048e-05
0.08750000000000001,0.00016625525500000522,-0.7853627000000007,3.753684500001731e-05,-2.3555459749999996,9.179614150000845e-05,1.570982725,0.786,0.04,0.04,-9.82746225000001,-0.0005508283938937832,0.004312928300006328,7.746213849959645e-05,-0.005949403857805806,1.9009069499911838e-05
0.09,0.0001661674360000051,-0.7853510000000007,3.724403000001705e-05,-2.3555548399999995,9.165325240000832e-05,1.57098274,0.786,0.04,0.04,-9.827262000000012,-0.0006208930979441616,0.004205880500006231,8.428879959960263e-05,-0.0060579884797270795,2.0500461599913187e-05
0.0925,0.00016607961700000504,-0.7853393000000007,3.695121500001678e-05,-2.3555637049999993,9.151036330000818e-05,1.570982755,0.786,0.04,0.04,-9.827061750000011,-0.0006909578019945404,0.004098832700006134,9.111546069960884e-05,-0.006166573101648353,2.1991853699914546e-05
0.095,0.00016599179800000496,-0.7853276000000007,3.6658400000016515e-05,-2.355572569999999,9.136747420000806e-05,1.5709827699999999,0.786,0.04,0.04,-9.82686150000001,-0.0007610225060449192,0.003991784900006036,9.794212179961506e-05,-0.006275157723569627,2.34832457999159e-05
0.0975,0.00016590397900000488,-0.7853159000000006,3.6365585000016245e-05,-2.3555814349999995,9.122458510000793e-05,1.570982785,0.786,0.04,0.04,-9.826661250000011,-0.000831087210095298,0.0038847371000059385,0.00010476878289962128,-0.006383742345490901,2.497463789991726e-05
0.1,0.0001658161600000048,-0.7853042000000007,3.607277000001598e-05,-2.3555902999999994,9.10816960000078e-05,1.5709828,0.786,0.04,0.04,-9.82646100000001,-0.0009011519141456767,0.0037776893000058412,0.00011159544399962749,-0.006492326967412175,2.646602999991862e-05
0.10250000000000001,0.00016567795750000743,-0.7852932545000005,3.5617611500024426e-05,-2.3555985649999993,9.085774960001201e-05,1.57098289,0.786,0.04,0.04,-9.82627515000001,-0.0009841024759180742,0.003671704535005687,0.00012081143439950551,-0.0065902250120362825,2.846147099989293e-05
0.105,0.00016553975500000728,-0.7852823090000006,3.5162453000024014e-05,-2.3556068299999993,9.063380320001182e-05,1.57098298,0.786,0.04,0.04,-9.82608930000001,-0.001067053037691174,0.0035657197700055907,0.00013002742479951385,-0.006688123056659806,3.0456911999894737e-05
0.1075,0.00016540155250000717,-0.7852713635000006,3.4707294500023595e-05,-2.355615094999999,9.040985680001162e-05,1.57098307,0.786,0.04,0.04,-9.825903450000009,-0.0011500035994642748,0.0034597350050054945,0.00013924341519952225,-0.0067860211012833295,3.245235299989655e-05
0.11,0.00016526335000000705,-0.7852604180000006,3.4252136000023184e-05,-2.355623359999999,9.01859104000114e-05,1.57098316,0.786,0.04,0.04,-9.82571760000001,-0.001232954161237375,0.003353750240005398,0.00014845940559953062,-0.006883919145906854,3.444779399989837e-05
0.1125,0.0001651251475000069,-0.7852494725000005,3.3796977500022765e-05,-2.3556316249999996,8.99619640000112e-05,1.57098325,0.786,0.04,0.04,-9.825531750000009,-0.0013159047230104758,0.0032477654750053013,0.000157675395999539,-0.0069818171905303775,3.6443234999900185e-05
0.115,0.0001649869450000068,-0.7852385270000005,3.334181900002235e-05,-2.3556398899999995,8.973801760001101e-05,1.57098334,0.786,0.04,0.04,-9.82534590000001,-0.0013988552847835761,0.0031417807100052046,0.0001668913863995474,-0.007079715235153902,3.8438675999902005e-05
0.11750000000000001,0.00016482689250000982,-0.7852277835000004,3.281680065003204e-05,-2.3556478799999994,8.947922700001585e-05,1.57098343,0.786,0.04,0.04,-9.825181400000005,-0.0014831827022092625,0.0030492775950031587,0.00017699910849942684,-0.007175772171463002,4.0622425999876594e-05
0.12,0.00016462314000000963,-0.7852174440000005,3.2152062600031434e-05,-2.3556553199999994,8.915074800001554e-05,1.57098352,0.786,0.04,0.04,-9.825059600000007,-0.0015702638309407215,0.0029837377800030996,0.0001888902939994376,-0.007268146891142451,4.318279399987891e-05
0.1225,0.00016441938750000944,-0.7852071045000004,3.148732455003083e-05,-2.3556627599999995,8.882226900001524e-05,1.57098361,0.786,0.04,0.04,-9.824937800000006,-0.0016573449596721807,0.00291819796500304,0.00020078147949944842,-0.0073605216108219,4.574316199988124e-05
0.125,0.00016421563500000925,-0.7851967650000005,3.082258650003023e-05,-2.3556701999999996,8.849379000001494e-05,1.5709837,0.786,0.04,0.04,-9.824816000000006,-0.00174442608840364,0.00285265815000298,0.00021267266499945924,-0.007452896330501349,4.830352999988357e-05
0.1275,0.00016401188250000906,-0.7851864255000004,3.0157848450029624e-05,-2.3556776399999997,8.816531100001463e-05,1.5709837899999999,0.786,0.04,0.04,-9.824694200000005,-0.0018315072171350994,0.0027871183350029207,0.00022456385049947006,-0.007545271050180798,5.0863897999885895e-05
0.13,0.0001638081300000089,-0.7851760860000004,2.9493110400029017e-05,-2.3556850799999993,8.783683200001434e-05,1.57098388,0.786,0.04,0.04,-9.824572400000006,-0.0019185883458665586,0.002721578520002861,0.0002364550359994809,-0.007637645769860247,5.342426599988823e-05
0.1325,0.0001636043775000087,-0.7851657465000004,2.8828372350028414e-05,-2.3556925199999994,8.750835300001404e-05,1.57098397,0.786,0.04,0.04,-9.824450600000006,-0.002005669474598018,0.0026560387050028013,0.0002483462214994917,-0.007730020489539696,5.598463399989056e-05
0.135,0.00016334588800001194,-0.7851557500000004,2.7989616800038727e-05,-2.3556992699999997,8.709159600001927e-05,1.57098408,0.786,0.039999999,0.039999999,-9.824335700000004,-0.0020994997350458336,0.0025949056100024654,0.00026216387299938165,-0.007818798115473301,5.898594859986522e-05
0.1375,0.0001630600300000117,-0.7851459250000004,2.7063852500037883e-05,-2.355705675,8.663070000001886e-05,1.5709841999999998,0.786,0.0399999975,0.0399999975,-9.824224250000006,-0.002196704561352472,0.0025359758750024114,0.00027694475749939513,-0.00790577719453364,6.220773649986815e-05
0.14,0.00016277417200001143,-0.7851361000000004,2.6138088200037043e-05,-2.3557120799999995,8.616980400001844e-05,1.57098432,0.786,0.039999996,0.039999996,-9.824112800000005,-0.0022939093876591108,0.002477046140002358,0.00029172564199940855,-0.00799275627359398,6.542952439987109e-05
0.14250000000000002,0.00016248831400001118,-0.7851262750000004,2.52123239000362e-05,-2.3557184849999997,8.570890800001802e-05,1.57098444,0.786,0.0399999945,0.0399999945,-9.824001350000005,-0.0023911142139657494,0.0024181164050023044,0.00030650652649942203,-0.008079735352654318,6.865131229987402e-05
0.145,0.00016220245600001093,-0.7851164500000004,2.428655960003537e-05,-2.35572489,8.52480120000176e-05,1.5709845599999999,0.786,0.039999993,0.039999993,-9.823889900000005,-0.0024883190402723867,0.0023591866700022513,0.00032128741099943535,-0.008166714431714657,7.187310019987691e-05
0.1475,0.00016191659800001066,-0.7851066250000004,2.3360795300034525e-05,-2.355731295,8.478711600001718e-05,1.57098468,0.786,0.0399999915,0.0399999915,-9.823778450000004,-0.0025855238665790253,0.0023002569350021977,0.0003360682954994488,-0.008253693510774996,7.509488809987985e-05
0.15,0.00016163074000001042,-0.7850968000000004,2.243503100003368e-05,-2.3557376999999997,8.432622000001676e-05,1.5709848,0.786,0.03999999,0.03999999,-9.823667000000004,-0.0026827286928856635,0.002241327200002144,0.00035084917999946225,-0.008340672589835335,7.831667599988278e-05
0.1525,0.00016124491150001897,-0.7850873350000005,2.1192974450061003e-05,-2.3557430249999998,8.370736440003039e-05,1.57098495,0.786,0.0399999897,0.0399999897,-9.823548650000006,-0.002790985861787823,0.0021984933650021038,0.0003687000529991233,-0.008421502076085404,8.213280484981258e-05
0.155,0.00016085908300002386,-0.7850778700000006,1.9950917900076816e-05,-2.35574835,8.308850880003826e-05,1.5709851,0.786,0.0399999894,0.0399999894,-9.823430300000007,-0.002899243030690385,0.0021556595300026493,0.000386550925998896,-0.008502331562335251,8.594893369976399e-05
0.1575,0.00016047325450002878,-0.7850684050000007,1.870886135009263e-05,-2.3557536749999994,8.246965320004615e-05,1.57098525,0.786,0.0399999891,0.0399999891,-9.823311950000008,-0.0030075001995929465,0.0021128256950031944,0.0004044017989986687,-0.008583161048585097,8.97650625497154e-05
0.16,0.0001600874260000337,-0.7850589400000008,1.7466804800108445e-05,-2.3557589999999995,8.185079760005402e-05,1.5709854,0.786,0.0399999888,0.0399999888,-9.82319360000001,-0.0031157573684955082,0.00206999186000374,0.0004222526719984414,-0.008663990534834942,9.358119139966681e-05
0.1625,0.00015970159750003862,-0.7850494750000009,1.6224748250124257e-05,-2.3557643249999995,8.12319420000619e-05,1.57098555,0.786,0.0399999885,0.0399999885,-9.823075250000011,-0.0032240145373980695,0.0020271580250042854,0.00044010354499821416,-0.008744820021084789,9.739732024961824e-05
0.165,0.0001593157690000435,-0.785040010000001,1.4982691700140072e-05,-2.355769649999999,8.061308640006979e-05,1.5709857,0.786,0.0399999882,0.0399999882,-9.822956900000014,-0.003332271706300631,0.001984324190004831,0.00045795441799798686,-0.008825649507334634,0.00010121344909956965
0.1675,0.00015889030100005877,-0.785030633500001,1.3615678950188227e-05,-2.3557746799999992,7.993188220009381e-05,1.570985845,0.786,0.0399999876,0.03999998745,-9.822835850000015,-0.0034392331261065704,0.0019462003050033417,0.000476896024997541,-0.008904756559050191,0.00010531807424945501
0.17,0.0001583855540000514,-0.7850214340000009,1.1998753800164697e-05,-2.3557791199999993,7.912598080008209e-05,1.5709859800000001,0.786,0.0399999864,0.0399999858,-9.822709400000011,-0.003543603047717849,0.001917496320002924,0.0004980190999978485,-0.008980418741695292,0.00010999969199952314
0.17250000000000001,0.00015788080700004407,-0.7850122345000008,1.0381828650141166e-05,-2.3557835599999994,7.832007940007036e-05,1.570986115,0.786,0.0399999852,0.03999998415,-9.82258295000001,-0.003647972969329128,0.0018887923350025062,0.0005191421749981558,-0.009056080924340393,0.00011468130974959127
0.17500000000000002,0.0001573760600000367,-0.7850030350000007,8.764903500117635e-06,-2.3557879999999995,7.751417800005863e-05,1.57098625,0.786,0.039999984,0.0399999825,-9.822456500000008,-0.003752342890940407,0.0018600883500020885,0.0005402652499984633,-0.009131743106985495,0.0001193629274996594
0.1775,0.00015687131300002937,-0.7849938355000005,7.147978350094122e-06,-2.3557924399999997,7.670827660004691e-05,1.570986385,0.786,0.0399999828,0.03999998085,-9.822330050000007,-0.0038567128125516848,0.001831384365001671,0.0005613883249987704,-0.009207405289630596,0.0001240445452497275
0.18,0.00015636656600002204,-0.7849846360000003,5.531053200070592e-06,-2.3557968799999998,7.590237520003518e-05,1.57098652,0.786,0.0399999816,0.0399999792,-9.822203600000005,-0.003961082734162963,0.0018026803800012532,0.0005825113999990779,-0.009283067472275697,0.00012872616299979561
0.1825,0.00015586181900001468,-0.7849754365000002,3.9141280500470606e-06,-2.35580132,7.509647380002345e-05,1.570986655,0.786,0.039999980399999996,0.039999977549999996,-9.822077150000004,-0.004065452655774243,0.0017739763950008355,0.0006036344749993852,-0.009358729654920798,0.00013340778074986373
0.185,0.0001552645060000152,-0.7849662960000002,2.0063063000485555e-06,-2.35580521,7.41453726000242e-05,1.5709871499999999,0.786,0.039999979299999995,0.0399999759,-9.821988000000001,-0.004181023733687465,0.001754319470000358,0.000627054074999419,-0.009431740641592154,0.00013858135899987186
0.1875,0.0001546209100000146,-0.7849571850000002,-4.696374995331381e-08,-2.355808825,7.312167150002328e-05,1.570987825,0.786,0.03999997825,0.03999997425,-9.821917500000001,-0.00430219538975227,0.001739186075000344,0.0006516219374994414,-0.009503426030276495,0.00014400091749987678
0.19,0.00015397731400001403,-0.7849480740000002,-2.100233799955183e-06,-2.35581244,7.209797040002234e-05,1.5709885,0.786,0.0399999772,0.039999972599999996,-9.821847000000002,-0.004423367045817075,0.0017240526800003304,0.0006761897999994638,-0.009575111418960836,0.0001494204759998817
0.1925,0.00015333371800001347,-0.7849389630000002,-4.1535038499570515e-06,-2.355816055,7.10742693000214e-05,1.570989175,0.786,0.03999997615,0.03999997095,-9.8217765,-0.004544538701881881,0.0017089192850003165,0.0007007576624994861,-0.009646796807645176,0.00015484003449988665
0.195,0.00015269012200001288,-0.7849298520000002,-6.206773899958922e-06,-2.35581967,7.005056820002048e-05,1.57098985,0.786,0.0399999751,0.0399999693,-9.821706,-0.004665710357946686,0.0016937858900003028,0.0007253255249995086,-0.009718482196329516,0.00016025959299989157
0.1975,0.0001520465260000123,-0.7849207410000002,-8.26004394996079e-06,-2.3558232849999996,6.902686710001954e-05,1.5709905249999998,0.786,0.03999997405,0.039999967649999996,-9.821635500000001,-0.004786882014011492,0.0016786524950002891,0.0007498933874995309,-0.009790167585013856,0.00016567915149989651
0.2,0.0001514029300000117,-0.7849116300000001,-1.031331399996266e-05,-2.3558269,6.800316600001861e-05,1.5709912,0.786,0.039999973,0.039999966,-9.821565000000001,-0.004908053670076296,0.0016635191000002752,0.0007744612499995532,-0.009861852973698198,0.00017109870999990144
0.2025,0.00015059973400001389,-0.7849025355000001,-1.2866971149955885e-05,-2.3558297649999997,6.6729748650022e-05,1.57099189,0.785999715,0.03999997195,0.039999964799999996,-9.82149105,-0.0050214634742567965,0.0016440296300003368,0.0008025426224995149,-0.009928626287727331,0.00017715699099989533
0.20500000000000002,0.00014979653800001314,-0.7848934410000001,-1.542062829995821e-05,-2.3558326299999997,6.545633130002083e-05,1.57099258,0.78599943,0.0399999709,0.0399999636,-9.821417100000001,-0.005134873278437154,0.001624540160000319,0.0008306239949995405,-0.009995399601756378,0.00018321527199990085
0.20750000000000002,0.00014899334200001242,-0.7848843465000002,-1.7974285449960538e-05,-2.355835495,6.418291395001967e-05,1.57099327,0.785999145,0.03999996985,0.0399999624,-9.82134315,-0.005248283082617513,0.0016050506900003013,0.000858705367499566,-0.010062172915785423,0.00018927355299990637
0.21,0.0001481901460000117,-0.7848752520000001,-2.0527942599962834e-05,-2.35583836,6.290949660001853e-05,1.57099396,0.7859988600000001,0.0399999688,0.0399999612,-9.8212692,-0.00536169288679787,0.0015855612200002837,0.0008867867399995913,-0.010128946229814468,0.0001953318339999118
0.2125,0.00014738695000001095,-0.7848661575000001,-2.3081599749965157e-05,-2.355841225,6.163607925001737e-05,1.5709946499999998,0.785998575,0.03999996775,0.03999996,-9.82119525,-0.005475102690978228,0.001566071750000266,0.0009148681124996168,-0.010195719543843514,0.00020139011499991733
0.215,0.00014658375400001023,-0.7848570630000001,-2.5635256899967483e-05,-2.35584409,6.036266190001622e-05,1.5709953399999999,0.78599829,0.0399999667,0.0399999588,-9.8211213,-0.005588512495158586,0.0015465822800002482,0.0009429494849996424,-0.01026249285787256,0.00020744839599992285
0.2175,0.00014572018300001164,-0.7848479520000001,-2.8377786349963107e-05,-2.35584657,5.89950352500184e-05,1.57099604,0.785998005,0.039999966,0.039999958,-9.8210666,-0.005707298684863629,0.0015363621449999017,0.0009726842849996093,-0.010328659508376517,0.000213770894499919
0.22,0.00014473586200001073,-0.784838808,-3.149806039996595e-05,-2.35584828,5.7438990000016984e-05,1.5709967599999999,0.78599772,0.039999966,0.039999958,-9.821050399999999,-0.005836837645618626,0.0015446806799999093,0.0010057259399996394,-0.010393612831830231,0.00022062182799992524
0.2225,0.00014375154100000986,-0.7848296640000001,-3.461833444996879e-05,-2.3558499900000003,5.588294475001556e-05,1.57099748,0.7859974350000001,0.039999966,0.039999958,-9.8210342,-0.005966376606373625,0.0015529992149999167,0.0010387675949996694,-0.010458566155283944,0.0002274727614999315
0.225,0.00014276722000000896,-0.78482052,-3.773860849997163e-05,-2.3558517,5.432689950001415e-05,1.5709982,0.78599715,0.039999966,0.039999958,-9.821018,-0.006095915567128622,0.0015613177499999244,0.0010718092499996995,-0.01052351947873766,0.0002343236949999377
0.2275,0.00014178289900000805,-0.7848113760000001,-4.0858882549974475e-05,-2.35585341,5.277085425001273e-05,1.57099892,0.785996865,0.039999966,0.039999958,-9.8210018,-0.0062254545278836206,0.001569636284999932,0.0011048509049997296,-0.010588472802191374,0.00024117462849994396
0.23,0.00014079857800000715,-0.784802232,-4.397915659997731e-05,-2.35585512,5.121480900001131e-05,1.5709996400000001,0.7859965800000001,0.039999966,0.039999958,-9.8209856,-0.006354993488638618,0.0015779548199999396,0.0011378925599997596,-0.010653426125645089,0.0002480255619999502
0.2325,0.00013981425700000625,-0.784793088,-4.709943064998016e-05,-2.35585683,4.9658763750009896e-05,1.57100036,0.785996295,0.039999966,0.039999958,-9.820969400000001,-0.0064845324493936155,0.0015862733549999472,0.0011709342149997899,-0.010718379449098802,0.00025487649549995646
0.23500000000000001,0.00013869442400000646,-0.784783786,-5.064285979997953e-05,-2.35585778,4.78917380000102e-05,1.57100142,0.7859960100000001,0.039999966399999996,0.039999958,-9.8209058,-0.006603925814851467,0.0016001999499999089,0.0012064800899997993,-0.010781048517673785,0.00026235679999995755
0.23750000000000002,0.00013750683500000539,-0.7847744050000001,-5.439786649998295e-05,-2.35585835,4.60192220000085e-05,1.57100265,0.785995725,0.039999967,0.039999958,-9.8208185,-0.006718246382660606,0.0016169305749999241,0.001243278074999833,-0.01084257545880937,0.00027015178999996464
0.24,0.00013631924600000434,-0.784765024,-5.815287319998633e-05,-2.35585892,4.4146706000006815e-05,1.5710038800000001,0.78599544,0.0399999676,0.039999958,-9.8207312,-0.006832566950469744,0.0016336611999999391,0.001280076059999866,-0.010904102399944956,0.0002779467799999716
0.2425,0.00013513165700000323,-0.784755643,-6.190787989998975e-05,-2.3558594900000003,4.227419000000511e-05,1.57100511,0.7859951550000001,0.0399999682,0.039999958,-9.8206439,-0.006946887518278883,0.0016503918249999544,0.0013168740449998994,-0.010965629341080542,0.0002857417699999787
0.245,0.00013394406800000216,-0.784746262,-6.566288659999317e-05,-2.35586006,4.040167400000341e-05,1.57100634,0.78599487,0.0399999688,0.039999958,-9.8205566,-0.0070612080860880215,0.0016671224499999696,0.0013536720299999329,-0.011027156282216127,0.0002935367599999858
0.2475,0.00013275647900000108,-0.784736881,-6.941789329999659e-05,-2.35586063,3.85291580000017e-05,1.57100757,0.7859945850000001,0.0399999694,0.039999958,-9.820469300000001,-0.007175528653897161,0.0016838530749999849,0.0013904700149999665,-0.011088683223351714,0.0003013317499999929
0.25,0.00013156889,-0.7847275,-7.31729e-05,-2.3558612,3.6656642e-05,1.5710088,0.7859943,0.03999997,0.039999958,-9.820382,-0.0072898492217063,0.0017005837,0.001427268,-0.0111502101644873,0.00030912674
0.2525,0.00013015539649999873,-0.784717825,-7.763235350000407e-05,-2.35586063,3.443281114999797e-05,1.57101009,0.785994015,0.03999997,0.039999958,-9.820332800000001,-0.00742659578099851,0.0017165704750000147,0.0014678775450000369,-0.011207224568352101,0.0003176251190000077
0.255,0.00012874190299999743,-0.78470815,-8.209180700000812e-05,-2.35586006,3.220898029999595e-05,1.57101138,0.7859937300000001,0.03999997,0.039999958,-9.8202836,-0.007563342340290719,0.0017325572500000292,0.001508487090000074,-0.011264238972216904,0.00032612349800001546
0.2575,0.00012732840949999615,-0.784698475,-8.655126050001218e-05,-2.3558594900000003,2.9985149449993927e-05,1.57101267,0.785993445,0.03999997,0.039999958,-9.8202344,-0.007700088899582929,0.0017485440250000438,0.001549096635000111,-0.011321253376081706,0.0003346218770000232
0.26,0.00012591491599999485,-0.7846888,-9.101071400001624e-05,-2.35585892,2.7761318599991903e-05,1.57101396,0.7859931600000001,0.03999997,0.039999958,-9.820185200000001,-0.007836835458875138,0.0017645308000000582,0.0015897061800001478,-0.011378267779946508,0.00034312025600003094
0.2625,0.00012450142249999357,-0.7846791249999999,-9.54701675000203e-05,-2.35585835,2.5537487749989875e-05,1.5710152499999999,0.785992875,0.03999997,0.039999958,-9.820136,-0.007973582018167348,0.0017805175750000729,0.0016303157250001847,-0.01143528218381131,0.00035161863500003866
0.265,0.00012308792899999227,-0.78466945,-9.992962100002436e-05,-2.35585778,2.3313656899987854e-05,1.57101654,0.78599259,0.03999997,0.039999958,-9.8200868,-0.008110328577459558,0.0017965043500000873,0.0016709252700002218,-0.011492296587676112,0.0003601170140000464
0.2675,0.00012159143449998941,-0.7846596425,-0.00010464756600003336,-2.35585683,2.0960960969983363e-05,1.57101794,0.7859923050000001,0.03999997015,0.0399999581,-9.820036250000001,-0.00824044328183006,0.0018192737900002316,0.0017128175050002833,-0.01154864346608554,0.00036889792850005953
0.27,0.0001199289379999879,-0.7846495699999999,-0.00010988249400003812,-2.35585512,1.8350534879980987e-05,1.5710195599999999,0.78599202,0.039999970600000004,0.0399999584,-9.819983,-0.008357294276357511,0.0018556085600002646,0.0017572751200003237,-0.011603655293584262,0.00037824391400006807
0.2725,0.00011826644149998637,-0.7846394975,-0.00011511742200004289,-2.35585341,1.574010878997861e-05,1.57102118,0.7859917350000001,0.03999997105,0.039999958700000005,-9.81992975,-0.008474145270884963,0.0018919433300002978,0.0018017327350003643,-0.011658667121082981,0.00038758989950007656
0.275,0.00011660394499998486,-0.7846294249999999,-0.00012035235000004765,-2.3558517,1.3129682699976233e-05,1.5710228,0.78599145,0.0399999715,0.039999959,-9.8198765,-0.008590996265412414,0.0019282781000003308,0.0018461903500004047,-0.011713678948581701,0.0003969358850000851
0.2775,0.00011494144849998335,-0.7846193524999999,-0.00012558727800005242,-2.3558499900000003,1.0519256609973857e-05,1.5710244199999999,0.785991165,0.039999971950000004,0.0399999593,-9.819823249999999,-0.008707847259939866,0.001964612870000364,0.001890647965000445,-0.011768690776080422,0.0004062818705000936
0.28,0.00011327895199998184,-0.7846092799999999,-0.00013082220600005718,-2.35584828,7.90883051997148e-06,1.57102604,0.7859908800000001,0.0399999724,0.0399999596,-9.81977,-0.008824698254467316,0.0020009476400003967,0.0019351055800004857,-0.011823702603579142,0.0004156278560001021
0.28250000000000003,0.00011161645549998033,-0.7845992074999999,-0.00013605713400006194,-2.35584657,5.298404429969104e-06,1.57102766,0.785990595,0.03999997285,0.0399999599,-9.81971675,-0.008941549248994768,0.00203728241000043,0.0019795631950005263,-0.011878714431077861,0.0004249738415001106
0.28500000000000003,0.00010977231599999293,-0.7845887749999999,-0.00014185711500002218,-2.35584409,2.4064185599889296e-06,1.57102944,0.785990307,0.0399999734,0.03999996,-9.8196811,-0.009073141776025787,0.002079743500000166,0.002026657540000177,-0.01193184629082695,0.00043497757000003775
0.28750000000000003,0.00010783735500001757,-0.7845781625000001,-0.00014793962249994475,-2.3558412250000003,-6.263471999724566e-07,1.5710313,0.7859900175000001,0.039999974,0.03999996,-9.819654250000001,-0.009212105069308188,0.0021252677499995864,0.00207507024999956,-0.011984038166701277,0.00044531016999990616
0.29,0.00010590239400004224,-0.7845675500000002,-0.00015402212999986718,-2.35583836,-3.6591129599337754e-06,1.5710331599999998,0.785989728,0.0399999746,0.03999996,-9.819627400000002,-0.009351068362590585,0.002170791999999006,0.002123482959998943,-0.012036230042575601,0.0004556427699997744
0.2925,0.00010396743300006689,-0.7845569375000003,-0.00016010463749978972,-2.355835495,-6.691878719895163e-06,1.5710350199999998,0.7859894385,0.0399999752,0.03999996,-9.81960055,-0.009490031655872986,0.0022163162499984263,0.0021718956699983264,-0.012088421918449926,0.00046597536999964283
0.295,0.00010203247200009152,-0.7845463250000004,-0.00016618714499971228,-2.35583263,-9.724644479856549e-06,1.5710368799999999,0.785989149,0.0399999758,0.03999996,-9.819573700000001,-0.009628994949155386,0.0022618404999978467,0.00222030837999771,-0.012140613794324252,0.0004763079699995113
0.2975,0.00010009751100011616,-0.7845357125000006,-0.00017226965249963485,-2.355829765,-1.2757410239817934e-05,1.5710387399999999,0.7859888595,0.0399999764,0.03999996,-9.819546850000002,-0.009767958242437787,0.002307364749997267,0.0022687210899970936,-0.012192805670198576,0.0004866405699993797
0.3,9.81625500001408e-05,-0.7845251000000008,-0.0001783521599995574,-2.3558269,-1.5790175999779322e-05,1.5710405999999997,0.78598857,0.039999977,0.03999996,-9.819520000000002,-0.009906921535720188,0.0023528889999966875,0.0023171337999964773,-0.012244997546072903,0.0004969731699992481
0.3025,9.593137890009943e-05,-0.7845138350000005,-0.00018535521749968786,-2.355822865,-1.928184059984438e-05,1.57104279,0.7859882835,0.03999997745,0.0399999609,-9.819494200000001,-0.010021470300848084,0.0023976292899980057,0.0023695110249976658,-0.012295730132607268,0.0005080435494995066
0.305,9.370020780003654e-05,-0.7845025700000001,-0.00019235827499988533,-2.35581883,-2.277350519994283e-05,1.57104498,0.785987997,0.0399999779,0.0399999618,-9.819468400000002,-0.010136019065974203,0.0024423695799992676,0.0024218882499991426,-0.012346462719141528,0.0005191139289998188
0.3075,9.146903669997363e-05,-0.7844913049999999,-0.00019936133250008278,-2.3558147949999997,-2.626516980004128e-05,1.57104717,0.7859877104999999,0.03999997835,0.0399999627,-9.8194426,-0.010250567831100323,0.002487109870000529,0.0024742654750006194,-0.01239719530567579,0.0005301843085001309
0.31,8.923786559991072e-05,-0.7844800399999995,-0.00020636439000028023,-2.35581076,-2.9756834400139725e-05,1.57104936,0.785987424,0.039999978799999995,0.0399999636,-9.819416799999999,-0.010365116596226444,0.0025318501600017904,0.002526642700002096,-0.01244792789221005,0.000541254688000443
0.3125,8.700669449984781e-05,-0.7844687749999992,-0.0002133674475004777,-2.3558067249999994,-3.3248499000238175e-05,1.5710515500000002,0.7859871374999999,0.03999997925,0.0399999645,-9.819390999999998,-0.010479665361352563,0.002576590450003052,0.002579019925003573,-0.01249866047874431,0.0005523250675007551
0.315,8.47755233997849e-05,-0.7844575099999989,-0.00022037050500067515,-2.3558026899999995,-3.6740163600336624e-05,1.5710537400000002,0.7859868509999999,0.0399999797,0.0399999654,-9.819365199999996,-0.010594214126478683,0.0026213307400043133,0.0026313971500050493,-0.01254939306527857,0.0005633954470010672
0.3175,8.24376316997169e-05,-0.7844459899999986,-0.00022770494450088737,-2.3557982449999995,-4.03969417504424e-05,1.5710560100000002,0.7859865199999999,0.03999997985,0.0399999656,-9.8193475,-0.010717338044211868,0.002671954030006923,0.0026850837800062475,-0.012599627627065197,0.0005747991500013392
0.32,7.988629879974939e-05,-0.7844339599999988,-0.00023570214800078555,-2.3557929799999995,-4.4383947000391636e-05,1.5710584400000003,0.7859860999999999,0.039999979399999996,0.0399999644,-9.819346,-0.010857612267150298,0.0027343433200061286,0.0027413892200055306,-0.012648866139357076,0.0005868695000011856
0.3225,7.733496589978187e-05,-0.7844219299999989,-0.00024369935150068373,-2.3557877149999995,-4.8370952250340876e-05,1.5710608700000002,0.7859856799999999,0.03999997895,0.0399999632,-9.8193445,-0.010997886490088727,0.002796732610005334,0.0027976946600048137,-0.012698104651648954,0.000598939850001032
0.325,7.478363299981435e-05,-0.7844098999999991,-0.00025169655500058193,-2.3557824499999995,-5.235795750029011e-05,1.5710633,0.7859852599999999,0.0399999785,0.039999962,-9.819343,-0.011138160713027156,0.0028591219000045397,0.0028540001000040972,-0.012747343163940833,0.0006110102000008782
0.3275,7.223230009984684e-05,-0.7843978699999993,-0.00025969375850048006,-2.3557771849999996,-5.634496275023934e-05,1.5710657300000002,0.7859848399999999,0.039999978049999996,0.0399999608,-9.8193415,-0.011278434935965585,0.0029215111900037457,0.0029103055400033803,-0.01279658167623271,0.0006230805500007246
0.33,6.968096719987932e-05,-0.7843858399999994,-0.00026769096200037824,-2.3557719199999996,-6.033196800018858e-05,1.57106816,0.7859844199999999,0.0399999776,0.0399999596,-9.81934,-0.011418709158904014,0.0029839004800029513,0.0029666109800026634,-0.01284582018852459,0.0006351509000005709
0.3325,6.71296342999118e-05,-0.7843738099999996,-0.0002756881655002764,-2.355766655,-6.431897325013782e-05,1.57107059,0.785984,0.03999997715,0.0399999584,-9.8193385,-0.011558983381842443,0.003046289770002157,0.0030229164200019465,-0.012895058700816467,0.0006472212500004172
0.335,6.434879799991044e-05,-0.7843612259999996,-0.0002843975280002804,-2.35576044,-6.866076250013978e-05,1.57107339,0.785983479,0.039999977299999996,0.039999958200000005,-9.8193337,-0.01168052833527672,0.0031056531300017896,0.003082290050001884,-0.012943901866675855,0.0006597859200003963
0.3375,6.145320999990781e-05,-0.7843483649999996,-0.0002934629700002886,-2.35575375,-7.31799437501439e-05,1.571076375,0.7859829075,0.03999997775,0.0399999585,-9.81932725,-0.011792708653960197,0.003163503525001842,0.0031431977750019393,-0.012992547359319024,0.000672597750000408
0.34,5.855762199990517e-05,-0.7843355039999995,-0.0003025284120002969,-2.35574706,-7.769912500014801e-05,1.57107936,0.785982336,0.0399999782,0.0399999588,-9.8193208,-0.011904888972643675,0.0032213539200018947,0.0032041055000019947,-0.013041192851962194,0.0006854095800004195
0.3425,5.566203399990253e-05,-0.7843226429999995,-0.00031159385400030513,-2.35574037,-8.221830625015213e-05,1.571082345,0.7859817645,0.03999997865,0.0399999591,-9.81931435,-0.012017069291327152,0.0032792043150019472,0.00326501322500205,-0.013089838344605363,0.0006982214100004312
0.34500000000000003,5.27664459998999e-05,-0.7843097819999996,-0.0003206592960003134,-2.3557336799999997,-8.673748750015624e-05,1.57108533,0.785981193,0.0399999791,0.0399999594,-9.8193079,-0.012129249610010627,0.003337054710002,0.0033259209500021056,-0.013138483837248532,0.0007110332400004429
0.34750000000000003,4.9870857999897254e-05,-0.7842969209999995,-0.00032972473800032165,-2.35572699,-9.125666875016036e-05,1.5710883150000001,0.7859806215,0.039999979549999995,0.039999959700000004,-9.81930145,-0.012241429928694104,0.0033949051050020523,0.003386828675002161,-0.013187129329891701,0.0007238450700004546
0.35000000000000003,4.6975269999881214e-05,-0.7842840599999994,-0.0003387901800003715,-2.3557202999999998,-9.57758500001852e-05,1.5710913,0.78598005,0.03999998,0.03999996,-9.819295,-0.01235361024737858,0.0034527555000026943,0.0034477364000023887,-0.013235774822534772,0.0007366569000005021
0.3525,4.371122514987832e-05,-0.7842702659999994,-0.00034899819000038055,-2.355712215,-0.00010086441700018971,1.5710943000000002,0.785979477,0.03999998,0.039999959700000004,-9.8192779,-0.012493213359271645,0.00352679077500276,0.003513372440002447,-0.013281734194608218,0.0007504535460005143
0.355,4.0447180299875345e-05,-0.7842564719999994,-0.00035920620000038983,-2.35570413,-0.00010595298400019435,1.5710973000000001,0.785978904,0.03999998,0.0399999594,-9.8192608,-0.012632816471164711,0.0036008260500028275,0.0035790084800025068,-0.013327693566681665,0.0007642501920005269
0.3575,3.7183135449872374e-05,-0.7842426779999994,-0.00036941421000039916,-2.3556960449999997,-0.00011104155100019897,1.5711003000000001,0.785978331,0.03999998,0.0399999591,-9.8192437,-0.01277241958305778,0.003674861325002895,0.0036446445200025664,-0.013373652938755112,0.0007780468380005395
0.36,3.39190905998694e-05,-0.7842288839999993,-0.00037962222000040844,-2.3556879599999996,-0.0001161301180002036,1.5711033,0.785977758,0.03999998,0.0399999588,-9.8192266,-0.012912022694950846,0.0037488966000029625,0.003710280560002626,-0.013419612310828558,0.0007918434840005521
0.3625,3.065504574986643e-05,-0.7842150899999993,-0.00038983023000041777,-2.355679875,-0.00012121868500020824,1.5711063000000003,0.785977185,0.03999998,0.0399999585,-9.8192095,-0.013051625806843914,0.00382293187500303,0.003775916600002686,-0.013465571682902007,0.0008056401300005646
0.365,2.7391000899863455e-05,-0.7842012959999993,-0.00040003824000042705,-2.3556717899999997,-0.00012630725200021286,1.5711093000000003,0.785976612,0.03999998,0.039999958200000005,-9.8191924,-0.01319122891873698,0.003896967150003097,0.0038415526400027455,-0.013511531054975453,0.0008194367760005772
0.3675,2.3996045964843695e-05,-0.7841871369999993,-0.00041065195100048837,-2.3556632399999997,-0.0001315978565002434,1.5711124950000002,0.7859760385,0.0399999802,0.0399999581,-9.81917925,-0.013319685449828204,0.003972437150003349,0.003908496565002973,-0.013557654991747861,0.0008334890830006225
0.37,2.0339270859840365e-05,-0.7841722479999993,-0.0004220770640004988,-2.3556537599999996,-0.0001372925360002486,1.5711160800000004,0.7859754640000001,0.0399999808,0.0399999584,-9.819174,-0.013425848819319994,0.00405077660000342,0.003978056260003036,-0.013604108057918129,0.0008480527120006357
0.3725,1.6682495754837038e-05,-0.7841573589999993,-0.00043350217700050914,-2.3556442799999995,-0.00014298721550025378,1.5711196650000003,0.7859748895,0.0399999814,0.039999958700000005,-9.81916875,-0.013532012188811787,0.004129116050003491,0.0040476159550031,-0.013650561124088396,0.000862616341000649
0.375,1.3025720649833709e-05,-0.7841424699999993,-0.00044492729000051955,-2.3556348,-0.00014868189500025897,1.5711232500000003,0.785974315,0.039999982,0.039999959,-9.8191635,-0.013638175558303578,0.0042074555000035626,0.004117175650003163,-0.013697014190258663,0.0008771799700006622
0.3775,9.36894554483038e-06,-0.7841275809999994,-0.00045635240300052996,-2.3556253199999997,-0.00015437657450026416,1.5711268350000003,0.7859737405,0.0399999826,0.0399999593,-9.81915825,-0.013744338927795368,0.004285794950003634,0.004186735345003227,-0.01374346725642893,0.0008917435990006755
0.38,5.7121704398270524e-06,-0.7841126919999993,-0.00046777751600054037,-2.3556158399999996,-0.00016007125400026932,1.5711304200000002,0.785973166,0.0399999832,0.0399999596,-9.819153,-0.01385050229728716,0.004364134400003705,0.00425629504000329,-0.013789920322599198,0.0009063072280006887
0.3825,2.055395334823722e-06,-0.7840978029999993,-0.0004792026290005507,-2.3556063599999995,-0.0001657659335002745,1.5711340050000002,0.7859725915,0.0399999838,0.0399999599,-9.819147749999999,-0.013956665666778952,0.004442473850003777,0.004325854735003353,-0.013836373388769465,0.000920870857000702
0.385,-1.8793313302000854e-06,-0.7840821559999992,-0.0004914887700006246,-2.3555959099999995,-0.0001718897020003113,1.5711379400000003,0.78597202,0.0399999844,0.039999961,-9.8191496,-0.014073063805705237,0.004518488600003677,0.004398078320003613,-0.013881987985225731,0.0009358119900007431
0.3875,-5.953033775203794e-06,-0.7840661299999993,-0.0005042054250006361,-2.3555849749999993,-0.00017822801500031707,1.5711420500000002,0.78597145,0.039999985,0.0399999625,-9.819155,-0.014194579329347654,0.004593341000003745,0.0044716338500036795,-0.013927183346825087,0.0009509418750007569
0.39,-1.0026736220207502e-05,-0.7840501039999992,-0.0005169220800006478,-2.3555740399999996,-0.00018456632800032286,1.5711461600000003,0.78597088,0.0399999856,0.039999964,-9.8191604,-0.014316094852990069,0.004668193400003813,0.004545189380003747,-0.013972378708424443,0.0009660717600007706
0.3925,-1.4100438665211212e-05,-0.7840340779999991,-0.0005296387350006593,-2.3555631049999994,-0.00019090464100032862,1.5711502700000002,0.78597031,0.039999986200000004,0.039999965500000005,-9.8191658,-0.014437610376632486,0.004743045800003881,0.004618744910003814,-0.014017574070023799,0.0009812016450007845
0.395,-1.817414111021492e-05,-0.7840180519999991,-0.0005423553900006709,-2.3555521699999993,-0.00019724295400033438,1.5711543800000003,0.78596974,0.0399999868,0.039999967000000004,-9.8191712,-0.0145591259002749,0.004817898200003949,0.0046923004400038805,-0.014062769431623155,0.0009963315300007983
0.3975,-2.224784355521863e-05,-0.7840020259999991,-0.0005550720450006824,-2.355541234999999,-0.00020358126700034017,1.5711584900000002,0.78596917,0.0399999874,0.039999968500000004,-9.8191766,-0.014680641423917317,0.004892750600004017,0.004765855970003947,-0.01410796479322251,0.0010114614150008119
0.4,-2.6321546000246417e-05,-0.7839859999999991,-0.0005677887000007686,-2.355530299999999,-0.00020991958000038304,1.5711626000000003,0.7859686,0.039999988,0.03999997,-9.819182000000001,-0.014802156947560496,0.004967603000005316,0.004839411500004229,-0.014153160154821817,0.0010265913000008738
0.4025,-3.0836401700250524e-05,-0.7839687574999991,-0.0005818712700007814,-2.355517639999999,-0.00021693804100038943,1.5711670100000004,0.785967745,0.0399999874,0.03999997,-9.819203750000002,-0.014937658375136564,0.005065003355005405,0.004916896325004299,-0.014197435043754572,0.0010426005300008883
0.405,-3.5351257400254635e-05,-0.783951514999999,-0.0005959538400007943,-2.355504979999999,-0.00022395650200039582,1.5711714200000002,0.78596689,0.0399999868,0.03999997,-9.8192255,-0.015073159802712633,0.005162403710005493,0.00499438115000437,-0.014241709932687327,0.001058609760000903
0.40750000000000003,-3.9866113100258746e-05,-0.783934272499999,-0.0006100364100008071,-2.3554923199999993,-0.00023097496300040221,1.5711758300000003,0.785966035,0.039999986200000004,0.03999997,-9.81924725,-0.015208661230288701,0.005259804065005582,0.00507186597500444,-0.014285984821620083,0.0010746189900009175
0.41000000000000003,-4.438096880026286e-05,-0.783917029999999,-0.0006241189800008199,-2.355479659999999,-0.0002379934240004086,1.5711802400000003,0.7859651799999999,0.0399999856,0.03999997,-9.819269,-0.01534416265786477,0.005357204420005671,0.005149350800004511,-0.014330259710552838,0.0010906282200009321
0.41250000000000003,-4.889582450026697e-05,-0.783899787499999,-0.0006382015500008328,-2.355466999999999,-0.000245011885000415,1.5711846500000002,0.785964325,0.039999985,0.03999997,-9.81929075,-0.015479664085440839,0.005454604775005759,0.005226835625004581,-0.014374534599485593,0.0011066374500009466
0.41500000000000004,-5.341068020027108e-05,-0.783882544999999,-0.0006522841200008456,-2.355454339999999,-0.0002520303460004214,1.5711890600000002,0.78596347,0.0399999844,0.03999997,-9.8193125,-0.015615165513016907,0.005552005130005848,0.005304320450004652,-0.014418809488418349,0.0011226466800009613
0.4175,-5.808062380028079e-05,-0.783864839499999,-0.0006668466780008752,-2.355441154999999,-0.0002592878060004361,1.5711935950000002,0.7859626129999999,0.039999984200000005,0.0399999698,-9.819320599999998,-0.015736020635818575,0.005647545150005177,0.005383540980004662,-0.014462872035803851,0.0011391079800009791
0.42,-6.306074320021739e-05,-0.7838462079999992,-0.0006823692120006776,-2.3554269199999993,-0.00026702326400033767,1.5711983800000002,0.785961752,0.0399999848,0.0399999692,-9.819301399999999,-0.01582758314907944,0.005739364500004008,0.0054662329200036094,-0.014506509900094965,0.001156473420000758
0.4225,-6.804086260015398e-05,-0.7838275764999995,-0.0006978917460004799,-2.3554126849999997,-0.00027475872200023916,1.571203165,0.785960891,0.0399999854,0.0399999686,-9.819282199999998,-0.015919145662340303,0.005831183850002839,0.005548924860002556,-0.01455014776438608,0.001173838860000537
0.425,-7.302098200009057e-05,-0.7838089449999996,-0.0007134142800002823,-2.3553984499999996,-0.00028249418000014066,1.57120795,0.78596003,0.039999986,0.039999968,-9.819263,-0.016010708175601164,0.00592300320000167,0.005631616800001503,-0.014593785628677193,0.0011912043000003158
0.4275,-7.800110140002716e-05,-0.7837903134999998,-0.0007289368140000847,-2.355384215,-0.0002902296380000422,1.571212735,0.7859591690000001,0.0399999866,0.0399999674,-9.819243799999999,-0.01610227068886203,0.006014822550000501,0.005714308740000451,-0.014637423492968309,0.0012085697400000947
0.43,-8.298122079996375e-05,-0.7837716820000001,-0.000744459347999887,-2.3553699800000003,-0.0002979650959999437,1.5712175199999998,0.785958308,0.0399999872,0.0399999668,-9.8192246,-0.016193833202122893,0.0061066418999993315,0.005797000679999398,-0.014681061357259422,0.0012259351799998736
0.4325,-8.796134019990035e-05,-0.7837530505000003,-0.0007599818819996894,-2.3553557450000007,-0.00030570055399984524,1.5712223049999998,0.785957447,0.0399999878,0.0399999662,-9.8192054,-0.016285395715383757,0.0061984612499981625,0.005879692619998345,-0.014724699221550537,0.0012433006199996524
0.435,-9.326760799997015e-05,-0.7837334460000001,-0.000776513549999907,-2.3553403200000003,-0.00031393852099995367,1.5712274199999998,0.785956588,0.0399999882,0.039999966,-9.819223699999998,-0.01640356462448755,0.006303011679999395,0.005964963299999527,-0.01476875832304333,0.0012612224599999006
0.4375,-9.873695000012435e-05,-0.7837133549999995,-0.0007935497850003873,-2.3553243,-0.000322427742500193,1.5712327000000001,0.78595573,0.0399999885,0.039999966,-9.81926075,-0.016535036731514265,0.006413927650002522,0.006051523350001968,-0.014813028043136982,0.0012794225000004138
0.44,-0.00010420629200027857,-0.783693263999999,-0.0008105860200008677,-2.355308279999999,-0.0003309169640004324,1.5712379800000003,0.7859548719999999,0.0399999888,0.039999966,-9.819297800000001,-0.016666508838540976,0.00652484362000565,0.006138083400004409,-0.014857297763230635,0.001297622540000927
0.4425,-0.00010967563400043277,-0.7836731729999984,-0.000827622255001348,-2.355292259999999,-0.00033940618550067173,1.5712432600000004,0.7859540139999999,0.0399999891,0.039999966,-9.819334850000002,-0.016797980945567687,0.006635759590008777,0.00622464345000685,-0.014901567483324288,0.00131582258000144
0.445,-0.00011514497600058698,-0.7836530819999978,-0.0008446584900018284,-2.3552762399999985,-0.0003478954070009111,1.5712485400000005,0.7859531559999999,0.0399999894,0.039999966,-9.819371900000004,-0.016929453052594398,0.006746675560011904,0.0063112035000092905,-0.01494583720341794,0.0013340226200019532
0.4475,-0.0001206143180007412,-0.7836329909999972,-0.0008616947250023087,-2.3552602199999977,-0.00035638462850115044,1.5712538200000008,0.7859522979999999,0.0399999897,0.039999966,-9.819408950000005,-0.017060925159621113,0.0068575915300150316,0.0063977635500117305,-0.014990106923511595,0.0013522226600024665
0.45,-0.00012608366000097938,-0.7836128999999964,-0.0008787309600030489,-2.355244199999997,-0.0003648738500015192,1.571259100000001,0.7859514399999998,0.03999999,0.039999966,-9.819445999999997,-0.0171923972666408,0.00696850750001484,0.0064843236000148,-0.015034376643605133,0.0013704227000030079
0.4525,-0.00013206603500090324,-0.7835913299999967,-0.0008973540660028118,-2.3552265599999975,-0.00037415343350140107,1.5712649650000008,0.7859505279999999,0.03999999075,0.039999967649999996,-9.819439699999998,-0.0172809853218629,0.007059150775013685,0.006574721805013649,-0.015077949687845059,0.001388794850002774
0.455,-0.00013804841000082706,-0.783569759999997,-0.0009159771720025746,-2.3552089199999977,-0.0003834330170012829,1.571270830000001,0.7859496159999998,0.0399999915,0.0399999693,-9.8194334,-0.017369573377084998,0.0071497940500125316,0.006665120010012498,-0.015121522732084983,0.00140716700000254
0.4575,-0.0001440307850007509,-0.7835481899999973,-0.0009346002780023376,-2.355191279999998,-0.0003927126005011647,1.5712766950000008,0.7859487039999998,0.03999999225,0.03999997095,-9.819427099999999,-0.017458161432307093,0.007240437325011377,0.006755518215011347,-0.015165095776324909,0.0014255391500023061
0.46,-0.0001500131600006747,-0.7835266199999975,-0.0009532233840021004,-2.355173639999998,-0.0004019921840010466,1.5712825600000007,0.7859477919999999,0.039999993000000005,0.039999972599999996,-9.8194208,-0.01754674948752919,0.007331080600010223,0.0068459164200101955,-0.015208668820564835,0.0014439113000020722
0.4625,-0.00015599553500059854,-0.7835050499999978,-0.0009718464900018634,-2.3551559999999983,-0.0004112717675009284,1.5712884250000005,0.7859468799999999,0.039999993750000004,0.03999997425,-9.819414499999999,-0.017635337542751286,0.007421723875009069,0.006936314625009045,-0.015252241864804759,0.0014622834500018383
0.465,-0.00016197791000052236,-0.7834834799999981,-0.0009904695960016262,-2.3551383599999984,-0.0004205513510008103,1.5712942900000004,0.7859459679999999,0.039999994500000004,0.0399999759,-9.8194082,-0.017723925597973384,0.007512367150007915,0.007026712830007894,-0.015295814909044685,0.0014806556000016044
0.4675,-0.00016813918050051588,-0.7834613849999982,-0.0010096458900016052,-2.3551200699999986,-0.0004301063630007997,1.5713003500000005,0.785944977,0.039999995,0.039999977,-9.819416550000003,-0.017824077047417314,0.007615356450010104,0.007118466665007476,-0.015339364623654306,0.0014994244050015482
0.47000000000000003,-0.00017465824200052182,-0.7834382399999982,-0.0010299285600016237,-2.3551004799999986,-0.0004402122320008089,1.5713068000000006,0.785943828,0.039999995,0.039999977,-9.819454200000003,-0.017947355285296708,0.00774303780001022,0.007212931760007562,-0.015382867679003341,0.001518986520001566
0.47250000000000003,-0.00018117730350052775,-0.7834150949999982,-0.001050211230001642,-2.3550808899999987,-0.0004503181010008181,1.5713132500000004,0.7859426789999999,0.039999995,0.039999977,-9.819491850000004,-0.0180706335231761,0.007870719150010336,0.007307396855007648,-0.015426370734352376,0.0015385486350015837
0.47500000000000003,-0.0001876963650005337,-0.7833919499999981,-0.0010704939000016605,-2.3550612999999982,-0.00046042397000082733,1.5713197000000005,0.7859415299999999,0.039999995,0.039999977,-9.819529500000003,-0.01819391176105549,0.007998400500010452,0.007401861950007734,-0.015469873789701412,0.0015581107500016015
0.47750000000000004,-0.00019421542650053963,-0.7833688049999981,-0.001090776570001679,-2.3550417099999983,-0.00047052983900083655,1.5713261500000004,0.7859403809999999,0.039999995,0.039999977,-9.819567150000003,-0.018317189998934884,0.00812608185001057,0.00749632704500782,-0.015513376845050447,0.0015776728650016194
0.48,-0.00020073448800054543,-0.7833456599999981,-0.001111059240001697,-2.3550221199999983,-0.00048063570800084554,1.5713326000000005,0.7859392319999999,0.039999995,0.039999977,-9.819604800000002,-0.01844046823681427,0.008253763200010682,0.0075907921400079036,-0.01555687990039948,0.0015972349800016368
0.4825,-0.00020725354950055136,-0.783322514999998,-0.0011313419100017156,-2.3550025299999984,-0.0004907415770008547,1.5713390500000006,0.7859380829999999,0.039999995,0.039999977,-9.819642450000002,-0.018563746474693665,0.008381444550010799,0.00768525723500799,-0.015600382955748514,0.0016167970950016547
0.485,-0.00021414601800060518,-0.7832982299999979,-0.0011527789200018819,-2.354981739999998,-0.0005014221900009377,1.5713458600000005,0.7859369399999999,0.0399999955,0.0399999763,-9.819648099999998,-0.018653303012258024,0.008496402200009284,0.007782910240008484,-0.015643320418897908,0.001637135520001772
0.4875,-0.00022122519000061162,-0.7832733749999978,-0.001174793100001902,-2.354960349999998,-0.0005123901750009476,1.5713528500000005,0.7859357999999999,0.03999999625,0.03999997525,-9.819637749999998,-0.018725998699671304,0.008604998000009382,0.007882157200008575,-0.015685975085947587,0.0016578621000017907
0.49,-0.00022830436200061807,-0.7832485199999978,-0.001196807280001922,-2.354938959999998,-0.0005233581600009576,1.5713598400000006,0.7859346599999999,0.039999997,0.0399999742,-9.819627399999998,-0.018798694387084584,0.008713593800009481,0.007981404160008665,-0.015728629752997263,0.0016785886800018096
0.4925,-0.00023538353400062451,-0.7832236649999978,-0.001218821460001942,-2.3549175699999982,-0.0005343261450009676,1.5713668300000005,0.7859335199999998,0.03999999775,0.03999997315,-9.819617049999998,-0.018871390074497868,0.00882218960000958,0.008080651120008756,-0.01577128442004694,0.0016993152600018285
0.495,-0.000242462706000631,-0.7831988099999978,-0.001240835640001962,-2.354896179999998,-0.0005452941300009775,1.5713738200000005,0.7859323799999999,0.0399999985,0.0399999721,-9.819606699999998,-0.018944085761911148,0.008930785400009678,0.008179898080008846,-0.01581393908709662,0.0017200418400018474
0.4975,-0.0002495418780006374,-0.7831739549999978,-0.001262849820001982,-2.354874789999998,-0.0005562621150009875,1.5713808100000006,0.7859312399999998,0.03999999925,0.03999997105,-9.819596349999998,-0.01901678144932443,0.009039381200009779,0.008279145040008935,-0.0158565937541463,0.0017407684200018664
0.5,-0.0002566210500006969,-0.7831490999999976,-0.0012848640000021662,-2.354853399999998,-0.0005672301000010792,1.5713878000000006,0.7859300999999999,0.04,0.03999997,-9.819586000000003,-0.019089477136742136,0.00914797700001258,0.008378392000009362,-0.01589924842119602,0.001761495000001908
0.5025000000000001,-0.0002642834835007041,-0.7831224509999976,-0.0013086810750021884,-2.354830089999998,-0.0005790958050010903,1.5713953450000007,0.7859289149999998,0.04,0.039999970450000005,-9.819629050000003,-0.01921082474292435,0.009286289150012709,0.008481340150009458,-0.015942347608510574,0.0017824727550019275
0.505,-0.0002719459170007109,-0.7830958019999975,-0.0013324981500022095,-2.354806779999998,-0.0005909615100011008,1.5714028900000006,0.7859277299999998,0.04,0.0399999709,-9.819672100000004,-0.019332172349106558,0.009424601300012832,0.008584288300009551,-0.01598544679582513,0.0018034505100019461
0.5075000000000001,-0.000279608350500718,-0.7830691529999975,-0.0013563152250022318,-2.354783469999998,-0.0006028272150011119,1.5714104350000007,0.7859265449999999,0.04,0.03999997135,-9.819715150000004,-0.01945351995528877,0.00956291345001296,0.008687236450009647,-0.016028545983139682,0.0018244282650019658
0.51,-0.0002872707840007248,-0.7830425039999974,-0.001380132300002253,-2.354760159999998,-0.0006146929200011224,1.5714179800000005,0.7859253599999999,0.04,0.0399999718,-9.819758200000003,-0.019574867561470977,0.009701225600013083,0.008790184600009738,-0.016071645170454237,0.0018454060200019844
0.5125,-0.0002949332175007316,-0.7830158549999975,-0.001403949375002274,-2.354736849999998,-0.0006265586250011329,1.5714255250000007,0.7859241749999999,0.04,0.03999997225,-9.819801250000003,-0.019696215167653186,0.009839537750013207,0.00889313275000983,-0.01611474435776879,0.001866383775002003
0.515,-0.00030259565100073873,-0.7829892059999974,-0.0014277664500022963,-2.354713539999998,-0.000638424330001144,1.5714330700000008,0.7859229899999999,0.04,0.039999972700000004,-9.819844300000003,-0.0198175627738354,0.009977849900013335,0.008996080900009926,-0.016157843545083345,0.0018873615300020225
0.5175,-0.0003104601630008045,-0.7829619329999972,-0.0014522079650024996,-2.3546895099999974,-0.0006506007570012452,1.5714408100000008,0.7859217249999999,0.0399999994,0.03999997135,-9.819879100000001,-0.019917178805922926,0.010108524500011228,0.009100298300010388,-0.016201125457887093,0.001908966400002224
0.52,-0.0003187288320008122,-0.7829334119999972,-0.0014778983600025235,-2.3546640399999976,-0.0006633986280012572,1.5714489400000007,0.7859202999999999,0.039999997600000003,0.0399999664,-9.819897400000002,-0.019973331689840074,0.010223924000011335,0.009207054200010487,-0.016244772821669067,0.0019318255000022454
0.5225,-0.0003269975010008196,-0.7829048909999972,-0.0015035887550025465,-2.3546385699999974,-0.0006761964990012685,1.5714570700000008,0.7859188749999999,0.0399999958,0.039999961449999996,-9.819915700000001,-0.02002948457375722,0.010339323500011438,0.009313810100010582,-0.01628842018545104,0.0019546846000022657
0.525,-0.0003352661700008273,-0.7828763699999971,-0.0015292791500025704,-2.3546130999999972,-0.0006889943700012804,1.571465200000001,0.7859174499999999,0.039999994,0.039999956499999996,-9.819934000000002,-0.020085637457674367,0.010454723000011545,0.00942056600001068,-0.016332067549233015,0.001977543700002287
0.5275,-0.0003435348390008347,-0.7828478489999972,-0.0015549695450025932,-2.3545876299999975,-0.0007017922410012919,1.5714733300000008,0.7859160249999999,0.0399999922,0.039999951549999996,-9.819952300000002,-0.020141790341591515,0.010570122500011648,0.009527321900010776,-0.01637571491301499,0.0020004028000023075
0.53,-0.0003518035080008424,-0.7828193279999971,-0.0015806599400026173,-2.3545621599999973,-0.0007145901120013038,1.5714814600000009,0.7859145999999999,0.0399999904,0.039999946599999996,-9.819970600000001,-0.02019794322550866,0.010685522000011756,0.009634077800010875,-0.016419362276796964,0.0020232619000023285
0.5325,-0.0003600721770008497,-0.782790806999997,-0.00160635033500264,-2.354536689999997,-0.0007273879830013151,1.571489590000001,0.7859131749999999,0.0399999886,0.039999941649999995,-9.819988900000002,-0.020254096109425808,0.010800921500011858,0.00974083370001097,-0.016463009640578938,0.002046121000002349
0.535,-0.00036876010700092265,-0.7827609749999969,-0.0016333360000028653,-2.354509859999997,-0.0007408306960014273,1.571498140000001,0.7859117459999999,0.0399999869,0.039999938,-9.820002500000001,-0.020348703674983835,0.010940760300015768,0.00985073290001156,-0.01650629993528574,0.0020689877300023715
0.5375,-0.00037765766750093055,-0.7827304874999969,-0.00166096930000289,-2.354482349999997,-0.0007545958300014396,1.571506900000001,0.7859103149999999,0.03999998525,0.039999935,-9.820013750000001,-0.02046253858135338,0.011092818750015903,0.009962203750011658,-0.016549411695455034,0.0020918582750023918
0.54,-0.00038655522800093884,-0.7826999999999968,-0.0016886026000029158,-2.3544548399999967,-0.0007683609640014525,1.5715156600000009,0.7859088839999999,0.0399999836,0.039999932,-9.820025000000001,-0.02057637348772293,0.011244877200016044,0.010073674600011762,-0.016592523455624328,0.002114728820002413
0.5425,-0.00039545278850094674,-0.7826695124999967,-0.0017162359000029402,-2.354427329999997,-0.0007821260980014646,1.571524420000001,0.7859074529999999,0.03999998195,0.039999929,-9.820036250000001,-0.020690208394092476,0.01139693565001618,0.01018514545001186,-0.016635635215793622,0.0021375993650024337
0.545,-0.000404350349000955,-0.7826390249999967,-0.001743869200002966,-2.3543998199999967,-0.0007958912320014776,1.571533180000001,0.7859060219999999,0.0399999803,0.039999926,-9.820047500000001,-0.020804043300462028,0.011548994100016322,0.010296616300011965,-0.016678746975962916,0.002160469910002455
0.5475,-0.00041324790950096293,-0.7826085374999967,-0.0017715025000029905,-2.354372309999997,-0.0008096563660014897,1.571541940000001,0.7859045909999999,0.03999997865,0.039999923,-9.820058750000001,-0.020917878206831574,0.011701052550016456,0.010408087150012063,-0.01672185873613221,0.002183340455002475
0.55,-0.0004221454700010423,-0.7825780499999965,-0.0017991358000032358,-2.3543447999999967,-0.0008234215000016119,1.571550700000001,0.7859031599999998,0.039999977,0.03999992,-9.820070000000001,-0.02103171311319434,0.011853111000013619,0.010519558000012554,-0.01676497049630156,0.002206211000002553
0.5525,-0.00043169418650105076,-0.7825455074999964,-0.0018287808250032622,-2.3543151299999967,-0.000838188076001625,1.571560090000001,0.7859016299999999,0.03999997745,0.03999992,-9.820090400000002,-0.02108339257538882,0.01197788145001373,0.010634575675012657,-0.016808586847041795,0.002229601505002574
0.555,-0.00044124290300105967,-0.7825129649999965,-0.00185842585000329,-2.3542854599999967,-0.0008529546520016387,1.571569480000001,0.7859000999999999,0.0399999779,0.03999992,-9.820110800000002,-0.021135072037583306,0.012102651900013847,0.010749593350012764,-0.01685220319778203,0.0022529920100025956
0.5575,-0.00045079161950106815,-0.7824804224999964,-0.0018880708750033163,-2.3542557899999967,-0.0008677212280016519,1.571578870000001,0.7858985699999999,0.03999997835,0.03999992,-9.820131200000002,-0.021186751499777785,0.012227422350013957,0.010864611025012866,-0.016895819548522262,0.0022763825150026165
0.56,-0.00046034033600107706,-0.7824478799999963,-0.001917715900003344,-2.3542261199999968,-0.0008824878040016656,1.571588260000001,0.7858970399999998,0.039999978799999995,0.03999992,-9.820151600000003,-0.02123843096197227,0.012352192800014074,0.010979628700012973,-0.016939435899262497,0.0022997730200026386
0.5625,-0.00046988905250108554,-0.7824153374999964,-0.00194736092500337,-2.3541964499999968,-0.0008972543800016788,1.571597650000001,0.7858955099999998,0.03999997925,0.03999992,-9.820172000000003,-0.02129011042416675,0.012476963250014185,0.011094646375013076,-0.016983052250002732,0.002323163525002659
0.5650000000000001,-0.00047943776900109445,-0.7823827949999963,-0.001977005950003398,-2.354166779999997,-0.0009120209560016925,1.571607040000001,0.7858939799999998,0.0399999797,0.03999992,-9.820192400000003,-0.021341789886361234,0.012601733700014302,0.011209664050013182,-0.017026668600742968,0.002346554030002681
0.5675,-0.0004892108810012272,-0.7823495599999959,-0.0020073440750038086,-2.3541363649999965,-0.0009271326130018971,1.5716166700000014,0.7858923869999997,0.03999998,0.03999991985,-9.820218200000005,-0.021410286892217648,0.012739546750019677,0.011325987175014278,-0.017070456873630735,0.0023701675050028883
0.5700000000000001,-0.0004994327840013761,-0.7823149399999954,-0.002039068400004271,-2.354104459999996,-0.0009429344320021274,1.5716267800000014,0.7858906679999997,0.03999998,0.0399999194,-9.820254800000006,-0.02151241898538049,0.012903445000022065,0.011444921200016011,-0.0171145889908134,0.002394226920003239
0.5725,-0.0005096546870015247,-0.7822803199999948,-0.002070792725004732,-2.3540725549999952,-0.000958736251002357,1.5716368900000015,0.7858889489999997,0.03999998,0.039999918950000005,-9.820291400000006,-0.02161455107854333,0.013067343250024448,0.01156385522501774,-0.017158721107996062,0.0024182863350035886
0.5750000000000001,-0.0005198765900016737,-0.7822456999999943,-0.0021025170500051944,-2.354040649999995,-0.0009745380700025873,1.5716470000000016,0.7858872299999997,0.03999998,0.0399999185,-9.820328000000005,-0.021716683171706174,0.013231241500026835,0.011682789250019473,-0.017202853225178723,0.0024423457500039394
0.5775,-0.0005300984930018222,-0.7822110799999938,-0.0021342413750056553,-2.3540087449999945,-0.000990339889002817,1.5716571100000019,0.7858855109999997,0.03999998,0.03999991805,-9.820364600000007,-0.021818815264869014,0.013395139750029218,0.011801723275021202,-0.017246985342361385,0.002466405165004289
0.58,-0.0005403203960019707,-0.7821764599999933,-0.002165965700006116,-2.353976839999994,-0.0010061417080030465,1.571667220000002,0.7858837919999997,0.03999998,0.039999917600000004,-9.820401200000006,-0.02192094735803185,0.013559038000031599,0.01192065730002293,-0.017291117459544047,0.002490464580004639
0.5825,-0.0005505422990021197,-0.7821418399999928,-0.002197690025006579,-2.3539449349999937,-0.001021943527003277,1.571677330000002,0.7858820729999997,0.03999998,0.03999991715,-9.820437800000008,-0.022023079451194697,0.013722936250033988,0.012039591325024664,-0.01733524957672671,0.0025145239950049893
0.585,-0.0005612274700022239,-0.7821057499999925,-0.0022308450900069,-2.3539115299999933,-0.0010384575600034366,1.571687870000002,0.7858803599999996,0.039999980399999996,0.039999917,-9.8204548,-0.022081650048501805,0.013869648000028136,0.012161340900025089,-0.017379310727128356,0.0025389999900050286
0.5875,-0.0005721442750020851,-0.7820689249999929,-0.0022647155250064693,-2.3538773749999935,-0.0010553277000032223,1.571698625000002,0.7858786499999997,0.039999981,0.039999917,-9.820462000000001,-0.022118439897901854,0.014007766500026381,0.012284498250023524,-0.01742333639413953,0.002563684275004715
0.59,-0.0005830610800019459,-0.7820320999999935,-0.0022985859600060375,-2.353843219999994,-0.001072197840003007,1.571709380000002,0.7858769399999997,0.0399999816,0.039999917,-9.820469200000002,-0.0221552297473019,0.01414588500002462,0.012407655600021952,-0.017467362061150706,0.0025883685600044002
0.5925,-0.0005939778850018072,-0.7819952749999939,-0.002332456395005607,-2.3538090649999943,-0.0010890679800027927,1.5717201350000019,0.7858752299999997,0.0399999822,0.039999917,-9.8204764,-0.022192019596701945,0.014284003500022863,0.012530812950020388,-0.01751138772816188,0.0026130528450040865
0.595,-0.0006048946900016679,-0.7819584499999944,-0.002366326830005175,-2.353774909999995,-0.0011059381200025774,1.5717308900000018,0.7858735199999998,0.0399999828,0.039999917,-9.820483600000001,-0.02222880944610199,0.014422122000021102,0.012653970300018816,-0.017555413395173056,0.0026377371300037714
0.5975,-0.0006158114950015292,-0.7819216249999948,-0.0024001972650047445,-2.3537407549999956,-0.001122808260002363,1.5717416450000015,0.7858718099999997,0.0399999834,0.039999917,-9.820490800000002,-0.022265599295502037,0.014560240500019346,0.012777127650017251,-0.01759943906218423,0.0026624214150034577
0.6,-0.0006267283000014811,-0.781884799999995,-0.002434067700004594,-2.3537065999999958,-0.001139678400002288,1.5717524000000016,0.7858700999999998,0.039999984,0.039999917,-9.820498000000006,-0.022302389144909198,0.014698359000022511,0.012900285000016111,-0.01764346472919547,0.002687105700003207
0.6025,-0.000638361314501492,-0.7818457009999951,-0.002470149975004628,-2.3536701199999954,-0.0011576495850023048,1.5717638150000015,0.7858681649999998,0.0399999849,0.039999917450000005,-9.820536700000005,-0.022395056951802873,0.014875175400022677,0.01302683880001623,-0.017687986046081464,0.0027122907000032303
0.605,-0.0006499943290015022,-0.781806601999995,-0.00250623225000466,-2.3536336399999955,-0.0011756207700023209,1.5717752300000016,0.7858662299999998,0.0399999858,0.0399999179,-9.820575400000005,-0.022487724758696547,0.015051991800022833,0.013153392600016342,-0.01773250736296746,0.0027374757000032525
0.6075,-0.0006616273435015132,-0.781767502999995,-0.0025423145250046933,-2.353597159999995,-0.0011935919550023375,1.5717866450000015,0.7858642949999998,0.039999986700000004,0.039999918350000004,-9.820614100000006,-0.02258039256559022,0.015228808200023,0.01327994640001646,-0.017777028679853455,0.002762660700003276
0.61,-0.0006732603580015235,-0.7817284039999949,-0.0025783968000047254,-2.3535606799999953,-0.0012115631400023536,1.5717980600000017,0.7858623599999998,0.0399999876,0.0399999188,-9.820652800000005,-0.022673060372483896,0.015405624600023156,0.013406500200016573,-0.01782154999673945,0.0027878457000032985
0.6125,-0.0006848933725015343,-0.7816893049999949,-0.002614479075004759,-2.353524199999995,-0.0012295343250023703,1.5718094750000016,0.7858604249999998,0.0399999885,0.03999991925,-9.820691500000004,-0.02276572817937757,0.01558244100002332,0.01353305400001669,-0.017866071313625446,0.002813030700003322
0.615,-0.0006965263870015447,-0.7816502059999948,-0.002650561350004791,-2.353487719999995,-0.0012475055100023863,1.5718208900000017,0.7858584899999997,0.0399999894,0.039999919700000004,-9.820730200000005,-0.022858395986271245,0.01575925740002348,0.013659607800016803,-0.01791059263051144,0.002838215700003344
0.6175,-0.0007084051435016541,-0.7816103229999944,-0.0026874024550051293,-2.3534504299999948,-0.0012658543600025545,1.5718325350000018,0.7858565324999998,0.03999999025,0.03999992,-9.820761625000001,-0.022927733510735644,0.015926651950019865,0.013787563250017483,-0.01795541243628272,0.002863633155003461
0.62,-0.0007207753840016651,-0.7815688719999945,-0.002725761220005163,-2.3534115199999945,-0.0012849585400025716,1.5718446400000017,0.7858545299999997,0.039999991,0.03999992,-9.820778500000001,-0.02295041047036949,0.016075202800019995,0.013918322000017599,-0.018000829219824193,0.002889515520003484
0.6225,-0.0007331456245016767,-0.7815274209999944,-0.002764119985005199,-2.3533726099999948,-0.0013040627200025894,1.5718567450000016,0.7858525274999998,0.03999999175,0.03999992,-9.820795375000001,-0.02297308743000334,0.016223753650020135,0.014049080750017722,-0.01804624600336567,0.002915397885003508
0.625,-0.0007455158650016876,-0.7814859699999944,-0.002802478750005233,-2.3533336999999945,-0.0013231669000026063,1.5718688500000015,0.7858505249999997,0.039999992500000005,0.03999992,-9.820812250000001,-0.022995764389637192,0.016372304500020265,0.014179839500017838,-0.018091662786907145,0.002941280250003531
0.6275000000000001,-0.0007578861055016991,-0.7814445189999943,-0.002840837515005269,-2.3532947899999943,-0.0013422710800026242,1.5718809550000017,0.7858485224999997,0.039999993250000004,0.03999992,-9.820829125000001,-0.023018441349271043,0.016520855350020406,0.01431059825001796,-0.018137079570448623,0.002967162615003555
0.63,-0.0007702563460017101,-0.7814030679999943,-0.002879196280005303,-2.3532558799999945,-0.0013613752600026411,1.5718930600000016,0.7858465199999998,0.039999994000000004,0.03999992,-9.820846000000001,-0.023041118308904894,0.016669406200020536,0.014441357000018076,-0.0181824963539901,0.002993044980003578
0.6325000000000001,-0.0007826265865017217,-0.7813616169999943,-0.0029175550450053385,-2.3532169699999943,-0.0013804794400026589,1.5719051650000015,0.7858445174999997,0.039999994750000004,0.03999992,-9.820862875000001,-0.023063795268538745,0.016817957050020677,0.014572115750018199,-0.018227913137531578,0.0030189273450036023
0.635,-0.0007955020570018388,-0.7813185499999938,-0.0029574736400057003,-2.3531764899999943,-0.001400360050002839,1.5719178300000016,0.7858424309999997,0.0399999955,0.03999992,-9.820881750000002,-0.023104025796062633,0.016981120300023876,0.014705259000018815,-0.01827357206494251,0.003045128370003692
0.6375000000000001,-0.0008086301425018511,-0.7812746749999938,-0.0029981721500057386,-2.353135224999994,-0.0014206288750028579,1.5719307750000018,0.7858403024999997,0.03999999625,0.03999992,-9.820901625000003,-0.023153033107526033,0.017151589750024038,0.01483959450001894,-0.018319352064288107,0.0030714887250037166
0.64,-0.0008217582280018627,-0.7812307999999938,-0.003038870660005775,-2.353093959999994,-0.001440897700002876,1.5719437200000017,0.7858381739999997,0.039999997,0.03999992,-9.820921500000003,-0.023202040418989434,0.01732205920002419,0.01497393000001906,-0.018365132063633695,0.00309784908000374
0.6425,-0.0008348863135018744,-0.7811869249999938,-0.003079569170005811,-2.3530526949999944,-0.0014611665250028939,1.5719566650000019,0.7858360454999997,0.03999999775,0.03999992,-9.820941375000004,-0.02325104773045283,0.01749252865002434,0.01510826550001918,-0.018410912062979286,0.0031242094350037632
0.645,-0.0008480143990018867,-0.7811430499999937,-0.003120267680005849,-2.3530114299999942,-0.0014814353500029129,1.5719696100000018,0.7858339169999997,0.0399999985,0.03999992,-9.820961250000003,-0.02330005504191623,0.0176629981000245,0.015242601000019304,-0.018456692062324878,0.003150569790003788
0.6475,-0.0008611424845018983,-0.7810991749999937,-0.003160966190005885,-2.352970164999994,-0.0015017041750029307,1.571982555000002,0.7858317884999997,0.03999999925,0.03999992,-9.820981125000003,-0.02334906235337963,0.01783346755002465,0.015376936500019424,-0.01850247206167047,0.0031769301450038116
0.65,-0.0008742705700020238,-0.7810552999999932,-0.0032016647000062725,-2.352928899999994,-0.0015219730000031236,1.571995500000002,0.7858296599999997,0.04,0.03999992,-9.82100100000001,-0.02339806966484661,0.018003937000027986,0.015511272000020084,-0.018548252061016176,0.0032032905000039386
0.6525,-0.0008881767235020361,-0.7810089559999932,-0.003244765250006311,-2.352885159999994,-0.0015434374900031428,1.5720091950000021,0.7858273709999997,0.03999999925,0.03999992,-9.821056200000008,-0.023471664730470198,0.018196228750028156,0.015649284900020207,-0.01859480375424708,0.0032303562750039625
0.655,-0.0009020828770020491,-0.7809626119999932,-0.0032878658000063507,-2.3528414199999936,-0.0015649019800031627,1.572022890000002,0.7858250819999997,0.0399999985,0.03999992,-9.821111400000008,-0.023545259796093794,0.018388520500028337,0.015787297800020337,-0.01864135544747799,0.0032574220500039878
0.6575,-0.0009159890305020615,-0.7809162679999931,-0.003330966350006389,-2.3527976799999935,-0.0015863664700031819,1.572036585000002,0.7858227929999997,0.03999999775,0.03999992,-9.821166600000009,-0.023618854861717383,0.018580812250028507,0.01592531070002046,-0.018687907140708896,0.003284487825004012
0.66,-0.0009298951840020743,-0.7808699239999931,-0.0033740669000064294,-2.3527539399999937,-0.0016078309600032017,1.572050280000002,0.7858205039999997,0.039999997,0.03999992,-9.821221800000009,-0.02369244992734098,0.018773104000028684,0.016063323600020586,-0.0187344588339398,0.0033115536000040374
0.6625,-0.0009438013375020867,-0.7808235799999931,-0.0034171674500064675,-2.3527101999999935,-0.0016292954500032209,1.572063975000002,0.7858182149999997,0.03999999625,0.03999992,-9.82127700000001,-0.02376604499296457,0.018965395750028854,0.01620133650002071,-0.01878101052717071,0.0033386193750040614
0.665,-0.0009577074910020997,-0.7807772359999929,-0.0034602680000065077,-2.3526664599999934,-0.001650759940003241,1.572077670000002,0.7858159259999997,0.0399999955,0.03999992,-9.82133220000001,-0.023839640058588164,0.019157687500029035,0.01633934940002084,-0.018827562220401616,0.0033656851500040866
0.6675,-0.0009718796220022333,-0.7807300429999926,-0.0035041897150069204,-2.352621799999993,-0.001672632980003446,1.5720916150000022,0.7858136074999996,0.039999995,0.0399999195,-9.821372650000002,-0.02388956723734775,0.01934083640002504,0.016478626250021538,-0.018874289933599204,0.0033928869700041724
0.67,-0.000986583708002247,-0.7806811519999926,-0.003549753760006963,-2.3525752999999927,-0.0016953231200034673,1.572106060000002,0.7858112299999996,0.039999995,0.039999918,-9.821383600000003,-0.023892158642411617,0.019505699600025194,0.016620431000021668,-0.018921369686729913,0.0034203608800041983
0.6725,-0.00100128779400226,-0.7806322609999925,-0.003595317805007003,-2.352528799999993,-0.0017180132600034875,1.5721205050000022,0.7858088524999997,0.039999995,0.0399999165,-9.821394550000003,-0.023894750047475485,0.01967056280002534,0.016762235750021795,-0.01896844943986062,0.0034478347900042225
0.675,-0.0010159918800022737,-0.7805833699999924,-0.0036408818500070455,-2.3524822999999926,-0.0017407034000035085,1.5721349500000021,0.7858064749999997,0.039999995,0.039999915,-9.821405500000001,-0.023897341452539352,0.019835426000025493,0.01690404050002193,-0.019015529192991328,0.0034753087000042484
0.6775,-0.0010306959660022867,-0.7805344789999924,-0.0036864458950070862,-2.3524357999999927,-0.0017633935400035287,1.5721493950000023,0.7858040974999996,0.039999995,0.0399999135,-9.821416450000001,-0.02389993285760322,0.02000028920002564,0.017045845250022052,-0.019062608946122037,0.0035027826100042726
0.68,-0.0010454000520023004,-0.7804855879999923,-0.0037320099400071287,-2.3523892999999925,-0.00178608368000355,1.5721638400000022,0.7858017199999996,0.039999995,0.039999912,-9.821427400000001,-0.023902524262667087,0.020165152400025792,0.017187650000022186,-0.019109688699252746,0.003530256520004298
0.6825,-0.0010601041380023134,-0.7804366969999923,-0.003777573985007169,-2.3523427999999926,-0.00180877382000357,1.5721782850000021,0.7857993424999996,0.039999995,0.0399999105,-9.821438350000001,-0.023905115667730955,0.02033001560002594,0.017329454750022313,-0.01915676845238345,0.0035577304300043228
0.685,-0.0010753531900024565,-0.7803860459999918,-0.003824819970007611,-2.352294589999992,-0.00183230114000379,1.5721932800000025,0.7857968389999996,0.0399999955,0.0399999103,-9.821452700000002,-0.02394834663719942,0.020525712300033413,0.01747356070002299,-0.01920372731984395,0.003585513900004422
0.6875,-0.0010908747250024703,-0.7803345149999918,-0.0038729069250076536,-2.352245524999992,-0.0018562470500038113,1.5722085500000025,0.7857942724999996,0.03999999625,0.03999991075,-9.821468750000001,-0.024011897388855764,0.0207368257500336,0.01761881725002312,-0.01925062574446939,0.003613452150004447
0.6900000000000001,-0.0011063962600024848,-0.7802829839999917,-0.003920993880007698,-2.352196459999992,-0.0018801929600038337,1.5722238200000025,0.7857917059999996,0.039999997,0.0399999112,-9.821484800000002,-0.024075448140512115,0.020947939200033797,0.017764073800023254,-0.01929752416909483,0.0036413904000044727
0.6925,-0.0011219177950024986,-0.7802314529999917,-0.003969080835007742,-2.352147394999992,-0.0019041388700038549,1.5722390900000025,0.7857891394999996,0.03999999775,0.03999991165,-9.821500850000001,-0.024138998892168462,0.021159052650033986,0.017909330350023383,-0.019344422593720264,0.0036693286500044976
0.6950000000000001,-0.001137439330002513,-0.7801799219999916,-0.004017167790007786,-2.352098329999992,-0.0019280847800038773,1.5722543600000025,0.7857865729999997,0.0399999985,0.0399999121,-9.821516900000002,-0.02420254964382481,0.021370166100034182,0.01805458690002352,-0.019391321018345703,0.003697266900004524
0.6975,-0.0011529608650025268,-0.7801283909999916,-0.004065254745007829,-2.352049264999992,-0.0019520306900038986,1.5722696300000025,0.7857840064999996,0.03999999925,0.039999912549999996,-9.821532950000002,-0.024266100395481157,0.02158127955003437,0.018199843450023647,-0.01943821944297114,0.0037252051500045484
0.7000000000000001,-0.0011684824000026783,-0.7800768599999911,-0.0041133417000082965,-2.3520001999999915,-0.0019759766000041314,1.5722849000000028,0.7857814399999996,0.04,0.039999913,-9.821549000000003,-0.02432965114712467,0.021792393000028158,0.018345100000024407,-0.01948511786759674,0.003753143400004686
0.7025,-0.0011848403650026927,-0.780022634999991,-0.004164010575008341,-2.3519484949999914,-0.002001207530004154,1.5723009650000028,0.7857788029999996,0.04,0.03999991135,-9.821572250000003,-0.024314828310159346,0.021964374000028312,0.01849416775002454,-0.01953301262111251,0.0037817633400047115
0.705,-0.0012011983300027073,-0.779968409999991,-0.004214679450008386,-2.3518967899999916,-0.002026438460004176,1.5723170300000027,0.7857761659999996,0.04,0.039999909699999996,-9.821595500000003,-0.024300005473194018,0.022136355000028467,0.018643235500024672,-0.019580907374628278,0.003810383280004737
0.7075,-0.0012175562950027226,-0.779914184999991,-0.004265348325008434,-2.3518450849999915,-0.0020516693900042,1.5723330950000027,0.7857735289999995,0.04,0.03999990805,-9.821618750000004,-0.024285182636228687,0.022308336000028624,0.01879230325002481,-0.019628802128144048,0.0038390032200047637
0.71,-0.0012339142600027372,-0.7798599599999909,-0.004316017200008479,-2.3517933799999913,-0.002076900320004222,1.5723491600000028,0.7857708919999996,0.04,0.0399999064,-9.821642000000004,-0.02427035979926336,0.02248031700002878,0.018941371000024944,-0.019676696881659815,0.003867623160004789
0.7125,-0.0012502722250027525,-0.7798057349999908,-0.004366686075008526,-2.3517416749999915,-0.0021021312500042453,1.5723652250000026,0.7857682549999996,0.04,0.039999904749999995,-9.821665250000004,-0.02425553696229803,0.02265229800002894,0.01909043875002508,-0.019724591635175585,0.003896243100004816
0.715,-0.001266630190002767,-0.7797515099999908,-0.004417354950008571,-2.3516899699999914,-0.002127362180004268,1.5723812900000027,0.7857656179999996,0.04,0.0399999031,-9.821688500000004,-0.024240714125332703,0.022824279000029094,0.019239506500025216,-0.019772486388691352,0.003924863040004841
0.7175,-0.0012832731750029277,-0.7796963569999903,-0.004468903605009067,-2.3516373099999908,-0.002153030860004515,1.5723976450000028,0.7857629219999995,0.04,0.039999901649999996,-9.821718200000008,-0.024248885642746357,0.02301391715003826,0.01938962720002589,-0.019820663705476405,0.003953530050004892
0.72,-0.001300486200002943,-0.7796393479999902,-0.004522211820009114,-2.3515827399999907,-0.0021795750400045383,1.572414580000003,0.7857601079999995,0.04,0.0399999006,-9.821760800000007,-0.02430304586888284,0.023238869600038462,0.019541853800026026,-0.019869406148799593,0.003982291200004918
0.7225,-0.001317699225002959,-0.7795823389999902,-0.004575520035009164,-2.3515281699999906,-0.002206119220004563,1.572431515000003,0.7857572939999995,0.04,0.039999899549999995,-9.821803400000007,-0.024357206095019325,0.023463822050038673,0.019694080400026168,-0.019918148592122785,0.0040110523500049445
0.725,-0.0013349122500029742,-0.7795253299999901,-0.004628828250009212,-2.3514735999999905,-0.0022326634000045865,1.5724484500000029,0.7857544799999995,0.04,0.0399998985,-9.821846000000008,-0.024411366321155807,0.02368877450003887,0.019846307000026306,-0.019966891035445973,0.0040398135000049695
0.7275,-0.0013521252750029902,-0.7794683209999901,-0.004682136465009261,-2.3514190299999904,-0.0022592075800046112,1.572465385000003,0.7857516659999995,0.04,0.03999989745,-9.821888600000007,-0.024465526547292293,0.023913726950039082,0.019998533600026448,-0.02001563347876916,0.004068574650004996
0.73,-0.0013693383000030056,-0.77941131199999,-0.0047354446800093085,-2.3513644599999903,-0.0022857517600046347,1.5724823200000029,0.7857488519999994,0.04,0.0399998964,-9.821931200000007,-0.024519686773428775,0.02413867940003928,0.020150760200026582,-0.02006437592209235,0.004097335800005022
0.7325,-0.0013865513250030216,-0.77935430299999,-0.004788752895009359,-2.3513098899999902,-0.0023122959400046594,1.572499255000003,0.7857460379999995,0.04,0.03999989535,-9.821973800000007,-0.02457384699956526,0.02436363185003949,0.020302986800026724,-0.02011311836541554,0.004126096950005049
0.735,-0.001404346550003191,-0.7792954259999894,-0.004843858270009881,-2.3512534999999897,-0.00233973435000492,1.572516740000003,0.7857431499999995,0.04,0.0399998942,-9.8219851,-0.024571974948043245,0.024559201400031913,0.020457644300027503,-0.02016183249653244,0.0041550776000051325
0.7375,-0.0014224328750032079,-0.7792356149999894,-0.004899862225009934,-2.3511961999999897,-0.0023676198750049457,1.572534500000003,0.7857402249999995,0.04,0.039999893,-9.821980749999998,-0.02454208675771415,0.024740079500032083,0.020613517250027646,-0.02021053247154621,0.004184168000005159
0.74,-0.001440519200003224,-0.7791758039999893,-0.004955866180009983,-2.35113889999999,-0.0023955054000049706,1.5725522600000033,0.7857372999999995,0.04,0.0399998918,-9.821976399999999,-0.02451219856738505,0.024920957600032243,0.020769390200027785,-0.02025923244655998,0.004213258400005185
0.7425,-0.001458605525003241,-0.7791159929999892,-0.005011870135010036,-2.3510815999999894,-0.0024233909250049967,1.5725700200000032,0.7857343749999994,0.04,0.0399998906,-9.82197205,-0.024482310377055953,0.02510183570003241,0.02092526315002793,-0.02030793242157375,0.004242348800005213
0.745,-0.0014766918500032568,-0.7790561819999892,-0.005067874090010085,-2.3510242999999895,-0.0024512764500050216,1.5725877800000032,0.7857314499999994,0.04,0.039999889399999995,-9.821967699999998,-0.024452422186726858,0.025282713800032573,0.02108113610002807,-0.02035663239658752,0.004271439200005238
0.7475,-0.0014947781750032738,-0.7789963709999892,-0.005123878045010137,-2.3509669999999896,-0.0024791619750050473,1.5726055400000032,0.7857285249999995,0.04,0.0399998882,-9.821963349999999,-0.02442253399639776,0.02546359190003274,0.021237009050028212,-0.02040533237160129,0.004300529600005266
0.75,-0.0015128645000034519,-0.7789365599999886,-0.005179882000010688,-2.3509096999999888,-0.002507047500005321,1.5726233000000034,0.7857255999999995,0.04,0.039999887,-9.821959000000007,-0.024392645806081508,0.025644470000043808,0.02139288200002893,-0.02045403234661523,0.004329620000005342
0.7525000000000001,-0.0015318419450034697,-0.7788738809999886,-0.005238636145010743,-2.350849519999989,-0.0025363016700053484,1.5726419600000034,0.7857225099999995,0.03999999925,0.03999988595,-9.822002800000007,-0.024433367047466296,0.025885316450044032,0.021551930000029078,-0.020503675285735806,0.00435899045000537
0.755,-0.0015508193900034865,-0.7788112019999884,-0.005297390290010794,-2.350789339999989,-0.0025655558400053745,1.5726606200000035,0.7857194199999994,0.0399999985,0.0399998849,-9.822046600000007,-0.024474088288851083,0.02612616290004425,0.02171097800002922,-0.02055331822485638,0.004388360900005396
0.7575000000000001,-0.0015697968350035043,-0.7787485229999884,-0.005356144435010849,-2.3507291599999887,-0.002594810010005402,1.5726792800000036,0.7857163299999994,0.03999999775,0.03999988385,-9.822090400000008,-0.02451480953023587,0.026367009350044473,0.021870026000029366,-0.020602961163976957,0.004417731350005423
0.76,-0.001588774280003521,-0.7786858439999884,-0.005414898580010901,-2.350668979999989,-0.002624064180005428,1.5726979400000036,0.7857132399999994,0.039999997,0.0399998828,-9.822134200000008,-0.024555530771620655,0.026607855800044686,0.022029074000029507,-0.02065260410309753,0.004447101800005449
0.7625000000000001,-0.0016077517250035387,-0.7786231649999883,-0.005473652725010956,-2.3506087999999887,-0.002653318350005455,1.5727166000000035,0.7857101499999994,0.03999999625,0.03999988175,-9.822178000000008,-0.024596252013005443,0.02684870225004491,0.022188122000029658,-0.020702247042218107,0.004476472250005477
0.765,-0.0016267291700035557,-0.7785604859999883,-0.005532406870011008,-2.350548619999989,-0.002682572520005481,1.5727352600000035,0.7857070599999995,0.0399999955,0.039999880700000004,-9.822221800000008,-0.02463697325439023,0.027089548700045124,0.0223471700000298,-0.02075188998133868,0.004505842700005503
0.7675000000000001,-0.0016460094700037444,-0.7784968269999877,-0.005592095665011591,-2.3504874799999884,-0.0027122917850057712,1.5727542200000038,0.7857039224999994,0.039999994750000004,0.0399998796,-9.82225285,-0.024649219401172318,0.027315393750036877,0.022507379900030603,-0.020801648311326318,0.004535275675005565
0.77,-0.0016658954800037621,-0.7784312079999876,-0.0056536537600116454,-2.350424419999988,-0.0027429412400057983,1.5727737800000037,0.7857006899999993,0.039999994000000004,0.0399998784,-9.8222584,-0.024604515358797183,0.027511236000037048,0.022669913600030747,-0.020851637423047877,0.004564833700005592
0.7725,-0.0016857814900037797,-0.7783655889999875,-0.0057152118550117,-2.350361359999988,-0.0027735906950058257,1.5727933400000038,0.7856974574999993,0.039999993250000004,0.0399998772,-9.822263950000002,-0.02455981131642205,0.027707078250037223,0.02283244730003089,-0.020901626534769437,0.004594391725005618
0.775,-0.0017056675000037983,-0.7782999699999875,-0.005776769950011758,-2.350298299999988,-0.002804240150005854,1.5728129000000037,0.7856942249999993,0.0399999925,0.039999876,-9.8222695,-0.02451510727404691,0.027902920500037405,0.022994981000031042,-0.020951615646491,0.004623949750005646
0.7775,-0.001725553510003816,-0.7782343509999874,-0.005838328045011812,-2.350235239999988,-0.0028348896050058815,1.5728324600000039,0.7856909924999993,0.03999999175,0.0399998748,-9.822275050000002,-0.024470403231671777,0.02809876275003758,0.02315751470003119,-0.02100160475821256,0.004653507775005672
0.78,-0.0017454395200038344,-0.7781687319999874,-0.00589988614001187,-2.3501721799999875,-0.00286553906000591,1.5728520200000038,0.7856877599999993,0.039999991,0.0399998736,-9.822280600000001,-0.02442569918929664,0.028294605000037762,0.02332004840003134,-0.021051593869934118,0.0046830658000057
0.7825,-0.001765325530003852,-0.7781031129999872,-0.005961444235011925,-2.3501091199999875,-0.0028961885150059373,1.572871580000004,0.7856845274999993,0.03999999025,0.0399998724,-9.822286150000002,-0.024380995146921505,0.028490447250037937,0.023482582100031485,-0.021101582981655678,0.004712623825005726
0.785,-0.0017858285100040506,-0.7780354989999867,-0.006024906600012538,-2.350044069999987,-0.0029277855300062425,1.572891730000004,0.7856811909999993,0.0399999905,0.039999871799999996,-9.822316300000008,-0.02438438236713938,0.028724506100049275,0.02364724900003226,-0.02115214839578658,0.004742427950005825
0.7875,-0.0018066399750040693,-0.7779668874999865,-0.006089321100012595,-2.349978024999987,-0.002959856325006271,1.5729121750000041,0.7856778024999993,0.03999999125,0.0399998715,-9.822358750000008,-0.024411815218632765,0.0289776732500495,0.023812982500032408,-0.021203001961121893,0.004772355125005852
0.79,-0.0018274514400040886,-0.7778982759999865,-0.0061537356000126555,-2.349911979999987,-0.0029919271200063006,1.572932620000004,0.7856744139999993,0.039999992,0.0399998712,-9.822401200000009,-0.024439248070126148,0.029230840400049737,0.02397871600003256,-0.02125385552645721,0.00480228230000588
0.7925,-0.001848262905004107,-0.7778296644999865,-0.006218150100012712,-2.349845934999987,-0.0030239979150063294,1.572953065000004,0.7856710254999993,0.039999992750000005,0.0399998709,-9.82244365000001,-0.024466680921619535,0.029484007550049963,0.024144449500032708,-0.021304709091792527,0.004832209475005907
0.795,-0.0018690743700041266,-0.7777610529999864,-0.006282564600012772,-2.349779889999987,-0.003056068710006359,1.572973510000004,0.7856676369999993,0.039999993500000004,0.0399998706,-9.822486100000008,-0.02449411377311292,0.029737174700050197,0.024310183000032865,-0.021355562657127843,0.004862136650005934
0.7975,-0.001889885835004145,-0.7776924414999864,-0.00634697910001283,-2.349713844999987,-0.0030881395050063876,1.572993955000004,0.7856642484999994,0.039999994250000004,0.0399998703,-9.822528550000008,-0.024521546624606306,0.029990341850050423,0.024475916500033012,-0.02140641622246316,0.0048920638250059606
0.8,-0.001910697300004353,-0.7776238299999857,-0.006411393600013472,-2.3496477999999863,-0.003120210300006707,1.5730144000000041,0.7856608599999994,0.039999995,0.03999987,-9.822571,-0.024548979476081995,0.030243509000042242,0.02464165000003382,-0.02145726978779855,0.004921991000006022
0.8025,-0.0019324508550043723,-0.7775521404999856,-0.006478715235013531,-2.349578694999986,-0.003153727455006737,1.5730358050000042,0.7856573259999993,0.03999999575,0.03999986925,-9.822568599999999,-0.02448798855765423,0.03045460775004243,0.024810668200033973,-0.021508494112650833,0.0049520843000060485
0.805,-0.0019542044100043926,-0.7774804509999855,-0.006546036870013594,-2.349509589999986,-0.003187244610006768,1.5730572100000042,0.7856537919999993,0.0399999965,0.0399998685,-9.822566199999999,-0.024426997639226466,0.030665706500042626,0.024979686400034132,-0.021559718437503116,0.004982177600006076
0.8075,-0.001975957965004412,-0.7774087614999854,-0.006613358505013654,-2.349440484999986,-0.003220761765006798,1.5730786150000042,0.7856502579999993,0.03999999725,0.03999986775,-9.8225638,-0.0243660067207987,0.030876805250042813,0.02514870460003428,-0.021610942762355395,0.005012270900006103
0.81,-0.001997711520004432,-0.7773370719999854,-0.006680680140013716,-2.349371379999986,-0.003254278920006829,1.5731000200000043,0.7856467239999992,0.039999998,0.039999867,-9.8225614,-0.024305015802370933,0.03108790400004301,0.02531772280003444,-0.021662167087207678,0.005042364200006131
0.8125,-0.0020194650750044517,-0.7772653824999853,-0.006748001775013776,-2.3493022749999857,-0.0032877960750068587,1.5731214250000043,0.7856431899999993,0.03999999875,0.03999986625,-9.822558999999998,-0.02424402488394317,0.0312990027500432,0.025486741000034587,-0.021713391412059958,0.005072457500006158
0.8150000000000001,-0.002041218630004472,-0.7771936929999852,-0.006815323410013839,-2.349233169999986,-0.00332131323000689,1.5731428300000043,0.7856396559999993,0.0399999995,0.0399998655,-9.822556599999999,-0.024183033965515403,0.031510101500043394,0.025655759200034746,-0.02176461573691224,0.005102550800006186
0.8175,-0.002063291540004689,-0.7771209749999846,-0.006883630725014509,-2.349163054999985,-0.0033553209200072234,1.5731645350000045,0.7856360729999993,0.04,0.03999986475,-9.822565850000005,-0.02414763383567652,0.03173840795005425,0.02582581310003554,-0.021815974265347603,0.00513265522500622
0.8200000000000001,-0.00208600316000471,-0.7770461999999845,-0.006953909400014575,-2.349090919999985,-0.003390309680007256,1.5731868400000046,0.7856323919999992,0.04,0.039999864,-9.822598400000006,-0.024163415282967914,0.03200112980005449,0.025997938400035697,-0.021867601200948886,0.0051627819000062474
0.8225,-0.0021087147800047303,-0.7769714249999844,-0.0070241880750146375,-2.349018784999985,-0.0034252984400072873,1.5732091450000045,0.7856287109999992,0.04,0.03999986325,-9.822630950000006,-0.024179196730259308,0.03226385165005472,0.02617006370003585,-0.02191922813655017,0.005192908575006275
0.8250000000000001,-0.0021314264000047516,-0.7768966499999843,-0.007094466750014703,-2.348946649999985,-0.00346028720000732,1.5732314500000046,0.7856250299999993,0.04,0.0399998625,-9.822663500000006,-0.024194978177550702,0.032526573500054966,0.02634218900003601,-0.021970855072151452,0.005223035250006303
0.8275,-0.0021541380200047716,-0.7768218749999842,-0.007164745425014766,-2.348874514999985,-0.003495275960007351,1.5732537550000047,0.7856213489999992,0.04,0.03999986175,-9.822696050000006,-0.024210759624842097,0.0327892953500552,0.026514314300036163,-0.022022482007752732,0.0052531619250063295
0.8300000000000001,-0.002176849640004793,-0.7767470999999841,-0.007235024100014831,-2.348802379999985,-0.0035302647200073835,1.5732760600000046,0.7856176679999992,0.04,0.039999861,-9.822728600000007,-0.02422654107213349,0.03305201720005545,0.026686439600036322,-0.022074108943354015,0.005283288600006358
0.8325,-0.002199561260004813,-0.7766723249999842,-0.007305302775014893,-2.348730244999985,-0.003565253480007415,1.5732983650000048,0.7856139869999993,0.04,0.03999986025,-9.822761150000007,-0.024242322519424885,0.03331473905005568,0.026858564900036477,-0.022125735878955295,0.005313415275006384
0.835,-0.0022229222600050405,-0.7765954359999834,-0.007377585000015595,-2.348656069999984,-0.003601239010007764,1.573321310000005,0.7856101969999992,0.04,0.0399998594,-9.822774,-0.024195332080109093,0.033552184700047845,0.027032748000037285,-0.02217774689198647,0.005343643250006444
0.8375,-0.0022466079500050628,-0.7765174899999834,-0.007450869000015663,-2.348580874999984,-0.003637722925007798,1.573344575000005,0.7856063524999992,0.04,0.0399998585,-9.822777,-0.024116955697519673,0.03377699225004805,0.02720796000003745,-0.022229949943732407,0.005373921875006472
0.84,-0.0022702936400050837,-0.7764395439999833,-0.007524153000015729,-2.3485056799999837,-0.0036742068400078304,1.5733678400000048,0.7856025079999992,0.04,0.0399998576,-9.822780000000002,-0.02403857931493026,0.03400179980004825,0.027383172000037606,-0.022282152995478345,0.0054042005000064985
0.8425,-0.002293979330005106,-0.7763615979999833,-0.007597437000015797,-2.3484304849999837,-0.0037106907550078644,1.573391105000005,0.7855986634999992,0.04,0.0399998567,-9.822783000000001,-0.02396020293234084,0.03422660735004846,0.02755838400003777,-0.022334356047224283,0.005434479125006527
0.845,-0.002317665020005127,-0.7762836519999832,-0.0076707210000158624,-2.3483552899999838,-0.003747174670007897,1.573414370000005,0.7855948189999992,0.04,0.0399998558,-9.822786,-0.023881826549751427,0.03445141490004866,0.027733596000037924,-0.02238655909897022,0.005464757750006554
0.8475,-0.002341350710005149,-0.7762057059999831,-0.007744005000015931,-2.3482800949999834,-0.003783658585007931,1.573437635000005,0.7855909744999992,0.04,0.0399998549,-9.822789,-0.02380345016716201,0.034676222450048866,0.027908808000038088,-0.02243876215071616,0.005495036375006582
0.85,-0.002365036400005386,-0.7761277599999823,-0.007817289000016662,-2.3482048999999825,-0.003820142500008295,1.5734609000000053,0.7855871299999991,0.04,0.039999854,-9.822792000000009,-0.02372507378459016,0.03490103000006123,0.028084020000038918,-0.02249096520246228,0.005525315000006628
0.8525,-0.002389710980005409,-0.7760466009999822,-0.007893624900016733,-2.3481264949999825,-0.0038581450300083303,1.5734851550000053,0.7855831159999992,0.04,0.0399998534,-9.822831150000008,-0.02372717261314431,0.03518155505006149,0.028262315250039083,-0.022544026840489763,0.005555678600006656
