rsonawane2002/My_IMU/logs_2/traj_488/imu_400hz_488.csv
time,j1,j2,j3,j4,j5,j6,j7,gripper1,gripper2,imu_ax,imu_ay,imu_az,imu_gx,imu_gy,imu_gz
0.0,0.00016700293,-0.785875,4.0107683e-05,-2.3551247,9.29385e-05,1.570997,0.786,0.04,0.04,-9.5140295,0.0143571607768535,0.09754749,2.1614022e-07,-0.0011641274904832,4.0042198e-07
0.0025,0.000167003827,-0.7858577740000002,4.010884654999999e-05,-2.35513919,9.294517589999991e-05,1.570996565,0.786,0.04,0.04,-9.562098124999387,0.012301138576029848,0.08427568260016899,2.1755727299998195e-07,-0.0013250711897833058,5.617614579979458e-07
0.005,0.00016700472399999998,-0.7858405480000005,4.011001009999997e-05,-2.35515368,9.295185179999984e-05,1.57099613,0.786,0.04,0.04,-9.610166749998776,0.010245116375206198,0.07100387520033798,2.1897432599996393e-07,-0.0014860148890834114,7.231009359958914e-07
0.0075,0.00016700562099999998,-0.7858233220000007,4.011117364999996e-05,-2.35516817,9.295852769999975e-05,1.5709956950000001,0.786,0.04,0.04,-9.658235374998164,0.008189094174382548,0.05773206780050697,2.2039137899994587e-07,-0.0016469585883835173,8.84440413993837e-07
0.01,0.00016700651799999997,-0.785806096000001,4.011233719999994e-05,-2.3551826599999997,9.296520359999967e-05,1.5709952600000001,0.786,0.04,0.04,-9.706303999997552,0.006133071973558895,0.04446026040067596,2.2180843199992782e-07,-0.001807902287683623,1.0457798919917826e-06
0.0125,0.00016700741499999994,-0.7857888700000011,4.011350074999993e-05,-2.355197149999999,9.297187949999958e-05,1.570994825,0.786,0.04,0.04,-9.75437262499694,0.004077049772735245,0.03118845300084494,2.232254849999098e-07,-0.0019688459869837286,1.2071193699897285e-06
0.015,0.00016700831199999993,-0.7857716440000013,4.011466429999991e-05,-2.355211639999999,9.29785553999995e-05,1.57099439,0.786,0.04,0.04,-9.802441249996328,0.0020210275719115944,0.017916645601013942,2.2464253799989174e-07,-0.0021297896862838344,1.3684588479876739e-06
0.0175,0.00016701031449999963,-0.7857548620000014,4.011608714999983e-05,-2.355225734999999,9.298817569999862e-05,1.57099396,0.786,0.04,0.04,-9.834381150000027,0.0006523431133240661,0.00899371175002007,3.0821146297790715e-07,-0.002286037476720231,1.6643188949496504e-06
0.02,0.00016701452799999957,-0.7857389680000016,4.01180285999998e-05,-2.355239039999999,9.300368479999842e-05,1.5709935400000001,0.786,0.04,0.04,-9.834063600000032,0.0006583341397338897,0.008768525000022937,5.560841319747509e-07,-0.0024328934494256206,2.2292200799424574e-06
0.0225,0.00016701874149999954,-0.7857230740000019,4.011997004999978e-05,-2.3552523449999985,9.301919389999823e-05,1.57099312,0.786,0.04,0.04,-9.833746050000036,0.0006643251661437135,0.008543338250025805,8.039568009715946e-07,-0.002579749422131011,2.7941212649352643e-06
0.025,0.00016702295499999948,-0.7857071800000021,4.012191149999976e-05,-2.3552656499999984,9.303470299999802e-05,1.5709927000000001,0.786,0.04,0.04,-9.83342850000004,0.0006703161925535371,0.008318151500028672,1.0518294699684385e-06,-0.002726605394836401,3.359022449928072e-06
0.0275,0.00016702716849999942,-0.7856912860000023,4.012385294999973e-05,-2.355278954999998,9.305021209999783e-05,1.57099228,0.786,0.04,0.04,-9.833110950000044,0.0006763072189633609,0.00809296475003154,1.299702138965282e-06,-0.002873461367541791,3.923923634920879e-06
0.03,0.00016703138199999936,-0.7856753920000024,4.0125794399999707e-05,-2.355292259999998,9.306572119999763e-05,1.5709918600000001,0.786,0.04,0.04,-9.832793400000048,0.0006822982453731846,0.007867778000034407,1.547574807962126e-06,-0.003020317340247181,4.488824819913686e-06
0.0325,0.0001670355954999993,-0.7856594980000026,4.012773584999968e-05,-2.3553055649999974,9.308123029999743e-05,1.57099144,0.786,0.04,0.04,-9.832475850000051,0.0006882892717830082,0.0076425912500372745,1.79544747695897e-06,-0.0031671733129525715,5.053726004906493e-06
0.035,0.00016704572999999768,-0.7856444400000026,4.013115519999926e-05,-2.3553180999999976,9.311279199999294e-05,1.57099101,0.786,0.04,0.04,-9.832138100000062,0.0006992452021198444,0.007444549900032883,2.3575060898718043e-06,-0.003304677014215382,6.160762659754339e-06
0.0375,0.0001670588249999975,-0.7856298000000028,4.013531349999921e-05,-2.3553302499999975,9.315237999999244e-05,1.5709905750000002,0.786,0.04,0.04,-9.831790250000065,0.0007126835844220833,0.007260081250035233,3.0766576748626456e-06,-0.003437504579753331,7.538867049736789e-06
0.04,0.00016707191999999733,-0.785615160000003,4.013947179999915e-05,-2.3553423999999974,9.319196799999193e-05,1.5709901400000001,0.786,0.04,0.04,-9.83144240000007,0.0007261219667243223,0.007075612600037581,3.79580925985349e-06,-0.0035703321452912797,8.916971439719243e-06
0.0425,0.00016708501499999715,-0.7856005200000031,4.01436300999991e-05,-2.3553545499999973,9.323155599999142e-05,1.5709897050000001,0.786,0.04,0.04,-9.831094550000074,0.0007395603490265611,0.006891143950039929,4.514960844844333e-06,-0.0037031597108292285,1.0295075829701697e-05
0.045,0.000167098109999997,-0.7855858800000034,4.014778839999905e-05,-2.355366699999997,9.327114399999092e-05,1.57098927,0.786,0.04,0.04,-9.830746700000079,0.0007529987313288,0.006706675300042279,5.234112429835175e-06,-0.003835987276367177,1.1673180219684145e-05
0.0475,0.00016711120499999683,-0.7855712400000036,4.0151946699998995e-05,-2.355378849999997,9.331073199999042e-05,1.570988835,0.786,0.04,0.04,-9.830398850000083,0.0007664371136310388,0.0065222066500446275,5.953264014826019e-06,-0.003968814841905126,1.3051284609666598e-05
0.05,0.00016712429999999665,-0.7855566000000038,4.015610499999894e-05,-2.355390999999997,9.335031999998992e-05,1.5709884,0.786,0.04,0.04,-9.830051000000088,0.0007798754959332778,0.006337738000046976,6.672415599816863e-06,-0.004101642407443075,1.4429388999649055e-05
0.0525,0.00016715436449999196,-0.7855430925000036,4.016455944999774e-05,-2.355402159999997,9.343610799997706e-05,1.5709879800000002,0.786,0.04,0.04,-9.829770050000075,0.0008009317010817297,0.006145347400051444,8.104027659617197e-06,-0.004219360090760688,1.6972294149320047e-05
0.055,0.00016718442899999158,-0.7855295850000038,4.017301389999763e-05,-2.3554133199999967,9.352189599997597e-05,1.57098756,0.786,0.04,0.04,-9.829489100000078,0.0008219879062321216,0.0059529568000538935,9.53563971959897e-06,-0.004337077774074455,1.951519929928767e-05
0.0575,0.0001672144934999912,-0.785516077500004,4.0181468349997524e-05,-2.355424479999997,9.360768399997488e-05,1.5709871400000002,0.786,0.04,0.04,-9.829208150000081,0.0008430441113825135,0.005760566200056343,1.0967251779580742e-05,-0.004454795457388221,2.2058104449255293e-05
0.06,0.00016724455799999082,-0.7855025700000041,4.018992279999742e-05,-2.3554356399999965,9.369347199997379e-05,1.57098672,0.786,0.04,0.04,-9.828927200000086,0.0008641003165329054,0.005568175600058793,1.2398863839562511e-05,-0.004572513140701987,2.460100959922291e-05
0.0625,0.00016727462249999044,-0.7854890625000043,4.019837724999731e-05,-2.3554467999999966,9.37792599999727e-05,1.5709863000000002,0.786,0.04,0.04,-9.828646250000089,0.0008851565216832973,0.005375785000061243,1.3830475899544283e-05,-0.004690230824015753,2.7143914749190533e-05
0.065,0.00016730468699999005,-0.7854755550000044,4.0206831699997203e-05,-2.3554579599999963,9.38650479999716e-05,1.57098588,0.786,0.04,0.04,-9.828365300000092,0.0009062127268336891,0.005183394400063692,1.5262087959526053e-05,-0.004807948507329519,2.9686819899158156e-05
0.0675,0.00016734385499997975,-0.7854623775000044,4.021760024999457e-05,-2.3554687799999963,9.397594549994314e-05,1.5709854500000002,0.7860000949999999,0.04,0.03999999975,-9.828078300000104,0.0009289675683155563,0.005000426165057917,1.703129719913741e-05,-0.004920800495856291,3.2762177498538974e-05
0.07,0.00016740122999997747,-0.7854498600000049,4.023299699999395e-05,-2.355478919999996,9.41370619999367e-05,1.570985,0.7860003799999999,0.04,0.039999999,-9.827779200000117,0.0009551196824655649,0.004836302660064484,1.9475700799039593e-05,-0.005023921094794204,3.6902439998373294e-05
0.0725,0.00016745860499997516,-0.7854373425000054,4.0248393749993336e-05,-2.3554890599999956,9.429817849993025e-05,1.5709845500000001,0.7860006649999999,0.04,0.03999999825,-9.827480100000129,0.0009812717966155731,0.004672179155071053,2.1920104398941762e-05,-0.0051270416937321175,4.1042702498207586e-05
0.075,0.00016751597999997285,-0.7854248250000059,4.026379049999272e-05,-2.3554991999999952,9.44592949999238e-05,1.5709841000000002,0.7860009499999999,0.04,0.0399999975,-9.827181000000142,0.0010074239107655818,0.004508055650077621,2.4364507998843944e-05,-0.005230162292670031,4.518296499804191e-05
0.0775,0.00016757335499997057,-0.7854123075000065,4.02791872499921e-05,-2.355509339999995,9.462041149991735e-05,1.5709836500000003,0.7860012349999999,0.04,0.03999999675,-9.826881900000153,0.0010335760249155902,0.004343932145084188,2.6808911598746127e-05,-0.005333282891607944,4.9323227497876225e-05
0.08,0.00016763072999996826,-0.7853997900000069,4.0294583999991484e-05,-2.355519479999994,9.478152799991091e-05,1.5709832000000004,0.7860015199999999,0.04,0.039999996,-9.826582800000166,0.0010597281390655987,0.004179808640090756,2.925331519864831e-05,-0.005436403490545858,5.346348999771055e-05
0.0825,0.00016768810499996595,-0.7853872725000074,4.0309980749990867e-05,-2.3555296199999938,9.494264449990445e-05,1.5709827500000002,0.7860018049999998,0.04,0.03999999525,-9.826283700000177,0.0010858802532156071,0.004015685135097323,3.16977187985505e-05,-0.005539524089483771,5.7603752497544864e-05
0.085,0.0001677719289999421,-0.785375360000007,4.033211569998478e-05,-2.355539519999994,9.517499699984012e-05,1.5709822900000003,0.7860020899999999,0.04,0.039999995,-9.825949700000209,0.0011143294977778613,0.0038678773700833186,3.406716999860868e-05,-0.0056322907097114214,6.284400499654538e-05
0.08750000000000001,0.0001678689774999435,-0.7853637500000068,4.035761974998515e-05,-2.355549299999994,9.544296749984402e-05,1.5709818250000003,0.7860023749999999,0.04,0.039999995,-9.825598250000205,0.001143927307549372,0.003728227475081286,3.639914499864262e-05,-0.005719880340569816,6.863425249662965e-05
0.09,0.00016796602599994492,-0.7853521400000066,4.0383123799985525e-05,-2.3555590799999946,9.571093799984791e-05,1.5709813600000002,0.7860026599999999,0.04,0.039999995,-9.8252468000002,0.0011735251173208825,0.003588577580079255,3.873111999867654e-05,-0.0058074699714282104,7.442449999671389e-05
0.0925,0.00016806307449994634,-0.7853405300000064,4.04086278499859e-05,-2.3555688599999947,9.597890849985181e-05,1.5709808950000002,0.7860029449999999,0.04,0.039999995,-9.824895350000194,0.0012031229270923931,0.0034489276850772225,4.106309499871048e-05,-0.005895059602286605,8.021474749679814e-05
0.095,0.00016816012299994775,-0.7853289200000062,4.043413189998627e-05,-2.3555786399999947,9.624687899985572e-05,1.5709804300000003,0.7860032299999998,0.04,0.039999995,-9.824543900000188,0.001232720736863904,0.0033092777900751904,4.339506999874442e-05,-0.005982649233145,8.600499499688241e-05
0.0975,0.00016825717149994914,-0.785317310000006,4.045963594998664e-05,-2.3555884199999952,9.651484949985962e-05,1.5709799650000003,0.7860035149999999,0.04,0.039999995,-9.824192450000185,0.0012623185466354146,0.003169627895073158,4.5727044998778356e-05,-0.006070238864003395,9.179524249696668e-05
0.1,0.00016835421999995056,-0.7853057000000059,4.048513999998701e-05,-2.3555981999999953,9.678281999986351e-05,1.5709795000000002,0.7860037999999999,0.04,0.039999995,-9.82384100000018,0.0012919163564069254,0.003029978000071126,4.8059019998812294e-05,-0.006157828494861789,9.758548999705095e-05
0.10250000000000001,0.00016850511849992122,-0.7852948700000056,4.052443369997949e-05,-2.3556070649999956,9.719398559978536e-05,1.5709789300000003,0.7860040909999999,0.04,0.03999999575,-9.823632650000109,0.0013292751449430719,0.0028784944400790814,5.192521299798167e-05,-0.0062322870362161095,0.0001052876824959791
0.105,0.0001686560169999193,-0.7852840400000058,4.0563727399978986e-05,-2.3556159299999955,9.760515119978011e-05,1.5709783600000002,0.7860043819999999,0.04,0.0399999965,-9.823424300000111,0.001366633933483171,0.002727010880081011,5.5791405997932425e-05,-0.006306745577563741,0.00011298987499588098
0.1075,0.00016880691549991738,-0.7852732100000059,4.0603021099978485e-05,-2.3556247949999953,9.801631679977488e-05,1.5709777900000004,0.7860046729999999,0.04,0.03999999725,-9.823215950000113,0.0014039927220232703,0.00257552732008294,5.96575989978832e-05,-0.006381204118911373,0.00012069206749578292
0.11,0.00016895781399991545,-0.785262380000006,4.0642314799977984e-05,-2.355633659999995,9.842748239976964e-05,1.5709772200000003,0.7860049639999999,0.04,0.039999998,-9.823007600000118,0.0014413515105633698,0.0024240437600848686,6.352379199783397e-05,-0.006455662660259005,0.00012839425999568486
0.1125,0.00016910871249991354,-0.7852515500000062,4.068160849997749e-05,-2.355642524999995,9.883864799976441e-05,1.5709766500000002,0.7860052549999998,0.04,0.03999999875,-9.82279925000012,0.0014787102991034693,0.0022725602000867972,6.738998499778475e-05,-0.006530121201606637,0.00013609645249558678
0.115,0.0001692596109999116,-0.7852407200000063,4.072090219997699e-05,-2.355651389999995,9.924981359975918e-05,1.5709760800000003,0.7860055459999998,0.04,0.0399999995,-9.822590900000122,0.0015160690876435685,0.002121076640088726,7.125617799773553e-05,-0.006604579742954269,0.00014379864499548874
0.11750000000000001,0.00016943370099987005,-0.7852301350000059,4.076611369996638e-05,-2.355660164999995,9.972377579964664e-05,1.5709753650000007,0.7860059304999997,0.04,0.03999999975,-9.822347000000185,0.001555512426395257,0.001976636160076824,7.573410199663988e-05,-0.006673791049945015,0.00015232997499399476
0.12,0.00016965417399987328,-0.7852200400000058,4.082316079996721e-05,-2.355668759999995,0.00010032333119965537,1.5709743600000006,0.7860065019999997,0.04,0.039999999,-9.822032000000181,0.0015991248655812715,0.001846281840074928,8.143548799672283e-05,-0.006732507888193929,0.00016251957999414298
0.1225,0.00016987464699987648,-0.7852099450000057,4.088020789996804e-05,-2.355677354999995,0.0001009228865996641,1.5709733550000005,0.7860070734999997,0.04,0.03999999825,-9.821717000000177,0.0016427373047672863,0.001715927520073031,8.71368739968058e-05,-0.006791224726442844,0.00017270918499429126
0.125,0.00017009511999987968,-0.7851998500000056,4.093725499996887e-05,-2.3556859499999954,0.00010152244199967282,1.5709723500000006,0.7860076449999996,0.04,0.0399999975,-9.821402000000171,0.0016863497439533008,0.001585573200071134,9.283825999688877e-05,-0.006849941564691759,0.00018289878999443957
0.1275,0.0001703155929998829,-0.7851897550000054,4.09943020999697e-05,-2.3556945449999955,0.00010212199739968154,1.5709713450000005,0.7860082164999996,0.04,0.03999999675,-9.821087000000167,0.0017299621831393156,0.001455218880069237,9.853964599697174e-05,-0.006908658402940673,0.00019308839499458785
0.13,0.0001705360659998861,-0.7851796600000053,4.105134919997053e-05,-2.3557031399999957,0.00010272155279969027,1.5709703400000006,0.7860087879999996,0.04,0.039999996,-9.820772000000163,0.0017735746223253301,0.00132486456006734,0.00010424103199705471,-0.006967375241189587,0.00020327799999473613
0.1325,0.0001707565389998893,-0.7851695650000051,4.110839629997136e-05,-2.355711734999996,0.00010332110819969899,1.5709693350000005,0.7860093594999996,0.04,0.03999999525,-9.820457000000157,0.001817187061511345,0.001194510240065443,0.00010994241799713769,-0.007026092079438502,0.00021346760499488444
0.135,0.00017103488299983902,-0.785159840000005,4.1180255799958474e-05,-2.355719739999996,0.00010407485899956475,1.5709683000000005,0.7860101249999994,0.04,0.0399999955,-9.82018545000013,0.0018623691051956697,0.001075570010059319,0.00011614404599662015,-0.0070763929746802635,0.00022513957599349716
0.1375,0.00017134216249982672,-0.7851503000000054,4.1259521499955306e-05,-2.355727449999996,0.0001049057074995315,1.5709672500000007,0.7860109874999994,0.04,0.03999999625,-9.819935625000141,0.001908335951130905,0.0009623368250638502,0.00012259579499636196,-0.007122485898409034,0.00023755272999300043
0.14,0.00017164944199981444,-0.7851407600000058,4.133878719995213e-05,-2.3557351599999956,0.00010573655599949825,1.5709662000000006,0.7860118499999994,0.04,0.039999997,-9.819685800000151,0.0019543027970661407,0.0008491036400683815,0.00012904754399610378,-0.007168578822137804,0.0002499658839925037
0.14250000000000002,0.00017195672149980214,-0.7851312200000061,4.141805289994896e-05,-2.355742869999995,0.00010656740449946501,1.5709651500000006,0.7860127124999994,0.04,0.03999999775,-9.819435975000161,0.0020002696430013764,0.0007358704550729126,0.0001354992929958456,-0.007214671745866575,0.000262379037992007
0.145,0.00017226400099978984,-0.7851216800000065,4.149731859994579e-05,-2.3557505799999947,0.00010739825299943174,1.5709641000000008,0.7860135749999994,0.04,0.0399999985,-9.81918615000017,0.0020462364889366116,0.0006226372700774451,0.00014195104199558737,-0.007260764669595345,0.0002747921919915101
0.1475,0.00017257128049977754,-0.785112140000007,4.1576584299942614e-05,-2.3557582899999945,0.0001082291014993985,1.5709630500000007,0.7860144374999993,0.04,0.03999999925,-9.81893632500018,0.0020922033348718468,0.0005094040850819764,0.0001484027909953292,-0.0073068575933241155,0.00028720534599101336
0.15,0.00017287855999976524,-0.7851026000000073,4.165584999993944e-05,-2.3557659999999943,0.00010905994999936525,1.5709620000000009,0.7860152999999993,0.04,0.04,-9.81868650000019,0.0021381701808070824,0.00039617090008650766,0.000154854539995071,-0.007352950517052886,0.00029961849999051663
0.1525,0.00017329110649967958,-0.785093517500007,4.176205254991751e-05,-2.3557735899999943,0.00011017455349913428,1.570960425000001,0.7860163949999991,0.04,0.03999999925,-9.818348775000262,0.002188061329031654,0.00027801522509177264,0.00016234078499418534,-0.007382191764168008,0.0003149012229881297
0.155,0.0001737036529996743,-0.7850844350000071,4.186825509991616e-05,-2.355781179999994,0.00011128915699912008,1.5709588500000011,0.7860174899999991,0.04,0.0399999985,-9.818011050000267,0.002237952477259224,0.00015985955009327704,0.00016982702999409003,-0.007411433011270256,0.0003301839459879352
0.1575,0.00017411619949966907,-0.7850753525000073,4.1974457649914806e-05,-2.355788769999994,0.0001124037604991059,1.5709572750000014,0.7860185849999991,0.04,0.03999999775,-9.817673325000271,0.0022878436254867938,4.1703875094781446e-05,0.0001773132749939947,-0.0074406742583725035,0.0003454666689877406
0.16,0.0001745287459996638,-0.7850662700000074,4.208066019991345e-05,-2.3557963599999936,0.0001135183639990917,1.5709557000000014,0.7860196799999991,0.04,0.039999997,-9.817335600000275,0.0023377347737143636,-7.645179990371418e-05,0.0001847995199938994,-0.007469915505474751,0.000360749391987546
0.1625,0.00017494129249965857,-0.7850571875000075,4.21868627499121e-05,-2.3558039499999937,0.00011463296749907751,1.5709541250000014,0.7860207749999991,0.04,0.03999999625,-9.816997875000279,0.0023876259219419334,-0.0001946074749022098,0.00019228576499380408,-0.007499156752576999,0.00037603211498735145
0.165,0.0001753538389996533,-0.7850481050000077,4.229306529991075e-05,-2.3558115399999933,0.00011574757099906331,1.5709525500000014,0.7860218699999991,0.04,0.0399999955,-9.816660150000285,0.002437517070169503,-0.0003127631499007054,0.0001997720099937088,-0.0075283979996792465,0.00039131483798715685
0.1675,0.00017580801499954152,-0.7850391440000075,4.240992799988211e-05,-2.3558190799999936,0.00011697277999876605,1.5709509250000016,0.7860230749999988,0.04,0.03999999525,-9.816362000000186,0.002490453247396175,-0.00043101498489895505,0.00020778312099227017,-0.0075535455485660555,0.00040741084898488085
0.17,0.00017634544999953468,-0.7850304260000076,4.2548110999880355e-05,-2.3558265199999933,0.00011841919999874764,1.5709492000000016,0.7860244999999988,0.04,0.039999996,-9.81614300000019,0.0025494794826443133,-0.000549459139897447,0.0002168439639921548,-0.007570505700990715,0.0004251334359846552
0.17250000000000001,0.00017688288499952782,-0.7850217080000077,4.26862939998786e-05,-2.3558339599999933,0.00011986561999872923,1.5709474750000016,0.7860259249999988,0.04,0.03999999675,-9.815924000000193,0.0026085057178924518,-0.0006679032948959389,0.00022590480699203943,-0.007587465853415374,0.00044285602298442956
0.17500000000000002,0.000177420319999521,-0.7850129900000078,4.2824476999876835e-05,-2.3558413999999934,0.00012131203999871081,1.5709457500000015,0.7860273499999988,0.04,0.0399999975,-9.815705000000195,0.0026675319531405902,-0.0007863474498944309,0.00023496564999192406,-0.007604426005840033,0.0004605786099842039
0.1775,0.00017795775499951412,-0.7850042720000079,4.296265999987508e-05,-2.355848839999993,0.00012275845999869237,1.5709440250000015,0.7860287749999987,0.04,0.03999999825,-9.815486000000199,0.002726558188388728,-0.0009047916048929215,0.00024402649299180862,-0.007621386158264692,0.00047830119698397805
0.18,0.0001784951899995073,-0.784995554000008,4.310084299987332e-05,-2.355856279999993,0.00012420487999867397,1.5709423000000016,0.7860301999999987,0.04,0.039999999,-9.815267000000201,0.0027855844236368663,-0.0010232357598914136,0.0002530873359916933,-0.007638346310689351,0.0004960237839837524
0.1825,0.00017903262499950045,-0.7849868360000081,4.323902599987156e-05,-2.355863719999993,0.00012565129999865556,1.5709405750000016,0.7860316249999987,0.04,0.03999999975,-9.815048000000203,0.0028446106588850047,-0.0011416799148899054,0.0002621481789915779,-0.00765530646311401,0.0005137463709835267
0.185,0.00017966700199934416,-0.7849782870000082,4.340202429983154e-05,-2.355871039999993,0.00012735710299823714,1.570938540000002,0.7860332399999984,0.04,0.04,-9.814806700000243,0.0029069042298328226,-0.001264728989879609,0.0002722145639898491,-0.007662406610322856,0.0005335905999799222
0.1875,0.00018034984999931684,-0.7849698225000085,4.357743024982452e-05,-2.3558782999999925,0.0001291925974981637,1.5709363500000022,0.7860349499999983,0.04,0.04,-9.814554250000253,0.0029708314686373444,-0.0013900805248745927,0.00028278371998942614,-0.007664576754903079,0.0005544956499790856
0.19,0.00018103269799928952,-0.7849613580000088,4.37528361998175e-05,-2.3558855599999924,0.00013102809199809024,1.5709341600000022,0.7860366599999983,0.04,0.04,-9.814301800000264,0.003034758707441866,-0.0015154320598695765,0.0002933528759890032,-0.0076667468994833015,0.0005754006999782491
0.1925,0.00018171554599926218,-0.7849528935000092,4.392824214981048e-05,-2.3558928199999922,0.0001328635864980168,1.5709319700000024,0.7860383699999982,0.04,0.04,-9.814049350000273,0.003098685946246388,-0.0016407835948645604,0.0003039220319885803,-0.007668917044063525,0.0005963057499774125
0.195,0.00018239839399923486,-0.7849444290000095,4.410364809980346e-05,-2.355900079999992,0.00013469908099794336,1.5709297800000024,0.7860400799999981,0.04,0.04,-9.813796900000284,0.00316261318505091,-0.0017661351298595444,0.00031449118798815734,-0.007671087188643748,0.0006172107999765761
0.1975,0.00018308124199920754,-0.7849359645000098,4.4279054049796445e-05,-2.355907339999992,0.0001365345754978699,1.5709275900000024,0.7860417899999981,0.04,0.04,-9.813544450000293,0.0032265404238554316,-0.0018914866648545282,0.00032506034398773436,-0.007673257333223971,0.0006381158499757395
0.2,0.0001837640899991802,-0.7849275000000102,4.4454459999789424e-05,-2.3559145999999913,0.00013837006999779645,1.5709254000000026,0.786043499999998,0.04,0.04,-9.813292000000304,0.003290467662659954,-0.002016838199849512,0.0003356294999873114,-0.007675427477804194,0.0006590208999749029
0.2025,0.00018461376349901548,-0.7849192350000096,4.4672567499747284e-05,-2.3559215299999923,0.0001406543809973532,1.5709226400000031,0.7860455999999976,0.04,0.03999999925,-9.81304120000029,0.0033606473122840836,-0.002136385259861482,0.00034809950698555113,-0.007664090744232835,0.0006832093149719731
0.20500000000000002,0.00018546343699905104,-0.7849109700000092,4.4890674999756405e-05,-2.3559284599999923,0.00014293869199744877,1.570919880000003,0.7860476999999977,0.04,0.0399999985,-9.81279040000028,0.00343082696191572,-0.0022559323198664835,0.0003605695139860728,-0.007652754010645261,0.0007073977299729852
0.20750000000000002,0.00018631311049908657,-0.7849027050000089,4.5108782499765534e-05,-2.355935389999993,0.00014522300299754434,1.570917120000003,0.7860497999999977,0.04,0.03999999775,-9.81253960000027,0.003501006611547356,-0.0023754793798714847,0.00037303952098659455,-0.007641417277057687,0.0007315861449739971
0.21,0.00018716278399912213,-0.7848944400000085,4.5326889999774656e-05,-2.355942319999993,0.00014750731399763988,1.5709143600000028,0.7860518999999978,0.04,0.039999997,-9.812288800000259,0.0035711862611789913,-0.002495026439876485,0.00038550952798711613,-0.007630080543470113,0.0007557745599750088
0.2125,0.00018801245749915766,-0.7848861750000082,4.554499749978378e-05,-2.3559492499999934,0.00014979162499773545,1.5709116000000027,0.7860539999999979,0.04,0.03999999625,-9.812038000000248,0.0036413659108106276,-0.0026145734998814867,0.00039797953498763787,-0.0076187438098825385,0.0007799629749760209
0.215,0.00018886213099919322,-0.7848779100000078,4.57631049997929e-05,-2.3559561799999935,0.00015207593599783102,1.5709088400000026,0.7860560999999979,0.04,0.0399999955,-9.811787200000238,0.0037115455604422635,-0.0027341205598864883,0.00041044954198815955,-0.007607407076294964,0.0008041513899770328
0.2175,0.00018977481899903827,-0.7848696680000076,4.599735249975323e-05,-2.3559631049999936,0.00015452761099742017,1.570905890000003,0.7860583569999976,0.0399999995,0.03999999525,-9.811524300000265,0.0037798587115814228,-0.002853369179890144,0.00042353656098674064,-0.00759101777805596,0.0008291907399752412
0.22,0.00019081353599902505,-0.7848614720000077,4.6263879999749835e-05,-2.355970019999994,0.0001573140139973847,1.570902560000003,0.7860609279999976,0.039999998,0.039999996,-9.811237200000269,0.0038444388657201452,-0.0029720209198886337,0.0004378576039865583,-0.007564523350472187,0.0008559319599749008
0.2225,0.00019185225299901183,-0.7848532760000079,4.653040749974644e-05,-2.3559769349999935,0.0001601004169973492,1.570899230000003,0.7860634989999975,0.0399999965,0.03999999675,-9.810950100000273,0.003909019019858868,-0.003090672659887123,0.00045217864698637595,-0.0075380289228884146,0.0008826731799745603
0.225,0.0001928909699989986,-0.784845080000008,4.679693499974305e-05,-2.355983849999993,0.00016288681999731373,1.5708959000000031,0.7860660699999975,0.039999995,0.0399999975,-9.810663000000277,0.003973599173997591,-0.003209324399885612,0.0004664996899861936,-0.007511534495304642,0.0009094143999742198
0.2275,0.0001939296869989854,-0.7848368840000081,4.706346249973966e-05,-2.3559907649999934,0.00016567322299727825,1.5708925700000032,0.7860686409999975,0.039999993500000004,0.03999999825,-9.810375900000281,0.0040381793281363135,-0.0033279761398841015,0.00048082073298601126,-0.007485040067720869,0.0009361556199738792
0.23,0.00019496840399897214,-0.7848286880000082,4.732998999973626e-05,-2.355997679999993,0.0001684596259972428,1.5708892400000032,0.7860712119999975,0.039999992,0.039999999,-9.810088800000285,0.004102759482275036,-0.0034466278798825907,0.0004951417759858289,-0.0074585456401370966,0.0009628968399735388
0.2325,0.00019600712099895892,-0.7848204920000083,4.759651749973287e-05,-2.3560045949999933,0.0001712460289972073,1.5708859100000032,0.7860737829999974,0.0399999905,0.03999999975,-9.809801700000287,0.004167339636413759,-0.0035652796198810803,0.0005094628189856467,-0.007432051212553324,0.0009896380599731984
0.23500000000000001,0.000197187029998708,-0.7848122840000085,4.789920369966859e-05,-2.3560115499999927,0.00017440968699653647,1.570882190000004,0.7860767259999968,0.039999989799999996,0.0399999995,-9.809538900000259,0.004248117748556014,-0.0036948436798604997,0.0005248525899835475,-0.007396301208105597,0.001018792829968631
0.23750000000000002,0.00019843753499865796,-0.7848040700000088,4.8219969249655756e-05,-2.3560185249999925,0.00017776197249640233,1.570878275000004,0.7860798549999967,0.0399999895,0.03999999875,-9.80928825000027,0.004336994839736717,-0.0038298638998550964,0.0005407767249829103,-0.007355923415204933,0.001049154374967416
0.24,0.0001996880399986079,-0.7847958560000091,4.854073479964292e-05,-2.3560254999999923,0.00018111425799626814,1.5708743600000044,0.7860829839999965,0.0399999892,0.039999998,-9.809037600000279,0.00442587193091742,-0.003964884119849692,0.0005567008599822728,-0.0073155456223042694,0.0010795159199662007
0.2425,0.00020093854499855787,-0.7847876420000095,4.886150034963008e-05,-2.356032474999992,0.000184466543496134,1.5708704450000046,0.7860861129999964,0.0399999889,0.03999999725,-9.80878695000029,0.004514749022098123,-0.004099904339844289,0.0005726249949816356,-0.007275167829403606,0.0011098774649649858
0.245,0.00020218904999850783,-0.7847794280000098,4.918226589961724e-05,-2.3560394499999915,0.00018781882899599985,1.5708665300000046,0.7860892419999962,0.0399999886,0.0399999965,-9.808536300000299,0.004603626113278827,-0.0042349245598388855,0.0005885491299809984,-0.007234790036502941,0.0011402390099637706
0.2475,0.00020343955499845778,-0.7847712140000102,4.9503031449604406e-05,-2.3560464249999913,0.0001911711144958657,1.570862615000005,0.7860923709999961,0.0399999883,0.03999999575,-9.80828565000031,0.00469250320445953,-0.004369944779833482,0.0006044732649803611,-0.007194412243602277,0.0011706005549625557
0.25,0.00020469005999840774,-0.7847630000000104,4.9823796999591575e-05,-2.356053399999991,0.00019452339999573155,1.570858700000005,0.786095499999996,0.039999988,0.039999995,-9.80803500000032,0.004781380295640234,-0.00450496499982808,0.0006203973999797239,-0.007154034450701613,0.0012009620999613407
0.2525,0.00020617567799804894,-0.7847547050000109,5.020478289949965e-05,-2.3560606899999903,0.00019850346249477294,1.570854110000006,0.7860991899999951,0.0399999874,0.039999994250000004,-9.807790650000321,0.004868484823850065,-0.004647713654812527,0.0006379691199769229,-0.007099807867851517,0.0012346431599557662
0.255,0.00020766129599798948,-0.7847464100000112,5.0585768799484406e-05,-2.35606797999999,0.00020248352499461367,1.5708495200000063,0.786102879999995,0.039999986800000005,0.039999993500000004,-9.80754630000033,0.004955589352057639,-0.004790462309806814,0.0006555408399762197,-0.007045581284983786,0.0012683242199544185
0.2575,0.00020914691399793003,-0.7847381150000116,5.096675469946916e-05,-2.3560752699999896,0.00020646358749445442,1.5708449300000065,0.7861065699999948,0.039999986200000004,0.039999992750000005,-9.80730195000034,0.005042693880265214,-0.004933210964801102,0.0006731125599755165,-0.006991354702116056,0.0013020052799530707
0.26,0.00021063253199787057,-0.7847298200000119,5.134774059945391e-05,-2.3560825599999893,0.00021044364999429514,1.5708403400000066,0.7861102599999947,0.0399999856,0.039999992000000005,-9.80705760000035,0.005129798408472788,-0.00507595961979539,0.0006906842799748134,-0.006937128119248326,0.001335686339951723
0.2625,0.00021211814999781112,-0.7847215250000122,5.172872649943867e-05,-2.3560898499999894,0.00021442371249413586,1.5708357500000067,0.7861139499999945,0.039999985,0.03999999125,-9.80681325000036,0.0052169029366803624,-0.005218708274789678,0.0007082559999741102,-0.0068829015363805965,0.0013693673999503751
0.265,0.0002136037679977517,-0.7847132300000126,5.210971239942342e-05,-2.356097139999989,0.0002184037749939766,1.5708311600000069,0.7861176399999944,0.0399999844,0.0399999905,-9.80656890000037,0.005304007464887937,-0.005361456929783966,0.000725827719973407,-0.006828674953512866,0.0014030484599490273
0.2675,0.00021517567849732182,-0.7847048700000131,5.251279499931334e-05,-2.3561044799999884,0.00022261418749282882,1.5708262750000084,0.7861215549999933,0.0399999838,0.0399999899,-9.806333000000336,0.0053933514047835715,-0.005506713094769301,0.0007440208974701613,-0.006770069804145896,0.0014378565749431013
0.27,0.00021692017399734721,-0.784696380000013,5.296007099931984e-05,-2.3561119199999885,0.0002272852999928968,1.5708208000000083,0.7861259199999934,0.039999983200000006,0.0399999896,-9.806114000000333,0.005487174168086367,-0.0056569842797714875,0.0007634569899704441,-0.0067027075217197555,0.0014749187999436408
0.2725,0.00021866466949737259,-0.7846878900000128,5.340734699932635e-05,-2.3561193599999886,0.00023195641249296477,1.570815325000008,0.7861302849999934,0.039999982600000004,0.0399999893,-9.80589500000033,0.005580996931389162,-0.005807255464773674,0.000782893082470727,-0.006635345239293615,0.00151198102494418
0.275,0.00022040916499739798,-0.7846794000000127,5.385462299933286e-05,-2.356126799999989,0.00023662752499303274,1.570809850000008,0.7861346499999935,0.039999982,0.039999989,-9.805676000000327,0.005674819694691958,-0.005957526649775861,0.0008023291749710099,-0.006567982956867475,0.0015490432499447194
0.2775,0.00022215366049742336,-0.7846709100000125,5.430189899933937e-05,-2.356134239999989,0.0002412986374931007,1.570804375000008,0.7861390149999935,0.0399999814,0.0399999887,-9.805457000000324,0.005768642457994753,-0.006107797834778048,0.0008217652674712926,-0.006500620674441335,0.0015861054749452587
0.28,0.00022389815599744875,-0.7846624200000124,5.474917499934588e-05,-2.3561416799999892,0.0002459697499931687,1.570798900000008,0.7861433799999936,0.0399999808,0.0399999884,-9.80523800000032,0.005862465221297549,-0.0062580690197802345,0.0008412013599715755,-0.0064332583920151945,0.0016231676999457982
0.28250000000000003,0.00022564265149747413,-0.7846539300000124,5.5196450999352384e-05,-2.3561491199999893,0.00025064086249323666,1.570793425000008,0.7861477449999936,0.0399999802,0.0399999881,-9.805019000000316,0.005956287984600343,-0.006408340204782421,0.0008606374524718584,-0.006365896109589054,0.0016602299249463374
0.28500000000000003,0.00022757581999705698,-0.7846452600000128,5.569205769924553e-05,-2.356156649999989,0.0002558154719921234,1.570787400000009,0.7861525599999927,0.0399999797,0.0399999876,-9.804797500000323,0.00604821951115328,-0.006567642739762211,0.000881190834969355,-0.006289767800015785,0.0016995784099412248
0.28750000000000003,0.00022960332499703118,-0.7846365000000128,5.621182974923891e-05,-2.356164224999989,0.0002612418299920543,1.5707811000000091,0.7861575999999926,0.03999997925,0.039999987,-9.804574750000326,0.006139205419325147,-0.0067314609497601255,0.0009023028624690862,-0.0062092564768404905,0.0017400700249407092
0.29,0.00023163082999700532,-0.784627740000013,5.673160179923228e-05,-2.3561717999999887,0.0002666681879919851,1.5707748000000092,0.7861626399999926,0.039999978799999995,0.0399999864,-9.804352000000328,0.006230191327497012,-0.006895279159758036,0.0009234148899688169,-0.006128745153665197,0.0017805616399401928
0.2925,0.0002336583349969795,-0.7846189800000131,5.725137384922566e-05,-2.356179374999989,0.000272094545991916,1.5707685000000093,0.7861676799999925,0.03999997835,0.039999985800000006,-9.804129250000331,0.0063211772356688775,-0.00705909736975595,0.0009445269174685481,-0.006048233830489903,0.0018210532549396772
0.295,0.00023568583999695369,-0.7846102200000132,5.777114589921905e-05,-2.3561869499999886,0.00027752090399184694,1.5707622000000094,0.7861727199999924,0.0399999779,0.039999985200000004,-9.803906500000334,0.006412163143840744,-0.007222915579753865,0.0009656389449682793,-0.005967722507314608,0.0018615448699391616
0.2975,0.00023771334499692788,-0.7846014600000133,5.829091794921243e-05,-2.3561945249999887,0.00028294726199177785,1.5707559000000095,0.7861777599999923,0.03999997745,0.0399999846,-9.803683750000339,0.006503149052012611,-0.007386733789751779,0.0009867509724680104,-0.005887211184139313,0.0019020364849386463
0.3,0.00023974084999690205,-0.7845927000000135,5.881068999920581e-05,-2.3562020999999884,0.00028837361999170877,1.5707496000000096,0.7861827999999923,0.039999977,0.039999984,-9.803461000000341,0.006594134960184478,-0.007550551999749694,0.0010078629999677416,-0.005806699860964018,0.0019425280999381307
0.3025,0.0002420757724964026,-0.7845835695000141,5.9409212499077864e-05,-2.356209749999988,0.0002946201329903761,1.5707423850000113,0.786188640999991,0.0399999764,0.039999984,-9.803186500000423,0.006711742491280068,-0.007733235199718543,0.0010309166649644815,-0.005711774598021985,0.001986355294932476
0.305,0.00024441069499637287,-0.7845744390000142,6.000773499907024e-05,-2.3562173999999882,0.0003008666459902965,1.5707351700000112,0.7861944819999909,0.039999975800000004,0.039999984,-9.802912000000427,0.006829350022416337,-0.007915918399716216,0.001053970329964188,-0.005616849335057929,0.002030182489931918
0.3075,0.00024674561749634316,-0.7845653085000144,6.060625749906262e-05,-2.356225049999988,0.000307113158990217,1.5707279550000113,0.7862003229999909,0.0399999752,0.039999984,-9.802637500000431,0.006946957553552604,-0.00809860159971389,0.0010770239949638943,-0.005521924072093873,0.00207400968493136
0.31,0.0002490805399963134,-0.7845561780000144,6.1204779999055e-05,-2.356232699999988,0.0003133596719901375,1.5707207400000114,0.7862061639999908,0.0399999746,0.039999984,-9.802363000000433,0.0070645650846888714,-0.008281284799711564,0.001100077659963601,-0.005426998809129816,0.002117836879930802
0.3125,0.0002514154624962837,-0.7845470475000146,6.180330249904738e-05,-2.3562403499999878,0.00031960618499005794,1.5707135250000115,0.7862120049999907,0.039999974,0.039999984,-9.802088500000437,0.007182172615825139,-0.008463967999709238,0.0011231313249633074,-0.00533207354616576,0.0021616640749302436
0.315,0.00025375038499625397,-0.7845379170000147,6.240182499903976e-05,-2.356247999999988,0.00032585269798997843,1.5707063100000116,0.7862178459999907,0.0399999734,0.039999984,-9.80181400000044,0.007299780146961407,-0.008646651199706912,0.0011461849899630139,-0.005237148283201703,0.0022054912699296858
0.3175,0.0002561959914956873,-0.7845286385000155,6.302869699889462e-05,-2.356255949999986,0.0003323944719884665,1.5706987650000133,0.7862239579999892,0.03999997265,0.03999998365,-9.801543650000424,0.007417260249887023,-0.008834687949678616,0.0011697997049599986,-0.005137394066145563,0.0022505254299232725
0.32,0.0002588629659956533,-0.7845190640000157,6.37122679988859e-05,-2.356264499999986,0.0003395267679883757,1.5706905600000134,0.7862306119999891,0.0399999716,0.039999982600000004,-9.801281600000427,0.007534485496389485,-0.009033431799676086,0.0011945365199596835,-0.0050279819408351615,0.0022979735199226683
0.3225,0.00026152994049561935,-0.7845094895000158,6.43958389988772e-05,-2.3562730499999858,0.00034665906398828486,1.5706823550000135,0.7862372659999891,0.03999997055,0.03999998155,-9.801019550000431,0.0076517107428919475,-0.009232175649673555,0.0012192733349593687,-0.004918569815524759,0.0023454216099220646
0.325,0.0002641969149955854,-0.7844999150000159,6.50794099988685e-05,-2.3562815999999858,0.0003537913599881941,1.5706741500000136,0.786243919999989,0.0399999695,0.039999980500000004,-9.800757500000435,0.0077689359893944095,-0.009430919499671024,0.0012440101499590537,-0.004809157690214357,0.0023928696999214604
0.3275,0.0002668638894955515,-0.784490340500016,6.57629809988598e-05,-2.3562901499999858,0.0003609236559881033,1.5706659450000138,0.7862505739999889,0.03999996845,0.03999997945,-9.800495450000438,0.007886161235896872,-0.009629663349668494,0.0012687469649587388,-0.004699745564903955,0.002440317789920856
0.33,0.0002695308639955175,-0.7844807660000161,6.64465519988511e-05,-2.3562986999999858,0.00036805595198801245,1.570657740000014,0.7862572279999888,0.0399999674,0.039999978400000004,-9.80023340000044,0.008003386482399335,-0.009828407199665963,0.0012934837799584238,-0.004590333439593553,0.0024877658799202524
0.3325,0.00027219783849548356,-0.7844711915000163,6.71301229988424e-05,-2.3563072499999853,0.00037518824798792163,1.5706495350000138,0.7862638819999888,0.03999996635,0.03999997735,-9.799971350000444,0.008120611728901798,-0.010027151049663433,0.001318220594958109,-0.004480921314283151,0.002535213969919648
0.335,0.00027510268899484083,-0.7844612940000172,6.787462699867774e-05,-2.356315939999985,0.0003829549819862071,1.570640600000016,0.7862711199999871,0.0399999654,0.0399999766,-9.79979030000024,0.008234658557729745,-0.010239081199627154,0.0013442362099545212,-0.004364158772137541,0.0025850019599130553
0.3375,0.0002781264774948023,-0.7844512350000173,6.864959749866788e-05,-2.356324699999985,0.0003910389349861042,1.570631300000016,0.786278649999987,0.0399999645,0.039999976,-9.799649750000242,0.008347116177708292,-0.010457604499624372,0.0013708912249541818,-0.00424372102154625,0.0026359598999124065
0.34,0.0002811502659947638,-0.7844411760000175,6.942456799865801e-05,-2.3563334599999846,0.00039912288798600126,1.5706220000000162,0.786286179999987,0.0399999636,0.0399999754,-9.799509200000244,0.00845957379768684,-0.01067612779962159,0.0013975462399538423,-0.004123283270954958,0.002686917839911758
0.3425,0.0002841740544947253,-0.7844311170000176,7.019953849864815e-05,-2.3563422199999846,0.00040720684098589834,1.5706127000000163,0.7862937099999868,0.0399999627,0.039999974800000004,-9.799368650000245,0.00857203141766539,-0.010894651099618808,0.001424201254953503,-0.004002845520363667,0.002737875779911109
0.34500000000000003,0.0002871978429946868,-0.7844210580000177,7.097450899863828e-05,-2.3563509799999847,0.0004152907939857954,1.5706034000000164,0.7863012399999867,0.039999961800000004,0.0399999742,-9.799228100000247,0.008684489037643937,-0.011113174399616024,0.0014508562699531637,-0.0038824077697723752,0.0027888337199104603
0.34750000000000003,0.0002902216314946483,-0.7844109990000179,7.17494794986284e-05,-2.3563597399999843,0.0004233747469856925,1.5705941000000165,0.7863087699999867,0.0399999609,0.0399999736,-9.799087550000248,0.008796946657622486,-0.011331697699613242,0.0014775112849528243,-0.0037619700191810837,0.002839791659909811
0.35000000000000003,0.00029324541999460976,-0.784400940000018,7.252444999861854e-05,-2.3563684999999843,0.0004314586999855896,1.5705848000000167,0.7863162999999865,0.03999996,0.039999973,-9.79894700000025,0.008909404277601033,-0.01155022099961046,0.0015041662999524849,-0.003641532268589792,0.0028907495999091625
0.3525,0.00029665092249379297,-0.7843902690000195,7.339722274840925e-05,-2.356378204999982,0.0004405604599834108,1.570574360000019,0.7863247899999845,0.0399999591,0.039999971950000004,-9.798661850000519,0.009055408788578818,-0.011788597099565527,0.001532734324947931,-0.003506773477665776,0.0029452228499007153
0.355,0.00030005642499365674,-0.7843795980000199,7.426999549837433e-05,-2.356387909999982,0.00044966221998304657,1.5705639200000194,0.7863332799999841,0.039999958200000005,0.0399999709,-9.798376700000532,0.009201413299616405,-0.012026973199555988,0.0015613023499467878,-0.003372014686716229,0.0029996960998985352
0.3575,0.00030346192749352045,-0.7843689270000204,7.51427682483394e-05,-2.3563976149999815,0.00045876397998268235,1.5705534800000198,0.7863417699999838,0.0399999573,0.039999969850000004,-9.798091550000542,0.009347417810653992,-0.012265349299546448,0.0015898703749456446,-0.0032372558957666814,0.003054169349896355
0.36,0.00030686742999338416,-0.7843582560000207,7.601554099830447e-05,-2.356407319999981,0.0004678657399823181,1.5705430400000202,0.7863502599999835,0.0399999564,0.0399999688,-9.797806400000553,0.00949342232169158,-0.012503725399536909,0.0016184383999445012,-0.003102497104817134,0.0031086425998941756
0.3625,0.0003102729324932479,-0.7843475850000211,7.688831374826955e-05,-2.3564170249999807,0.00047696749998195386,1.5705326000000206,0.7863587499999832,0.0399999555,0.039999967750000004,-9.797521250000566,0.009639426832729166,-0.012742101499527371,0.001647006424943358,-0.0029677383138675866,0.0031631158498919955
0.365,0.0003136784349931116,-0.7843369140000216,7.776108649823462e-05,-2.3564267299999804,0.00048606925998158964,1.5705221600000212,0.7863672399999828,0.0399999546,0.0399999667,-9.797236100000577,0.009785431343766755,-0.012980477599517832,0.0016755744499422148,-0.002832979522918039,0.003217589099889816
0.3675,0.00031721947349220593,-0.7843260100000232,7.86685817480026e-05,-2.35643650999998,0.0004955323949791744,1.570511305000024,0.7863760619999807,0.03999995345,0.039999965400000004,-9.796990650000339,0.009930483437781905,-0.013228206149455263,0.0017047239399380248,-0.002694562811236752,0.0032732347948814353
0.37,0.00032103158399226145,-0.784314640000023,7.964552199801682e-05,-2.35644643999998,0.0005057182799793227,1.5704996200000236,0.7863855479999807,0.0399999518,0.0399999636,-9.796824600000337,0.010073630697734613,-0.013494639599459141,0.0017350363599384659,-0.002548830258024516,0.0033312253798822794
0.3725,0.0003248436944923169,-0.7843032700000229,8.062246224803103e-05,-2.35645636999998,0.0005159041649794709,1.5704879350000236,0.7863950339999809,0.039999950150000005,0.039999961800000004,-9.796658550000334,0.01021677795768732,-0.01376107304946302,0.001765348779938907,-0.0024030977048122805,0.003389215964883123
0.375,0.0003286558049923724,-0.7842919000000227,8.159940249804526e-05,-2.35646629999998,0.0005260900499796192,1.5704762500000233,0.7864045199999811,0.0399999485,0.03999996,-9.796492500000333,0.010359925217640028,-0.014027506499466897,0.0017956611999393483,-0.0022573651516000445,0.0034472065498839673
0.3775,0.0003324679154924279,-0.7842805300000226,8.257634274805947e-05,-2.35647622999998,0.0005362759349797673,1.5704645650000233,0.7864140059999811,0.03999994685,0.0399999582,-9.79632645000033,0.010503072477592737,-0.014293939949470773,0.0018259736199397894,-0.0021116325983878085,0.003505197134884811
0.38,0.00033628002599248334,-0.7842691600000224,8.35532829980737e-05,-2.3564861599999807,0.0005464618199799156,1.570452880000023,0.7864234919999813,0.039999945200000005,0.0399999564,-9.796160400000328,0.010646219737545445,-0.014560373399474651,0.0018562860399402306,-0.001965900045175573,0.003563187719885655
0.3825,0.00034009213649253885,-0.7842577900000223,8.453022324808791e-05,-2.3564960899999807,0.0005566477049800639,1.570441195000023,0.7864329779999814,0.03999994355000001,0.0399999546,-9.795994350000326,0.010789366997498152,-0.014826806849478529,0.0018865984599406717,-0.0018201674919633372,0.003621178304886499
0.385,0.00034419194199167876,-0.7842459250000238,8.558087599786755e-05,-2.3565066599999787,0.0005676004759777712,1.5704286300000256,0.7864431859999792,0.039999942700000006,0.039999954,-9.795760000000527,0.010937967057974349,-0.015111614899423514,0.0019182403299366512,-0.0016646985142375699,0.003681419949879667
0.3875,0.00034843559499162473,-0.7842338125000239,8.66683849978537e-05,-2.3565175499999786,0.0005789366899776268,1.5704156250000256,0.786453754999979,0.039999942250000003,0.039999954,-9.79549150000053,0.011089293518736242,-0.015405610249419771,0.0019505469249362398,-0.0015043613242122665,0.0037427871248788855
0.39,0.0003526792479915707,-0.7842217000000241,8.775589399783984e-05,-2.356528439999978,0.0005902729039774825,1.5704026200000258,0.786464323999979,0.0399999418,0.039999954,-9.795223000000535,0.011240619979498136,-0.01569960559941603,0.0019828535199358285,-0.0013440241341869628,0.0038041542998781042
0.3925,0.00035692290099151666,-0.7842095875000242,8.8843402997826e-05,-2.356539329999978,0.0006016091179773382,1.570389615000026,0.7864748929999789,0.03999994135,0.039999954,-9.794954500000538,0.011391946440260028,-0.015993600949412285,0.0020151601149354173,-0.0011836869441616592,0.003865521474877323
0.395,0.0003611665539914626,-0.7841974750000243,8.993091199781215e-05,-2.356550219999978,0.0006129453319771938,1.5703766100000263,0.7864854619999787,0.0399999409,0.039999954,-9.79468600000054,0.011543272901021922,-0.01628759629940854,0.0020474667099350057,-0.0010233497541363556,0.003926888649876541
0.3975,0.0003654102069914086,-0.7841853625000246,9.101842099779831e-05,-2.3565611099999777,0.0006242815459770496,1.5703636050000265,0.7864960309999786,0.03999994045,0.039999954,-9.794417500000545,0.011694599361783816,-0.0165815916494048,0.0020797733049345945,-0.0008630125641110522,0.00398825582487576
0.4,0.00036965385999135456,-0.7841732500000247,9.210592999778446e-05,-2.3565719999999777,0.0006356177599769052,1.5703506000000265,0.7865065999999784,0.03999994,0.039999954,-9.794149000000548,0.011845925822545709,-0.016875586999401056,0.0021120798999341834,-0.0007026753740857485,0.004049622999874979
0.4025,0.000374353893990365,-0.7841603215000266,9.331036699753092e-05,-2.356583219999977,0.0006481705309742669,1.5703362300000294,0.7865183149999759,0.03999994,0.0399999546,-9.794014000000278,0.011993400659109778,-0.017196241249342662,0.002146135749930186,-0.0005314158002747806,0.004114482294867039
0.405,0.0003790539279903051,-0.7841473930000267,9.451480399751557e-05,-2.3565944399999768,0.0006607233019741071,1.5703218600000297,0.7865300299999758,0.03999994,0.0399999552,-9.79387900000028,0.012140875495666,-0.01751689549933858,0.0021801915999297523,-0.0003601562264415612,0.004179341589866213
0.40750000000000003,0.0003837539619902453,-0.7841344645000269,9.571924099750025e-05,-2.3566056599999765,0.0006732760729739473,1.5703074900000298,0.7865417449999756,0.03999994,0.0399999558,-9.793744000000281,0.012288350332222222,-0.0178375497493345,0.0022142474499293185,-0.00018889665260834164,0.004244200884865387
0.41000000000000003,0.00038845399599018543,-0.784121536000027,9.69236779974849e-05,-2.3566168799999767,0.0006858288439737874,1.57029312000003,0.7865534599999755,0.03999994,0.0399999564,-9.793609000000282,0.012435825168778445,-0.018158203999330415,0.0022483032999288852,-1.7637078775122202e-05,0.004309060179864562
0.41250000000000003,0.0003931540299901256,-0.7841086075000271,9.812811499746957e-05,-2.3566280999999765,0.0006983816149736277,1.5702787500000301,0.7865651749999754,0.03999994,0.039999957,-9.793474000000284,0.012583300005334667,-0.01847885824932633,0.0022823591499284515,0.00015362249505809734,0.0043739194748637356
0.41500000000000004,0.00039785406399006574,-0.7840956790000273,9.933255199745423e-05,-2.3566393199999762,0.0007109343859734678,1.5702643800000304,0.7865768899999752,0.03999994,0.039999957600000004,-9.793339000000286,0.012730774841890889,-0.018799512499322248,0.002316414999928018,0.0003248820688913169,0.0044387787698629095
0.4175,0.00040271448898898264,-0.7840824435000294,0.00010057808099717674,-2.356650874999974,0.0007239147084705803,1.5702495250000337,0.7865890019999726,0.03999994,0.039999957800000006,-9.793148000000643,0.012892668414455329,-0.019129166449260746,0.002351098264923581,0.0005009690484854726,0.004504879284854164
0.42,0.0004078956959889167,-0.7840685940000296,0.00010190579399715984,-2.356663099999974,0.0007377501339704041,1.570233700000034,0.7866019079999724,0.03999994,0.039999957200000005,-9.792845000000648,0.0130833994593116,-0.01947681979925632,0.002387036359923124,0.0006867108396937127,0.004573462239853291
0.4225,0.00041307690298885075,-0.7840547445000298,0.00010323350699714294,-2.3566753249999737,0.0007515855594702279,1.5702178750000342,0.7866148139999722,0.03999994,0.039999956600000004,-9.792542000000651,0.013274130504167871,-0.019824473149251894,0.002422974454922666,0.0008724526309019528,0.004642045194852418
0.425,0.00041825810998878476,-0.7840408950000299,0.00010456121999712603,-2.3566875499999735,0.0007654209849700518,1.5702020500000342,0.786627719999972,0.03999994,0.039999956,-9.792239000000656,0.013464861549024144,-0.02017212649924747,0.0024589125499222086,0.0010581944221101929,0.004710628149851545
0.4275,0.0004234393169887188,-0.7840270455000301,0.00010588893299710912,-2.3566997749999734,0.0007792564104698756,1.5701862250000345,0.786640625999972,0.03999994,0.0399999554,-9.791936000000659,0.013655592593880415,-0.020519779849243042,0.002494850644921751,0.001243936213318433,0.004779211104850672
0.43,0.0004286205239886528,-0.7840131960000303,0.00010721664599709222,-2.3567119999999733,0.0007930918359696995,1.5701704000000347,0.7866535319999718,0.03999994,0.0399999548,-9.791633000000664,0.013846323638736686,-0.020867433199238616,0.0025307887399212935,0.0014296780045266733,0.004847794059849799
0.4325,0.00043380173098858687,-0.7839993465000304,0.00010854435899707532,-2.356724224999973,0.0008069272614695234,1.5701545750000347,0.7866664379999716,0.03999994,0.0399999542,-9.791330000000666,0.014037054683592958,-0.02121508654923419,0.0025667268349208357,0.0016154197957349134,0.0049163770148489255
0.435,0.00043932015398740024,-0.7839848770000327,0.00010995848499677124,-2.3567371499999705,0.0008216612769663609,1.5701376900000386,0.7866801859999687,0.039999941,0.03999995559999999,-9.791113600000383,0.014222413673592183,-0.02158534279915465,0.002603843279916462,0.0018085076120047505,0.004987081029841004
0.4375,0.00044500718498732784,-0.7839700975000329,0.00011141581749675268,-2.3567504249999702,0.0008368445874661675,1.5701202750000387,0.7866943549999684,0.039999942499999996,0.039999957999999995,-9.790940500000385,0.014405086636136207,-0.02196690049914979,0.002641548899915982,0.0020052684408418653,0.00505884557484009
0.44,0.00045069421598725544,-0.7839553180000332,0.00011287314999673412,-2.35676369999997,0.0008520278979659742,1.570102860000039,0.7867085239999683,0.039999943999999996,0.03999996039999999,-9.790767400000387,0.014587759598680231,-0.02234845819914493,0.002679254519915502,0.00220202926967898,0.005130610119839177
0.4425,0.000456381246987183,-0.7839405385000333,0.00011433048249671557,-2.35677697499997,0.000867211208465781,1.5700854450000392,0.7867226929999681,0.039999945499999995,0.0399999628,-9.79059430000039,0.014770432561224255,-0.022730015899140074,0.002716960139915022,0.002398790098516095,0.005202374664838263
0.445,0.0004620682779871106,-0.7839257590000335,0.00011578781499669701,-2.3567902499999698,0.0008823945189655876,1.5700680300000394,0.786736861999968,0.039999946999999994,0.039999965199999994,-9.790421200000392,0.014953105523768278,-0.023111573599135217,0.0027546657599145418,0.0025955509273532097,0.005274139209837349
0.4475,0.0004677553089870382,-0.7839109795000337,0.00011724514749667845,-2.3568035249999695,0.0008975778294653944,1.5700506150000395,0.7867510309999678,0.03999994849999999,0.0399999676,-9.790248100000394,0.015135778486312304,-0.02349313129913036,0.0027923713799140617,0.0027923117561903243,0.0053459037548364355
0.45,0.0004734423399869658,-0.7838962000000339,0.00011870247999665991,-2.356816799999969,0.000912761139965201,1.5700332000000399,0.7867651999999675,0.03999995,0.039999969999999996,-9.790075000000396,0.015318451448856327,-0.0238746889991255,0.0028300769999135816,0.0029890725850274394,0.0054176682998355215
0.4525,0.00047965965398567124,-0.7838803225000366,0.00012029567799632823,-2.3568311699999667,0.0009293576889617506,1.5700142100000436,0.7867806799999644,0.039999951199999995,0.0399999715,-9.789895000000415,0.015515989716640812,-0.02428727164904914,0.0028696424699088154,0.0031969881029664166,0.005492835804826765
0.455,0.0004858769679855921,-0.7838644450000368,0.00012188887599630794,-2.3568455399999664,0.0009459542379615394,1.569995220000044,0.7867961599999642,0.0399999524,0.039999972999999994,-9.789715000000417,0.015713527984459366,-0.024699854299043887,0.0029092079399083114,0.0034049036209309594,0.005568003309825808
0.4575,0.000492094281985513,-0.783848567500037,0.00012348207399628768,-2.3568599099999665,0.0009625507869613281,1.5699762300000442,0.786811639999964,0.0399999536,0.03999997449999999,-9.78953500000042,0.015911066252277922,-0.025112436949038634,0.002948773409907808,0.003612819138895502,0.005643170814824851
0.46,0.0004983115959854337,-0.7838326900000372,0.00012507527199626738,-2.3568742799999662,0.0009791473359611167,1.5699572400000443,0.7868271199999638,0.0399999548,0.03999997599999999,-9.789355000000421,0.016108604520096475,-0.02552501959903338,0.0029883388799073042,0.003820734656860045,0.005718338319823894
0.4625,0.0005045289099853546,-0.7838168125000374,0.0001266684699962471,-2.356888649999966,0.0009957438849609054,1.5699382500000447,0.7868425999999635,0.039999955999999996,0.03999997749999999,-9.789175000000425,0.01630614278791503,-0.02593760224902813,0.0030279043499068002,0.004028650174824588,0.0057935058248229365
0.465,0.0005107462239852755,-0.7838009350000376,0.0001282616679962268,-2.3569030199999657,0.001012340433960694,1.569919260000045,0.7868580799999634,0.0399999572,0.03999997899999999,-9.788995000000426,0.016503681055733587,-0.026350184899022876,0.0030674698199062967,0.004236565692789131,0.00586867332982198
0.4675,0.0005171483899838759,-0.7837847025000403,0.00012990223599586816,-2.356917749999963,0.001029429599956964,1.5698997050000492,0.7868740234999598,0.0399999581,0.03999998019999999,-9.788834250000292,0.016698671970064253,-0.02678001549889442,0.003107646939901424,0.0044480797596655585,0.005945005049812707
0.47000000000000003,0.0005239202599837896,-0.7837677600000406,0.00013163754399584608,-2.356933199999963,0.001047503999956734,1.5698790200000494,0.7868908939999596,0.0399999584,0.039999980799999994,-9.788712000000293,0.01688856817736465,-0.027244341998888505,0.0031490473599008967,0.004666790924442734,0.0060236651998117055
0.47250000000000003,0.0005306921299837034,-0.7837508175000407,0.00013337285199582397,-2.356948649999963,0.0010655783999565036,1.5698583350000497,0.7869077644999595,0.0399999587,0.039999981399999995,-9.788589750000295,0.017078464384665048,-0.027708668498882594,0.0031904477799003694,0.004885502089219909,0.006102325349810703
0.47500000000000003,0.0005374639999836171,-0.783733875000041,0.00013510815999580187,-2.3569640999999626,0.0010836527999562736,1.56983765000005,0.7869246349999592,0.039999959,0.039999981999999996,-9.788467500000296,0.017268360591965445,-0.028172994998876683,0.0032318481998998426,0.0051042132539970845,0.006180985499809702
0.47750000000000004,0.000544235869983531,-0.7837169325000412,0.0001368434679957798,-2.3569795499999624,0.0011017271999560435,1.5698169650000502,0.786941505499959,0.0399999593,0.0399999826,-9.788345250000297,0.01745825679926584,-0.02863732149887077,0.0032732486198993153,0.00532292441877426,0.006259645649808701
0.48,0.0005510077399834446,-0.7836999900000414,0.00013857877599575766,-2.356994999999962,0.001119801599955813,1.5697962800000507,0.7869583759999588,0.0399999596,0.0399999832,-9.788223000000299,0.017648153006566233,-0.02910164799886485,0.003314649039898787,0.005541635583551431,0.006338305799807697
0.4825,0.0005577796099833583,-0.7836830475000416,0.00014031408399573555,-2.357010449999962,0.001137875999955583,1.569775595000051,0.7869752464999586,0.0399999599,0.0399999838,-9.7881007500003,0.01783804921386663,-0.029565974498858935,0.00335604945989826,0.005760346748328605,0.006416965949806696
0.485,0.000564937259981709,-0.7836652700000453,0.0001421482519953129,-2.35702623999996,0.001156978369951187,1.569753730000056,0.7869930769999545,0.039999960599999995,0.0399999844,-9.78790700000057,0.018061806819734075,-0.030045047998789536,0.0033986288198925795,0.00598647701496801,0.006497836959796012
0.4875,0.0005722877999814149,-0.7836470750000459,0.0001440318499952375,-2.3570421999999596,0.001176594724950402,1.5697312750000567,0.7870113874999538,0.0399999615,0.039999985,-9.78767750000058,0.018302495125072593,-0.030531494998770066,0.003441797649890852,0.006216316832579623,0.0065798133997927305
0.49,0.0005796383399811207,-0.7836288800000467,0.00014591544799516214,-2.357058159999959,0.001196211079949617,1.5697088200000577,0.787029697999953,0.0399999624,0.0399999856,-9.78744800000059,0.01854318343041111,-0.0310179419987506,0.0034849664798891245,0.006446156650191236,0.00666178983978945
0.4925,0.0005869888799808266,-0.7836106850000474,0.00014779904599508675,-2.3570741199999583,0.001215827434948832,1.5696863650000585,0.7870480084999523,0.0399999633,0.0399999862,-9.787218500000598,0.01878387173574963,-0.031504388998731134,0.003528135309887397,0.006675996467802848,0.00674376627978617
0.495,0.0005943394199805325,-0.7835924900000482,0.0001496826439950114,-2.3570900799999577,0.001235443789948047,1.5696639100000596,0.7870663189999515,0.039999964199999995,0.0399999868,-9.786989000000608,0.01902456004108815,-0.031990835998711664,0.0035713041398856694,0.0069058362854144606,0.00682574271978289
0.4975,0.0006016899599802383,-0.7835742950000489,0.000151566241994936,-2.357106039999957,0.001255060144947262,1.5696414550000604,0.7870846294999508,0.03999996509999999,0.0399999874,-9.786759500000617,0.019265248346426667,-0.0324772829986922,0.003614472969883942,0.0071356761030260734,0.006907719159779609
0.5,0.0006090404999799442,-0.7835561000000496,0.00015344983999486064,-2.3571219999999564,0.001274676499946477,1.5696190000000614,0.7871029399999501,0.039999966,0.039999988,-9.786530000000628,0.019505936651765185,-0.03296372999867273,0.0036576417998822144,0.0073655159206376854,0.006989695599776328
0.5025000000000001,0.0006169935194784163,-0.7835367350000525,0.0001554878194944691,-2.3571390999999533,0.001295898214942406,1.5695947750000658,0.7871227429999463,0.039999966,0.039999988,-9.78626885000071,0.01974050085927958,-0.03350374589853444,0.003702559779878097,0.007609194819154058,0.007074935409768667
0.505,0.0006249465389785318,-0.7835173700000523,0.00015752579899449873,-2.3571561999999537,0.0013171199299427145,1.5695705500000654,0.7871425459999466,0.039999966,0.039999988,-9.786007700000706,0.01997506506677725,-0.034043761798542294,0.0037474777598787493,0.00785287371770818,0.007160175219769906
0.5075000000000001,0.0006328995584786477,-0.783498005000052,0.00015956377849452843,-2.357173299999954,0.0013383416449430237,1.569546325000065,0.7871623489999469,0.039999966,0.039999988,-9.785746550000702,0.020209629274274936,-0.034583777698550165,0.003792395739879404,0.00809655261626231,0.007245415029771148
0.51,0.0006408525779787633,-0.7834786400000517,0.00016160175799455803,-2.357190399999954,0.0013595633599433321,1.5695221000000648,0.7871821519999471,0.039999966,0.039999988,-9.785485400000697,0.02044419348177261,-0.03512379359855801,0.003837313719880057,0.00834023151481643,0.007330654839772387
0.5125,0.0006488055974788788,-0.7834592750000514,0.00016363973749458765,-2.3572074999999546,0.0013807850749436405,1.5694978750000643,0.7872019549999475,0.039999966,0.039999988,-9.785224250000693,0.020678757689270282,-0.03566380949856586,0.0038822316998807093,0.008583910413370551,0.007415894649773625
0.515,0.0006567586169789947,-0.7834399100000511,0.00016567771699461736,-2.3572245999999546,0.0014020067899439498,1.569473650000064,0.7872217579999478,0.039999966,0.039999988,-9.78496310000069,0.020913321896767968,-0.03620382539857373,0.003927149679881364,0.008827589311924683,0.007501134459774867
0.5175,0.0006649203384773877,-0.7834201250000543,0.0001677691834942055,-2.3572421249999516,0.0014237844449396693,1.569448785000069,0.7872420869999437,0.039999966,0.039999988349999994,-9.784728600000477,0.021151896938031628,-0.03675257449850761,0.003972670859876838,0.009075012243612252,0.007587357924767553
0.52,0.0006734994639772786,-0.7833995000000546,0.00016996762399417757,-2.3572604999999514,0.0014466739799393784,1.5694226400000693,0.7872634679999434,0.039999966,0.0399999894,-9.78454740000048,0.021398493646922263,-0.03731878999850041,0.004019398439876244,0.009329923241655403,0.007675548699766432
0.5225,0.0006820785894771693,-0.7833788750000549,0.00017216606449414951,-2.357278874999951,0.0014695635149390865,1.5693964950000696,0.7872848489999431,0.039999966,0.03999999045,-9.784366200000482,0.02164509035581289,-0.03788500549849319,0.004066126019875649,0.009584834239698541,0.007763739474765307
0.525,0.0006906577149770602,-0.7833582500000551,0.0001743645049941216,-2.357297249999951,0.0014924530499387954,1.56937035000007,0.7873062299999428,0.039999966,0.0399999915,-9.784185000000484,0.021891687064703524,-0.038451220998485997,0.004112853599875055,0.009839745237741691,0.007851930249764187
0.5275,0.0006992368404769507,-0.7833376250000554,0.00017656294549409354,-2.3573156249999507,0.0015153425849385035,1.5693442050000703,0.7873276109999425,0.039999966,0.03999999255,-9.784003800000487,0.02213828377359415,-0.039017436498478775,0.004159581179874459,0.010094656235784831,0.007940121024763061
0.53,0.0007078159659768417,-0.7833170000000557,0.00017876138599406559,-2.3573339999999505,0.0015382321199382126,1.5693180600000707,0.7873489919999422,0.039999966,0.0399999936,-9.783822600000489,0.022384880482484784,-0.039583651998471574,0.004206308759873865,0.010349567233827982,0.00802831179976194
0.5325,0.0007163950914767323,-0.7832963750000559,0.00018095982649403756,-2.3573523749999503,0.0015611216549379207,1.569291915000071,0.787370372999942,0.039999966,0.03999999465,-9.78364140000049,0.02263147719137541,-0.04014986749846435,0.004253036339873269,0.01060447823187112,0.008116502574760815
0.535,0.0007254070799748541,-0.78327482500006,0.00018326919599355622,-2.3573718499999456,0.0015851646299329153,1.5692644500000767,0.7873928199999374,0.039999966,0.039999995,-9.783505400000308,0.02287439107829204,-0.040750942698314675,0.004300874519868136,0.010866470168552399,0.008206963349750416
0.5375,0.0007346354999747364,-0.7832528125000603,0.00018563402999352606,-2.357391874999945,0.0016097843249326014,1.5692363250000771,0.787415799999937,0.039999966,0.039999995,-9.78339200000031,0.023115463554199144,-0.04136944774830679,0.004349267999867518,0.011132002574596006,0.008298559124749248
0.54,0.000743863919974619,-0.7832308000000605,0.000187998863993496,-2.357411899999945,0.0016344040199322886,1.5692082000000775,0.7874387799999368,0.039999966,0.039999995,-9.783278600000312,0.023356536030106262,-0.04198795279829893,0.004397661479866904,0.011397534980639626,0.008390154899748084
0.5425,0.0007530923399745014,-0.7832087875000608,0.00019036369799346585,-2.3574319249999447,0.0016590237149319744,1.5691800750000777,0.7874617599999365,0.039999966,0.039999995,-9.783165200000314,0.023597608506013366,-0.04260645784829104,0.004446054959866286,0.011663067386683235,0.008481750674746916
0.545,0.000762320759974384,-0.7831867750000611,0.0001927285319934358,-2.3574519499999447,0.0016836434099316616,1.5691519500000781,0.7874847399999362,0.039999966,0.039999995,-9.783051800000315,0.023838680981920483,-0.043224962898283176,0.0044944484398656715,0.011928599792726854,0.008573346449745752
0.5475,0.0007715491799742663,-0.7831647625000614,0.00019509336599340564,-2.357471974999944,0.0017082631049313477,1.5691238250000785,0.787507719999936,0.039999966,0.039999995,-9.782938400000317,0.024079753457827587,-0.04384346794827529,0.004542841919865054,0.012194132198770464,0.008664942224744582
0.55,0.0007807775999741491,-0.7831427500000616,0.00019745819999337556,-2.357491999999944,0.0017328827999310349,1.569095700000079,0.7875306999999356,0.039999966,0.039999995,-9.782825000000319,0.0243208259337347,-0.04446197299826743,0.004591235399864439,0.012459664604814083,0.008756537999743418
0.5525,0.0007906783199721396,-0.783119297500066,0.00019999533899286054,-2.35751326999994,0.0017592936299256805,1.569065535000085,0.7875553524999307,0.0399999648,0.03999999395000001,-9.782645900000505,0.024621326102960805,-0.04512190804814296,0.004641355064858964,0.01273385411982565,0.008851221749733561
0.555,0.0008005790399720137,-0.7830958450000662,0.0002025324779928283,-2.35753453999994,0.0017857044599253447,1.5690353700000854,0.7875800049999303,0.0399999636,0.0399999929,-9.782466800000506,0.02492182627235339,-0.04578184309813457,0.004691474729858328,0.013008043634861481,0.008945905499732358
0.5575,0.0008104797599718874,-0.7830723925000665,0.00020506961699279594,-2.3575558099999396,0.001812115289925008,1.5690052050000856,0.78760465749993,0.039999962400000005,0.039999991850000007,-9.78228770000051,0.025222326441745962,-0.04644177814812615,0.004741594394857688,0.013282233149897299,0.00904058924973115
0.56,0.0008203804799717617,-0.7830489400000669,0.0002076067559927637,-2.357577079999939,0.0018385261199246722,1.568975040000086,0.7876293099999296,0.0399999612,0.0399999908,-9.782108600000512,0.025522826611138548,-0.04710171319811776,0.0047917140598570515,0.01355642266493313,0.009135272999729948
0.5625,0.0008302811999716354,-0.7830254875000672,0.00021014389499273133,-2.357598349999939,0.0018649369499243354,1.5689448750000863,0.7876539624999294,0.03999996,0.039999989750000006,-9.781929500000514,0.02582332678053112,-0.04776164824810935,0.004841833724856412,0.013830612179968947,0.00922995674972874
0.5650000000000001,0.0008401819199715095,-0.7830020350000675,0.00021268103399269908,-2.3576196199999386,0.0018913477799239998,1.5689147100000866,0.787678614999929,0.039999958800000006,0.0399999887,-9.781750400000517,0.026123826949923705,-0.04842158329810096,0.004891953389855775,0.014104801695004778,0.009324640499727536
0.5675,0.0008503142749693748,-0.782978085000072,0.00021527754099215195,-2.3576412999999348,0.0019183756849183121,1.5688838300000933,0.7877038424999238,0.039999958,0.0399999881,-9.781573200000501,0.026421144045048358,-0.04909950374793659,0.004942671894849943,0.01438244935042855,0.009420287699717976
0.5700000000000001,0.0008609098999692401,-0.7829531400000724,0.00021799278399211742,-2.357663799999935,0.0019466377399179528,1.5688515200000936,0.7877302199999234,0.039999958,0.0399999884,-9.781399800000504,0.026712094991554504,-0.049813394997927515,0.004994588079849283,0.014667013286718067,0.009517861799716735
0.5725,0.0008715055249691049,-0.7829281950000727,0.0002207080269920828,-2.3576862999999344,0.0019748997949175923,1.5688192100000942,0.7877565974999231,0.039999958,0.039999988699999996,-9.781226400000506,0.02700304593806064,-0.05052728624791841,0.005046504264848621,0.014951577223007573,0.00961543589971549
0.5750000000000001,0.0008821011499689702,-0.782903250000073,0.0002234232699920483,-2.357708799999934,0.002003161849917233,1.5687869000000947,0.7877829749999228,0.039999958,0.039999989,-9.781053000000508,0.02729399688456679,-0.05124117749790934,0.005098420449847961,0.015236141159297091,0.00971300999971425
0.5775,0.0008926967749688351,-0.7828783050000734,0.00022613851299201364,-2.3577312999999336,0.002031423904916873,1.568754590000095,0.7878093524999225,0.039999958,0.0399999893,-9.78087960000051,0.02758494783107292,-0.051955068747900235,0.005150336634847299,0.015520705095586597,0.009810584099713006
0.58,0.0009032923999687,-0.7828533600000737,0.000228853755991979,-2.3577537999999336,0.002059685959916512,1.5687222800000955,0.7878357299999221,0.039999958,0.0399999896,-9.780706200000512,0.027875898777579056,-0.05266895999789113,0.005202252819846637,0.015805269031876103,0.009908158199711761
0.5825,0.0009138880249685653,-0.782828415000074,0.0002315689989919445,-2.357776299999933,0.002087948014916153,1.5686899700000958,0.7878621074999218,0.039999958,0.0399999899,-9.780532800000513,0.028166849724085202,-0.05338285124788206,0.005254169004845977,0.016089832968165622,0.01000573229971052
0.585,0.0009249617899662932,-0.7828024750000788,0.0002344067819913622,-2.357799619999929,0.002117484029910099,1.5686562400001027,0.7878896739999162,0.039999957600000004,0.0399999898,-9.780393900000362,0.028452877885748427,-0.054134538897704025,0.005307190709840374,0.016381629183008225,0.010105354499700122
0.5875,0.0009362746249661494,-0.7827760375000792,0.00023730583499132537,-2.357823349999929,0.002147657024909715,1.568621800000103,0.7879178349999157,0.039999957,0.0399999895,-9.780272250000364,0.028736444654957304,-0.05490512474769423,0.005360765174839693,0.016677041537175735,0.010206000749698844
0.59,0.0009475874599660051,-0.7827496000000794,0.00024020488799128838,-2.3578470799999285,0.0021778300199093307,1.5685873600001035,0.7879459959999154,0.0399999564,0.0399999892,-9.780150600000365,0.029020011424166166,-0.055675710597684405,0.00541433963983901,0.01697245389134323,0.01030664699969756
0.5925,0.0009589002949658614,-0.7827231625000798,0.00024310394099125155,-2.357870809999928,0.002208003014908947,1.568552920000104,0.787974156999915,0.0399999558,0.0399999889,-9.780028950000366,0.029303578193375042,-0.056446296447674606,0.005467914104838329,0.017267866245510743,0.01040729324969628
0.595,0.0009702131299657172,-0.7826967250000801,0.0002460029939912146,-2.3578945399999283,0.0022381760099085624,1.5685184800001044,0.7880023179999147,0.0399999552,0.0399999886,-9.77990730000037,0.029587144962583908,-0.05721688229766478,0.0055214885698376456,0.01756327859967824,0.010507939499694998
0.5975,0.0009815259649655734,-0.7826702875000805,0.0002489020469911777,-2.357918269999928,0.0022683490049081787,1.568484040000105,0.7880304789999143,0.0399999546,0.039999988300000004,-9.77978565000037,0.02987071173179278,-0.057987468147654986,0.005575063034836965,0.01785869095384575,0.010608585749693719
0.6,0.000992838799965429,-0.7826438500000809,0.00025180109999114076,-2.3579419999999276,0.002298521999907794,1.5684496000001054,0.788058639999914,0.039999954,0.039999988,-9.779664000000372,0.030154278501001646,-0.05875805399764515,0.0056286374998362814,0.018154103308013248,0.010709231999692434
0.6025,0.001004890849962688,-0.7826157865000869,0.0002548896269904382,-2.3579670499999223,0.002330663999900491,1.5684128950001137,0.7880886339999071,0.039999953399999996,0.0399999874,-9.779409600000788,0.030502382571662573,-0.059559359997519226,0.005683817474829168,0.018460478073900055,0.010812748949679521
0.605,0.0010169428999622055,-0.782587723000088,0.00025797815399031455,-2.3579920999999215,0.0023628059998992046,1.5683761900001152,0.788118627999906,0.0399999528,0.039999986800000005,-9.779155200000798,0.030850486642520707,-0.06036066599748714,0.005738997449826959,0.018766852839820346,0.010916265899675377
0.6075,0.0010289949499617235,-0.7825596595000891,0.000261066680990191,-2.3580171499999203,0.002394947999897919,1.5683394850001167,0.7881486219999048,0.0399999522,0.039999986200000004,-9.778900800000807,0.031198590713378854,-0.0611619719974551,0.005794177424824752,0.019073227605740654,0.011019782849671237
0.61,0.0010410469999612409,-0.7825315960000903,0.00026415520799006736,-2.3580421999999195,0.002427089999896632,1.5683027800001181,0.7881786159999036,0.0399999516,0.0399999856,-9.778646400000818,0.03154669478423699,-0.061963277997423016,0.005849357399822543,0.019379602371660948,0.011123299799667093
0.6125,0.0010530990499607589,-0.7825035325000914,0.0002672437349899438,-2.3580672499999182,0.0024592319998953467,1.5682660750001196,0.7882086099999024,0.039999951,0.039999985,-9.778392000000828,0.031894798855095136,-0.06276458399739096,0.005904537374820335,0.019685977137581252,0.011226816749662952
0.615,0.0010651510999602762,-0.7824754690000925,0.00027033226198982016,-2.3580922999999174,0.0024913739998940598,1.568229370000121,0.7882386039999012,0.0399999504,0.0399999844,-9.778137600000838,0.03224290292595327,-0.06356588999735888,0.005959717349818126,0.019992351903501546,0.011330333699658806
0.6175,0.0010774567399574895,-0.7824468520000986,0.0002734857844891059,-2.358117914999911,0.0025241914998866354,1.5681918850001295,0.7882692299998942,0.03999995,0.0399999842,-9.777908450000592,0.03258791267759439,-0.06438889229712545,0.006015468724811235,0.0203021738667708,0.011434738349647713
0.62,0.0010902695599576755,-0.7824171280000982,0.0002767692979891536,-2.3581446599999114,0.002558359999887132,1.568152840000129,0.7883011199998947,0.03999995,0.0399999848,-9.77772980000059,0.0329267337907089,-0.06525528719713805,0.006072362899812062,0.020618890224841015,0.011540918399649257
0.6225,0.0011030823799578623,-0.7823874040000978,0.00028005281148920145,-2.358171404999912,0.0025925284998876297,1.5681137950001285,0.7883330099998952,0.03999995,0.0399999854,-9.777551150000587,0.03326555490382343,-0.06612168209715068,0.006129257074812891,0.020935606582911246,0.011647098449650804
0.625,0.0011158951999580484,-0.7823576800000973,0.0002833363249892492,-2.3581981499999123,0.0026266969998881263,1.5680747500001277,0.7883648999998957,0.03999995,0.039999986,-9.777372500000585,0.03360437601693794,-0.06698807699716326,0.006186151249813718,0.021252322940981463,0.011753278499652346
0.6275000000000001,0.0011287080199582351,-0.7823279560000969,0.00028661983848929704,-2.3582248949999127,0.002660865499888624,1.5680357050001272,0.788396789999896,0.03999995,0.0399999866,-9.777193850000582,0.03394319713005247,-0.06785447189717589,0.006243045424814547,0.021569039299051695,0.011859458549653895
0.63,0.0011415208399584214,-0.7822982320000965,0.0002899033519893448,-2.358251639999913,0.0026950339998891206,1.5679966600001267,0.7884286799998965,0.03999995,0.039999987199999996,-9.777015200000578,0.034282018243166984,-0.06872086679718849,0.006299939599815374,0.021885755657121912,0.011965638599655437
0.6325000000000001,0.0011543336599586082,-0.7822685080000961,0.00029318686548939263,-2.3582783849999136,0.002729202499889619,1.567957615000126,0.788460569999897,0.03999995,0.0399999878,-9.776836550000576,0.03462083935628151,-0.06958726169720111,0.0063568337748162035,0.02220247201519214,0.012071818649656984
0.635,0.0011676677799562795,-0.782237650000101,0.00029660399898879576,-2.358306169999909,0.0027647596798834164,1.5679170300001328,0.7884937569998912,0.03999995,0.039999988199999996,-9.77668780000043,0.03497140034918596,-0.07048773399704931,0.006414752179812089,0.022524913026836384,0.012179806399649808
0.6375000000000001,0.0011812625499564777,-0.7822062250001006,0.0003000879424888465,-2.3583344749999093,0.0028010111998839444,1.5678756750001324,0.7885275924998917,0.03999995,0.0399999885,-9.776554000000427,0.0353278312820706,-0.07140524499706269,0.00647318269981294,0.0228502163653092,0.012288697999651394
0.64,0.0011948573199566752,-0.7821748000001002,0.00030357188598889714,-2.35836277999991,0.002837262719884471,1.5678343200001317,0.7885614279998923,0.03999995,0.0399999888,-9.776420200000427,0.03568426221495522,-0.07232275599707602,0.00653161321981379,0.023175519703782003,0.012397589599652977
0.6425,0.001208452089956873,-0.7821433750000998,0.0003070558294889478,-2.3583910849999103,0.002873514239884998,1.5677929650001312,0.7885952634998927,0.03999995,0.0399999891,-9.776286400000425,0.03604069314783985,-0.07324026699708935,0.006590043739814639,0.023500823042254804,0.012506481199654558
0.645,0.001222046859957071,-0.7821119500000993,0.0003105397729889985,-2.3584193899999106,0.0029097657598855264,1.5677516100001305,0.7886290989998932,0.03999995,0.0399999894,-9.776152600000422,0.036397124080724486,-0.07415777799710273,0.00664847425981549,0.02382612638072762,0.012615372799656147
0.6475,0.0012356416299572686,-0.7820805250000988,0.00031402371648904916,-2.358447694999911,0.002946017279886053,1.5677102550001298,0.7886629344998937,0.03999995,0.039999989699999995,-9.77601880000042,0.03675355501360911,-0.07507528899711605,0.00670690477981634,0.024151429719200423,0.01272426439965773
0.65,0.0012492363999574668,-0.7820491000000984,0.00031750765998909996,-2.3584759999999116,0.0029822687998865816,1.5676689000001294,0.7886967699998942,0.03999995,0.03999999,-9.77588500000042,0.03710998594649375,-0.07599279999712942,0.006765335299817191,0.024476733057673238,0.012833155999659316
0.6525,0.0012636339249543788,-0.7820159425001051,0.0003211973809883084,-2.358505744999906,0.0030206589298783534,1.5676250700001388,0.7887325854998866,0.03999995,0.03999999075,-9.775797250000279,0.03745621275047023,-0.07697578599688522,0.006825418744809614,0.024811860545407738,0.012944675899646627
0.655,0.001278031449953803,-0.7819827850001064,0.0003248871019881608,-2.3585354899999045,0.0030590490598768182,1.5675812400001405,0.7887684009998851,0.03999995,0.0399999915,-9.775709500000282,0.0378024395544148,-0.07795877199684591,0.006885502189807211,0.02514698803317299,0.013056195799642168
0.6575,0.0012924289749532264,-0.7819496275001078,0.0003285768229880131,-2.3585652349999036,0.003097439189875281,1.5675374100001425,0.7888042164998836,0.03999995,0.03999999225,-9.775621750000285,0.03814866635835935,-0.07894175799680656,0.006945585634804805,0.025482115520938226,0.013167715699637702
0.66,0.0013068264999526505,-0.7819164700001091,0.00033226654398786556,-2.358594979999902,0.0031358293198737457,1.5674935800001442,0.7888400319998822,0.03999995,0.039999993,-9.775534000000288,0.038494893162303916,-0.07992474399676723,0.0070056690798024025,0.02581724300870348,0.013279235599633243
0.6625,0.0013212240249520742,-0.7818833125001103,0.0003359562649877178,-2.3586247249999013,0.0031742194498722083,1.5674497500001459,0.7888758474998808,0.03999995,0.03999999375,-9.775446250000291,0.03884111996624847,-0.08090772999672788,0.007065752524799997,0.026152370496468715,0.013390755499628777
0.665,0.0013356215499514983,-0.7818501550001117,0.00033964598598757025,-2.3586544699999,0.003212609579870673,1.5674059200001478,0.7889116629998794,0.03999995,0.039999994500000004,-9.775358500000296,0.03918734677019303,-0.08189071599668857,0.007125835969797593,0.026487497984233967,0.013502275399624317
0.6675,0.001350293444948116,-0.7818163875001193,0.0003434060474867032,-2.358684799999893,0.003251730649861661,1.5673612650001578,0.7889481614998709,0.03999994985,0.039999994750000004,-9.775219500000823,0.03955799899852321,-0.08288703349651287,0.0071864521047897405,0.026825816276239468,0.013614684049610764
0.67,0.0013655140799475073,-0.7817814000001206,0.0003473067899865472,-2.3587162999998914,0.0032923135998600378,1.5673149600001597,0.7889860259998694,0.0399999494,0.039999994000000004,-9.774978000000832,0.03997750207637108,-0.08391001399647197,0.007248133619787273,0.027170516176823024,0.013728870199606197
0.6725,0.001380734714946898,-0.7817464125001221,0.000351207532486391,-2.35874779999989,0.003332896549858413,1.5672686550001615,0.7890238904998679,0.03999994895,0.039999993250000004,-9.774736500000843,0.04039700515421893,-0.084932994496431,0.007309815134784804,0.027515216077406562,0.013843056349601625
0.675,0.0013959553499462891,-0.7817114250001235,0.000355108274986235,-2.358779299999889,0.00337347949985679,1.5672223500001634,0.7890617549998663,0.0399999485,0.039999992500000005,-9.774495000000853,0.0408165082320668,-0.08595597499639009,0.007371496649782337,0.027859915977990115,0.013957242499597056
0.6775,0.0014111759849456797,-0.7816764375001248,0.00035900901748607875,-2.3588107999998877,0.003414062449855165,1.5671760450001653,0.7890996194998648,0.039999948050000005,0.039999991750000005,-9.774253500000862,0.041236011309914646,-0.08697895549634913,0.007433178164779867,0.028204615878573654,0.014071428649592484
0.68,0.001426396619945071,-0.7816414500001263,0.0003629097599859228,-2.3588422999998864,0.003454645399853542,1.5671297400001671,0.7891374839998633,0.0399999476,0.039999991000000006,-9.774012000000871,0.041655514387762514,-0.08800193599630822,0.007494859679777401,0.02854931577915721,0.014185614799587918
0.6825,0.0014416172549444617,-0.7816064625001277,0.0003668105024857666,-2.358873799999885,0.003495228349851917,1.5670834350001688,0.7891753484998618,0.03999994715,0.03999999025,-9.77377050000088,0.04207501746561036,-0.08902491649626726,0.0075565411947749305,0.028894015679740745,0.014299800949583346
0.685,0.0014574000299413267,-0.7815702560001345,0.00037085533698496306,-2.358906399999879,0.003537308639843567,1.5670354100001784,0.789214618999854,0.039999947,0.0399999905,-9.773596400000512,0.04248723052292837,-0.09009400999601092,0.007619229629769191,0.029244424215158923,0.014415527999574492
0.6875,0.0014734638749415601,-0.7815334400001339,0.0003749722174850229,-2.3589395499998793,0.0035801375998441892,1.5669865250001778,0.7892545924998545,0.039999947,0.03999999125,-9.773456000000511,0.04289579856992136,-0.09118615999602679,0.007682421524770109,0.029597687068041438,0.014532025499576185
0.6900000000000001,0.0014895277199417944,-0.7814966240001334,0.00037908909798508287,-2.35897269999988,0.0036229665598448133,1.566937640000177,0.7892945659998551,0.039999947,0.039999992,-9.77331560000051,0.04330436661691437,-0.09227830999604271,0.007745613419771031,0.029950949920923967,0.014648522999577881
0.6925,0.0015055915649420278,-0.7814598080001329,0.0003832059784851427,-2.3590058499998805,0.0036657955198454357,1.5668887550001764,0.7893345394998557,0.039999947,0.03999999275,-9.773175200000507,0.04371293466390737,-0.09337045999605857,0.007808805314771948,0.030304212773806478,0.014765020499579574
0.6950000000000001,0.0015216554099422618,-0.7814229920001323,0.0003873228589852027,-2.3590389999998806,0.0037086244798460602,1.5668398700001755,0.7893745129998563,0.039999947,0.0399999935,-9.773034800000506,0.04412150271090037,-0.09446260999607449,0.00787199720977287,0.030657475626689006,0.014881517999581272
0.6975,0.0015377192549424952,-0.7813861760001318,0.0003914397394852625,-2.3590721499998812,0.0037514534398466826,1.5667909850001749,0.7894144864998569,0.039999947,0.03999999425,-9.772894400000503,0.04453007075789337,-0.09555475999609037,0.007935189104773787,0.031010738479571517,0.014998015499582965
0.7000000000000001,0.0015537830999427294,-0.7813493600001312,0.0003955566199853225,-2.359105299999882,0.0037942823998473067,1.5667421000001742,0.7894544599998574,0.039999947,0.039999995,-9.772754000000502,0.044938638804886376,-0.09664690999610628,0.007998380999774709,0.031364001332454046,0.015114512999584663
0.7025,0.0015707097599394373,-0.7813106285001385,0.0003998946874844786,-2.3591401449998752,0.003839409689838537,1.5666905750001843,0.7894965709998493,0.03999994640000001,0.039999994250000004,-9.772600850000549,0.04536636955883044,-0.09779595859588877,0.008063027549768698,0.03172617275138253,0.015233386499574677
0.705,0.0015876364199392213,-0.7812718970001391,0.0004042327549844233,-2.359174989999875,0.0038845369798379617,1.566639050000185,0.7895386819998488,0.039999945800000006,0.039999993500000004,-9.77244770000055,0.04579410031284282,-0.09894500719587411,0.008127674099767874,0.03208834417034277,0.01535225999957316
0.7075,0.0016045630799390062,-0.7812331655001395,0.0004085708224843682,-2.3592098349998745,0.003929664269837388,1.5665875250001857,0.7895807929998482,0.039999945200000005,0.039999992750000005,-9.772294550000552,0.04622183106685522,-0.1000940557958595,0.008192320649767052,0.03245051558930303,0.01547113349957165
0.71,0.0016214897399387904,-0.78119443400014,0.00041290888998431283,-2.359244679999874,0.003974791559836812,1.5665360000001864,0.7896229039998477,0.039999944600000004,0.039999992000000005,-9.772141400000553,0.046649561820867595,-0.10124310439584486,0.008256967199766227,0.032812687008263265,0.015590006999570133
0.7125,0.0016384163999385753,-0.7811557025001405,0.0004172469574842577,-2.3592795249998737,0.004019918849836239,1.566484475000187,0.7896650149998472,0.039999944,0.039999991250000005,-9.771988250000556,0.04707729257488,-0.10239215299583025,0.008321613749765406,0.03317485842722353,0.015708880499568624
0.715,0.0016553430599383593,-0.781116971000141,0.0004215850249842024,-2.359314369999873,0.004065046139835663,1.5664329500001877,0.7897071259998466,0.03999994340000001,0.0399999905,-9.771835100000557,0.04750502332889238,-0.10354120159581559,0.00838626029976458,0.033537029846183765,0.015827753999567106
0.7175,0.0016725637099349211,-0.7810775990001485,0.0004259984514833211,-2.3593498049998662,0.004110956569826504,1.566380545000198,0.7897499669998381,0.039999942850000005,0.03999999,-9.771709500000258,0.047928828558295805,-0.10471505379552906,0.008451403324758317,0.03390215057744098,0.015947429199556808
0.72,0.001690372339934694,-0.7810369460001491,0.00043056259598326285,-2.3593864199998658,0.004158433279825898,1.5663263800001987,0.7897942679998375,0.0399999424,0.03999999,-9.771639000000258,0.04834478273835232,-0.10593851319551346,0.008517539299757473,0.034273169933389,0.01606870779955526
0.7225,0.0017081809699344677,-0.7809962930001495,0.00043512674048320484,-2.3594230349998653,0.004205909989825295,1.5662722150001993,0.789838568999837,0.03999994195,0.03999999,-9.771568500000258,0.048760736918408855,-0.10716197259549791,0.008583675274756633,0.034644189289337025,0.01618998639955372
0.725,0.0017259895999342406,-0.78095564000015,0.0004396908849831466,-2.359459649999865,0.004253386699824689,1.5662180500002,0.7898828699998364,0.039999941500000004,0.03999999,-9.77149800000026,0.04917669109846536,-0.1083854319954823,0.00864981124975579,0.03501520864528504,0.016311264999552173
0.7275,0.0017437982299340143,-0.7809149870001506,0.0004442550294830886,-2.3594962649998643,0.0043008634098240855,1.5661638850002007,0.7899271709998358,0.03999994105,0.03999999,-9.77142750000026,0.0495926452785219,-0.10960889139546676,0.008715947224754949,0.03538622800123307,0.016432543599550632
0.73,0.0017616068599337871,-0.780874334000151,0.0004488191739830304,-2.359532879999864,0.00434834011982348,1.5661097200002014,0.7899714719998352,0.0399999406,0.03999999,-9.771357000000261,0.05000859945857841,-0.11083235079545115,0.008782083199754105,0.03575724735718108,0.016553822199549085
0.7325,0.0017794154899335606,-0.7808336810001516,0.0004533833184829724,-2.3595694949998633,0.0043958168298228765,1.566055555000202,0.7900157729998347,0.039999940149999996,0.03999999,-9.771286500000262,0.05042455363863495,-0.11205581019543559,0.008848219174753265,0.03612826671312911,0.016675100799547544
0.735,0.0017978246099299617,-0.7807916810001597,0.0004581014079820497,-2.3596072799998566,0.00444489298981329,1.565999570000213,0.7900615699998257,0.0399999392,0.0399999898,-9.77110800000087,0.050893179325396616,-0.11330867699525486,0.008915350849746831,0.0365050654844137,0.016797729299538416
0.7375,0.001816533974929724,-0.7807490075001603,0.0004628964699819888,-2.3596456499998557,0.004494768874812656,1.5659426750002137,0.7901081149998251,0.039999938000000006,0.0399999895,-9.770875500000873,0.05138814076595353,-0.11457624749523876,0.00898298037474597,0.036884753963415166,0.01692103274953685
0.74,0.0018352433399294852,-0.7807063340001608,0.00046769153198192764,-2.359684019999855,0.00454464475981202,1.5658857800002144,0.7901546599998246,0.039999936800000004,0.0399999892,-9.770643000000875,0.05188310220651041,-0.11584381799522259,0.009050609899745108,0.03726444244241661,0.017044336199535274
0.7425,0.0018539527049292476,-0.7806636605001613,0.0004724865939818667,-2.3597223899998547,0.004594520644811386,1.565828885000215,0.7902012049998239,0.0399999356,0.0399999889,-9.770410500000878,0.05237806364706732,-0.11711138849520647,0.009118239424744249,0.03764413092141808,0.017167639649533706
0.745,0.001872662069929009,-0.7806209870001619,0.0004772816559818056,-2.3597607599998542,0.00464439652981075,1.565771990000216,0.7902477499998234,0.039999934400000006,0.0399999886,-9.770178000000882,0.05287302508762421,-0.11837895899519031,0.009185868949743386,0.038023819400419524,0.017290943099532136
0.7475,0.0018913714349287711,-0.7805783135001624,0.0004820767179817446,-2.3597991299998538,0.004694272414810116,1.5657150950002168,0.7902942949998228,0.039999933200000004,0.039999988300000004,-9.769945500000885,0.053367986528181116,-0.1196465294951742,0.009253498474742525,0.038403507879420984,0.017414246549530568
0.75,0.0019100807999285325,-0.780535640000163,0.00048687177998168346,-2.3598374999998533,0.00474414829980948,1.5656582000002175,0.7903408399998223,0.03999993200000001,0.039999988,-9.769713000000888,0.053862947968738,-0.12091409999515804,0.009321127999741663,0.038783196358422437,0.017537549999528994
0.7525000000000001,0.0019297091699247725,-0.7804909280001714,0.0004919024889807194,-2.3598777449998454,0.004796472604799463,1.565598470000229,0.7903896739998129,0.039999931700000005,0.039999987400000006,-9.76956435000057,0.05434774551354806,-0.12225655049485494,0.009390183499735338,0.03917113095373245,0.017663057999518977
0.755,0.0019493375399245222,-0.7804462160001719,0.0004969331979806553,-2.359917989999845,0.004848796909798795,1.5655387400002299,0.7904385079998122,0.0399999314,0.039999986800000005,-9.769415700000572,0.05483254305831928,-0.12359900099483781,0.009459238999734458,0.03955906554907396,0.017788565999517378
0.7575000000000001,0.0019689659099242727,-0.7804015040001725,0.0005019639069805912,-2.3599582349998447,0.00490112121479813,1.5654790100002305,0.7904873419998116,0.039999931100000004,0.039999986200000004,-9.769267050000574,0.05531734060309051,-0.12494145149482075,0.00952829449973358,0.039947000144415476,0.017914073999515785
0.76,0.0019885942799240225,-0.780356792000173,0.0005069946159805271,-2.359998479999844,0.004953445519797463,1.5654192800002313,0.790536175999811,0.03999993080000001,0.0399999856,-9.769118400000576,0.055802138147861724,-0.12628390199480363,0.0095973499997327,0.04033493473975698,0.018039581999514182
0.7625000000000001,0.002008222649923773,-0.7803120800001736,0.0005120253249804632,-2.3600387249998436,0.005005769824796798,1.565359550000232,0.7905850099998104,0.0399999305,0.039999985,-9.768969750000577,0.056286935692632954,-0.12762635249478657,0.009666405499731821,0.0407228693350985,0.01816508999951259
0.765,0.0020278510199235227,-0.7802673680001742,0.000517056033980399,-2.3600789699998432,0.00505809412979613,1.5652998200002328,0.7906338439998097,0.039999930200000006,0.03999998440000001,-9.76882110000058,0.05677173323740417,-0.12896880299476943,0.00973546099973094,0.041110803930440004,0.018290597999510987
0.7675000000000001,0.00204779172991961,-0.7802219570001829,0.0005221668029793962,-2.3601198299998356,0.005111250229785711,1.5652391500002445,0.7906834549998,0.039999930100000004,0.0399999843,-9.768674725000555,0.05726263653290298,-0.13033288149449876,0.00980497129972473,0.04150137118840457,0.018416672899502745
0.77,0.002068357119919348,-0.7801751480001836,0.0005274376919793289,-2.3601619199998347,0.005166069919785012,1.5651766000002454,0.7907346199997993,0.0399999304,0.0399999852,-9.768532900000556,0.057765751330071495,-0.1317402159944808,0.009875391199723832,0.04189720377170773,0.018543881599501124
0.7725,0.0020889225099190857,-0.7801283390001842,0.0005327085809792618,-2.3602040099998343,0.005220889609784313,1.565114050000246,0.7907857849997987,0.0399999307,0.039999986099999996,-9.768391075000558,0.05826886612724001,-0.13314755049446286,0.009945811099722934,0.042293036355010895,0.0186710902994995
0.775,0.0021094878999188245,-0.7800815300001848,0.0005379794699791947,-2.360246099999834,0.005275709299783616,1.565051500000247,0.790836949999798,0.039999931,0.039999986999999994,-9.76824925000056,0.05877198092440856,-0.13455488499444496,0.010016230999722039,0.04268886893831407,0.018798298999497882
0.7775,0.002130053289918562,-0.7800347210001853,0.0005432503589791276,-2.3602881899998334,0.005330528989782916,1.5649889500002476,0.7908881149997974,0.0399999313,0.0399999879,-9.768107425000562,0.059275095721577076,-0.13596221949442702,0.01008665089972114,0.04308470152161723,0.01892550769949626
0.78,0.002150618679918301,-0.779987912000186,0.0005485212479790606,-2.3603302799998325,0.00538534867978222,1.5649264000002485,0.7909392799997967,0.039999931600000004,0.0399999888,-9.767965600000563,0.059778210518745614,-0.13736955399440914,0.010157070799720246,0.04348053410492041,0.019052716399494643
0.7825,0.0021711840699180384,-0.7799411030001866,0.0005537921369789934,-2.360372369999832,0.005440168369781521,1.5648638500002492,0.7909904449997961,0.0399999319,0.039999989699999995,-9.767823775000565,0.06028132531591413,-0.13877688849439118,0.010227490699719347,0.04387636668822357,0.019179925099493022
0.785,0.002192385659913962,-0.7798928800001956,0.000559226153977948,-2.3604157499998237,0.005496683469770656,1.5647993500002617,0.791043189999786,0.039999932,0.03999999099999999,-9.76773825000023,0.06077654324275534,-0.14023716099405584,0.010298796749713138,0.04427762925463324,0.019308397699483823
0.7875,0.0022139053499136874,-0.7798439500001962,0.0005647417349778777,-2.3604597749998235,0.005554046274769925,1.5647338750002626,0.7910967249997852,0.039999932,0.03999999249999999,-9.76768087500023,0.06126781273436198,-0.14172390249403685,0.010370545874712223,0.04468160681264487,0.019437502249482177
0.79,0.002235425039913414,-0.7797950200001968,0.0005702573159778076,-2.360503799999823,0.005611409079769196,1.5646684000002635,0.7911502599997846,0.039999932,0.039999994,-9.76762350000023,0.06175908222596863,-0.14321064399401798,0.01044229499971131,0.04508558437065652,0.019566606799480538
0.7925,0.0022569447299131394,-0.7797460900001976,0.0005757728969777373,-2.360547824999822,0.005668771884768464,1.5646029250002642,0.7912037949997839,0.039999932,0.039999995499999996,-9.767566125000231,0.062250351717575265,-0.144697385493999,0.010514044124710395,0.045489561928668154,0.01969571134947889
0.795,0.0022784644199128658,-0.7796971600001982,0.0005812884779776671,-2.3605918499998215,0.005726134689767735,1.5645374500002651,0.7912573299997832,0.039999932,0.039999996999999995,-9.767508750000232,0.06274162120918192,-0.1461841269939801,0.010585793249709484,0.045893539486679805,0.01982481589947725
0.7975,0.0022999841099125913,-0.7796482300001988,0.0005868040589775968,-2.3606358749998213,0.005783497494767004,1.564471975000266,0.7913108649997825,0.039999932,0.039999998499999995,-9.767451375000233,0.06323289070078857,-0.14767086849396113,0.010657542374708569,0.046297517044691434,0.019953920449475603
0.8,0.0023215037999123177,-0.7795993000001994,0.0005923196399775267,-2.3606798999998206,0.005840860299766274,1.5644065000002667,0.7913643999997818,0.039999932,0.039999999999999994,-9.767394000000234,0.06372416019239521,-0.14915760999394223,0.010729291499707657,0.046701494602703085,0.020083024999473963
0.8025,0.0023439949949080724,-0.7795482250002087,0.0005980842689764384,-2.3607259649998116,0.00590081486475495,1.5643381300002794,0.7914203349997714,0.039999932,0.03999999925,-9.767166600000929,0.06430387049676457,-0.1506931329937239,0.010802465024700919,0.04711269903759967,0.020214409399462997
0.805,0.0023664861899077867,-0.7794971500002094,0.0006038488979763652,-2.3607720299998114,0.005960769429754187,1.5642697600002804,0.7914762699997706,0.039999932,0.0399999985,-9.766939200000932,0.0648835808014943,-0.1522286559937044,0.01087563854969999,0.04752390347252571,0.020345793799461328
0.8075,0.0023889773849075,-0.77944607500021,0.0006096135269762917,-2.3608180949998108,0.006020723994753422,1.5642013900002811,0.79153220499977,0.039999932,0.03999999775,-9.766711800000936,0.06546329110622401,-0.1537641789936848,0.010948812074699056,0.047935107907451736,0.02047717819945965
0.81,0.0024114685799072138,-0.7793950000002107,0.0006153781559762184,-2.36086415999981,0.006080678559752661,1.564133020000282,0.7915881399997692,0.039999932,0.039999997,-9.76648440000094,0.06604300141095373,-0.15529970199366527,0.011021985599698126,0.04834631234237778,0.02060856259945798
0.8125,0.002433959774906927,-0.7793439250002113,0.0006211427849761448,-2.3609102249998095,0.006140633124751896,1.5640646500002828,0.7916440749997685,0.039999932,0.03999999625,-9.766257000000941,0.06662271171568344,-0.1568352249936457,0.011095159124697194,0.048757516777303805,0.020739946999456305
0.8150000000000001,0.0024564509699066413,-0.779292850000212,0.0006269074139760715,-2.360956289999809,0.006200587689751134,1.5639962800002838,0.7917000099997678,0.039999932,0.0399999955,-9.766029600000945,0.06720242202041317,-0.1583707479936262,0.011168332649696263,0.04916872121222985,0.020871331399454632
0.8175,0.0024792715749022394,-0.7792410350002219,0.0006327564869749432,-2.3610029849998004,0.006261418679739422,1.563926900000297,0.7917567699997567,0.039999932,0.03999999525,-9.765832950000563,0.06777569800381975,-0.15993310349327144,0.011241951499689767,0.0495824560505595,0.021003081149448394
0.8200000000000001,0.0025027509999019414,-0.7791877400002226,0.0006387744479748667,-2.3610509399998,0.006324002519738627,1.563855500000298,0.791815179999756,0.039999932,0.039999996,-9.765697800000565,0.06833610534433919,-0.1615491239932509,0.01131646099968882,0.05000125169579115,0.02113556159944671
0.8225,0.0025262304249016416,-0.7791344450002232,0.00064479240897479,-2.3610988949997993,0.006386586359737828,1.563784100000299,0.7918735899997553,0.039999932,0.03999999675,-9.765562650000566,0.06889651268485861,-0.16316514449323027,0.01139097049968787,0.05042004734102279,0.021268042049445022
0.8250000000000001,0.0025497098499013436,-0.7790811500002239,0.0006508103699747134,-2.3611468499997987,0.006449170199737032,1.5637127000003,0.7919319999997545,0.039999932,0.0399999975,-9.765427500000568,0.06945692002537807,-0.16478116499320974,0.011465479999686922,0.05083884298625444,0.02140052249944334
0.8275,0.002573189274901044,-0.7790278550002246,0.0006568283309746367,-2.361194804999798,0.006511754039736234,1.5636413000003009,0.7919904099997538,0.039999932,0.03999999825,-9.76529235000057,0.07001732736589748,-0.16639718549318913,0.011539989499685974,0.05125763863148607,0.02153300294944165
