rsonawane2002/My_IMU/logs_2/traj_269/clean_269.csv
time,j1,j2,j3,j4,j5,j6,j7,gripper1,gripper2,imu_ax,imu_ay,imu_az,imu_gx,imu_gy,imu_gz,quat_x,quat_y,quat_z,quat_w
199.93333333338458,0.00016700293,-0.785875,4.0107683e-05,-2.3551247,9.29385e-05,1.570997,0.786,0.04,0.04,0.0,-0.0,0.0,2.875329272945135e-08,-0.0011641195053377316,4.421952117202833e-08,0.9999995971961153,0.00020320632366974898,0.0008736418299892524,3.263050917662294e-05
199.95000000005126,0.00016700364,-0.78576016,4.0113064e-05,-2.3552213,9.297982e-05,1.5709941,0.786,0.04,0.04,-0.29199845961809245,-3.542587058556106e-05,0.02012840859089149,-3.0497320477496054e-07,-0.0022383913028694745,4.8169621570538e-07,0.9999996850583389,0.00020320880773718134,0.0007665025174829873,3.2608193300089175e-05
199.96666666671794,0.00016699031,-0.78565425,4.0107323e-05,-2.35531,9.305843e-05,1.5709913,0.786,0.04,0.04,0.023262852897598663,6.876954994718999e-07,-0.0016365739081924957,-2.2686854938787367e-06,-0.0032297270458200786,3.2584157941848737e-06,0.9999997558619714,0.0002032218551696282,0.0006677674400814581,3.26116702023496e-05
199.98333333338462,0.00016693921,-0.7855568,4.0072973e-05,-2.355391,9.323996e-05,1.5709884,0.786,0.04,0.04,0.022328999552545525,-1.3211374645639117e-06,-0.001457229333601262,-7.580504645874499e-06,-0.004146708288045762,1.0526278353833498e-05,0.9999998122979055,0.0002032635258732795,0.0005770789579799587,3.267979767419335e-05
200.0000000000513,0.000166816,-0.7854669,3.9984898e-05,-2.3554652,9.361863e-05,1.5709856,0.786,0.04,0.04,0.020123700034146985,-3.869044955999521e-06,-0.0012560979810283257,-1.805839297019601e-05,-0.004994004037417138,2.422682112666946e-05,0.9999998569457362,0.00020335990180984323,0.000493632389559814,3.2868244511970124e-05
200.01666666671798,0.00016657695,-0.7853839,3.9811035e-05,-2.355532,9.431395e-05,1.5709858,0.7859981,0.04,0.04,0.02112625499339771,-7.205056329638365e-06,0.0016827210045367025,-3.588690801563775e-05,-0.005780843594367309,4.6108135752354324e-05,0.999999891204683,0.0002025905683780359,0.0004188582524860442,3.3248277426683166e-05
200.03333333338466,0.00016616963,-0.7853074,3.9513237e-05,-2.3555954,9.546806e-05,1.5709864,0.7859962,0.04,0.04,0.013036118652354212,-9.191586951328226e-06,-0.001993363383157032,-5.346292017325639e-05,-0.006496172168448962,7.774544557454172e-05,0.9999999180597519,0.0002019490195668723,0.00034921001001826733,3.39035702770322e-05
200.05000000005134,0.00016553396,-0.7852366,3.904775e-05,-2.3556535,9.724469e-05,1.5709872,0.7859943,0.04,0.04,0.015251254802661762,-1.3413050069948935e-05,-0.0007154816982879453,-8.2182335788948e-05,-0.007173255841119495,0.0001205368503680001,0.9999999384417536,0.0002014807538278938,0.0002851346625549242,3.493163420326324e-05
200.06666666671802,0.00016460293,-0.78517085,3.836592e-05,-2.355705,9.982415e-05,1.5709882,0.7859905,0.04,0.04,0.016985042877371015,-1.642524490008657e-05,0.00018049389243213199,-0.00012336626672054124,-0.007810631085117242,0.00017574120943295073,0.9999999535172747,0.00020028282029454998,0.000226989835489527,3.643974383223642e-05
200.0833333333847,0.00016330357,-0.7851096,3.741466e-05,-2.3557546,0.00010340371,1.5709926,0.78598475,0.04,0.04,0.009280272663136913,-1.9831770996106904e-05,0.0008760810942698427,-0.0001704478213196648,-0.008404602913179939,0.0002444776205427614,0.9999999644770698,0.00019841076266622365,0.0001737622164589386,3.8545045255512456e-05
200.10000000005138,0.00016155737,-0.7850523,3.6136957e-05,-2.355798,0.00010819482,1.5709974,0.78597826,0.04,0.04,0.015062798498499674,-2.3443922675484572e-05,0.0007630740199715547,-0.00022570033861851266,-0.008968098683491561,0.00032773584113276197,0.999999971925918,0.00019649014283999586,0.0001258093794274987,4.1373747533488315e-05
200.11666666671806,0.00015928107,-0.7849985,3.44726e-05,-2.35584,0.000114421935,1.5710056,0.7859695,0.04,0.04,0.007348452735911337,-2.726498407914753e-05,0.0012440943583325037,-0.0002958332094078663,-0.00949732817916609,0.0004263845740658359,0.9999999768336895,0.00019383915504061163,8.202864097796906e-05,4.505890045828058e-05
200.13333333338474,0.0001563873,-0.7849476,3.2357937e-05,-2.355876,0.00012232123,1.5710142,0.78595805,0.04,0.04,0.013470553187899803,-3.16532213464585e-05,0.0012716441737614659,-0.0003760972055290193,-0.010006450279174796,0.0005411859458590701,0.9999999797341519,0.00019031529368318523,4.286703042202411e-05,4.974135518310537e-05
200.15000000005142,0.00015278495,-0.7848992,2.9726965e-05,-2.3559105,0.00013213359,1.5710266,0.7859447,0.04,0.04,0.006406542480719146,-3.222041259291872e-05,0.002056102112968361,-0.00046671823316319966,-0.010488999633397387,0.0006719629112813787,0.9999999810596885,0.00018637526304595846,7.579469294914272e-06,5.556469856303678e-05
200.1666666667181,0.00014837984,-0.78485304,2.6511458e-05,-2.3559408,0.0001441209,1.5710427,0.7859278,0.04,0.04,0.010966353821029173,-4.2789664577618305e-05,0.003387443492308684,-0.0005729077705036248,-0.01095660474093614,0.0008218291639105958,0.9999999813534963,0.0001812559066963129,-2.2582284597974343e-05,6.268447702983669e-05
200.18333333338478,0.00014307519,-0.7848084,2.26411e-05,-2.3559685,0.0001585385,1.5710616,0.7859076,0.04,0.04,0.007009081276576623,-4.257095575683784e-05,0.0024577975516804074,-0.0006894900140274865,-0.011397195443583006,0.0009887161388989645,0.999999980899193,0.00017520955285553618,-4.925732127391987e-05,7.1252667541131e-05
200.20000000005146,0.00013677157,-0.784765,1.804386e-05,-2.3559952,0.00017566414,1.5710838,0.7858837,0.04,0.039999995,0.00402267461081518,-5.4155083904186725e-05,0.002111688104577958,-0.0008195536128106533,-0.011827586557742412,0.0011746640493738476,0.9999999798843789,0.00016804349707972056,-7.32204067883865e-05,8.143338787722741e-05
200.21666666671814,0.00012936823,-0.7847224,1.2646836e-05,-2.3560174,0.00019574299,1.5711104,0.7858557,0.04,0.04,0.009949764767891445,-3.937505914996067e-05,0.004876374955831153,-0.0009629325796642615,-0.012257078648148017,0.0013768236528948988,0.9999999786335777,0.0001596552693832094,-9.232563537492651e-05,9.337567279540384e-05
200.23333333338482,0.00012076239,-0.78468025,6.3753296e-06,-2.3560374,0.00021907163,1.5711414,0.7858229,0.04,0.04,0.005568870034911022,-5.781060068721106e-05,0.003976210351575027,-0.0011197578752057393,-0.012665238929630422,0.0016004083860446923,0.999999977206297,0.0001497952972929858,-0.00010791391205982845,0.0001072537267572148
200.2500000000515,0.000110850415,-0.78463817,-8.4581615e-07,-2.3560565,0.00024591965,1.5711766,0.78578544,0.04,0.04,0.003044226714710163,-5.466516878379485e-05,0.0035889636616603937,-0.0012890940548605833,-0.01306742390692586,0.0018414208972413024,0.9999999755039513,0.00013857226111661168,-0.00012084927225027725,0.00012322856305212515
200.26666666671818,9.9527504e-05,-0.7845958,-9.092504e-06,-2.3560727,0.00027657437,1.5712166,0.7857425,0.039999995,0.039999995,0.006003132714726966,-6.263227225254513e-05,0.004915148470829855,-0.001473047130270304,-0.013471997788805574,0.0021034353461647282,0.9999999736186206,0.00012570815155569408,-0.00013017769720649174,0.00014147079564781978
200.28333333338486,8.668837e-05,-0.78455275,-1.8441213e-05,-2.356086,0.00031131683,1.5712626,0.78569376,0.039999995,0.04,0.006060819882169888,-6.430492647075347e-05,0.006184512696560951,-0.0016699089869179652,-0.013871484206259672,0.002383123191687114,0.999999971523767,0.00011107468470664616,-0.0001353623249629482,0.000162147836327718
200.30000000005154,7.222714e-05,-0.7845089,-2.8968698e-05,-2.356098,0.00035043282,1.5713143,0.78563887,0.03999999,0.039999995,0.003319441669136225,-6.83090460799245e-05,0.0053771159546966985,-0.0018801773739261336,-0.014261444059625924,0.0026831262123163183,0.9999999688956165,9.460364430334284e-05,-0.00013738612143604492,0.00018542915090700928
200.31666666671822,5.603784e-05,-0.7844637,-4.075176e-05,-2.3561094,0.0003942067,1.5713724,0.7855776,0.039999988,0.03999999,0.0013607913460056409,-7.094864706175827e-05,0.005662831832053961,-0.0021040972592488547,-0.014653345056454518,0.0030026134785925444,0.9999999653910231,7.625688794424887e-05,-0.00013666570449631814,0.00021148362776848414
200.3333333333849,3.8014496e-05,-0.7844169,-5.3867177e-05,-2.3561182,0.0004429229,1.571437,0.7855093,0.039999984,0.039999988,0.004753442318561341,-7.330789256403776e-05,0.00697383295431564,-0.0023422108401644657,-0.015051183586460244,0.003341559383742816,0.9999999607957358,5.578744625432092e-05,-0.00013215720810675477,0.00024048026957183144
200.35000000005158,1.8051433e-05,-0.7843683,-6.839162e-05,-2.3561249,0.00049686566,1.5715088,0.78543365,0.03999998,0.039999984,0.003868994000377768,-7.56015083580087e-05,0.007339112059878694,-0.002593698368131784,-0.015447482910222299,0.0036999072331936594,0.9999999546212889,3.312735935192426e-05,-0.00012391934093035264,0.000272587591543495
200.36666666671826,-3.9568026e-06,-0.78431743,-8.4401596e-05,-2.3561296,0.0005563186,1.571588,0.78535026,0.039999977,0.039999977,0.0031825085454961766,-7.758294049971075e-05,0.007701130610615614,-0.0028585705162091943,-0.0158424887736173,0.004078431672843158,0.9999999462630436,8.149025503768842e-06,-0.00011207024268449472,0.0003079736420818599
200.38333333338494,-2.8114948e-05,-0.78426427,-0.00010197319,-2.3561337,0.00062156195,1.571675,0.7852587,0.039999973,0.039999973,0.0010637238198274446,-7.811360380182981e-05,0.0073216502794570815,-0.003136587981192171,-0.016239603448975213,0.004475302377165974,0.9999999349531558,-1.927542615400316e-05,-9.72047103020064e-05,0.00034680453665238977
200.40000000005162,-5.4527143e-05,-0.7842084,-0.00012118178,-2.3561373,0.0006928763,1.57177,0.7851587,0.039999966,0.039999966,0.00041515753974596947,-7.997722042891228e-05,0.007772123451821322,-0.0034280558656544402,-0.016644096038358182,0.0048912308009208426,0.999999919881972,-4.9214625843959684e-05,-7.938092387406181e-05,0.00038924624475558336
200.4166666667183,-8.3296705e-05,-0.7841496,-0.00014210236,-2.3561378,0.0007705391,1.5718732,0.7850498,0.03999996,0.03999996,0.0045815803507043285,-7.981336795547726e-05,0.009209411642485676,-0.003732754802183098,-0.017058114215413284,0.0053260364468163904,0.9999999001947737,-8.179767448171972e-05,-5.737533156791121e-05,0.00043546257505824127
200.43333333338498,-0.00011452601,-0.7840877,-0.0001648091,-2.3561368,0.00085482537,1.5719856,0.7849315,0.039999958,0.039999958,0.0019832658737284348,-7.980084247223877e-05,0.00920352326609919,-0.004050739779933674,-0.01747154627956209,0.005779524194104327,0.9999998747207468,-0.00011721307951225116,-3.157344258464275e-05,0.0004856157972336119
200.45000000005166,-0.00014831642,-0.78402245,-0.00018937576,-2.3561344,0.0009460075,1.5721071,0.78480357,0.03999995,0.03999995,0.0015518274617321026,-7.903512613356353e-05,0.009317132439168319,-0.0043809829239879975,-0.017889038954967657,0.006251482802950221,0.9999998421839024,-0.00015547133079359663,-2.21158234047681e-06,0.0005398665990587483
200.46666666671834,-0.00018476821,-0.7839535,-0.00021587496,-2.3561308,0.0010443545,1.5722384,0.7846656,0.039999947,0.039999947,0.0010833963368428456,-7.736194315135971e-05,0.010000415811250996,-0.004724357498435531,-0.018313007005633316,0.0067416736996013076,0.9999998011466769,-0.00019673234384910023,3.0861692929905575e-05,0.0005983732510976553
200.48333333338502,-0.0002239803,-0.7838806,-0.00024437852,-2.356127,0.001150132,1.5723796,0.7845172,0.039999943,0.039999943,-0.0008367686407773078,-7.58323090784387e-05,0.009617272111284159,-0.005080134036550921,-0.018743935953541443,0.007249854157291176,0.9999997500454386,-0.00024106737369356573,6.699340901048497e-05,0.0006612922687234212
200.5000000000517,-0.0002660504,-0.78380376,-0.00027495733,-2.356121,0.0012636026,1.572531,0.784358,0.03999994,0.03999994,0.0025589671791559354,-7.222980469642629e-05,0.010831414124212735,-0.005448661810997677,-0.019186770842785666,0.007775728306750697,0.9999996870208525,-0.00028863831635078186,0.00010737870309934407,0.0007287770121729379
200.51666666671838,-0.00031107466,-0.78372234,-0.0003076812,-2.3561132,0.0013850258,1.5726931,0.7841877,0.039999936,0.039999936,0.0015822687412292424,-6.9230615961952e-05,0.011450372795529518,-0.005828930637711031,-0.019634661569958495,0.00831901939147913,0.9999996100563532,-0.00033951779320788713,0.00015181228004475716,0.0008009793014773686
200.53333333338506,-0.00035914814,-0.78363657,-0.00034261897,-2.356104,0.0015146554,1.5728662,0.7840059,0.039999936,0.039999936,0.0011147124253652052,-6.425991008691999e-05,0.011278966173233762,-0.006221024830551247,-0.020087793094541465,0.008879429189017043,0.9999995169254836,-0.00039377932125593795,0.0002002978047953748,0.0008780475128806142
200.55000000005174,-0.00041036404,-0.78354603,-0.00037983857,-2.3560932,0.0016527433,1.5730506,0.7838121,0.039999932,0.03999993,0.0007699006941974673,-5.9445919356362724e-05,0.011781564715618309,-0.006625038325013964,-0.020548256718494716,0.009457493995715237,0.999999405141615,-0.000451616286455603,0.00025280961982710023,0.00096012834675955
200.56666666671842,-0.0004648143,-0.7834507,-0.00041940642,-2.3560817,0.0017995344,1.5732466,0.78360605,0.039999932,0.039999932,-0.00036642529031016835,-5.276864494211265e-05,0.011637328403124592,-0.007039958377829684,-0.021015816789881014,0.010050325431595532,0.9999992721001358,-0.000513103661984605,0.00030911375150731045,0.0010473645588604888
200.5833333333851,-0.00052258885,-0.78334993,-0.000461388,-2.35607,0.0019552722,1.5734545,0.78338754,0.039999936,0.039999936,-0.0018518702111780527,-4.7081946228625e-05,0.012093258258594197,-0.007465874630954469,-0.021494188170841543,0.010660171231991367,0.9999991151193995,-0.0005782573274720895,0.0003687977550970681,0.0011398978448755048
200.60000000005178,-0.0005837764,-0.7832442,-0.0005058477,-2.3560562,0.0021201945,1.5736749,0.7831561,0.039999943,0.039999943,0.0021793480716070235,-3.665132244098186e-05,0.013093953595588737,-0.007903172872475496,-0.02198866942713412,0.011285785042572742,0.9999989304713736,-0.0006472442201081624,0.00043338692448147424,0.0012378638060664016
200.61666666671846,-0.00064846384,-0.7831332,-0.0005528484,-2.3560407,0.0022945348,1.5739079,0.78291166,0.039999943,0.03999994,0.0010439525372163416,-2.8145637190031894e-05,0.013047995450898853,-0.008350582602083118,-0.022484998107039945,0.011927697112498914,0.9999987148567088,-0.0007200226902064813,0.0005024994121220469,0.001341397255601557
200.63333333338514,-0.0007167361,-0.7830165,-0.0006024519,-2.3560238,0.0024785202,1.5741538,0.78265345,0.03999995,0.03999995,0.0002671994893344021,-1.6515916346658208e-05,0.013565601586451592,-0.008809561835337489,-0.022988023135341422,0.012582951113900852,0.9999984644040212,-0.0007969092951120674,0.0005760225277409241,0.001450628561215856
200.65000000005182,-0.0007886768,-0.782894,-0.0006547191,-2.3560052,0.0026723759,1.5744128,0.7823814,0.039999958,0.039999954,0.0006506112676607501,-5.1528662637582295e-06,0.013796056727422013,-0.009277476264109068,-0.02350031377923313,0.013254626395282378,0.9999981750576504,-0.0008778641226535107,0.0006541118429698495,0.0015656863183976235
200.6666666667185,-0.0008643673,-0.7827658,-0.00070970884,-2.355986,0.0028763216,1.5746853,0.78209525,0.03999997,0.039999966,-0.0011906447833665013,5.191804440269482e-06,0.013491591740399933,-0.009755214948880833,-0.024018897152976566,0.013939784548913148,0.9999978427397785,-0.0009629669680916339,0.0007363871482554235,0.0016866962902265584
200.68333333338518,-0.00094388745,-0.78263146,-0.000767479,-2.355966,0.0030905702,1.5749718,0.78179455,0.039999977,0.039999973,-0.0006839645883660594,2.1220169697192676e-05,0.014297772618854232,-0.010242630667088727,-0.024550117908160946,0.01463886900042366,0.9999974626043764,-0.0010523582016981235,0.000823124523367168,0.0018137786643031921
200.70000000005186,-0.0010273152,-0.7824909,-0.00082808646,-2.355944,0.0033153323,1.575272,0.7814791,0.039999984,0.03999998,0.0012095266404443805,3.679574523570133e-05,0.014692258881909837,-0.010738728124865732,-0.025090855382122225,0.01535150461423962,0.9999970293529565,-0.0011460612409244077,0.0009147792177121466,0.0019470510720630456
200.71666666671854,-0.0011147265,-0.78234357,-0.0008915864,-2.3559203,0.003550812,1.5755866,0.7811487,0.039999988,0.039999984,-0.00043325440355346245,5.421141773163333e-05,0.015239471519512549,-0.011243847398974027,-0.025639304014894317,0.016077286091387383,0.9999965378976275,-0.0012441574280100702,0.0010110620907793388,0.0020866285011131545
200.73333333338522,-0.0012061963,-0.78218985,-0.00095803256,-2.3558953,0.0037972091,1.5759159,0.7808029,0.03999999,0.039999988,0.00015219010751632567,7.205424134965575e-05,0.015270621815255403,-0.011757839463354413,-0.026197018915835885,0.016815806887656694,0.9999959821676083,-0.0013467304998524884,0.0011123700485060266,0.002232621435989332
200.7500000000519,-0.0013017965,-0.7820296,-0.0010274784,-2.3558688,0.0040547187,1.5762602,0.78044146,0.03999999,0.039999988,6.706449535709424e-05,9.211173932876637e-05,0.015427279038848773,-0.012279968153148474,-0.02676211808253899,0.01756667826822915,0.9999953560124041,-0.0014538944774096158,0.0012187132545422956,0.0023851378318509686
200.76666666671858,-0.0014015976,-0.7818624,-0.0010999741,-2.355842,0.0043235277,1.5766195,0.78006434,0.03999999,0.039999988,-0.00251032802784934,0.00011076258470703228,0.015281071783546096,-0.012809490677306632,-0.02733426728715254,0.01832952494624771,0.9999946542535812,-0.0015655844758674872,0.0013292974077735071,0.002544283378675129
200.78333333338526,-0.0015056687,-0.7816884,-0.0011755703,-2.3558135,0.0046038246,1.5769941,0.7796709,0.039999988,0.03999998,0.0007471798350033865,0.00013485656195318715,0.016044576657670007,-0.013347598445363236,-0.027923363018746507,0.019104729591743475,0.9999938684766887,-0.0016820666245770308,0.001445236998879338,0.002710156990739472
200.80000000005194,-0.0016140759,-0.7815073,-0.0012543143,-2.3557835,0.004895786,1.5773844,0.7792612,0.039999988,0.03999998,-0.00029903209148862686,0.00015916553830204287,0.016386726641215432,-0.013892189909895335,-0.028516655540598432,0.01989019266318274,0.9999929919481741,-0.001803248467692244,0.0015663647709247672,0.0028828546454870213
200.81666666671862,-0.0017268844,-0.7813192,-0.0013362545,-2.3557518,0.0051995865,1.5777907,0.7788348,0.03999999,0.039999984,0.0002987466801940286,0.00018751377369005846,0.016727618489964513,-0.014443919298126998,-0.029118948387719945,0.020686344864475875,0.9999920164523465,-0.001929246785337851,0.0016930213179371348,0.0030624691391770644
200.8333333333853,-0.0018441572,-0.78112376,-0.001421436,-2.3557186,0.0055153943,1.5782129,0.77839166,0.039999995,0.03999999,-0.0005408745687329741,0.00021249224560941984,0.0165226921132966,-0.01500260030217092,-0.029726685137816178,0.021491924207640938,0.9999909347769423,-0.0020600908239845283,0.0018247728104968746,0.0032490912459139883
200.85000000005198,-0.0019659551,-0.78092086,-0.0015099033,-2.3556843,0.0058433767,1.5786512,0.77793133,0.03999999,0.03999999,-0.0009150270495306145,0.0002392060857774915,0.016837649393752763,-0.015567459288403893,-0.030345015755931924,0.022307382284517854,0.9999897383756621,-0.002195898641783123,0.001961693051840314,0.0034428088678303166
200.86666666671866,-0.0020923384,-0.78071064,-0.0016016999,-2.355649,0.00618369,1.5791063,0.77745366,0.039999995,0.039999988,-0.0009849817743434741,0.00027431840141103024,0.01710640807925934,-0.016138337338771753,-0.030971971709604668,0.023134862817369754,0.9999884180871212,-0.0023366990016036844,0.0021040350783388946,0.0036437022081966452
200.88333333338534,-0.0022233624,-0.78049284,-0.0016968668,-2.3556118,0.006536489,1.579578,0.77695847,0.04,0.03999999,0.0003115970002021129,0.00030487820422433164,0.017495843993375892,-0.016714474457334372,-0.031608870907575394,0.023969625826989742,0.9999869642068165,-0.0024825253961057734,0.002252052636410138,0.003851849298115438
200.90000000005202,-0.002359084,-0.7802674,-0.0017954445,-2.355573,0.0069019226,1.5800666,0.77644557,0.04,0.04,-7.01281742676585e-05,0.00034011845727360997,0.01759977116824185,-0.017295986352595646,-0.0322517865119449,0.024811224058718134,0.999985367131131,-0.0026334083578174725,0.0024057319796487666,0.004067325617690354
200.9166666667187,-0.0024995566,-0.780034,-0.0018974721,-2.3555326,0.007280131,1.5805722,0.7759148,0.04,0.04,-0.0007456033018993224,0.00037973855112698705,0.017960390241045232,-0.017882359363813743,-0.032901545067333476,0.02566355268415748,0.9999836170972222,-0.002789378867497788,0.0025649706720248496,0.00429020141032714
200.93333333338538,-0.002644831,-0.77979267,-0.0020029864,-2.3554912,0.00767126,1.581095,0.7753658,0.04,0.04,-0.0011084226240853923,0.0004077510809543869,0.017730725473241726,-0.018474004160922083,-0.03356059306225679,0.02652205462102638,0.9999817038743832,-0.0029505304025413148,0.002729637525109889,0.004520549281921118
200.95000000005206,-0.002794958,-0.77954346,-0.0021120242,-2.3554492,0.008075436,1.5816355,0.7747985,0.04,0.039999995,-0.002016066247145787,0.00045428764974858767,0.01790506856980123,-0.01906979230781356,-0.03423017336546391,0.02739079689264974,0.9999796165861318,-0.003116893727107405,0.002899780641563353,0.004758430200980654
200.96666666671874,-0.0029499838,-0.7792864,-0.0022246207,-2.3554046,0.008492802,1.5821937,0.7742127,0.04,0.04,0.001659472188464406,0.0004919309364671831,0.018878449132953,-0.01966907290900509,-0.03491040772400044,0.028262981656456996,0.9999773407687639,-0.0032884776725494533,0.0030764918579036446,0.005003904623079062
200.98333333338542,-0.0031099562,-0.77902097,-0.0023408078,-2.3553584,0.008923477,1.5827699,0.7736083,0.04,0.039999995,-0.0004427672896323287,0.0005372243240553583,0.018804661444393744,-0.020272487158499553,-0.03559123682022081,0.02914372336404222,0.9999748664226117,-0.0034652845777104254,0.003259135201793754,0.0052570299230635924
201.0000000000521,-0.0032749188,-0.77874744,-0.0024606185,-2.3553107,0.009367564,1.5833635,0.77298504,0.04,0.04,-0.0006800398052675405,0.0005878496066159464,0.018296811057649798,-0.020879209997564003,-0.03628039912935047,0.03002882592210279,0.9999721816400231,-0.0036474111749895035,0.00344755274240651,0.005517854465393396
201.01666666671878,-0.0034449128,-0.7784656,-0.0025840842,-2.3552618,0.009825202,1.5839753,0.7723428,0.04,0.04,-0.0010761542988735329,0.0006188234129903686,0.018733093162892622,-0.02148905150349488,-0.03697895041262501,0.030922345934372722,0.9999692735632201,-0.003834832140955216,0.0036418550747822622,0.005786439623036498
201.03333333338546,-0.0036199805,-0.7781756,-0.002711233,-2.3552122,0.010296454,1.5846052,0.7716814,0.04,0.04,-0.0018044715238030307,0.0006979108437259879,0.018483051271300788,-0.022101501707915076,-0.037685202648677044,0.031816444537975205,0.9999661299492731,-0.004027583609248397,0.003841855571916608,0.0060628104298556
201.05000000005214,-0.0038001589,-0.77787685,-0.0028420938,-2.35516,0.010781472,1.5852535,0.7710006,0.04,0.04,0.0010139485495219702,0.0007253590600968772,0.019796521968107328,-0.022716403047844596,-0.03840305509242698,0.03271960822105889,0.9999627335776263,-0.004225765049842973,0.004048412228335589,0.006347024825383138
201.06666666671882,-0.0039854855,-0.7775699,-0.0029766934,-2.3551064,0.011280325,1.5859206,0.7703007,0.04,0.04,-0.0003117644390648877,0.000796679015740466,0.019340483682972476,-0.023332713982142594,-0.03912460669046854,0.03362468582805369,0.9999590716054066,-0.00442917359367823,0.004261427957976552,0.006639108907786492
201.0833333333855,-0.0041759955,-0.7772542,-0.0031150568,-2.3550513,0.011793113,1.5866063,0.76958066,0.04,0.04,-0.0009015377968157878,0.0008458080528649103,0.01943290428374489,-0.023952155823926014,-0.039850267915991285,0.03453457439740023,0.9999551290553522,-0.0046382349176202564,0.004480572304363563,0.006939101135483131
201.10000000005218,-0.0043717213,-0.7769299,-0.003257209,-2.354995,0.012319932,1.5873107,0.76884156,0.04,0.04,-0.0011816911025697152,0.0008968550109348522,0.019379660756957406,-0.024570370593912056,-0.04058550681568102,0.03544799245453442,0.9999508937010778,-0.004852391485919685,0.004705836799798109,0.007247039622951787
201.11666666671886,-0.004572696,-0.77659714,-0.0034031721,-2.3549378,0.012860866,1.5880344,0.76808256,0.04,0.04,-0.0011729607361399275,0.0009587075675457357,0.019612702272442384,-0.025192629245372307,-0.04132949233512996,0.0363645221471417,0.9999463472929572,-0.005072008211444872,0.0049375180072335845,0.00756294810929509
201.13333333338554,-0.0047789463,-0.7762555,-0.0035529663,-2.354878,0.013415987,1.5887772,0.7673034,0.04,0.04,0.0011563619731758124,0.001032195496628377,0.020431387467279016,-0.02581495324137874,-0.04207920368932932,0.03728363324598869,0.9999414709604163,-0.005297161091623084,0.005176149665524965,0.00788683792964023
201.15000000005222,-0.0049905013,-0.77590525,-0.003706613,-2.3548164,0.013985373,1.5895386,0.76650417,0.04,0.04,-0.0002684157284438271,0.0010816398661786172,0.019475824909598316,-0.026436818011064844,-0.042831951456998966,0.038205125270194165,0.9999362513319398,-0.005527771439794744,0.005421192505292754,0.008218739986030165
201.1666666667189,-0.005207387,-0.77554613,-0.0038641316,-2.3547537,0.014569094,1.590319,0.7656848,0.04,0.04,-0.001239580993450673,0.0011485019200003013,0.01978058811387129,-0.027058209712959278,-0.04359178528101395,0.039128460448135484,0.999930672594035,-0.0057638170500621125,0.005672525567477044,0.00855867234682463
201.18333333338558,-0.005429627,-0.77517825,-0.0040255385,-2.3546896,0.015167222,1.5911188,0.7648452,0.04,0.04,-0.0005954609525460342,0.0012130009168539145,0.019998910452878604,-0.02767922766221911,-0.04436079623516691,0.0400541018421733,0.9999247160127606,-0.0060052808980525126,0.005930475660837534,0.008906647324991437
201.20000000005226,-0.0056572454,-0.77480155,-0.004190852,-2.354624,0.015779812,1.591938,0.76398534,0.04,0.04,-0.0005979966046343321,0.001291234496128904,0.02012081865940818,-0.028299605742334245,-0.045136576200855844,0.04097991454865549,0.9999183638270678,-0.0062521438366471855,0.006195102079735247,0.009262671810402957
201.21666666671894,-0.0058902614,-0.77441585,-0.004360087,-2.3545563,0.016406931,1.5927767,0.76310515,0.04,0.04,0.0004509324321944064,0.0013584579999424001,0.020548396363451182,-0.02891953026486087,-0.04591702666122788,0.04190719998230027,0.9999115962216316,-0.0065043915662561305,0.006466703330184239,0.009626753341651766
201.23333333338562,-0.006128696,-0.7740211,-0.004533255,-2.3544872,0.01704862,1.5936347,0.7622045,0.04,0.04,-0.0008132689871542809,0.001431961241925208,0.020255285624570796,-0.029538123080654476,-0.046703154618286086,0.04283385604046094,0.9999043969421727,-0.006762035558281056,0.0067449232066539066,0.00999889302646518
201.2500000000523,-0.0063725654,-0.77361745,-0.004710371,-2.3544164,0.017704917,1.5945125,0.7612834,0.04,0.04,-9.815178250160983e-05,0.0015207024669294973,0.0204397619857577,-0.030155217675520256,-0.047495541423530074,0.04376116198512134,0.9998967449625593,-0.007025059939328468,0.0070301211484627545,0.010379081980865517
201.26666666671898,-0.006621886,-0.7732048,-0.004891446,-2.3543448,0.018375868,1.5954098,0.7603416,0.04,0.04,-0.0018767176394929308,0.0015837075360828137,0.019981913115141303,-0.030770552742421752,-0.048292931507871575,0.044687181867794266,0.9998886246338271,-0.007293506060183734,0.007321734295328552,0.010767325765123152
201.28333333338566,-0.0068766717,-0.7727831,-0.005076491,-2.354271,0.019061526,1.5963266,0.75937927,0.04,0.04,0.000942760924527164,0.001669894232042557,0.020778893648709662,-0.03138337843868121,-0.0490996609591207,0.04561344534432048,0.9998800113206796,-0.0075672452475224646,0.007620599170383171,0.011163611826193309
201.30000000005234,-0.0071369344,-0.77235234,-0.005265513,-2.354195,0.019761907,1.5972633,0.7583962,0.04,0.04,0.00027282161809694117,0.0017631783642800547,0.02082509747347583,-0.03199404175693643,-0.04990902742056544,0.04653705391200849,0.9998708844802037,-0.007846350128617454,0.007926690755136368,0.011567918227005938
201.31666666671902,-0.0074026836,-0.7719125,-0.0054585217,-2.3541179,0.020477042,1.5982198,0.7573924,0.04,0.04,-0.00059247158818998,0.0018360314709430642,0.02042951425529349,-0.03260177897330288,-0.05072041852822205,0.04745985143895422,0.9998612263400015,-0.008130776825628901,0.008239685702380529,0.011980238295040758
201.3333333333857,-0.0076739294,-0.7714636,-0.005655522,-2.3540394,0.021206953,1.5991957,0.7563678,0.04,0.04,-0.0010783542504944066,0.001917634322099078,0.02026460035855493,-0.03320601715401086,-0.051540026628531556,0.04837970039288156,0.9998510177461641,-0.008420511422460749,0.00855941059069816,0.01240055602318151
201.35000000005238,-0.007950681,-0.7710056,-0.0058565205,-2.3539603,0.021951675,1.6001915,0.7553224,0.04,0.04,-0.0017201960024415541,0.0019944718079058926,0.020187297942086957,-0.033806521812166604,-0.052366141400943894,0.0492979028843384,0.9998402385611076,-0.008715506521623794,0.00888581166926107,0.012828860086438012
201.36666666671906,-0.008232942,-0.7705386,-0.0060615214,-2.3538785,0.022711203,1.601207,0.75425625,0.04,0.04,0.0017177618239827552,0.0021207522457124955,0.020994372518057247,-0.03440342956567234,-0.05320353800011326,0.05021308033661362,0.9998288589531027,-0.009015701152048828,0.009219937302220196,0.013265093042145333
201.38333333338574,-0.008520719,-0.77006245,-0.0062705274,-2.3537948,0.023485564,1.6022424,0.75316936,0.04,0.04,0.00018498366338715044,0.0021952964165235928,0.02083330830648933,-0.03499651072793529,-0.054038518489105306,0.05112424533236042,0.9998168611780383,-0.009321047128093363,0.009561317759745157,0.013709244589997904
201.40000000005242,-0.008814012,-0.76957715,-0.0064835423,-2.3537095,0.024274774,1.6032977,0.7520617,0.04,0.04,2.2524540232993218e-05,0.002283733947625044,0.020831496172646347,-0.03558583444157524,-0.054878038702769215,0.05203259185983544,0.999804222370876,-0.00963150189053923,0.009910049844455855,0.014161285703667441
201.4166666667191,-0.009112822,-0.7690826,-0.0067005646,-2.3536232,0.025078807,1.6043729,0.75093305,0.04,0.04,-0.0013888993111610404,0.002383932666948259,0.020391258583463134,-0.03617086916098292,-0.055720292943012194,0.05293703154143943,0.9997909239784214,-0.00994717208561987,0.010265636813388863,0.014621176378422878
201.43333333338578,-0.009417152,-0.76857907,-0.0069215945,-2.3535352,0.025897674,1.6054679,0.7497836,0.04,0.04,0.00018328789685995162,0.002487670525233056,0.02067216907493119,-0.036749986169467425,-0.05657122529927493,0.05383625438065964,0.9997769390613612,-0.010267900630722505,0.010628651696091831,0.015088873412417858
201.45000000005246,-0.009726996,-0.7680665,-0.0071466328,-2.3534458,0.026731368,1.6065826,0.74861336,0.04,0.04,-0.0002720742505291085,0.0025780227138139447,0.02038420727492607,-0.037324140044706466,-0.057425660853560954,0.054731638981143804,0.9997622471549422,-0.010593620031285216,0.010998894441328497,0.015564340634971759
201.46666666671914,-0.010042352,-0.7675447,-0.007375674,-2.3533545,0.027579892,1.6077172,0.7474223,0.04,0.04,0.00028039224921894146,0.0026806605663591207,0.020857923728989647,-0.0378933001852444,-0.058285157432473346,0.055621880565912434,0.9997468225922227,-0.010924349553205705,0.011376554305105514,0.0160475330109321
201.48333333338581,-0.0103632165,-0.7670137,-0.0076087173,-2.353261,0.028443228,1.6088717,0.7462104,0.04,0.04,0.001008324103013436,0.002802355286121369,0.021040895516311053,-0.03845623826863803,-0.059148340606299435,0.05650585230013925,0.9997306381946791,-0.011260019648532323,0.011761998209792552,0.016538392016369693
201.5000000000525,-0.010689586,-0.7664737,-0.007845754,-2.3531668,0.029321343,1.610046,0.74497765,0.04,0.04,-0.0014299407246287643,0.002888379001733145,0.020167968328377306,-0.039013494291367426,-0.06001198696054982,0.057385012753871784,0.9997136787828252,-0.01160061646032155,0.012154462329784151,0.017036877581425747
201.51666666671917,-0.011021446,-0.7659247,-0.008086783,-2.3530705,0.030214224,1.6112403,0.7437243,0.04,0.04,0.0011742040062268089,0.0030130434456182575,0.02088000822302316,-0.039563818212762364,-0.06088345929576393,0.05825795825640288,0.9996959119930895,-0.011945991958483077,0.01255478962924253,0.01754292101670789
201.53333333338585,-0.011358789,-0.7653666,-0.008331795,-2.3529727,0.031121867,1.6124542,0.7424503,0.04,0.04,-0.0001693483893117076,0.0030898220811504187,0.020404378981830895,-0.04010836841548298,-0.061754623253640464,0.059123717928428715,0.9996773190701423,-0.012296105737115376,0.012962514912762905,0.018056487132638587
201.55000000005253,-0.011701605,-0.7647995,-0.008580783,-2.3528736,0.03204421,1.6136878,0.7411557,0.04,0.04,-0.00013584216371764768,0.003226500408278453,0.02040032591374974,-0.040646605765412784,-0.06263061291205148,0.05998348348484871,0.999657875702161,-0.012650920309386858,0.01337767902399317,0.018577498913996054
201.56666666671921,-0.012049881,-0.76422316,-0.008833739,-2.3527727,0.03298124,1.614941,0.7398404,0.04,0.04,0.00017296888621398665,0.003328633664896087,0.02057427248609578,-0.04117772803602163,-0.06351049337423488,0.060836038493052684,0.9996375556755275,-0.013010429675193974,0.013800384045105576,0.019105899689131414
201.5833333333859,-0.012403606,-0.763638,-0.009090651,-2.3526707,0.033932887,1.6162138,0.7385044,0.04,0.04,-0.000243557604684419,0.003455399314403196,0.020059502562808085,-0.041701554541155025,-0.06439389879726998,0.0616804957046834,0.9996163357208269,-0.013374598015607635,0.014230552431608378,0.019641610562252172
201.60000000005257,-0.012762763,-0.7630438,-0.00935151,-2.3525665,0.034899116,1.6175058,0.737148,0.04,0.04,0.0010410838097607567,0.0035760366347521028,0.02036866744690169,-0.042217110920435244,-0.06528037731676703,0.06251641956497647,0.9995941895554745,-0.013743280249155557,0.014668402863455766,0.020184558760661966
201.61666666671925,-0.013127334,-0.7624406,-0.009616302,-2.3524609,0.03587995,1.6188176,0.73577106,0.04,0.04,0.00011447074208525976,0.003645842283488479,0.02043834499243502,-0.04272527747478405,-0.06616973425336287,0.06334752960405318,0.9995710910552248,-0.014116459312425795,0.015113949783948435,0.020734705811184577
201.63333333338593,-0.013497303,-0.7618285,-0.009885014,-2.3523538,0.03687526,1.620149,0.7343738,0.04,0.04,0.00017576427173704445,0.0038215167079271722,0.02031044605359522,-0.04322515313707661,-0.06706086771901092,0.06416606242188083,0.9995470170305096,-0.014494015524470388,0.015567202811289356,0.021291934060075932
201.65000000005261,-0.0138726495,-0.7612076,-0.010157638,-2.3522453,0.037885025,1.6214995,0.7329561,0.04,0.04,0.00021735652797616467,0.0039050671622697236,0.019766626216033423,-0.043717254737324185,-0.06795394229538126,0.06497771830323563,0.9995219433995657,-0.014875979853359334,0.016027998503786018,0.021856192489098356
201.6666666667193,-0.014253355,-0.76057786,-0.010434151,-2.352135,0.03890919,1.6228691,0.73151845,0.04,0.04,0.001007148110909739,0.004032119984985483,0.020016683833246063,-0.04420026664887543,-0.06885067978610865,0.06578113934050249,0.9994958447400061,-0.015262086557661857,0.01649658295006315,0.022427389779909605
201.68333333338597,-0.014639396,-0.7599392,-0.010714545,-2.352023,0.039947737,1.624258,0.7300607,0.04,0.04,0.000575125948465427,0.004138951918032305,0.020142873971584763,-0.04467591673043266,-0.06974906113884963,0.06657759856703672,0.9994686946618012,-0.015652352767702202,0.0169729419380814,0.02300546643380702
201.70000000005265,-0.015030749,-0.7592915,-0.010998796,-2.3519094,0.04100055,1.625666,0.7285825,0.04,0.04,4.537309208352269e-05,0.004280904797214838,0.01988295686234931,-0.04514263897328754,-0.07064831931167852,0.06735959394891988,0.9994404692315827,-0.016046930264446906,0.017456853792017946,0.023590310445724377
201.71666666671933,-0.015427389,-0.75863534,-0.011286886,-2.3517945,0.042067543,1.627093,0.7270847,0.04,0.04,0.0005927690430507226,0.004412815771652132,0.019519977252180354,-0.045598596070163006,-0.07155120949679197,0.06813185871363127,0.9994111461785312,-0.01644537745838084,0.017948530512171858,0.024181825961235914
201.733333333386,-0.015829291,-0.75797045,-0.011578802,-2.3516786,0.043148693,1.6285386,0.72556704,0.04,0.04,-0.00048562980976551984,0.004495889030577127,0.019216455744852645,-0.04604706617463375,-0.07245563166365382,0.06889649709136217,0.9993807048090012,-0.016847776968280537,0.018447572581685404,0.0247799582835468
201.7500000000527,-0.01623643,-0.757297,-0.011874519,-2.3515606,0.044243924,1.6300029,0.72402954,0.04,0.04,0.001710362171492008,0.004648222384211545,0.0196116208574848,-0.04648593883217315,-0.0733655276545359,0.06965207916778855,0.9993491085879195,-0.017254112439257924,0.018954618753690627,0.025384585802540664
201.76666666671937,-0.016648777,-0.7566148,-0.01217402,-2.3514411,0.045353133,1.6314859,0.72247255,0.04,0.04,0.0004483265670707226,0.004793142869345679,0.01951090469147765,-0.04691462605069211,-0.07427331947113236,0.07039387473767439,0.9993163400860874,-0.017664165142346044,0.019469409554182186,0.025995611136936082
201.78333333338605,-0.017066296,-0.75592405,-0.012477284,-2.35132,0.046476256,1.6329881,0.7208959,0.04,0.04,0.001117673625650184,0.004925157542829198,0.019721733644773032,-0.04733446749012546,-0.07518378490090648,0.07112550891393317,0.9992823657579337,-0.01807799728534518,0.019992288442356086,0.026612927351489787
201.80000000005273,-0.017488966,-0.7552246,-0.012784286,-2.3511977,0.047613204,1.6345093,0.7192997,0.04,0.04,0.00018576793483493503,0.0050570245817425225,0.019555896763945313,-0.047743678839813425,-0.0760924569472291,0.07184514343710113,0.9992471660948448,-0.018495512155781112,0.020522999294316165,0.027236438487486036
201.8166666667194,-0.017916746,-0.75451696,-0.013095004,-2.3510742,0.04876392,1.6360483,0.71768427,0.04,0.04,0.0003965992114718375,0.0051045347434535565,0.018285547556917692,-0.04814223007940167,-0.07700038690956693,0.07255660603428662,0.9992107248072152,-0.018916531826681467,0.021061194309208237,0.027866078808463705
201.8333333333861,-0.018349623,-0.7538009,-0.013409415,-2.3509488,0.049928293,1.6376058,0.7160497,0.04,0.04,0.0016378459300803172,0.005332756709532094,0.019268584956400048,-0.04853084400397179,-0.07791279162475914,0.07325380348474712,0.9991730049248879,-0.01934101319836024,0.021607511185828026,0.028501699917464526
201.85000000005277,-0.018787533,-0.7530763,-0.013727493,-2.3508217,0.051106192,1.6391816,0.71439594,0.04,0.04,0.0010047875309782128,0.005448768849376784,0.019159313530492383,-0.04890908732522055,-0.07882259399991987,0.07393740702565008,0.9991339865229446,-0.019768914052913523,0.022161722479258295,0.029143182199087393
201.86666666671945,-0.019230466,-0.75234354,-0.014049212,-2.3506935,0.052297574,1.6407752,0.7127234,0.04,0.04,0.0004949774378371075,0.005539166584608499,0.01825534423187669,-0.04927594573486987,-0.07973115035355127,0.07461070007631257,0.9990936527506016,-0.02020005527953824,0.022723540794245045,0.029790459780544343
201.88333333338613,-0.019678365,-0.75160265,-0.014374549,-2.350564,0.053502318,1.6423866,0.7110321,0.04,0.04,0.0005958881678091998,0.005665776556383964,0.018210232378823576,-0.04963254502844085,-0.08064214144212825,0.07527229966604551,0.9990519788440064,-0.020634364689119482,0.023293035433286133,0.030443407530282286
201.9000000000528,-0.0201312,-0.7508536,-0.014703471,-2.3504329,0.05472033,1.6440156,0.7093223,0.04,0.04,0.001345183635081959,0.005814254125888901,0.01837003001594617,-0.04997835055474068,-0.08155346174342609,0.0759203799282187,0.9990089378370566,-0.021071732118196525,0.023870394490154868,0.031101904991482687
201.9166666667195,-0.020588936,-0.7500963,-0.01503595,-2.3503,0.055951513,1.6456625,0.70759386,0.04,0.04,0.0014313306516022806,0.005969639356546291,0.018652611516944972,-0.05031359354646271,-0.0824650229608508,0.07655714457695237,0.9989645003779699,-0.02151215671172202,0.024455809071456107,0.03176582284254219
201.93333333338617,-0.021051534,-0.749331,-0.01537196,-2.3501658,0.057195764,1.647327,0.70584697,0.04,0.04,0.0010510513401618127,0.006074686915285427,0.01799251328307161,-0.05063679930586353,-0.08337273443886249,0.0771793082429784,0.998918649278079,-0.021955564350142693,0.025048991769404293,0.03243506327820444
201.95000000005285,-0.021518942,-0.7485577,-0.015711471,-2.3500307,0.05845293,1.6490085,0.704082,0.04,0.04,0.0002349572188808935,0.0062056243363441815,0.017545848959144017,-0.050948216970307804,-0.08427986580236813,0.07778825479738324,0.9988713724611621,-0.02240173072176582,0.025649648198304894,0.033109504459101526
201.96666666671953,-0.02199112,-0.7477766,-0.01605445,-2.3498936,0.05972294,1.6507072,0.7022991,0.04,0.04,0.002210727417928382,0.006340452206568883,0.017850154865017842,-0.05124854025975791,-0.08518877381415473,0.07838439438686014,0.9988226314671421,-0.022850591098072043,0.026258412421649963,0.033789009050531296
201.9833333333862,-0.022468038,-0.74698764,-0.01640087,-2.3497558,0.06100566,1.6524229,0.7004983,0.04,0.04,-0.00013566640471029956,0.006468301036622812,0.017198354075675937,-0.05153755829348649,-0.08609400722550803,0.07896691142634575,0.9987724219759037,-0.023302105341726997,0.026874521090515503,0.03447348405928676
202.0000000000529,-0.022949642,-0.7461911,-0.01675069,-2.3496165,0.062300965,1.6541555,0.6986797,0.04,0.04,0.0015642417984906842,0.006607129188147473,0.017321032226713662,-0.051814543262985735,-0.08700109720150845,0.0795347573980359,0.9987207083115646,-0.023756188171153103,0.027498545322455006,0.03516276892357155
202.01666666671957,-0.023435885,-0.74538684,-0.017103886,-2.3494756,0.06360873,1.6559044,0.6968435,0.04,0.04,0.001655764562258355,0.006745222188326086,0.017052575186915497,-0.052079214881032405,-0.0879053137249194,0.08008864482871958,0.998667474219549,-0.02421274185004496,0.028130283018162394,0.03585674616258014
202.03333333338625,-0.023926731,-0.7445749,-0.01746042,-2.349333,0.06492884,1.65767,0.6949901,0.04,0.04,0.0018097819149298644,0.006901449375213212,0.017297511794711617,-0.052331568139578725,-0.08880845611379069,0.08062909824280966,0.9986126956673278,-0.024671561846409285,0.028769944497544594,0.03655527843827513
202.05000000005293,-0.02442212,-0.7437554,-0.01782026,-2.34919,0.066261165,1.6594521,0.6931194,0.04,0.04,-0.00018966676949006,0.006969400900922601,0.016474503858310285,-0.05257261742451993,-0.08970721101604529,0.08115534377187089,0.9985563659074406,-0.025132659197885206,0.02941691425095329,0.037258270267429366
202.0666666667196,-0.024922006,-0.7429284,-0.018183373,-2.3490453,0.067605585,1.6612505,0.69123185,0.04,0.04,0.0019474331505398013,0.007155986325995539,0.016903659312483832,-0.052800834434189745,-0.0906076378793259,0.08166607420945218,0.9984984515449703,-0.02559582650340081,0.030071786481317874,0.037965557887726334
202.0833333333863,-0.02542634,-0.7420942,-0.018549718,-2.3488994,0.06896195,1.663065,0.6893275,0.04,0.04,0.0014813870428342923,0.0072647628313549095,0.016285014119010732,-0.05301723565551394,-0.0915030043489255,0.08216288592407235,0.9984389353846,-0.026061028445763978,0.0307344171518114,0.03867700488344292
202.10000000005297,-0.025935082,-0.7412528,-0.018919261,-2.3487518,0.07033014,1.6648952,0.6874065,0.04,0.04,0.0020709118701889295,0.007406924094525633,0.01630258766203152,-0.053221642358324724,-0.09239473307342834,0.08264417342677602,0.9983777965435494,-0.02652816738869712,0.03140483937142454,0.03939248364725481
202.11666666671965,-0.026448168,-0.740404,-0.019291965,-2.348603,0.07170999,1.6667408,0.68546915,0.04,0.04,0.0010563188032275406,0.007520074191789267,0.015830415057416225,-0.05341339796924967,-0.09328256632575024,0.08311122248352451,0.9983150303950635,-0.026997091375277504,0.0320826347058093,0.04011186476482816
202.13333333338633,-0.026965555,-0.7395482,-0.019667797,-2.348453,0.07310138,1.668602,0.6835155,0.04,0.04,0.0015231628512468731,0.007667353499669904,0.015816905997345643,-0.05359303388388973,-0.09416911544068896,0.08356250238358594,0.9982506071771599,-0.0274677836560927,0.032768105661490965,0.04083500193230341
202.150000000053,-0.027487185,-0.73868537,-0.020046704,-2.3483024,0.07450417,1.6704783,0.681546,0.04,0.04,0.0005359564242413128,0.007733235118355386,0.015224304932925925,-0.05375962496273882,-0.09505216071520813,0.08399849269324802,0.9981845263994873,-0.0279400076620825,0.03346080002007459,0.04156178642082923
202.1666666667197,-0.028012998,-0.7378153,-0.02042866,-2.3481503,0.07591821,1.6723698,0.67956066,0.04,0.04,0.0015929837992700868,0.007913981770431983,0.015645975007783086,-0.05391448179005853,-0.09593235393552467,0.08441913054671608,0.9981167601110984,-0.028413729559676675,0.03416101641681131,0.04229205735364524
202.18333333338637,-0.028542947,-0.73693883,-0.020813622,-2.3479965,0.07734334,1.6742762,0.67755973,0.04,0.04,0.002880739104860197,0.008063305562482082,0.015130721499323485,-0.05405672198493041,-0.09681174081442603,0.08482488884518678,0.9980472779946215,-0.028888877927840576,0.034869167558749324,0.0430256292616043
202.20000000005305,-0.029076975,-0.7360557,-0.021201542,-2.3478417,0.07877943,1.6761973,0.67554325,0.04,0.04,0.0012713989729018493,0.008120428154338721,0.014729937397417459,-0.05418658602384403,-0.0976808407734054,0.0852145130455257,0.9979760789394281,-0.029365408686276736,0.03558468983963299,0.04376240951306612
202.21666666671973,-0.029615022,-0.7351655,-0.021592392,-2.3476856,0.08022629,1.6781327,0.6735117,0.04,0.04,0.0015580054702368784,0.00830922783410376,0.014877549832892356,-0.05430253389393771,-0.098546525064554,0.08558938233939262,0.9979031553842626,-0.029843085279069936,0.036307482305524885,0.04450224110977577
202.2333333333864,-0.030157035,-0.7342689,-0.021986123,-2.3475282,0.081683815,1.6800824,0.67146516,0.04,0.04,0.0019980037642364223,0.00838796057328825,0.014460005698624379,-0.05440669176732945,-0.09940979742736196,0.0859483819046683,0.997828479847417,-0.030321851684970532,0.03703784002053453,0.045244983394857115
202.2500000000531,-0.03070295,-0.73336613,-0.022382688,-2.3473701,0.08315184,1.6820464,0.6694038,0.04,0.04,0.0013045633293629066,0.008477563548015682,0.013934513587798847,-0.05449827947080658,-0.1002652831582648,0.08629162548023461,0.9977520445650109,-0.03080165379975986,0.03777551994501348,0.04599049665337716
202.26666666671977,-0.031252723,-0.7324568,-0.02278205,-2.3472111,0.08463018,1.6840242,0.66732806,0.04,0.04,0.0011684390978761172,0.008650362669127692,0.013966895452388606,-0.05457641877993336,-0.10111717331378164,0.08661717236082943,0.9976738480462505,-0.03128224790654064,0.038520299848476,0.046738639155245676
202.28333333338645,-0.031806275,-0.7315409,-0.023184167,-2.3470514,0.086118676,1.6860157,0.665238,0.04,0.04,0.0007154650088381231,0.008733203151907454,0.013741841609427041,-0.05464265346546801,-0.10196488760510664,0.08692839863447041,0.9975938800768578,-0.031763611547758905,0.039272025843554555,0.047489276692597795
202.30000000005313,-0.03236356,-0.73061895,-0.023588996,-2.34689,0.087617196,1.6880201,0.66313386,0.04,0.04,0.0026855064266362305,0.008846340203659542,0.013309541690764704,-0.054696290024317536,-0.10281052834270313,0.08722268386562096,0.9975121142643277,-0.0322456980178233,0.040031016755957556,0.04824224862854667
202.3166666667198,-0.03292452,-0.7296909,-0.023996493,-2.3467276,0.08912555,1.6900382,0.661016,0.04,0.04,0.0017393877943971958,0.009026435931471649,0.01353737601017535,-0.05473645011857608,-0.10364817186762001,0.08750167219519056,0.9974285405833152,-0.032728266466419194,0.04079734380130624,0.04899738505980802
202.3333333333865,-0.03348907,-0.7287571,-0.024406608,-2.3465643,0.09064358,1.6920687,0.6588845,0.04,0.04,0.0016318834679562855,0.009008658959402255,0.01240309964913866,-0.054765153469369304,-0.10447859457258846,0.0877627653127017,0.9973431615235013,-0.03321131879870456,0.041570522201322645,0.04975457918490996
202.35000000005317,-0.034057163,-0.7278174,-0.024819301,-2.3463998,0.092171095,1.6941123,0.6567397,0.04,0.04,0.0022498485546584845,0.009242097381813308,0.013036845451175338,-0.05478063390533571,-0.10530496404665823,0.08800921840062349,0.9972559506844678,-0.033694714890216255,0.04235101152027597,0.05051363020111277
202.36666666671985,-0.034628723,-0.726872,-0.025234522,-2.3462343,0.09370794,1.6961683,0.6545818,0.04,0.04,0.0017183489615213432,0.009273093505468566,0.012314956428416401,-0.05478389711431017,-0.10612327133388322,0.08823947251721077,0.9971669119113826,-0.034178367929763545,0.04313841078973144,0.05127442314946979
202.38333333338653,-0.03520371,-0.725921,-0.025652224,-2.346068,0.095253944,1.6982363,0.65241104,0.04,0.04,0.001663657352879433,0.009394713178526026,0.01199733564873906,-0.054774640181799894,-0.10693470161685917,0.0884527007518293,0.9970760421747086,-0.03466213773801346,0.04393258376460118,0.0520368178544382
202.4000000000532,-0.035782047,-0.7249643,-0.026072359,-2.3459005,0.096808925,1.7003167,0.65022755,0.04,0.04,0.0018282819246540072,0.009521591780781852,0.01210537866107586,-0.05475273012898866,-0.10774021867152776,0.08864940410831994,0.9969833236424035,-0.03514600637159187,0.04473369377994915,0.05280063688892779
202.4166666667199,-0.03636366,-0.7240023,-0.02649488,-2.3457317,0.09837271,1.7024088,0.64803183,0.04,0.04,0.0027935737347384304,0.009617642254906161,0.011832836722458495,-0.05471810432375172,-0.10853749788243353,0.08883078911547813,0.996888746541547,-0.03562974876094373,0.045541861938062235,0.05356572442588199
202.43333333338657,-0.03694849,-0.723035,-0.026919734,-2.345562,0.0999451,1.7045124,0.6458237,0.04,0.04,0.0018888710453746071,0.009697145948978081,0.01128192006716322,-0.054671877418486815,-0.1093251893029012,0.08899417965094233,0.9967923116589674,-0.036113471586336134,0.04635672148133759,0.054331933161415664
202.45000000005325,-0.037536476,-0.72206247,-0.02734688,-2.345391,0.10152594,1.7066274,0.6436039,0.04,0.04,0.002462596352237334,0.009816692164386215,0.011301772662331011,-0.05461168832394786,-0.11010682408207158,0.08914306341311354,0.9966940117118404,-0.03659683288215073,0.04717844674193895,0.05509911980941194
202.46666666671993,-0.03812754,-0.7210847,-0.027776267,-2.3452196,0.10311507,1.7087535,0.6413726,0.04,0.04,0.0009847582811195466,0.009843724339159837,0.010701983601912879,-0.05454035910379903,-0.11087649385775436,0.08927557336412198,0.9965938626201666,-0.037079756685744765,0.04800648289297346,0.05586718385769038
202.4833333333866,-0.03872162,-0.7201019,-0.028207846,-2.3450472,0.104712285,1.7108903,0.63912976,0.04,0.04,0.0019138876473645539,0.009954035211558881,0.010546776469966268,-0.0544571963423507,-0.11164245972657774,0.08939151406863649,0.996491846450916,-0.03756231620082595,0.04884099065941076,0.05663594256195089
202.5000000000533,-0.03931864,-0.7191144,-0.028641567,-2.3448744,0.10631738,1.7130376,0.63687545,0.04,0.04,0.0014913291253915162,0.01001947063483874,0.009877006154357382,-0.054360863282225586,-0.11239913056983328,0.08948959632226541,0.9963879624795744,-0.03804448441589115,0.049681827512366765,0.057405238840741744
202.51666666671997,-0.039918542,-0.71812224,-0.02907738,-2.3447013,0.10793017,1.7151954,0.6346107,0.04,0.04,0.0009870151250312986,0.010126884804229075,0.009760974768058261,-0.05425111260917067,-0.11314877721864672,0.08957321919174413,0.9962822283552979,-0.03852576184437537,0.05052882576670595,0.05817495083238343
202.53333333338665,-0.04052123,-0.7171254,-0.029515235,-2.3445275,0.10955049,1.7173631,0.63233554,0.04,0.04,0.0016777034097970045,0.010149083118172336,0.00950492943831982,-0.054130834464187316,-0.11389115569120092,0.08964025661889241,0.9961746353083919,-0.03900621441905764,0.05138196356619797,0.058944932139825934
202.55000000005333,-0.041126654,-0.716124,-0.02995508,-2.344352,0.11117814,1.7195407,0.63004965,0.04,0.04,0.003439258172455162,0.01035343159194596,0.009902868887912142,-0.053999335439242326,-0.11462690626378744,0.0896890596185819,0.9960651471185215,-0.03948602702526422,0.052241758069408915,0.05971494854168104
202.56666666672,-0.041734748,-0.71511817,-0.030396858,-2.344176,0.11281293,1.7217277,0.6277539,0.04,0.04,0.0013529933645450853,0.010318334298886622,0.008848822399620815,-0.05385409277118302,-0.11534808187311354,0.08972384028683977,0.995953807953941,-0.03996477314036498,0.05310744872789383,0.060484942088901664
202.5833333333867,-0.042345446,-0.7141081,-0.030840522,-2.3439987,0.11445468,1.7239242,0.62544835,0.04,0.04,0.0032666156128069446,0.010482458693324148,0.009180669699060395,-0.05369833737839183,-0.1160615974615824,0.08974236172153573,0.9958405842586325,-0.040442501855848766,0.05397960098361294,0.0612546934096912
202.60000000005337,-0.042958654,-0.7130938,-0.031286016,-2.3438206,0.116103224,1.7261298,0.62313336,0.04,0.04,0.0018922698124423931,0.0104572044933679,0.008628881880223815,-0.05353068985143753,-0.11676204325980752,0.08974572305778174,0.9957254999083782,-0.04091903541153707,0.05485773157179901,0.06202411353656144
202.61666666672005,-0.04357432,-0.7120754,-0.031733304,-2.343642,0.11775829,1.7283441,0.6208092,0.04,0.04,0.0014135175190332916,0.010576747543720316,0.008067761844987587,-0.05335191004372686,-0.11745045309887256,0.08973049512841941,0.9956085714750748,-0.04139428962411689,0.05574153518809707,0.06279304457302537
202.63333333338673,-0.044192355,-0.7110531,-0.032182314,-2.3434625,0.11941972,1.7305671,0.6184759,0.04,0.04,0.002478295087948723,0.010630774780448493,0.00816781878552053,-0.053161988949889716,-0.11813182302072887,0.0896999615239633,0.9954897783252917,-0.04186829260184002,0.05663133482409245,0.06356130301142125
202.6500000000534,-0.044812694,-0.7100271,-0.032632988,-2.343283,0.12108733,1.7327981,0.61613405,0.04,0.04,0.0008638135552851978,0.01055177487346362,0.006992405025596504,-0.05296021465006749,-0.1188011109009783,0.08965473084066451,0.9953691604882645,-0.042340822184512586,0.057526433471794015,0.06432883162037253
202.6666666667201,-0.045435257,-0.70899737,-0.033085287,-2.343103,0.1227609,1.735037,0.61378384,0.04,0.04,0.0014961081297837353,0.010684859973135452,0.007171389857552057,-0.0527471472302899,-0.1194621078674505,0.08959252259769937,0.9952467154594954,-0.0428118042658023,0.05842693692780609,0.06509545163701644
202.68333333338677,-0.046059977,-0.7079641,-0.03353916,-2.3429224,0.124440216,1.7372836,0.6114255,0.04,0.04,0.0017317653235426889,0.010772273543092903,0.006915185643907584,-0.052523526471115016,-0.12011455594590073,0.08951445566004225,0.9951224437220981,-0.043281163836138815,0.05933289097805895,0.06586099684741023
202.70000000005345,-0.04668676,-0.7069275,-0.033994544,-2.3427415,0.1261251,1.7395378,0.60905933,0.04,0.04,0.0018184755009809095,0.010776803235158089,0.006728533356481492,-0.052288844076444296,-0.12075561313654573,0.08942092164794932,0.9949963478130113,-0.04374884128978422,0.0602442810971844,0.06662532040939023
202.71666666672013,-0.04731557,-0.70588744,-0.034451377,-2.3425593,0.12781534,1.7417996,0.60668564,0.04,0.04,0.0030306625585119207,0.010938109777824945,0.006958291511982573,-0.052043664364553814,-0.12138456725989363,0.08931259539110369,0.9948684193715425,-0.0442147034156606,0.0611613828215594,0.06738822887113674
202.7333333333868,-0.0479463,-0.70484424,-0.034909613,-2.3423765,0.12951072,1.7440679,0.6043047,0.04,0.04,0.0020881530792493663,0.010836751430746971,0.005882349572838841,-0.05178827307476932,-0.12199864775875932,0.08918752144802396,0.9947386923786807,-0.0446787192446981,0.062083588331386726,0.06814964410255452
202.7500000000535,-0.048578896,-0.7037979,-0.035369202,-2.3421931,0.13121109,1.7463433,0.60191673,0.04,0.03999999,0.0018263803749363205,0.010938410973368451,0.006063086583396604,-0.05152232327527696,-0.12260116259096215,0.08904963018933117,0.9946071681839772,-0.045140742503182944,0.06301099782648613,0.06890942255034234
202.76666666672017,-0.049213246,-0.70274866,-0.035830088,-2.3420098,0.13291621,1.7486247,0.5995222,0.04,0.04,0.0009518557620102897,0.010817558902836283,0.004952508841427061,-0.05124603630468666,-0.12319022730685711,0.08889408587106493,0.9944738852917409,-0.04560069555366415,0.06394302462221223,0.06966747906975418
202.78333333338685,-0.049849298,-0.7016967,-0.036292203,-2.3418257,0.13462585,1.7509122,0.59712106,0.04,0.04,0.0023570643111314737,0.010966095557649741,0.00519839845889436,-0.050960153991708015,-0.12377158175602934,0.08872375827431518,0.9943388255842281,-0.046058612174318316,0.06488006386752429,0.07042358619737855
202.80000000005353,-0.050486982,-0.70064217,-0.03675551,-2.341641,0.13633981,1.7532055,0.594714,0.04,0.04,0.0024685587030504053,0.011012015194068053,0.004892562904612596,-0.0506633629646078,-0.12433767025844988,0.08853807866478498,0.9942020056803379,-0.04651424914354389,0.06582205225529492,0.07117762264017359
202.8166666667202,-0.051126204,-0.69958496,-0.03721993,-2.3414555,0.13805795,1.7555046,0.59230113,0.04,0.04,0.002243947788382883,0.010963923318292601,0.004842020614459486,-0.05035758731632333,-0.12488961319346642,0.08833850581251032,0.9940634376608448,-0.04696758065355417,0.06676885042891426,0.07192947160835354
202.8333333333869,-0.051766895,-0.6985253,-0.037685428,-2.34127,0.13977997,1.7578087,0.5898826,0.04,0.04,0.0009451830152551466,0.010939369857015935,0.003810679400628736,-0.050042765944814466,-0.125426148736499,0.08812438527326584,0.9939231640036266,-0.047418612172913426,0.06771984482268244,0.0726790333851973
202.85000000005357,-0.052408975,-0.6974634,-0.03815193,-2.3410838,0.14150573,1.7601179,0.58745897,0.04,0.04,0.002484036673155998,0.010992431686421278,0.0041125041947864815,-0.04971754249916907,-0.12595458595259854,0.08789627252961782,0.9937811703646631,-0.04786715295210694,0.06867550019357452,0.07342613138428604
202.86666666672025,-0.053052366,-0.69639933,-0.038619403,-2.3408973,0.143235,1.7624316,0.5850303,0.04,0.039999995,0.0015087274887415347,0.010956431227869545,0.003352683245227972,-0.04938385587705293,-0.12646551762291858,0.08765401967347541,0.9936374927355784,-0.04831320970498011,0.06963532054233143,0.07417067433374522
202.88333333338693,-0.05369699,-0.69533324,-0.039087754,-2.3407109,0.14496753,1.7647495,0.5825971,0.04,0.039999995,0.0010520364761346102,0.010893419677460853,0.002879092282181972,-0.04904054363266525,-0.1269656176193098,0.08739582196235665,0.9934921625223776,-0.04875666004947749,0.07059902977269453,0.07491253635129162
202.9000000000536,-0.054342773,-0.6942653,-0.039556947,-2.340524,0.14670312,1.7670717,0.5801594,0.04,0.039999988,0.0021577470804112764,0.01099671825671375,0.0030587083458044617,-0.04868862280901583,-0.1274533468759218,0.08712606941906197,0.9933451668587637,-0.04919747711848073,0.07156698251521798,0.07565153492942428
202.9166666667203,-0.054989632,-0.6931957,-0.04002693,-2.3403368,0.14844164,1.7693979,0.57771784,0.04,0.04,0.001789692666864795,0.010911843195378357,0.0025557743423609836,-0.048327807522890696,-0.12792598125195073,0.08683983070934959,0.9931965339254519,-0.04963549504667935,0.07253893505788216,0.07638760063392547
202.93333333338697,-0.055637483,-0.69212437,-0.040497642,-2.3401494,0.15018281,1.7717273,0.57527256,0.04,0.039999995,0.001428696062655277,0.010879701411843634,0.002134223925387424,-0.047959037144821394,-0.12838350693897296,0.08654054349330922,0.9930462988545709,-0.05007068927668079,0.0735145254297394,0.07712061305148224
202.95000000005365,-0.05628626,-0.69105136,-0.040969044,-2.3399615,0.15192638,1.7740602,0.57282376,0.04,0.03999999,0.001939911476256384,0.011004880497440805,0.0022586595793683273,-0.047581883489828156,-0.1288284422097199,0.08622765445988426,0.992894464341302,-0.05050302636140646,0.07449392342151413,0.07785038459768417
202.96666666672033,-0.056935884,-0.68997717,-0.041441057,-2.3397732,0.15367219,1.7763963,0.5703718,0.04,0.03999999,0.0023887200405692255,0.010891932554092654,0.001707928378724688,-0.04719710005220628,-0.1292579771235179,0.08590160394761139,0.992741040517548,-0.050932435424804655,0.07547714814207043,0.07857680066135551
202.983333333387,-0.05758626,-0.6889017,-0.041913603,-2.3395846,0.15542002,1.7787354,0.567917,0.04,0.039999995,0.001838194417080885,0.010834518573298035,0.0015844115361707267,-0.046804337433678886,-0.12966960948186113,0.08556346235110932,0.9925860546712224,-0.05135884012957698,0.07646400876253258,0.07929974134084398
203.0000000000537,-0.05823731,-0.687825,-0.042386644,-2.3393958,0.15716964,1.7810763,0.56545955,0.04,0.039999988,0.0012657469292687296,0.01069712304621745,0.000640153706443769,-0.046404350143227545,-0.1300647161393494,0.08521172971866989,0.9924295627235818,-0.05178224442723964,0.0774538210564483,0.08001917144105848
203.01666666672037,-0.05888896,-0.68674743,-0.042860128,-2.3392067,0.15892088,1.7834195,0.56299996,0.04,0.039999995,0.0018910296568641627,0.01073764923550935,0.0007314143732672918,-0.0459958257274929,-0.13044841877666935,0.08484691401786208,0.9922715603667581,-0.05220246564998804,0.07844694780026262,0.08073493325818595
203.03333333338705,-0.059541136,-0.68566895,-0.043333985,-2.3390172,0.16067345,1.7857647,0.5605385,0.04,0.039999995,0.0021723135812168337,0.01076719745656679,0.0006425890102024212,-0.0455805971667759,-0.130814901274738,0.08446855163444986,0.9921120683735942,-0.0526194843503653,0.07944333887546275,0.0814468511514636
203.05000000005373,-0.060193755,-0.6845897,-0.04380818,-2.3388276,0.16242719,1.7881116,0.55807525,0.04,0.03999999,0.0012818888430743414,0.010656159064073578,5.515409089440482e-05,-0.04515906582790549,-0.13116447490638009,0.08407897394751424,0.9919511247765901,-0.05303327968097412,0.08044260574598898,0.08215488105726136
203.0666666667204,-0.060846727,-0.6835098,-0.04428263,-2.338638,0.16418184,1.7904595,0.55561084,0.04,0.039999995,0.0012264976984033282,0.010511974252783163,-0.0004921880293329295,-0.04472977982727284,-0.13149836304738566,0.08367391741104507,0.9917887696832753,-0.05344371470644397,0.0814444825422352,0.08285892801586772
203.0833333333871,-0.061499976,-0.6824298,-0.044757303,-2.3384485,0.16593723,1.7928085,0.55314523,0.04,0.03999999,0.0017373591841174374,0.010508700121092396,-0.000765117847278951,-0.04429595771192672,-0.13181803516967977,0.08326450418401475,0.9916250005011068,-0.053850869907967745,0.0824491409905252,0.08355884956878873
203.10000000005377,-0.062153425,-0.68134916,-0.045232106,-2.338259,0.16769314,1.7951585,0.5506789,0.04,0.03999999,0.0010833050842373737,0.010439237442595728,-0.0006476365471907997,-0.043853787833224085,-0.1321202496124895,0.08283560042914415,0.9914598645097902,-0.05425458488286695,0.08345625657703601,0.0842545566931788
203.11666666672045,-0.062806986,-0.6802683,-0.045707002,-2.3380694,0.16944936,1.7975088,0.5482122,0.04,0.039999984,0.0012688493322032812,0.010321013259277645,-0.0012936236953642322,-0.04340672743321014,-0.1324073381964277,0.08240225500262084,0.991293389084402,-0.0546548323044875,0.08446566346903162,0.08494596963991327
203.13333333338713,-0.06346057,-0.67918754,-0.046181936,-2.3378797,0.17120567,1.7998592,0.5457452,0.04,0.039999988,0.001984177194347403,0.01024681420897372,-0.0016562297353583944,-0.04295288372376735,-0.1326777124436475,0.08195044838331422,0.9911255833314782,-0.05505164909351506,0.08547743120205736,0.08563295366282354
203.1500000000538,-0.06411415,-0.67810684,-0.046656832,-2.3376899,0.1729618,1.8022094,0.5432786,0.04,0.03999999,0.001363195169545861,0.010244390044654439,-0.001864553871100405,-0.04249322475440387,-0.1329308255705542,0.0814890304286883,0.9909564986517148,-0.05544480632833592,0.08649128393189218,0.08631540438971513
203.1666666667205,-0.06476758,-0.6770264,-0.047131658,-2.3375006,0.1747176,1.804559,0.5408122,0.04,0.03999998,0.0004953977618127325,0.009970808491842342,-0.0025588599321446637,-0.042029942791644376,-0.1331664563008635,0.08102198826227881,0.9907861698919836,-0.05583448297342435,0.08750680887533585,0.08699330124968814
203.18333333338717,-0.06542082,-0.6759462,-0.047606327,-2.337311,0.17647281,1.8069079,0.5383468,0.04,0.03999999,0.0016888397888159545,0.010054782865659417,-0.0023201873098788184,-0.04155934591368085,-0.13338979248187632,0.08054001578023422,0.9906146171146122,-0.056220397607798414,0.08852421771061406,0.087666470959057
203.20000000005385,-0.066073805,-0.6748664,-0.048080795,-2.337122,0.17822725,1.8092557,0.53588235,0.04,0.039999984,0.00042849030164049395,0.00985807062432592,-0.0030562048857651902,-0.041085451331751906,-0.1335945750571741,0.08004882504658456,0.9904418851562868,-0.056602692135116484,0.08954303674514894,0.0883348851902503
203.21666666672053,-0.066726394,-0.67378736,-0.048554998,-2.336933,0.17998068,1.8116025,0.53341943,0.04,0.039999995,0.0017259863816176946,0.009767964020147846,-0.0030506491440984718,-0.040605438149078965,-0.13378411029524873,0.07954541269648989,0.9902679766165239,-0.056981192547375464,0.09056359745188589,0.08899838762734621
203.2333333333872,-0.06737854,-0.672709,-0.04902889,-2.336744,0.18173291,1.8139474,0.53095824,0.04,0.039999988,0.0007806063143878106,0.009624999998951445,-0.0036223369793697557,-0.040122205802090256,-0.13395423295124292,0.07903420011093115,0.9900929539761739,-0.05735590337861886,0.09158532344636447,0.0896569649474103
203.2500000000539,-0.06803019,-0.6716314,-0.0495024,-2.3365552,0.18348372,1.8162905,0.528499,0.04,0.039999984,0.0012725407693592317,0.00957464337083408,-0.003682537541704889,-0.03963517066012541,-0.13411010956004604,0.07851485222620375,0.9899168335554419,-0.05772681161145297,0.09260827435400015,0.09031049432882883
203.26666666672057,-0.068681195,-0.6705549,-0.049975466,-2.3363664,0.18523291,1.8186312,0.526042,0.04,0.03999999,0.0014242144997345108,0.009308391451309794,-0.004200143548160895,-0.03914393860910125,-0.13424747050654573,0.07798445895285794,0.989739642902976,-0.058093968978621124,0.09363230216330055,0.09095890295183257
203.28333333338725,-0.06933155,-0.6694795,-0.05044805,-2.3361776,0.18698022,1.8209696,0.52358764,0.04,0.039999988,0.001493620877779378,0.009413082679159135,-0.004192739897068698,-0.0386480472117489,-0.13436821232640012,0.07744350932644473,0.9895614134701617,-0.0584571872581395,0.09465742397343876,0.09160206501774365
203.30000000005393,-0.06998117,-0.66840535,-0.050920073,-2.3359888,0.18872549,1.8233051,0.5211362,0.04,0.039999977,0.0013581886551428113,0.009169876701652091,-0.0046865833010389935,-0.038150076730981586,-0.13446947242187154,0.07689688868129112,0.9893821854402959,-0.058816487258873666,0.09568334996143323,0.09223995067251807
203.3166666667206,-0.07062993,-0.6673327,-0.051391497,-2.3358006,0.19046845,1.8256377,0.51868796,0.04,0.03999999,0.0002579200633068268,0.008960227181420422,-0.005295632714941156,-0.03764788027429686,-0.13455263667435602,0.07633668206516629,0.9892020111929405,-0.05917186628771756,0.09670972069905498,0.09287249977351182
203.3333333333873,-0.071277775,-0.6662617,-0.051862244,-2.3356125,0.1922089,1.8279669,0.5162432,0.04,0.039999984,0.001527301117576485,0.008882868593822202,-0.0052690749795303304,-0.03714327976644672,-0.134619752543861,0.07577184345028312,0.9890209000938626,-0.05952329108021674,0.09773670385302802,0.0934995920656932
203.35000000005397,-0.07192462,-0.6651922,-0.05233227,-2.3354251,0.19394664,1.8302925,0.5138023,0.04,0.039999984,-7.415438203484115e-05,0.008664181195894294,-0.005865602087640198,-0.036635712932637565,-0.1346688041095505,0.07519697731151287,0.9888389280786444,-0.05987070009702372,0.09876368124123905,0.09412124549669208
203.36666666672065,-0.07257037,-0.6641245,-0.052801512,-2.3352385,0.1956815,1.832614,0.5113654,0.04,0.03999998,4.659526944283954e-05,0.00843337662891075,-0.00626257852176515,-0.03612593773510179,-0.13470122919529226,0.07461609497881216,0.9886561249024626,-0.06021411877413041,0.09979053338403333,0.0947374057066766
203.38333333338733,-0.07321498,-0.66305876,-0.05326992,-2.3350523,0.1974132,1.8349314,0.5089329,0.04,0.03999998,0.0006643098990899432,0.008439767068063597,-0.00627554854701895,-0.03561305944953748,-0.13472055379746445,0.07402588008212764,0.9884725071762424,-0.060553502897417566,0.1008173948778758,0.09534793513026044
203.400000000054,-0.07385832,-0.66199505,-0.053737428,-2.3348663,0.19914156,1.8372442,0.50650513,0.04,0.039999984,0.0008748914908540684,0.008173159467954327,-0.0066082755417751216,-0.035097977697506534,-0.1347203207019542,0.07342654340328464,0.9882881171782439,-0.06088882308264542,0.10184404554787048,0.09595279596934696
203.4166666667207,-0.0745004,-0.66093343,-0.05420398,-2.3346806,0.20086633,1.8395525,0.5040822,0.04,0.03999998,0.0009932568863391111,0.008230886233372148,-0.0065146937938243,-0.034581443833679594,-0.13470346511341508,0.07282171269279653,0.9881029726391639,-0.06122010832492702,0.10287057219466005,0.0965518470805979
203.43333333338737,-0.075141035,-0.65987426,-0.05466953,-2.3344953,0.20258735,1.8418558,0.5016646,0.04,0.03999998,0.0006968067878698747,0.007789568516464174,-0.00732775876417513,-0.03406312035304474,-0.1346671166370325,0.07221067184749436,0.98791712502818,-0.06154731665259598,0.10389661067410992,0.09714512946799081
203.45000000005405,-0.07578022,-0.6588176,-0.055134017,-2.33431,0.20430441,1.8441534,0.49925262,0.04,0.03999997,0.0013946574177525761,0.00772721604585247,-0.007462465194585377,-0.03354414127327848,-0.13461248707669823,0.07159565881773944,0.9877306051047191,-0.061870400482626126,0.1049221200425521,0.0977325637101639
203.46666666672073,-0.076417856,-0.65776336,-0.055597384,-2.334125,0.20601732,1.8464458,0.49684656,0.04,0.039999973,0.0009663190793540721,0.007611247246189223,-0.007332043753338624,-0.03302356869920927,-0.13454002939626838,0.07097119800493176,0.9875434436214792,-0.06218932550488791,0.10594705824428477,0.09831406614955726
203.4833333333874,-0.07705387,-0.65671176,-0.056059558,-2.3339403,0.2077258,1.848732,0.49444667,0.04,0.03999997,0.0007410698858567599,0.007310207322400175,-0.008088866699851316,-0.03250260375676874,-0.13444690235616988,0.07033964705116304,0.9873557030594995,-0.06250414766429435,0.10697097505518258,0.09888962360321309
203.5000000000541,-0.07768817,-0.6556631,-0.05652051,-2.3337557,0.20942962,1.8510123,0.49205318,0.04,0.039999973,0.0012453619223862233,0.007281436487635573,-0.008043846036653868,-0.03198077502524577,-0.134337385835284,0.06970325437349484,0.9871673882017097,-0.06281484627256541,0.10799411887830324,0.09945910238117013
203.51666666672077,-0.0783207,-0.6546174,-0.05698017,-2.333572,0.21112868,1.8532864,0.48966655,0.04,0.039999977,0.0002818454655661995,0.006916623308969583,-0.008678662240457768,-0.03145851509640271,-0.13420603809818393,0.06905995036126114,0.9869785675316493,-0.06312132602296024,0.10901601173245005,0.10002257055398643
203.53333333338745,-0.07895137,-0.6535747,-0.05743848,-2.3333886,0.21282274,1.855554,0.48728684,0.04,0.039999973,0.00043947635190999534,0.00682425200777409,-0.00858999007504746,-0.030937040828208376,-0.13405839593299562,0.06841373692457235,0.9867892697616678,-0.0634236784669548,0.1100365891512285,0.10057993408686802
203.55000000005413,-0.079580136,-0.6525354,-0.057895396,-2.3332062,0.21451153,1.8578141,0.48491448,0.04,0.03999998,-0.00030095199352597746,0.006430680207174244,-0.009829090339641411,-0.03041490801709052,-0.1338913490836354,0.06775989551653239,0.9865995765495686,-0.06372186954854285,0.11105525067524304,0.10113125229576317
203.5666666667208,-0.08020686,-0.6514993,-0.058350846,-2.3330243,0.21619494,1.8600668,0.48254967,0.04,0.039999973,0.0003325193588477049,0.006248666921006285,-0.009409941712834602,-0.029893530187492523,-0.13370899092534877,0.06710405058023358,0.9864094961413583,-0.06401594468245055,0.1120721348135418,0.10167645424040181
203.5833333333875,-0.08083151,-0.6504665,-0.05880478,-2.3328428,0.21787275,1.8623126,0.48019278,0.04,0.039999973,0.000639810437830235,0.00625519318602219,-0.009183365975462543,-0.029371406725886916,-0.1335104040946487,0.0664411089918026,0.9862190445446469,-0.06430578857190358,0.11308744879114205,0.10221541302318429
203.60000000005417,-0.08145399,-0.6494374,-0.059257157,-2.3326619,0.21954465,1.8645507,0.47784406,0.04,0.03999997,0.0007599696474125395,0.005992762671690188,-0.009877407184366582,-0.028851193846049915,-0.13329115106039297,0.06577506784372014,0.9860282693498078,-0.06459148212978007,0.11410094017369285,0.10274807993719659
203.61666666672085,-0.08207425,-0.6484119,-0.059707917,-2.3324816,0.22121057,1.8667803,0.47550377,0.04,0.039999977,-0.00029657099056557,0.005566658888370157,-0.010554422142861064,-0.028331708460274878,-0.1330519334299577,0.06510484190302897,0.9858372541662132,-0.06487302548110083,0.11511191824887995,0.1032746103358081
203.63333333338753,-0.0826922,-0.6473903,-0.06015701,-2.332302,0.22287035,1.8690016,0.47317222,0.04,0.039999966,0.00022170311706481982,0.005418029156735449,-0.01049469226002131,-0.02781365780762552,-0.13279880887805798,0.06443316224295795,0.9856460030868144,-0.06515038841401959,0.11612062695016391,0.10379491069021943
203.6500000000542,-0.08330778,-0.64637274,-0.060604356,-2.3321245,0.2245237,1.8712145,0.4708497,0.04,0.039999973,-0.001916472044860562,0.005080951789991628,-0.011377326555073175,-0.02729600909799762,-0.1325269009095142,0.06375348418421511,0.9854546178118843,-0.06542353087691126,0.11712637298998796,0.10430901490782579
203.6666666667209,-0.083920896,-0.6453591,-0.06104993,-2.331947,0.22617039,1.8734183,0.46853644,0.04,0.03999997,0.0006936887952058157,0.005021456990367268,-0.010854988978481472,-0.026780764173738925,-0.13224271702569154,0.06307318724566577,0.985263079982014,-0.06569255872262834,0.11812955003802054,0.1048167942681153
203.68333333338757,-0.08453147,-0.6443498,-0.061493676,-2.33177,0.22781032,1.8756131,0.4662327,0.04,0.039999973,0.0012388130767204686,0.004779979552496649,-0.011089438712907906,-0.02626662089888298,-0.1319394689198958,0.06238784239037316,0.9850713969066519,-0.06595749147603847,0.11913029549818255,0.10531820834538277
203.70000000005425,-0.08513945,-0.64334476,-0.061935525,-2.3315933,0.22944324,1.8777986,0.46393877,0.04,0.039999973,0.0004571599896641132,0.004569052254119188,-0.011308895804607033,-0.02575425084918922,-0.13161584562699802,0.06169999788958565,0.9848796379562994,-0.06621828953811365,0.12012823672213056,0.10581324875339092
203.71666666672093,-0.08574479,-0.64234406,-0.062375445,-2.3314173,0.23106901,1.8799741,0.46165496,0.04,0.039999977,-0.00012029850195993674,0.004231712502598961,-0.01188314125699641,-0.025244484390511093,-0.13127321389737037,0.061010832619620384,0.9846878649302869,-0.0664749530779708,0.1211229664292385,0.1063020050408087
203.7333333333876,-0.086347386,-0.64134794,-0.06281339,-2.331242,0.23268738,1.88214,0.4593815,0.04,0.039999977,0.00025195246968756635,0.004107153801533037,-0.01187225168874928,-0.02473694202150347,-0.13091536363899148,0.06031867318556614,0.9844960933554777,-0.06672750200628245,0.12211463222356399,0.10678435859576008
203.75000000005429,-0.086947165,-0.6403565,-0.06324927,-2.3310678,0.23429818,1.8842961,0.45711866,0.04,0.03999997,-0.0002637221345302976,0.0037680497866524054,-0.012177853512196357,-0.02423223422482955,-0.1305378523850364,0.05962487136829295,0.9843043775108343,-0.06697593204622075,0.12310295656664214,0.10726033294792787
203.76666666672097,-0.087544076,-0.63936967,-0.06368308,-2.3308942,0.23590125,1.8864416,0.4548667,0.04,0.03999997,-0.00013048679436966637,0.00354920836745376,-0.012442124360401152,-0.02373054679757359,-0.13014344036291325,0.058929348721360075,0.9841127634063265,-0.06722027020166145,0.12408770425833532,0.10772996717104814
203.78333333338765,-0.088138014,-0.6383879,-0.06411473,-2.3307219,0.23749627,1.8885764,0.452626,0.04,0.03999998,-0.0006048151635518195,0.003180792528904852,-0.013080034217538561,-0.023231111447595612,-0.12973141597379564,0.058228947703457365,0.9839213078784503,-0.06746053097844273,0.1250686356742218,0.10819322082947264
203.80000000005433,-0.08872895,-0.63741124,-0.06454419,-2.3305507,0.2390832,1.8907002,0.45039657,0.04,0.039999973,-0.0007408715607004623,0.0029471377302206503,-0.013221611300595626,-0.022735689966399804,-0.12930408814809152,0.05753247007733689,0.9837300433136812,-0.06769677651288578,0.12604559312538463,0.10865015777944093
203.816666666721,-0.0893168,-0.63643944,-0.06497143,-2.330381,0.24066184,1.8928128,0.44817892,0.04,0.039999973,-0.0016041964440827172,0.0026632574792642694,-0.013390842397731362,-0.022242789775743912,-0.12886176566172616,0.0568336741759459,0.9835390466241396,-0.06792889546833614,0.127018173625268,0.10910083636265994
203.83333333338769,-0.08990148,-0.6354731,-0.06539637,-2.3302116,0.242232,1.8949143,0.44597316,0.04,0.03999997,0.00088522151049375,0.0025239162023099615,-0.01319955007534901,-0.021753434894016634,-0.12840524748797086,0.05613097360573845,0.9833482676998491,-0.06815704954706113,0.12798702698120418,0.10954506804625153
203.85000000005437,-0.09048294,-0.634512,-0.065818965,-2.3300428,0.24379347,1.897004,0.44377965,0.04,0.039999977,0.00045413466047694584,0.002276988232925714,-0.013432555007897307,-0.021267674576934077,-0.12792959134150725,0.05542918910065617,0.9831577730216667,-0.06838119303342041,0.12895179172507173,0.10998291320608168
203.86666666672104,-0.09106109,-0.6335564,-0.06623916,-2.3298748,0.24534607,1.8990821,0.44159853,0.04,0.039999973,0.00020854380682333584,0.001977371914620163,-0.01364625984972001,-0.020786027763331653,-0.12743538664416684,0.05472593599316178,0.9829675972926788,-0.06860140230238637,0.12991236525770955,0.11041434520908784
203.88333333338772,-0.09163591,-0.63260615,-0.06665694,-2.3297076,0.24688964,1.9011481,0.4394301,0.04,0.039999977,-0.0006988268521856966,0.001756696978495731,-0.01388884258102241,-0.020308405040160543,-0.12692239064696292,0.054023065686962655,0.9827778153757541,-0.06881763316269916,0.13086830970118685,0.11083945365752543
203.9000000000544,-0.0922073,-0.6316616,-0.06707222,-2.3295412,0.24842401,1.9032018,0.43727455,0.04,0.03999997,0.00019371659636391314,0.0014030262017433737,-0.014136496677052968,-0.01983489672785517,-0.1263945391546482,0.053319879833059344,0.9825884325665585,-0.06902997404929065,0.13181975453824016,0.11125820051855188
203.91666666672108,-0.092775226,-0.6307227,-0.06748498,-2.3293762,0.24994905,1.905243,0.43513212,0.04,0.039999973,-0.0013794291169322292,0.0011070478917699078,-0.014610102845535877,-0.019366125571503773,-0.125849630972784,0.052619072300233743,0.9823995353645983,-0.06923839036636316,0.13276615130539904,0.11167070915172173
203.93333333338776,-0.093339615,-0.62978977,-0.06789517,-2.3292127,0.25146446,1.9072714,0.43300322,0.04,0.039999977,-0.0011814874125049002,0.0008250656786779054,-0.015003608785568723,-0.018901249066571486,-0.1252894154934159,0.051916441950976645,0.9822111706562013,-0.06944287582621442,0.13370737662068088,0.11207694085928217
203.95000000005444,-0.09390038,-0.628863,-0.0683027,-2.3290505,0.25297025,1.9092867,0.43088788,0.04,0.03999996,-0.0009917504679490818,0.0003887890451706455,-0.015139809516262481,-0.018441669494853243,-0.12471687564795762,0.051216186115329194,0.9820233482736446,-0.06964355524361705,0.1346434201299157,0.11247696686063596
203.96666666672112,-0.094457455,-0.62794244,-0.0687076,-2.3288891,0.2544661,1.9112887,0.4287864,0.04,0.039999973,0.0002876742038582236,0.0003705102776585534,-0.015073469535553663,-0.01798607536200645,-0.12412749974748853,0.05051453231878356,0.9818360821390152,-0.06984046931011016,0.13557442792390526,0.11287068330420563
203.9833333333878,-0.095010795,-0.6270281,-0.069109775,-2.3287284,0.25595194,1.9132774,0.42669907,0.04,0.03999997,0.00017623726378257487,3.9133331138085925e-05,-0.015003831871318596,-0.017535132738778096,-0.12352221789857112,0.04981395346840736,0.9816494052749298,-0.07003358377389149,0.13650030897440896,0.1132581472435985
204.00000000005448,-0.09556035,-0.6261198,-0.06950919,-2.3285685,0.25742766,1.9152523,0.4246262,0.04,0.039999973,-0.0002860041533603308,-0.0002313909819501303,-0.015108505832417407,-0.017089616141635254,-0.12289923499086337,0.04911571162354706,0.9814633801502997,-0.07022287738411873,0.1374207379528658,0.11363943724048094
204.01666666672116,-0.09610605,-0.6252176,-0.06990583,-2.3284094,0.2588929,1.9172137,0.42256784,0.04,0.039999977,-0.0005874758209900577,-0.00032975976540644547,-0.015225542665242564,-0.01664997988533458,-0.12226021774934036,0.048418570212896354,0.9812780473664588,-0.07040844718466538,0.1383356342941376,0.11401445788211473
204.03333333338784,-0.09664783,-0.6243225,-0.07029963,-2.3282516,0.26034755,1.9191607,0.4205242,0.04,0.039999977,-7.966213668719746e-05,-0.0009058754644283851,-0.016272443006259962,-0.016215517078615363,-0.12160520202788458,0.0477216732251421,0.9810934242731694,-0.07059041831082355,0.13924491798848995,0.11438329644239462
204.05000000005452,-0.09718563,-0.6234335,-0.07069051,-2.328096,0.2617915,1.9210933,0.41849566,0.04,0.039999973,-0.003271094685319831,-0.0013327939825530377,-0.01629747999094544,-0.01578592444023319,-0.12093476807229335,0.04702906124046328,0.9809096657914134,-0.07076865232289774,0.14014756660365346,0.11474617632171083
204.0666666667212,-0.09771939,-0.62255156,-0.0710785,-2.3279412,0.26322466,1.9230117,0.41648224,0.04,0.03999998,0.0003859644100323578,-0.001308109480623043,-0.01612934053938364,-0.015360943299733067,-0.12025525328684869,0.046333455424826045,0.9807266590614895,-0.07094330441378187,0.14104462969055154,0.11510291134631538
204.08333333338788,-0.09824907,-0.62167597,-0.0714635,-2.3277876,0.2646468,1.9249153,0.41448438,0.04,0.039999977,-0.0014156923669350618,-0.0016594577024894863,-0.016011942469518203,-0.014942791553707153,-0.11955891328509272,0.04564529411173254,0.9805445296636344,-0.07111429240296215,0.1419353561122089,0.1154536160024819
204.10000000005456,-0.09877463,-0.6208075,-0.071845494,-2.3276343,0.26605782,1.9268037,0.4125021,0.04,0.03999998,0.0013073066187585525,-0.001901031509772555,-0.01633805958582979,-0.014530066889276307,-0.11884901560543357,0.044956213583934465,0.9803632165683603,-0.07128183798223116,0.14282028440651257,0.11579822768788846
204.11666666672124,-0.099295974,-0.61994606,-0.07222442,-2.3274822,0.26745757,1.928677,0.41053566,0.04,0.039999973,-0.0007366959502430603,-0.0023047436954165557,-0.01661876461325207,-0.01412364108751972,-0.1181220249042567,0.044274168259641915,0.9801828146408407,-0.07144589805792499,0.1436988564841256,0.11613686830034067
204.13333333338792,-0.099813074,-0.61909145,-0.07260026,-2.3273315,0.2688459,1.9305351,0.4085853,0.04,0.03999997,-0.0014073764315947201,-0.002503235498460543,-0.016650618661850913,-0.01372295160071689,-0.11738113400630626,0.04359463508419397,0.9800033829049704,-0.07160643035873963,0.14457083132473325,0.11646958124836106
204.1500000000546,-0.10032585,-0.61824393,-0.07297298,-2.3271825,0.2702226,1.9323777,0.4066512,0.04,0.039999977,-0.0017058774067324478,-0.002879653457388276,-0.01710078097127976,-0.013327415032859731,-0.11662648966845834,0.042912901358635146,0.979824965911657,-0.07176351432994213,0.14543598269739091,0.11679644311399448
204.16666666672128,-0.10083427,-0.6174037,-0.07334257,-2.3270357,0.27158752,1.9342048,0.4047336,0.04,0.039999977,-0.002392229068037821,-0.00311078360367284,-0.01742738511301134,-0.012938982532493037,-0.11586142470125098,0.04223885679725699,0.9796476197670618,-0.07191711647011281,0.14629409740215757,0.11711749019101625
204.18333333338796,-0.1013383,-0.6165708,-0.073708944,-2.3268895,0.27294067,1.936016,0.40283266,0.04,0.039999977,0.00017118693083073566,-0.0033617276456190948,-0.01696599821512379,-0.012555897813445072,-0.1150851847716182,0.041563841991193756,0.9794712945094143,-0.07206737750662867,0.1471456268038758,0.11743270772601534
204.20000000005464,-0.10183784,-0.61574537,-0.074072056,-2.3267443,0.27428174,1.9378109,0.40094846,0.04,0.039999977,-0.00018510688861717028,-0.0036830089816169975,-0.017315895652547653,-0.012179108430170511,-0.11429426250122476,0.04089074905455635,0.9792960394100894,-0.07221443064868326,0.14799035525695148,0.11774208233558833
204.21666666672132,-0.10233289,-0.6149273,-0.07443188,-2.3266,0.27561077,1.93959,0.3990815,0.04,0.039999973,-0.0002945761316874851,-0.003825682197820812,-0.016945069414231462,-0.011809424105107727,-0.11348931419856989,0.040228979954020944,0.9791218804686771,-0.07235807296257421,0.14882830999824465,0.1180456971163736
204.233333333388,-0.10282337,-0.6141167,-0.0747884,-2.3264573,0.27692756,1.9413522,0.39723167,0.04,0.039999973,-0.0014049768498614057,-0.004367953111093781,-0.01785149772264294,-0.011446088217046374,-0.11266921627813353,0.03956458659603292,0.9789489035170588,-0.0724985404241548,0.1496588527498613,0.11834371015271972
204.25000000005468,-0.10330923,-0.61331385,-0.075141564,-2.3263164,0.2782319,1.9430981,0.3953992,0.04,0.039999984,-0.0019289830610835779,-0.004563760712689158,-0.017948819408553085,-0.011088235612493176,-0.11183805238071151,0.03890268314140219,0.9787771461850118,-0.07263580284898075,0.1504819378639676,0.11863610170227756
204.26666666672136,-0.10379042,-0.61251867,-0.07549134,-2.3261771,0.27952382,1.9448271,0.39358437,0.04,0.039999973,-0.0016388418400348215,-0.004961190429900175,-0.01798573120916913,-0.01073774623092804,-0.11099787869979758,0.038249618476822664,0.9786066296125681,-0.07276987357930605,0.15129747532102944,0.11892301685991845
204.28333333338804,-0.10426688,-0.61173123,-0.07583772,-2.326039,0.28080305,1.9465393,0.39178732,0.04,0.039999977,-0.0007117480976592816,-0.004983238778984156,-0.01775725522863425,-0.010393502220017344,-0.1101469703589899,0.03759771528964957,0.9784373591500718,-0.07290081634887337,0.15210564847822075,0.11920434931713357
204.30000000005472,-0.10473867,-0.6109517,-0.07618067,-2.3259017,0.28206944,1.9482346,0.39000815,0.04,0.039999977,0.0003680600604294426,-0.005015315875862847,-0.01766053705776205,-0.010055801891227713,-0.10928448759367249,0.03694892087194525,0.9782693275502878,-0.07302869954868137,0.15290666937922004,0.11948004969822339
204.3166666667214,-0.10520568,-0.61017996,-0.07652012,-2.3257656,0.28332308,1.9499124,0.38824695,0.04,0.039999984,-0.0010067390862955605,-0.0056856024630347335,-0.018020882775626745,-0.009725359052951882,-0.10840603693781266,0.03630661715160674,0.9781026094997958,-0.07315360330091092,0.15369997209512767,0.11975038284590117
204.33333333338808,-0.10566785,-0.6094163,-0.076856084,-2.3256311,0.28456372,1.9515729,0.38650405,0.04,0.03999998,-0.0014259044221365258,-0.005920877260554014,-0.018444477768309042,-0.009400779842864325,-0.10751750985722586,0.03566713489079517,0.9779372508229529,-0.07327548349354171,0.15448542713674893,0.12001537307365538
204.35000000005476,-0.10612515,-0.60866076,-0.07718849,-2.3254988,0.28579122,1.9532161,0.38477954,0.04,0.039999977,-0.0023104125220996252,-0.006208320004336132,-0.018576608538833916,-0.009083313734894384,-0.1066188240345334,0.035032787738869024,0.97777330368861,-0.07339438109677841,0.1552628087835584,0.12027506651805302
204.36666666672144,-0.10657754,-0.6079134,-0.07751733,-2.325368,0.28700557,1.9548413,0.38307363,0.04,0.039999984,-0.0011958137020595672,-0.00655472532294088,-0.018622542450907886,-0.00877203020460908,-0.10571033570694316,0.034400171663533916,0.97761077296113,-0.0735103779137501,0.15603211783367912,0.12052957783737867
204.38333333338812,-0.107024945,-0.6071739,-0.077842586,-2.3252375,0.2882066,1.9564488,0.3813863,0.04,0.03999998,0.00037747599785920016,-0.006457806951487566,-0.017741439678964355,-0.008467714731889495,-0.10479430785855808,0.03377332849329534,0.9774496202397615,-0.07362358998202699,0.15679381334093428,0.12077875222617815
204.4000000000548,-0.10746736,-0.606443,-0.07816421,-2.3251088,0.28939426,1.9580384,0.37971786,0.04,0.03999998,-0.001111869333403348,-0.006999058744697195,-0.018791454754651937,-0.00817026941295361,-0.10386499695239591,0.03315311930201342,0.97728991948924,-0.07373397563545886,0.1575474534152178,0.12102278307857652
204.41666666672148,-0.107904755,-0.6057202,-0.07848218,-2.3249815,0.2905684,1.9596102,0.37806836,0.04,0.039999977,-0.0012230305666216523,-0.007131852815261963,-0.018422583949750937,-0.007880388013705969,-0.10292422332539679,0.03253971474717881,0.9771317049097267,-0.07384157640650632,0.15829293494453386,0.12126169881977694
204.43333333338816,-0.10833711,-0.6050059,-0.078796476,-2.3248558,0.29172888,1.9611635,0.37643805,0.04,0.03999998,-0.0015346919978842521,-0.007486358903097123,-0.01904349885584189,-0.00759703538213901,-0.10197427222582818,0.03192935757665499,0.9769750337093203,-0.07394642779836455,0.15902995342533022,0.12149560995390472
204.45000000005484,-0.10876436,-0.60429996,-0.079107076,-2.3247323,0.29287577,1.9626982,0.37482694,0.04,0.039999984,-0.002660829973555323,-0.007960746734614332,-0.019220684911669395,-0.007319711181741281,-0.10101754908820756,0.03132164223970095,0.9768199571692986,-0.07404859393099196,0.15975815504765048,0.12172472595320755
204.46666666672152,-0.10918646,-0.6036026,-0.079413936,-2.3246095,0.29400882,1.9642153,0.3732352,0.04,0.03999998,0.0007976301455325796,-0.007595782941002827,-0.018012626324503955,-0.007047832973395576,-0.10005465044503901,0.030714835369321746,0.9766663513948552,-0.07414811448795902,0.16047871286376902,0.12194866907239939
204.4833333333882,-0.10960341,-0.6029137,-0.079717025,-2.324488,0.2951279,1.9657133,0.37166294,0.04,0.03999997,-0.0009652630522882788,-0.008252665200964016,-0.01901314932635234,-0.006784687350768821,-0.09907694878857519,0.030117692473424586,0.9765143535426695,-0.07424511782470737,0.16119063258609734,0.12216775258156952
204.50000000005488,-0.11001514,-0.6022333,-0.080016345,-2.3243678,0.2962331,1.967192,0.37011027,0.04,0.03999998,-0.0013678189397126062,-0.00864830566882635,-0.01917086147709135,-0.006529590389549908,-0.09809296556744504,0.02953318522292369,0.9763639887507888,-0.0743396347963363,0.16189375917172022,0.12238215110973465
204.51666666672156,-0.11042169,-0.6015615,-0.08031189,-2.3242497,0.29732436,1.9686519,0.36857733,0.04,0.039999984,-0.002536828665533619,-0.008802739905749979,-0.01938712268303444,-0.006279014601883348,-0.09710236427193047,0.02894928999006716,0.9762153110337377,-0.07443157537615218,0.162587863640412,0.12259198051738043
204.53333333338824,-0.11082299,-0.60089856,-0.08060363,-2.3241336,0.29840147,1.970093,0.3670643,0.04,0.039999984,-0.0015718231054728804,-0.008882653276220953,-0.019256759651464783,-0.00603481313869713,-0.09610791128133547,0.028367268689767938,0.9760683035918304,-0.07452099173777901,0.16327324948602062,0.12279712747479096
204.55000000005492,-0.11121899,-0.6002442,-0.08089153,-2.3240182,0.29946434,1.9715154,0.365571,0.04,0.039999988,0.00022647318020929674,-0.00892290342683344,-0.018417473243292903,-0.005797919989824679,-0.09510625579551554,0.02779173506813703,0.9759229172894657,-0.07460812499518887,0.16395031636466298,0.12299748354274564
204.5666666667216,-0.11160968,-0.5995986,-0.08117557,-2.3239043,0.30051303,1.9729189,0.36409783,0.04,0.03999998,-0.001050447140271693,-0.009333123364652085,-0.01893787921700696,-0.005566845011674121,-0.09409303671060451,0.027220921123664407,0.9757792267222589,-0.07469280815162199,0.1646186368630025,0.12319330138080738
204.58333333338828,-0.11199505,-0.59896195,-0.08145575,-2.323792,0.30154735,1.9743031,0.36264473,0.04,0.039999988,-0.0011945334811302999,-0.00959141907929395,-0.019338094701959463,-0.0053433009721353605,-0.09307233311734,0.026655292047921775,0.9756372574006457,-0.07477520738011581,0.16527809587630735,0.12338460745372246
204.60000000005496,-0.11237509,-0.5983341,-0.08173204,-2.3236818,0.30256727,1.9756682,0.3612118,0.04,0.039999984,-0.0024696861276041204,-0.009840841964114944,-0.019397073453841784,-0.005126545703401798,-0.09204506586712499,0.026097538139924315,0.9754970781369273,-0.0748552855522294,0.16592832431011273,0.12357154997348631
204.61666666672164,-0.11274971,-0.597715,-0.08200441,-2.3235734,0.30357274,1.9770141,0.35979927,0.04,0.039999984,-0.0014831930226000267,-0.010065299861558574,-0.019124540914905452,-0.0049165894714426756,-0.09101427344232438,0.025545953463264687,0.9753586719526667,-0.07493308410952738,0.16656953466536667,0.12375412750259328
204.63333333338832,-0.11311895,-0.59710497,-0.08227287,-2.3234658,0.3045638,1.9783406,0.35840708,0.04,0.039999984,0.00010403711632189783,-0.010094369223251354,-0.018878209122941136,-0.004712844462959283,-0.08997944826876737,0.024998829896845775,0.9752219906040838,-0.0750087046682663,0.16720209278898798,0.12393233409074382
204.650000000055,-0.11348279,-0.5965039,-0.08253739,-2.3233593,0.30554035,1.9796479,0.3570353,0.04,0.03999998,9.517121810631579e-05,-0.01027312408651282,-0.01882866592359811,-0.004516186696970251,-0.08893450966708161,0.024457801714252665,0.9750870505228852,-0.0750821911532681,0.16782597046558512,0.12410621302533148
204.66666666672168,-0.11384119,-0.5959118,-0.08279795,-2.3232543,0.30650225,1.9809356,0.35568398,0.04,0.039999988,-0.0014993182313682851,-0.010625371707734255,-0.019267313542825626,-0.00432619193098964,-0.08788049729248684,0.023921848892365725,0.9749539400367285,-0.07515360975632561,0.1684406476819432,0.12427589450871199
204.68333333338836,-0.1141941,-0.5953287,-0.08305456,-2.3231525,0.3074495,1.9822035,0.35435325,0.04,0.039999984,-0.004243762637301529,-0.011198491888872453,-0.020122596994687214,-0.0041417675108956775,-0.08682183155310969,0.023392045815512783,0.9748227807544094,-0.07522290848390162,0.16904533989373785,0.1244416860287329
204.70000000005504,-0.11454159,-0.5947546,-0.083307214,-2.3230517,0.30838206,1.9834518,0.3530431,0.04,0.039999984,-4.1432987840650526e-05,-0.010760622177358181,-0.01883264354962666,-0.0039634143246055215,-0.08576713735505176,0.022867393161500226,0.9746934235144662,-0.07529019006287463,0.16964116891183723,0.12460333562217014
204.71666666672172,-0.114883594,-0.59418947,-0.08355588,-2.3229523,0.3092998,1.9846803,0.35175365,0.04,0.039999988,-0.001146362932979983,-0.011176826190162359,-0.019245897949327073,-0.0037912848567657753,-0.08470456937841814,0.022347237012670933,0.9745659433993532,-0.07535553877099756,0.17022769572323437,0.12476095683914619
204.7333333333884,-0.11522009,-0.59363353,-0.083800554,-2.3228538,0.31020284,1.985889,0.3504849,0.04,0.039999984,0.00012320207134486338,-0.011303510299365271,-0.018960368589171495,-0.003625071895641381,-0.0836392839616045,0.021835112743161064,0.9744402862020928,-0.07541899746502197,0.17080529309798775,0.12491459201176293
204.75000000005508,-0.1155511,-0.5930867,-0.08404122,-2.3227575,0.31109113,1.9870781,0.3492369,0.04,0.03999999,-0.0021420984817943634,-0.011571536255144954,-0.019357328753111247,-0.003464975028942538,-0.08256649061254534,0.021328215671596894,0.9743165436651042,-0.07548051582067238,0.1713734543626397,0.12506439785864987
204.76666666672176,-0.115876585,-0.5925488,-0.08427789,-2.3226635,0.31196466,1.9882474,0.34800974,0.04,0.039999988,-0.003068720050269924,-0.01184962234420106,-0.019431844821826694,-0.0033110941070276997,-0.08149313260354168,0.020827632234147898,0.9741947751458346,-0.07554009588435667,0.171931826421492,0.1252105469028424
204.78333333338844,-0.11619653,-0.5920202,-0.08451056,-2.3225703,0.3128234,1.9893967,0.34680346,0.04,0.03999999,0.0007366634676264638,-0.011799207728943606,-0.018932824411033167,-0.00316325931441485,-0.08041928326855656,0.020331194955753067,0.9740748495930699,-0.07559791340464785,0.17248130160911437,0.12535287581195512
204.80000000005512,-0.11651096,-0.5915008,-0.084739216,-2.3224785,0.31366724,1.9905262,0.34561792,0.04,0.03999999,-0.000817813626619035,-0.011872832503545538,-0.01903220436949571,-0.0030213453349640096,-0.07934011751860877,0.019841675370410372,0.9739568338755051,-0.07565401985455457,0.1730215452735119,0.12549143356506146
204.8166666667218,-0.11681986,-0.59099054,-0.08496382,-2.3223884,0.31449625,1.9916358,0.3444533,0.04,0.039999988,-0.0013931763912511386,-0.012238665189190367,-0.019118772224979708,-0.00288468876326492,-0.07825766430654829,0.019358019040312008,0.9738407624885621,-0.07570837197281136,0.17355235130018526,0.12562640282639534
204.83333333338848,-0.11712322,-0.5904894,-0.08518444,-2.3223,0.31531045,1.9927254,0.34330958,0.04,0.039999988,-0.0014425867876255438,-0.012324320292800284,-0.019148432794580117,-0.00275409730411396,-0.07717334728990985,0.01888145252786122,0.9737266475876227,-0.07576101259863863,0.1740736647063376,0.125757878494765
204.85000000005516,-0.11742103,-0.5899974,-0.085401,-2.322214,0.31610975,1.9937952,0.34218684,0.04,0.039999984,-0.0026238681963164368,-0.012590839451467883,-0.019364031736279763,-0.0026291460776585035,-0.07608857554485925,0.018410612810712317,0.9736145420729662,-0.07581192701020074,0.17458525059614144,0.12588592241124807
204.86666666672184,-0.1177133,-0.58951443,-0.085613556,-2.3221288,0.31689414,1.9948448,0.34108496,0.04,0.039999988,-0.0003223637654814482,-0.012452921852951215,-0.01869374708949323,-0.002509422678880824,-0.07500548831982148,0.01794298609664848,0.9735043785269902,-0.07586128432913629,0.1750875435366003,0.12601048617885563
204.88333333338852,-0.11800003,-0.5890406,-0.085822105,-2.3220448,0.3176637,1.9958749,0.340004,0.04,0.039999984,-0.00030487373585685873,-0.012479008160889982,-0.01848200406757705,-0.0023942465232056447,-0.07391918675063776,0.01747990502442496,0.9733961391910805,-0.07590902690840175,0.175580755095604,0.12613157527667657
204.9000000000552,-0.11828124,-0.588576,-0.086026594,-2.321963,0.3184184,1.996885,0.33894387,0.04,0.04,-0.0020694182171876463,-0.012998293328181365,-0.01930402709262591,-0.0022856098620668078,-0.07282995857838828,0.017024685925230668,0.9732899088865897,-0.07595525325960925,0.17606429639847065,0.12624942097100522
204.91666666672188,-0.118556924,-0.5881205,-0.0862271,-2.3218832,0.31915814,1.9978749,0.33790457,0.04,0.039999995,-0.0020582397552315612,-0.012902693481792182,-0.019098680105811283,-0.002181479717801478,-0.07174434427124626,0.01657585045238716,0.9731857128839029,-0.0759999961581226,0.176538092974162,0.12636403978846786
204.93333333338856,-0.11882706,-0.5876742,-0.086423576,-2.3218045,0.3198831,1.9988453,0.3368861,0.04,0.04,-0.00012643989595328975,-0.012880527278494314,-0.018296400646944377,-0.0020820991859454817,-0.07065995053640003,0.016132251204673077,0.9730834415287188,-0.07604326591609127,0.17700288535395298,0.12647535770977075
204.95000000005524,-0.11909169,-0.587237,-0.086616054,-2.3217273,0.3205933,1.9997958,0.33588845,0.04,0.039999984,-0.0009488272145974364,-0.01311127462160222,-0.018701980402924256,-0.0019883489001254993,-0.0695736880067239,0.015696430605062525,0.9729831571653188,-0.07608512364728034,0.17745825757270553,0.12658355600727086
204.96666666672192,-0.119350806,-0.586809,-0.08680453,-2.3216515,0.3212887,2.0007265,0.33491153,0.04,0.03999999,-0.0007419389668639198,-0.013160661450803413,-0.018552945165972723,-0.0018992923170133742,-0.06848830028252142,0.01526519515764401,0.9728848464226607,-0.0761256175510991,0.17790434382150472,0.12668863565079339
204.9833333333886,-0.11960443,-0.5863901,-0.08698903,-2.321578,0.32196936,2.0016375,0.33395526,0.04,0.03999998,-0.0025942950635737816,-0.013356678916637277,-0.01890335302889845,-0.0018151618624492397,-0.06740279040783854,0.014841274400028616,0.9727885793100957,-0.07616472969679652,0.1783407265669323,0.12679076922882937
205.00000000005528,-0.11985256,-0.5859801,-0.0871695,-2.3215063,0.32263526,2.0025282,0.3330198,0.04,0.039999995,-0.0017715171156007514,-0.013603575117246414,-0.018724911104262,-0.0017343138895235463,-0.06632023213374427,0.014418766297842962,0.9726943614050589,-0.07620253083667819,0.17876736684986363,0.12689003953997346
205.01666666672196,-0.12009522,-0.5855794,-0.087346,-2.3214355,0.3232865,2.0034,0.332105,0.04,0.039999988,0.0007424580370507528,-0.012997514498580554,-0.01766204203850208,-0.0016580372073522545,-0.06524534478589485,0.014004975718217922,0.9726020363154646,-0.07623897274709951,0.1791854186393917,0.1269861556883453
205.03333333338864,-0.12033244,-0.58518755,-0.08751853,-2.3213658,0.32392308,2.0042524,0.33121076,0.04,0.039999995,-0.0005911053182927617,-0.013356078368001456,-0.017954727716595897,-0.0015876086353327767,-0.06416519200706312,0.013596231204137225,0.9725116888053116,-0.07627418706472029,0.1795942769109302,0.12707934224529618
205.05000000005532,-0.1205642,-0.5848046,-0.08768712,-2.3212984,0.324545,2.0050848,0.33033693,0.04,0.039999995,-0.0026334036001829375,-0.013751056739186307,-0.018688500425589893,-0.0015215430661323498,-0.06308556218956012,0.013193932436798039,0.9724234147589504,-0.07630824140248675,0.17999328148486526,0.12716986019852378
