rsonawane2002/My_IMU/logs_2/traj_269/imu_269.csv
time,j1,j2,j3,j4,j5,j6,j7,gripper1,gripper2,imu_ax,imu_ay,imu_az,imu_gx,imu_gy,imu_gz
199.93333333338458,0.00016700293,-0.785875,4.0107683e-05,-2.3551247,9.29385e-05,1.570997,0.786,0.04,0.04,-9.526512,-0.007868163287639618,0.0832374,-1.6389212e-07,-0.0011641274904832244,4.848006e-07
199.95000000005126,0.00016700364,-0.78576016,4.0113064e-05,-2.3552213,9.297982e-05,1.5709941,0.786,0.04,0.04,-9.834407,0.0006318518426269293,0.009094093,-4.4937912e-07,-0.002238459885120392,1.3908292e-06
199.96666666671794,0.00016699031,-0.78565425,4.0107323e-05,-2.35531,9.305843e-05,1.5709913,0.786,0.04,0.04,-9.83245,0.0006178689072839916,0.007620894,-2.4734732e-06,-0.003229668363928795,4.5725146e-06
199.98333333338462,0.00016693921,-0.7855568,4.0072973e-05,-2.355391,9.323996e-05,1.5709884,0.786,0.04,0.04,-9.83065,0.0005900628748349845,0.0063443626,-7.836324e-06,-0.00414672214537859,1.22176925e-05
200.0000000000513,0.000166816,-0.7854669,3.9984898e-05,-2.3554652,9.361863e-05,1.5709856,0.786,0.04,0.04,-9.828928,0.0005539749981835485,0.00522122,-1.8357789e-05,-0.004993972834199667,2.6270307e-05
200.01666666671798,0.00016657695,-0.7853839,3.9811035e-05,-2.355532,9.431395e-05,1.5709858,0.7859981,0.04,0.04,-9.827384,0.0005107625620439649,0.0042120316,-3.6226542e-05,-0.005780844483524561,4.8482998e-05
200.03333333338466,0.00016616963,-0.7853074,3.9513237e-05,-2.3555954,9.546806e-05,1.5709864,0.7859962,0.04,0.04,-9.825746,0.00046115039731375873,0.0032793311,-5.384065e-05,-0.0064961290918290615,8.040445e-05
200.05000000005134,0.00016553396,-0.7852366,3.904775e-05,-2.3556535,9.724469e-05,1.5709872,0.7859943,0.04,0.04,-9.824714,0.0004116795607842505,0.0025571072,-8.260483e-05,-0.007173232268542051,0.0001234652
200.06666666671802,0.00016460293,-0.78517085,3.836592e-05,-2.355705,9.982415e-05,1.5709882,0.7859905,0.04,0.04,-9.823561,0.00035832784487865865,0.0018950487,-0.00012384089,-0.0078105381689965725,0.00017892203
200.0833333333847,0.00016330357,-0.7851096,3.741466e-05,-2.3557546,0.00010340371,1.5709926,0.78598475,0.04,0.04,-9.822186,0.0003091772086918354,0.0013489292,-0.00017099286,-0.008404445834457874,0.00024787115
200.10000000005138,0.00016155737,-0.7850523,3.6136957e-05,-2.355798,0.00010819482,1.5709974,0.78597826,0.04,0.04,-9.821485,0.00026997330132871866,0.00081452774,-0.00022633988,-0.008967959322035313,0.00033130654
200.11666666671806,0.00015928107,-0.7849985,3.44726e-05,-2.35584,0.000114421935,1.5710056,0.7859695,0.04,0.04,-9.8202915,0.00023241463350132108,0.00043719122,-0.00029659344,-0.00949716754257679,0.00043010124
200.13333333338474,0.0001563873,-0.7849476,3.2357937e-05,-2.355876,0.00012232123,1.5710142,0.78595805,0.04,0.04,-9.819735,0.0002105249441228807,9.002176e-05,-0.00037701317,-0.010006148368120193,0.0005450146
200.15000000005142,0.00015278495,-0.7848992,2.9726965e-05,-2.3559105,0.00013213359,1.5710266,0.7859447,0.04,0.04,-9.818632,0.00020078365923836827,-0.00013195846,-0.00046783683,-0.010488691739737988,0.00067585346
200.1666666667181,0.00014837984,-0.78485304,2.6511458e-05,-2.3559408,0.0001441209,1.5710427,0.7859278,0.04,0.04,-9.8181305,0.00022566819097846746,-0.00033140427,-0.0005742754,-0.010956228710711002,0.0008257526
200.18333333338478,0.00014307519,-0.7848084,2.26411e-05,-2.3559685,0.0001585385,1.5710616,0.7859076,0.04,0.04,-9.817247,0.0002549146884121001,-0.0004418345,-0.0006911627,-0.011396640911698341,0.0009926138
200.20000000005146,0.00013677157,-0.784765,1.804386e-05,-2.3559952,0.00017566414,1.5710838,0.7858837,0.04,0.039999995,-9.81669,0.0003235278418287635,-0.00047970307,-0.0008215956,-0.011827019043266773,0.0011784812
200.21666666671814,0.00012936823,-0.7847224,1.2646836e-05,-2.3560174,0.00019574299,1.5711104,0.7858557,0.04,0.04,-9.816356,0.0004013479920104146,-0.00044437556,-0.00096541375,-0.012256460264325142,0.0013805137
200.23333333338482,0.00012076239,-0.78468025,6.3753296e-06,-2.3560374,0.00021907163,1.5711414,0.7858229,0.04,0.04,-9.815521,0.0005414107581600547,-0.00038626674,-0.0011227514,-0.012664622627198696,0.001603909
200.2500000000515,0.000110850415,-0.78463817,-8.4581615e-07,-2.3560565,0.00024591965,1.5711766,0.78578544,0.04,0.04,-9.815087,0.0006897767307236791,-0.00024008472,-0.0012926826,-0.01306653581559658,0.0018446688
200.26666666671818,9.9527504e-05,-0.7845958,-9.092504e-06,-2.3560727,0.00027657437,1.5712166,0.7857425,0.039999995,0.039999995,-9.814812,0.0009037272538989782,-3.0253548e-05,-0.0014773246,-0.013471053913235664,0.0021063674
200.28333333338486,8.668837e-05,-0.78455275,-1.8441213e-05,-2.356086,0.00031131683,1.5712626,0.78569376,0.039999995,0.04,-9.814304,0.0011396966874599457,0.00022476353,-0.0016749705,-0.013870419934391975,0.0023856738
200.30000000005154,7.222714e-05,-0.7845089,-2.8968698e-05,-2.356098,0.00035043282,1.5713143,0.78563887,0.03999999,0.039999995,-9.813775,0.0014377203769981861,0.0005204887,-0.0018861155,-0.014260266907513142,0.0026852172
200.31666666671822,5.603784e-05,-0.7844637,-4.075176e-05,-2.3561094,0.0003942067,1.5713724,0.7855776,0.039999988,0.03999999,-9.813498,0.0017780381022021174,0.00091712223,-0.0021110182,-0.014651979319751263,0.003004166
200.3333333333849,3.8014496e-05,-0.7844169,-5.3867177e-05,-2.3561182,0.0004429229,1.571437,0.7855093,0.039999984,0.039999988,-9.81335,0.002178340218961239,0.0013352709,-0.0023502354,-0.0150495870038867,0.0033425079
200.35000000005158,1.8051433e-05,-0.7843683,-6.839162e-05,-2.3561249,0.00049686566,1.5715088,0.78543365,0.03999998,0.039999984,-9.812942,0.002634808886796236,0.0018129027,-0.0026029337,-0.01544572226703167,0.0037001614
200.36666666671826,-3.9568026e-06,-0.78431743,-8.4401596e-05,-2.3561296,0.0005563186,1.571588,0.78535026,0.039999977,0.039999977,-9.8126,0.0031561923678964376,0.002354999,-0.0028691418,-0.01584058441221714,0.00407791
200.38333333338494,-2.8114948e-05,-0.78426427,-0.00010197319,-2.3561337,0.00062156195,1.571675,0.7852587,0.039999973,0.039999973,-9.81231,0.0037338961847126484,0.0029519254,-0.003148622,-0.01623748429119587,0.004473918
200.40000000005162,-5.4527143e-05,-0.7842084,-0.00012118178,-2.3561373,0.0006928763,1.57177,0.7851587,0.039999966,0.039999966,-9.812168,0.0043816938996315,0.0036338596,-0.0034416888,-0.016641682013869286,0.0048888843
200.4166666667183,-8.3296705e-05,-0.7841496,-0.00014210236,-2.3561378,0.0007705391,1.5718732,0.7850498,0.03999996,0.03999996,-9.812072,0.005108525976538658,0.0043539647,-0.0037481238,-0.017055569216609,0.005322639
200.43333333338498,-0.00011452601,-0.7840877,-0.0001648091,-2.3561368,0.00085482537,1.5719856,0.7849315,0.039999958,0.039999958,-9.811686,0.00590294087305665,0.0051297527,-0.0040679825,-0.017468761652708054,0.0057749837
200.45000000005166,-0.00014831642,-0.78402245,-0.00018937576,-2.3561344,0.0009460075,1.5721071,0.78480357,0.03999995,0.03999995,-9.811494,0.006774723529815674,0.0059799612,-0.0044002333,-0.017886022105813026,0.0062456955
200.46666666671834,-0.00018476821,-0.7839535,-0.00021587496,-2.3561308,0.0010443545,1.5722384,0.7846656,0.039999947,0.039999947,-9.811299,0.007728387601673603,0.0069043217,-0.0047457786,-0.01830979250371456,0.0067345523
200.48333333338502,-0.0002239803,-0.7838806,-0.00024437852,-2.356127,0.001150132,1.5723796,0.7845172,0.039999943,0.039999943,-9.811169,0.008768412284553051,0.007868823,-0.005103875,-0.018740521743893623,0.0072412654
200.5000000000517,-0.0002660504,-0.78380376,-0.00027495733,-2.356121,0.0012636026,1.572531,0.784358,0.03999994,0.03999994,-9.811147,0.009893661364912987,0.008906663,-0.0054748934,-0.019183019176125526,0.007765586
200.51666666671838,-0.00031107466,-0.78372234,-0.0003076812,-2.3561132,0.0013850258,1.5726931,0.7841877,0.039999936,0.039999936,-9.8109255,0.011113029904663563,0.010028971,-0.005857808,-0.01963059976696968,0.008307211
200.53333333338506,-0.00035914814,-0.78363657,-0.00034261897,-2.356104,0.0015146554,1.5728662,0.7840059,0.039999936,0.039999936,-9.810738,0.012419424951076508,0.01118144,-0.0062527074,-0.020083412528038025,0.008865841
200.55000000005174,-0.00041036404,-0.78354603,-0.00037983857,-2.3560932,0.0016527433,1.5730506,0.7838121,0.039999932,0.03999993,-9.810593,0.013830604031682014,0.012429237,-0.0066596963,-0.020543595775961876,0.009442017
200.56666666671842,-0.0004648143,-0.7834507,-0.00041940642,-2.3560817,0.0017995344,1.5732466,0.78360605,0.039999932,0.039999932,-9.810458,0.015326880849897861,0.013759079,-0.0070777643,-0.021010909229516983,0.01003284
200.5833333333851,-0.00052258885,-0.78334993,-0.000461388,-2.35607,0.0019552722,1.5734545,0.78338754,0.039999936,0.039999936,-9.810411,0.016934284940361977,0.015157875,-0.0075070322,-0.021488994359970093,0.010640534
200.60000000005178,-0.0005837764,-0.7832442,-0.0005058477,-2.3560562,0.0021201945,1.5736749,0.7831561,0.039999943,0.039999943,-9.810512,0.018645910546183586,0.016579714,-0.007947872,-0.021983087062835693,0.011263901
200.61666666671846,-0.00064846384,-0.7831332,-0.0005528484,-2.3560407,0.0022945348,1.5739079,0.78291166,0.039999943,0.03999994,-9.810257,0.020472092553973198,0.018146265,-0.00839899,-0.022479187697172165,0.011903427
200.63333333338514,-0.0007167361,-0.7830165,-0.0006024519,-2.3560238,0.0024785202,1.5741538,0.78265345,0.03999995,0.03999995,-9.810119,0.022386424243450165,0.019780181,-0.008861856,-0.022981811314821243,0.012556181
200.65000000005182,-0.0007886768,-0.782894,-0.0006547191,-2.3560052,0.0026723759,1.5744128,0.7823814,0.039999958,0.039999954,-9.810049,0.024439401924610138,0.021464858,-0.00933386,-0.023493757471442223,0.013225231
200.6666666667185,-0.0008643673,-0.7827658,-0.00070970884,-2.355986,0.0028763216,1.5746853,0.78209525,0.03999997,0.039999966,-9.809894,0.026592394337058067,0.023238607,-0.009815883,-0.02401193231344223,0.0139076095
200.68333333338518,-0.00094388745,-0.78263146,-0.000767479,-2.355966,0.0030905702,1.5749718,0.78179455,0.039999977,0.039999973,-9.809926,0.028861116617918015,0.025131602,-0.010307794,-0.024542881175875664,0.014603785
200.70000000005186,-0.0010273152,-0.7824909,-0.00082808646,-2.355944,0.0033153323,1.575272,0.7814791,0.039999984,0.03999998,-9.809898,0.03125002980232239,0.027068257,-0.010808589,-0.025083225220441818,0.015313375
200.71666666671854,-0.0011147265,-0.78234357,-0.0008915864,-2.3559203,0.003550812,1.5755866,0.7811487,0.039999988,0.039999984,-9.809738,0.03376360982656479,0.029107366,-0.011318624,-0.025631273165345192,0.01603597
200.73333333338522,-0.0012061963,-0.78218985,-0.00095803256,-2.3558953,0.0037972091,1.5759159,0.7808029,0.03999999,0.039999988,-9.809693,0.036406129598617554,0.031172356,-0.01183775,-0.026188554242253304,0.016771179
200.7500000000519,-0.0013017965,-0.7820296,-0.0010274784,-2.3558688,0.0040547187,1.5762602,0.78044146,0.03999999,0.039999988,-9.809592,0.039163049310445786,0.03340611,-0.012365205,-0.026753274723887444,0.017518569
200.76666666671858,-0.0014015976,-0.7818624,-0.0010999741,-2.355842,0.0043235277,1.5766195,0.78006434,0.03999999,0.039999988,-9.809505,0.04205066338181496,0.03570452,-0.012900292,-0.027324989438056946,0.018277775
200.78333333338526,-0.0015056687,-0.7816884,-0.0011755703,-2.3558135,0.0046038246,1.5769941,0.7796709,0.039999988,0.03999998,-9.809639,0.04507606849074364,0.038085643,-0.013444238,-0.027913719415664673,0.019049196
200.80000000005194,-0.0016140759,-0.7815073,-0.0012543143,-2.3557835,0.004895786,1.5773844,0.7792612,0.039999988,0.03999998,-9.809456,0.04822949692606926,0.04055995,-0.013994877,-0.028506601229310036,0.019830728
200.81666666671862,-0.0017268844,-0.7813192,-0.0013362545,-2.3557518,0.0051995865,1.5777907,0.7788348,0.03999999,0.039999984,-9.809407,0.0515080988407135,0.043138955,-0.014552877,-0.029108526185154915,0.020622795
200.8333333333853,-0.0018441572,-0.78112376,-0.001421436,-2.3557186,0.0055153943,1.5782129,0.77839166,0.039999995,0.03999999,-9.809284,0.054921239614486694,0.045824848,-0.0151180355,-0.029715804383158684,0.021424115
200.85000000005198,-0.0019659551,-0.78092086,-0.0015099033,-2.3556843,0.0058433767,1.5786512,0.77793133,0.03999999,0.03999999,-9.80925,0.05848917365074158,0.048587143,-0.01568967,-0.030333667993545532,0.022235159
200.86666666671866,-0.0020923384,-0.78071064,-0.0016016999,-2.355649,0.00618369,1.5791063,0.77745366,0.039999995,0.039999988,-9.809178,0.062189169228076935,0.051458947,-0.016267562,-0.030960267409682274,0.023058051
200.88333333338534,-0.0022233624,-0.78049284,-0.0016968668,-2.3556118,0.006536489,1.579578,0.77695847,0.04,0.03999999,-9.809194,0.06601644307374954,0.05444696,-0.016850969,-0.03159668669104576,0.023888035
200.90000000005202,-0.002359084,-0.7802674,-0.0017954445,-2.355573,0.0069019226,1.5800666,0.77644557,0.04,0.04,-9.809049,0.06997845321893692,0.05752141,-0.017440014,-0.03223911672830582,0.024724714
200.9166666667187,-0.0024995566,-0.780034,-0.0018974721,-2.3555326,0.007280131,1.5805722,0.7759148,0.04,0.04,-9.808932,0.07411841303110123,0.060693506,-0.018034171,-0.03288840502500534,0.025571937
200.93333333338538,-0.002644831,-0.77979267,-0.0020029864,-2.3554912,0.00767126,1.581095,0.7753658,0.04,0.04,-9.808891,0.07836861163377762,0.06398238,-0.018633872,-0.033547114580869675,0.026425129
200.95000000005206,-0.002794958,-0.77954346,-0.0021120242,-2.3554492,0.008075436,1.5816355,0.7747985,0.04,0.039999995,-9.808865,0.08279350399971008,0.0673861,-0.019238047,-0.03421616554260254,0.027288336
200.96666666671874,-0.0029499838,-0.7792864,-0.0022246207,-2.3554046,0.008492802,1.5821937,0.7742127,0.04,0.04,-9.808881,0.08732758462429047,0.07088723,-0.019846031,-0.03489592671394348,0.02815484
200.98333333338542,-0.0031099562,-0.77902097,-0.0023408078,-2.3553584,0.008923477,1.5827699,0.7736083,0.04,0.039999995,-9.808632,0.0920470803976059,0.07449227,-0.020458322,-0.03557637706398964,0.029029718
201.0000000000521,-0.0032749188,-0.77874744,-0.0024606185,-2.3553107,0.009367564,1.5833635,0.77298504,0.04,0.04,-9.808554,0.09687960147857666,0.07821532,-0.02107425,-0.0362650603055954,0.029908746
201.01666666671878,-0.0034449128,-0.7784656,-0.0025840842,-2.3552618,0.009825202,1.5839753,0.7723428,0.04,0.04,-9.808471,0.10189609229564667,0.08208853,-0.021693619,-0.036963216960430145,0.03079597
201.03333333338546,-0.0036199805,-0.7781756,-0.002711233,-2.3552122,0.010296454,1.5846052,0.7716814,0.04,0.04,-9.808388,0.10701577365398407,0.08603712,-0.02231596,-0.03766898810863495,0.03168353
201.05000000005214,-0.0038001589,-0.77787685,-0.0028420938,-2.35516,0.010781472,1.5852535,0.7710006,0.04,0.04,-9.808382,0.11234591901302338,0.09011939,-0.022941092,-0.03838641941547394,0.032579944
201.06666666671882,-0.0039854855,-0.7775699,-0.0029766934,-2.3551064,0.011280325,1.5859206,0.7703007,0.04,0.04,-9.808163,0.11777430772781372,0.09428415,-0.023567928,-0.039107486605644226,0.033478055
201.0833333333855,-0.0041759955,-0.7772542,-0.0031150568,-2.3550513,0.011793113,1.5866063,0.76958066,0.04,0.04,-9.807999,0.12338148802518845,0.09861178,-0.024198182,-0.03983267769217491,0.0343808
201.10000000005218,-0.0043717213,-0.7769299,-0.003257209,-2.354995,0.012319932,1.5873107,0.76884156,0.04,0.04,-9.807934,0.12913942337036133,0.10303001,-0.024827616,-0.04056750237941742,0.03528677
201.11666666671886,-0.004572696,-0.77659714,-0.0034031721,-2.3549378,0.012860866,1.5880344,0.76808256,0.04,0.04,-9.807831,0.13504178822040558,0.10759504,-0.025461458,-0.04131109640002251,0.036195576
201.13333333338554,-0.0047789463,-0.7762555,-0.0035529663,-2.354878,0.013415987,1.5887772,0.7673034,0.04,0.04,-9.8077345,0.14110133051872253,0.112267144,-0.026095744,-0.042060304433107376,0.037106857
201.15000000005222,-0.0049905013,-0.77590525,-0.003706613,-2.3548164,0.013985373,1.5895386,0.76650417,0.04,0.04,-9.807465,0.14731648564338684,0.11705621,-0.026729811,-0.04281264543533325,0.03802018
201.1666666667189,-0.005207387,-0.77554613,-0.0038641316,-2.3547537,0.014569094,1.590319,0.7656848,0.04,0.04,-9.807286,0.1536870300769806,0.122002594,-0.02736384,-0.04357217252254486,0.03893507
201.18333333338558,-0.005429627,-0.77517825,-0.0040255385,-2.3546896,0.015167222,1.5911188,0.7648452,0.04,0.04,-9.80718,0.16020607948303223,0.12707143,-0.027997948,-0.04434078186750412,0.039851975
201.20000000005226,-0.0056572454,-0.77480155,-0.004190852,-2.354624,0.015779812,1.591938,0.76398534,0.04,0.04,-9.807007,0.16687361896038055,0.13226901,-0.02863185,-0.045116227120161057,0.040768757
201.21666666671894,-0.0058902614,-0.77441585,-0.004360087,-2.3545563,0.016406931,1.5927767,0.76310515,0.04,0.04,-9.806796,0.17370495200157166,0.1375831,-0.029265646,-0.04589631408452988,0.04168675
201.23333333338562,-0.006128696,-0.7740211,-0.004533255,-2.3544872,0.01704862,1.5936347,0.7622045,0.04,0.04,-9.806565,0.1806911826133728,0.14301232,-0.029898569,-0.04668217524886131,0.04260379
201.2500000000523,-0.0063725654,-0.77361745,-0.004710371,-2.3544164,0.017704917,1.5945125,0.7612834,0.04,0.04,-9.806347,0.187819242477417,0.14860551,-0.030530408,-0.04747425392270088,0.04352122
201.26666666671898,-0.006621886,-0.7732048,-0.004891446,-2.3543448,0.018375868,1.5954098,0.7603416,0.04,0.04,-9.806128,0.1951061487197876,0.1543285,-0.031160975,-0.048271484673023224,0.044436976
201.28333333338566,-0.0068766717,-0.7727831,-0.005076491,-2.354271,0.019061526,1.5963266,0.75937927,0.04,0.04,-9.805971,0.20255182683467865,0.16018702,-0.031789534,-0.04907790571451187,0.045352634
201.30000000005234,-0.0071369344,-0.77235234,-0.005265513,-2.354195,0.019761907,1.5972633,0.7583962,0.04,0.04,-9.805617,0.21014481782913208,0.16615552,-0.03241637,-0.04988708347082138,0.046265367
201.31666666671902,-0.0074026836,-0.7719125,-0.0054585217,-2.3541179,0.020477042,1.5982198,0.7573924,0.04,0.04,-9.805273,0.2178822010755539,0.17228626,-0.03304067,-0.05069829896092415,0.04717695
201.3333333333857,-0.0076739294,-0.7714636,-0.005655522,-2.3540394,0.021206953,1.5991957,0.7563678,0.04,0.04,-9.805046,0.2257799357175827,0.17856218,-0.033662092,-0.05151774361729622,0.04808518
201.35000000005238,-0.007950681,-0.7710056,-0.0058565205,-2.3539603,0.021951675,1.6001915,0.7553224,0.04,0.04,-9.804773,0.23384112119674683,0.184958,-0.034280386,-0.05234376713633537,0.04899129
201.36666666671906,-0.008232942,-0.7705386,-0.0060615214,-2.3538785,0.022711203,1.601207,0.75425625,0.04,0.04,-9.804608,0.24203036725521088,0.19152506,-0.03489573,-0.05318111181259155,0.049893983
201.38333333338574,-0.008520719,-0.77006245,-0.0062705274,-2.3537948,0.023485564,1.6022424,0.75316936,0.04,0.04,-9.804081,0.2503696084022522,0.19821084,-0.03550766,-0.054016128182411194,0.050792344
201.40000000005242,-0.008814012,-0.76957715,-0.0064835423,-2.3537095,0.024274774,1.6032977,0.7520617,0.04,0.04,-9.803704,0.25887009501457214,0.20503406,-0.036116343,-0.054855603724718094,0.051687513
201.4166666667191,-0.009112822,-0.7690826,-0.0067005646,-2.3536232,0.025078807,1.6043729,0.75093305,0.04,0.04,-9.803294,0.2675221860408783,0.21199192,-0.036721308,-0.0556979775428772,0.052578323
201.43333333338578,-0.009417152,-0.76857907,-0.0069215945,-2.3535352,0.025897674,1.6054679,0.7497836,0.04,0.04,-9.802998,0.2763017416000366,0.21913339,-0.037321124,-0.05654902383685112,0.053463396
201.45000000005246,-0.009726996,-0.7680665,-0.0071466328,-2.3534458,0.026731368,1.6065826,0.74861336,0.04,0.04,-9.802569,0.2852444648742676,0.22639933,-0.037916556,-0.057403579354286194,0.05434422
201.46666666671914,-0.010042352,-0.7675447,-0.007375674,-2.3533545,0.027579892,1.6077172,0.7474223,0.04,0.04,-9.802156,0.2943268418312073,0.23382336,-0.038507685,-0.05826335400342941,0.055219393
201.48333333338581,-0.0103632165,-0.7670137,-0.0076087173,-2.353261,0.028443228,1.6088717,0.7462104,0.04,0.04,-9.801655,0.3035565912723541,0.2413566,-0.03909325,-0.05912669003009796,0.05608788
201.5000000000525,-0.010689586,-0.7664737,-0.007845754,-2.3531668,0.029321343,1.610046,0.74497765,0.04,0.04,-9.801099,0.31292057037353516,0.24908534,-0.03967369,-0.05999072641134262,0.056951027
201.51666666671917,-0.011021446,-0.7659247,-0.008086783,-2.3530705,0.030214224,1.6112403,0.7437243,0.04,0.04,-9.800717,0.3224342167377472,0.2569534,-0.040248048,-0.06086258962750435,0.057807464
201.53333333338585,-0.011358789,-0.7653666,-0.008331795,-2.3529727,0.031121867,1.6124542,0.7424503,0.04,0.04,-9.800084,0.33207687735557556,0.2649697,-0.0408172,-0.061734188348054886,0.0586562
201.55000000005253,-0.011701605,-0.7647995,-0.008580783,-2.3528736,0.03204421,1.6136878,0.7411557,0.04,0.04,-9.799566,0.34187668561935425,0.27313069,-0.04138083,-0.0626106783747673,0.059498403
201.56666666671921,-0.012049881,-0.76422316,-0.008833739,-2.3527727,0.03298124,1.614941,0.7398404,0.04,0.04,-9.798989,0.3517950177192688,0.28146353,-0.041938186,-0.06349126994609833,0.0603328
201.5833333333859,-0.012403606,-0.763638,-0.009090651,-2.3526707,0.033932887,1.6162138,0.7385044,0.04,0.04,-9.798394,0.361849844455719,0.28992563,-0.042489056,-0.06437526643276215,0.061158493
201.60000000005257,-0.012762763,-0.7630438,-0.00935151,-2.3525665,0.034899116,1.6175058,0.737148,0.04,0.04,-9.797776,0.37205055356025696,0.2985605,-0.043032486,-0.06526262313127518,0.061975066
201.61666666671925,-0.013127334,-0.7624406,-0.009616302,-2.3524609,0.03587995,1.6188176,0.73577106,0.04,0.04,-9.797045,0.38238653540611267,0.30735624,-0.04356927,-0.06615277379751205,0.06278616
201.63333333338593,-0.013497303,-0.7618285,-0.009885014,-2.3523538,0.03687526,1.620149,0.7343738,0.04,0.04,-9.796375,0.39281994104385376,0.3162948,-0.044098705,-0.0670449286699295,0.063584134
201.65000000005261,-0.0138726495,-0.7612076,-0.010157638,-2.3522453,0.037885025,1.6214995,0.7329561,0.04,0.04,-9.79566,0.4034213423728943,0.32537574,-0.044621214,-0.0679389014840126,0.06437461
201.6666666667193,-0.014253355,-0.76057786,-0.010434151,-2.352135,0.03890919,1.6228691,0.73151845,0.04,0.04,-9.794915,0.4141457676887512,0.33463505,-0.045135554,-0.06883684545755386,0.06515608
201.68333333338597,-0.014639396,-0.7599392,-0.010714545,-2.352023,0.039947737,1.624258,0.7300607,0.04,0.04,-9.794097,0.4249919652938843,0.3440705,-0.04564331,-0.06973646581172943,0.06592999
201.70000000005265,-0.015030749,-0.7592915,-0.010998796,-2.3519094,0.04100055,1.625666,0.7285825,0.04,0.04,-9.793238,0.43592560291290283,0.35363162,-0.046143275,-0.07063692808151245,0.06668876
201.71666666671933,-0.015427389,-0.75863534,-0.011286886,-2.3517945,0.042067543,1.627093,0.7270847,0.04,0.04,-9.792445,0.44701310992240906,0.3633477,-0.046633516,-0.0715412124991417,0.06743692
201.733333333386,-0.015829291,-0.75797045,-0.011578802,-2.3516786,0.043148693,1.6285386,0.72556704,0.04,0.04,-9.791547,0.458236962556839,0.3732499,-0.04711717,-0.07244712114334106,0.06817676
201.7500000000527,-0.01623643,-0.757297,-0.011874519,-2.3515606,0.044243924,1.6300029,0.72402954,0.04,0.04,-9.790709,0.46956562995910645,0.38331756,-0.047592476,-0.07335861027240753,0.06890675
201.76666666671937,-0.016648777,-0.7566148,-0.01217402,-2.3514411,0.045353133,1.6314859,0.72247255,0.04,0.04,-9.789641,0.4809824824333191,0.3935204,-0.048058573,-0.07426813244819641,0.06962215
201.78333333338605,-0.017066296,-0.75592405,-0.012477284,-2.35132,0.046476256,1.6329881,0.7208959,0.04,0.04,-9.788692,0.492535799741745,0.40388635,-0.048516985,-0.07518032193183899,0.0703267
201.80000000005273,-0.017488966,-0.7552246,-0.012784286,-2.3511977,0.047613204,1.6345093,0.7192997,0.04,0.04,-9.787638,0.5042047500610352,0.41438586,-0.048965704,-0.07609096169471741,0.071018465
201.8166666667194,-0.017916746,-0.75451696,-0.013095004,-2.3510742,0.04876392,1.6360483,0.71768427,0.04,0.04,-9.786575,0.515985906124115,0.42507565,-0.049404692,-0.0770009309053421,0.07170123
201.8333333333861,-0.018349623,-0.7538009,-0.013409415,-2.3509488,0.049928293,1.6376058,0.7160497,0.04,0.04,-9.785513,0.5278486013412476,0.435974,-0.04983519,-0.07791556417942047,0.072368756
201.85000000005277,-0.018787533,-0.7530763,-0.013727493,-2.3508217,0.051106192,1.6391816,0.71439594,0.04,0.04,-9.784309,0.5398273468017578,0.4469713,-0.050256435,-0.07882747799158096,0.07302202
201.86666666671945,-0.019230466,-0.75234354,-0.014049212,-2.3506935,0.052297574,1.6407752,0.7127234,0.04,0.04,-9.78309,0.5519044995307922,0.4581384,-0.050667338,-0.07973841577768326,0.07366404
201.88333333338613,-0.019678365,-0.75160265,-0.014374549,-2.350564,0.053502318,1.6423866,0.7110321,0.04,0.04,-9.7818985,0.5640916228294373,0.469511,-0.051069345,-0.08065196871757507,0.074293345
201.9000000000528,-0.0201312,-0.7508536,-0.014703471,-2.3504329,0.05472033,1.6440156,0.7093223,0.04,0.04,-9.780637,0.5763656497001648,0.48102653,-0.05146186,-0.08156587928533554,0.07490823
201.9166666667195,-0.020588936,-0.7500963,-0.01503595,-2.3503,0.055951513,1.6456625,0.70759386,0.04,0.04,-9.779312,0.58875572681427,0.4926918,-0.051845115,-0.08248025178909302,0.07551089
201.93333333338617,-0.021051534,-0.749331,-0.01537196,-2.3501658,0.057195764,1.647327,0.70584697,0.04,0.04,-9.777906,0.6012024879455566,0.5045127,-0.052217472,-0.08339086920022964,0.07609809
201.95000000005285,-0.021518942,-0.7485577,-0.015711471,-2.3500307,0.05845293,1.6490085,0.704082,0.04,0.04,-9.776511,0.6137547492980957,0.51651907,-0.05257942,-0.08430107682943344,0.076670974
201.96666666671953,-0.02199112,-0.7477766,-0.01605445,-2.3498936,0.05972294,1.6507072,0.7022991,0.04,0.04,-9.775098,0.6264050006866455,0.5286879,-0.052931774,-0.08521328866481781,0.07723006
201.9833333333862,-0.022468038,-0.74698764,-0.01640087,-2.3497558,0.06100566,1.6524229,0.7004983,0.04,0.04,-9.77354,0.639134407043457,0.54100263,-0.053274095,-0.08612170070409775,0.07777456
202.0000000000529,-0.022949642,-0.7461911,-0.01675069,-2.3496165,0.062300965,1.6541555,0.6986797,0.04,0.04,-9.772087,0.6519285440444946,0.55350196,-0.053606067,-0.08703236281871796,0.07830321
202.01666666671957,-0.023435885,-0.74538684,-0.017103886,-2.3494756,0.06360873,1.6559044,0.6968435,0.04,0.04,-9.770467,0.6648094654083252,0.5661618,-0.053927056,-0.08794017136096954,0.07881685
202.03333333338625,-0.023926731,-0.7445749,-0.01746042,-2.349333,0.06492884,1.65767,0.6949901,0.04,0.04,-9.768797,0.6777737736701965,0.5789741,-0.054237194,-0.08884710818529129,0.07931599
202.05000000005293,-0.02442212,-0.7437554,-0.01782026,-2.34919,0.066261165,1.6594521,0.6931194,0.04,0.04,-9.767064,0.6908132433891296,0.5919245,-0.054537434,-0.08974992483854294,0.079799846
202.0666666667196,-0.024922006,-0.7429284,-0.018183373,-2.3490453,0.067605585,1.6612505,0.69123185,0.04,0.04,-9.76544,0.7039090991020203,0.60508174,-0.05482661,-0.09065438061952591,0.080266975
202.0833333333863,-0.02542634,-0.7420942,-0.018549718,-2.3488994,0.06896195,1.663065,0.6893275,0.04,0.04,-9.763585,0.7170796990394592,0.6183543,-0.05510527,-0.09155400842428207,0.08071921
202.10000000005297,-0.025935082,-0.7412528,-0.018919261,-2.3487518,0.07033014,1.6648952,0.6874065,0.04,0.04,-9.761735,0.7303165793418884,0.6318244,-0.055373482,-0.09245002269744873,0.08115479
202.11666666671965,-0.026448168,-0.740404,-0.019291965,-2.348603,0.07170999,1.6667408,0.68546915,0.04,0.04,-9.759805,0.7436012625694275,0.645451,-0.055630498,-0.09334256500005722,0.08157507
202.13333333338633,-0.026965555,-0.7395482,-0.019667797,-2.348453,0.07310138,1.668602,0.6835155,0.04,0.04,-9.757867,0.7569559812545776,0.6592351,-0.055877175,-0.09423373639583588,0.08197839
202.150000000053,-0.027487185,-0.73868537,-0.020046704,-2.3483024,0.07450417,1.6704783,0.681546,0.04,0.04,-9.755876,0.7703612446784973,0.6731871,-0.05611248,-0.09512154012918472,0.082365036
202.1666666667197,-0.028012998,-0.7378153,-0.02042866,-2.3481503,0.07591821,1.6723698,0.67956066,0.04,0.04,-9.753844,0.783842921257019,0.6872676,-0.056337804,-0.09600671380758286,0.082735345
202.18333333338637,-0.028542947,-0.73693883,-0.020813622,-2.3479965,0.07734334,1.6742762,0.67755973,0.04,0.04,-9.751788,0.7973562479019165,0.70152205,-0.056552306,-0.09689109027385712,0.08308938
202.20000000005305,-0.029076975,-0.7360557,-0.021201542,-2.3478417,0.07877943,1.6761973,0.67554325,0.04,0.04,-9.749475,0.8108978867530823,0.7159471,-0.05675559,-0.09776545315980911,0.08342637
202.21666666671973,-0.029615022,-0.7351655,-0.021592392,-2.3476856,0.08022629,1.6781327,0.6735117,0.04,0.04,-9.7472725,0.8245017528533936,0.7305357,-0.056946762,-0.0986366793513298,0.08374718
202.2333333333864,-0.030157035,-0.7342689,-0.021986123,-2.3475282,0.081683815,1.6800824,0.67146516,0.04,0.04,-9.745025,0.8381652235984802,0.7452337,-0.05712802,-0.09950552135705948,0.08405103
202.2500000000531,-0.03070295,-0.73336613,-0.022382688,-2.3473701,0.08315184,1.6820464,0.6694038,0.04,0.04,-9.742625,0.8518266081809998,0.7601286,-0.05729814,-0.10036671906709671,0.08433797
202.26666666671977,-0.031252723,-0.7324568,-0.02278205,-2.3472111,0.08463018,1.6840242,0.66732806,0.04,0.04,-9.74029,0.8655378818511963,0.77519935,-0.057456844,-0.1012243926525116,0.08460587
202.28333333338645,-0.031806275,-0.7315409,-0.023184167,-2.3470514,0.086118676,1.6860157,0.665238,0.04,0.04,-9.737845,0.8792963027954102,0.79038787,-0.057605512,-0.10207819193601608,0.084858015
202.30000000005313,-0.03236356,-0.73061895,-0.023588996,-2.34689,0.087617196,1.6880201,0.66313386,0.04,0.04,-9.735425,0.8930933475494385,0.80569786,-0.057743613,-0.10292977839708328,0.08509197
202.3166666667198,-0.03292452,-0.7296909,-0.023996493,-2.3467276,0.08912555,1.6900382,0.661016,0.04,0.04,-9.732741,0.9068787693977356,0.8212083,-0.057869922,-0.1037738099694252,0.08530936
202.3333333333865,-0.03348907,-0.7287571,-0.024406608,-2.3465643,0.09064358,1.6920687,0.6588845,0.04,0.04,-9.73013,0.9206976890563965,0.8368344,-0.057986517,-0.10461046546697617,0.08550769
202.35000000005317,-0.034057163,-0.7278174,-0.024819301,-2.3463998,0.092171095,1.6941123,0.6567397,0.04,0.04,-9.727433,0.9345603585243225,0.85265243,-0.058091715,-0.10544323921203613,0.085690096
202.36666666671985,-0.034628723,-0.726872,-0.025234522,-2.3462343,0.09370794,1.6961683,0.6545818,0.04,0.04,-9.724659,0.9484164118766785,0.8685946,-0.058186397,-0.10626817494630814,0.08585509
202.38333333338653,-0.03520371,-0.725921,-0.025652224,-2.346068,0.095253944,1.6982363,0.65241104,0.04,0.04,-9.721833,0.9622846245765686,0.8846882,-0.058270477,-0.10708633810281754,0.08600173
202.4000000000532,-0.035782047,-0.7249643,-0.026072359,-2.3459005,0.096808925,1.7003167,0.65022755,0.04,0.04,-9.71896,0.9761690497398376,0.90092766,-0.058343887,-0.10789868235588074,0.08613058
202.4166666667199,-0.03636366,-0.7240023,-0.02649488,-2.3457317,0.09837271,1.7024088,0.64803183,0.04,0.04,-9.716015,0.9900864362716675,0.91728616,-0.058406137,-0.10870301723480225,0.08624291
202.43333333338657,-0.03694849,-0.723035,-0.026919734,-2.345562,0.0999451,1.7045124,0.6458237,0.04,0.04,-9.712939,1.0039563179016113,0.93381447,-0.058458485,-0.10949761420488358,0.08633618
202.45000000005325,-0.037536476,-0.72206247,-0.02734688,-2.345391,0.10152594,1.7066274,0.6436039,0.04,0.04,-9.709904,1.0178693532943726,0.9504891,-0.058498807,-0.11028672754764557,0.08641343
202.46666666671993,-0.03812754,-0.7210847,-0.027776267,-2.3452196,0.10311507,1.7087535,0.6413726,0.04,0.04,-9.706664,1.0317587852478027,0.96728325,-0.058529392,-0.11106367409229279,0.08647337
202.4833333333866,-0.03872162,-0.7201019,-0.028207846,-2.3450472,0.104712285,1.7108903,0.63912976,0.04,0.04,-9.703579,1.045674443244934,0.98423177,-0.05855046,-0.1118369996547699,0.08651532
202.5000000000533,-0.03931864,-0.7191144,-0.028641567,-2.3448744,0.10631738,1.7130376,0.63687545,0.04,0.04,-9.700295,1.0595344305038452,1.001302,-0.058560263,-0.11260117590427399,0.086538024
202.51666666671997,-0.039918542,-0.71812224,-0.02907738,-2.3447013,0.10793017,1.7151954,0.6346107,0.04,0.04,-9.6970215,1.073425054550171,1.0185351,-0.05855862,-0.11335865408182144,0.08654471
202.53333333338665,-0.04052123,-0.7171254,-0.029515235,-2.3445275,0.10955049,1.7173631,0.63233554,0.04,0.04,-9.693684,1.0872879028320312,1.0358909,-0.058548532,-0.11410873383283615,0.08653365
202.55000000005333,-0.041126654,-0.716124,-0.02995508,-2.344352,0.11117814,1.7195407,0.63004965,0.04,0.04,-9.690272,1.1011403799057007,1.0533693,-0.05852945,-0.1148519217967987,0.0865032
202.56666666672,-0.041734748,-0.71511817,-0.030396858,-2.344176,0.11281293,1.7217277,0.6277539,0.04,0.04,-9.686634,1.1149564981460571,1.0709438,-0.058497675,-0.11558123677968979,0.08645751
202.5833333333867,-0.042345446,-0.7141081,-0.030840522,-2.3439987,0.11445468,1.7239242,0.62544835,0.04,0.04,-9.683082,1.1287634372711182,1.0886787,-0.058457464,-0.11630275845527649,0.08639445
202.60000000005337,-0.042958654,-0.7130938,-0.031286016,-2.3438206,0.116103224,1.7261298,0.62313336,0.04,0.04,-9.679338,1.1425485610961914,1.1065294,-0.058406614,-0.11701139807701111,0.086315215
202.61666666672005,-0.04357432,-0.7120754,-0.031733304,-2.343642,0.11775829,1.7283441,0.6208092,0.04,0.04,-9.675599,1.156274676322937,1.1244942,-0.058346357,-0.11770778149366379,0.08621648
202.63333333338673,-0.044192355,-0.7110531,-0.032182314,-2.3434625,0.11941972,1.7305671,0.6184759,0.04,0.04,-9.671892,1.1700053215026855,1.1426173,-0.05827712,-0.11839713901281357,0.08610114
202.6500000000534,-0.044812694,-0.7100271,-0.032632988,-2.343283,0.12108733,1.7327981,0.61613405,0.04,0.04,-9.668017,1.183689832687378,1.1608276,-0.05819751,-0.11907464265823364,0.08596976
202.6666666667201,-0.045435257,-0.70899737,-0.033085287,-2.343103,0.1227609,1.735037,0.61378384,0.04,0.04,-9.6641655,1.1973439455032349,1.1791937,-0.058108803,-0.11974391341209412,0.08582021
202.68333333338677,-0.046059977,-0.7079641,-0.03353916,-2.3429224,0.124440216,1.7372836,0.6114255,0.04,0.04,-9.660243,1.2109555006027222,1.1976467,-0.058011685,-0.12040451169013977,0.08565363
202.70000000005345,-0.04668676,-0.7069275,-0.033994544,-2.3427415,0.1261251,1.7395378,0.60905933,0.04,0.04,-9.6561985,1.2245265245437622,1.2162063,-0.057905223,-0.12105360627174377,0.085470416
202.71666666672013,-0.04731557,-0.70588744,-0.034451377,-2.3425593,0.12781534,1.7417996,0.60668564,0.04,0.04,-9.652119,1.23805832862854,1.2348754,-0.057789717,-0.1216910183429718,0.08527161
202.7333333333868,-0.0479463,-0.70484424,-0.034909613,-2.3423765,0.12951072,1.7440679,0.6043047,0.04,0.04,-9.64787,1.2515294551849365,1.253621,-0.057665266,-0.1223132535815239,0.085055195
202.7500000000535,-0.048578896,-0.7037979,-0.035369202,-2.3421931,0.13121109,1.7463433,0.60191673,0.04,0.03999999,-9.643609,1.2649551630020142,1.2725188,-0.057531737,-0.12292404472827911,0.084825054
202.76666666672017,-0.049213246,-0.70274866,-0.035830088,-2.3420098,0.13291621,1.7486247,0.5995222,0.04,0.04,-9.639322,1.2783234119415283,1.2914952,-0.057389453,-0.12352143228054047,0.08457626
202.78333333338685,-0.049849298,-0.7016967,-0.036292203,-2.3418257,0.13462585,1.7509122,0.59712106,0.04,0.04,-9.635062,1.2916518449783325,1.3106073,-0.057239935,-0.12411075830459595,0.0843115
202.80000000005353,-0.050486982,-0.70064217,-0.03675551,-2.341641,0.13633981,1.7532055,0.594714,0.04,0.04,-9.630571,1.3049067258834839,1.3297893,-0.0570805,-0.1246851459145546,0.08403055
202.8166666667202,-0.051126204,-0.69958496,-0.03721993,-2.3414555,0.13805795,1.7555046,0.59230113,0.04,0.04,-9.62604,1.3181016445159912,1.3490732,-0.05691338,-0.12524518370628357,0.083735146
202.8333333333869,-0.051766895,-0.6985253,-0.037685428,-2.34127,0.13977997,1.7578087,0.5898826,0.04,0.04,-9.621439,1.3312338590621948,1.3684305,-0.056738265,-0.12578991055488586,0.083424486
202.85000000005357,-0.052408975,-0.6974634,-0.03815193,-2.3410838,0.14150573,1.7601179,0.58745897,0.04,0.04,-9.616939,1.3443349599838257,1.387922,-0.05655486,-0.1263265758752823,0.08309859
202.86666666672025,-0.053052366,-0.69639933,-0.038619403,-2.3408973,0.143235,1.7624316,0.5850303,0.04,0.039999995,-9.612165,1.357320785522461,1.4074507,-0.056363735,-0.126845583319664,0.08275818
202.88333333338693,-0.05369699,-0.69533324,-0.039087754,-2.3407109,0.14496753,1.7647495,0.5825971,0.04,0.039999995,-9.60749,1.3702507019042969,1.4271141,-0.05616497,-0.12735368311405182,0.08240068
202.9000000000536,-0.054342773,-0.6942653,-0.039556947,-2.340524,0.14670312,1.7670717,0.5801594,0.04,0.039999988,-9.602706,1.3831292390823364,1.4468329,-0.0559588,-0.12784940004348755,0.08203099
202.9166666667203,-0.054989632,-0.6931957,-0.04002693,-2.3403368,0.14844164,1.7693979,0.57771784,0.04,0.04,-9.597838,1.3959163427352905,1.4666381,-0.055745088,-0.1283298283815384,0.08164407
202.93333333338697,-0.055637483,-0.69212437,-0.040497642,-2.3401494,0.15018281,1.7717273,0.57527256,0.04,0.039999995,-9.592887,1.4086145162582397,1.4865052,-0.055524535,-0.12879501283168793,0.08124374
202.95000000005365,-0.05628626,-0.69105136,-0.040969044,-2.3399615,0.15192638,1.7740602,0.57282376,0.04,0.03999999,-9.587942,1.421256184577942,1.506457,-0.05529697,-0.1292474865913391,0.08082918
202.96666666672033,-0.056935884,-0.68997717,-0.041441057,-2.3397732,0.15367219,1.7763963,0.5703718,0.04,0.03999999,-9.58289,1.4338178634643555,1.5264567,-0.055062618,-0.12968450784683228,0.08040097
202.983333333387,-0.05758626,-0.6889017,-0.041913603,-2.3395846,0.15542002,1.7787354,0.567917,0.04,0.039999995,-9.577711,1.4462897777557373,1.5465404,-0.0548208,-0.1301036775112152,0.07996056
203.0000000000537,-0.05823731,-0.687825,-0.042386644,-2.3393958,0.15716964,1.7810763,0.56545955,0.04,0.039999988,-9.572545,1.4586623907089233,1.5666833,-0.054572307,-0.13050612807273865,0.07950618
203.01666666672037,-0.05888896,-0.68674743,-0.042860128,-2.3392067,0.15892088,1.7834195,0.56299996,0.04,0.039999995,-9.567365,1.470960259437561,1.5869057,-0.054317042,-0.13089711964130402,0.07903788
203.03333333338705,-0.059541136,-0.68566895,-0.043333985,-2.3390172,0.16067345,1.7857647,0.5605385,0.04,0.039999995,-9.562053,1.483160376548767,1.6071829,-0.054055665,-0.13127076625823975,0.078556
203.05000000005373,-0.060193755,-0.6845897,-0.04380818,-2.3388276,0.16242719,1.7881116,0.55807525,0.04,0.03999999,-9.556693,1.4952874183654785,1.6274987,-0.053788412,-0.1316271722316742,0.07806286
203.0666666667204,-0.060846727,-0.6835098,-0.04428263,-2.338638,0.16418184,1.7904595,0.55561084,0.04,0.039999995,-9.551317,1.507295846939087,1.6478757,-0.053514574,-0.13196755945682526,0.077553876
203.0833333333871,-0.061499976,-0.6824298,-0.044757303,-2.3384485,0.16593723,1.7928085,0.55314523,0.04,0.03999999,-9.545888,1.5192646980285645,1.6683146,-0.053235985,-0.13229434192180634,0.07704048
203.10000000005377,-0.062153425,-0.68134916,-0.045232106,-2.338259,0.16769314,1.7951585,0.5506789,0.04,0.03999999,-9.540364,1.5310559272766113,1.6888113,-0.052950572,-0.13260269165039062,0.07650731
203.11666666672045,-0.062806986,-0.6802683,-0.045707002,-2.3380694,0.16944936,1.7975088,0.5482122,0.04,0.039999984,-9.534872,1.5428364276885986,1.7093141,-0.052659903,-0.1328963339328766,0.0759697
203.13333333338713,-0.06346057,-0.67918754,-0.046181936,-2.3378797,0.17120567,1.7998592,0.5457452,0.04,0.039999988,-9.52925,1.554430365562439,1.7298695,-0.0523639,-0.1331726461648941,0.07541354
203.1500000000538,-0.06411415,-0.67810684,-0.046656832,-2.3376899,0.1729618,1.8022094,0.5432786,0.04,0.03999999,-9.523564,1.5659661293029785,1.750477,-0.05206213,-0.1334318071603775,0.074847795
203.1666666667205,-0.06476758,-0.6770264,-0.047131658,-2.3375006,0.1747176,1.804559,0.5408122,0.04,0.03999998,-9.517827,1.5774290561676025,1.7711089,-0.051756013,-0.13367348909378052,0.07427684
203.18333333338717,-0.06542082,-0.6759462,-0.047606327,-2.337311,0.17647281,1.8069079,0.5383468,0.04,0.03999999,-9.512181,1.5887446403503418,1.791794,-0.051444396,-0.1339024007320404,0.07369039
203.20000000005385,-0.066073805,-0.6748664,-0.048080795,-2.337122,0.17822725,1.8092557,0.53588235,0.04,0.039999984,-9.506326,1.5999680757522583,1.8124678,-0.051128976,-0.1341123729944229,0.073095284
203.21666666672053,-0.066726394,-0.67378736,-0.048554998,-2.336933,0.17998068,1.8116025,0.53341943,0.04,0.039999995,-9.5005245,1.6110867261886597,1.8331839,-0.05080829,-0.13430701196193695,0.072487906
203.2333333333872,-0.06737854,-0.672709,-0.04902889,-2.336744,0.18173291,1.8139474,0.53095824,0.04,0.039999988,-9.494572,1.6220964193344116,1.8539201,-0.050483637,-0.13448193669319153,0.07187351
203.2500000000539,-0.06803019,-0.6716314,-0.0495024,-2.3365552,0.18348372,1.8162905,0.528499,0.04,0.039999984,-9.4886875,1.633009433746338,1.8746752,-0.05015527,-0.1346425861120224,0.07125109
203.26666666672057,-0.068681195,-0.6705549,-0.049975466,-2.3363664,0.18523291,1.8186312,0.526042,0.04,0.03999999,-9.4826765,1.6437889337539673,1.8954268,-0.049822632,-0.13478441536426544,0.070618175
203.28333333338725,-0.06933155,-0.6694795,-0.05044805,-2.3361776,0.18698022,1.8209696,0.52358764,0.04,0.039999988,-9.476626,1.6544511318206787,1.9162061,-0.049485445,-0.1349092572927475,0.06997503
203.30000000005393,-0.06998117,-0.66840535,-0.050920073,-2.3359888,0.18872549,1.8233051,0.5211362,0.04,0.039999977,-9.470514,1.6650365591049194,1.9369874,-0.049144756,-0.1350146234035492,0.069327086
203.3166666667206,-0.07062993,-0.6673327,-0.051391497,-2.3358006,0.19046845,1.8256377,0.51868796,0.04,0.03999999,-9.464379,1.6754547357559204,1.957767,-0.0488005,-0.135101318359375,0.06866616
203.3333333333873,-0.071277775,-0.6662617,-0.051862244,-2.3356125,0.1922089,1.8279669,0.5162432,0.04,0.039999984,-9.458247,1.6858161687850952,1.978581,-0.048452716,-0.13517194986343384,0.06800125
203.35000000005397,-0.07192462,-0.6651922,-0.05233227,-2.3354251,0.19394664,1.8302925,0.5138023,0.04,0.039999984,-9.452047,1.696025013923645,1.9993759,-0.048101813,-0.13522401452064514,0.067327075
203.36666666672065,-0.07257037,-0.6641245,-0.052801512,-2.3352385,0.1956815,1.832614,0.5113654,0.04,0.03999998,-9.445836,1.7061444520950317,2.020154,-0.04774786,-0.13525934517383575,0.06664747
203.38333333338733,-0.07321498,-0.66305876,-0.05326992,-2.3350523,0.1974132,1.8349314,0.5089329,0.04,0.03999998,-9.439677,1.7161414623260498,2.0409572,-0.047391396,-0.13528113067150116,0.06595894
203.400000000054,-0.07385832,-0.66199505,-0.053737428,-2.3348663,0.19914156,1.8372442,0.50650513,0.04,0.039999984,-9.433325,1.7259986400604248,2.061707,-0.047031917,-0.135282963514328,0.06526229
203.4166666667207,-0.0745004,-0.66093343,-0.05420398,-2.3346806,0.20086633,1.8395525,0.5040822,0.04,0.03999998,-9.427009,1.7357652187347412,2.0824544,-0.046669986,-0.13526803255081177,0.06456119
203.43333333338737,-0.075141035,-0.65987426,-0.05466953,-2.3344953,0.20258735,1.8418558,0.5016646,0.04,0.03999998,-9.420608,1.7453978061676025,2.1031532,-0.04630477,-0.13523322343826294,0.06385488
203.45000000005405,-0.07578022,-0.6588176,-0.055134017,-2.33431,0.20430441,1.8441534,0.49925262,0.04,0.03999997,-9.414193,1.754921793937683,2.1238623,-0.045937203,-0.1351805329322815,0.0631459
203.46666666672073,-0.076417856,-0.65776336,-0.055597384,-2.334125,0.20601732,1.8464458,0.49684656,0.04,0.039999973,-9.407731,1.7642918825149536,2.1445482,-0.04556763,-0.13510921597480774,0.06242856
203.4833333333874,-0.07705387,-0.65671176,-0.056059558,-2.3339403,0.2077258,1.848732,0.49444667,0.04,0.03999997,-9.401217,1.773555874824524,2.1651723,-0.04519584,-0.1350167840719223,0.06170571
203.5000000000541,-0.07768817,-0.6556631,-0.05652051,-2.3337557,0.20942962,1.8510123,0.49205318,0.04,0.039999973,-9.394718,1.7827037572860718,2.1857908,-0.044822004,-0.1349077969789505,0.060979195
203.51666666672077,-0.0783207,-0.6546174,-0.05698017,-2.333572,0.21112868,1.8532864,0.48966655,0.04,0.039999977,-9.388117,1.791713833808899,2.206362,-0.044445667,-0.13477641344070435,0.06024744
203.53333333338745,-0.07895137,-0.6535747,-0.05743848,-2.3333886,0.21282274,1.855554,0.48728684,0.04,0.039999973,-9.38163,1.800639033317566,2.2269382,-0.044068597,-0.13462883234024048,0.059514303
203.55000000005413,-0.079580136,-0.6525354,-0.057895396,-2.3332062,0.21451153,1.8578141,0.48491448,0.04,0.03999998,-9.375045,1.8094037771224976,2.2474363,-0.043689262,-0.1344612091779709,0.058774896
203.5666666667208,-0.08020686,-0.6514993,-0.058350846,-2.3330243,0.21619494,1.8600668,0.48254967,0.04,0.039999973,-9.368476,1.818081021308899,2.267927,-0.04330909,-0.13427801430225372,0.05803485
203.5833333333875,-0.08083151,-0.6504665,-0.05880478,-2.3328428,0.21787275,1.8623126,0.48019278,0.04,0.039999973,-9.36189,1.826607346534729,2.2883418,-0.04292737,-0.1340784728527069,0.05728884
203.60000000005417,-0.08145399,-0.6494374,-0.059257157,-2.3326619,0.21954465,1.8645507,0.47784406,0.04,0.03999997,-9.355227,1.835029125213623,2.308694,-0.04254467,-0.1338578313589096,0.056542028
203.61666666672085,-0.08207425,-0.6484119,-0.059707917,-2.3324816,0.22121057,1.8667803,0.47550377,0.04,0.039999977,-9.348528,1.8433088064193726,2.3289905,-0.042160384,-0.1336168348789215,0.05579282
203.63333333338753,-0.0826922,-0.6473903,-0.06015701,-2.332302,0.22287035,1.8690016,0.47317222,0.04,0.039999966,-9.341928,1.851500391960144,2.3492675,-0.041775793,-0.13336190581321716,0.05504347
203.6500000000542,-0.08330778,-0.64637274,-0.060604356,-2.3321245,0.2245237,1.8712145,0.4708497,0.04,0.039999973,-9.335211,1.859514832496643,2.3694556,-0.04139035,-0.1330873668193817,0.054287937
203.6666666667209,-0.083920896,-0.6453591,-0.06104993,-2.331947,0.22617039,1.8734183,0.46853644,0.04,0.03999997,-9.328687,1.867476224899292,2.3896518,-0.04100565,-0.13280032575130463,0.05353313
203.68333333338757,-0.08453147,-0.6443498,-0.061493676,-2.33177,0.22781032,1.8756131,0.4662327,0.04,0.039999973,-9.321913,1.8752621412277222,2.4096806,-0.04061992,-0.1324937641620636,0.052775424
203.70000000005425,-0.08513945,-0.64334476,-0.061935525,-2.3315933,0.22944324,1.8777986,0.46393877,0.04,0.039999973,-9.315111,1.8829227685928345,2.4296594,-0.040232867,-0.13216662406921387,0.052017253
203.71666666672093,-0.08574479,-0.64234406,-0.062375445,-2.3314173,0.23106901,1.8799741,0.46165496,0.04,0.039999977,-9.308364,1.8904824256896973,2.4495642,-0.039845336,-0.13182038068771362,0.051260024
203.7333333333876,-0.086347386,-0.64134794,-0.06281339,-2.331242,0.23268738,1.88214,0.4593815,0.04,0.039999977,-9.301638,1.8979170322418213,2.4694347,-0.039458156,-0.13145841658115387,0.050501645
203.75000000005429,-0.086947165,-0.6403565,-0.06324927,-2.3310678,0.23429818,1.8842961,0.45711866,0.04,0.03999997,-9.294856,1.905226230621338,2.4891787,-0.039070476,-0.1310766190290451,0.049744062
203.76666666672097,-0.087544076,-0.63936967,-0.06368308,-2.3308942,0.23590125,1.8864416,0.4548667,0.04,0.03999997,-9.288141,1.9124252796173096,2.5088656,-0.038683224,-0.13067741692066193,0.048986956
203.78333333338765,-0.088138014,-0.6383879,-0.06411473,-2.3307219,0.23749627,1.8885764,0.452626,0.04,0.03999998,-9.281369,1.9194831848144531,2.5284684,-0.038296167,-0.13026002049446106,0.04822708
203.80000000005433,-0.08872895,-0.63741124,-0.06454419,-2.3305507,0.2390832,1.8907002,0.45039657,0.04,0.039999973,-9.274637,1.9264497756958008,2.5480094,-0.037909467,-0.12982754409313202,0.04747332
203.816666666721,-0.0893168,-0.63643944,-0.06497143,-2.330381,0.24066184,1.8928128,0.44817892,0.04,0.039999973,-9.267932,1.9332829713821411,2.567454,-0.037523106,-0.12937946617603302,0.046719063
203.83333333338769,-0.08990148,-0.6354731,-0.06539637,-2.3302116,0.242232,1.8949143,0.44597316,0.04,0.03999997,-9.261248,1.9400033950805664,2.5867836,-0.037138548,-0.12891647219657898,0.04596316
203.85000000005437,-0.09048294,-0.634512,-0.065818965,-2.3300428,0.24379347,1.897004,0.44377965,0.04,0.039999977,-9.254439,1.946582317352295,2.6060195,-0.036753647,-0.1284344345331192,0.04521076
203.86666666672104,-0.09106109,-0.6335564,-0.06623916,-2.3298748,0.24534607,1.8990821,0.44159853,0.04,0.039999973,-9.247639,1.9530502557754517,2.6251216,-0.036369402,-0.1279333233833313,0.044459656
203.88333333338772,-0.09163591,-0.63260615,-0.06665694,-2.3297076,0.24688964,1.9011481,0.4394301,0.04,0.039999977,-9.240854,1.9593979120254517,2.6441443,-0.03598535,-0.12741334736347198,0.043711554
203.9000000000544,-0.0922073,-0.6316616,-0.06707222,-2.3295412,0.24842401,1.9032018,0.43727455,0.04,0.03999997,-9.234147,1.9656400680541992,2.6630676,-0.03560251,-0.1268778145313263,0.042965654
203.91666666672108,-0.092775226,-0.6307227,-0.06748498,-2.3293762,0.24994905,1.905243,0.43513212,0.04,0.039999973,-9.227385,1.9717581272125244,2.681912,-0.03522031,-0.12632541358470917,0.04222454
203.93333333338776,-0.093339615,-0.62978977,-0.06789517,-2.3292127,0.25146446,1.9072714,0.43300322,0.04,0.039999977,-9.220708,1.9777722358703613,2.700619,-0.034839377,-0.125757098197937,0.04148414
203.95000000005444,-0.09390038,-0.628863,-0.0683027,-2.3290505,0.25297025,1.9092867,0.43088788,0.04,0.03999996,-9.21408,1.98368501663208,2.719269,-0.0344607,-0.12517613172531128,0.04074851
203.96666666672112,-0.094457455,-0.62794244,-0.0687076,-2.3288891,0.2544661,1.9112887,0.4287864,0.04,0.039999973,-9.207379,1.9894403219223022,2.737754,-0.03408271,-0.12457773834466934,0.040014073
203.9833333333878,-0.095010795,-0.6270281,-0.069109775,-2.3287284,0.25595194,1.9132774,0.42669907,0.04,0.03999997,-9.200682,1.9950933456420898,2.7561479,-0.03370573,-0.12396342307329178,0.03928345
204.00000000005448,-0.09556035,-0.6261198,-0.06950919,-2.3285685,0.25742766,1.9152523,0.4246262,0.04,0.039999973,-9.193951,2.000641107559204,2.7743711,-0.033329736,-0.12333106994628906,0.038558096
204.01666666672116,-0.09610605,-0.6252176,-0.06990583,-2.3284094,0.2588929,1.9172137,0.42256784,0.04,0.039999977,-9.18728,2.0060842037200928,2.7924728,-0.032955717,-0.1226823702454567,0.037836958
204.03333333338784,-0.09664783,-0.6243225,-0.07029963,-2.3282516,0.26034755,1.9191607,0.4205242,0.04,0.039999977,-9.180665,2.0114166736602783,2.8104699,-0.03258319,-0.12201721221208572,0.037118796
204.05000000005452,-0.09718563,-0.6234335,-0.07069051,-2.328096,0.2617915,1.9210933,0.41849566,0.04,0.039999973,-9.174002,2.0166141986846924,2.8284009,-0.03221113,-0.12133678048849106,0.03640749
204.0666666667212,-0.09771939,-0.62255156,-0.0710785,-2.3279412,0.26322466,1.9230117,0.41648224,0.04,0.03999998,-9.167586,2.021745443344116,2.846174,-0.03184247,-0.12064610421657562,0.035695527
204.08333333338788,-0.09824907,-0.62167597,-0.0714635,-2.3277876,0.2646468,1.9249153,0.41448438,0.04,0.039999977,-9.160973,2.0267632007598877,2.863804,-0.031474818,-0.1199391707777977,0.034994043
204.10000000005456,-0.09877463,-0.6208075,-0.071845494,-2.3276343,0.26605782,1.9268037,0.4125021,0.04,0.03999998,-9.154456,2.0316429138183594,2.8812742,-0.031109575,-0.11921781301498413,0.034294527
204.11666666672124,-0.099295974,-0.61994606,-0.07222442,-2.3274822,0.26745757,1.928677,0.41053566,0.04,0.039999973,-9.147821,2.0364341735839844,2.8986044,-0.030744767,-0.11847987025976181,0.033605166
204.13333333338792,-0.099813074,-0.61909145,-0.07260026,-2.3273315,0.2688459,1.9305351,0.4085853,0.04,0.03999997,-9.141333,2.0411059856414795,2.9158318,-0.030381737,-0.11772771179676056,0.032921057
204.1500000000546,-0.10032585,-0.61824393,-0.07297298,-2.3271825,0.2702226,1.9323777,0.4066512,0.04,0.039999977,-9.134919,2.045684576034546,2.9329076,-0.030021241,-0.11696098744869232,0.0322376
204.16666666672128,-0.10083427,-0.6174037,-0.07334257,-2.3270357,0.27158752,1.9342048,0.4047336,0.04,0.039999977,-9.128557,2.0501880645751953,2.9498775,-0.02966324,-0.1161840558052063,0.031564575
204.18333333338796,-0.1013383,-0.6165708,-0.073708944,-2.3268895,0.27294067,1.936016,0.40283266,0.04,0.039999977,-9.122249,2.054577350616455,2.966683,-0.029308137,-0.11539493501186371,0.030893214
204.20000000005464,-0.10183784,-0.61574537,-0.074072056,-2.3267443,0.27428174,1.9378109,0.40094846,0.04,0.039999977,-9.115852,2.058842658996582,2.983313,-0.028955104,-0.11459074914455414,0.030226922
204.21666666672132,-0.10233289,-0.6149273,-0.07443188,-2.3266,0.27561077,1.93959,0.3990815,0.04,0.039999973,-9.109449,2.063035249710083,2.9997997,-0.028602567,-0.1137736365199089,0.02957476
204.233333333388,-0.10282337,-0.6141167,-0.0747884,-2.3264573,0.27692756,1.9413522,0.39723167,0.04,0.039999973,-9.103128,2.0670814514160156,3.0161397,-0.028253207,-0.11294000595808029,0.02892351
204.25000000005468,-0.10330923,-0.61331385,-0.075141564,-2.3263164,0.2782319,1.9430981,0.3953992,0.04,0.039999984,-9.096907,2.071073055267334,3.0323384,-0.027905965,-0.11209515482187271,0.028277257
204.26666666672136,-0.10379042,-0.61251867,-0.07549134,-2.3261771,0.27952382,1.9448271,0.39358437,0.04,0.039999973,-9.090745,2.074991464614868,3.0484164,-0.027561199,-0.11124157160520554,0.027642382
204.28333333338804,-0.10426688,-0.61173123,-0.07583772,-2.326039,0.28080305,1.9465393,0.39178732,0.04,0.039999977,-9.084622,2.078787088394165,3.0643213,-0.027219601,-0.11037661135196686,0.02701162
204.30000000005472,-0.10473867,-0.6109517,-0.07618067,-2.3259017,0.28206944,1.9482346,0.39000815,0.04,0.039999977,-9.078494,2.0824835300445557,3.0800483,-0.026880514,-0.10949962586164474,0.02638699
204.3166666667214,-0.10520568,-0.61017996,-0.07652012,-2.3257656,0.28332308,1.9499124,0.38824695,0.04,0.039999984,-9.072279,2.086097240447998,3.0955853,-0.0265426,-0.1086069718003273,0.025772192
204.33333333338808,-0.10566785,-0.6094163,-0.076856084,-2.3256311,0.28456372,1.9515729,0.38650405,0.04,0.03999998,-9.066252,2.089616537094116,3.1109924,-0.026207108,-0.10770393162965775,0.025162758
204.35000000005476,-0.10612515,-0.60866076,-0.07718849,-2.3254988,0.28579122,1.9532161,0.38477954,0.04,0.039999977,-9.060252,2.0930418968200684,3.1262772,-0.025874414,-0.10679040849208832,0.024561469
204.36666666672144,-0.10657754,-0.6079134,-0.07751733,-2.325368,0.28700557,1.9548413,0.38307363,0.04,0.039999984,-9.054368,2.096398115158081,3.1413832,-0.025544781,-0.10586665570735931,0.023964597
204.38333333338812,-0.107024945,-0.6071739,-0.077842586,-2.3252375,0.2882066,1.9564488,0.3813863,0.04,0.03999998,-9.048483,2.099660873413086,3.1563294,-0.025218226,-0.10493509471416473,0.02337619
204.4000000000548,-0.10746736,-0.606443,-0.07816421,-2.3251088,0.28939426,1.9580384,0.37971786,0.04,0.03999998,-9.042548,2.1028382778167725,3.1710336,-0.0248929,-0.10399056226015091,0.022797367
204.41666666672148,-0.107904755,-0.6057202,-0.07848218,-2.3249815,0.2905684,1.9596102,0.37806836,0.04,0.039999977,-9.036684,2.105908155441284,3.1856434,-0.024569944,-0.10303464531898499,0.022228556
204.43333333338816,-0.10833711,-0.6050059,-0.078796476,-2.3248558,0.29172888,1.9611635,0.37643805,0.04,0.03999998,-9.030959,2.108933210372925,3.2000663,-0.024249902,-0.10206907987594604,0.021665536
204.45000000005484,-0.10876436,-0.60429996,-0.079107076,-2.3247323,0.29287577,1.9626982,0.37482694,0.04,0.039999984,-9.02528,2.1118438243865967,3.214361,-0.02393314,-0.10109610855579376,0.021107577
204.46666666672152,-0.10918646,-0.6036026,-0.079413936,-2.3246095,0.29400882,1.9642153,0.3732352,0.04,0.03999998,-9.019705,2.1146950721740723,3.2284598,-0.023619745,-0.10011640936136246,0.02055292
204.4833333333882,-0.10960341,-0.6029137,-0.079717025,-2.324488,0.2951279,1.9657133,0.37166294,0.04,0.03999997,-9.013979,2.117445707321167,3.2423432,-0.02330789,-0.09912240505218506,0.020011479
204.50000000005488,-0.11001514,-0.6022333,-0.080016345,-2.3243678,0.2962331,1.967192,0.37011027,0.04,0.03999998,-9.008407,2.1201653480529785,3.256076,-0.02299817,-0.09812285006046295,0.019485245
204.51666666672156,-0.11042169,-0.6015615,-0.08031189,-2.3242497,0.29732436,1.9686519,0.36857733,0.04,0.039999984,-9.002923,2.1227519512176514,3.2696457,-0.022690972,-0.09711619466543198,0.018961525
204.53333333338824,-0.11082299,-0.60089856,-0.08060363,-2.3241336,0.29840147,1.970093,0.3670643,0.04,0.039999984,-8.997598,2.1253068447113037,3.2830827,-0.022388237,-0.09610487520694733,0.018442094
204.55000000005492,-0.11121899,-0.6002442,-0.08089153,-2.3240182,0.29946434,1.9715154,0.365571,0.04,0.039999988,-8.992209,2.1277663707733154,3.2963178,-0.022088464,-0.09508610516786575,0.017931962
204.5666666667216,-0.11160968,-0.5995986,-0.08117557,-2.3239043,0.30051303,1.9729189,0.36409783,0.04,0.03999998,-8.986821,2.130160093307495,3.3093011,-0.021789677,-0.09405605494976044,0.01742922
204.58333333338828,-0.11199505,-0.59896195,-0.08145575,-2.323792,0.30154735,1.9743031,0.36264473,0.04,0.039999988,-8.981542,2.1324825286865234,3.3221517,-0.02149435,-0.09301814436912537,0.016934596
204.60000000005496,-0.11237509,-0.5983341,-0.08173204,-2.3236818,0.30256727,1.9756682,0.3612118,0.04,0.039999984,-8.976329,2.1347196102142334,3.334867,-0.021201314,-0.09197404235601425,0.016450118
204.61666666672164,-0.11274971,-0.597715,-0.08200441,-2.3235734,0.30357274,1.9770141,0.35979927,0.04,0.039999984,-8.97127,2.136946201324463,3.3473895,-0.020911764,-0.09092618525028229,0.015974179
204.63333333338832,-0.11311895,-0.59710497,-0.08227287,-2.3234658,0.3045638,1.9783406,0.35840708,0.04,0.039999984,-8.966243,2.1390624046325684,3.3597293,-0.020625586,-0.08987396955490112,0.015504794
204.650000000055,-0.11348279,-0.5965039,-0.08253739,-2.3233593,0.30554035,1.9796479,0.3570353,0.04,0.03999998,-8.961106,2.1410953998565674,3.3718271,-0.020341294,-0.08881156891584396,0.01504463
204.66666666672168,-0.11384119,-0.5959118,-0.08279795,-2.3232543,0.30650225,1.9809356,0.35568398,0.04,0.039999988,-8.956079,2.143045425415039,3.3837833,-0.020059265,-0.0877402052283287,0.014592208
204.68333333338836,-0.1141941,-0.5953287,-0.08305456,-2.3231525,0.3074495,1.9822035,0.35435325,0.04,0.039999984,-8.951175,2.1449787616729736,3.3955643,-0.01977927,-0.08666418492794037,0.014147937
204.70000000005504,-0.11454159,-0.5947546,-0.083307214,-2.3230517,0.30838206,1.9834518,0.3530431,0.04,0.039999984,-8.946582,2.1468727588653564,3.4072683,-0.01950433,-0.08559179306030273,0.013710046
204.71666666672172,-0.114883594,-0.59418947,-0.08355588,-2.3229523,0.3092998,1.9846803,0.35175365,0.04,0.039999988,-8.941741,2.1486613750457764,3.4186463,-0.019231632,-0.08451126515865326,0.01327936
204.7333333333884,-0.11522009,-0.59363353,-0.083800554,-2.3228538,0.31020284,1.985889,0.3504849,0.04,0.039999984,-8.93704,2.150388240814209,3.4298904,-0.018961087,-0.08342845737934113,0.012858332
204.75000000005508,-0.1155511,-0.5930867,-0.08404122,-2.3227575,0.31109113,1.9870781,0.3492369,0.04,0.03999999,-8.93231,2.1520543098449707,3.4409044,-0.018692503,-0.08233814686536789,0.012445085
204.76666666672176,-0.115876585,-0.5925488,-0.08427789,-2.3226635,0.31196466,1.9882474,0.34800974,0.04,0.039999988,-8.927851,2.1536974906921387,3.45182,-0.018427547,-0.08124708384275436,0.012039889
204.78333333338844,-0.11619653,-0.5920202,-0.08451056,-2.3225703,0.3128234,1.9893967,0.34680346,0.04,0.03999999,-8.923445,2.155264139175415,3.4625313,-0.018166611,-0.08015506714582443,0.0116407005
204.80000000005512,-0.11651096,-0.5915008,-0.084739216,-2.3224785,0.31366724,1.9905262,0.34561792,0.04,0.03999999,-8.918919,2.1567673683166504,3.473006,-0.017907485,-0.07905811816453934,0.0112504605
204.8166666667218,-0.11681986,-0.59099054,-0.08496382,-2.3223884,0.31449625,1.9916358,0.3444533,0.04,0.039999988,-8.914537,2.1582202911376953,3.483322,-0.017650343,-0.07795792818069458,0.010867858
204.83333333338848,-0.11712322,-0.5904894,-0.08518444,-2.3223,0.31531045,1.9927254,0.34330958,0.04,0.039999988,-8.910244,2.1596217155456543,3.4934707,-0.017396,-0.07685600221157074,0.010494107
204.85000000005516,-0.11742103,-0.5899974,-0.085401,-2.322214,0.31610975,1.9937952,0.34218684,0.04,0.039999984,-8.906051,2.1609671115875244,3.5034406,-0.017144827,-0.07575341314077377,0.010127757
204.86666666672184,-0.1177133,-0.58951443,-0.085613556,-2.3221288,0.31689414,1.9948448,0.34108496,0.04,0.039999988,-8.902019,2.162287712097168,3.5132518,-0.016897837,-0.07465211302042007,0.009765949
204.88333333338852,-0.11800003,-0.5890406,-0.085822105,-2.3220448,0.3176637,1.9958749,0.340004,0.04,0.039999984,-8.897867,2.163529396057129,3.5227861,-0.016652608,-0.07354767620563507,0.009410306
204.9000000000552,-0.11828124,-0.588576,-0.086026594,-2.321963,0.3184184,1.996885,0.33894387,0.04,0.04,-8.893817,2.164733648300171,3.5321743,-0.016409928,-0.07244032621383667,0.009064567
204.91666666672188,-0.118556924,-0.5881205,-0.0862271,-2.3218832,0.31915814,1.9978749,0.33790457,0.04,0.039999995,-8.889962,2.165881395339966,3.541464,-0.016170304,-0.07133692502975464,0.008725883
204.93333333338856,-0.11882706,-0.5876742,-0.086423576,-2.3218045,0.3198831,1.9988453,0.3368861,0.04,0.04,-8.886128,2.1670169830322266,3.550491,-0.01593359,-0.07023464888334274,0.008393648
204.95000000005524,-0.11909169,-0.587237,-0.086616054,-2.3217273,0.3205933,1.9997958,0.33588845,0.04,0.039999984,-8.882287,2.1680731773376465,3.5593302,-0.015698805,-0.06913071125745773,0.0080708
204.96666666672192,-0.119350806,-0.586809,-0.08680453,-2.3216515,0.3212887,2.0007265,0.33491153,0.04,0.03999999,-8.878578,2.1690921783447266,3.5680108,-0.015467047,-0.06802765280008316,0.0077537573
204.9833333333886,-0.11960443,-0.5863901,-0.08698903,-2.321578,0.32196936,2.0016375,0.33395526,0.04,0.03999998,-8.87489,2.170046329498291,3.5765045,-0.015237307,-0.06692478060722351,0.00744516
205.00000000005528,-0.11985256,-0.5859801,-0.0871695,-2.3215063,0.32263526,2.0025282,0.3330198,0.04,0.039999995,-8.871395,2.1709961891174316,3.5848525,-0.015010807,-0.06582426279783249,0.007138778
205.01666666672196,-0.12009522,-0.5855794,-0.087346,-2.3214355,0.3232865,2.0034,0.332105,0.04,0.039999988,-8.867967,2.171905755996704,3.5930095,-0.01478767,-0.06473186612129211,0.0068413727
205.03333333338864,-0.12033244,-0.58518755,-0.08751853,-2.3213658,0.32392308,2.0042524,0.33121076,0.04,0.039999995,-8.864423,2.1727261543273926,3.600924,-0.014566568,-0.06363403052091599,0.0065512657
205.05000000005532,-0.1205642,-0.5848046,-0.08768712,-2.3212984,0.324545,2.0050848,0.33033693,0.04,0.039999995,-8.861021,2.1735408306121826,3.6086571,-0.014347461,-0.06253713369369507,0.006268509
205.066666666722,-0.12079053,-0.5844306,-0.08785176,-2.3212326,0.32515234,2.0058978,0.32948363,0.04,0.03999999,-8.857852,2.174337387084961,3.6163104,-0.014131505,-0.06144974008202553,0.005992201
205.08333333338868,-0.12101147,-0.5840655,-0.08801249,-2.3211684,0.32574534,2.0066912,0.32865065,0.04,0.039999995,-8.854647,2.1750705242156982,3.6237164,-0.013918493,-0.06036440655589104,0.005720927
205.10000000005536,-0.12122703,-0.5837094,-0.088169314,-2.3211055,0.3263238,2.0074654,0.32783797,0.039999995,0.039999995,-8.851527,2.175740957260132,3.6309845,-0.013708555,-0.059283547103405,0.0054537826
205.11666666672204,-0.12143727,-0.58336216,-0.088322245,-2.3210442,0.32688794,2.0082204,0.3270455,0.039999995,0.039999995,-8.848451,2.1764309406280518,3.6380503,-0.013500997,-0.058207668364048004,0.005195212
205.13333333338872,-0.12164217,-0.58302355,-0.08847133,-2.320985,0.32743776,2.008957,0.32627296,0.039999995,0.039999995,-8.845414,2.1770544052124023,3.6449158,-0.013295806,-0.05713392421603203,0.0049436563
205.1500000000554,-0.12184176,-0.58269364,-0.08861653,-2.320927,0.3279734,2.009674,0.3255206,0.03999999,0.039999995,-8.842622,2.1776726245880127,3.6516776,-0.013094153,-0.05606807768344879,0.004696135
205.16666666672208,-0.12203609,-0.58237267,-0.08875795,-2.3208704,0.3284948,2.0103722,0.32478803,0.03999999,0.039999995,-8.839718,2.17820143699646,3.6581933,-0.012895059,-0.05500626564025879,0.004456162
205.18333333338876,-0.12222517,-0.5820602,-0.08889554,-2.320815,0.32900214,2.0110514,0.3240752,0.039999995,0.04,-8.836935,2.178738832473755,3.6645887,-0.01269828,-0.0539504811167717,0.0042208764
205.20000000005544,-0.12240908,-0.58175635,-0.08902934,-2.3207612,0.32949567,2.0117114,0.32338196,0.03999999,0.039999995,-8.834213,2.17923903465271,3.6707656,-0.012503707,-0.05290054529905319,0.0039935666
205.21666666672212,-0.12258781,-0.581461,-0.08915939,-2.3207097,0.32997528,2.0123534,0.32270813,0.039999988,0.039999995,-8.83162,2.179685115814209,3.6768284,-0.012312353,-0.051860298961400986,0.0037677654
205.2333333333888,-0.1227614,-0.58117414,-0.089285724,-2.3206592,0.33044112,2.0129771,0.32205358,0.03999999,0.04,-8.829129,2.180126428604126,3.6827157,-0.01212398,-0.05082683265209198,0.0035480473
205.25000000005548,-0.12292991,-0.5808957,-0.08940836,-2.3206103,0.33089325,2.0135825,0.32141834,0.03999998,0.039999995,-8.826589,2.18053936958313,3.688387,-0.01193733,-0.04979877918958664,0.0033346307
205.26666666672216,-0.12309337,-0.5806256,-0.08952732,-2.3205621,0.3313318,2.0141695,0.32080212,0.03999998,0.04,-8.824217,2.1809136867523193,3.6939502,-0.011754376,-0.048780035227537155,0.0031250666
205.28333333338884,-0.1232518,-0.5803637,-0.08964262,-2.3205154,0.33175698,2.0147383,0.3202047,0.03999998,0.04,-8.821751,2.181227922439575,3.6992562,-0.011572583,-0.047766465693712234,0.00292276
205.30000000005552,-0.12340528,-0.5801101,-0.08975435,-2.3204713,0.33216888,2.0152898,0.31962606,0.039999977,0.04,-8.819533,2.181565999984741,3.704498,-0.01139355,-0.0467652902007103,0.0027261388
205.3166666667222,-0.12355386,-0.57986444,-0.089862496,-2.3204281,0.33256754,2.0158231,0.31906587,0.03999998,0.04,-8.817427,2.1818687915802,3.7095976,-0.011219034,-0.04577356576919556,0.0025323997
205.33333333338888,-0.12369752,-0.57962716,-0.0899671,-2.320387,0.33295316,2.0163393,0.3185241,0.039999977,0.04,-8.815278,2.182133436203003,3.714474,-0.011046571,-0.04479322209954262,0.0023428106
205.35000000005556,-0.12383643,-0.5793977,-0.09006821,-2.3203459,0.3333259,2.0168386,0.31800047,0.03999997,0.04,-8.813229,2.1823534965515137,3.719239,-0.010877071,-0.043822553008794785,0.0021594816
205.36666666672224,-0.123970576,-0.579176,-0.09016587,-2.3203063,0.3336857,2.0173204,0.31749478,0.039999966,0.04,-8.811064,2.182560682296753,3.7237263,-0.010709138,-0.04285551607608795,0.0019818828
205.38333333338892,-0.12409999,-0.5789621,-0.0902601,-2.3202689,0.33403286,2.017785,0.31700683,0.03999996,0.04,-8.809184,2.1827516555786133,3.728182,-0.010544026,-0.041901689022779465,0.0018077394
205.4000000000556,-0.12422476,-0.57875574,-0.09035097,-2.3202324,0.33436772,2.0182333,0.3165364,0.039999958,0.04,-8.807417,2.182926654815674,3.7325044,-0.010382686,-0.04096372425556183,0.0016376043
205.41666666672228,-0.12434492,-0.57855695,-0.0904385,-2.3201978,0.33469018,2.018665,0.31608325,0.039999954,0.039999995,-8.805569,2.1830544471740723,3.7366073,-0.010223821,-0.04003638029098511,0.0014739397
205.43333333338896,-0.12446056,-0.5783658,-0.09052273,-2.3201642,0.33500054,2.0190806,0.31564713,0.03999995,0.04,-8.803906,2.1831815242767334,3.7406018,-0.0100684315,-0.0391220860183239,0.0013111754
205.45000000005564,-0.12457175,-0.5781821,-0.0906037,-2.3201315,0.33529887,2.0194805,0.3152279,0.039999947,0.03999999,-8.8021755,2.1832804679870605,3.744415,-0.009914898,-0.0382186658680439,0.0011567168
205.46666666672232,-0.12467853,-0.57800543,-0.09068148,-2.3201,0.33558547,2.0198643,0.31482518,0.039999947,0.039999995,-8.8005295,2.183332920074463,3.7480948,-0.009764242,-0.03732619807124138,0.0010052146
205.483333333389,-0.124780975,-0.57783604,-0.09075612,-2.3200705,0.33586043,2.020232,0.31443885,0.03999995,0.04,-8.79899,2.1833786964416504,3.7516332,-0.00961616,-0.03644782304763794,0.0008585954
205.50000000005568,-0.12487913,-0.57767385,-0.09082768,-2.3200417,0.336124,2.0205843,0.31406862,0.039999947,0.039999995,-8.797587,2.183418035507202,3.7551036,-0.009472184,-0.035588543862104416,0.0007136734
205.51666666672236,-0.1249731,-0.57751817,-0.0908962,-2.3200145,0.33637628,2.0209217,0.31371412,0.039999943,0.039999995,-8.796049,2.1833982467651367,3.7583284,-0.009329864,-0.03473863750696182,0.00057321315
205.53333333338904,-0.12506297,-0.57736975,-0.0909617,-2.3199885,0.3366175,2.0212443,0.31337512,0.039999943,0.04,-8.794825,2.1834068298339844,3.7615075,-0.0091916295,-0.03390834853053093,0.00043437266
205.55000000005572,-0.12514879,-0.5772276,-0.09102424,-2.3199632,0.33684784,2.021553,0.31305134,0.039999943,0.04,-8.793456,2.1833739280700684,3.7645202,-0.009055742,-0.03309263661503792,0.00030277664
205.5666666667224,-0.12523068,-0.5770924,-0.09108394,-2.319939,0.3370675,2.021848,0.31274244,0.039999936,0.039999995,-8.792185,2.183331251144409,3.7673357,-0.008922546,-0.032288264483213425,0.00017530525
205.58333333338908,-0.12530868,-0.57696354,-0.091140814,-2.3199162,0.33727685,2.0221288,0.31244826,0.039999936,0.04,-8.790917,2.1832356452941895,3.7701037,-0.008791376,-0.03149650990962982,5.193242e-05
205.60000000005576,-0.12538284,-0.5768407,-0.09119493,-2.3198946,0.33747596,2.0223954,0.3121684,0.039999932,0.039999995,-8.789849,2.1831536293029785,3.772766,-0.008664874,-0.03072483092546463,-6.5934684e-05
205.61666666672244,-0.12545326,-0.5767242,-0.09124632,-2.319874,0.33766508,2.0226483,0.31190252,0.039999932,0.04,-8.788809,2.183042049407959,3.775286,-0.008541321,-0.029973428696393967,-0.00018362391
205.63333333338912,-0.1255201,-0.5766136,-0.09129507,-2.319855,0.33784446,2.022888,0.3116503,0.03999993,0.03999999,-8.787774,2.1829099655151367,3.7776957,-0.008420699,-0.02924048900604248,-0.00029566808
205.6500000000558,-0.12558337,-0.57650894,-0.09134125,-2.3198364,0.33801433,2.0231156,0.31141144,0.03999993,0.04,-8.7868395,2.1827566623687744,3.7799811,-0.008303508,-0.028526807203888893,-0.00040801818
205.66666666672248,-0.1256432,-0.57640994,-0.09138491,-2.3198187,0.33817497,2.0233312,0.31118557,0.03999993,0.04,-8.785839,2.1825947761535645,3.782112,-0.00818903,-0.027827229350805283,-0.0005124562
205.68333333338916,-0.12569965,-0.5763165,-0.091426134,-2.3198018,0.33832663,2.023534,0.3109724,0.039999932,0.04,-8.784962,2.1824140548706055,3.7841623,-0.008077862,-0.027146566659212112,-0.0006143611
205.70000000005584,-0.12575285,-0.5762282,-0.091465004,-2.3197865,0.33846954,2.0237262,0.31077144,0.03999993,0.04,-8.784086,2.182208776473999,3.7861001,-0.00796963,-0.0264850202947855,-0.0007106679
205.71666666672252,-0.12580292,-0.57614535,-0.09150158,-2.319772,0.33860394,2.0239053,0.31058237,0.039999925,0.04,-8.783418,2.1820199489593506,3.7879925,-0.007866038,-0.0258446354418993,-0.0008054247
205.7333333333892,-0.1258499,-0.57606757,-0.0915359,-2.3197582,0.33873013,2.0240748,0.31040487,0.039999925,0.04,-8.782659,2.181748867034912,3.7897534,-0.00776523,-0.025228969752788544,-0.00090032036
205.75000000005588,-0.1258939,-0.5759945,-0.09156808,-2.3197453,0.33884847,2.0242333,0.31023854,0.039999925,0.04,-8.781898,2.1815288066864014,3.7913666,-0.0076673906,-0.024627970531582832,-0.0009849622
205.76666666672256,-0.1259351,-0.5759263,-0.0915982,-2.3197334,0.33895922,2.0243816,0.31008285,0.03999992,0.04,-8.781335,2.1812705993652344,3.792963,-0.007574343,-0.024052344262599945,-0.0010692473
205.78333333338924,-0.12597354,-0.5758625,-0.091626324,-2.3197224,0.33906254,2.0245202,0.30993763,0.03999992,0.04,-8.780673,2.180980920791626,3.7944262,-0.0074842405,-0.023496469482779503,-0.0011494212
205.80000000005592,-0.12600932,-0.57580304,-0.09165256,-2.3197122,0.3391588,2.0246491,0.30980217,0.03999992,0.04,-8.780149,2.180711030960083,3.7958238,-0.00739866,-0.022963954135775566,-0.0012258239
205.8166666667226,-0.12604257,-0.57574785,-0.09167694,-2.319702,0.33924836,2.024769,0.3096763,0.03999992,0.04,-8.779624,2.180400848388672,3.7971244,-0.007316241,-0.02245580591261387,-0.0012995056
205.83333333338928,-0.12607345,-0.5756967,-0.09169959,-2.3196924,0.33933145,2.0248806,0.30955943,0.03999992,0.04,-8.779044,2.180065155029297,3.7983272,-0.007237191,-0.021967722102999687,-0.0013685727
205.85000000005596,-0.12610203,-0.57564926,-0.09172055,-2.3196838,0.3394084,2.0249844,0.30945116,0.03999992,0.04,-8.778508,2.179703712463379,3.79946,-0.0071611516,-0.02149936556816101,-0.0014346518
205.86666666672264,-0.1261284,-0.5756055,-0.09173993,-2.3196762,0.3394795,2.0250802,0.30935106,0.03999992,0.04,-8.778148,2.179384708404541,3.80057,-0.007089681,-0.021057380363345146,-0.001495055
205.88333333338932,-0.12615272,-0.575565,-0.091757834,-2.319669,0.33954516,2.025169,0.30925864,0.03999992,0.04,-8.777797,2.179011821746826,3.8016353,-0.0070225033,-0.02064245380461216,-0.0015526281
205.900000000056,-0.12617514,-0.5755275,-0.091774344,-2.3196623,0.3396057,2.0252504,0.30917346,0.039999917,0.04,-8.777389,2.1786410808563232,3.8025506,-0.006958963,-0.020251039415597916,-0.0016058544
205.91666666672268,-0.12619574,-0.5754931,-0.09178954,-2.3196564,0.33966148,2.0253243,0.30909503,0.039999917,0.04,-8.77707,2.178241014480591,3.8034618,-0.0069000404,-0.019886473193764687,-0.0016580342
205.93333333338936,-0.12621474,-0.5754614,-0.09180353,-2.319651,0.33971277,2.025392,0.3090228,0.039999917,0.04,-8.776818,2.177851676940918,3.804358,-0.0068459543,-0.01955469325184822,-0.0017063805
205.95000000005604,-0.12623212,-0.5754323,-0.09181639,-2.3196456,0.33975998,2.025456,0.3089564,0.039999913,0.04,-8.776516,2.177443504333496,3.8051307,-0.0067957276,-0.01924978196620941,-0.0017521831
205.96666666672272,-0.12624808,-0.5754055,-0.091828234,-2.319641,0.3398034,2.0255144,0.30889538,0.039999917,0.04,-8.776172,2.177058696746826,3.8058057,-0.0067488174,-0.018961286172270775,-0.0017916097
205.9833333333894,-0.12626287,-0.57538074,-0.091839135,-2.319637,0.33984333,2.0255668,0.3088391,0.039999917,0.04,-8.775981,2.1767146587371826,3.806512,-0.0067064385,-0.01869923435151577,-0.0018283622
206.00000000005608,-0.12627637,-0.575358,-0.09184916,-2.3196337,0.33988008,2.0256171,0.3087874,0.039999913,0.04,-8.775803,2.1763992309570312,3.8071597,-0.006667596,-0.01846414804458618,-0.0018647814
206.01666666672276,-0.12628883,-0.57533705,-0.0918584,-2.3196304,0.33991385,2.0256615,0.30873975,0.03999991,0.04,-8.775588,2.176128387451172,3.8076904,-0.0066322507,-0.01824108324944973,-0.0018946258
206.03333333338944,-0.12630028,-0.57531774,-0.0918669,-2.3196273,0.339945,2.025704,0.3086959,0.03999991,0.04,-8.775403,2.1758298873901367,3.8082392,-0.0065991497,-0.01804264262318611,-0.0019255893
206.05000000005612,-0.12631077,-0.57530016,-0.09187472,-2.3196242,0.3399736,2.025741,0.3086556,0.03999991,0.04,-8.775182,2.175601005554199,3.8086753,-0.006568804,-0.017853304743766785,-0.0019508518
206.0666666667228,-0.12632044,-0.5752841,-0.09188193,-2.3196216,0.34,2.0257761,0.30861855,0.039999906,0.04,-8.775011,2.1753296852111816,3.8091393,-0.0065400386,-0.01768505573272705,-0.0019774062
206.08333333338948,-0.12632927,-0.57526916,-0.09188855,-2.319619,0.34002408,2.0258102,0.30858445,0.03999991,0.04,-8.774852,2.1751325130462646,3.809541,-0.0065143122,-0.017526812851428986,-0.0020015056
206.10000000005616,-0.12633741,-0.5752554,-0.09189466,-2.3196163,0.34004626,2.0258393,0.30855304,0.039999906,0.039999995,-8.774662,2.17496657371521,3.8098612,-0.0064898734,-0.017374945804476738,-0.0020160852
206.11666666672284,-0.12634486,-0.5752429,-0.091900274,-2.319614,0.34006673,2.0258667,0.30852416,0.039999906,0.04,-8.774574,2.174736499786377,3.8102422,-0.0064670285,-0.017242051661014557,-0.0020389312
206.13333333338952,-0.12635176,-0.5752311,-0.091905445,-2.3196115,0.34008563,2.0258932,0.30849755,0.039999906,0.04,-8.7744255,2.174581527709961,3.810549,-0.0064459336,-0.017117446288466454,-0.0020559668
206.1500000000562,-0.12635815,-0.57522047,-0.09191019,-2.3196092,0.340103,2.0259156,0.30847302,0.039999906,0.04,-8.774294,2.1744542121887207,3.810802,-0.0064267768,-0.016997946426272392,-0.0020692258
206.16666666672288,-0.12636404,-0.5752106,-0.09191459,-2.3196068,0.340119,2.0259361,0.3084505,0.039999906,0.04,-8.774192,2.1742796897888184,3.8111196,-0.0064084823,-0.016894107684493065,-0.0020848275
206.18333333338956,-0.12636945,-0.57520163,-0.09191861,-2.3196046,0.34013358,2.025956,0.3084298,0.039999906,0.04,-8.774098,2.174164295196533,3.8113527,-0.0063919392,-0.0167989581823349,-0.0020983948
206.20000000005624,-0.12637438,-0.57519346,-0.09192231,-2.3196027,0.34014705,2.0259748,0.3084108,0.03999991,0.04,-8.773982,2.174038887023926,3.811568,-0.0063762735,-0.016706913709640503,-0.002110088
206.21666666672292,-0.12637891,-0.57518554,-0.091925725,-2.3196013,0.3401595,2.025993,0.3083932,0.039999906,0.04,-8.773895,2.1739342212677,3.8117795,-0.0063619413,-0.01662025786936283,-0.0021180934
206.2333333333896,-0.12638298,-0.57517856,-0.09192885,-2.3195999,0.34017095,2.0260072,0.30837718,0.03999991,0.04,-8.773893,2.1738579273223877,3.811975,-0.006349485,-0.016538679599761963,-0.0021261405
206.25000000005627,-0.12638682,-0.57517225,-0.09193173,-2.3195984,0.34018147,2.02602,0.30836233,0.039999902,0.04,-8.773853,2.1737072467803955,3.8122187,-0.006337581,-0.016474127769470215,-0.002137372
206.26666666672295,-0.12639034,-0.57516617,-0.09193438,-2.319597,0.34019107,2.0260322,0.30834854,0.039999902,0.04,-8.773766,2.173624038696289,3.8123693,-0.006326333,-0.016413424164056778,-0.0021492296
206.28333333338963,-0.12639348,-0.5751606,-0.09193684,-2.3195958,0.34019995,2.0260441,0.3083358,0.039999902,0.04,-8.773722,2.173567771911621,3.812496,-0.00631533,-0.016357244923710823,-0.002158389
206.30000000005631,-0.12639646,-0.57515556,-0.091939084,-2.319595,0.3402082,2.0260556,0.3083241,0.039999902,0.04,-8.77367,2.1734986305236816,3.8126209,-0.006304934,-0.016303032636642456,-0.0021657643
206.316666666723,-0.1263991,-0.575151,-0.091941155,-2.3195944,0.34021574,2.0260668,0.30831328,0.039999902,0.04,-8.77365,2.173452615737915,3.8127682,-0.006296312,-0.016252323985099792,-0.002172207
206.33333333338967,-0.12640162,-0.57514673,-0.09194307,-2.3195937,0.3402226,2.0260775,0.30830336,0.039999902,0.04,-8.773567,2.1733779907226562,3.8128703,-0.0062873648,-0.01620228961110115,-0.0021763835
206.35000000005635,-0.12640388,-0.57514256,-0.09194482,-2.319593,0.34022903,2.0260882,0.30829433,0.039999902,0.04,-8.352524,1.9937353134155273,3.7240412,0.0,-0.0,0.0
206.36666666672303,-0.12640388,-0.57514256,-0.09194482,-2.319593,0.34022903,2.0260882,0.30829433,0.039999902,0.04,-8.773522,2.172612190246582,3.8132892,0.0,-0.0,0.0
206.38333333338971,-0.12640388,-0.57514256,-0.09194482,-2.319593,0.34022903,2.0260882,0.30829433,0.039999902,0.04,-8.773522,2.172612190246582,3.8132892,0.0,-0.0,0.0
206.4000000000564,-0.12640388,-0.57514256,-0.09194482,-2.319593,0.34022903,2.0260882,0.30829433,0.039999902,0.04,-8.773522,2.172612190246582,3.8132892,0.0,-0.0,0.0
206.41666666672307,-0.12640388,-0.57514256,-0.09194482,-2.319593,0.34022903,2.0260882,0.30829433,0.039999902,0.04,-8.773522,2.172612190246582,3.8132892,0.0,-0.0,0.0
206.43333333338975,-0.12640388,-0.57514256,-0.09194482,-2.319593,0.34022903,2.0260882,0.30829433,0.039999902,0.04,-8.773522,2.172612190246582,3.8132892,0.0,-0.0,0.0
206.45000000005643,-0.12640388,-0.57514256,-0.09194482,-2.319593,0.34022903,2.0260882,0.30829433,0.039999902,0.04,-8.773522,2.172612190246582,3.8132892,0.0,-0.0,0.0
206.4666666667231,-0.12640388,-0.57514256,-0.09194482,-2.319593,0.34022903,2.0260882,0.30829433,0.039999902,0.04,-8.773522,2.172612190246582,3.8132892,0.0,-0.0,0.0
206.4833333333898,-0.12640388,-0.57514256,-0.09194482,-2.319593,0.34022903,2.0260882,0.30829433,0.039999902,0.04,-8.773522,2.172612190246582,3.8132892,0.0,-0.0,0.0
206.50000000005647,-0.12640388,-0.57514256,-0.09194482,-2.319593,0.34022903,2.0260882,0.30829433,0.039999902,0.04,-8.773522,2.172612190246582,3.8132892,0.0,-0.0,0.0
206.51666666672315,-0.12640388,-0.57514256,-0.09194482,-2.319593,0.34022903,2.0260882,0.30829433,0.039999902,0.04,-8.773522,2.172612190246582,3.8132892,0.0,-0.0,0.0
206.53333333338983,-0.12640388,-0.57514256,-0.09194482,-2.319593,0.34022903,2.0260882,0.30829433,0.039999902,0.04,-8.773522,2.172612190246582,3.8132892,0.0,-0.0,0.0
206.5500000000565,-0.12640388,-0.57514256,-0.09194482,-2.319593,0.34022903,2.0260882,0.30829433,0.039999902,0.04,-8.773522,2.172612190246582,3.8132892,0.0,-0.0,0.0
206.5666666667232,-0.12640388,-0.57514256,-0.09194482,-2.319593,0.34022903,2.0260882,0.30829433,0.039999902,0.04,-8.773522,2.172612190246582,3.8132892,0.0,-0.0,0.0
206.58333333338987,-0.12640388,-0.57514256,-0.09194482,-2.319593,0.34022903,2.0260882,0.30829433,0.039999902,0.04,-8.773522,2.172612190246582,3.8132892,0.0,-0.0,0.0
206.60000000005655,-0.12640388,-0.57514256,-0.09194482,-2.319593,0.34022903,2.0260882,0.30829433,0.039999902,0.04,-8.773522,2.172612190246582,3.8132892,0.0,-0.0,0.0
206.61666666672323,-0.12640388,-0.57514256,-0.09194482,-2.319593,0.34022903,2.0260882,0.30829433,0.039999902,0.04,-8.773522,2.172612190246582,3.8132892,0.0,-0.0,0.0
206.6333333333899,-0.12640388,-0.57514256,-0.09194482,-2.319593,0.34022903,2.0260882,0.30829433,0.039999902,0.04,-8.773522,2.172612190246582,3.8132892,0.0,-0.0,0.0
206.6500000000566,-0.12640388,-0.57514256,-0.09194482,-2.319593,0.34022903,2.0260882,0.30829433,0.039999902,0.04,-8.773522,2.172612190246582,3.8132892,0.0,-0.0,0.0
206.66666666672327,-0.12640388,-0.57514256,-0.09194482,-2.319593,0.34022903,2.0260882,0.30829433,0.039999902,0.04,-8.773522,2.172612190246582,3.8132892,0.0,-0.0,0.0
206.68333333338995,-0.12640388,-0.57514256,-0.09194482,-2.319593,0.34022903,2.0260882,0.30829433,0.039999902,0.04,-8.773522,2.172612190246582,3.8132892,0.0,-0.0,0.0
206.70000000005663,-0.12640388,-0.57514256,-0.09194482,-2.319593,0.34022903,2.0260882,0.30829433,0.039999902,0.04,-8.773522,2.172612190246582,3.8132892,0.0,-0.0,0.0
206.7166666667233,-0.12640388,-0.57514256,-0.09194482,-2.319593,0.34022903,2.0260882,0.30829433,0.039999902,0.04,-8.773522,2.172612190246582,3.8132892,0.0,-0.0,0.0
206.73333333339,-0.12640388,-0.57514256,-0.09194482,-2.319593,0.34022903,2.0260882,0.30829433,0.039999902,0.04,-8.773522,2.172612190246582,3.8132892,0.0,-0.0,0.0
206.75000000005667,-0.12640388,-0.57514256,-0.09194482,-2.319593,0.34022903,2.0260882,0.30829433,0.039999902,0.04,-8.773522,2.172612190246582,3.8132892,0.0,-0.0,0.0
206.76666666672335,-0.12640388,-0.57514256,-0.09194482,-2.319593,0.34022903,2.0260882,0.30829433,0.039999902,0.04,-8.773522,2.172612190246582,3.8132892,0.0,-0.0,0.0
206.78333333339003,-0.12640388,-0.57514256,-0.09194482,-2.319593,0.34022903,2.0260882,0.30829433,0.039999902,0.04,-8.773522,2.172612190246582,3.8132892,0.0,-0.0,0.0
206.8000000000567,-0.12640388,-0.57514256,-0.09194482,-2.319593,0.34022903,2.0260882,0.30829433,0.039999902,0.04,-8.773522,2.172612190246582,3.8132892,0.0,-0.0,0.0
206.8166666667234,-0.12640388,-0.57514256,-0.09194482,-2.319593,0.34022903,2.0260882,0.30829433,0.039999902,0.04,-8.773522,2.172612190246582,3.8132892,0.0,-0.0,0.0
206.83333333339007,-0.12640388,-0.57514256,-0.09194482,-2.319593,0.34022903,2.0260882,0.30829433,0.039999902,0.04,-8.773522,2.172612190246582,3.8132892,0.0,-0.0,0.0
206.85000000005675,-0.12640388,-0.57514256,-0.09194482,-2.319593,0.34022903,2.0260882,0.30829433,0.039999902,0.04,-8.773522,2.172612190246582,3.8132892,0.0,-0.0,0.0
206.86666666672343,-0.12640388,-0.57514256,-0.09194482,-2.319593,0.34022903,2.0260882,0.30829433,0.039999902,0.04,-8.773522,2.172612190246582,3.8132892,0.0,-0.0,0.0
206.8833333333901,-0.12640388,-0.57514256,-0.09194482,-2.319593,0.34022903,2.0260882,0.30829433,0.039999902,0.04,-8.773522,2.172612190246582,3.8132892,0.0,-0.0,0.0
206.9000000000568,-0.12640388,-0.57514256,-0.09194482,-2.319593,0.34022903,2.0260882,0.30829433,0.039999902,0.04,-8.773522,2.172612190246582,3.8132892,0.0,-0.0,0.0
206.91666666672347,-0.12640388,-0.57514256,-0.09194482,-2.319593,0.34022903,2.0260882,0.30829433,0.039999902,0.04,-8.773522,2.172612190246582,3.8132892,0.0,-0.0,0.0
206.93333333339015,-0.12640388,-0.57514256,-0.09194482,-2.319593,0.34022903,2.0260882,0.30829433,0.039999902,0.04,-8.773522,2.172612190246582,3.8132892,0.0,-0.0,0.0
206.95000000005683,-0.12640388,-0.57514256,-0.09194482,-2.319593,0.34022903,2.0260882,0.30829433,0.039999902,0.04,-8.773522,2.172612190246582,3.8132892,0.0,-0.0,0.0
206.9666666667235,-0.12640388,-0.57514256,-0.09194482,-2.319593,0.34022903,2.0260882,0.30829433,0.039999902,0.04,-8.773522,2.172612190246582,3.8132892,0.0,-0.0,0.0
206.9833333333902,-0.12640388,-0.57514256,-0.09194482,-2.319593,0.34022903,2.0260882,0.30829433,0.039999902,0.04,-8.773522,2.172612190246582,3.8132892,0.0,-0.0,0.0
207.00000000005687,-0.12640388,-0.57514256,-0.09194482,-2.319593,0.34022903,2.0260882,0.30829433,0.039999902,0.04,-8.773522,2.172612190246582,3.8132892,0.0,-0.0,0.0
207.01666666672355,-0.12640388,-0.57514256,-0.09194482,-2.319593,0.34022903,2.0260882,0.30829433,0.039999902,0.04,-8.773522,2.172612190246582,3.8132892,0.0,-0.0,0.0
207.03333333339023,-0.12640388,-0.57514256,-0.09194482,-2.319593,0.34022903,2.0260882,0.30829433,0.039999902,0.04,-8.773522,2.172612190246582,3.8132892,0.0,-0.0,0.0
207.0500000000569,-0.12640388,-0.57514256,-0.09194482,-2.319593,0.34022903,2.0260882,0.30829433,0.039999902,0.04,-8.773522,2.172612190246582,3.8132892,0.0,-0.0,0.0
207.0666666667236,-0.12640388,-0.57514256,-0.09194482,-2.319593,0.34022903,2.0260882,0.30829433,0.039999902,0.04,-8.773522,2.172612190246582,3.8132892,0.0,-0.0,0.0
207.08333333339027,-0.12640388,-0.57514256,-0.09194482,-2.319593,0.34022903,2.0260882,0.30829433,0.039999902,0.04,-8.773522,2.172612190246582,3.8132892,0.0,-0.0,0.0
207.10000000005695,-0.12640388,-0.57514256,-0.09194482,-2.319593,0.34022903,2.0260882,0.30829433,0.039999902,0.04,-8.773522,2.172612190246582,3.8132892,0.0,-0.0,0.0
207.11666666672363,-0.12640388,-0.57514256,-0.09194482,-2.319593,0.34022903,2.0260882,0.30829433,0.039999902,0.04,-8.773522,2.172612190246582,3.8132892,0.0,-0.0,0.0
207.1333333333903,-0.12640388,-0.57514256,-0.09194482,-2.319593,0.34022903,2.0260882,0.30829433,0.039999902,0.04,-8.773522,2.172612190246582,3.8132892,0.0,-0.0,0.0
207.150000000057,-0.12640388,-0.57514256,-0.09194482,-2.319593,0.34022903,2.0260882,0.30829433,0.039999902,0.04,-8.773522,2.172612190246582,3.8132892,0.0,-0.0,0.0
207.16666666672367,-0.12640388,-0.57514256,-0.09194482,-2.319593,0.34022903,2.0260882,0.30829433,0.039999902,0.04,-8.773522,2.172612190246582,3.8132892,0.0,-0.0,0.0
207.18333333339035,-0.12640388,-0.57514256,-0.09194482,-2.319593,0.34022903,2.0260882,0.30829433,0.039999902,0.04,-8.773522,2.172612190246582,3.8132892,0.0,-0.0,0.0
207.20000000005703,-0.12640388,-0.57514256,-0.09194482,-2.319593,0.34022903,2.0260882,0.30829433,0.039999902,0.04,-8.773522,2.172612190246582,3.8132892,0.0,-0.0,0.0
207.2166666667237,-0.12640388,-0.57514256,-0.09194482,-2.319593,0.34022903,2.0260882,0.30829433,0.039999902,0.04,-8.773522,2.172612190246582,3.8132892,0.0,-0.0,0.0
207.2333333333904,-0.12640388,-0.57514256,-0.09194482,-2.319593,0.34022903,2.0260882,0.30829433,0.039999902,0.04,-8.773522,2.172612190246582,3.8132892,0.0,-0.0,0.0
207.25000000005707,-0.12640388,-0.57514256,-0.09194482,-2.319593,0.34022903,2.0260882,0.30829433,0.039999902,0.04,-8.773522,2.172612190246582,3.8132892,0.0,-0.0,0.0
207.26666666672375,-0.12640388,-0.57514256,-0.09194482,-2.319593,0.34022903,2.0260882,0.30829433,0.039999902,0.04,-8.773522,2.172612190246582,3.8132892,0.0,-0.0,0.0
207.28333333339043,-0.12640388,-0.57514256,-0.09194482,-2.319593,0.34022903,2.0260882,0.30829433,0.039999902,0.04,-8.773522,2.172612190246582,3.8132892,0.0,-0.0,0.0
207.3000000000571,-0.12640388,-0.57514256,-0.09194482,-2.319593,0.34022903,2.0260882,0.30829433,0.039999902,0.04,-8.773522,2.172612190246582,3.8132892,0.0,-0.0,0.0
207.3166666667238,-0.12640388,-0.57514256,-0.09194482,-2.319593,0.34022903,2.0260882,0.30829433,0.039999902,0.04,-8.773522,2.172612190246582,3.8132892,0.0,-0.0,0.0
207.33333333339047,-0.12640388,-0.57514256,-0.09194482,-2.319593,0.34022903,2.0260882,0.30829433,0.039999902,0.04,-8.773522,2.172612190246582,3.8132892,0.0,-0.0,0.0
207.35000000005715,-0.12640388,-0.57514256,-0.09194482,-2.319593,0.34022903,2.0260882,0.30829433,0.039999902,0.04,-8.773522,2.172612190246582,3.8132892,0.0,-0.0,0.0
207.36666666672383,-0.12640388,-0.57514256,-0.09194482,-2.319593,0.34022903,2.0260882,0.30829433,0.039999902,0.04,-8.773522,2.172612190246582,3.8132892,0.0,-0.0,0.0
207.3833333333905,-0.12640388,-0.57514256,-0.09194482,-2.319593,0.34022903,2.0260882,0.30829433,0.039999902,0.04,-8.773522,2.172612190246582,3.8132892,0.0,-0.0,0.0
207.4000000000572,-0.12640388,-0.57514256,-0.09194482,-2.319593,0.34022903,2.0260882,0.30829433,0.039999902,0.04,-8.773522,2.172612190246582,3.8132892,0.0,-0.0,0.0
207.41666666672387,-0.12640388,-0.57514256,-0.09194482,-2.319593,0.34022903,2.0260882,0.30829433,0.039999902,0.04,-8.773522,2.172612190246582,3.8132892,0.0,-0.0,0.0
207.43333333339055,-0.12640388,-0.57514256,-0.09194482,-2.319593,0.34022903,2.0260882,0.30829433,0.039999902,0.04,-8.773522,2.172612190246582,3.8132892,0.0,-0.0,0.0
207.45000000005723,-0.12640388,-0.57514256,-0.09194482,-2.319593,0.34022903,2.0260882,0.30829433,0.039999902,0.04,-8.773522,2.172612190246582,3.8132892,0.0,-0.0,0.0
207.4666666667239,-0.12640388,-0.57514256,-0.09194482,-2.319593,0.34022903,2.0260882,0.30829433,0.039999902,0.04,-8.773522,2.172612190246582,3.8132892,0.0,-0.0,0.0
207.4833333333906,-0.12640388,-0.57514256,-0.09194482,-2.319593,0.34022903,2.0260882,0.30829433,0.039999902,0.04,-8.773522,2.172612190246582,3.8132892,0.0,-0.0,0.0
207.50000000005727,-0.12640388,-0.57514256,-0.09194482,-2.319593,0.34022903,2.0260882,0.30829433,0.039999902,0.04,-8.773522,2.172612190246582,3.8132892,0.0,-0.0,0.0
207.51666666672395,-0.12640388,-0.57514256,-0.09194482,-2.319593,0.34022903,2.0260882,0.30829433,0.039999902,0.04,-8.773522,2.172612190246582,3.8132892,0.0,-0.0,0.0
207.53333333339063,-0.12640388,-0.57514256,-0.09194482,-2.319593,0.34022903,2.0260882,0.30829433,0.039999902,0.04,-8.773522,2.172612190246582,3.8132892,0.0,-0.0,0.0
207.5500000000573,-0.12640388,-0.57514256,-0.09194482,-2.319593,0.34022903,2.0260882,0.30829433,0.039999902,0.04,-8.773522,2.172612190246582,3.8132892,0.0,-0.0,0.0
207.566666666724,-0.12640388,-0.57514256,-0.09194482,-2.319593,0.34022903,2.0260882,0.30829433,0.039999902,0.04,-8.773522,2.172612190246582,3.8132892,0.0,-0.0,0.0
207.58333333339067,-0.12640388,-0.57514256,-0.09194482,-2.319593,0.34022903,2.0260882,0.30829433,0.039999902,0.04,-8.773522,2.172612190246582,3.8132892,0.0,-0.0,0.0
207.60000000005735,-0.12640388,-0.57514256,-0.09194482,-2.319593,0.34022903,2.0260882,0.30829433,0.039999902,0.04,-8.773522,2.172612190246582,3.8132892,0.0,-0.0,0.0
207.61666666672403,-0.12640388,-0.57514256,-0.09194482,-2.319593,0.34022903,2.0260882,0.30829433,0.039999902,0.04,-8.773522,2.172612190246582,3.8132892,0.0,-0.0,0.0
207.6333333333907,-0.12640388,-0.57514256,-0.09194482,-2.319593,0.34022903,2.0260882,0.30829433,0.039999902,0.04,-8.773522,2.172612190246582,3.8132892,0.0,-0.0,0.0
207.6500000000574,-0.12640388,-0.57514256,-0.09194482,-2.319593,0.34022903,2.0260882,0.30829433,0.039999902,0.04,-8.773522,2.172612190246582,3.8132892,0.0,-0.0,0.0
207.66666666672407,-0.12640388,-0.57514256,-0.09194482,-2.319593,0.34022903,2.0260882,0.30829433,0.039999902,0.04,-8.773522,2.172612190246582,3.8132892,0.0,-0.0,0.0
207.68333333339075,-0.12640388,-0.57514256,-0.09194482,-2.319593,0.34022903,2.0260882,0.30829433,0.039999902,0.04,-8.773522,2.172612190246582,3.8132892,0.0,-0.0,0.0
207.70000000005743,-0.12640388,-0.57514256,-0.09194482,-2.319593,0.34022903,2.0260882,0.30829433,0.039999902,0.04,-8.773522,2.172612190246582,3.8132892,0.0,-0.0,0.0
207.7166666667241,-0.12640388,-0.57514256,-0.09194482,-2.319593,0.34022903,2.0260882,0.30829433,0.039999902,0.04,-8.773522,2.172612190246582,3.8132892,0.0,-0.0,0.0
207.7333333333908,-0.12640388,-0.57514256,-0.09194482,-2.319593,0.34022903,2.0260882,0.30829433,0.039999902,0.04,-8.773522,2.172612190246582,3.8132892,0.0,-0.0,0.0
207.75000000005747,-0.12640388,-0.57514256,-0.09194482,-2.319593,0.34022903,2.0260882,0.30829433,0.039999902,0.04,-8.773522,2.172612190246582,3.8132892,0.0,-0.0,0.0
207.76666666672415,-0.12640388,-0.57514256,-0.09194482,-2.319593,0.34022903,2.0260882,0.30829433,0.039999902,0.04,-8.773522,2.172612190246582,3.8132892,0.0,-0.0,0.0
207.78333333339083,-0.12640388,-0.57514256,-0.09194482,-2.319593,0.34022903,2.0260882,0.30829433,0.039999902,0.04,-8.773522,2.172612190246582,3.8132892,0.0,-0.0,0.0
207.8000000000575,-0.12640388,-0.57514256,-0.09194482,-2.319593,0.34022903,2.0260882,0.30829433,0.039999902,0.04,-8.773522,2.172612190246582,3.8132892,0.0,-0.0,0.0
207.8166666667242,-0.12640388,-0.57514256,-0.09194482,-2.319593,0.34022903,2.0260882,0.30829433,0.039999902,0.04,-8.773522,2.172612190246582,3.8132892,0.0,-0.0,0.0
207.83333333339087,-0.12640388,-0.57514256,-0.09194482,-2.319593,0.34022903,2.0260882,0.30829433,0.039999902,0.04,-8.773522,2.172612190246582,3.8132892,0.0,-0.0,0.0
207.85000000005755,-0.12640388,-0.57514256,-0.09194482,-2.319593,0.34022903,2.0260882,0.30829433,0.039999902,0.04,-8.773522,2.172612190246582,3.8132892,0.0,-0.0,0.0
207.86666666672423,-0.12640388,-0.57514256,-0.09194482,-2.319593,0.34022903,2.0260882,0.30829433,0.039999902,0.04,-8.773522,2.172612190246582,3.8132892,0.0,-0.0,0.0
207.8833333333909,-0.12640388,-0.57514256,-0.09194482,-2.319593,0.34022903,2.0260882,0.30829433,0.039999902,0.04,-8.773522,2.172612190246582,3.8132892,0.0,-0.0,0.0
207.9000000000576,-0.12640388,-0.57514256,-0.09194482,-2.319593,0.34022903,2.0260882,0.30829433,0.039999902,0.04,-8.773522,2.172612190246582,3.8132892,0.0,-0.0,0.0
207.91666666672427,-0.12640388,-0.57514256,-0.09194482,-2.319593,0.34022903,2.0260882,0.30829433,0.039999902,0.04,-8.773522,2.172612190246582,3.8132892,0.0,-0.0,0.0
207.93333333339095,-0.12640388,-0.57514256,-0.09194482,-2.319593,0.34022903,2.0260882,0.30829433,0.039999902,0.04,-8.773522,2.172612190246582,3.8132892,0.0,-0.0,0.0
207.95000000005763,-0.12640388,-0.57514256,-0.09194482,-2.319593,0.34022903,2.0260882,0.30829433,0.039999902,0.04,-8.773522,2.172612190246582,3.8132892,0.0,-0.0,0.0
