rsonawane2002/My_IMU/logs_incomplete/traj_390/imu_390.csv
time,j1,j2,j3,j4,j5,j6,j7,gripper1,gripper2,imu_ax,imu_ay,imu_az,imu_gx,imu_gy,imu_gz
1536.9833333322642,0.00016700293,-0.785875,4.0107683e-05,-2.3551247,9.29385e-05,1.570997,0.786,0.04,0.04,-9.530892,0.008641157299280167,0.12018544,4.277752e-07,-0.0011641274904832244,2.9764163e-07
1536.999999998931,0.00016699929,-0.78576016,4.011517e-05,-2.3552213,9.298436e-05,1.5709941,0.786,0.04,0.04,-9.834521,0.0006436786497943103,0.009060969,2.7035392e-07,-0.0022390049416571856,1.5672877e-06
1537.0166666655975,0.00016695098,-0.7856542,4.01259e-05,-2.35531,9.309873e-05,1.5709913,0.786,0.04,0.04,-9.832421,0.0006168197724036872,0.007633498,3.5401417e-06,-0.0032276862766593695,5.960737e-06
1537.0333333322642,0.00016678424,-0.7855566,4.014598e-05,-2.355391,9.3398514e-05,1.5709884,0.786,0.04,0.04,-9.830904,0.0005868705338798463,0.00626255,1.2261258e-05,-0.00413916353136301,1.6806734e-05
1537.0499999989308,0.00016639283,-0.7854667,4.0184048e-05,-2.3554645,9.4051196e-05,1.5709856,0.786,0.04,0.04,-9.829177,0.0005523150321096182,0.0051444364,2.8464337e-05,-0.004976294934749603,3.6907753e-05
1537.0666666655975,0.0001656417,-0.7853835,4.0251e-05,-2.3555312,9.526961e-05,1.5709827,0.786,0.04,0.04,-9.827853,0.0005062177078798413,0.004053983,5.4828397e-05,-0.005742642097175121,6.878809e-05
1537.0833333322641,0.00016436943,-0.78530663,4.035976e-05,-2.3555906,9.730807e-05,1.5709798,0.786,0.04,0.04,-9.826524,0.0004587162984535098,0.0031370954,9.331849e-05,-0.006446833722293377,0.000114713795
1537.0999999989308,0.00016239149,-0.78523535,4.052507e-05,-2.3556466,0.000100455785,1.570977,0.786,0.04,0.04,-9.825375,0.00040342030115425587,0.0022615548,0.00014547906,-0.0070858602412045,0.0001767138
1537.1166666655974,0.00015950226,-0.78516877,4.0763556e-05,-2.3556967,0.000105034975,1.570974,0.7860008,0.04,0.04,-9.824711,0.00035872365697287023,0.001548708,0.00021325937,-0.007684319745749235,0.0002566122
1537.133333332264,0.00015547761,-0.78510636,4.109288e-05,-2.3557396,0.00011139726,1.5709708,0.7860027,0.04,0.04,-9.823993,0.0003145713417325169,0.00080957403,0.00029464872,-0.00823293812572956,0.00035602952
1537.1499999989308,0.00015007707,-0.78504765,4.1532294e-05,-2.3557763,0.00011992104,1.5709671,0.7860046,0.04,0.04,-9.822984,0.00029000104404985905,0.00021028845,0.00038971103,-0.008728629909455776,0.0004763771
1537.1666666655974,0.00014304559,-0.78499234,4.2102143e-05,-2.3558085,0.00013100167,1.5709604,0.7860065,0.04,0.04,-9.822321,0.0002714364673011005,-0.00032235426,0.0005044395,-0.009180160239338875,0.00061832264
1537.183333332264,0.00013411508,-0.7849393,4.2823394e-05,-2.3558352,0.00014507739,1.5709536,0.7860084,0.04,0.039999995,-9.822097,0.0002761351643130183,-0.00073463435,0.00064061536,-0.009607987478375435,0.000785536
1537.1999999989307,0.00012300712,-0.78488827,4.37186e-05,-2.3558547,0.00016256796,1.5709465,0.78601223,0.04,0.039999995,-9.821604,0.0003042092430405319,-0.0012026761,0.00079909235,-0.009998721070587635,0.0009755968
1537.2166666655974,0.00010943323,-0.78483886,4.4810597e-05,-2.3558674,0.00018391608,1.570936,0.78601605,0.04,0.04,-9.821148,0.00035503593971952796,-0.0016046145,0.0009721613,-0.010347940027713776,0.0011900138
1537.233333332264,9.309674e-05,-0.7847904,4.612289e-05,-2.3558748,0.00020959691,1.5709251,0.7860209,0.04,0.04,-9.820729,0.0004571715835481882,-0.0018682044,0.0011695831,-0.01067207008600235,0.0014310513
1537.2499999989307,7.369435e-05,-0.7847426,4.7679674e-05,-2.355876,0.00024008157,1.5709109,0.7860266,0.04,0.04,-9.820664,0.000573451747186482,-0.0021815011,0.0013876025,-0.01096722949296236,0.0016979399
1537.2666666655973,5.091672e-05,-0.78469485,4.9505383e-05,-2.3558705,0.00027585955,1.5708963,0.78603315,0.039999995,0.04,-9.820465,0.000761154224164784,-0.0023857327,0.001627333,-0.011244854889810085,0.0019921798
1537.283333332264,2.4449899e-05,-0.7846465,5.1624997e-05,-2.3558588,0.00031742192,1.5708781,0.7860408,0.03999999,0.039999995,-9.820385,0.0009718690998852253,-0.0026405007,0.0018901248,-0.011491759680211544,0.0023138006
1537.2999999989306,-6.0235902e-06,-0.7845972,5.4063592e-05,-2.3558395,0.00036526597,1.570859,0.7860501,0.039999988,0.03999999,-9.820354,0.0012594626750797033,-0.002821725,0.002175323,-0.011726371012628078,0.0026631865
1537.3166666655973,-4.0824234e-05,-0.7845468,5.6846777e-05,-2.3558125,0.00041989353,1.5708367,0.7860597,0.039999984,0.039999988,-9.820326,0.0015805355506017804,-0.003011702,0.002480881,-0.011933860369026661,0.0030404709
1537.333333332264,-8.027444e-05,-0.78449464,5.9999995e-05,-2.3557775,0.00048181013,1.5708108,0.7860711,0.039999977,0.039999977,-9.82021,0.001996864564716816,-0.003141409,0.002813735,-0.012123210355639458,0.003446683
1537.3499999989306,-0.00012469778,-0.7844404,6.3549196e-05,-2.3557336,0.0005515207,1.5707817,0.7860844,0.03999997,0.039999973,-9.820313,0.0024403976276516914,-0.0032345112,0.0031667978,-0.012297936715185642,0.0038793685
1537.3666666655972,-0.00017441841,-0.7843835,6.751981e-05,-2.355681,0.000629535,1.5707499,0.78609884,0.039999966,0.039999966,-9.820229,0.0030055642127990723,-0.0033354547,0.0035411778,-0.012455016374588013,0.0043420168
1537.3833333322639,-0.00022976051,-0.7843238,7.193778e-05,-2.3556194,0.00071635906,1.5707146,0.78611475,0.03999996,0.03999996,-9.820308,0.003600744064897299,-0.0034235707,0.0039398707,-0.012592805549502373,0.004832023
1537.3999999989305,-0.00029104765,-0.7842609,7.6828794e-05,-2.3555489,0.00081249996,1.5706755,0.7861324,0.039999958,0.039999958,-9.820363,0.00432242639362812,-0.0034799792,0.004362248,-0.012717938981950283,0.005350213
1537.4166666655972,-0.00035860192,-0.7841944,8.22184e-05,-2.355469,0.0009184624,1.5706325,0.7861519,0.039999958,0.039999958,-9.820478,0.005118370987474918,-0.0035181935,0.004807124,-0.012830157764256,0.005896482
1537.4333333322638,-0.00043274413,-0.7841239,8.813204e-05,-2.3553786,0.0010347487,1.5705851,0.78617334,0.03999995,0.03999995,-9.820752,0.005991531535983086,-0.0035313815,0.005274381,-0.012933146208524704,0.006470697
1537.4499999989305,-0.0005137928,-0.7840491,9.459507e-05,-2.3552783,0.001161858,1.5705333,0.7861968,0.03999994,0.03999994,-9.820762,0.006993364542722702,-0.003578095,0.0057635996,-0.01302302535623312,0.0070726695
1537.4666666655971,-0.000602064,-0.7839698,0.00010163261,-2.355168,0.0013002843,1.5704764,0.7862224,0.039999932,0.039999932,-9.82102,0.008063606917858124,-0.0035641238,0.006274877,-0.013103998266160488,0.0077021904
1537.4833333322638,-0.0006978709,-0.78388554,0.00010926939,-2.3550458,0.0014505186,1.5704151,0.7862501,0.039999932,0.039999932,-9.821265,0.009280754253268242,-0.0035854666,0.006808008,-0.013182016089558601,0.008359029
1537.4999999989304,-0.0008015237,-0.783796,0.00011753024,-2.3549132,0.0016130466,1.5703491,0.78628,0.039999932,0.039999932,-9.82139,0.010576465167105198,-0.0035798033,0.007363072,-0.013245035894215107,0.009042888
1537.516666665597,-0.0009133291,-0.783701,0.00012643942,-2.354768,0.0017883475,1.5702777,0.78631234,0.039999936,0.03999994,-9.821665,0.01202768087387085,-0.0036036232,0.007939553,-0.013304661959409714,0.009752619
1537.5333333322637,-0.0010335898,-0.78360003,0.00013602103,-2.3546124,0.0019768972,1.5702008,0.7863473,0.03999994,0.03999994,-9.8218155,0.013568582013249397,-0.0035660146,0.008536658,-0.013352206908166409,0.010490479
1537.5499999989304,-0.001162604,-0.7834928,0.00014629895,-2.354443,0.0021791626,1.5701184,0.7863846,0.03999994,0.03999994,-9.822196,0.015265467576682568,-0.003599367,0.009153564,-0.013403131626546383,0.011253559
1537.566666665597,-0.0013006672,-0.78337944,0.00015729645,-2.3542612,0.0023956043,1.5700305,0.7864245,0.039999943,0.039999943,-9.822344,0.017055794596672058,-0.003579109,0.009792192,-0.013441380113363266,0.0120423315
1537.5833333322637,-0.0014480696,-0.7832595,0.0001690367,-2.354067,0.0026266787,1.5699365,0.7864672,0.039999947,0.039999947,-9.822506,0.019032547250390053,-0.0035955068,0.010450053,-0.0134737528860569,0.0128564285
1537.5999999989303,-0.0016050958,-0.7831326,0.00018154235,-2.353859,0.0028728326,1.5698363,0.7865126,0.039999954,0.039999954,-9.822938,0.021099012345075607,-0.0035440712,0.011127661,-0.013504297472536564,0.013695452
1537.616666665597,-0.001772027,-0.7829982,0.00019483561,-2.3536365,0.0031345054,1.56973,0.78656083,0.039999954,0.039999954,-9.8229885,0.023362040519714355,-0.0035810363,0.011824425,-0.013527640141546726,0.014558995
1537.6333333322636,-0.0019491394,-0.7828569,0.00020893861,-2.3534,0.0034121291,1.5696172,0.7866121,0.039999954,0.039999954,-9.823317,0.025722932070493698,-0.0035774945,0.012540289,-0.013545825146138668,0.0154466145
1537.6499999989303,-0.002136704,-0.78270787,0.00022387279,-2.3531492,0.0037061288,1.5694976,0.78666633,0.039999958,0.039999958,-9.82343,0.028293073177337646,-0.0035645491,0.013273837,-0.013558531180024147,0.016357876
1537.666666665597,-0.0023349868,-0.7825506,0.0002396593,-2.3528833,0.004016919,1.5693713,0.7867236,0.03999996,0.03999996,-9.823681,0.030995182693004608,-0.0035762065,0.014025785,-0.013568418100476265,0.017292365
1537.6833333322636,-0.002544247,-0.7823851,0.00025631898,-2.3526022,0.004344911,1.569238,0.78678423,0.03999996,0.03999996,-9.82404,0.033824630081653595,-0.0035747439,0.014795259,-0.013575549237430096,0.018249622
1537.6999999989303,-0.0027647403,-0.7822113,0.00027387202,-2.3523054,0.0046905004,1.5690974,0.786848,0.039999958,0.039999954,-9.824156,0.03688688576221466,-0.0036294279,0.015581053,-0.013579933904111385,0.019230014
1537.716666665597,-0.002996716,-0.782029,0.00029233834,-2.3519936,0.00505408,1.5689497,0.786915,0.039999958,0.039999954,-9.824467,0.04005129262804985,-0.0036022798,0.016383622,-0.01358022727072239,0.020231385
1537.7333333322636,-0.0032404193,-0.7818377,0.00031173747,-2.3516655,0.005436031,1.5687946,0.7869854,0.03999996,0.039999958,-9.824665,0.043451786041259766,-0.0036765398,0.017202891,-0.013579837046563625,0.021254122
1537.7499999989302,-0.003496088,-0.7816374,0.00033208833,-2.3513215,0.0058367294,1.5686318,0.78705925,0.039999966,0.03999996,-9.825012,0.04696819186210632,-0.0036802907,0.018037602,-0.013577722012996674,0.022297718
1537.7666666655969,-0.0037639544,-0.78142804,0.00035340924,-2.3509605,0.0062565384,1.5684613,0.7871366,0.039999973,0.03999997,-9.825195,0.0507330484688282,-0.0037702606,0.018887676,-0.013576596975326538,0.02336173
1537.7833333322635,-0.004044247,-0.7812093,0.0003757186,-2.3505824,0.006695815,1.5682827,0.7872177,0.039999973,0.03999997,-9.825467,0.0546129010617733,-0.0037717656,0.019752167,-0.01357076782733202,0.02444562
1537.7999999989302,-0.004337188,-0.7809808,0.0003990339,-2.350187,0.0071549043,1.5680963,0.7873024,0.039999973,0.03999997,-9.825568,0.05874637886881828,-0.0038755382,0.020630416,-0.013564241118729115,0.025548926
1537.8166666655968,-0.004642991,-0.78074265,0.00042337232,-2.3497744,0.0076341475,1.5679017,0.7873908,0.03999997,0.039999966,-9.825904,0.06300396472215652,-0.0039072195,0.021522565,-0.013556349091231823,0.02667118
1537.8333333322635,-0.004961867,-0.7804945,0.00044875056,-2.3493435,0.00813387,1.5676986,0.7874831,0.039999984,0.03999998,-9.826004,0.06752601265907288,-0.0040438175,0.022427626,-0.013547505252063274,0.027811816
1537.8499999989301,-0.0052940217,-0.78023636,0.0004751851,-2.3488946,0.008654397,1.567487,0.78757906,0.039999984,0.03999998,-9.826287,0.07217316329479218,-0.0040715835,0.023344986,-0.013537210412323475,0.028970396
1537.8666666655968,-0.005639652,-0.7799679,0.0005026915,-2.3484273,0.009196034,1.5672671,0.78767896,0.039999988,0.039999984,-9.826355,0.07709469646215439,-0.0042105527,0.02427528,-0.013526707887649536,0.03014639
1537.8833333322634,-0.00599895,-0.77968895,0.0005312854,-2.3479416,0.009759085,1.567038,0.7877829,0.039999995,0.03999999,-9.826643,0.08215385675430298,-0.004269566,0.025217008,-0.013513987883925438,0.031339288
1537.89999999893,-0.0063721053,-0.7793995,0.00056098116,-2.3474367,0.0103438515,1.5668005,0.78789073,0.039999995,0.04,-9.826733,0.08747050166130066,-0.004452907,0.026169216,-0.013503975234925747,0.03254691
1537.9166666655967,-0.0067592966,-0.7790992,0.00059179385,-2.3469129,0.0109506,1.566554,0.7880026,0.039999995,0.039999995,-9.826798,0.09299035370349884,-0.0045796167,0.027132884,-0.013489065691828728,0.033773046
1537.9333333322634,-0.0071607,-0.778788,0.0006237371,-2.3463693,0.011579616,1.5662982,0.7881186,0.039999995,0.03999999,-9.827142,0.09867566078901291,-0.004670617,0.028106432,-0.013476881198585033,0.035014603
1537.94999999893,-0.0075764842,-0.77846575,0.00065682456,-2.3458061,0.012231163,1.5660336,0.78823876,0.039999995,0.03999999,-9.827106,0.10463247448205948,-0.0048897993,0.029089514,-0.013463255017995834,0.036270216
1537.9666666655967,-0.008006813,-0.7781326,0.00069106923,-2.3452234,0.012905494,1.5657598,0.78836316,0.039999995,0.03999999,-9.827341,0.11075077205896378,-0.0049839504,0.03008193,-0.01344828587025404,0.03754022
1537.9833333322633,-0.008451847,-0.77778804,0.00072648376,-2.344621,0.013602863,1.5654765,0.7884918,0.04,0.04,-9.827368,0.11714302748441696,-0.0052078366,0.031082517,-0.013434399850666523,0.038823366
1537.99999999893,-0.0089117335,-0.77743214,0.0007630802,-2.343998,0.014323506,1.5651839,0.78862464,0.04,0.04,-9.8276005,0.12369611859321594,-0.005343141,0.032091234,-0.01342097483575344,0.040118184
1538.0166666655966,-0.009386623,-0.7770645,0.0008008703,-2.3433545,0.015067645,1.5648817,0.78876185,0.04,0.04,-9.827535,0.1305616945028305,-0.0055989064,0.033107597,-0.013406448066234589,0.041429266
1538.0333333322633,-0.009876656,-0.77668536,0.0008398652,-2.3426905,0.015835514,1.5645696,0.7889034,0.039999995,0.039999995,-9.827746,0.1375773400068283,-0.00576453,0.034131046,-0.013393337838351727,0.042754482
1538.04999999893,-0.010381966,-0.77629435,0.00088007597,-2.3420064,0.01662732,1.5642481,0.7890494,0.04,0.04,-9.827647,0.14486394822597504,-0.0060360264,0.035161212,-0.01338020246475935,0.04408847
1538.0666666655966,-0.010902681,-0.77589154,0.0009215128,-2.341301,0.017443258,1.5639168,0.7891999,0.04,0.04,-9.827964,0.15234044194221497,-0.0062335692,0.036197,-0.01337143313139677,0.045435213
1538.0833333322632,-0.011438925,-0.7754767,0.00096418516,-2.340574,0.018283527,1.5635755,0.78935486,0.04,0.04,-9.827776,0.16008101403713226,-0.0065506827,0.037238162,-0.0133605832234025,0.046789322
1538.09999999893,-0.01199082,-0.77504987,0.001008103,-2.339826,0.01914831,1.5632242,0.78951436,0.04,0.04,-9.827898,0.16803324222564697,-0.0067613134,0.038284227,-0.013349859043955803,0.048156977
1538.1166666655965,-0.012558476,-0.7746109,0.0010532748,-2.339057,0.020037787,1.562863,0.78967845,0.04,0.04,-9.827763,0.17626875638961792,-0.0070994115,0.039334804,-0.013340290635824203,0.049534652
1538.1333333322632,-0.013141999,-0.77415967,0.0010997094,-2.3382664,0.020952139,1.5624917,0.78984714,0.04,0.04,-9.827931,0.18468011915683746,-0.0073420973,0.040388875,-0.013332542032003403,0.050922643
1538.1499999989298,-0.013741492,-0.77369636,0.0011474149,-2.3374543,0.021891497,1.56211,0.7900204,0.04,0.04,-9.827787,0.1933874487876892,-0.007718822,0.041446514,-0.013327410444617271,0.05231885
1538.1666666655965,-0.014357047,-0.77322054,0.0011963992,-2.33662,0.022856036,1.5617181,0.7901983,0.04,0.04,-9.827733,0.20231226086616516,-0.008028344,0.04250713,-0.013324101455509663,0.053723607
1538.1833333322631,-0.014988763,-0.7727323,0.0012466693,-2.3357637,0.023845892,1.561316,0.79038095,0.04,0.04,-9.827749,0.2114357054233551,-0.0083266515,0.043570347,-0.01331922598183155,0.055136386
1538.1999999989298,-0.015636714,-0.7722314,0.001298232,-2.3348854,0.02486118,1.5609037,0.79056835,0.04,0.04,-9.827502,0.2208724468946457,-0.008746075,0.044634834,-0.013315826654434204,0.05655688
1538.2166666655964,-0.016300984,-0.77171767,0.0013510941,-2.3339846,0.025902014,1.5604808,0.7907603,0.04,0.04,-9.827576,0.23046928644180298,-0.009071797,0.045700785,-0.013314863666892052,0.057981156
1538.233333332263,-0.01698165,-0.77119166,0.001405261,-2.3330615,0.026968533,1.5600475,0.79095703,0.04,0.04,-9.827245,0.24042372405529022,-0.009550337,0.046768367,-0.013314508832991123,0.059416477
1538.2499999989298,-0.017678777,-0.7706529,0.0014607382,-2.3321161,0.028060846,1.5596037,0.7911585,0.04,0.04,-9.82722,0.2505382299423218,-0.009862711,0.04783612,-0.013314127922058105,0.060858678
1538.2666666655964,-0.018392432,-0.7701014,0.0015175311,-2.3311486,0.029179055,1.5591495,0.7913648,0.04,0.04,-9.826912,0.2609403431415558,-0.010360927,0.04890372,-0.013316342607140541,0.06230352
1538.283333332263,-0.019122673,-0.7695371,0.0015756448,-2.3301587,0.030323252,1.558685,0.7915758,0.04,0.04,-9.826891,0.2715829312801361,-0.010734487,0.04997073,-0.013321107253432274,0.063759476
1538.2999999989297,-0.019869553,-0.7689598,0.0016350826,-2.3291461,0.03149351,1.5582094,0.7917917,0.04,0.04,-9.826557,0.282482773065567,-0.011271129,0.05103708,-0.0133281284943223,0.06521762
1538.3166666655964,-0.020633118,-0.76836973,0.001695849,-2.328111,0.032689914,1.5577238,0.79201233,0.04,0.04,-9.826442,0.29354697465896606,-0.01169526,0.052101247,-0.013338065706193447,0.066672035
1538.333333332263,-0.021413408,-0.76776695,0.0017579476,-2.3270533,0.03391253,1.5572273,0.7922379,0.04,0.04,-9.825994,0.3049953281879425,-0.01226735,0.053163946,-0.01334704551845789,0.06813634
1538.3499999989297,-0.022210468,-0.767151,0.001821381,-2.325973,0.03516139,1.5567198,0.7924682,0.04,0.04,-9.825883,0.316609263420105,-0.012688575,0.054223813,-0.013360059820115566,0.06960405
1538.3666666655963,-0.02302433,-0.766522,0.001886152,-2.32487,0.036436588,1.5562018,0.79270333,0.04,0.04,-9.825445,0.32855361700057983,-0.013325074,0.055281047,-0.013377729803323746,0.07107905
1538.383333332263,-0.023855017,-0.7658801,0.0019522631,-2.3237443,0.037738144,1.5556731,0.79294336,0.04,0.04,-9.825252,0.34064245223999023,-0.013826981,0.05633508,-0.013397407718002796,0.07255182
1538.3999999989296,-0.02470256,-0.76522523,0.0020197153,-2.3225956,0.03906612,1.5551338,0.79318845,0.04,0.04,-9.824712,0.3530608117580414,-0.0144587895,0.057384886,-0.013419399969279766,0.07402602
1538.4166666655963,-0.02556697,-0.76455736,0.0020885111,-2.321424,0.04042051,1.5545837,0.79343814,0.04,0.04,-9.82426,0.3657195568084717,-0.015067767,0.058429874,-0.013441896066069603,0.075503536
1538.433333332263,-0.026448261,-0.76387626,0.0021586514,-2.3202293,0.04180135,1.5540228,0.7936929,0.04,0.04,-9.823965,0.3786492347717285,-0.015610458,0.059471183,-0.01346693467348814,0.07699228
1538.4499999989296,-0.027346445,-0.76318216,0.0022301367,-2.319012,0.04320864,1.5534512,0.79395247,0.04,0.04,-9.823335,0.3917320668697357,-0.016348206,0.060506634,-0.013494725339114666,0.07846628
1538.4666666655962,-0.028261516,-0.76247513,0.0023029665,-2.3177714,0.04464239,1.5528687,0.7942169,0.04,0.04,-9.823032,0.4051554501056671,-0.016934844,0.061536305,-0.01352624874562025,0.079945944
1538.4833333322629,-0.029193478,-0.7617548,0.0023771422,-2.316508,0.046102613,1.5522757,0.7944862,0.04,0.04,-9.822265,0.41883742809295654,-0.017682355,0.06256026,-0.013558773323893547,0.081425846
1538.4999999989295,-0.030142324,-0.7610216,0.0024526631,-2.3152215,0.04758928,1.5516717,0.7947604,0.04,0.04,-9.821873,0.4327358901500702,-0.01833742,0.06357763,-0.013594580814242363,0.08290688
1538.5166666655962,-0.031108046,-0.7602754,0.0025295278,-2.313912,0.049102392,1.5510572,0.7950395,0.04,0.04,-9.821042,0.4469117224216461,-0.019120783,0.06458803,-0.013630926609039307,0.084386475
1538.5333333322628,-0.03209062,-0.75951636,0.0026077356,-2.3125796,0.05064193,1.550432,0.79532343,0.04,0.04,-9.820515,0.4613129794597626,-0.019798841,0.06559147,-0.013668335042893887,0.08586648
1538.5499999989295,-0.033090044,-0.758744,0.0026872845,-2.3112247,0.052207842,1.549796,0.7956122,0.04,0.04,-9.819661,0.4759928584098816,-0.020618595,0.06658698,-0.0137082664296031,0.08734409
1538.5666666655961,-0.034106277,-0.7579588,0.0027681726,-2.3098469,0.05380011,1.5491493,0.79590595,0.04,0.04,-9.819139,0.49090662598609924,-0.021369264,0.06757454,-0.013752985745668411,0.08882068
1538.5833333322628,-0.035139296,-0.7571607,0.0028503984,-2.308446,0.05541866,1.548492,0.7962044,0.04,0.04,-9.818195,0.5060893893241882,-0.022235513,0.068553075,-0.013800212182104588,0.090295
1538.5999999989294,-0.03618907,-0.7563493,0.0029339585,-2.3070219,0.05706348,1.547824,0.7965078,0.04,0.04,-9.817489,0.5214911699295044,-0.023009144,0.06952349,-0.013847864232957363,0.091766454
1538.616666665596,-0.037255567,-0.75552535,0.0030188512,-2.3055758,0.058734488,1.5471452,0.79681593,0.04,0.04,-9.81645,0.5371688008308411,-0.023962125,0.07048389,-0.013897663913667202,0.09323406
1538.6333333322627,-0.038338747,-0.7546885,0.0031050716,-2.3041072,0.06043162,1.5464557,0.797129,0.04,0.04,-9.815789,0.5530841946601868,-0.024750479,0.07143485,-0.013953645713627338,0.094698966
1538.6499999989294,-0.03943854,-0.7538386,0.003192617,-2.302616,0.062154792,1.5457559,0.7974468,0.04,0.04,-9.814655,0.569260835647583,-0.025724728,0.072375365,-0.014011920429766178,0.09616
1538.666666665596,-0.040554903,-0.7529761,0.0032814834,-2.3011024,0.06390393,1.5450451,0.7977694,0.04,0.04,-9.81367,0.5856662392616272,-0.026681526,0.07330552,-0.014072972349822521,0.09761597
1538.6833333322627,-0.041687798,-0.7521004,0.003371667,-2.2995667,0.06567893,1.5443244,0.7980967,0.04,0.04,-9.812801,0.6022880673408508,-0.027553994,0.0742249,-0.01413814164698124,0.099064164
1538.6999999989293,-0.04283715,-0.7512123,0.0034631614,-2.298009,0.0674797,1.5435929,0.7984289,0.04,0.04,-9.811623,0.6192095875740051,-0.02866365,0.07513339,-0.014207095839083195,0.10050745
1538.716666665596,-0.044002894,-0.75031173,0.0035559637,-2.2964287,0.069306195,1.5428514,0.79876584,0.04,0.04,-9.810664,0.6363587975502014,-0.029581223,0.07602963,-0.01428049523383379,0.10194802
1538.7333333322626,-0.045184977,-0.7493982,0.0036500674,-2.294826,0.07115827,1.5420986,0.7991075,0.04,0.04,-9.809226,0.6537513732910156,-0.030684933,0.07691413,-0.01435170043259859,0.103383325
1538.7499999989293,-0.046383318,-0.7484723,0.0037454672,-2.2932014,0.0730358,1.5413359,0.7994539,0.04,0.04,-9.808193,0.6713794469833374,-0.03169988,0.07778645,-0.014431367628276348,0.104813516
1538.766666665596,-0.04759785,-0.74753386,0.003842157,-2.2915552,0.07493866,1.5405632,0.799805,0.04,0.04,-9.806694,0.6892157196998596,-0.03285074,0.078645825,-0.014510616660118103,0.106231816
1538.7833333322626,-0.048828486,-0.74658287,0.0039401306,-2.289887,0.076866776,1.5397801,0.8001607,0.04,0.04,-9.805572,0.7073744535446167,-0.03390876,0.07949234,-0.014593977481126785,0.10765124
1538.7999999989293,-0.05007515,-0.7456196,0.004039382,-2.2881968,0.07881998,1.5389868,0.80052114,0.04,0.04,-9.803972,0.7256767153739929,-0.03513332,0.08032608,-0.014679701998829842,0.10905715
1538.816666665596,-0.05133774,-0.74464405,0.0041399035,-2.286485,0.08079817,1.5381832,0.8008859,0.04,0.04,-9.802653,0.7442924380302429,-0.036225174,0.08114558,-0.014768365770578384,0.11046197
1538.8333333322626,-0.052616175,-0.74365616,0.0042416886,-2.2847514,0.08280118,1.5373696,0.8012551,0.04,0.04,-9.800966,0.7630581259727478,-0.03748952,0.08195295,-0.014859585091471672,0.111852504
1538.8499999989292,-0.053910375,-0.7426561,0.0043447325,-2.2829971,0.08482887,1.5365459,0.80162907,0.04,0.04,-9.799511,0.7821306586265564,-0.03867094,0.08274674,-0.014952491968870163,0.11323967
1538.8666666655959,-0.05522021,-0.7416439,0.004449023,-2.281221,0.086881086,1.5357122,0.80200773,0.04,0.04,-9.797774,0.8014020919799805,-0.039979424,0.083525226,-0.015050556510686874,0.11461675
1538.8833333322625,-0.056545593,-0.7406198,0.004554554,-2.2794242,0.08895767,1.5348686,0.80239075,0.04,0.04,-9.796175,0.8208885192871094,-0.041208506,0.08428853,-0.015149986371397972,0.11598414
1538.8999999989292,-0.057886433,-0.7395836,0.0046613156,-2.2776067,0.09105845,1.5340154,0.80277824,0.04,0.04,-9.794312,0.8406355977058411,-0.042587254,0.08503728,-0.015254507772624493,0.117343985
1538.9166666655958,-0.059242617,-0.7385356,0.0047693006,-2.2757683,0.09318325,1.5331523,0.80317,0.04,0.04,-9.79253,0.8605914115905762,-0.043939464,0.08577048,-0.015362216159701347,0.118694276
1538.9333333322625,-0.06061402,-0.7374759,0.004878501,-2.2739086,0.09533189,1.5322797,0.8035664,0.04,0.04,-9.790765,0.8807660937309265,-0.045240514,0.08648923,-0.015473362989723682,0.12003397
1538.9499999989291,-0.06200053,-0.7364043,0.004988908,-2.2720287,0.09750421,1.5313973,0.803967,0.04,0.04,-9.788551,0.9011552929878235,-0.046702586,0.08719167,-0.015582160092890263,0.12136429
1538.9666666655958,-0.063402034,-0.73532134,0.005100508,-2.2701285,0.09970002,1.5305054,0.804372,0.04,0.04,-9.7867155,0.9217783808708191,-0.048071668,0.08787864,-0.015696747228503227,0.12268417
1538.9833333322624,-0.06481842,-0.73422676,0.005213296,-2.2682083,0.10191909,1.5296043,0.8047814,0.04,0.04,-9.784475,0.9425956606864929,-0.049572803,0.08854944,-0.01581432856619358,0.12399252
1538.999999998929,-0.06624954,-0.7331207,0.0053272587,-2.2662683,0.1041613,1.5286934,0.80519485,0.04,0.04,-9.782456,0.9636607766151428,-0.0510052,0.08920331,-0.015933262184262276,0.12529033
1539.0166666655957,-0.06769529,-0.73200345,0.005442389,-2.2643085,0.106426366,1.5277736,0.8056126,0.04,0.04,-9.780124,0.9849144816398621,-0.052585725,0.089841,-0.016058700159192085,0.12657702
1539.0333333322624,-0.069155484,-0.73087496,0.0055586733,-2.2623286,0.108714126,1.526844,0.8060345,0.04,0.04,-9.777955,1.0063916444778442,-0.054062158,0.09046157,-0.01618572697043419,0.1278511
1539.049999998929,-0.07063003,-0.7297354,0.005676101,-2.2603295,0.111024335,1.5259058,0.8064606,0.04,0.04,-9.775375,1.028045415878296,-0.055690907,0.091065966,-0.01631520874798298,0.12911396
1539.0666666655957,-0.07211877,-0.728585,0.0057946644,-2.2583113,0.113356814,1.5249583,0.80689085,0.04,0.04,-9.773074,1.0499271154403687,-0.05723974,0.0916525,-0.016446435824036598,0.1303613
1539.0833333322623,-0.073621556,-0.7274236,0.0059143505,-2.256274,0.11571127,1.524002,0.80732507,0.04,0.04,-9.770425,1.0719714164733887,-0.05890432,0.092221916,-0.016582529991865158,0.13159277
1539.099999998929,-0.07513829,-0.7262514,0.006035148,-2.254218,0.11808753,1.523037,0.80776334,0.04,0.04,-9.767933,1.0943033695220947,-0.06052805,0.09277413,-0.016719387844204903,0.13281734
1539.1166666655956,-0.07666877,-0.72506875,0.006157044,-2.2521434,0.12048535,1.5220629,0.8082057,0.04,0.04,-9.765122,1.1167633533477783,-0.06228931,0.093308136,-0.01685899682343006,0.13402797
1539.1333333322623,-0.07821287,-0.72387546,0.006280028,-2.2500498,0.122904494,1.5210805,0.8086519,0.04,0.04,-9.7625065,1.1394450664520264,-0.06392231,0.09382399,-0.01700310781598091,0.13522433
1539.149999998929,-0.07977042,-0.72267175,0.0064040856,-2.2479384,0.1253447,1.5200891,0.80910206,0.04,0.04,-9.759422,1.16228187084198,-0.06573981,0.09432253,-0.01714450493454933,0.13640676
1539.1666666655956,-0.08134131,-0.72145784,0.006529207,-2.2458088,0.12780574,1.5190893,0.80955607,0.04,0.04,-9.756576,1.1853580474853516,-0.06750311,0.094802566,-0.01729331538081169,0.13757798
1539.1833333322622,-0.08292532,-0.72023374,0.0066553773,-2.2436614,0.13028744,1.5180813,0.8100137,0.04,0.04,-9.753696,1.2086107730865479,-0.06925107,0.09526413,-0.017444074153900146,0.13873416
1539.199999998929,-0.08452232,-0.71899945,0.006782586,-2.2414963,0.13278945,1.517065,0.8104752,0.04,0.04,-9.750423,1.232001781463623,-0.071151264,0.09570834,-0.01759551838040352,0.13987471
1539.2166666655955,-0.08613212,-0.7177552,0.006910819,-2.2393138,0.13531151,1.5160407,0.81094027,0.04,0.04,-9.747404,1.2556347846984863,-0.07297039,0.096133575,-0.017750553786754608,0.14100055
1539.2333333322622,-0.08775458,-0.7165012,0.007040064,-2.2371142,0.1378534,1.5150079,0.8114091,0.04,0.04,-9.743976,1.2793874740600586,-0.07492561,0.09654076,-0.017906129360198975,0.14211227
1539.2499999989288,-0.08938953,-0.7152376,0.0071703047,-2.2348974,0.14041483,1.5139673,0.8118814,0.04,0.04,-9.740771,1.3033690452575684,-0.07678525,0.09692848,-0.018066732212901115,0.14320886
1539.2666666655955,-0.091036804,-0.7139645,0.007301527,-2.232664,0.14299555,1.512919,0.8123574,0.04,0.04,-9.737157,1.327472448348999,-0.07878556,0.09729846,-0.01822650246322155,0.14429043
1539.2833333322621,-0.092696175,-0.71268207,0.007433722,-2.2304146,0.14559528,1.5118631,0.8128369,0.04,0.04,-9.733773,1.3517967462539673,-0.08071154,0.09764857,-0.018388712778687477,0.14535545
1539.2999999989288,-0.09436749,-0.7113904,0.0075668716,-2.2281485,0.14821368,1.5107995,0.81331986,0.04,0.04,-9.730076,1.3762351274490356,-0.08277736,0.09798007,-0.01855415478348732,0.14640515
1539.3166666655954,-0.09605062,-0.7100896,0.007700961,-2.2258663,0.15085052,1.5097284,0.81380624,0.04,0.04,-9.726397,1.4008684158325195,-0.0847551,0.098292604,-0.018718833103775978,0.14743808
1539.333333332262,-0.0977453,-0.7087797,0.007835976,-2.223569,0.15350552,1.50865,0.814296,0.04,0.04,-9.722498,1.4256274700164795,-0.0868632,0.09858601,-0.018885841593146324,0.1484551
1539.3499999989288,-0.09945138,-0.70746124,0.007971905,-2.221256,0.15617837,1.5075641,0.81478894,0.04,0.04,-9.718782,1.4505990743637085,-0.08892189,0.09885985,-0.019057273864746094,0.14945471
1539.3666666655954,-0.10116868,-0.7061339,0.008108731,-2.2189279,0.15886876,1.5064712,0.815285,0.04,0.04,-9.714646,1.4756450653076172,-0.09106736,0.09911524,-0.019229544326663017,0.15043737
1539.383333332262,-0.10289697,-0.70479804,0.008246439,-2.2165847,0.16157643,1.505371,0.81578434,0.04,0.04,-9.710703,1.5009275674819946,-0.09318584,0.09935174,-0.019403420388698578,0.15140375
1539.3999999989287,-0.10463614,-0.70345396,0.008385016,-2.214227,0.16430107,1.504264,0.8162869,0.04,0.04,-9.706391,1.5262571573257446,-0.095397286,0.099569276,-0.019579770043492317,0.15235111
1539.4166666655954,-0.10638591,-0.7021015,0.008524443,-2.2118547,0.16704236,1.5031507,0.81679267,0.04,0.04,-9.702161,1.551796793937683,-0.09759137,0.099766366,-0.019758092239499092,0.15328239
1539.433333332262,-0.10814613,-0.700741,0.008664705,-2.2094681,0.16979998,1.5020306,0.81730133,0.04,0.04,-9.697853,1.5774891376495361,-0.09979435,0.099944405,-0.019933953881263733,0.15419579
1539.4499999989287,-0.10991657,-0.6993727,0.008805786,-2.2070675,0.17257364,1.5009037,0.8178131,0.04,0.04,-9.69329,1.603227138519287,-0.10208462,0.10010351,-0.02011246792972088,0.1550881
1539.4666666655953,-0.11169706,-0.6979965,0.008947675,-2.2046537,0.175363,1.4997706,0.81832755,0.04,0.04,-9.688812,1.629207968711853,-0.104303084,0.10024309,-0.020291507244110107,0.15596446
1539.483333332262,-0.11348742,-0.6966127,0.009090348,-2.202227,0.17816773,1.4986316,0.8188449,0.04,0.04,-9.684137,1.6552393436431885,-0.1066686,0.10036409,-0.02047455683350563,0.1568227
1539.4999999989286,-0.115287386,-0.6952215,0.009233794,-2.199787,0.18098758,1.497486,0.8193651,0.04,0.04,-9.679501,1.681470274925232,-0.108963564,0.100465044,-0.020657874643802643,0.15766242
1539.5166666655953,-0.11709676,-0.6938228,0.009377996,-2.1973338,0.1838222,1.4963342,0.819888,0.04,0.04,-9.6745205,1.7076928615570068,-0.11135341,0.10054731,-0.02084280177950859,0.15847906
1539.533333332262,-0.11891535,-0.6924172,0.00952294,-2.1948688,0.18667126,1.495177,0.8204136,0.04,0.04,-9.669685,1.7341630458831787,-0.11370903,0.100610085,-0.021030116826295853,0.1592779
1539.5499999989286,-0.12074295,-0.69100446,0.009668601,-2.1923914,0.18953435,1.4940139,0.8209418,0.04,0.04,-9.664565,1.7606805562973022,-0.116154,0.10065384,-0.021216493099927902,0.16005968
1539.5666666655952,-0.12257934,-0.6895851,0.009814967,-2.189901,0.19241123,1.4928455,0.82147235,0.04,0.04,-9.659481,1.7873622179031372,-0.118551016,0.100678645,-0.021404094994068146,0.16082312
1539.5833333322619,-0.12442432,-0.68815905,0.009962024,-2.1873999,0.19530153,1.4916712,0.8220056,0.04,0.04,-9.654033,1.8140465021133423,-0.12102319,0.100686334,-0.021587185561656952,0.16156684
1539.5999999989285,-0.12627761,-0.68672645,0.010109754,-2.184887,0.19820495,1.490492,0.82254124,0.04,0.04,-9.648863,1.8409509658813477,-0.12346338,0.10067306,-0.021775491535663605,0.16228883
1539.6166666655952,-0.12813908,-0.68528754,0.010258136,-2.1823635,0.20112109,1.4893075,0.82307917,0.04,0.04,-9.643272,1.8678513765335083,-0.12599613,0.100642204,-0.021960685029625893,0.16299206
1539.6333333322618,-0.1300085,-0.6838425,0.010407153,-2.1798296,0.20404963,1.4881178,0.82361937,0.04,0.04,-9.637901,1.8949706554412842,-0.12849566,0.10059213,-0.022149985656142235,0.16367735
1539.6499999989285,-0.13188557,-0.68239146,0.010556789,-2.1772845,0.20699029,1.4869235,0.82416195,0.04,0.04,-9.632183,1.9220740795135498,-0.13106382,0.100523256,-0.022341249510645866,0.16434176
1539.6666666655951,-0.1337702,-0.6809347,0.01070703,-2.1747298,0.20994256,1.4857241,0.8247066,0.04,0.04,-9.626329,1.9492619037628174,-0.13362928,0.100436,-0.02252786234021187,0.16498466
1539.6833333322618,-0.13566206,-0.6794724,0.010857851,-2.1721647,0.21290626,1.4845202,0.82525325,0.04,0.04,-9.620653,1.976651906967163,-0.13618371,0.10033007,-0.022718723863363266,0.16560785
1539.6999999989284,-0.13756096,-0.6780044,0.01100924,-2.1695907,0.21588098,1.4833118,0.825802,0.04,0.04,-9.614519,2.0039658546447754,-0.13879433,0.10020723,-0.022906024008989334,0.16620983
1539.716666665595,-0.13946663,-0.6765314,0.011161175,-2.1670074,0.21886633,1.4820993,0.8263527,0.04,0.04,-9.608654,2.031512498855591,-0.14141811,0.100064754,-0.023097464814782143,0.16679217
1539.7333333322617,-0.14137886,-0.6750531,0.011313642,-2.164415,0.22186199,1.4808824,0.82690525,0.04,0.04,-9.602373,2.058988094329834,-0.14406256,0.099905156,-0.023285746574401855,0.16735442
1539.7499999989284,-0.14329748,-0.6735701,0.01146662,-2.1618142,0.22486758,1.4796616,0.82745963,0.04,0.04,-9.596151,2.08662748336792,-0.14670345,0.09972847,-0.023473350331187248,0.16789334
1539.766666665595,-0.1452222,-0.67208225,0.011620091,-2.1592054,0.22788274,1.4784368,0.8280158,0.04,0.04,-9.589808,2.1142842769622803,-0.14939749,0.09953302,-0.02366354689002037,0.16841361
1539.7833333322617,-0.14715284,-0.6705897,0.011774041,-2.156588,0.23090714,1.4772084,0.82857376,0.04,0.04,-9.583411,2.1420629024505615,-0.15207447,0.09931989,-0.023853521794080734,0.1689121
1539.7999999989283,-0.14908911,-0.6690928,0.011928446,-2.153963,0.23394035,1.4759763,0.8291334,0.04,0.04,-9.576715,2.1697726249694824,-0.1548219,0.099089734,-0.024040060117840767,0.16938806
1539.816666665595,-0.15103082,-0.66759163,0.012083289,-2.151331,0.23698208,1.4747407,0.82969457,0.04,0.04,-9.570134,2.1976819038391113,-0.15751907,0.098841816,-0.02422660030424595,0.16984397
1539.8333333322616,-0.15297772,-0.6660863,0.012238552,-2.148692,0.24003194,1.4735018,0.8302571,0.04,0.04,-9.5633335,2.2255239486694336,-0.16027774,0.098576784,-0.024414002895355225,0.17027795
1539.8499999989283,-0.15492961,-0.6645774,0.012394214,-2.1460462,0.24308951,1.4722596,0.83082104,0.04,0.04,-9.556571,2.2535202503204346,-0.16302991,0.09829505,-0.024602267891168594,0.17069063
1539.866666665595,-0.15688616,-0.66306496,0.012550263,-2.1433935,0.24615449,1.4710145,0.8313864,0.04,0.04,-9.549522,2.2814455032348633,-0.16579801,0.097996935,-0.024788731709122658,0.17108165
1539.8833333322616,-0.1588472,-0.661549,0.012706672,-2.1407347,0.24922645,1.4697663,0.8319532,0.04,0.04,-9.542446,2.309476137161255,-0.16854753,0.09768296,-0.024971408769488335,0.17144984
1539.8999999989283,-0.16081248,-0.6600298,0.0128634265,-2.13807,0.25230503,1.4685158,0.8325211,0.04,0.04,-9.535213,2.337477684020996,-0.17134759,0.09735194,-0.02515341155230999,0.1717972
1539.916666665595,-0.16278176,-0.6585074,0.013020506,-2.1354008,0.25538996,1.4672626,0.83309007,0.04,0.04,-9.527952,2.3655588626861572,-0.17414856,0.09700586,-0.02533223293721676,0.17212261
1539.9333333322616,-0.1647548,-0.65698206,0.0131778885,-2.132726,0.25848076,1.4660068,0.8336603,0.04,0.04,-9.520734,2.393731117248535,-0.17697234,0.09664283,-0.025513755157589912,0.17242561
1539.9499999989282,-0.16673136,-0.65545404,0.01333556,-2.130046,0.26157707,1.4647491,0.83423144,0.04,0.04,-9.51318,2.421783685684204,-0.17979275,0.096264176,-0.025693362578749657,0.17270675
1539.9666666655949,-0.1687112,-0.6539236,0.013493502,-2.1273623,0.26467842,1.463489,0.8348036,0.04,0.04,-9.505639,2.449972152709961,-0.18261667,0.09587093,-0.025868868455290794,0.17296489
1539.9833333322615,-0.1706941,-0.6523907,0.013651692,-2.1246736,0.26778457,1.4622273,0.8353765,0.04,0.04,-9.498008,2.4780895709991455,-0.18546273,0.09546149,-0.026045748963952065,0.17320226
1539.9999999989282,-0.17267977,-0.65085566,0.013810115,-2.121982,0.270895,1.4609636,0.83595026,0.04,0.04,-9.490219,2.5062808990478516,-0.18830206,0.09503804,-0.026216862723231316,0.17341602
1540.0166666655948,-0.17466803,-0.6493186,0.013968745,-2.1192863,0.2740095,1.4596984,0.8365247,0.04,0.04,-9.482456,2.53442120552063,-0.19116825,0.09459899,-0.02639125846326351,0.17360899
1540.0333333322615,-0.17665856,-0.6477796,0.0141275665,-2.1165879,0.27712753,1.4584315,0.8370999,0.04,0.04,-9.474484,2.562631368637085,-0.19403028,0.09414587,-0.026560286059975624,0.17377903
1540.0499999989281,-0.17865115,-0.6462391,0.014286562,-2.1138866,0.28024888,1.4571636,0.83767575,0.04,0.04,-9.46648,2.5907485485076904,-0.1969023,0.09367798,-0.02673075906932354,0.17392674
1540.0666666655948,-0.18064557,-0.64469707,0.014445707,-2.1111825,0.28337303,1.4558944,0.8382521,0.04,0.04,-9.458362,2.6189677715301514,-0.19977513,0.09319583,-0.026896623894572258,0.17405191
1540.0833333322614,-0.18264157,-0.6431539,0.014604986,-2.1084766,0.28649962,1.454624,0.8388289,0.04,0.04,-9.450127,2.6470556259155273,-0.20265353,0.09270002,-0.02706136554479599,0.17415437
1540.099999998928,-0.18463892,-0.6416096,0.014764376,-2.1057694,0.2896283,1.453353,0.8394061,0.04,0.04,-9.441895,2.675269603729248,-0.20553426,0.09219019,-0.027225380763411522,0.17423545
1540.1166666655947,-0.18663733,-0.6400646,0.014923862,-2.1030602,0.29275867,1.4520813,0.8399834,0.04,0.04,-9.433527,2.7033441066741943,-0.2084225,0.09166665,-0.02738858200609684,0.1742939
1540.1333333322614,-0.1886366,-0.638519,0.015083425,-2.1003501,0.29589045,1.4508094,0.8405612,0.04,0.04,-9.425,2.731473684310913,-0.21130922,0.09113188,-0.027546051889657974,0.17432907
1540.149999998928,-0.19063644,-0.6369727,0.015243041,-2.097639,0.29902306,1.4495367,0.84113914,0.04,0.04,-9.416444,2.7595036029815674,-0.21418317,0.090582594,-0.027701184153556824,0.1743422
1540.1666666655947,-0.19263667,-0.6354264,0.015402692,-2.094927,0.3021562,1.448264,0.8417173,0.04,0.04,-9.4078245,2.78755259513855,-0.21708599,0.09002081,-0.02785647101700306,0.17433254
1540.1833333322613,-0.19463699,-0.6338799,0.015562364,-2.092215,0.3052895,1.4469912,0.84229547,0.04,0.04,-9.39903,2.8156120777130127,-0.21994902,0.0894471,-0.028005290776491165,0.17430112
1540.199999998928,-0.19663717,-0.63233334,0.015722029,-2.089504,0.3084226,1.4457185,0.8428736,0.04,0.04,-9.390207,2.8435235023498535,-0.22282948,0.088861234,-0.028151337057352066,0.1742466
1540.2166666655946,-0.19863698,-0.6307873,0.015881667,-2.0867932,0.31155506,1.4444458,0.84345144,0.04,0.04,-9.381444,2.8715627193450928,-0.22575678,0.088262625,-0.028299584984779358,0.17417048
1540.2333333322613,-0.20063613,-0.62924165,0.016041268,-2.0840833,0.31468648,1.4431738,0.8440291,0.04,0.04,-9.372425,2.8993821144104004,-0.22859009,0.0876533,-0.028444355353713036,0.17407134
1540.249999998928,-0.20263442,-0.62769675,0.016200809,-2.0813746,0.3178165,1.4419022,0.84460646,0.04,0.04,-9.363374,2.9272799491882324,-0.23148939,0.08703305,-0.02858542650938034,0.1739506
1540.2666666655946,-0.20463157,-0.6261525,0.016360259,-2.0786674,0.32094485,1.4406313,0.84518355,0.04,0.04,-9.354255,2.9550232887268066,-0.23433945,0.086402364,-0.028724873438477516,0.17380701
1540.2833333322612,-0.20662738,-0.62460935,0.016519612,-2.0759618,0.32407096,1.4393613,0.8457602,0.04,0.04,-9.345049,2.9828238487243652,-0.23725535,0.08576025,-0.028860943391919136,0.17364207
1540.299999998928,-0.20862153,-0.6230675,0.016678846,-2.0732584,0.3271945,1.4380924,0.8463365,0.04,0.04,-9.335719,3.0104308128356934,-0.2400842,0.08510869,-0.02899189479649067,0.17345448
1540.3166666655945,-0.21061382,-0.62152696,0.016837938,-2.0705574,0.33031514,1.4368244,0.8469122,0.04,0.04,-9.326408,3.038109540939331,-0.24295132,0.084446386,-0.029122119769454002,0.17324413
1540.3333333322612,-0.21260403,-0.6199882,0.016996866,-2.0678596,0.33343256,1.435558,0.8474873,0.04,0.04,-9.316957,3.065601110458374,-0.24578369,0.08377489,-0.029248107224702835,0.17301321
1540.3499999989278,-0.21459189,-0.6184512,0.017155621,-2.0651648,0.3365462,1.4342932,0.84806174,0.04,0.04,-9.307478,3.093139886856079,-0.24862714,0.08309375,-0.029371513053774834,0.1727575
1540.3666666655945,-0.21657713,-0.6169161,0.017314177,-2.0624738,0.33965588,1.4330298,0.8486354,0.04,0.04,-9.297948,3.120515823364258,-0.25145316,0.08240246,-0.029491780325770378,0.17248239
1540.3833333322611,-0.21855956,-0.6153834,0.017472517,-2.0597863,0.34276104,1.4317682,0.84920824,0.04,0.04,-9.288318,3.1478981971740723,-0.254287,0.08170318,-0.029610130935907364,0.17218354
1540.3999999989278,-0.22053893,-0.61385286,0.017630616,-2.0571034,0.34586132,1.4305086,0.84978014,0.04,0.04,-9.278582,3.1750876903533936,-0.25705937,0.080995426,-0.029722457751631737,0.17186464
1540.4166666655944,-0.22251499,-0.6123249,0.017788464,-2.0544248,0.34895644,1.4292512,0.85035115,0.04,0.04,-9.268905,3.2022743225097656,-0.25988254,0.08027876,-0.029834505170583725,0.17152208
1540.433333332261,-0.22448747,-0.61079973,0.017946035,-2.0517511,0.35204595,1.4279962,0.85092103,0.04,0.04,-9.259051,3.2294204235076904,-0.26269314,0.07955404,-0.029942333698272705,0.17116033
1540.4499999989278,-0.2264561,-0.6092774,0.018103313,-2.0490825,0.3551295,1.4267433,0.8514899,0.04,0.04,-9.249193,3.2563467025756836,-0.2654334,0.07882222,-0.03004590794444084,0.17077498
1540.4666666655944,-0.22842073,-0.60775816,0.018260274,-2.0464191,0.35820672,1.425493,0.8520576,0.04,0.04,-9.239257,3.2833025455474854,-0.26823226,0.07808221,-0.030147610232234,0.17036809
1540.483333332261,-0.23038112,-0.60624224,0.018416906,-2.043762,0.36127725,1.4242455,0.85262406,0.04,0.04,-9.229276,3.310068130493164,-0.27094656,0.07733577,-0.030245019122958183,0.1699427
1540.4999999989277,-0.23233697,-0.60472983,0.018573184,-2.041111,0.36434063,1.4230009,0.8531891,0.04,0.04,-9.219234,3.3368122577667236,-0.273724,0.07658163,-0.03033970482647419,0.16949227
1540.5166666655944,-0.23428807,-0.6032212,0.018729089,-2.0384662,0.36739665,1.4217592,0.85375303,0.04,0.04,-9.209199,3.3633933067321777,-0.2764037,0.075821236,-0.030431170016527176,0.16902387
1540.533333332261,-0.23623422,-0.60171634,0.018884601,-2.0358279,0.37044486,1.4205209,0.85431546,0.04,0.04,-9.198987,3.389935255050659,-0.2791291,0.07505409,-0.03051815554499626,0.1685362
1540.5499999989277,-0.2381751,-0.60021555,0.019039713,-2.0331967,0.37348482,1.4192859,0.8548762,0.04,0.04,-9.188799,3.416229724884033,-0.28178066,0.07428146,-0.030599277466535568,0.16802298
1540.5666666655943,-0.2401105,-0.5987189,0.019194389,-2.0305727,0.37651622,1.4180543,0.85543525,0.04,0.04,-9.178527,3.442558526992798,-0.28448468,0.073504046,-0.030676519498229027,0.16748984
1540.583333332261,-0.24204026,-0.5972268,0.019348623,-2.0279562,0.37953869,1.4168264,0.8559929,0.04,0.04,-9.168295,3.4686689376831055,-0.28708923,0.07272224,-0.030750636011362076,0.16693668
1540.5999999989276,-0.24396408,-0.595739,0.019502392,-2.0253487,0.3825518,1.4156024,0.8565488,0.04,0.04,-9.157889,3.4947266578674316,-0.2897329,0.071934536,-0.030819375067949295,0.16636108
1540.6166666655943,-0.24588174,-0.5942561,0.019655684,-2.0227494,0.3855554,1.4143823,0.85710293,0.04,0.04,-9.147701,3.5206644535064697,-0.29235426,0.071140476,-0.030887119472026825,0.16576804
1540.633333332261,-0.24779297,-0.59277815,0.01980847,-2.020159,0.38854885,1.413166,0.85765535,0.04,0.04,-9.137257,3.5465004444122314,-0.2949828,0.070341736,-0.030951781198382378,0.1651532
1540.6499999989276,-0.2496976,-0.59130543,0.019960735,-2.0175772,0.3915321,1.4119539,0.8582058,0.04,0.04,-9.126906,3.572101354598999,-0.29749748,0.06953848,-0.031014684587717056,0.16451538
1540.6666666655942,-0.2515953,-0.58983785,0.020112472,-2.0150049,0.3945046,1.4107462,0.85875416,0.04,0.04,-9.116382,3.597639799118042,-0.30003604,0.06873215,-0.031070273369550705,0.16386117
1540.6833333322609,-0.25348595,-0.58837575,0.020263646,-2.012442,0.39746583,1.4095433,0.8593004,0.04,0.04,-9.1059,3.6230783462524414,-0.30263653,0.067922555,-0.031125061213970184,0.16318446
1540.6999999989275,-0.2553694,-0.5869193,0.020414248,-2.0098894,0.40041557,1.408345,0.85984457,0.04,0.04,-9.095424,3.648322820663452,-0.30509937,0.06710961,-0.031174054369330406,0.1624907
1540.7166666655942,-0.25724524,-0.58546853,0.020564258,-2.0073466,0.40335366,1.4071512,0.8603866,0.04,0.04,-9.084836,3.6735081672668457,-0.3076345,0.066292785,-0.031219473108649254,0.16177723
1540.7333333322608,-0.2591133,-0.5840237,0.020713659,-2.0048146,0.40627956,1.4059626,0.86092633,0.04,0.04,-9.074329,3.69842529296875,-0.3100596,0.06547357,-0.03126171976327896,0.16104296
1540.7499999989275,-0.26097345,-0.5825851,0.020862434,-2.002293,0.40919298,1.404779,0.8614639,0.04,0.04,-9.0637045,3.7233223915100098,-0.31255382,0.06465165,-0.03130057826638222,0.16028982
1540.7666666655941,-0.2628254,-0.58115286,0.021010563,-1.9997826,0.41209352,1.4036005,0.861999,0.04,0.04,-9.053143,3.747962713241577,-0.31491584,0.063827306,-0.03133422136306763,0.15951768
1540.7833333322608,-0.26466894,-0.57972705,0.021158034,-1.9972836,0.4149809,1.4024274,0.86253166,0.04,0.04,-9.04243,3.772542953491211,-0.3173446,0.063002,-0.03136344999074936,0.15872756
1540.7999999989274,-0.26650396,-0.57830787,0.021304823,-1.9947962,0.41785482,1.4012598,0.8630619,0.04,0.04,-9.031893,3.7969024181365967,-0.3196702,0.06217439,-0.031389426440000534,0.15791842
1540.816666665594,-0.26833013,-0.5768954,0.021450914,-1.9923209,0.42071483,1.4000978,0.8635895,0.04,0.04,-9.021166,3.8211843967437744,-0.32207558,0.06134461,-0.031411197036504745,0.15709035
1540.8333333322607,-0.27014732,-0.5754901,0.021596292,-1.9898579,0.42356068,1.3989415,0.8641145,0.04,0.04,-9.010632,3.8452510833740234,-0.3243509,0.060513303,-0.031430382281541824,0.15624529
1540.8499999989274,-0.2719552,-0.574092,0.02174094,-1.9874074,0.42639214,1.3977911,0.8646369,0.04,0.04,-8.999866,3.8691959381103516,-0.32667932,0.059681475,-0.03144475817680359,0.15538129
1540.866666665594,-0.2737536,-0.572701,0.02188484,-1.9849697,0.42920873,1.3966467,0.86515653,0.04,0.04,-8.989294,3.892918348312378,-0.32888067,0.05884886,-0.0314556285738945,0.15449908
1540.8833333322607,-0.27554235,-0.5713175,0.022027979,-1.9825455,0.43201014,1.3955083,0.8656735,0.04,0.04,-8.978542,3.9165637493133545,-0.33121106,0.058015615,-0.0314629003405571,0.15360029
1540.8999999989273,-0.2773212,-0.5699417,0.022170339,-1.9801342,0.43479612,1.3943765,0.86618745,0.04,0.04,-8.968009,3.939972400665283,-0.3333651,0.057181228,-0.03146817162632942,0.15268405
1540.916666665594,-0.27908996,-0.56857353,0.022311902,-1.9777366,0.43756622,1.393251,0.86669856,0.04,0.04,-8.957298,3.9632105827331543,-0.33553883,0.056348227,-0.03146686032414436,0.15174961
1540.9333333322606,-0.2808484,-0.5672135,0.022452649,-1.9753531,0.44032022,1.3921319,0.86720663,0.04,0.04,-8.946557,3.9863626956939697,-0.3377724,0.055514805,-0.03146226331591606,0.15080164
1540.9499999989273,-0.2825965,-0.56586146,0.022592574,-1.9729837,0.44305784,1.3910197,0.8677118,0.04,0.04,-8.936017,4.0092315673828125,-0.33982533,0.054682393,-0.03145437315106392,0.14983404
1540.966666665594,-0.28433394,-0.5645178,0.022731654,-1.9706287,0.4457787,1.3899142,0.86821383,0.04,0.04,-8.925268,4.032010555267334,-0.34200776,0.053850062,-0.03144124522805214,0.14885037
1540.9833333322606,-0.28606045,-0.5631824,0.022869874,-1.9682887,0.44848254,1.3888155,0.8687126,0.04,0.04,-8.914734,4.054564476013184,-0.34400076,0.053018693,-0.031424928456544876,0.14785218
1540.9999999989273,-0.28777584,-0.56185573,0.02300722,-1.9659636,0.45116904,1.387724,0.8692082,0.04,0.04,-8.904049,4.0769944190979,-0.3461283,0.05218875,-0.03140554949641228,0.14683844
1541.016666665594,-0.28948003,-0.5605378,0.023143673,-1.9636538,0.45383796,1.3866397,0.8697006,0.04,0.04,-8.893537,4.099165439605713,-0.3480619,0.05136076,-0.03138115629553795,0.14580871
1541.0333333322606,-0.29117274,-0.5592285,0.023279212,-1.9613595,0.45648885,1.3855629,0.87018967,0.04,0.04,-8.882859,4.121207237243652,-0.35009181,0.05053424,-0.03135304898023605,0.14476132
1541.0499999989272,-0.2928539,-0.55792814,0.023413837,-1.959081,0.45912164,1.3844932,0.87067527,0.04,0.04,-8.872441,4.143032550811768,-0.35204905,0.04970893,-0.031321488320827484,0.14369822
1541.0666666655939,-0.29452315,-0.556637,0.023547528,-1.9568182,0.46173587,1.383431,0.8711576,0.04,0.04,-8.861814,4.164724826812744,-0.35402355,0.048885822,-0.03128764033317566,0.14262027
1541.0833333322605,-0.29618046,-0.5553551,0.023680264,-1.9545721,0.4643312,1.3823766,0.87163657,0.04,0.04,-8.851363,4.186128616333008,-0.35583562,0.04806573,-0.03124774619936943,0.14152773
1541.0999999989272,-0.29782563,-0.5540826,0.023812044,-1.9523423,0.46690753,1.3813298,0.87211186,0.04,0.04,-8.840849,4.207474708557129,-0.3578056,0.047246035,-0.03120618686079979,0.14042069
1541.1166666655938,-0.29945838,-0.55281967,0.023942843,-1.9501295,0.4694645,1.3802909,0.87258357,0.04,0.04,-8.830504,4.228540420532227,-0.35956672,0.04643009,-0.031160755082964897,0.13930091
1541.1333333322605,-0.30107865,-0.5515665,0.024072645,-1.9479331,0.47200194,1.3792601,0.8730517,0.04,0.04,-8.820005,4.249459743499756,-0.36145216,0.04561669,-0.03111211583018303,0.13816653
1541.1499999989271,-0.30268627,-0.55032307,0.024201442,-1.9457542,0.4745195,1.3782372,0.87351614,0.04,0.04,-8.809692,4.270100116729736,-0.36315385,0.044807523,-0.03105698525905609,0.13701673
1541.1666666655938,-0.304281,-0.54908955,0.02432922,-1.9435928,0.4770168,1.3772225,0.8739769,0.04,0.04,-8.799394,4.290623664855957,-0.3649149,0.044000633,-0.03099971078336239,0.13585372
1541.1833333322604,-0.30586272,-0.54786617,0.024455966,-1.9414486,0.47949374,1.3762162,0.8744339,0.04,0.04,-8.789,4.310952663421631,-0.3667122,0.04319721,-0.030939972028136253,0.13467753
1541.199999998927,-0.3074312,-0.54665285,0.024581663,-1.9393226,0.48194996,1.3752185,0.874887,0.04,0.04,-8.778826,4.331027507781982,-0.36832333,0.042397782,-0.030874628573656082,0.1334889
1541.2166666655937,-0.30898625,-0.54545003,0.024706306,-1.9372151,0.48438534,1.3742288,0.87533635,0.04,0.04,-8.768553,4.350971221923828,-0.37008536,0.04160161,-0.030806440860033035,0.13228703
1541.2333333322604,-0.3105279,-0.5442575,0.024829878,-1.9351258,0.48679957,1.3732482,0.8757818,0.04,0.04,-8.758565,4.370667457580566,-0.37161893,0.040808834,-0.030738260596990585,0.13107324
1541.249999998927,-0.3120559,-0.54307574,0.024952361,-1.9330548,0.4891924,1.3722762,0.87622327,0.04,0.04,-8.748316,4.390185832977295,-0.37331542,0.040019795,-0.030664268881082535,0.12984653
1541.2666666655937,-0.31357008,-0.54190445,0.025073748,-1.9310025,0.49156353,1.3713126,0.8766609,0.04,0.04,-8.738371,4.409472465515137,-0.37480688,0.039235335,-0.030585821717977524,0.12860817
1541.2833333322603,-0.31507024,-0.54074395,0.025194028,-1.9289691,0.49391282,1.370358,0.8770943,0.04,0.04,-8.728258,4.428577423095703,-0.3764252,0.038454648,-0.030506229028105736,0.12735926
1541.299999998927,-0.31655625,-0.53959435,0.025313191,-1.9269555,0.4962399,1.3694125,0.8775238,0.04,0.04,-8.718473,4.447461128234863,-0.37788045,0.03767921,-0.030423937365412712,0.12609906
1541.3166666655936,-0.3180279,-0.5384558,0.025431218,-1.9249609,0.49854478,1.3684763,0.87794906,0.04,0.04,-8.708516,4.466182708740234,-0.37946796,0.03690662,-0.030339231714606285,0.124828
1541.3333333322603,-0.31948537,-0.53732836,0.025548106,-1.9229856,0.50082725,1.367549,0.87837005,0.04,0.04,-8.698807,4.484613418579102,-0.3808384,0.036140416,-0.030250266194343567,0.123545215
1541.349999998927,-0.3209282,-0.53621227,0.025663834,-1.92103,0.5030866,1.366631,0.878787,0.04,0.04,-8.688889,4.502896785736084,-0.38233504,0.03537939,-0.030157966539263725,0.12225255
1541.3666666655936,-0.3223565,-0.5351073,0.025778404,-1.9190943,0.5053229,1.3657223,0.8791997,0.04,0.04,-8.679365,4.520967960357666,-0.383658,0.034622632,-0.03006235510110855,0.12095291
1541.3833333322602,-0.32377005,-0.53401387,0.025891794,-1.9171788,0.50753635,1.364823,0.87960804,0.04,0.04,-8.6696005,4.538810729980469,-0.3851231,0.033869956,-0.029964102432131767,0.11964211
1541.399999998927,-0.32516867,-0.5329318,0.026003998,-1.9152831,0.50972646,1.3639331,0.88001204,0.04,0.04,-8.6601925,4.5564351081848145,-0.38637388,0.033123307,-0.029863139614462852,0.11832115
1541.4166666655935,-0.32655218,-0.53186136,0.026115004,-1.9134078,0.511893,1.363053,0.8804118,0.04,0.04,-8.650713,4.573856353759766,-0.3877032,0.03238261,-0.029759082943201065,0.11699236
1541.4333333322602,-0.32792053,-0.5308027,0.026224814,-1.9115536,0.5140357,1.3621823,0.8808072,0.04,0.04,-8.641169,4.591065406799316,-0.38907164,0.031646624,-0.029651766642928123,0.115655035
1541.4499999989268,-0.3292736,-0.5297559,0.026333394,-1.9097198,0.51615447,1.3613211,0.88119817,0.04,0.04,-8.632044,4.608078479766846,-0.39025563,0.030915126,-0.029544498771429062,0.11430843
1541.4666666655935,-0.3306113,-0.52872086,0.026440756,-1.9079071,0.5182493,1.3604702,0.8815848,0.04,0.04,-8.622616,4.624833106994629,-0.3915429,0.030190289,-0.029434284195303917,0.11295364
1541.4833333322601,-0.3319335,-0.52769786,0.026546888,-1.9061152,0.5203198,1.3596287,0.88196665,0.039999995,0.04,-8.613618,4.64139986038208,-0.39269757,0.029469728,-0.029320264235138893,0.11158895
1541.4999999989268,-0.3332402,-0.52668697,0.026651777,-1.9043446,0.522366,1.3587971,0.8823441,0.039999995,0.04,-8.604369,4.657739639282227,-0.39393923,0.028756915,-0.029204795137047768,0.11021681
1541.5166666655934,-0.3345311,-0.5256883,0.026755415,-1.9025948,0.52438754,1.3579758,0.8827173,0.039999995,0.04,-8.595513,4.673887729644775,-0.3949905,0.028049268,-0.02908691205084324,0.10883849
1541.53333333226,-0.33580622,-0.5247019,0.026857799,-1.9008667,0.5263843,1.3571644,0.88308567,0.03999999,0.04,-8.586403,4.689756870269775,-0.39618856,0.027347598,-0.028963541612029076,0.10745193
1541.5499999989268,-0.3370654,-0.5237276,0.026958909,-1.8991604,0.52835613,1.356363,0.88344944,0.03999999,0.04,-8.577759,4.70548677444458,-0.39719665,0.026652329,-0.028840146958827972,0.10605997
1541.5666666655934,-0.33830863,-0.5227659,0.027058745,-1.8974752,0.53030306,1.355572,0.8838086,0.039999984,0.04,-8.568879,4.720974445343018,-0.39835766,0.025962757,-0.028714660555124283,0.104662284
1541.58333333226,-0.33953583,-0.5218163,0.0271573,-1.8958122,0.53222454,1.3547913,0.88416314,0.039999988,0.04,-8.56033,4.736199855804443,-0.39929208,0.02528035,-0.028584841638803482,0.103257224
1541.5999999989267,-0.34074682,-0.5208795,0.02725457,-1.8941712,0.5341209,1.3540211,0.88451296,0.039999988,0.04,-8.5516615,4.751284122467041,-0.40042248,0.024602678,-0.028454121202230453,0.10184765
1541.6166666655934,-0.34194162,-0.519955,0.027350545,-1.8925523,0.53599185,1.3532608,0.8848582,0.039999984,0.04,-8.543348,4.766110897064209,-0.40131155,0.023931922,-0.02832023985683918,0.10043317
1541.63333333226,-0.34312007,-0.51904327,0.027445221,-1.8909553,0.53783715,1.3525109,0.88519865,0.039999977,0.04,-8.534846,4.780721187591553,-0.40237626,0.023266679,-0.02818688564002514,0.09901317
1541.6499999989267,-0.34428212,-0.51814395,0.02753859,-1.8893803,0.5396567,1.3517718,0.88553447,0.039999973,0.04,-8.526703,4.795103073120117,-0.40320006,0.022608286,-0.02804975025355816,0.09758871
1541.6666666655933,-0.34542775,-0.5172576,0.027630642,-1.8878279,0.5414504,1.3510426,0.8858654,0.03999997,0.04,-8.518531,4.809279918670654,-0.40414828,0.021956213,-0.027910133823752403,0.096161105
1541.68333333226,-0.34655693,-0.51638395,0.027721385,-1.8862978,0.5432184,1.3503245,0.88619155,0.03999996,0.04,-8.510298,4.823225021362305,-0.40508172,0.021310749,-0.02777041867375374,0.094729975
1541.6999999989266,-0.34766942,-0.51552284,0.027810803,-1.8847904,0.54496044,1.3496166,0.8865129,0.039999954,0.04,-8.502495,4.8369903564453125,-0.4058897,0.020671299,-0.027626926079392433,0.0932953
1541.7166666655933,-0.34876543,-0.5146747,0.027898889,-1.8833052,0.5466765,1.3489196,0.8868296,0.039999958,0.04,-8.494505,4.850490570068359,-0.40683112,0.02003853,-0.027484755963087082,0.0918567
1541.73333333226,-0.3498446,-0.5138398,0.027985645,-1.8818424,0.5483664,1.3482327,0.8871414,0.039999954,0.04,-8.4868355,4.863779067993164,-0.4075504,0.019411825,-0.027337493374943733,0.09041569
1541.7499999989266,-0.3509071,-0.51301765,0.028071078,-1.8804017,0.5500302,1.3475566,0.8874484,0.039999943,0.04,-8.479,4.876819133758545,-0.40836418,0.018793594,-0.027189748361706734,0.08897233
1541.7666666655932,-0.3519528,-0.51220816,0.028155169,-1.8789843,0.5516676,1.3468912,0.8877505,0.03999995,0.04,-8.471554,4.8896484375,-0.40905383,0.018183334,-0.027037663385272026,0.08752531
1541.7833333322599,-0.3529817,-0.51141185,0.028237913,-1.87759,0.55327857,1.3462363,0.88804775,0.039999947,0.04,-8.464039,4.902352809906006,-0.40992895,0.017577175,-0.026888005435466766,0.08607962
1541.7999999989265,-0.35399377,-0.51062876,0.028319314,-1.8762188,0.55486333,1.3455923,0.8883402,0.03999994,0.04,-8.456863,4.9147796630859375,-0.4105506,0.016977947,-0.026736998930573463,0.08463181
1541.8166666655932,-0.35498896,-0.5098586,0.028399372,-1.8748704,0.5564217,1.3449591,0.8886277,0.039999943,0.04,-8.449506,4.926987648010254,-0.41132045,0.016384609,-0.026585478335618973,0.08318152
1541.8333333322598,-0.3559673,-0.50910145,0.028478086,-1.8735443,0.5579536,1.3443369,0.88891035,0.03999994,0.04,-8.44256,4.93900203704834,-0.41195032,0.015797803,-0.02643216960132122,0.0817315
1541.8499999989265,-0.35692877,-0.5083574,0.028555436,-1.8722413,0.55945885,1.3437251,0.8891882,0.039999936,0.04,-8.435316,4.950718879699707,-0.41266108,0.01521929,-0.026274682953953743,0.08028123
1541.8666666655931,-0.3578733,-0.5076265,0.02863144,-1.8709611,0.56093776,1.3431242,0.889461,0.039999925,0.04,-8.428606,4.962300777435303,-0.41321263,0.014646561,-0.02611740492284298,0.07883172
1541.8833333322598,-0.35880086,-0.5069085,0.028706087,-1.8697039,0.56239,1.3425341,0.889729,0.03999992,0.04,-8.421672,4.973622798919678,-0.41390648,0.014081279,-0.025958914309740067,0.07738249
1541.8999999989264,-0.35971144,-0.50620365,0.028779378,-1.8684698,0.5638159,1.3419547,0.8899921,0.039999917,0.04,-8.415188,4.9847731590271,-0.41444045,0.013521723,-0.025799477472901344,0.07593355
1541.916666665593,-0.3606051,-0.5055119,0.02885132,-1.8672589,0.56521505,1.3413863,0.8902503,0.039999917,0.04,-8.408657,4.9956841468811035,-0.41499698,0.0129696885,-0.025640254840254784,0.07448625
1541.9333333322597,-0.36148182,-0.50483316,0.028921904,-1.866071,0.5665877,1.3408283,0.89050347,0.039999906,0.04,-8.402074,5.006388187408447,-0.4156507,0.012423103,-0.02547961287200451,0.07304131
1541.9499999989264,-0.3623416,-0.5041678,0.028991137,-1.864906,0.56793386,1.3402811,0.8907519,0.039999902,0.04,-8.395961,5.016907691955566,-0.4161079,0.011883795,-0.02532082609832287,0.07159934
1541.966666665593,-0.3631845,-0.5035154,0.029059013,-1.8637636,0.5692537,1.3397448,0.89099544,0.0399999,0.04,-8.389565,5.027140140533447,-0.4166692,0.011351276,-0.02515971101820469,0.070159666
1541.9833333322597,-0.36401048,-0.50287604,0.029125536,-1.8626441,0.570547,1.3392192,0.8912341,0.039999895,0.04,-8.3836355,5.0372161865234375,-0.41709915,0.010825767,-0.024996699765324593,0.06872345
1541.9999999989263,-0.3648196,-0.50224984,0.029190712,-1.8615476,0.5718139,1.3387042,0.8914678,0.0399999,0.04,-8.377514,5.047024726867676,-0.41765225,0.01030736,-0.024833453819155693,0.06728731
1542.016666665593,-0.36561182,-0.5016366,0.029254537,-1.8604741,0.5730543,1.3382,0.89169675,0.0399999,0.04,-8.371865,5.056707859039307,-0.41802758,0.009795416,-0.024670951068401337,0.0658563
1542.0333333322596,-0.36638722,-0.5010365,0.02931702,-1.8594235,0.57426864,1.3377069,0.89192086,0.039999895,0.04,-8.365996,5.066134929656982,-0.41855377,0.009289279,-0.024508044123649597,0.064430125
1542.0499999989263,-0.3671458,-0.50044924,0.029378157,-1.8583955,0.5754565,1.3372245,0.89214003,0.039999887,0.04,-8.360565,5.0753631591796875,-0.41889808,0.008790395,-0.024343496188521385,0.06300611
1542.066666665593,-0.3678877,-0.49987483,0.029437955,-1.8573899,0.57661813,1.3367525,0.8923545,0.03999989,0.04,-8.35493,5.084370136260986,-0.4193977,0.008298012,-0.024178681895136833,0.061587952
1542.0833333322596,-0.36861286,-0.4993134,0.029496416,-1.8564073,0.57775384,1.3362914,0.89256394,0.03999989,0.04,-8.349732,5.0932087898254395,-0.41970697,0.007812181,-0.024014176800847054,0.06017657
1542.0999999989263,-0.36932147,-0.49876487,0.029553551,-1.8554469,0.5788633,1.3358406,0.89276874,0.039999887,0.04,-8.344356,5.10179328918457,-0.42015693,0.0073333555,-0.023848986253142357,0.058769003
1542.116666665593,-0.37001336,-0.49822918,0.029609358,-1.8545089,0.57994694,1.3354001,0.89296865,0.03999989,0.04,-8.339387,5.110217571258545,-0.420419,0.00686102,-0.023684227839112282,0.057368647
1542.1333333322596,-0.3706888,-0.49770615,0.02966384,-1.8535932,0.58100456,1.3349701,0.89316374,0.039999887,0.04,-8.33423,5.118372917175293,-0.4208168,0.006396908,-0.023520195856690407,0.055974633
1542.1499999989262,-0.3713478,-0.49719578,0.029717002,-1.8526998,0.58203644,1.3345507,0.89335424,0.03999988,0.04,-8.329541,5.126417636871338,-0.4210806,0.005938744,-0.023356329649686813,0.05458805
1542.1666666655929,-0.37199044,-0.4966981,0.029768853,-1.8518287,0.5830426,1.334142,0.8935399,0.039999876,0.04,-8.324785,5.13422966003418,-0.42139897,0.0054867025,-0.02319171093404293,0.05321015
1542.1833333322595,-0.37261683,-0.49621308,0.029819397,-1.8509797,0.5840233,1.3337437,0.8937209,0.039999876,0.04,-8.320038,5.141810417175293,-0.42177367,0.005040797,-0.023028166964650154,0.051837817
1542.1999999989262,-0.37322697,-0.4957406,0.029868647,-1.8501525,0.58497876,1.3333554,0.8938971,0.039999876,0.04,-8.315671,5.149249076843262,-0.42196998,0.0046015033,-0.022863032296299934,0.050475635
1542.2166666655928,-0.37382105,-0.49528053,0.029916605,-1.8493474,0.5859089,1.3329773,0.8940688,0.03999988,0.04,-8.311146,5.1564202308654785,-0.4222878,0.004170103,-0.022699857130646706,0.049120437
1542.2333333322595,-0.37439913,-0.49483284,0.02996328,-1.8485641,0.58681405,1.3326094,0.8942356,0.039999884,0.04,-8.307073,5.16349458694458,-0.42248145,0.003743753,-0.022538553923368454,0.04777673
1542.2499999989261,-0.3749613,-0.49439743,0.030008674,-1.8478024,0.5876943,1.332252,0.89439803,0.03999988,0.04,-8.302806,5.170308589935303,-0.42279732,0.0033242984,-0.02237839065492153,0.0464408
1542.2666666655928,-0.37550762,-0.49397427,0.030052803,-1.8470619,0.58854985,1.3319042,0.89455587,0.039999872,0.04,-8.298939,5.176964282989502,-0.4229622,0.0029107027,-0.022217215970158577,0.045113936
1542.2833333322594,-0.37603822,-0.49356323,0.030095678,-1.8463426,0.5893808,1.3315663,0.8947092,0.039999876,0.04,-8.294879,5.1833672523498535,-0.42321393,0.0025043269,-0.02205810137093067,0.043797866
1542.299999998926,-0.37655327,-0.49316424,0.030137293,-1.8456442,0.5901873,1.3312387,0.89485806,0.039999876,0.04,-8.291263,5.189659595489502,-0.4233364,0.002104761,-0.021899638697504997,0.042494107
1542.3166666655927,-0.3770529,-0.4927772,0.030177677,-1.844967,0.59097004,1.3309207,0.8950024,0.03999988,0.04,-8.287455,5.19571590423584,-0.4235995,0.0017114113,-0.021740812808275223,0.041201733
1542.3333333322594,-0.37753722,-0.49240202,0.030216834,-1.8443105,0.59172875,1.3306123,0.8951424,0.039999876,0.04,-8.2840805,5.20162296295166,-0.42369533,0.0013250473,-0.021584099158644676,0.039919328
1542.349999998926,-0.37800634,-0.49203858,0.03025477,-1.8436744,0.5924635,1.3303142,0.895278,0.039999872,0.04,-8.280533,5.207317352294922,-0.4239109,0.00094483636,-0.021429847925901413,0.038648468
1542.3666666655927,-0.3784605,-0.4916866,0.030291505,-1.843059,0.5931747,1.3300251,0.8954091,0.03999988,0.04,-8.2773485,5.212865352630615,-0.42400283,0.00057147845,-0.02127271145582199,0.037392017
1542.3833333322593,-0.37889978,-0.49134612,0.03032705,-1.8424636,0.59386265,1.3297457,0.89553607,0.03999988,0.04,-8.274075,5.218240261077881,-0.424206,0.00020374896,-0.021121228113770485,0.03614955
1542.399999998926,-0.3793243,-0.49101704,0.030361405,-1.8418882,0.5945275,1.3294753,0.8956588,0.03999988,0.04,-8.271156,5.22343635559082,-0.42428142,-0.00015784486,-0.020969610661268234,0.034919962
1542.4166666655926,-0.37973428,-0.49069923,0.030394599,-1.8413326,0.5951696,1.3292145,0.89577734,0.039999872,0.04,-8.26822,5.228449821472168,-0.42437953,-0.0005130285,-0.02082107774913311,0.03370637
1542.4333333322593,-0.38012984,-0.49039266,0.030426629,-1.8407964,0.59578913,1.3289624,0.8958916,0.03999987,0.04,-8.265233,5.233251571655273,-0.42454273,-0.00086181966,-0.020672500133514404,0.032504857
1542.449999998926,-0.38051113,-0.49009705,0.030457523,-1.8402796,0.59638643,1.3287199,0.8960018,0.039999872,0.04,-8.262664,5.237939357757568,-0.42454737,-0.0012031425,-0.020526545122265816,0.031319723
1542.4666666655926,-0.38087848,-0.48981223,0.030487284,-1.8397818,0.5969618,1.328486,0.8961081,0.039999872,0.04,-8.259927,5.2424116134643555,-0.42469645,-0.0015379969,-0.020381726324558258,0.030150058
1542.4833333322592,-0.381232,-0.48953825,0.030515935,-1.8393027,0.5975155,1.3282608,0.89621025,0.03999987,0.04,-8.257582,5.246786594390869,-0.42471653,-0.0018676238,-0.020239291712641716,0.028996272
1542.499999998926,-0.38157183,-0.48927483,0.030543493,-1.8388422,0.5980479,1.3280447,0.8963086,0.039999872,0.04,-8.255049,5.250931739807129,-0.42480314,-0.0021896635,-0.02009885013103485,0.027859269
1542.5166666655925,-0.38189813,-0.48902184,0.030569965,-1.8383995,0.5985592,1.3278368,0.8964029,0.039999865,0.04,-8.252925,5.254980087280273,-0.42481366,-0.0025060463,-0.01995924301445484,0.02673943
1542.5333333322592,-0.38221124,-0.48877904,0.030595373,-1.8379748,0.5990498,1.3276371,0.8964934,0.03999987,0.04,-8.250597,5.25877571105957,-0.4248732,-0.0028136428,-0.01982158049941063,0.025637006
1542.5499999989258,-0.3825113,-0.48854622,0.030619733,-1.8375679,0.59951997,1.3274459,0.8965801,0.039999872,0.04,-8.248667,5.262497901916504,-0.42484188,-0.0031144728,-0.019686350598931313,0.024552232
1542.5666666655925,-0.38279858,-0.4883234,0.030643057,-1.8371783,0.59997,1.3272632,0.8966631,0.03999988,0.04,-8.24662,5.266067981719971,-0.42493683,-0.0034098404,-0.01955408789217472,0.023487171
1542.5833333322591,-0.3830733,-0.48811018,0.030665375,-1.8368058,0.60040027,1.3270885,0.8967425,0.039999872,0.04,-8.244874,5.269489765167236,-0.42488426,-0.0036982943,-0.019421609118580818,0.02244157
1542.5999999989258,-0.38333565,-0.48790658,0.030686699,-1.8364499,0.60081136,1.3269216,0.8968184,0.039999876,0.04,-8.243015,5.272721767425537,-0.42494616,-0.003980312,-0.01929224655032158,0.021414598
1542.6166666655924,-0.38358584,-0.48771238,0.030707046,-1.8361107,0.60120344,1.3267622,0.8968908,0.039999876,0.04,-8.241479,5.275855541229248,-0.4248662,-0.004255417,-0.01916462555527687,0.020408165
1542.633333332259,-0.38382417,-0.48752743,0.030726437,-1.8357874,0.6015769,1.3266103,0.8969598,0.03999988,0.04,-8.239859,5.278825283050537,-0.42489293,-0.0045243246,-0.019042182713747025,0.019422535
1542.6499999989258,-0.38405085,-0.48735142,0.030744897,-1.8354799,0.60193235,1.326466,0.8970253,0.039999876,0.04,-8.238504,5.281670093536377,-0.42479533,-0.004785725,-0.018921295180916786,0.018458556
1542.6666666655924,-0.38426617,-0.48718423,0.030762445,-1.8351876,0.60226995,1.3263289,0.8970875,0.03999988,0.04,-8.237154,5.284368991851807,-0.42476478,-0.005039457,-0.018802277743816376,0.017515415
1542.683333332259,-0.38447046,-0.4870256,0.030779095,-1.8349104,0.6025901,1.3261989,0.89714664,0.039999884,0.04,-8.235758,5.2869133949279785,-0.4247515,-0.005285811,-0.01868549734354019,0.01659481
1542.6999999989257,-0.38466385,-0.48687539,0.030794872,-1.8346479,0.60289323,1.3260759,0.8972027,0.039999884,0.04,-8.23473,5.289411544799805,-0.42465955,-0.005526488,-0.01857151836156845,0.015697947
1542.7166666655924,-0.38484675,-0.4867333,0.0308098,-1.8343998,0.60318,1.3259591,0.89725566,0.039999884,0.04,-8.233535,5.291689395904541,-0.42461884,-0.005759761,-0.018459731712937355,0.014824481
1542.733333332259,-0.3850194,-0.48659912,0.030823905,-1.8341656,0.6034507,1.3258488,0.89730555,0.03999988,0.04,-8.232699,5.293931484222412,-0.4245024,-0.0059864633,-0.018355075269937515,0.013973919
1542.7499999989257,-0.38518196,-0.4864726,0.03083721,-1.8339447,0.6037059,1.3257451,0.89735264,0.039999884,0.04,-8.231674,5.295986652374268,-0.42446217,-0.0062048696,-0.018252024427056313,0.013148484
1542.7666666655923,-0.385335,-0.4863536,0.030849738,-1.8337368,0.6039459,1.3256477,0.8973969,0.03999988,0.04,-8.230967,5.297974109649658,-0.4243394,-0.006415858,-0.018151281401515007,0.012349346
1542.783333332259,-0.38547868,-0.48624185,0.030861508,-1.8335416,0.6041713,1.3255559,0.8974385,0.039999876,0.04,-8.2301235,5.2998046875,-0.4242712,-0.006619554,-0.018053021281957626,0.011574115
1542.7999999989256,-0.3856132,-0.486137,0.03087255,-1.8333591,0.60438246,1.3254703,0.8974775,0.039999884,0.04,-8.229568,5.301580905914307,-0.42411515,-0.006815853,-0.017959114164114,0.010826064
1542.8166666655923,-0.38573906,-0.48603892,0.030882888,-1.8331883,0.6045801,1.3253897,0.897514,0.03999988,0.04,-8.228942,5.303230285644531,-0.4240699,-0.0070054727,-0.017868272960186005,0.010104529
1542.833333332259,-0.38585657,-0.48594734,0.03089255,-1.8330289,0.6047646,1.3253148,0.8975481,0.039999887,0.04,-8.228545,5.304802417755127,-0.42390245,-0.0071871798,-0.01778356172144413,0.009410671
1542.8499999989256,-0.385966,-0.48586208,0.030901564,-1.8328801,0.6049363,1.3252449,0.8975796,0.03999989,0.04,-8.228024,5.306243419647217,-0.42380905,-0.0073615885,-0.017701245844364166,0.008744763
1542.8666666655922,-0.3860677,-0.48578277,0.030909956,-1.8327415,0.6050962,1.3251797,0.897609,0.039999887,0.04,-8.227727,5.307605266571045,-0.4236232,-0.007526333,-0.017621144652366638,0.008109126
1542.8833333322589,-0.3861621,-0.4857091,0.03091775,-1.8326132,0.6052447,1.3251191,0.8976363,0.039999887,0.04,-8.227347,5.308836936950684,-0.42349288,-0.007682061,-0.01754503697156906,0.0075017605
1542.8999999989255,-0.38624948,-0.4856408,0.030924981,-1.8324941,0.60538214,1.3250635,0.8976616,0.039999887,0.04,-8.227229,5.310078144073486,-0.4233312,-0.007831527,-0.01747443526983261,0.006923357
1542.9166666655922,-0.38633022,-0.4855777,0.030931683,-1.8323845,0.6055092,1.3250118,0.89768505,0.039999887,0.04,-8.22704,5.311167240142822,-0.42318472,-0.007972207,-0.01740441843867302,0.006374889
1542.9333333322588,-0.38640475,-0.48551935,0.030937875,-1.8322829,0.60562646,1.324964,0.89770657,0.03999989,0.04,-8.226937,5.312229633331299,-0.42304617,-0.00810566,-0.01734139956533909,0.0058582355
1542.9499999989255,-0.38647336,-0.48546562,0.030943593,-1.8321892,0.6057346,1.3249199,0.8977263,0.039999887,0.04,-8.22691,5.3131937980651855,-0.4228422,-0.00822962,-0.01728144660592079,0.005374376
1542.9666666655921,-0.38653648,-0.48541605,0.030948868,-1.832103,0.6058342,1.324879,0.8977446,0.039999887,0.04,-8.226872,5.3140716552734375,-0.42267567,-0.0083441185,-0.017225908115506172,0.004921153
1542.9833333322588,-0.38659462,-0.4853705,0.030953731,-1.8320241,0.60592574,1.324842,0.89776206,0.03999989,0.04,-8.227008,5.314935207366943,-0.42247587,-0.008450951,-0.017175961285829544,0.004501573
1542.9999999989254,-0.38664806,-0.48532853,0.030958217,-1.8319509,0.60601014,1.3248079,0.8977777,0.039999895,0.04,-8.227081,5.31574010848999,-0.4223407,-0.008553285,-0.017128724604845047,0.0041151075
1543.016666665592,-0.38669714,-0.4852899,0.030962352,-1.8318839,0.6060876,1.3247765,0.8977917,0.03999989,0.04,-8.227175,5.316431999206543,-0.4221279,-0.008643477,-0.01708337664604187,0.0037596014
1543.0333333322587,-0.3867423,-0.48525432,0.030966165,-1.8318219,0.6061591,1.3247472,0.89780533,0.039999887,0.04,-8.227275,5.317113399505615,-0.42199033,-0.008725524,-0.01704327017068863,0.0034324916
1543.0499999989254,-0.3867838,-0.48522156,0.030969676,-1.8317653,0.60622483,1.3247207,0.8978172,0.03999989,0.04,-8.227375,5.317698955535889,-0.42181048,-0.008803401,-0.01700732670724392,0.0031305691
1543.066666665592,-0.38682196,-0.48519146,0.030972917,-1.8317132,0.6062853,1.3246953,0.8978288,0.03999989,0.04,-8.227453,5.318299770355225,-0.4217153,-0.008872819,-0.01697366125881672,0.0028537784
1543.0833333322587,-0.38685703,-0.48516372,0.030975904,-1.8316653,0.6063408,1.3246732,0.8978388,0.03999989,0.04,-8.227583,5.318819046020508,-0.42155048,-0.008939681,-0.016947589814662933,0.002599215
1543.0999999989253,-0.38688928,-0.4851382,0.03097866,-1.8316212,0.6063919,1.3246517,0.8978485,0.039999895,0.04,-8.227593,5.319293022155762,-0.4214874,-0.008997862,-0.016918273642659187,0.002364735
1543.116666665592,-0.386919,-0.48511472,0.0309812,-1.8315806,0.606439,1.3246331,0.8978567,0.03999989,0.04,-8.22771,5.319737911224365,-0.42134583,-0.009053816,-0.016896216198801994,0.0021495435
1543.1333333322586,-0.3869463,-0.4850931,0.030983537,-1.8315433,0.60648227,1.3246152,0.8978647,0.039999895,0.04,-8.227708,5.320135593414307,-0.42128593,-0.009102127,-0.016870683059096336,0.001950136
1543.1499999989253,-0.38697138,-0.48507318,0.030985696,-1.8315089,0.60652184,1.3245993,0.8978725,0.03999989,0.04,-8.227806,5.32051944732666,-0.42117125,-0.009148424,-0.016850996762514114,0.001768305
1543.166666665592,-0.38699445,-0.48505476,0.030987684,-1.8314768,0.60655874,1.3245851,0.8978788,0.03999989,0.04,-8.227831,5.32085657119751,-0.4211006,-0.00919297,-0.016830064356327057,0.0016014865
1543.1833333322586,-0.38701567,-0.48503783,0.03098952,-1.8314477,0.6065923,1.324571,0.8978849,0.039999895,0.04,-8.227811,5.321134567260742,-0.42103675,-0.009228683,-0.01680780202150345,0.0014455755
1543.1999999989253,-0.38703516,-0.48502228,0.030991208,-1.8314208,0.60662365,1.3245574,0.8978908,0.03999989,0.04,-8.22794,5.321474552154541,-0.4209444,-0.009264133,-0.01679323986172676,0.0013049272
1543.216666665592,-0.38705307,-0.48500803,0.030992763,-1.8313959,0.6066519,1.3245465,0.8978965,0.03999989,0.04,-8.227956,5.321701526641846,-0.42085937,-0.00929705,-0.016782477498054504,0.0011725706
1543.2333333322586,-0.38706952,-0.4849949,0.030994197,-1.831373,0.60667783,1.3245362,0.89790094,0.039999895,0.04,-8.227953,5.321957111358643,-0.4208262,-0.009328726,-0.016764547675848007,0.0010533113
1543.2499999989252,-0.38708472,-0.48498273,0.03099552,-1.831352,0.60670185,1.3245261,0.8979051,0.03999989,0.04,-8.2279825,5.322185516357422,-0.42077053,-0.009354058,-0.016749095171689987,0.00094390434
1543.2666666655919,-0.38709864,-0.48497155,0.03099674,-1.8313328,0.60672396,1.3245163,0.8979092,0.03999989,0.04,-8.22805,5.322407245635986,-0.4207097,-0.009378291,-0.016738567501306534,0.0008428543
1543.2833333322585,-0.38711146,-0.48496127,0.030997861,-1.8313149,0.60674417,1.3245088,0.8979132,0.03999989,0.04,-8.228094,5.3225998878479,-0.42066157,-0.0094018355,-0.01673147827386856,0.00075007224
1543.2999999989252,-0.38712323,-0.4849518,0.030998899,-1.8312988,0.6067629,1.3245018,0.8979171,0.039999895,0.04,-8.228066,5.322761058807373,-0.4206434,-0.009424063,-0.016717156395316124,0.0006645952
1543.3166666655918,-0.38713402,-0.4849432,0.030999856,-1.8312838,0.6067807,1.3244953,0.89792067,0.03999989,0.04,-8.228122,5.322951793670654,-0.42061582,-0.009446172,-0.016706112772226334,0.0005867141
1543.3333333322585,-0.387144,-0.4849352,0.031000739,-1.8312697,0.60679674,1.3244889,0.8979231,0.039999895,0.04,-8.228119,5.323038578033447,-0.42054534,-0.0094648255,-0.01669502817094326,0.00050998916
1543.349999998925,-0.38715318,-0.48492774,0.031001553,-1.8312573,0.60681117,1.3244827,0.8979254,0.03999989,0.04,-8.228125,5.323208808898926,-0.42050394,-0.009478385,-0.01668621227145195,0.0004437219
1543.3666666655918,-0.38716155,-0.48492107,0.031002305,-1.8312457,0.60682505,1.3244766,0.89792764,0.039999895,0.04,-8.228219,5.323372840881348,-0.42049342,-0.009492862,-0.016681751236319542,0.00038174592
1543.3833333322584,-0.38716924,-0.48491487,0.031002998,-1.8312349,0.60683733,1.3244706,0.89792985,0.03999989,0.04,-8.228191,5.323446750640869,-0.42042488,-0.009504841,-0.016677934676408768,0.00032479633
1543.399999998925,-0.38717636,-0.48490918,0.031003635,-1.8312248,0.60684896,1.324466,0.897932,0.039999895,0.04,-7.8529797,5.092543125152588,-0.08498365,0.0,-0.0,0.0
1543.4166666655917,-0.38717636,-0.48490918,0.031003635,-1.8312248,0.60684896,1.324466,0.897932,0.039999895,0.04,-8.2290535,5.323750019073486,-0.42008805,0.0,-0.0,0.0
1543.4333333322584,-0.38717636,-0.48490918,0.031003635,-1.8312248,0.60684896,1.324466,0.897932,0.039999895,0.04,-8.2290535,5.323750019073486,-0.42008805,0.0,-0.0,0.0
1543.449999998925,-0.38717636,-0.48490918,0.031003635,-1.8312248,0.60684896,1.324466,0.897932,0.039999895,0.04,-8.2290535,5.323750019073486,-0.42008805,0.0,-0.0,0.0
1543.4666666655917,-0.38717636,-0.48490918,0.031003635,-1.8312248,0.60684896,1.324466,0.897932,0.039999895,0.04,-8.2290535,5.323750019073486,-0.42008805,0.0,-0.0,0.0
1543.4833333322583,-0.38717636,-0.48490918,0.031003635,-1.8312248,0.60684896,1.324466,0.897932,0.039999895,0.04,-8.2290535,5.323750019073486,-0.42008805,0.0,-0.0,0.0
1543.499999998925,-0.38717636,-0.48490918,0.031003635,-1.8312248,0.60684896,1.324466,0.897932,0.039999895,0.04,-8.2290535,5.323750019073486,-0.42008805,0.0,-0.0,0.0
1543.5166666655916,-0.38717636,-0.48490918,0.031003635,-1.8312248,0.60684896,1.324466,0.897932,0.039999895,0.04,-8.2290535,5.323750019073486,-0.42008805,0.0,-0.0,0.0
1543.5333333322583,-0.38717636,-0.48490918,0.031003635,-1.8312248,0.60684896,1.324466,0.897932,0.039999895,0.04,-8.2290535,5.323750019073486,-0.42008805,0.0,-0.0,0.0
1543.549999998925,-0.38717636,-0.48490918,0.031003635,-1.8312248,0.60684896,1.324466,0.897932,0.039999895,0.04,-8.2290535,5.323750019073486,-0.42008805,0.0,-0.0,0.0
1543.5666666655916,-0.38717636,-0.48490918,0.031003635,-1.8312248,0.60684896,1.324466,0.897932,0.039999895,0.04,-8.2290535,5.323750019073486,-0.42008805,0.0,-0.0,0.0
1543.5833333322582,-0.38717636,-0.48490918,0.031003635,-1.8312248,0.60684896,1.324466,0.897932,0.039999895,0.04,-8.2290535,5.323750019073486,-0.42008805,0.0,-0.0,0.0
1543.5999999989249,-0.38717636,-0.48490918,0.031003635,-1.8312248,0.60684896,1.324466,0.897932,0.039999895,0.04,-8.2290535,5.323750019073486,-0.42008805,0.0,-0.0,0.0
1543.6166666655915,-0.38717636,-0.48490918,0.031003635,-1.8312248,0.60684896,1.324466,0.897932,0.039999895,0.04,-8.2290535,5.323750019073486,-0.42008805,0.0,-0.0,0.0
1543.6333333322582,-0.38717636,-0.48490918,0.031003635,-1.8312248,0.60684896,1.324466,0.897932,0.039999895,0.04,-8.2290535,5.323750019073486,-0.42008805,0.0,-0.0,0.0
1543.6499999989248,-0.38717636,-0.48490918,0.031003635,-1.8312248,0.60684896,1.324466,0.897932,0.039999895,0.04,-8.2290535,5.323750019073486,-0.42008805,0.0,-0.0,0.0
1543.6666666655915,-0.38717636,-0.48490918,0.031003635,-1.8312248,0.60684896,1.324466,0.897932,0.039999895,0.04,-8.2290535,5.323750019073486,-0.42008805,0.0,-0.0,0.0
1543.6833333322581,-0.38717636,-0.48490918,0.031003635,-1.8312248,0.60684896,1.324466,0.897932,0.039999895,0.04,-8.2290535,5.323750019073486,-0.42008805,0.0,-0.0,0.0
1543.6999999989248,-0.38717636,-0.48490918,0.031003635,-1.8312248,0.60684896,1.324466,0.897932,0.039999895,0.04,-8.2290535,5.323750019073486,-0.42008805,0.0,-0.0,0.0
1543.7166666655914,-0.38717636,-0.48490918,0.031003635,-1.8312248,0.60684896,1.324466,0.897932,0.039999895,0.04,-8.2290535,5.323750019073486,-0.42008805,0.0,-0.0,0.0
1543.733333332258,-0.38717636,-0.48490918,0.031003635,-1.8312248,0.60684896,1.324466,0.897932,0.039999895,0.04,-8.2290535,5.323750019073486,-0.42008805,0.0,-0.0,0.0
1543.7499999989247,-0.38717636,-0.48490918,0.031003635,-1.8312248,0.60684896,1.324466,0.897932,0.039999895,0.04,-8.2290535,5.323750019073486,-0.42008805,0.0,-0.0,0.0
1543.7666666655914,-0.38717636,-0.48490918,0.031003635,-1.8312248,0.60684896,1.324466,0.897932,0.039999895,0.04,-8.2290535,5.323750019073486,-0.42008805,0.0,-0.0,0.0
1543.783333332258,-0.38717636,-0.48490918,0.031003635,-1.8312248,0.60684896,1.324466,0.897932,0.039999895,0.04,-8.2290535,5.323750019073486,-0.42008805,0.0,-0.0,0.0
1543.7999999989247,-0.38717636,-0.48490918,0.031003635,-1.8312248,0.60684896,1.324466,0.897932,0.039999895,0.04,-8.2290535,5.323750019073486,-0.42008805,0.0,-0.0,0.0
1543.8166666655914,-0.38717636,-0.48490918,0.031003635,-1.8312248,0.60684896,1.324466,0.897932,0.039999895,0.04,-8.2290535,5.323750019073486,-0.42008805,0.0,-0.0,0.0
1543.833333332258,-0.38717636,-0.48490918,0.031003635,-1.8312248,0.60684896,1.324466,0.897932,0.039999895,0.04,-8.2290535,5.323750019073486,-0.42008805,0.0,-0.0,0.0
1543.8499999989247,-0.38717636,-0.48490918,0.031003635,-1.8312248,0.60684896,1.324466,0.897932,0.039999895,0.04,-8.2290535,5.323750019073486,-0.42008805,0.0,-0.0,0.0
1543.8666666655913,-0.38717636,-0.48490918,0.031003635,-1.8312248,0.60684896,1.324466,0.897932,0.039999895,0.04,-8.2290535,5.323750019073486,-0.42008805,0.0,-0.0,0.0
1543.883333332258,-0.38717636,-0.48490918,0.031003635,-1.8312248,0.60684896,1.324466,0.897932,0.039999895,0.04,-8.2290535,5.323750019073486,-0.42008805,0.0,-0.0,0.0
1543.8999999989246,-0.38717636,-0.48490918,0.031003635,-1.8312248,0.60684896,1.324466,0.897932,0.039999895,0.04,-8.2290535,5.323750019073486,-0.42008805,0.0,-0.0,0.0
1543.9166666655913,-0.38717636,-0.48490918,0.031003635,-1.8312248,0.60684896,1.324466,0.897932,0.039999895,0.04,-8.2290535,5.323750019073486,-0.42008805,0.0,-0.0,0.0
1543.933333332258,-0.38717636,-0.48490918,0.031003635,-1.8312248,0.60684896,1.324466,0.897932,0.039999895,0.04,-8.2290535,5.323750019073486,-0.42008805,0.0,-0.0,0.0
1543.9499999989246,-0.38717636,-0.48490918,0.031003635,-1.8312248,0.60684896,1.324466,0.897932,0.039999895,0.04,-8.2290535,5.323750019073486,-0.42008805,0.0,-0.0,0.0
1543.9666666655912,-0.38717636,-0.48490918,0.031003635,-1.8312248,0.60684896,1.324466,0.897932,0.039999895,0.04,-8.2290535,5.323750019073486,-0.42008805,0.0,-0.0,0.0
1543.9833333322579,-0.38717636,-0.48490918,0.031003635,-1.8312248,0.60684896,1.324466,0.897932,0.039999895,0.04,-8.2290535,5.323750019073486,-0.42008805,0.0,-0.0,0.0
1543.9999999989245,-0.38717636,-0.48490918,0.031003635,-1.8312248,0.60684896,1.324466,0.897932,0.039999895,0.04,-8.2290535,5.323750019073486,-0.42008805,0.0,-0.0,0.0
1544.0166666655912,-0.38717636,-0.48490918,0.031003635,-1.8312248,0.60684896,1.324466,0.897932,0.039999895,0.04,-8.2290535,5.323750019073486,-0.42008805,0.0,-0.0,0.0
1544.0333333322578,-0.38717636,-0.48490918,0.031003635,-1.8312248,0.60684896,1.324466,0.897932,0.039999895,0.04,-8.2290535,5.323750019073486,-0.42008805,0.0,-0.0,0.0
1544.0499999989245,-0.38717636,-0.48490918,0.031003635,-1.8312248,0.60684896,1.324466,0.897932,0.039999895,0.04,-8.2290535,5.323750019073486,-0.42008805,0.0,-0.0,0.0
1544.0666666655911,-0.38717636,-0.48490918,0.031003635,-1.8312248,0.60684896,1.324466,0.897932,0.039999895,0.04,-8.2290535,5.323750019073486,-0.42008805,0.0,-0.0,0.0
1544.0833333322578,-0.38717636,-0.48490918,0.031003635,-1.8312248,0.60684896,1.324466,0.897932,0.039999895,0.04,-8.2290535,5.323750019073486,-0.42008805,0.0,-0.0,0.0
1544.0999999989244,-0.38717636,-0.48490918,0.031003635,-1.8312248,0.60684896,1.324466,0.897932,0.039999895,0.04,-8.2290535,5.323750019073486,-0.42008805,0.0,-0.0,0.0
1544.116666665591,-0.38717636,-0.48490918,0.031003635,-1.8312248,0.60684896,1.324466,0.897932,0.039999895,0.04,-8.2290535,5.323750019073486,-0.42008805,0.0,-0.0,0.0
1544.1333333322577,-0.38717636,-0.48490918,0.031003635,-1.8312248,0.60684896,1.324466,0.897932,0.039999895,0.04,-8.2290535,5.323750019073486,-0.42008805,0.0,-0.0,0.0
1544.1499999989244,-0.38717636,-0.48490918,0.031003635,-1.8312248,0.60684896,1.324466,0.897932,0.039999895,0.04,-8.2290535,5.323750019073486,-0.42008805,0.0,-0.0,0.0
1544.166666665591,-0.38717636,-0.48490918,0.031003635,-1.8312248,0.60684896,1.324466,0.897932,0.039999895,0.04,-8.2290535,5.323750019073486,-0.42008805,0.0,-0.0,0.0
1544.1833333322577,-0.38717636,-0.48490918,0.031003635,-1.8312248,0.60684896,1.324466,0.897932,0.039999895,0.04,-8.2290535,5.323750019073486,-0.42008805,0.0,-0.0,0.0
1544.1999999989243,-0.38717636,-0.48490918,0.031003635,-1.8312248,0.60684896,1.324466,0.897932,0.039999895,0.04,-8.2290535,5.323750019073486,-0.42008805,0.0,-0.0,0.0
1544.216666665591,-0.38717636,-0.48490918,0.031003635,-1.8312248,0.60684896,1.324466,0.897932,0.039999895,0.04,-8.2290535,5.323750019073486,-0.42008805,0.0,-0.0,0.0
1544.2333333322576,-0.38717636,-0.48490918,0.031003635,-1.8312248,0.60684896,1.324466,0.897932,0.039999895,0.04,-8.2290535,5.323750019073486,-0.42008805,0.0,-0.0,0.0
1544.2499999989243,-0.38717636,-0.48490918,0.031003635,-1.8312248,0.60684896,1.324466,0.897932,0.039999895,0.04,-8.2290535,5.323750019073486,-0.42008805,0.0,-0.0,0.0
1544.266666665591,-0.38717636,-0.48490918,0.031003635,-1.8312248,0.60684896,1.324466,0.897932,0.039999895,0.04,-8.2290535,5.323750019073486,-0.42008805,0.0,-0.0,0.0
1544.2833333322576,-0.38717636,-0.48490918,0.031003635,-1.8312248,0.60684896,1.324466,0.897932,0.039999895,0.04,-8.2290535,5.323750019073486,-0.42008805,0.0,-0.0,0.0
1544.2999999989242,-0.38717636,-0.48490918,0.031003635,-1.8312248,0.60684896,1.324466,0.897932,0.039999895,0.04,-8.2290535,5.323750019073486,-0.42008805,0.0,-0.0,0.0
1544.316666665591,-0.38717636,-0.48490918,0.031003635,-1.8312248,0.60684896,1.324466,0.897932,0.039999895,0.04,-8.2290535,5.323750019073486,-0.42008805,0.0,-0.0,0.0
1544.3333333322576,-0.38717636,-0.48490918,0.031003635,-1.8312248,0.60684896,1.324466,0.897932,0.039999895,0.04,-8.2290535,5.323750019073486,-0.42008805,0.0,-0.0,0.0
1544.3499999989242,-0.38717636,-0.48490918,0.031003635,-1.8312248,0.60684896,1.324466,0.897932,0.039999895,0.04,-8.2290535,5.323750019073486,-0.42008805,0.0,-0.0,0.0
1544.3666666655909,-0.38717636,-0.48490918,0.031003635,-1.8312248,0.60684896,1.324466,0.897932,0.039999895,0.04,-8.2290535,5.323750019073486,-0.42008805,0.0,-0.0,0.0
1544.3833333322575,-0.38717636,-0.48490918,0.031003635,-1.8312248,0.60684896,1.324466,0.897932,0.039999895,0.04,-8.2290535,5.323750019073486,-0.42008805,0.0,-0.0,0.0
1544.3999999989242,-0.38717636,-0.48490918,0.031003635,-1.8312248,0.60684896,1.324466,0.897932,0.039999895,0.04,-8.2290535,5.323750019073486,-0.42008805,0.0,-0.0,0.0
1544.4166666655908,-0.38717636,-0.48490918,0.031003635,-1.8312248,0.60684896,1.324466,0.897932,0.039999895,0.04,-8.2290535,5.323750019073486,-0.42008805,0.0,-0.0,0.0
1544.4333333322575,-0.38717636,-0.48490918,0.031003635,-1.8312248,0.60684896,1.324466,0.897932,0.039999895,0.04,-8.2290535,5.323750019073486,-0.42008805,0.0,-0.0,0.0
1544.449999998924,-0.38717636,-0.48490918,0.031003635,-1.8312248,0.60684896,1.324466,0.897932,0.039999895,0.04,-8.2290535,5.323750019073486,-0.42008805,0.0,-0.0,0.0
1544.4666666655908,-0.38717636,-0.48490918,0.031003635,-1.8312248,0.60684896,1.324466,0.897932,0.039999895,0.04,-8.2290535,5.323750019073486,-0.42008805,0.0,-0.0,0.0
1544.4833333322574,-0.38717636,-0.48490918,0.031003635,-1.8312248,0.60684896,1.324466,0.897932,0.039999895,0.04,-8.2290535,5.323750019073486,-0.42008805,0.0,-0.0,0.0
1544.499999998924,-0.38717636,-0.48490918,0.031003635,-1.8312248,0.60684896,1.324466,0.897932,0.039999895,0.04,-8.2290535,5.323750019073486,-0.42008805,0.0,-0.0,0.0
1544.5166666655907,-0.38717636,-0.48490918,0.031003635,-1.8312248,0.60684896,1.324466,0.897932,0.039999895,0.04,-8.2290535,5.323750019073486,-0.42008805,0.0,-0.0,0.0
1544.5333333322574,-0.38717636,-0.48490918,0.031003635,-1.8312248,0.60684896,1.324466,0.897932,0.039999895,0.04,-8.2290535,5.323750019073486,-0.42008805,0.0,-0.0,0.0
1544.549999998924,-0.38717636,-0.48490918,0.031003635,-1.8312248,0.60684896,1.324466,0.897932,0.039999895,0.04,-8.2290535,5.323750019073486,-0.42008805,0.0,-0.0,0.0
1544.5666666655907,-0.38717636,-0.48490918,0.031003635,-1.8312248,0.60684896,1.324466,0.897932,0.039999895,0.04,-8.2290535,5.323750019073486,-0.42008805,0.0,-0.0,0.0
1544.5833333322573,-0.38717636,-0.48490918,0.031003635,-1.8312248,0.60684896,1.324466,0.897932,0.039999895,0.04,-8.2290535,5.323750019073486,-0.42008805,0.0,-0.0,0.0
1544.599999998924,-0.38717636,-0.48490918,0.031003635,-1.8312248,0.60684896,1.324466,0.897932,0.039999895,0.04,-8.2290535,5.323750019073486,-0.42008805,0.0,-0.0,0.0
1544.6166666655906,-0.38717636,-0.48490918,0.031003635,-1.8312248,0.60684896,1.324466,0.897932,0.039999895,0.04,-8.2290535,5.323750019073486,-0.42008805,0.0,-0.0,0.0
1544.6333333322573,-0.38717636,-0.48490918,0.031003635,-1.8312248,0.60684896,1.324466,0.897932,0.039999895,0.04,-8.2290535,5.323750019073486,-0.42008805,0.0,-0.0,0.0
1544.649999998924,-0.38717636,-0.48490918,0.031003635,-1.8312248,0.60684896,1.324466,0.897932,0.039999895,0.04,-8.2290535,5.323750019073486,-0.42008805,0.0,-0.0,0.0
1544.6666666655906,-0.38717636,-0.48490918,0.031003635,-1.8312248,0.60684896,1.324466,0.897932,0.039999895,0.04,-8.2290535,5.323750019073486,-0.42008805,0.0,-0.0,0.0
1544.6833333322572,-0.38717636,-0.48490918,0.031003635,-1.8312248,0.60684896,1.324466,0.897932,0.039999895,0.04,-8.2290535,5.323750019073486,-0.42008805,0.0,-0.0,0.0
1544.6999999989239,-0.38717636,-0.48490918,0.031003635,-1.8312248,0.60684896,1.324466,0.897932,0.039999895,0.04,-8.2290535,5.323750019073486,-0.42008805,0.0,-0.0,0.0
1544.7166666655905,-0.38717636,-0.48490918,0.031003635,-1.8312248,0.60684896,1.324466,0.897932,0.039999895,0.04,-8.2290535,5.323750019073486,-0.42008805,0.0,-0.0,0.0
1544.7333333322572,-0.38717636,-0.48490918,0.031003635,-1.8312248,0.60684896,1.324466,0.897932,0.039999895,0.04,-8.2290535,5.323750019073486,-0.42008805,0.0,-0.0,0.0
1544.7499999989238,-0.38717636,-0.48490918,0.031003635,-1.8312248,0.60684896,1.324466,0.897932,0.039999895,0.04,-8.2290535,5.323750019073486,-0.42008805,0.0,-0.0,0.0
1544.7666666655905,-0.38717636,-0.48490918,0.031003635,-1.8312248,0.60684896,1.324466,0.897932,0.039999895,0.04,-8.2290535,5.323750019073486,-0.42008805,0.0,-0.0,0.0
1544.7833333322571,-0.38717636,-0.48490918,0.031003635,-1.8312248,0.60684896,1.324466,0.897932,0.039999895,0.04,-8.2290535,5.323750019073486,-0.42008805,0.0,-0.0,0.0
1544.7999999989238,-0.38717636,-0.48490918,0.031003635,-1.8312248,0.60684896,1.324466,0.897932,0.039999895,0.04,-8.2290535,5.323750019073486,-0.42008805,0.0,-0.0,0.0
1544.8166666655904,-0.38717636,-0.48490918,0.031003635,-1.8312248,0.60684896,1.324466,0.897932,0.039999895,0.04,-8.2290535,5.323750019073486,-0.42008805,0.0,-0.0,0.0
1544.833333332257,-0.38717636,-0.48490918,0.031003635,-1.8312248,0.60684896,1.324466,0.897932,0.039999895,0.04,-8.2290535,5.323750019073486,-0.42008805,0.0,-0.0,0.0
1544.8499999989237,-0.38717636,-0.48490918,0.031003635,-1.8312248,0.60684896,1.324466,0.897932,0.039999895,0.04,-8.2290535,5.323750019073486,-0.42008805,0.0,-0.0,0.0
1544.8666666655904,-0.38717636,-0.48490918,0.031003635,-1.8312248,0.60684896,1.324466,0.897932,0.039999895,0.04,-8.2290535,5.323750019073486,-0.42008805,0.0,-0.0,0.0
1544.883333332257,-0.38717636,-0.48490918,0.031003635,-1.8312248,0.60684896,1.324466,0.897932,0.039999895,0.04,-8.2290535,5.323750019073486,-0.42008805,0.0,-0.0,0.0
1544.8999999989237,-0.38717636,-0.48490918,0.031003635,-1.8312248,0.60684896,1.324466,0.897932,0.039999895,0.04,-8.2290535,5.323750019073486,-0.42008805,0.0,-0.0,0.0
1544.9166666655904,-0.38717636,-0.48490918,0.031003635,-1.8312248,0.60684896,1.324466,0.897932,0.039999895,0.04,-8.2290535,5.323750019073486,-0.42008805,0.0,-0.0,0.0
1544.933333332257,-0.38717636,-0.48490918,0.031003635,-1.8312248,0.60684896,1.324466,0.897932,0.039999895,0.04,-8.2290535,5.323750019073486,-0.42008805,0.0,-0.0,0.0
1544.9499999989237,-0.38717636,-0.48490918,0.031003635,-1.8312248,0.60684896,1.324466,0.897932,0.039999895,0.04,-8.2290535,5.323750019073486,-0.42008805,0.0,-0.0,0.0
1544.9666666655903,-0.38717636,-0.48490918,0.031003635,-1.8312248,0.60684896,1.324466,0.897932,0.039999895,0.04,-8.2290535,5.323750019073486,-0.42008805,0.0,-0.0,0.0
1544.983333332257,-0.38717636,-0.48490918,0.031003635,-1.8312248,0.60684896,1.324466,0.897932,0.039999895,0.04,-8.2290535,5.323750019073486,-0.42008805,0.0,-0.0,0.0
1544.9999999989236,-0.38717636,-0.48490918,0.031003635,-1.8312248,0.60684896,1.324466,0.897932,0.039999895,0.04,-8.2290535,5.323750019073486,-0.42008805,0.0,-0.0,0.0
