rsonawane2002/My_IMU/logs_2/traj_282/imu_400hz_282.csv
time,j1,j2,j3,j4,j5,j6,j7,gripper1,gripper2,imu_ax,imu_ay,imu_az,imu_gx,imu_gy,imu_gz
0.0,0.00016700293,-0.785875,4.0107683e-05,-2.3551247,9.29385e-05,1.570997,0.786,0.04,0.04,-9.502465,0.0005859665106981,0.06379818,3.6427392e-07,-0.0011641273740679,5.3978266e-07
0.0025,0.0001670024755,-0.785857774,4.010865755e-05,-2.35513919,9.294489900000001e-05,1.570996565,0.786,0.04,0.04,-9.552249100000045,0.0005943926022154427,0.055594373399992535,3.9225278700002544e-07,-0.0013251984957606965,6.715907710001199e-07
0.005,0.000167002021,-0.785840548,4.0109632100000006e-05,-2.3551536800000004,9.295129800000001e-05,1.57099613,0.786,0.04,0.04,-9.602033200000092,0.0006028186937327853,0.04739056679998507,4.202316540000509e-07,-0.001486269617453493,8.033988820002397e-07
0.0075,0.0001670015665,-0.7858233219999999,4.0110606650000004e-05,-2.3551681700000002,9.295769700000002e-05,1.570995695,0.786,0.04,0.04,-9.651817300000136,0.000611244785250128,0.03918676019997762,4.482105210000763e-07,-0.0016473407391462895,9.352069930003596e-07
0.01,0.000167001112,-0.785806096,4.011158120000001e-05,-2.35518266,9.296409600000002e-05,1.5709952600000001,0.786,0.04,0.04,-9.70160140000018,0.0006196708767674706,0.03098295359997015,4.761893880001018e-07,-0.001808411860839086,1.0670151040004795e-06
0.0125,0.0001670006575,-0.78578887,4.011255575000001e-05,-2.3551971500000004,9.297049500000003e-05,1.570994825,0.786,0.04,0.04,-9.751385500000225,0.0006280969682848133,0.02277914699996269,5.041682550001272e-07,-0.0019694829825318825,1.1988232150005994e-06
0.015,0.000167000203,-0.785771644,4.0113530300000005e-05,-2.3552116400000003,9.297689400000003e-05,1.57099439,0.786,0.04,0.04,-9.801169600000271,0.0006365230598021559,0.014575340399955235,5.321471220001527e-07,-0.002130554104224679,1.330631326000719e-06
0.0175,0.00016699773549999993,-0.7857548645,4.0114330650000004e-05,-2.3552257350000003,9.298559300000007e-05,1.57099396,0.786,0.04,0.04,-9.834257199999998,0.0006401988299330178,0.009030372549998554,7.712593150042111e-07,-0.0022871879395106355,1.5870110100032187e-06
0.02,0.00016699124199999994,-0.7857389779999999,4.0114782600000005e-05,-2.3552390400000003,9.299889200000009e-05,1.5709935400000001,0.786,0.04,0.04,-9.833951799999998,0.0006343739572911776,0.008803082199998346,1.432638160004812e-06,-0.002434947201983155,2.0925338400036785e-06
0.0225,0.00016698474849999995,-0.7857230914999999,4.0115234550000005e-05,-2.3552523450000002,9.30121910000001e-05,1.57099312,0.786,0.04,0.04,-9.833646399999997,0.0006285490846493373,0.00857579184999814,2.0940170050054133e-06,-0.002582706464455674,2.598056670004138e-06
0.025,0.00016697825499999993,-0.7857072049999999,4.0115686500000006e-05,-2.35526565,9.302549000000011e-05,1.5709927,0.786,0.04,0.04,-9.833340999999997,0.000622724212007497,0.008348501499997933,2.7553958500060155e-06,-0.002730465726928194,3.103579500004598e-06
0.0275,0.00016697176149999994,-0.7856913184999998,4.011613845e-05,-2.355278955,9.303878900000013e-05,1.57099228,0.786,0.04,0.04,-9.833035599999997,0.0006168993393656567,0.008121211149997726,3.4167746950066164e-06,-0.0028782249894007132,3.609102330005058e-06
0.03,0.00016696526799999994,-0.7856754319999998,4.01165904e-05,-2.35529226,9.305208800000015e-05,1.57099186,0.786,0.04,0.04,-9.832730199999997,0.0006110744667238164,0.00789392079999752,4.078153540007217e-06,-0.0030259842518732326,4.114625160005517e-06
0.0325,0.00016695877449999992,-0.7856595454999998,4.011704235e-05,-2.355305565,9.306538700000017e-05,1.57099144,0.786,0.04,0.04,-9.832424799999997,0.0006052495940819761,0.007666630449997313,4.739532385007819e-06,-0.003173743514345752,4.620147990005977e-06
0.035,0.00016694157499999972,-0.7856445099999998,4.011664469999999e-05,-2.3553181,9.309129960000041e-05,1.57099101,0.786,0.04,0.04,-9.832123999999997,0.0005981383030301012,0.007458323999997469,6.172433300023158e-06,-0.0033131688600422423,5.603329940015562e-06
0.0375,0.00016691902249999969,-0.7856298999999998,4.0115822249999985e-05,-2.35533025,9.312351900000044e-05,1.570990575,0.786,0.04,0.04,-9.831825499999995,0.0005903838027732442,0.007259509499997288,7.991095250024809e-06,-0.0034484272473509453,6.825341450016671e-06
0.04,0.00016689646999999968,-0.7856152899999997,4.011499979999999e-05,-2.3553424,9.315573840000047e-05,1.57099014,0.786,0.04,0.04,-9.831526999999996,0.0005826293025163871,0.007060694999997107,9.809757200026466e-06,-0.0035836856346596483,8.047352960017783e-06
0.0425,0.00016687391749999964,-0.7856006799999997,4.0114177349999984e-05,-2.35535455,9.31879578000005e-05,1.5709897050000001,0.786,0.04,0.04,-9.831228499999995,0.00057487480225953,0.006861880499996926,1.162841915002812e-05,-0.0037189440219683517,9.269364470018895e-06
0.045,0.00016685136499999963,-0.7855860699999997,4.0113354899999986e-05,-2.3553667000000003,9.322017720000053e-05,1.57098927,0.786,0.04,0.04,-9.830929999999995,0.000567120302002673,0.006663065999996745,1.344708110002977e-05,-0.0038542024092770542,1.0491375980020006e-05
0.0475,0.0001668288124999996,-0.7855714599999998,4.011253244999998e-05,-2.35537885,9.325239660000056e-05,1.570988835,0.786,0.04,0.04,-9.830631499999994,0.000559365801745816,0.006464251499996564,1.5265743050031427e-05,-0.003989460796585758,1.1713387490021118e-05
0.05,0.00016680625999999902,-0.7855568499999998,4.011170999999994e-05,-2.355391,9.328461600000125e-05,1.5709884,0.786,0.04,0.04,-9.830332999999994,0.0005516113014889184,0.006265436999996741,1.7084405000063496e-05,-0.004124719183894232,1.2935399000040934e-05
0.0525,0.00016675322599999897,-0.7855433949999997,4.010851829999994e-05,-2.35540216,9.33529626000013e-05,1.57098798,0.786,0.04,0.04,-9.830029399999994,0.0005416260362832943,0.006086302424996579,2.0575056500066665e-05,-0.004247425426731354,1.5185637950042976e-05
0.055,0.00016670019199999895,-0.7855299399999998,4.010532659999994e-05,-2.3554133200000003,9.342130920000136e-05,1.57098756,0.786,0.04,0.04,-9.829725799999993,0.0005316407710776701,0.005907167849996415,2.4065708000069844e-05,-0.0043701316695684755,1.7435876900045024e-05
0.0575,0.0001666471579999989,-0.7855164849999997,4.010213489999993e-05,-2.3554244800000004,9.348965580000143e-05,1.57098714,0.786,0.04,0.04,-9.829422199999994,0.0005216555058720461,0.005728033274996252,2.755635950007302e-05,-0.004492837912405598,1.9686115850047072e-05
0.06,0.00016659412399999885,-0.7855030299999997,4.009894319999993e-05,-2.35543564,9.355800240000149e-05,1.57098672,0.786,0.04,0.04,-9.829118599999994,0.000511670240666422,0.00554889869999609,3.104701100007619e-05,-0.004615544155242719,2.1936354800049117e-05
0.0625,0.0001665410899999988,-0.7854895749999997,4.0095751499999926e-05,-2.3554468,9.362634900000155e-05,1.5709863,0.786,0.04,0.04,-9.828814999999993,0.0005016849754607979,0.005369764124995927,3.453766250007937e-05,-0.00473825039807984,2.4186593750051162e-05
0.065,0.00016648805599999876,-0.7854761199999997,4.009255979999992e-05,-2.3554579600000003,9.369469560000162e-05,1.57098588,0.786,0.04,0.04,-9.828511399999993,0.0004916997102551739,0.005190629549995764,3.802831400008255e-05,-0.004860956640916962,2.6436832700053213e-05
0.0675,0.00016641872799999752,-0.7854630174999997,4.008810914999983e-05,-2.35546881,9.37823790000031e-05,1.570985455,0.786,0.04,0.04,-9.828213749999994,0.0004805244927406871,0.005017394674996035,4.223914125013878e-05,-0.0049797522369799205,2.9123516400087414e-05
0.07,0.00016631681199999742,-0.7854506199999997,4.008114059999982e-05,-2.35547904,9.390873600000322e-05,1.57098502,0.786,0.04,0.04,-9.827927999999993,0.00046696937060873475,0.004855959199995888,4.789032000014393e-05,-0.005090726539495407,3.268308960009066e-05
0.0725,0.00016621489599999732,-0.7854382224999997,4.007417204999982e-05,-2.35548927,9.403509300000333e-05,1.570984585,0.786,0.04,0.04,-9.827642249999993,0.0004534142484767825,0.004694523724995742,5.3541498750149044e-05,-0.005201700842010892,3.624266280009387e-05
0.075,0.00016611297999999722,-0.7854258249999997,4.006720349999981e-05,-2.3554995,9.416145000000344e-05,1.57098415,0.786,0.04,0.04,-9.827356499999993,0.0004398591263448302,0.004533088249995595,5.919267750015419e-05,-0.005312675144526378,3.980223600009712e-05
0.0775,0.00016601106399999712,-0.7854134274999997,4.00602349499998e-05,-2.35550973,9.428780700000357e-05,1.5709837150000001,0.786,0.04,0.04,-9.827070749999992,0.00042630400421287784,0.004371652774995448,6.484385625015933e-05,-0.005423649447041864,4.336180920010035e-05
0.08,0.00016590914799999702,-0.7854010299999997,4.00532663999998e-05,-2.35551996,9.441416400000368e-05,1.57098328,0.786,0.04,0.04,-9.826784999999992,0.0004127488820809255,0.004210217299995302,7.049503500016448e-05,-0.00553462374955735,4.69213824001036e-05
0.0825,0.00016580723199999692,-0.7853886324999997,4.0046297849999794e-05,-2.35553019,9.45405210000038e-05,1.570982845,0.786,0.04,0.04,-9.826499249999992,0.00039919375994897316,0.004048781824995154,7.614621375016962e-05,-0.0056455980520728356,5.0480955600106834e-05
0.085,0.00016565807799999465,-0.7853768599999997,4.0035690199999617e-05,-2.35554016,9.47225740000065e-05,1.57098271,0.78600019,0.04,0.04,-9.82620949999999,0.0003847311687417987,0.003895643619995392,8.354618200025589e-05,-0.005748872738334585,5.502156500015559e-05
0.08750000000000001,0.0001654853049999945,-0.7853653999999997,4.0023262999999606e-05,-2.35555,9.493247500000669e-05,1.5709827250000001,0.786000475,0.04,0.04,-9.825917749999991,0.00036981484299707513,0.0037466540499952565,9.182054500026342e-05,-0.00584829761646999,6.005269250016017e-05
0.09,0.00016531253199999433,-0.7853539399999996,4.0010835799999595e-05,-2.35555984,9.514237600000688e-05,1.57098274,0.7860007600000001,0.04,0.04,-9.82562599999999,0.00035489851725235166,0.0035976644799951218,0.00010009490800027091,-0.005947722494605396,6.508382000016472e-05
0.0925,0.0001651397589999942,-0.7853424799999996,3.9998408599999585e-05,-2.3555696800000003,9.535227700000707e-05,1.570982755,0.786001045,0.04,0.04,-9.82533424999999,0.00033998219150762807,0.003448674909994986,0.00010836927100027844,-0.006047147372740801,7.01149475001693e-05
0.095,0.00016496698599999403,-0.7853310199999995,3.9985981399999574e-05,-2.35557952,9.556217800000726e-05,1.5709827699999999,0.78600133,0.04,0.04,-9.82504249999999,0.0003250658657629045,0.0032996853399948505,0.00011664363400028597,-0.006146572250876206,7.514607500017388e-05
0.0975,0.00016479421299999387,-0.7853195599999996,3.9973554199999556e-05,-2.35558936,9.577207900000745e-05,1.570982785,0.786001615,0.04,0.04,-9.824750749999989,0.0003101495400181809,0.003150695769994715,0.00012491799700029352,-0.006245997129011612,8.017720250017847e-05
0.1,0.0001646214399999902,-0.7853080999999996,3.996112699999928e-05,-2.3555992000000003,9.598198000001178e-05,1.5709828,0.7860019,0.04,0.04,-9.82445899999999,0.0002952332142734056,0.003001706199994623,0.0001331923600003646,-0.006345422007146617,8.520833000025058e-05
0.10250000000000001,0.00016435265499998997,-0.7852975249999996,3.994131664999926e-05,-2.355608065,9.630568090001207e-05,1.570982875,0.7860021850000001,0.04,0.04,-9.824225749999991,0.0002788944271735757,0.0028539151599944884,0.00014321417500037374,-0.006433846126313728,9.209593700025685e-05
0.105,0.00016408386999998973,-0.7852869499999996,3.9921506299999246e-05,-2.35561693,9.662938180001237e-05,1.5709829499999999,0.78600247,0.04,0.04,-9.82399249999999,0.00026255564007374594,0.0027061241199943546,0.0001532359900003828,-0.006522270245480838,9.898354400026309e-05
0.1075,0.00016381508499998949,-0.7852763749999996,3.9901695949999225e-05,-2.3556257950000004,9.695308270001266e-05,1.5709830249999999,0.786002755,0.04,0.04,-9.82375924999999,0.00024621685297391606,0.0025583330799942203,0.00016325780500039193,-0.006610694364647948,0.00010587115100026937
0.11,0.00016354629999998924,-0.7852657999999996,3.9881885599999204e-05,-2.35563466,9.727678360001296e-05,1.5709830999999999,0.7860030400000001,0.04,0.04,-9.82352599999999,0.00022987806587408617,0.0024105420399940856,0.00017327962000040104,-0.006699118483815059,0.00011275875800027563
0.1125,0.000163277514999989,-0.7852552249999996,3.986207524999919e-05,-2.3556435250000005,9.760048450001324e-05,1.570983175,0.786003325,0.04,0.04,-9.82329274999999,0.0002135392787742563,0.0022627509999939514,0.00018330143500041018,-0.006787542602982169,0.0001196463650002819
0.115,0.00016300872999998876,-0.7852446499999995,3.984226489999917e-05,-2.3556523900000004,9.792418540001354e-05,1.57098325,0.7860036100000001,0.04,0.04,-9.82305949999999,0.0001972004916744264,0.0021149599599938167,0.0001933232500004193,-0.0068759667221492795,0.0001265339720002882
0.11750000000000001,0.00016269859549998322,-0.7852343449999996,3.981926199999874e-05,-2.3556612100000005,9.829752795002019e-05,1.57098333,0.7860038970000001,0.04,0.03999999975,-9.822802549999986,0.0001809439549098652,0.0019757099399947773,0.00020449248050057557,-0.0069604310439931325,0.0001341698135003904
0.12,0.00016230576199998285,-0.7852245799999996,3.978987399999872e-05,-2.3556699400000003,9.877015380002063e-05,1.57098342,0.786004188,0.04,0.039999999,-9.822498199999986,0.0001648519188158099,0.0018535419599946669,0.00021795654200058775,-0.007036975771191982,0.00014330212400039867
0.1225,0.0001619129284999825,-0.7852148149999996,3.9760485999998694e-05,-2.3556786700000005,9.924277965002105e-05,1.57098351,0.786004479,0.04,0.03999999825,-9.822193849999985,0.00014875988272175454,0.0017313739799945558,0.00023142060350060003,-0.007113520498390831,0.000152434434500407
0.125,0.00016152009499998212,-0.7852050499999996,3.973109799999866e-05,-2.3556874000000003,9.971540550002149e-05,1.5709836000000001,0.78600477,0.04,0.0399999975,-9.821889499999985,0.00013266784662769918,0.0016092059999944445,0.0002448846650006123,-0.007190065225589681,0.00016156674500041529
0.1275,0.00016112726149998177,-0.7851952849999996,3.970170999999864e-05,-2.3556961300000006,0.00010018803135002191,1.57098369,0.786005061,0.04,0.03999999675,-9.821585149999985,0.00011657581053364381,0.0014870380199943334,0.00025834872650062457,-0.007266609952788531,0.0001706990555004236
0.13,0.00016073442799998143,-0.7851855199999995,3.9672321999998614e-05,-2.355704860000001,0.00010066065720002235,1.5709837800000002,0.786005352,0.04,0.039999996,-9.821280799999984,0.00010048377443958845,0.0013648700399942221,0.0002718127880006368,-0.00734315467998738,0.00017983136600043193
0.1325,0.00016034159449998105,-0.7851757549999996,3.964293399999858e-05,-2.3557135900000006,0.00010113328305002279,1.57098387,0.786005643,0.04,0.03999999525,-9.820976449999984,8.439173834553308e-05,0.0012427020599941109,0.0002852768495006491,-0.00741969940718623,0.00018896367650044025
0.135,0.0001598457359999731,-0.7851664599999996,3.960562139999798e-05,-2.3557220500000007,0.00010172666800003211,1.57098398,0.786006121,0.04,0.0399999955,-9.82073369999999,6.585824885308575e-05,0.0011291424499946339,0.000301329576000852,-0.007490838970992261,0.00019930790200053784
0.1375,0.0001592983649999726,-0.7851573999999996,3.956434649999794e-05,-2.3557303750000007,0.0001023804325000327,1.5709841,0.7860066925,0.04,0.03999999625,-9.820521749999989,4.61040326617089e-05,0.0010198870249945344,0.00031867663500086786,-0.0075592759531024735,0.0002102580850005478
0.14,0.0001587509939999721,-0.7851483399999996,3.95230715999979e-05,-2.3557387000000007,0.0001030341970000333,1.57098422,0.786007264,0.04,0.039999997,-9.820309799999988,2.6349816470332046e-05,0.0009106315999944348,0.00033602369400088363,-0.007627712935212686,0.00022120826800055778
0.14250000000000002,0.00015820362299997161,-0.7851392799999996,3.948179669999786e-05,-2.3557470250000003,0.0001036879615000339,1.57098434,0.7860078355,0.04,0.03999999775,-9.82009784999999,6.595600278955205e-06,0.0008013761749943353,0.0003533707530008994,-0.007696149917322898,0.00023215845100056775
0.145,0.00015765625199997113,-0.7851302199999995,3.9440521799997825e-05,-2.3557553500000004,0.00010434172600003449,1.57098446,0.786008407,0.04,0.0399999985,-9.819885899999989,-1.3158615912421432e-05,0.000692120749994237,0.00037071781200091503,-0.00776458689943311,0.00024310863400057761
0.1475,0.0001571088809999706,-0.7851211599999995,3.939924689999779e-05,-2.3557636750000004,0.00010499549050003509,1.57098458,0.7860089785,0.04,0.03999999925,-9.819673949999988,-3.2912832103798286e-05,0.0005828653249941376,0.0003880648710009308,-0.007833023881543322,0.00025405881700058756
0.15,0.0001565615099999599,-0.7851120999999995,3.935797199999696e-05,-2.3557720000000004,0.00010564925500004786,1.5709847,0.78600955,0.04,0.04,-9.819461999999987,-5.266704829499044e-05,0.00047360989999404684,0.0004054119300011031,-0.00790146086365303,0.00026500900000073766
0.1525,0.00015582675599995922,-0.7851036999999995,3.930225359999691e-05,-2.3557797250000005,0.00010652629675004866,1.570984835,0.7860101214999999,0.04,0.03999999925,-9.819221399999986,-6.903665198568576e-05,0.00036451314199394754,0.0004256268105011215,-0.007960643665868298,0.0002785265125007499
0.155,0.00015509200199995856,-0.7850952999999995,3.924653519999686e-05,-2.3557874500000002,0.00010740333850004946,1.57098497,0.786010693,0.04,0.0399999985,-9.818980799999986,-8.540625567638108e-05,0.00025541638399384823,0.0004458416910011399,-0.008019826468083567,0.00029204402500076224
0.1575,0.0001543572479999579,-0.7850868999999995,3.919081679999681e-05,-2.3557951750000004,0.00010828038025005025,1.5709851049999999,0.7860112645,0.04,0.03999999775,-9.818740199999986,-0.00010177585936707641,0.00014631962599374892,0.0004660565715011583,-0.008079009270298835,0.00030556153750077456
0.16,0.00015362249399995722,-0.7850784999999996,3.913509839999676e-05,-2.3558029000000005,0.00010915742200005106,1.57098524,0.786011836,0.04,0.039999997,-9.818499599999985,-0.00011814546305777173,3.722286799364956e-05,0.0004862714520011767,-0.008138192072514105,0.0003190790500007869
0.1625,0.00015288773999995656,-0.7850700999999995,3.907937999999671e-05,-2.3558106250000006,0.00011003446375005185,1.570985375,0.7860124075,0.04,0.03999999625,-9.818258999999985,-0.00013451506674846706,-7.187389000644974e-05,0.0005064863325011951,-0.008197374874729373,0.00033259656250079914
0.165,0.0001521529859999559,-0.7850616999999995,3.902366159999665e-05,-2.3558183500000007,0.00011091150550005265,1.57098551,0.786012979,0.04,0.0399999955,-9.818018399999985,-0.00015088467043916239,-0.000180970648006549,0.0005267012130012135,-0.008256557676944642,0.00034611407500081146
0.1675,0.0001513441984999417,-0.7850534929999996,3.896224739999556e-05,-2.3558260500000006,0.00011187532575006932,1.570985645,0.7860136470000001,0.04,0.03999999525,-9.817765299999982,-0.00016805063060126315,-0.00028578549900586553,0.0005484465600015117,-0.008312357263642487,0.00036034749850095466
0.17,0.00015038734399994082,-0.7850456719999995,3.8889441599995496e-05,-2.3558337000000007,0.00011301270300007036,1.57098578,0.7860145080000001,0.04,0.039999996,-9.817487199999983,-0.00018680930370574024,-0.00038203653600595315,0.0005732528400015343,-0.008361390419307332,0.0003760127440009689
0.17250000000000001,0.00014943048949993997,-0.7850378509999996,3.881663579999543e-05,-2.3558413500000004,0.00011415008025007138,1.570985915,0.786015369,0.04,0.03999999675,-9.817209099999982,-0.00020556797681021733,-0.00047828757300604077,0.0005980591200015569,-0.008410423574972176,0.0003916779895009832
0.17500000000000002,0.0001484736349999391,-0.7850300299999995,3.874382999999536e-05,-2.3558490000000005,0.00011528745750007242,1.5709860500000001,0.78601623,0.04,0.0399999975,-9.816930999999983,-0.0002243266499146944,-0.0005745386100061284,0.0006228654000015795,-0.008459456730637022,0.00040734323500099745
0.1775,0.00014751678049993821,-0.7850222089999995,3.8671024199995296e-05,-2.3558566500000007,0.00011642483475007345,1.570986185,0.7860170910000001,0.04,0.03999999825,-9.816652899999982,-0.0002430853230191713,-0.000670789647006215,0.0006476716800016017,-0.008508489886301866,0.00042300848050101154
0.18,0.00014655992599993736,-0.7850143879999995,3.859821839999523e-05,-2.355864300000001,0.00011756221200007447,1.57098632,0.786017952,0.04,0.039999999,-9.81637479999998,-0.00026184399612364835,-0.0007670406840063026,0.0006724779600016244,-0.00855752304196671,0.0004386737260010258
0.1825,0.0001456030714999365,-0.7850065669999994,3.8525412599995166e-05,-2.3558719500000005,0.00011869958925007551,1.5709864550000001,0.786018813,0.04,0.03999999975,-9.816096699999981,-0.0002806026692281254,-0.0008632917210063902,0.000697284240001647,-0.008606556197631555,0.0004543389715010401
0.185,0.0001444737739999182,-0.7849990739999995,3.843928759999375e-05,-2.3558795800000008,0.00012004229350009727,1.5709868500000002,0.78601984,0.04,0.0399999995,-9.815857199999984,-0.0002953962422915422,-0.0009570215600062234,0.0007244533800019081,-0.008650292269888225,0.00047200915800125673
0.1875,0.0001432582549999171,-0.7849917449999995,3.834650299999367e-05,-2.3558872000000006,0.00012148766125009859,1.570987375,0.78602095,0.04,0.03999999875,-9.815636999999985,-0.0003082072653350239,-0.0010494908000063077,0.0007528039500019339,-0.008691379800441603,0.0004906818150012737
0.19,0.00014204273599991598,-0.7849844159999995,3.825371839999359e-05,-2.3558948200000005,0.0001229330290000999,1.5709879000000002,0.7860220600000001,0.04,0.039999998,-9.815416799999985,-0.00032101828837850555,-0.0011419600400063917,0.0007811545200019597,-0.00873246733099498,0.0005093544720012908
0.1925,0.0001408272169999149,-0.7849770869999995,3.81609337999935e-05,-2.3559024400000004,0.00012437839675010122,1.5709884250000001,0.78602317,0.04,0.03999999725,-9.815196599999984,-0.00033382931142198716,-0.001234429280006476,0.0008095050900019854,-0.008773554861548358,0.0005280271290013077
0.195,0.00013961169799991377,-0.7849697579999995,3.806814919999342e-05,-2.3559100600000007,0.00012582376450010252,1.57098895,0.78602428,0.04,0.0399999965,-9.814976399999985,-0.00034664033446546883,-0.0013268985200065601,0.0008378556600020112,-0.008814642392101736,0.0005466997860013247
0.1975,0.00013839617899991265,-0.7849624289999995,3.797536459999333e-05,-2.3559176800000006,0.00012726913225010386,1.5709894750000002,0.78602539,0.04,0.03999999575,-9.814756199999984,-0.0003594513575089505,-0.0014193677600066444,0.0008662062300020371,-0.008855729922655113,0.0005653724430013417
0.2,0.00013718065999988998,-0.7849550999999996,3.788257999999159e-05,-2.3559253000000004,0.0001287145000001305,1.57099,0.7860265000000001,0.04,0.039999995,-9.814535999999984,-0.0003722623805526649,-0.0015118370000071072,0.0008945568000023604,-0.008896817453207827,0.0005840451000015257
0.2025,0.0001356685204998886,-0.7849482599999995,3.776696419999148e-05,-2.3559329500000006,0.00013050803650013215,1.57099066,0.786027766,0.04,0.03999999575,-9.814313099999984,-0.0003882719640398595,-0.001609511090007196,0.0009269958900023899,-0.008928781840952525,0.0006050125410015447
0.20500000000000002,0.0001341563809998872,-0.7849414199999996,3.7651348399991375e-05,-2.3559406000000007,0.00013230157300013376,1.57099132,0.7860290320000001,0.04,0.0399999965,-9.814090199999983,-0.00040428154752705406,-0.001707185180007285,0.0009594349800024194,-0.008960746228697225,0.0006259799820015639
0.20750000000000002,0.00013264424149988583,-0.7849345799999995,3.753573259999127e-05,-2.3559482500000004,0.0001340951095001354,1.57099198,0.786030298,0.04,0.03999999725,-9.813867299999984,-0.00042029113101424865,-0.001804859270007374,0.000991874070002449,-0.008992710616441923,0.0006469474230015829
0.21,0.00013113210199988448,-0.7849277399999995,3.742011679999117e-05,-2.3559559000000005,0.000135888646000137,1.57099264,0.7860315640000001,0.04,0.039999998,-9.813644399999983,-0.00043630071450144307,-0.0019025333600074619,0.001024313160002478,-0.009024675004186621,0.0006679148640016017
0.2125,0.0001296199624998831,-0.7849208999999995,3.7304500999991067e-05,-2.3559635500000007,0.00013768218250013865,1.5709933,0.78603283,0.04,0.03999999875,-9.813421499999983,-0.0004523102979886376,-0.0020002074500075507,0.0010567522500025076,-0.00905663939193132,0.0006888823050016209
0.215,0.00012810782299988173,-0.7849140599999995,3.7188885199990955e-05,-2.355971200000001,0.00013947571900014028,1.57099396,0.7860340960000001,0.04,0.0399999995,-9.813198599999984,-0.00046831988147583224,-0.0020978815400076395,0.0010891913400025372,-0.009088603779676019,0.0007098497460016399
0.2175,0.00012648369149985376,-0.7849073399999995,3.7064628099988805e-05,-2.3559788650000004,0.0001414015855001733,1.5709946350000001,0.786035463,0.03999999975,0.04,-9.812974499999983,-0.0004822762508418594,-0.0021910891300066684,0.0011231977300029388,-0.009117735223846452,0.0007318086930018944
0.22,0.0001246355759998521,-0.7849008599999995,3.692308839998867e-05,-2.3559865600000007,0.0001435921120001753,1.57099534,0.7860370320000001,0.039999999,0.04,-9.812747999999983,-0.0004921261919670083,-0.002275363720006745,0.0011603387200029725,-0.009141200780870358,0.0007557506520019162
0.2225,0.0001227874604998504,-0.7848943799999996,3.678154869998854e-05,-2.3559942550000006,0.0001457826385001773,1.570996045,0.7860386010000001,0.03999999825,0.04,-9.812521499999983,-0.0005019761330921573,-0.0023596383100068217,0.0011974797100030065,-0.009164666337894265,0.000779692611001938
0.225,0.00012093934499984872,-0.7848878999999995,3.664000899998841e-05,-2.3560019500000005,0.0001479731650001793,1.5709967500000002,0.7860401700000001,0.0399999975,0.04,-9.812294999999983,-0.0005118260742173063,-0.0024439129000068983,0.0012346207000030402,-0.009188131894918171,0.0008036345700019598
0.2275,0.00011909122949984704,-0.7848814199999995,3.6498469299988283e-05,-2.3560096450000008,0.00015016369150018129,1.570997455,0.7860417390000001,0.03999999675,0.04,-9.812068499999983,-0.0005216760153424553,-0.0025281874900069754,0.001271761690003074,-0.009211597451942078,0.0008275765290019817
0.23,0.00011724311399984536,-0.7848749399999995,3.6356929599988155e-05,-2.3560173400000006,0.00015235421800018328,1.57099816,0.7860433080000001,0.039999996,0.04,-9.811841999999983,-0.0005315259564676043,-0.002612462080007052,0.0013089026800031079,-0.009235063008965984,0.0008515184880020034
0.2325,0.00011539499849984368,-0.7848684599999994,3.6215389899988026e-05,-2.3560250350000005,0.00015454474450018527,1.5709988650000002,0.7860448770000001,0.03999999525,0.04,-9.811615499999983,-0.0005413758975927532,-0.0026967366700071287,0.0013460436700031416,-0.00925852856598989,0.0008754604470020252
0.23500000000000001,0.00011329593059980981,-0.7848622259999994,3.6054491599985414e-05,-2.356033080000001,0.0001570317510002253,1.57099958,0.7860466700000002,0.039999994500000004,0.039999999,-9.811392399999981,-0.0005485168891032348,-0.0027812637400072377,0.0013861168800035515,-0.009276937507094268,0.0009014117300023048
0.23750000000000002,0.00011107138649980778,-0.7848561149999995,3.588391399998526e-05,-2.3560413000000007,0.0001596669975002277,1.5710003000000001,0.7860485750000001,0.039999993750000004,0.0399999975,-9.811170999999982,-0.0005543034058069,-0.0028659170500073146,0.0014276562000035894,-0.009292818140239847,0.0009283676750023292
0.24,0.00010884684239980578,-0.7848500039999995,3.5713336399985106e-05,-2.356049520000001,0.00016230224400023006,1.5710010200000002,0.7860504800000001,0.039999993000000005,0.039999996,-9.810949599999981,-0.0005600899225105653,-0.0029505703600073907,0.0014691955200036267,-0.009308698773385426,0.0009553236200023535
0.2425,0.00010662229829980376,-0.7848438929999995,3.554275879998495e-05,-2.3560577400000007,0.00016493749050023248,1.57100174,0.7860523850000002,0.03999999225,0.0399999945,-9.810728199999982,-0.0005658764392142305,-0.003035223670007468,0.0015107348400036644,-0.009324579406531006,0.0009822795650023782
0.245,0.00010439775419980173,-0.7848377819999994,3.53721811999848e-05,-2.356065960000001,0.00016757273700023488,1.57100246,0.7860542900000002,0.0399999915,0.039999993,-9.810506799999981,-0.0005716629559178957,-0.003119876980007545,0.0015522741600037023,-0.009340460039676585,0.0010092355100024025
0.2475,0.0001021732100997997,-0.7848316709999995,3.520160359998464e-05,-2.3560741800000007,0.00017020798350023727,1.5710031800000002,0.7860561950000001,0.03999999075,0.0399999915,-9.81028539999998,-0.0005774494726215611,-0.0032045302900076222,0.00159381348000374,-0.009356340672822164,0.0010361914550024271
0.25,9.994866599975968e-05,-0.7848255599999995,3.503102599998156e-05,-2.356082400000001,0.00017284323000028455,1.5710039000000002,0.7860581000000002,0.03999999,0.03999999,-9.810063999999985,-0.000583235989325036,-0.0032891836000070486,0.0016353528000041795,-0.00937222130596725,0.0010631474000027093
0.2525,9.730634309975727e-05,-0.7848197459999995,3.482819959998137e-05,-2.3560910550000007,0.00017597180250028739,1.571005175,0.7860603950000002,0.0399999897,0.0399999897,-9.809895999999986,-0.0005869297019674494,-0.003366682195007119,0.0016813074600042213,-0.009382670046762518,0.0010929362300027366
0.255,9.466402019975486e-05,-0.7848139319999995,3.462537319998119e-05,-2.356099710000001,0.00017910037500029022,1.57100645,0.7860626900000002,0.0399999894,0.0399999894,-9.809727999999986,-0.0005906234146098627,-0.0034441807900071897,0.0017272621200042633,-0.009393118787557789,0.0011227250600027636
0.2575,9.202169729975246e-05,-0.7848081179999995,3.4422546799980996e-05,-2.3561083650000008,0.00018222894750029309,1.571007725,0.7860649850000002,0.0399999891,0.0399999891,-9.809559999999985,-0.0005943171272522761,-0.0035216793850072602,0.001773216780004305,-0.009403567528353059,0.0011525138900027906
0.26,8.937937439975005e-05,-0.7848023039999995,3.421972039998081e-05,-2.356117020000001,0.00018535752000029592,1.571009,0.7860672800000003,0.0399999888,0.0399999888,-9.809391999999985,-0.0005980108398946894,-0.0035991779800073308,0.0018191714400043468,-0.009414016269148328,0.0011823027200028179
0.2625,8.673705149974766e-05,-0.7847964899999994,3.4016893999980626e-05,-2.356125675000001,0.00018848609250029879,1.5710102750000001,0.7860695750000002,0.0399999885,0.0399999885,-9.809223999999984,-0.0006017045525371028,-0.0036766765750074013,0.0018651261000043888,-0.009424465009943598,0.001212091550002845
0.265,8.409472859974525e-05,-0.7847906759999994,3.381406759998044e-05,-2.356134330000001,0.00019161466500030162,1.5710115500000001,0.7860718700000002,0.0399999882,0.0399999882,-9.809055999999984,-0.0006053982651795162,-0.003754175170007472,0.0019110807600044306,-0.009434913750738868,0.001241880380002872
0.2675,8.129908374969808e-05,-0.7847849384999994,3.3599403999976805e-05,-2.356143035000001,0.0001949242660003573,1.5710128300000001,0.7860742700000003,0.0399999878,0.0399999878,-9.80887549999998,-0.0006076357502023094,-0.003838359155009494,0.001958564165004919,-0.009442454949021463,0.0012726685450031908
0.27,7.819679499969525e-05,-0.7847793539999994,3.336106599997658e-05,-2.356151840000001,0.00019859592400036066,1.5710141200000003,0.7860768800000003,0.0399999872,0.0399999872,-9.80866999999998,-0.0006069607799871337,-0.003935913920009583,0.0020091050600049647,-0.00944418106228125,0.0013054553800032208
0.2725,7.509450624969243e-05,-0.7847737694999994,3.312272799997637e-05,-2.356160645000001,0.000202267582000364,1.5710154100000002,0.7860794900000003,0.0399999866,0.0399999866,-9.80846449999998,-0.0006062858097719581,-0.0040334686850096715,0.002059645955005011,-0.009445907175541036,0.0013382422150032506
0.275,7.19922174996896e-05,-0.7847681849999995,3.2884389999976153e-05,-2.3561694500000008,0.00020593924000036735,1.5710167000000002,0.7860821000000002,0.039999986,0.039999986,-9.80825899999998,-0.0006056108395567825,-0.0041310234500097605,0.002110186850005057,-0.009447633288800824,0.0013710290500032803
0.2775,6.888992874968677e-05,-0.7847626004999995,3.264605199997594e-05,-2.356178255000001,0.0002096108980003707,1.57101799,0.7860847100000002,0.0399999854,0.0399999854,-9.80805349999998,-0.0006049358693416069,-0.0042285782150098495,0.002160727745005103,-0.00944935940206061,0.0014038158850033103
0.28,6.578763999968396e-05,-0.7847570159999995,3.240771399997572e-05,-2.3561870600000008,0.00021328255600037405,1.5710192800000002,0.7860873200000003,0.0399999848,0.0399999848,-9.80784799999998,-0.0006042608991264312,-0.004326132980009938,0.002211268640005149,-0.009451085515320397,0.00143660272000334
0.28250000000000003,6.268535124968113e-05,-0.7847514314999995,3.21693759999755e-05,-2.356195865000001,0.0002169542140003774,1.5710205700000002,0.7860899300000003,0.039999984200000005,0.039999984200000005,-9.807642499999979,-0.0006035859289112555,-0.004423687745010027,0.002261809535005195,-0.009452811628580183,0.0014693895550033698
0.28500000000000003,5.924789269962617e-05,-0.7847459699999995,3.190515599997126e-05,-2.356205280000001,0.00022102156600044227,1.5710220900000003,0.7860928440000003,0.039999983600000004,0.039999983600000004,-9.807418099999976,-0.0005998774198809581,-0.004512903120008818,0.002315681060005759,-0.009449493512510565,0.0015042061900037156
0.28750000000000003,5.564284924962289e-05,-0.7847405699999994,3.162799499997101e-05,-2.356215000000001,0.00022528676500044615,1.571023725,0.7860959100000003,0.039999983,0.039999983,-9.807184249999976,-0.0005946521414438034,-0.004597948800008896,0.0023712179000058096,-0.009443653281777415,0.0015400377250037482
0.29,5.203780579961969e-05,-0.7847351699999994,3.1350833999970765e-05,-2.356224720000001,0.00022955196400044995,1.5710253600000001,0.7860989760000003,0.0399999824,0.0399999824,-9.806950399999977,-0.0005894268630066488,-0.004682994480008972,0.002426754740005859,-0.009437813051044264,0.00157586926000378
0.2925,4.8432762349616404e-05,-0.7847297699999994,3.107367299997051e-05,-2.356234440000001,0.00023381716300045383,1.5710269950000002,0.7861020420000003,0.0399999818,0.0399999818,-9.806716549999976,-0.000584201584569494,-0.004768040160009049,0.0024822915800059094,-0.009431972820311114,0.0016117007950038125
0.295,4.482771889961312e-05,-0.7847243699999994,3.0796511999970254e-05,-2.356244160000001,0.00023808236200045771,1.57102863,0.7861051080000003,0.0399999812,0.0399999812,-9.806482699999975,-0.0005789763061323392,-0.0048530858400091265,0.00253782842000596,-0.009426132589577963,0.0016475323300038452
0.2975,4.122267544960984e-05,-0.7847189699999993,3.0519350999970005e-05,-2.356253880000001,0.0002423475610004616,1.571030265,0.7861081740000003,0.0399999806,0.0399999806,-9.806248849999974,-0.0005737510276951845,-0.004938131520009204,0.0025933652600060105,-0.009420292358844813,0.001683363865003878
0.3,3.7617631999546964e-05,-0.7847135699999994,3.024218999996515e-05,-2.356263600000001,0.0002466127600005358,1.5710319000000001,0.7861112400000003,0.03999998,0.03999998,-9.806014999999984,-0.0005685257492572709,-0.005023177200010367,0.0026489021000065645,-0.009414452128111069,0.0017191954000042471
0.3025,3.3466508599543185e-05,-0.7847083394999994,2.9922853949964858e-05,-2.3562735600000013,0.0002515225510005403,1.5710337600000002,0.7861147740000004,0.039999979549999995,0.039999979549999995,-9.805869649999984,-0.0005563466169391447,-0.005118168195010453,0.002709053135006619,-0.009403162961824463,0.0017581100650042826
0.305,2.9315385199539407e-05,-0.7847031089999994,2.9603517899964567e-05,-2.356283520000001,0.00025643234200054476,1.5710356200000002,0.7861183080000004,0.0399999791,0.0399999791,-9.805724299999984,-0.0005441674846210187,-0.00521315919001054,0.002769204170006674,-0.009391873795537858,0.0017970247300043178
0.3075,2.5164261799535628e-05,-0.7846978784999994,2.928418184996428e-05,-2.356293480000001,0.00026134213300054923,1.5710374800000002,0.7861218420000003,0.03999997865,0.03999997865,-9.805578949999985,-0.0005319883523028925,-0.005308150185010627,0.0028293552050067286,-0.009380584629251253,0.0018359393950043532
0.31,2.101313839953185e-05,-0.7846926479999994,2.8964845799963988e-05,-2.356303440000001,0.0002662519240005537,1.5710393400000002,0.7861253760000004,0.0399999782,0.0399999782,-9.805433599999985,-0.0005198092199847665,-0.005403141180010713,0.0028895062400067836,-0.009369295462964647,0.0018748540600043886
0.3125,1.686201499952807e-05,-0.7846874174999994,2.8645509749963697e-05,-2.3563134000000012,0.0002711617150005582,1.5710412000000002,0.7861289100000004,0.03999997775,0.03999997775,-9.805288249999984,-0.0005076300876666403,-0.0054981321750107994,0.002949657275006838,-0.009358006296678042,0.001913768725004424
0.315,1.2710891599524292e-05,-0.7846821869999994,2.8326173699963405e-05,-2.356323360000001,0.00027607150600056265,1.5710430600000003,0.7861324440000004,0.039999977299999996,0.039999977299999996,-9.805142899999984,-0.0004954509553485143,-0.005593123170010886,0.003009808310006893,-0.009346717130391436,0.0019526833900044595
0.3175,8.363181599452392e-06,-0.7846769949999993,2.7991652549957853e-05,-2.356333645000001,0.00028121335250064753,1.5710449950000003,0.7861361500000005,0.039999977,0.039999976799999996,-9.804964274999973,-0.0004813759354853512,-0.005687616350010799,0.003071561115007503,-0.00933259534649316,0.001992676975004869
0.32,3.622298399448075e-06,-0.7846718799999993,2.762676119995752e-05,-2.356344580000001,0.00028681931000065265,1.5710470800000003,0.7861402000000005,0.039999977,0.0399999762,-9.804719099999971,-0.00046350914053407995,-0.005781113900010885,0.003136517460007562,-0.009312808327374477,0.002034828400004907
0.3225,-1.1185848005562403e-06,-0.7846667649999993,2.726186984995719e-05,-2.356355515000001,0.00029242526750065777,1.5710491650000002,0.7861442500000005,0.039999977,0.0399999756,-9.804473924999972,-0.0004456423455828087,-0.00587461145001097,0.003201473805007621,-0.009293021308255794,0.0020769798250049455
0.325,-5.8594680005605574e-06,-0.7846616499999994,2.6896978499956857e-05,-2.3563664500000012,0.00029803122500066283,1.5710512500000002,0.7861483000000005,0.039999977,0.039999975,-9.804228749999972,-0.0004277755506315374,-0.0059681090000110555,0.00326643015000768,-0.00927323428913711,0.002119131250004984
0.3275,-1.0600351200564875e-05,-0.7846565349999994,2.653208714995652e-05,-2.3563773850000014,0.00030363718250066795,1.5710533350000002,0.7861523500000005,0.039999977,0.0399999744,-9.80398357499997,-0.00040990875568026614,-0.0060616065500111406,0.003331386495007739,-0.009253447270018427,0.0021612826750050224
0.33,-1.5341234400569187e-05,-0.7846514199999994,2.616719579995619e-05,-2.356388320000001,0.00030924314000067306,1.5710554200000002,0.7861564000000005,0.039999977,0.0399999738,-9.80373839999997,-0.00039204196072899493,-0.006155104100011226,0.0033963428400077987,-0.009233660250899745,0.002203434100005061
0.3325,-2.0082117600573507e-05,-0.7846463049999994,2.5802304449955858e-05,-2.3563992550000012,0.0003148490975006781,1.5710575050000002,0.7861604500000006,0.039999977,0.039999973200000004,-9.80349322499997,-0.00037417516577772366,-0.006248601650011311,0.0034612991850078577,-0.00921387323178106,0.0022455855250050993
0.335,-2.524549210065506e-05,-0.7846412269999994,2.540477989994956e-05,-2.3564104600000015,0.0003209536000007744,1.5710598200000003,0.7861648400000005,0.039999977,0.039999973,-9.80331064999998,-0.0003517761826485038,-0.006345455080012009,0.0035294411700084994,-0.009190801624205628,0.0022897393300055037
0.3375,-3.0620112250659954e-05,-0.7846361674999994,2.4990938749949184e-05,-2.3564218000000015,0.00032730737500078015,1.5710622500000002,0.7861694000000006,0.039999977,0.039999973,-9.80315937499998,-0.00032711110543154635,-0.006443986450012098,0.0035991759750085626,-0.009166087722402716,0.0023348943250055447
0.34,-3.599473240066484e-05,-0.7846311079999994,2.4577097599948806e-05,-2.3564331400000014,0.00033366115000078595,1.5710646800000003,0.7861739600000006,0.039999977,0.039999973,-9.80300809999998,-0.0003024460282145889,-0.006542517820012189,0.0036689107800086263,-0.009141373820599803,0.002380049320005586
0.3425,-4.136935255066974e-05,-0.7846260484999994,2.416325644994843e-05,-2.3564444800000013,0.00034001492500079176,1.5710671100000004,0.7861785200000005,0.039999977,0.039999973,-9.802856824999981,-0.00027778095099763143,-0.006641049190012278,0.0037386455850086896,-0.00911665991879689,0.002425204315005627
0.34500000000000003,-4.674397270067463e-05,-0.7846209889999993,2.3749415299948056e-05,-2.3564558200000016,0.0003463687000007975,1.5710695400000003,0.7861830800000006,0.039999977,0.039999973,-9.802705549999981,-0.00025311587378067395,-0.006739580560012367,0.0038083803900087533,-0.009091946016993977,0.002470359310005668
0.34750000000000003,-5.211859285067952e-05,-0.7846159294999994,2.3335574149947677e-05,-2.3564671600000016,0.0003527224750008033,1.5710719700000004,0.7861876400000006,0.039999977,0.039999973,-9.80255427499998,-0.00022845079656371651,-0.006838111930012458,0.003878115195008817,-0.009067232115191066,0.002515514305005709
0.35000000000000003,-5.749321300077074e-05,-0.7846108699999993,2.292173299994063e-05,-2.356478500000002,0.0003590762500009109,1.5710744000000005,0.7861922000000007,0.039999977,0.039999973,-9.80240299999997,-0.0002037857193457682,-0.006936643300013687,0.003947850000009512,-0.00904251821338708,0.00256066930000615
0.3525,-6.354569005077611e-05,-0.7846058344999993,2.245551964994022e-05,-2.3564907550000016,0.0003662299165009173,1.5710771900000005,0.7861973375000006,0.0399999764,0.03999997255,-9.80216629999997,-0.00017133947694251243,-0.0070441234600137825,0.004022542305009578,-0.009009377844627416,0.0026089637650061927
0.355,-6.959816710078162e-05,-0.7846007989999993,2.1989306299939794e-05,-2.3565030100000017,0.0003733835830009238,1.5710799800000004,0.7862024750000006,0.0399999758,0.0399999721,-9.80192959999997,-0.00013889323453925592,-0.00715160362001388,0.004097234610009646,-0.008976237475867751,0.0026572582300062367
0.3575,-7.565064415078714e-05,-0.7845957634999994,2.152309294993937e-05,-2.356515265000002,0.00038053724950093035,1.5710827700000005,0.7862076125000007,0.0399999752,0.03999997165,-9.801692899999969,-0.00010644699213599943,-0.007259083780013978,0.004171926915009714,-0.008943097107108085,0.0027055526950062808
0.36,-8.170312120079265e-05,-0.7845907279999993,2.1056879599938943e-05,-2.3565275200000015,0.0003876909160009369,1.5710855600000004,0.7862127500000007,0.0399999746,0.039999971200000005,-9.801456199999969,-7.400074973274294e-05,-0.007366563940014076,0.004246619220009781,-0.00890995673834842,0.002753847160006325
0.3625,-8.775559825079815e-05,-0.7845856924999993,2.059066624993852e-05,-2.3565397750000017,0.00039484458250094336,1.5710883500000004,0.7862178875000007,0.039999974,0.03999997075,-9.801219499999968,-4.1554507329486434e-05,-0.007474044100014174,0.004321311525009849,-0.008876816369588755,0.002802141625006369
0.365,-9.380807530080367e-05,-0.7845806569999993,2.0124452899938095e-05,-2.356552030000002,0.0004019982490009499,1.5710911400000005,0.7862230250000007,0.0399999734,0.0399999703,-9.800982799999968,-9.108264926229956e-06,-0.0075815242600142715,0.0043960038300099175,-0.00884367600082909,0.002850436090006413
0.3675,-0.00010010124500090571,-0.7845756224999993,1.9639634799930208e-05,-2.356564660000002,0.0004094359250010703,1.5710940000000004,0.7862283725000008,0.03999997285,0.0399999698,-9.800767699999977,2.6154750963548325e-05,-0.007690639215015026,0.004472322665010638,-0.00880854036658477,0.002899780120006878
0.37,-0.00010687580000091188,-0.7845705899999993,1.9117607199929734e-05,-2.356578040000002,0.0004174416200010776,1.5710970000000004,0.7862341400000008,0.0399999724,0.0399999692,-9.800595799999977,6.705131382298858e-05,-0.007803023760015127,0.0045518945600107105,-0.008769414201373534,0.0029512232800069245
0.3725,-0.00011365035500091804,-0.7845655574999993,1.8595579599929257e-05,-2.3565914200000018,0.00042544731500108486,1.5711000000000004,0.7862399075000008,0.039999971950000004,0.0399999686,-9.800423899999977,0.00010794787668242886,-0.00791540830501523,0.004631466455010783,-0.008730288036162298,0.0030026664400069716
0.375,-0.00012042491000092421,-0.7845605249999993,1.8073551999928783e-05,-2.3566048000000017,0.00043345301000109217,1.5711030000000004,0.7862456750000009,0.0399999715,0.039999968,-9.800251999999976,0.00014884443954186913,-0.008027792850015333,0.004711038350010855,-0.008691161870951062,0.003054109600007018
0.3775,-0.00012719946500093038,-0.7845554924999993,1.755152439992831e-05,-2.3566181800000017,0.0004414587050010995,1.5711060000000003,0.7862514425000008,0.03999997105,0.0399999674,-9.800080099999976,0.0001897410024013094,-0.008140177395015434,0.004790610245010928,-0.008652035705739827,0.0031055527600070652
0.38,-0.00013397402000093654,-0.7845504599999993,1.702949679992783e-05,-2.3566315600000016,0.00044946440000110673,1.5711090000000003,0.7862572100000008,0.039999970600000004,0.0399999668,-9.799908199999976,0.00023063756526074967,-0.008252561940015536,0.004870182140011,-0.00861290954052859,0.003156995920007112
0.3825,-0.0001407485750009427,-0.7845454274999993,1.6507469199927358e-05,-2.3566449400000016,0.00045747009500111404,1.5711120000000005,0.7862629775000008,0.03999997015,0.0399999662,-9.799736299999976,0.00027153412812018995,-0.008364946485015639,0.004949754035011073,-0.008573783375317355,0.003208439080007159
0.385,-0.0001480339890010562,-0.7845403649999992,1.5945961199918586e-05,-2.356659080000002,0.00046607851400124796,1.5711153700000005,0.7862691800000009,0.039999969600000004,0.0399999654,-9.799571899999977,0.0003184391418541006,-0.008480164800016336,0.005032498650011812,-0.008531263563775766,0.0032619825600076467
0.3875,-0.00015557483250106308,-0.7845352874999992,1.5364712999918056e-05,-2.356673600000002,0.00047498829500125603,1.5711189250000006,0.786275600000001,0.039999969,0.0399999645,-9.799411249999977,0.000368348381023361,-0.008596800000016443,0.005116829625011888,-0.008487046929070065,0.0033165762000076965
0.39,-0.00016311567600106993,-0.7845302099999992,1.4783464799917529e-05,-2.356688120000002,0.00048389807600126417,1.5711224800000005,0.7862820200000009,0.0399999684,0.0399999636,-9.799250599999977,0.00041825762019262144,-0.008713435200016549,0.005201160600011965,-0.008442830294364366,0.0033711698400077463
0.3925,-0.0001706565195010768,-0.7845251324999992,1.4202216599916999e-05,-2.3567026400000017,0.0004928078570012723,1.5711260350000005,0.786288440000001,0.0399999678,0.0399999627,-9.799089949999976,0.00046816685936188184,-0.008830070400016654,0.005285491575012042,-0.008398613659658665,0.003425763480007796
0.395,-0.00017819736300108367,-0.7845200549999992,1.362096839991647e-05,-2.356717160000002,0.0005017176380012804,1.5711295900000006,0.7862948600000009,0.0399999672,0.0399999618,-9.798929299999976,0.0005180760985311422,-0.008946705600016761,0.005369822550012119,-0.008354397024952966,0.0034803571200078456
0.3975,-0.00018573820650109055,-0.7845149774999992,1.3039720199915942e-05,-2.356731680000002,0.0005106274190012885,1.5711331450000006,0.786301280000001,0.0399999666,0.0399999609,-9.798768649999976,0.0005679853377004027,-0.009063340800016867,0.005454153525012196,-0.008310180390247265,0.0035349507600078954
0.4,-0.00019327905000121533,-0.7845098999999992,1.2458471999906296e-05,-2.356746200000002,0.0005195372000014358,1.5711367000000005,0.786307700000001,0.039999966,0.03999996,-9.798607999999977,0.0006178945768707802,-0.00917997600001912,0.005538484500012983,-0.008265963755540695,0.0035895444000084023
0.4025,-0.00020163028650122293,-0.7845047489999992,1.181458469990571e-05,-2.3567618600000024,0.0005294030900014448,1.5711404500000006,0.786314810000001,0.0399999651,0.039999959700000004,-9.798445699999975,0.0006754796137185726,-0.00931136077501924,0.005627692875013064,-0.008215767610810795,0.003647280765008455
0.405,-0.00020998152300123055,-0.7844995979999992,1.1170697399905123e-05,-2.3567775200000023,0.0005392689800014537,1.5711442000000007,0.7863219200000011,0.0399999642,0.0399999594,-9.798283399999976,0.0007330646505663651,-0.009442745550019359,0.005716901250013145,-0.008165571466080894,0.0037050171300085076
0.40750000000000003,-0.00021833275950123814,-0.7844944469999993,1.0526810099904537e-05,-2.356793180000002,0.0005491348700014626,1.5711479500000005,0.7863290300000011,0.0399999633,0.0399999591,-9.798121099999976,0.0007906496874141574,-0.009574130325019478,0.005806109625013226,-0.008115375321350994,0.00376275349500856
0.41000000000000003,-0.00022668399600124576,-0.7844892959999992,9.882922799903951e-06,-2.3568088400000025,0.0005590007600014716,1.5711517000000006,0.7863361400000011,0.0399999624,0.0399999588,-9.797958799999975,0.0008482347242619499,-0.009705515100019598,0.005895318000013307,-0.008065179176621093,0.0038204898600086128
0.41250000000000003,-0.00023503523250125336,-0.7844841449999992,9.239035499903365e-06,-2.3568245000000023,0.0005688666500014806,1.5711554500000007,0.786343250000001,0.0399999615,0.0399999585,-9.797796499999976,0.0009058197611097423,-0.00983689987501972,0.005984526375013389,-0.008014983031891193,0.003878226225008665
0.41500000000000004,-0.00024338646900126095,-0.7844789939999992,8.59514819990278e-06,-2.356840160000002,0.0005787325400014896,1.5711592000000005,0.786350360000001,0.0399999606,0.039999958200000005,-9.797634199999974,0.0009634047979575346,-0.00996828465001984,0.00607373475001347,-0.00796478688716129,0.0039359625900087175
0.4175,-0.00025202248050139813,-0.7844738069999991,7.929243149892175e-06,-2.3568562300000027,0.0005889343915016515,1.5711630850000007,0.7863577050000011,0.039999959700000004,0.039999957600000004,-9.797468649999974,0.0010244196979431485,-0.010101071925020595,0.0061645671300142885,-0.007912867935365952,0.003994743855009245
0.42,-0.00026122804200140654,-0.7844685479999992,7.2193025998915296e-06,-2.3568731200000026,0.0005998081660016614,1.5711672400000005,0.7863655200000012,0.0399999588,0.0399999564,-9.797296599999973,0.0010922943241997304,-0.010236664200020718,0.0062586475200143744,-0.007857503369442081,0.0040556149200093
0.4225,-0.0002704336035014149,-0.7844632889999992,6.509362049890883e-06,-2.3568900100000025,0.0006106819405016713,1.5711713950000006,0.7863733350000012,0.0399999579,0.0399999552,-9.797124549999973,0.0011601689504563122,-0.010372256475020842,0.00635272791001446,-0.00780213880351821,0.004116485985009356
0.425,-0.00027963916500142326,-0.7844580299999991,5.799421499890237e-06,-2.3569069000000025,0.0006215557150016812,1.5711755500000006,0.7863811500000012,0.039999956999999996,0.039999954,-9.796952499999973,0.001228043576712894,-0.010507848750020964,0.006446808300014546,-0.007746774237594341,0.004177357050009411
0.4275,-0.0002888447265014316,-0.7844527709999991,5.089480949889591e-06,-2.356923790000003,0.0006324294895016911,1.5711797050000007,0.7863889650000012,0.0399999561,0.0399999528,-9.796780449999973,0.001295918202969476,-0.010643441025021088,0.006540888690014631,-0.00769140967167047,0.0042382281150094665
0.43,-0.00029805028800144003,-0.7844475119999992,4.379540399888944e-06,-2.356940680000003,0.000643303264001701,1.5711838600000005,0.7863967800000012,0.0399999552,0.0399999516,-9.796608399999974,0.0013637928292260576,-0.010779033300021211,0.006634969080014717,-0.007636045105746599,0.004299099180009522
0.4325,-0.0003072558495014484,-0.7844422529999991,3.669599849888298e-06,-2.3569575700000027,0.000654177038501711,1.5711880150000006,0.7864045950000011,0.039999954299999994,0.0399999504,-9.796436349999972,0.0014316674554826394,-0.010914625575021335,0.006729049470014803,-0.007580680539822729,0.004359970245009577
0.435,-0.0003170601310015989,-0.7844369139999992,2.9133762498766648e-06,-2.356975280000003,0.0006657571370018885,1.5711925500000008,0.7864129250000014,0.039999953299999995,0.039999949,-9.796268299999975,0.001507507171494392,-0.011059713000023712,0.006826369870015658,-0.007521674409499004,0.004423005340010147
0.4375,-0.0003271637725016081,-0.7844315349999992,2.1340111248759552e-06,-2.356993400000003,0.0006776903975018993,1.5711972750000007,0.7864215125000014,0.03999995225,0.0399999475,-9.796102249999974,0.0015873294323809047,-0.011209548000023849,0.006925310275015748,-0.0074608474969766435,0.004487122450010205
0.44,-0.0003372674140016173,-0.7844261559999991,1.3546459998752461e-06,-2.357011520000003,0.0006896236580019102,1.5712020000000007,0.7864301000000014,0.0399999512,0.039999946,-9.795936199999973,0.0016671516932674174,-0.011359383000023985,0.007024250680015838,-0.007400020584454283,0.004551239560010263
0.4425,-0.0003473710555016265,-0.7844207769999991,5.752808748745366e-07,-2.357029640000003,0.0007015569185019211,1.5712067250000008,0.7864386875000013,0.03999995015,0.039999944499999995,-9.795770149999974,0.00174697395415393,-0.011509218000024121,0.0071231910850159275,-0.007339193671931923,0.004615356670010322
0.445,-0.0003574746970016357,-0.7844153979999992,-2.0408425012617289e-07,-2.357047760000003,0.000713490179001932,1.5712114500000007,0.7864472750000013,0.0399999491,0.039999942999999996,-9.795604099999974,0.0018267962150404428,-0.011659053000024257,0.007222131490016018,-0.007278366759409563,0.00467947378001038
0.4475,-0.00036757833850164487,-0.7844100189999991,-9.834493751268824e-07,-2.357065880000003,0.0007254234395019428,1.5712161750000007,0.7864558625000013,0.03999994805,0.0399999415,-9.795438049999973,0.0019066184759269555,-0.011808888000024394,0.007321071895016107,-0.007217539846887202,0.004743590890010438
0.45,-0.0003776819800018082,-0.7844046399999991,-1.7628145001395057e-06,-2.357084000000003,0.0007373567000021355,1.5712209000000008,0.7864644500000015,0.039999947,0.03999994,-9.795271999999972,0.0019864407368148777,-0.011958723000026653,0.007420012300016978,-0.007156712934363796,0.0048077080000109825
0.4525,-0.00038872715050181826,-0.7843991049999991,-2.6149473701402816e-06,-2.3571035300000034,0.0007504005500021474,1.5712260150000008,0.7864738565000016,0.0399999464,0.0399999394,-9.795098449999973,0.002074872120298073,-0.012121531125026801,0.007523719855017073,-0.007089504320163376,0.004874792260011043
0.455,-0.0003997723210018283,-0.7843935699999991,-3.4670802401410574e-06,-2.3571230600000033,0.0007634444000021592,1.5712311300000008,0.7864832630000016,0.0399999458,0.039999938799999996,-9.794924899999971,0.0021633035037812685,-0.01228433925002695,0.007627427410017167,-0.007022295705962954,0.004941876520011105
0.4575,-0.0004108174915018384,-0.7843880349999991,-4.3192131101418335e-06,-2.357142590000003,0.0007764882500021711,1.5712362450000008,0.7864926695000015,0.039999945200000005,0.0399999382,-9.794751349999972,0.002251734887264464,-0.012447147375027098,0.007731134965017261,-0.006955087091762533,0.005008960780011166
0.46,-0.0004218626620018485,-0.7843824999999991,-5.1713459801426084e-06,-2.3571621200000035,0.000789532100002183,1.5712413600000008,0.7865020760000015,0.039999944600000004,0.0399999376,-9.79457779999997,0.0023401662707476594,-0.012609955500027246,0.007834842520017355,-0.006887878477562112,0.0050760450400112265
0.4625,-0.00043290783250185853,-0.7843769649999991,-6.023478850143385e-06,-2.3571816500000033,0.0008025759500021948,1.5712464750000008,0.7865114825000016,0.039999944,0.039999937,-9.794404249999971,0.002428597654230855,-0.012772763625027396,0.00793855007501745,-0.006820669863361691,0.005143129300011288
0.465,-0.0004439530030018686,-0.7843714299999991,-6.875611720144161e-06,-2.3572011800000032,0.0008156198000022067,1.5712515900000008,0.7865208890000016,0.0399999434,0.0399999364,-9.79423069999997,0.0025170290377140503,-0.012935571750027543,0.008042257630017544,-0.006753461249161269,0.005210213560011349
0.4675,-0.0004553263655020461,-0.784365827999999,-7.753121435157886e-06,-2.357221315000004,0.0008290507950024161,1.571256835000001,0.7865305720000018,0.039999943,0.039999936,-9.794062099999973,0.0026097540045329267,-0.013100505925028778,0.008147520300018432,-0.0066845512483145455,0.005278323080011933
0.47000000000000003,-0.00046735611200205703,-0.784360091999999,-8.68138484015873e-06,-2.357242660000004,0.0008432560800024291,1.571262340000001,0.7865408080000017,0.039999943,0.039999936,-9.793903399999973,0.002711066138016604,-0.01326969220002893,0.008255893200018532,-0.0066122384741778145,0.005348483120011997
0.47250000000000003,-0.00047938585850206797,-0.784354355999999,-9.609648245159575e-06,-2.3572640050000038,0.000857461365002442,1.571267845000001,0.7865510440000018,0.039999943,0.039999936,-9.793744699999973,0.0028123782715002814,-0.013438878475029085,0.00836426610001863,-0.0065399257000410835,0.005418643160012061
0.47500000000000003,-0.000491415605002079,-0.784348619999999,-1.053791165016042e-05,-2.3572853500000037,0.000871666650002455,1.571273350000001,0.7865612800000017,0.039999943,0.039999936,-9.793585999999973,0.0029136904049839583,-0.013608064750029238,0.008472639000018729,-0.006467612925904353,0.005488803200012125
0.47750000000000004,-0.0005034453515020898,-0.784342883999999,-1.1466175055161266e-05,-2.3573066950000037,0.0008858719350024679,1.571278855000001,0.7865715160000017,0.039999943,0.039999936,-9.793427299999971,0.0030150025384676356,-0.013777251025029393,0.008581011900018826,-0.006395300151767622,0.005558963240012189
0.48,-0.0005154750980021005,-0.784337147999999,-1.239443846016209e-05,-2.3573280400000036,0.0009000772200024805,1.571284360000001,0.7865817520000017,0.039999943,0.039999936,-9.793268599999971,0.003116314671951311,-0.013946437300029542,0.008689384800018924,-0.006322987377630893,0.005629123280012251
0.4825,-0.0005275048445021115,-0.784331411999999,-1.3322701865162935e-05,-2.3573493850000036,0.0009142825050024935,1.571289865000001,0.7865919880000017,0.039999943,0.039999936,-9.79310989999997,0.0032176268054349877,-0.014115623575029696,0.008797757700019022,-0.006250674603494162,0.005699283320012315
0.485,-0.0005402195000023038,-0.7843255299999989,-1.4303934600177799e-05,-2.3573716500000037,0.0009292956500027202,1.571295640000001,0.7866028000000019,0.039999943,0.039999936,-9.79298549999998,0.003326729964484807,-0.014295071200032566,0.008909309900019962,-0.006176330149160374,0.005771479000012918
0.4875,-0.0005532766100023156,-0.7843195749999989,-1.5311652000178717e-05,-2.357394375000004,0.0009447127250027342,1.571301550000001,0.7866139000000019,0.039999943,0.039999936,-9.79287824999998,0.0034397286363146147,-0.014479649500032735,0.009022451750020064,-0.00610096985472886,0.005844692500012984
0.49,-0.0005663337200023275,-0.7843136199999989,-1.6319369400179632e-05,-2.357417100000004,0.0009601298000027482,1.571307460000001,0.7866250000000019,0.039999943,0.039999936,-9.79277099999998,0.0035527273081444226,-0.014664227800032903,0.009135593600020168,-0.006025609560297346,0.005917906000013051
0.4925,-0.0005793908300023394,-0.7843076649999989,-1.732708680018055e-05,-2.357439825000004,0.0009755468750027623,1.571313370000001,0.786636100000002,0.039999943,0.039999936,-9.79266374999998,0.0036657259799742306,-0.014848806100033071,0.00924873545002027,-0.005950249265865833,0.005991119500013117
0.495,-0.0005924479400023513,-0.7843017099999989,-1.833480420018147e-05,-2.357462550000004,0.0009909639500027762,1.571319280000001,0.786647200000002,0.039999943,0.039999936,-9.79255649999998,0.0037787246518040385,-0.01503338440003324,0.009361877300020374,-0.005874888971434319,0.006064333000013184
0.4975,-0.0006055050500023632,-0.7842957549999989,-1.9342521600182383e-05,-2.357485275000004,0.0010063810250027904,1.5713251900000011,0.7866583000000019,0.039999943,0.039999936,-9.79244924999998,0.003891723323633846,-0.015217962700033408,0.009475019150020476,-0.005799528677002805,0.006137546500013251
0.5,-0.0006185621600025697,-0.7842897999999989,-2.035023900019835e-05,-2.3575080000000046,0.0010217981000030338,1.5713311000000012,0.7866694000000022,0.039999943,0.039999936,-9.79234199999997,0.0040047219954663215,-0.015402541000036414,0.009588161000021436,-0.005724168382570279,0.006210760000013867
0.5025000000000001,-0.0006326888510025828,-0.7842836094999989,-2.1440676600199368e-05,-2.3575324200000045,0.0010384768100030494,1.5713375800000013,0.7866814000000022,0.039999943,0.039999936,-9.79217264999997,0.004132387531013271,-0.015602728750036602,0.009706008800021546,-0.005643238592878038,0.0062869918000139375
0.505,-0.0006468155420025954,-0.7842774189999989,-2.2531114200200333e-05,-2.357556840000005,0.0010551555200030642,1.5713440600000013,0.7866934000000022,0.039999943,0.039999936,-9.792003299999969,0.0042600530665602146,-0.01580291650003678,0.009823856600021651,-0.005562308803185802,0.006363223600014005
0.5075000000000001,-0.0006609422330026086,-0.7842712284999989,-2.3621551800201353e-05,-2.357581260000005,0.0010718342300030798,1.5713505400000012,0.7867054000000022,0.039999943,0.039999936,-9.791833949999969,0.004387718602107163,-0.016003104250036967,0.009941704400021761,-0.005481379013493561,0.006439455400014077
0.51,-0.0006750689240026211,-0.7842650379999989,-2.471198940020232e-05,-2.3576056800000047,0.0010885129400030945,1.5713570200000013,0.7867174000000022,0.039999943,0.039999936,-9.791664599999969,0.004515384137654107,-0.016203292000037145,0.010059552200021867,-0.005400449223801325,0.006515687200014144
0.5125,-0.0006891956150026336,-0.7842588474999989,-2.5802427000203287e-05,-2.3576301000000046,0.0011051916500031094,1.5713635000000012,0.7867294000000022,0.039999943,0.039999936,-9.791495249999969,0.00464304967320105,-0.016403479750037323,0.010177400000021972,-0.005319519434109087,0.006591919000014212
0.515,-0.0007033223060026469,-0.7842526569999989,-2.6892864600204303e-05,-2.357654520000005,0.001121870360003125,1.5713699800000012,0.7867414000000023,0.039999943,0.039999936,-9.791325899999968,0.004770715208747999,-0.016603667500037507,0.01029524780002208,-0.005238589644416847,0.006668150800014283
0.5175,-0.0007178194820028513,-0.7842463784999989,-2.8011952550220115e-05,-2.357679510000005,0.0011389860300033661,1.5713766500000013,0.7867537225000024,0.039999943200000006,0.0399999362,-9.791163449999972,0.004901630524571552,-0.01680888280004028,0.010414657600022928,-0.005156042799337489,0.006745377800014823
0.52,-0.0007330576280028136,-0.7842399239999989,-2.91883412002172e-05,-2.357705640000005,0.0011569756200033214,1.5713837000000013,0.7867666900000024,0.0399999438,0.0399999368,-9.791014799999973,0.005039045400942831,-0.01702415320003975,0.010537191400022624,-0.005070261843486622,0.0068245952000146265
0.5225,-0.000748295774002775,-0.7842334694999988,-3.0364729850214234e-05,-2.357731770000005,0.001174965210003276,1.5713907500000013,0.7867796575000023,0.0399999444,0.0399999374,-9.790866149999973,0.005176460277314105,-0.017239423600039206,0.010659725200022315,-0.004984480887635758,0.006903812600014427
0.525,-0.0007635339200027372,-0.7842270149999989,-3.154111850021132e-05,-2.357757900000005,0.0011929548000032316,1.5713978000000013,0.7867926250000024,0.039999945,0.039999938,-9.790717499999973,0.005313875153685384,-0.01745469400003867,0.010782259000022013,-0.004898699931784891,0.00698303000001423
0.5275,-0.0007787720660026988,-0.7842205604999989,-3.271750715020835e-05,-2.357784030000005,0.0012109443900031863,1.5714048500000013,0.7868055925000023,0.0399999456,0.0399999386,-9.790568849999975,0.005451290030056658,-0.017669964400038127,0.010904792800021703,-0.004812918975934027,0.00706224740001403
0.53,-0.000794010212002661,-0.7842141059999989,-3.389389580020544e-05,-2.3578101600000045,0.0012289339800031415,1.571411900000001,0.7868185600000023,0.039999946200000004,0.0399999392,-9.790420199999975,0.005588704906427937,-0.017885234800037595,0.0110273266000214,-0.00472713802008316,0.007141464800013834
0.5325,-0.0008092483580026226,-0.7842076514999989,-3.507028445020247e-05,-2.3578362900000047,0.0012469235700030962,1.571418950000001,0.7868315275000023,0.0399999468,0.039999939799999995,-9.790271549999975,0.00572611978279921,-0.018100505200037052,0.01114986040002109,-0.004641357064232296,0.007220682200013634
0.535,-0.0008252549760028549,-0.7842010049999988,-3.6306114600220434e-05,-2.357863670000005,0.0012658195500033704,1.5714263600000011,0.7868451480000024,0.039999947,0.03999994,-9.790125599999975,0.005873401416492073,-0.018327177700040477,0.01127536290002212,-0.004552371567099341,0.0073018668000143115
0.5375,-0.0008416458300029255,-0.7841942624999988,-3.7571665500225874e-05,-2.357891675000005,0.0012851687250034535,1.5714339500000012,0.7868590950000025,0.039999947,0.03999994,-9.789980999999974,0.006025616428841917,-0.018559551250041474,0.011402349750022665,-0.004461783799326582,0.007384035000014665
0.54,-0.0008580366840029967,-0.7841875199999987,-3.8837216400231374e-05,-2.3579196800000055,0.0013045179000035375,1.5714415400000012,0.7868730420000025,0.039999947,0.03999994,-9.789836399999974,0.006177831441191768,-0.018791924800042485,0.011529336600023216,-0.0043711960315538185,0.007466203200015022
0.5425,-0.0008744275380030671,-0.7841807774999987,-4.010276730023681e-05,-2.3579476850000054,0.0013238670750036206,1.5714491300000013,0.7868869890000026,0.039999947,0.03999994,-9.789691799999973,0.006330046453541613,-0.019024298350043482,0.011656323450023763,-0.004280608263781059,0.007548371400015375
0.545,-0.0008908183920031383,-0.7841740349999987,-4.136831820024231e-05,-2.3579756900000057,0.0013432162500037047,1.5714567200000014,0.7869009360000027,0.039999947,0.03999994,-9.789547199999973,0.006482261465891464,-0.019256671900044493,0.011783310300024314,-0.004190020496008295,0.007630539600015732
0.5475,-0.0009072092460032088,-0.7841672924999986,-4.263386910024775e-05,-2.3580036950000056,0.0013625654250037878,1.5714643100000014,0.7869148830000028,0.039999947,0.03999994,-9.789402599999972,0.006634476478241308,-0.01948904545004549,0.011910297150024859,-0.004099432728235536,0.0077127078000160856
0.55,-0.0009236001000035188,-0.7841605499999985,-4.3899420000271725e-05,-2.358031700000006,0.0013819146000041535,1.5714719000000015,0.786928830000003,0.039999947,0.03999994,-9.789257999999974,0.006786691490594121,-0.01972141900004932,0.012037284000026321,-0.004008844960461893,0.0077948760000170255
0.5525,-0.0009411843750035344,-0.7841534924999986,-4.525729050027293e-05,-2.358061505000006,0.001402671360004172,1.5714800450000015,0.786943780500003,0.039999947450000004,0.03999994045,-9.789125849999973,0.006953706429373444,-0.019967875450049535,0.012168819450026439,-0.003913861827440069,0.0078799584000171
0.555,-0.0009587686500035508,-0.7841464349999986,-4.6615161000274195e-05,-2.358091310000006,0.0014234281200041913,1.5714881900000017,0.786958731000003,0.0399999479,0.0399999409,-9.788993699999974,0.007120721368152775,-0.020214331900049766,0.012300354900026561,-0.0038188786944182403,0.00796504080001718
0.5575,-0.0009763529250035664,-0.7841393774999985,-4.79730315002754e-05,-2.358121115000006,0.0014441848800042097,1.5714963350000017,0.786973681500003,0.03999994835,0.03999994135,-9.788861549999973,0.007287736306932098,-0.020460788350049986,0.012431890350026679,-0.003723895561396416,0.008050123200017256
0.56,-0.0009939372000035828,-0.7841323199999986,-4.9330902000276666e-05,-2.358150920000006,0.001464941640004229,1.5715044800000018,0.786988632000003,0.0399999488,0.0399999418,-9.788729399999973,0.007454751245711429,-0.020707244800050217,0.012563425800026801,-0.0036289124283745873,0.008135205600017336
0.5625,-0.0010115214750035983,-0.7841252624999986,-5.068877250027787e-05,-2.358180725000006,0.0014856984000042475,1.5715126250000018,0.7870035825000031,0.03999994925,0.039999942250000003,-9.788597249999974,0.007621766184490753,-0.020953701250050433,0.012694961250026917,-0.003533929295352763,0.00822028800001741
0.5650000000000001,-0.0010291057500036148,-0.7841182049999985,-5.2046643000279136e-05,-2.3582105300000062,0.001506455160004267,1.5715207700000018,0.7870185330000031,0.0399999497,0.039999942700000006,-9.788465099999973,0.007788781123270083,-0.021200157700050664,0.01282649670002704,-0.0034389461623309343,0.00830537040001749
0.5675,-0.001047101245003885,-0.7841110399999985,-5.343631850030004e-05,-2.3582410200000066,0.0015276969250045858,1.5715290950000018,0.7870338350000033,0.0399999502,0.039999943200000006,-9.78832754999997,0.007960482081435679,-0.021451649700054,0.012959539675028092,-0.003342417278306463,0.008391410600018159
0.5700000000000001,-0.0010659191800039026,-0.7841036599999985,-5.4889604000301396e-05,-2.3582728800000066,0.0015499087000046066,1.5715377800000019,0.7870498400000033,0.039999950799999996,0.0399999438,-9.78817919999997,0.008141555078365134,-0.021713212800054248,0.013095597700028218,-0.0032427968922795597,0.008479366400018241
0.5725,-0.0010847371150039193,-0.7840962799999985,-5.634288950030269e-05,-2.3583047400000066,0.0015721204750046263,1.571546465000002,0.7870658450000033,0.0399999514,0.0399999444,-9.78803084999997,0.008322628075294578,-0.021974775900054477,0.013231655725028338,-0.0031431765062526614,0.008567322200018318
0.5750000000000001,-0.001103555050003937,-0.7840888999999985,-5.779617500030404e-05,-2.358336600000007,0.001594332250004647,1.5715551500000018,0.7870818500000034,0.039999952,0.039999945,-9.78788249999997,0.008503701072224033,-0.02223633900005472,0.013367713750028465,-0.0030435561202257584,0.0086552780000184
0.5775,-0.0011223729850039536,-0.7840815199999985,-5.9249460500305336e-05,-2.358368460000007,0.0016165440250046667,1.5715638350000019,0.7870978550000034,0.0399999526,0.0399999456,-9.787734149999968,0.008684774069153477,-0.022497902100054954,0.013503771775028586,-0.0029439357341988596,0.00874323380001848
0.58,-0.0011411909200039704,-0.7840741399999985,-6.070274600030663e-05,-2.358400320000007,0.0016387558000046864,1.5715725200000017,0.7871138600000034,0.0399999532,0.039999946200000004,-9.787585799999968,0.008865847066082923,-0.022759465200055187,0.013639829800028706,-0.0028443153481719614,0.008831189600018557
0.5825,-0.0011600088550039879,-0.7840667599999985,-6.215603150030798e-05,-2.358432180000007,0.0016609675750047072,1.5715812050000018,0.7871298650000035,0.039999953799999995,0.0399999468,-9.787437449999969,0.009046920063012377,-0.02302102830005543,0.013775887825028834,-0.0027446949621450587,0.00891914540001864
0.585,-0.0011796755700042756,-0.7840591259999984,-6.367498500033023e-05,-2.358465400000007,0.0016841804700050463,1.571590280000002,0.7871465900000036,0.039999954399999996,0.039999947,-9.787311899999976,0.009238721989137078,-0.023295446900059767,0.013914884850029893,-0.0026427211239713685,0.009009076300019347
0.5875,-0.0011997666750042943,-0.7840513649999984,-6.522677250033168e-05,-2.358499300000007,0.0017078939250050685,1.571599550000002,0.7871636750000037,0.039999955,0.039999947,-9.787197749999976,0.009435888379854292,-0.02357629325006003,0.014055351375030023,-0.0025395705597254024,0.009099994750019432
0.59,-0.0012198577800043122,-0.7840436039999984,-6.677856000033306e-05,-2.358533200000007,0.0017316073800050897,1.571608820000002,0.7871807600000037,0.0399999556,0.039999947,-9.787083599999976,0.009633054770571498,-0.02385713960006028,0.014195817900030149,-0.002436419995479441,0.009190913200019513
0.5925,-0.001239948885004331,-0.7840358429999983,-6.83303475003345e-05,-2.3585671000000072,0.0017553208350051118,1.571618090000002,0.7871978450000037,0.0399999562,0.039999947,-9.786969449999974,0.009830221161288712,-0.02413798595006054,0.01433628442503028,-0.002333269431233475,0.009281831650019598
0.595,-0.0012600399900043488,-0.7840280819999983,-6.988213500033588e-05,-2.3586010000000073,0.0017790342900051328,1.571627360000002,0.7872149300000038,0.0399999568,0.039999947,-9.786855299999974,0.010027387552005917,-0.02441883230006079,0.014476750950030403,-0.002230118866987513,0.00937275010001968
0.5975,-0.0012801310950043675,-0.7840203209999983,-7.143392250033733e-05,-2.3586349000000073,0.001802747745005155,1.571636630000002,0.7872320150000037,0.0399999574,0.039999947,-9.786741149999974,0.01022455394272313,-0.02469967865006105,0.014617217475030534,-0.002126968302741547,0.009463668550019764
0.6,-0.0013002222000046716,-0.7840125599999982,-7.298571000036087e-05,-2.358668800000008,0.0018264612000055136,1.5716459000000023,0.787249100000004,0.039999958,0.039999947,-9.786626999999973,0.010421720333443333,-0.024980525000065708,0.014757684000031598,-0.0020238177384947274,0.009554587000020426
0.6025,-0.0013216255500046916,-0.7840044509999982,-7.46389890003624e-05,-2.358704740000008,0.0018517220550055373,1.5716557700000022,0.787267310000004,0.0399999583,0.039999947450000004,-9.786501299999971,0.010632618097634564,-0.025281566000065987,0.014902447800031733,-0.0019167352758578625,0.009648166450020514
0.605,-0.0013430289000047107,-0.7839963419999982,-7.629226800036387e-05,-2.358740680000008,0.0018769829100055598,1.5716656400000022,0.7872855200000041,0.0399999586,0.0399999479,-9.786375599999971,0.010843515861825788,-0.025582607000066256,0.015047211600031862,-0.0018096528132210024,0.009741745900020596
0.6075,-0.0013644322500047305,-0.7839882329999982,-7.794554700036541e-05,-2.3587766200000075,0.0019022437650055833,1.5716755100000022,0.7873037300000041,0.0399999589,0.03999994835,-9.786249899999971,0.011054413626017019,-0.025883648000066536,0.015191975400031997,-0.0017025703505841373,0.009835325350020683
0.61,-0.0013858356000047496,-0.7839801239999982,-7.959882600036688e-05,-2.3588125600000076,0.0019275046200056057,1.5716853800000021,0.787321940000004,0.039999959200000004,0.0399999488,-9.786124199999971,0.01126531139020824,-0.026184689000066805,0.015336739200032125,-0.0015954878879472774,0.009928904800020767
0.6125,-0.0014072389500047696,-0.7839720149999981,-8.125210500036843e-05,-2.3588485000000077,0.0019527654750056292,1.5716952500000023,0.787340150000004,0.0399999595,0.03999994925,-9.785998499999971,0.011476209154399473,-0.026485730000067084,0.01548150300003226,-0.0014884054253104123,0.010022484250020855
0.615,-0.0014286423000047885,-0.7839639059999982,-8.290538400036989e-05,-2.3588844400000077,0.0019780263300056516,1.5717051200000023,0.787358360000004,0.0399999598,0.0399999497,-9.785872799999972,0.011687106918590696,-0.02678677100006735,0.015626266800032387,-0.0013813229626735524,0.010116063700020937
0.6175,-0.0014504958100051118,-0.7839556774999981,-8.45934865003949e-05,-2.3589210750000085,0.002003818085006033,1.5717152050000025,0.7873769450000043,0.03999996,0.03999995,-9.785742599999969,0.01190392202702825,-0.02709330980007134,0.015772452000033483,-0.0012727728608045831,0.01021055775002164
0.62,-0.001473249640005132,-0.7839472099999981,-8.635123600039646e-05,-2.3589591000000083,0.002030671640006057,1.5717257200000023,0.7873962800000043,0.03999996,0.03999995,-9.785603399999967,0.012132571823946493,-0.02741084420007162,0.015921480000033614,-0.001161287480474374,0.010306881000021726
0.6225,-0.0014960034700051534,-0.7839387424999981,-8.81089855003981e-05,-2.3589971250000086,0.0020575251950060817,1.5717362350000024,0.7874156150000043,0.03999996,0.03999995,-9.785464199999968,0.012361221620864747,-0.027728378600071917,0.01607050800003375,-0.0010498021001441602,0.010403204250021817
0.625,-0.0015187573000051736,-0.7839302749999981,-8.986673500039966e-05,-2.3590351500000084,0.002084378750006106,1.5717467500000024,0.7874349500000044,0.03999996,0.03999995,-9.785324999999968,0.01258987141778299,-0.028045913000072198,0.016219536000033886,-0.0009383167198139511,0.010499527500021902
0.6275000000000001,-0.0015415111300051947,-0.7839218074999981,-9.162448450040131e-05,-2.3590731750000087,0.002111232305006131,1.5717572650000025,0.7874542850000044,0.03999996,0.03999995,-9.785185799999967,0.012818521214701242,-0.028363447400072492,0.016368564000034024,-0.0008268313394837372,0.010595850750021991
0.63,-0.001564264960005215,-0.7839133399999981,-9.338223400040287e-05,-2.359111200000009,0.002138085860006155,1.5717677800000023,0.7874736200000044,0.03999996,0.03999995,-9.785046599999967,0.013047171011619486,-0.028680981800072777,0.016517592000034154,-0.0007153459591535281,0.010692174000022077
0.6325000000000001,-0.001587018790005236,-0.7839048724999981,-9.513998350040451e-05,-2.359149225000009,0.00216493941500618,1.5717782950000023,0.7874929550000044,0.03999996,0.03999995,-9.784907399999968,0.01327582080853774,-0.02899851620007307,0.016666620000034296,-0.0006038605788233142,0.010788497250022167
0.635,-0.001610697980005577,-0.783896100999998,-9.696932000043088e-05,-2.3591887400000093,0.0021928843900065817,1.5717892800000024,0.7875130900000047,0.0399999606,0.0399999504,-9.78477619999997,0.013516067434159111,-0.029327884600077455,0.016818527800035423,-0.000489480199731202,0.010886616500022876
0.6375000000000001,-0.0016348398500055997,-0.7838871774999979,-9.883445000043261e-05,-2.3592290000000093,0.0022213750750066084,1.5718005000000026,0.7875336250000047,0.0399999615,0.039999951,-9.78464899999997,0.013762112474126046,-0.029663170000077767,0.016971875500035566,-0.00037365232125963395,0.010985633750022967
0.64,-0.001658981720005621,-0.7838782539999979,-0.00010069958000043427,-2.3592692600000094,0.0022498657600066338,1.5718117200000026,0.7875541600000048,0.0399999624,0.0399999516,-9.78452179999997,0.014008157514092968,-0.029998455400078065,0.017125223200035705,-0.00025782444278807105,0.011084651000023055
0.6425,-0.0016831235900056426,-0.7838693304999979,-0.00010256471000043593,-2.3593095200000094,0.0022783564450066587,1.5718229400000026,0.7875746950000048,0.0399999633,0.0399999522,-9.78439459999997,0.014254202554059892,-0.030333740800078363,0.01727857090003584,-0.00014199656431650816,0.011183668250023144
0.645,-0.001707265460005665,-0.7838604069999979,-0.00010442984000043767,-2.3593497800000094,0.0023068471300066854,1.5718341600000025,0.7875952300000048,0.0399999642,0.039999952799999995,-9.784267399999969,0.014500247594026825,-0.030669026200078674,0.017431918600035984,-2.616868584494011e-05,0.011282685500023235
0.6475,-0.0017314073300056865,-0.7838514834999979,-0.00010629497000043933,-2.3593900400000094,0.002335337815006711,1.5718453800000027,0.7876157650000047,0.0399999651,0.039999953399999996,-9.78414019999997,0.01474629263399375,-0.031004311600078972,0.01758526630003612,8.965919262662273e-05,0.011381702750023323
0.65,-0.001755549200006046,-0.7838425599999977,-0.00010816010000046713,-2.3594303000000103,0.0023638285000071348,1.571856600000003,0.7876363000000051,0.039999966,0.039999954,-9.78401299999997,0.014992337673963801,-0.03133959700008575,0.017738614000037237,0.0002054870710991355,0.011480720000024041
0.6525,-0.0017811161000060687,-0.7838332659999978,-0.00011013547400046888,-2.3594729600000104,0.0023939998600071614,1.5718684650000028,0.7876580200000051,0.03999996705,0.039999954899999995,-9.78388624999997,0.01525156339636636,-0.03170221705008607,0.017896078750037375,0.00032531026229776195,0.011582388500024132
0.655,-0.0018066830000060925,-0.7838239719999978,-0.00011211084800047073,-2.35951562000001,0.0024241712200071897,1.5718803300000028,0.7876797400000052,0.0399999681,0.0399999558,-9.78375949999997,0.015510789118768933,-0.03206483710008641,0.018053543500037524,0.00044513345349639366,0.011684057000024228
0.6575,-0.0018322499000061152,-0.7838146779999978,-0.00011408622200047248,-2.35955828000001,0.0024543425800072167,1.5718921950000029,0.7877014600000052,0.03999996915,0.0399999567,-9.783632749999969,0.015770014841171492,-0.032427457150086735,0.018211008250037665,0.0005649566446950201,0.011785725500024317
0.66,-0.0018578168000061392,-0.7838053839999978,-0.00011606159600047433,-2.35960094000001,0.0024845139400072446,1.571904060000003,0.7877231800000052,0.0399999702,0.0399999576,-9.783505999999969,0.016029240563574066,-0.03279007720008707,0.01836847300003781,0.0006847798358936518,0.011887394000024414
0.6625,-0.0018833837000061617,-0.7837960899999978,-0.00011803697000047608,-2.3596436000000103,0.0025146853000072716,1.571915925000003,0.7877449000000052,0.03999997125,0.0399999585,-9.78337924999997,0.016288466285976626,-0.0331526972500874,0.01852593775003795,0.0008046030270922783,0.011989062500024503
0.665,-0.0019089506000061858,-0.7837867959999978,-0.00012001234400047791,-2.3596862600000104,0.0025448566600072995,1.5719277900000028,0.7877666200000053,0.0399999723,0.0399999594,-9.78325249999997,0.0165476920083792,-0.033515317300087735,0.0186834025000381,0.00092442621829091,0.012090731000024599
0.6675,-0.0019350045650065632,-0.7837773384999976,-0.00012202540300050712,-2.359729715000011,0.002575602425007745,1.5719398650000032,0.7877887630000056,0.039999973200000004,0.0399999603,-9.783133649999975,0.016813493240692364,-0.033881474300090635,0.01884225665003925,0.0010452886112332633,0.01219326700002532
0.67,-0.0019620326600065883,-0.7837675539999976,-0.00012411383200050907,-2.359774760000011,0.0026074970000077745,1.5719523600000032,0.7878117520000056,0.0399999738,0.0399999612,-9.783030599999975,0.0170924454928124,-0.03425470520009098,0.0190038896000394,0.0011682294076608081,0.012297538000025417
0.6725,-0.0019890607550066123,-0.7837577694999976,-0.00012620226100051093,-2.359819805000011,0.002639391575007803,1.5719648550000032,0.7878347410000056,0.0399999744,0.0399999621,-9.782927549999975,0.01737139774493242,-0.034627936100091315,0.019165522550039542,0.0012911702040883473,0.01240180900002551
0.675,-0.0020160888500066376,-0.7837479849999976,-0.00012829069000051287,-2.3598648500000112,0.0026712861500078327,1.5719773500000032,0.7878577300000056,0.039999975,0.039999963,-9.782824499999975,0.017650349997052457,-0.03500116700009166,0.019327155500039696,0.001414111000515892,0.012506080000025607
0.6775,-0.0020431169450066617,-0.7837382004999977,-0.00013037911900051473,-2.359909895000011,0.002703180725007861,1.5719898450000032,0.7878807190000057,0.0399999756,0.0399999639,-9.782721449999976,0.01792930224917248,-0.035374397900091996,0.01948878845003984,0.0015370517969434312,0.012610351000025699
0.68,-0.002070145040006687,-0.7837284159999977,-0.00013246754800051667,-2.3599549400000113,0.002735075300007891,1.5720023400000032,0.7879037080000056,0.0399999762,0.039999964799999996,-9.782618399999976,0.018208254501292515,-0.03574762880009234,0.01965042140003999,0.0016599925933709757,0.012714622000025797
0.6825,-0.002097173135006711,-0.7837186314999975,-0.00013455597700051853,-2.3599999850000115,0.002766969875007919,1.5720148350000032,0.7879266970000056,0.039999976799999996,0.0399999657,-9.782515349999976,0.018487206753412536,-0.03612085970009267,0.01981205435004013,0.001782933389798515,0.012818893000025889
0.685,-0.002125199040007109,-0.7837085629999975,-0.00013672160900054934,-2.360046580000012,0.002800041310008389,1.5720277800000033,0.787950534000006,0.039999977299999996,0.039999966,-9.782403399999971,0.018778704479410883,-0.03651395150010044,0.01997627810004125,0.0019081389881053863,0.012924951600026654
0.6875,-0.0021537238500071343,-0.7836983524999974,-0.0001389258425005513,-2.360093950000012,0.0028337011750084184,1.5720409500000034,0.787974795000006,0.03999997775,0.039999966,-9.782286999999972,0.01907647494234135,-0.0369169737501008,0.020141797250041397,0.0020344769873506486,0.01303190400002675
0.6900000000000001,-0.002182248660007161,-0.7836881419999975,-0.00014113007600055337,-2.360141320000012,0.0028673610400084502,1.5720541200000033,0.7879990560000061,0.0399999782,0.039999966,-9.782170599999972,0.019374245405271835,-0.03731999600010118,0.02030731640004155,0.002160814986595916,0.01313885640002685
0.6925,-0.0022107734700071865,-0.7836779314999974,-0.00014333430950055532,-2.3601886900000117,0.00290102090500848,1.5720672900000034,0.788023317000006,0.03999997865,0.039999966,-9.78205419999997,0.019672015868202303,-0.037723018250101534,0.020472835550041698,0.0022871529858411784,0.013245808800026944
0.6950000000000001,-0.002239298280007213,-0.7836677209999975,-0.00014553854300055737,-2.360236060000012,0.0029346807700085112,1.5720804600000033,0.7880475780000061,0.0399999791,0.039999966,-9.781937799999971,0.019969786331132788,-0.03812604050010191,0.020638354700041852,0.0024134909850864463,0.013352761200027045
0.6975,-0.002267823090007238,-0.7836575104999974,-0.00014774277650055932,-2.360283430000012,0.0029683406350085413,1.5720936300000035,0.7880718390000061,0.039999979549999995,0.039999966,-9.781821399999972,0.020267556794063255,-0.03852906275010227,0.020803873850042,0.0025398289843317086,0.013459713600027139
0.7000000000000001,-0.002296347900007655,-0.7836472999999973,-0.00014994701000059157,-2.3603308000000127,0.0030020005000090328,1.5721068000000036,0.7880961000000065,0.03999998,0.039999966,-9.78170499999997,0.020565327256997834,-0.038932085000106906,0.020969393000043177,0.0026661669835779155,0.013566666000027844
0.7025,-0.0023264043150075793,-0.7836365974999974,-0.0001522697465005857,-2.3603806600000126,0.0030374664250089434,1.5721206750000036,0.7881216450000064,0.0399999806,0.0399999666,-9.781586499999971,0.02087917197503607,-0.03935185130010585,0.021138930350042752,0.0027961921994901925,0.013675991100027568
0.705,-0.0023564607300075036,-0.7836258949999974,-0.00015459248300057985,-2.3604305200000124,0.003072932350008854,1.5721345500000035,0.7881471900000063,0.0399999812,0.0399999672,-9.78146799999997,0.02119301669307431,-0.03977161760010479,0.021308467700042324,0.0029262174154024694,0.013785316200027292
0.7075,-0.0023865171450074287,-0.7836151924999973,-0.0001569152195005741,-2.3604803800000123,0.003108398275008766,1.5721484250000035,0.7881727350000063,0.0399999818,0.0399999678,-9.78134949999997,0.02150686141111256,-0.04019138390010375,0.021478005050041903,0.0030562426313147525,0.01389464130002702
0.71,-0.002416573560007353,-0.7836044899999974,-0.00015923795600056824,-2.360530240000012,0.0031438642000086764,1.5721623000000033,0.7881982800000062,0.0399999824,0.0399999684,-9.781230999999972,0.0218207061291508,-0.04061115020010269,0.021647542400041474,0.0031862678472270294,0.014003966400026744
0.7125,-0.0024466299750072786,-0.7835937874999974,-0.00016156069250056247,-2.360580100000012,0.0031793301250085883,1.5721761750000034,0.7882238250000062,0.039999983,0.039999969,-9.781112499999972,0.02213455084718905,-0.041030916500101655,0.021817079750041053,0.003316293063139312,0.014113291500026473
0.715,-0.002476686390007203,-0.7835830849999974,-0.00016388342900055663,-2.360629960000012,0.003214796050008499,1.5721900500000034,0.7882493700000062,0.039999983600000004,0.039999969600000004,-9.780993999999971,0.022448395565227288,-0.04145068280010059,0.02198661710004063,0.0034463182790515894,0.014222616600026198
0.7175,-0.0025072646750075715,-0.7835722174999974,-0.00016624654000058515,-2.3606806500000124,0.003250877430008934,1.5722041900000037,0.7882753650000065,0.0399999843,0.039999970350000004,-9.780878249999974,0.022768740914841743,-0.04187927665010685,0.022157441850041516,0.0035774317453933896,0.014332758100026762
0.72,-0.0025388867000077074,-0.7835610199999973,-0.00016869040000059565,-2.3607330000000126,0.0032881897200090944,1.5722188600000035,0.7883022600000066,0.039999985200000004,0.0399999714,-9.780767999999973,0.023102087527594666,-0.04232552560010877,0.022330841400042264,0.0037107217125918876,0.014444532400027242
0.7225,-0.0025705087250078446,-0.7835498224999973,-0.00017113426000060625,-2.360785350000013,0.0033255020100092566,1.5722335300000037,0.7883291550000067,0.0399999861,0.039999972450000004,-9.780657749999973,0.023435434140347603,-0.042771774550110706,0.022504240950043015,0.0038440116797903916,0.014556306700027728
0.725,-0.002602130750007981,-0.7835386249999972,-0.00017357812000061675,-2.360837700000013,0.003362814300009417,1.5722482000000038,0.7883560500000069,0.039999987,0.0399999735,-9.780547499999972,0.023768780753100526,-0.043218023500112626,0.022677640500043762,0.0039773016469888895,0.014668081000028208
0.7275,-0.002633752775008118,-0.7835274274999972,-0.0001760219800006274,-2.3608900500000134,0.003400126590009579,1.5722628700000036,0.7883829450000069,0.0399999879,0.03999997455,-9.780437249999972,0.024102127365853467,-0.04366427245011456,0.022851040050044517,0.004110591614187393,0.014779855300028694
0.73,-0.002665374800008254,-0.783516229999997,-0.0001784658400006379,-2.3609424000000137,0.0034374388800097392,1.5722775400000037,0.788409840000007,0.0399999888,0.0399999756,-9.780326999999971,0.02443547397860639,-0.04411052140011648,0.02302443960004526,0.004243881581385891,0.014891629600029176
0.7325,-0.002696996825008391,-0.783505032499997,-0.0001809097000006485,-2.3609947500000135,0.0034747511700099014,1.5722922100000039,0.7884367350000072,0.0399999897,0.03999997665,-9.78021674999997,0.024768820591359327,-0.044556770350118416,0.023197839150046015,0.004377171548584395,0.01500340390002966
0.735,-0.002729684820008883,-0.7834934899999968,-0.00018343603700068651,-2.3610488500000146,0.0035133205800104814,1.572307350000004,0.7884645360000075,0.0399999905,0.039999977299999996,-9.78010559999997,0.025114795751963827,-0.04501906100012575,0.023373736500047367,0.00451292903166196,0.015116774500030527
0.7375,-0.0027629058000089137,-0.7834817749999968,-0.0001860036125006889,-2.3611038250000145,0.0035525185500105178,1.572322725000004,0.7884927900000076,0.03999999125,0.03999997775,-9.77999399999997,0.02546708518648655,-0.04548937250012619,0.023550882750047533,0.004649920272677583,0.015230943250030634
0.74,-0.002796126780008943,-0.7834700599999969,-0.0001885711880006912,-2.3611588000000148,0.0035917165200105524,1.572338100000004,0.7885210440000077,0.039999992,0.0399999782,-9.77988239999997,0.025819374621009257,-0.04595968400012661,0.02372802900004769,0.0047869115136931996,0.015345112000030735
0.7425,-0.0028293477600089744,-0.7834583449999968,-0.0001911387635006936,-2.3612137750000146,0.003630914490010589,1.572353475000004,0.7885492980000076,0.039999992750000005,0.03999997865,-9.77977079999997,0.026171664055531983,-0.046429995500127046,0.023905175250047855,0.004923902754708822,0.015459280750030842
0.745,-0.002862568740009004,-0.7834466299999968,-0.00019370633900069587,-2.361268750000015,0.003670112460010624,1.5723688500000041,0.7885775520000077,0.039999993500000004,0.0399999791,-9.77965919999997,0.02652395349005469,-0.04690030700012746,0.02408232150004801,0.005060893995724439,0.015573449500030943
0.7475,-0.0028957897200090348,-0.7834349149999968,-0.00019627391450069827,-2.3613237250000148,0.0037093104300106603,1.5723842250000042,0.7886058060000077,0.039999994250000004,0.039999979549999995,-9.77954759999997,0.026876242924577413,-0.0473706185001279,0.024259467750048176,0.005197885236740062,0.015687618250031052
0.75,-0.0029290107000095092,-0.7834231999999967,-0.000198841490000735,-2.3613787000000155,0.00374850840001122,1.5723996000000044,0.7886340600000081,0.039999995,0.03999998,-9.779435999999976,0.027228532359106224,-0.047840930000135194,0.024436614000049366,0.005334876477756475,0.01580178700003183
0.7525000000000001,-0.002963862945009542,-0.7834109854999967,-0.0002015352935007375,-2.3614362400000157,0.0037896303300112583,1.5724156800000044,0.7886636805000081,0.039999995,0.039999979549999995,-9.779344199999976,0.02760318890224221,-0.048336430250135655,0.024617547600049534,0.0054747875547419,0.015918434950031937
0.755,-0.0029987151900095726,-0.7833987709999967,-0.0002042290970007399,-2.361493780000016,0.003830752260011295,1.5724317600000044,0.7886933010000081,0.039999995,0.0399999791,-9.779252399999976,0.027977845445378176,-0.048831930500136095,0.024798481200049696,0.005614698631727319,0.01603508290003204
0.7575000000000001,-0.003033567435009605,-0.7833865564999967,-0.00020692290050074242,-2.3615513200000158,0.003871874190011333,1.5724478400000044,0.7887229215000081,0.039999995,0.03999997865,-9.779160599999974,0.02835250198851416,-0.04932743075013656,0.024979414800049865,0.005754609708712745,0.01615173085003215
0.76,-0.003068419680009636,-0.7833743419999967,-0.0002096167040007448,-2.361608860000016,0.00391299612001137,1.5724639200000043,0.7887525420000082,0.039999995,0.0399999782,-9.779068799999974,0.02872715853165013,-0.049822931000137,0.025160348400050027,0.005894520785698164,0.016268378800032252
0.7625000000000001,-0.0031032719250096686,-0.7833621274999967,-0.00021231050750074732,-2.361666400000016,0.003954118050011408,1.5724800000000045,0.7887821625000082,0.039999995,0.03999997775,-9.778976999999974,0.029101815074786114,-0.05031843125013746,0.025341282000050196,0.006034431862683589,0.016385026750032363
0.765,-0.0031381241700097,-0.7833499129999967,-0.0002150043110007497,-2.361723940000016,0.003995239980011445,1.5724960800000045,0.7888117830000082,0.039999995,0.039999977299999996,-9.778885199999975,0.029476471617922082,-0.0508139315001379,0.025522215600050357,0.006174342939669009,0.016501674700032467
0.7675000000000001,-0.0031735307850101965,-0.7833375289999965,-0.00021774101400078816,-2.361782420000017,0.004037015690012031,1.5725124400000048,0.7888418735000086,0.03999999525,0.03999997715,-9.778782449999966,0.02985557923104266,-0.05131445505014257,0.025704390150051565,0.006315366551319941,0.016619042800033176
0.77,-0.003210046140010229,-0.7833248059999964,-0.00022056351600079066,-2.361842780000017,0.004080098960012069,1.5725293600000048,0.7888729040000086,0.039999996,0.0399999776,-9.778657799999966,0.030243588984121234,-0.05182502520014303,0.02588904660005173,0.006458615232299088,0.016737851200033283
0.7725,-0.0032465614950102613,-0.7833120829999964,-0.00022338601800079316,-2.361903140000017,0.004123182230012107,1.5725462800000047,0.7889039345000087,0.03999999675,0.039999978049999996,-9.778533149999966,0.03063159873719981,-0.05233559535014348,0.026073703050051893,0.0066018639132782355,0.016856659600033387
0.775,-0.0032830768500102954,-0.7832993599999964,-0.0002262085200007958,-2.361963500000017,0.004166265500012148,1.5725632000000047,0.7889349650000087,0.0399999975,0.0399999785,-9.778408499999966,0.031019608490278402,-0.052846165500143955,0.026258359500052064,0.006745112594257389,0.016975468000033498
0.7775,-0.003319592205010328,-0.7832866369999963,-0.0002290310220007983,-2.362023860000017,0.004209348770012186,1.5725801200000047,0.7889659955000088,0.03999999825,0.03999997895,-9.778283849999966,0.03140761824335698,-0.05335673565014441,0.026443015950052228,0.006888361275236537,0.017094276400033605
0.78,-0.003356107560010362,-0.7832739139999964,-0.00023185352400080094,-2.362084220000017,0.004252432040012226,1.5725970400000047,0.7889970260000089,0.039999999,0.039999979399999996,-9.778159199999966,0.031795627996435566,-0.053867305800144885,0.0266276724000524,0.00703160995621569,0.017213084800033716
0.7825,-0.0033926229150103944,-0.7832611909999964,-0.00023467602600080344,-2.362144580000017,0.004295515310012264,1.5726139600000046,0.7890280565000088,0.03999999975,0.03999997985,-9.778034549999965,0.032183637749514146,-0.05437787595014534,0.026812328850052563,0.007174858637194838,0.01733189320003382
0.785,-0.003430267770010912,-0.7832480949999961,-0.00023758594200084352,-2.362206760000018,0.004339930690012875,1.572631370000005,0.7890600560000093,0.0399999995,0.0399999797,-9.777935299999976,0.032587212324259915,-0.05490985880015499,0.026999384400053762,0.0073200036306351034,0.01745219540003457
0.7875,-0.003468477375010946,-0.7832348124999962,-0.00024053956500084617,-2.3622698500000183,0.004385012125012915,1.572649025000005,0.7890925400000093,0.03999999875,0.03999997925,-9.777848749999976,0.03299856930982927,-0.05545254800015547,0.027187639500053932,0.007466096780304703,0.01757324450003468
0.79,-0.003506686980010982,-0.7832215299999962,-0.00024349318800084892,-2.362332940000018,0.0044300935600129565,1.572666680000005,0.7891250240000093,0.039999998,0.039999978799999995,-9.777762199999975,0.03340992629539865,-0.05599523720015598,0.02737589460005411,0.0076121899299743095,0.017694293600034793
0.7925,-0.003544896585011016,-0.7832082474999962,-0.00024644681100085154,-2.3623960300000184,0.004475174995012997,1.572684335000005,0.7891575080000094,0.03999999725,0.03999997835,-9.777675649999976,0.03382128328096801,-0.05653792640015646,0.027564149700054275,0.007758283079643909,0.0178153427000349
0.795,-0.0035831061900110516,-0.7831949649999961,-0.0002494004340008543,-2.3624591200000182,0.004520256430013039,1.572701990000005,0.7891899920000094,0.0399999965,0.0399999779,-9.777589099999975,0.03423264026653739,-0.05708061560015697,0.02775240480005445,0.007904376229313516,0.01793639180003501
0.7975,-0.0036213157950110856,-0.7831816824999961,-0.00025235405700085693,-2.3625222100000185,0.0045653378650130794,1.5727196450000052,0.7892224760000094,0.03999999575,0.03999997745,-9.777502549999975,0.03464399725210675,-0.05762330480015745,0.027940659900054617,0.008050469378983115,0.018057440900035117
0.8,-0.003659525400011623,-0.783168399999996,-0.0002553076800008985,-2.362585300000019,0.004610419300013713,1.5727373000000053,0.7892549600000098,0.039999995,0.039999977,-9.777415999999972,0.03505535423768186,-0.05816599400016542,0.028128915000055807,0.00819656252865354,0.018178490000035866
0.8025,-0.0036994594500116586,-0.783154554999996,-0.00025839472800090127,-2.3626511800000194,0.0046575344650137546,1.5727557950000055,0.7892889170000099,0.03999999575,0.03999997745,-9.777316099999972,0.035486393608278655,-0.058734349400165926,0.028320652950055977,0.008345471229447657,0.01830172700003598
0.805,-0.003739393500011696,-0.783140709999996,-0.00026148177600090415,-2.362717060000019,0.004704649630013799,1.5727742900000055,0.7893228740000099,0.0399999965,0.0399999779,-9.777216199999971,0.03591743297887547,-0.05930270480016646,0.028512390900056157,0.008494379930241781,0.01842496400003609
0.8075,-0.0037793275500117313,-0.783126864999996,-0.00026456882400090686,-2.3627829400000193,0.004751764795013841,1.5727927850000054,0.78935683100001,0.03999999725,0.03999997835,-9.777116299999971,0.03634847234947227,-0.05987106020016696,0.028704128850056326,0.0086432886310359,0.018548201000036204
0.81,-0.0038192616000117686,-0.7831130199999959,-0.00026765587200090974,-2.3628488200000195,0.004798879960013885,1.5728112800000056,0.7893907880000101,0.039999998,0.039999978799999995,-9.77701639999997,0.03677951172006909,-0.060439415600167495,0.028895866800056506,0.008792197331830023,0.018671438000036317
0.8125,-0.003859195650011804,-0.7830991749999959,-0.0002707429200009125,-2.3629147000000192,0.004845995125013927,1.5728297750000055,0.78942474500001,0.03999999875,0.03999997925,-9.77691649999997,0.037210551090665886,-0.061007771000168,0.029087604750056676,0.00894110603262414,0.018794675000036426
0.8150000000000001,-0.0038991297000118413,-0.7830853299999959,-0.0002738299680009154,-2.3629805800000194,0.00489311029001397,1.5728482700000055,0.7894587020000101,0.0399999995,0.0399999797,-9.77681659999997,0.037641590461262704,-0.06157612640016853,0.029279342700056856,0.009090014733418264,0.018917912000036542
0.8175,-0.003939648330012399,-0.7830712999999958,-0.0002769622450009585,-2.3630474100000205,0.004940914780014628,1.5728670250000059,0.7894931530000106,0.04,0.039999980399999996,-9.77671717499997,0.03807976413531645,-0.062152688500176356,0.02947220430005803,0.00923992549073743,0.019041867000037294
0.8200000000000001,-0.003981336120012438,-0.7830568999999957,-0.00028018498000096146,-2.3631161400000202,0.004990097920014674,1.5728863000000057,0.7895285920000106,0.04,0.0399999816,-9.77661869999997,0.03853220641626502,-0.0627456640001769,0.02966731320005821,0.009391840361104022,0.01916725800003741
0.8225,-0.004023023910012474,-0.7830424999999958,-0.0002834077150009643,-2.3631848700000204,0.005039281060014717,1.5729055750000058,0.7895640310000106,0.04,0.0399999828,-9.77652022499997,0.03898464869721358,-0.06333863950017743,0.02986242210005838,0.009543755231470606,0.01929264900003752
0.8250000000000001,-0.004064711700012514,-0.7830280999999957,-0.00028663045000096733,-2.3632536000000206,0.005088464200014763,1.572924850000006,0.7895994700000106,0.04,0.039999984,-9.77642174999997,0.039437090978162156,-0.063931615000178,0.030057531000058563,0.009695670101837198,0.019418040000037638
0.8275,-0.00410639949001255,-0.7830136999999957,-0.0002898531850009702,-2.363322330000021,0.005137647340014807,1.5729441250000058,0.7896349090000107,0.04,0.0399999852,-9.776323274999971,0.03988953325911071,-0.06452459050017852,0.030252639900058737,0.009847584972203782,0.01954343100003775
0.8300000000000001,-0.004148087280012589,-0.7829992999999956,-0.0002930759200009732,-2.363391060000021,0.005186830480014852,1.572963400000006,0.7896703480000107,0.04,0.0399999864,-9.77622479999997,0.04034197554005929,-0.06511756600017907,0.03044774880005892,0.009999499842570375,0.019668822000037868
0.8325,-0.004189775070012626,-0.7829848999999957,-0.00029629865500097605,-2.3634597900000207,0.0052360136200148965,1.5729826750000058,0.7897057870000107,0.04,0.0399999876,-9.77612632499997,0.040794417821007845,-0.06571054150017959,0.030642857700059093,0.01015141471293696,0.019794213000037978
0.835,-0.004232651200013204,-0.7829700999999955,-0.0002996133560010208,-2.3635305000000217,0.005286598200015579,1.573002540000006,0.7897422360000113,0.04,0.0399999882,-9.77602864999997,0.04126087352647852,-0.06632041240018782,0.030840273600060315,0.010305195674347154,0.019920999200038723
