rsonawane2002/My_IMU/logs_2/traj_2002/clean_2002.csv
time,j1,j2,j3,j4,j5,j6,j7,gripper1,gripper2,imu_ax,imu_ay,imu_az,imu_gx,imu_gy,imu_gz,quat_x,quat_y,quat_z,quat_w
23.1333333333333,0.00016700293,-0.785875,4.0107683e-05,-2.3551247,9.29385e-05,1.570997,0.786,0.04,0.04,0.0,-0.0,0.0,2.875329272945135e-08,-0.0011641195053377316,4.421952117202833e-08,0.9999995971961153,0.00020320632366974898,0.0008736418299892524,3.263050917662294e-05
23.149999999999967,0.00016701203,-0.78576016,4.0109386e-05,-2.3552213,9.297145e-05,1.5709941,0.786,0.04,0.04,-0.2919984597168135,-3.410271623390036e-05,0.02012840831451257,-3.559869039476754e-07,-0.002237886854293696,1.4780629953156343e-07,0.9999996850590187,0.0002032059200602575,0.0007665025185749666,3.2605312679808996e-05
23.166666666666632,0.00016706347,-0.78565425,4.0074592e-05,-2.35531,9.298378e-05,1.5709913,0.786,0.04,0.04,0.02326285220055624,1.1541968523705141e-05,-0.0016365753566338626,-2.6395843857783052e-06,-0.0032254909055232186,6.244182429117105e-07,0.9999997558678803,0.00020319687347046067,0.0006677674498605155,3.2585936324551225e-05
23.183333333333298,0.00016722652,-0.78555685,3.994422e-05,-2.355391,9.294647e-05,1.5709884,0.786,0.04,0.04,0.022394873860354103,2.6461353527443407e-05,-0.0014910779143395558,-9.204646500674859e-06,-0.004132206133222765,1.8186741344190217e-06,0.9999998123039125,0.00020316546456951827,0.0005771087987329123,3.257864803305964e-05
23.199999999999964,0.00016760013,-0.78546697,3.963358e-05,-2.3554652,9.281755e-05,1.5709856,0.786,0.04,0.04,0.02005782112322052,4.8538332392147974e-05,-0.0012222476285073114,-2.181193486400462e-05,-0.0049589309698993,4.044198439315927e-06,0.9999998569944121,0.0002030922195709318,0.0004936622967626749,3.259206383916704e-05
23.21666666666663,0.00016831,-0.78538406,3.9035058e-05,-2.355532,9.254413e-05,1.5709827,0.786,0.04,0.04,0.020274170431489047,7.609968119809797e-05,-0.0006938120759913957,-4.215529889175719e-05,-0.005713135750567582,7.581733321822351e-06,0.9999998917619531,0.000202952337882673,0.00041739813875380183,3.263777256803715e-05
23.233333333333295,0.00016950551,-0.78530765,3.802024e-05,-2.3555944,9.206254e-05,1.5709798,0.786,0.04,0.04,0.014478232700732008,0.00011058634808686183,-0.0017996753003846067,-7.186805007379828e-05,-0.006392683767810359,1.2685138688810271e-05,0.9999999188765063,0.00020271664625575017,0.00034652818151885114,3.2728607536022645e-05
23.24999999999996,0.00017135759,-0.7852369,3.6442158e-05,-2.355652,9.130047e-05,1.5709769,0.7859981,0.04,0.04,0.01432793451423553,0.0001491071875525771,-0.0011951654568020942,-0.00011307736937911932,-0.0070122320365297195,1.9581869073725624e-05,0.9999999397506186,0.00020139797753754716,0.00028081403222210763,3.287997847813192e-05
23.266666666666627,0.0001740562,-0.7851715,3.413735e-05,-2.3557034,9.018645e-05,1.5709739,0.7859962,0.04,0.039999995,0.016871997958545215,0.00018529468189770575,-0.00018410517330647025,-0.00015798577656943907,-0.007572811583973688,2.9243499941490026e-05,0.9999999550484939,0.00019991278654342396,0.00022100070910816344,3.311456807730277e-05
23.283333333333292,0.0001778085,-0.78511065,3.092782e-05,-2.3557515,8.8622306e-05,1.5709707,0.7859943,0.04,0.039999995,0.01020085936180859,0.00024016326040152526,-0.0013773673479766657,-0.00021739475668519103,-0.008067254018232635,4.027419734734157e-05,0.9999999662018407,0.00019822053972062945,0.00016488283427129656,3.3445269427178636e-05
23.299999999999958,0.00018283635,-0.7850538,2.662221e-05,-2.3557944,8.6513435e-05,1.5709668,0.7859905,0.04,0.039999995,0.013140710039105663,0.0002912336129415197,-0.00037474271925574953,-0.0002924668008117642,-0.008514502896202505,5.364795284583447e-05,0.9999999739556175,0.00019532423802043523,0.00011308627846302713,3.389248011771157e-05
23.316666666666624,0.00018937519,-0.78500056,2.1017946e-05,-2.355833,8.3759485e-05,1.5709602,0.78598666,0.04,0.039999995,0.010406573603649605,0.00034547525423825874,-0.0022830948641638926,-0.000376096104156528,-0.008904922505463729,6.950882783062463e-05,0.9999999789117403,0.0001921314559088513,6.382285859322759e-05,3.447702827693767e-05
23.33333333333329,0.00019767211,-0.78495073,1.39022995e-05,-2.3558679,8.0244936e-05,1.5709534,0.78598094,0.04,0.04,0.010201554696398496,0.0004094489579569056,-0.00031552338302098804,-0.00047814142769037965,-0.009255710059615034,8.72183346396704e-05,0.9999999816115498,0.00018764026064751338,1.8105873725163038e-05,3.521661574800195e-05
23.349999999999955,0.00020798409,-0.78490347,5.0535514e-06,-2.3558986,7.587092e-05,1.5709461,0.7859752,0.04,0.04,0.009570614769693897,0.0004609277773493317,2.611043381506306e-07,-0.0005911532249163382,-0.009554532942942704,0.000108459576083592,0.9999999823462513,0.00018275423776544268,-2.4541566628470914e-05,3.6139966292512254e-05
23.36666666666662,0.00022057694,-0.7848585,-5.757422e-06,-2.3559258,7.052479e-05,1.5709356,0.7859676,0.04,0.04,0.00762811269090502,0.0005221510111615081,-0.0021195280280883466,-0.0007252023791122817,-0.009806692594440943,0.00013251061966566607,0.9999999815670169,0.00017646779684950205,-6.584798547072624e-05,3.727097387339384e-05
23.383333333333287,0.00023572406,-0.7848155,-1.8766268e-05,-2.3559494,6.409999e-05,1.5709248,0.78595805,0.04,0.039999995,0.008072977792061842,0.000577306151047617,0.00025070928513226676,-0.0008727775209169483,-0.01002481362057703,0.0001602242011374759,0.9999999795492722,0.00016872762992408056,-0.00010459151582997398,3.864009307360064e-05
23.399999999999952,0.0002537054,-0.784774,-3.4214067e-05,-2.3559694,5.6452624e-05,1.5709105,0.7859466,0.04,0.04,0.006696004835804459,0.0006603344610414631,-0.0018550453557253377,-0.0010348460519532454,-0.010197454860552216,0.00018874358295530431,0.999999976319575,0.0001594789661462738,-0.00014250071987391384,4.0259828427907974e-05
23.416666666666618,0.00027480553,-0.7847337,-5.234677e-05,-2.355987,4.7479214e-05,1.5708957,0.7859334,0.04,0.04,0.005218645678994882,0.0007130763357147127,3.476166274829495e-05,-0.0012126226566588805,-0.010339848145776697,0.00022225488935213693,0.9999999720557744,0.00014872618453543187,-0.0001788603881432627,4.2165555173036124e-05
23.433333333333284,0.00029931404,-0.78469414,-7.341366e-05,-2.3559995,3.7051603e-05,1.5708774,0.7859181,0.04,0.04,0.008608992683734051,0.0007832984353078475,-0.0006308834510804218,-0.0014075731778010565,-0.010441658948451192,0.00025825008639957544,0.9999999668359357,0.000136293399535559,-0.00021396858749465447,4.438107810320266e-05
23.44999999999995,0.0003275234,-0.784655,-9.766734e-05,-2.356011,2.5046256e-05,1.570857,0.78590095,0.04,0.04,0.0014029369396206803,0.0008504797740882574,-0.0014107744170877012,-0.0016197791258226507,-0.010506523584404553,0.0002973465243004043,0.9999999603179816,0.00012218336970147572,-0.00024946450889250335,4.6933127344763484e-05
23.466666666666615,0.00035972885,-0.7846159,-0.00012536235,-2.3560174,1.1336865e-05,1.5708342,0.7858814,0.04,0.04,0.0077804795932001625,0.000919016454472264,0.0003461042752395116,-0.001850663633077037,-0.010548034383480799,0.0003395753373636749,0.9999999528919479,0.00010610013311977901,-0.0002836792844775699,4.984904470444073e-05
23.48333333333328,0.00039622743,-0.7845767,-0.00015675502,-2.3560212,-4.2034126e-06,1.570808,0.7858591,0.04,0.04,0.00337135871939509,0.0009883249070381263,-0.0011894524851063792,-0.002098904436012952,-0.010549356247634614,0.0003849533555161745,0.9999999440994978,8.780702924053037e-05,-0.00031822231715754773,5.3155280870180665e-05
23.499999999999947,0.00043731727,-0.78453714,-0.00019210266,-2.3560214,-2.1701568e-05,1.5707783,0.78583395,0.04,0.04,0.00444514598130219,0.0010576955551232312,-0.0009133579093045796,-0.0023639704033028407,-0.010524285911993699,0.00043349234370103785,0.99999993380883,6.718647996877068e-05,-0.00035303410153101586,5.6879132846137095e-05
23.516666666666612,0.00048329704,-0.7844968,-0.00023166288,-2.3560178,-4.1285497e-05,1.570745,0.78580594,0.04,0.04,0.004529852983914395,0.0011274399687135521,-0.0004253488019800855,-0.0026458724537826517,-0.010471429797967696,0.00048520101473856995,0.9999999218672437,4.4180380681132e-05,-0.0003880551542119632,6.10475024177676e-05
23.533333333333278,0.0005344654,-0.7844554,-0.00027569348,-2.356012,-6.308238e-05,1.5707084,0.7857746,0.04,0.04,0.0014682411342725743,0.0011966715779741603,-0.0009509513812400172,-0.0029457140262765663,-0.010389063930876933,0.0005400765686163548,0.9999999077073987,1.8492190590040734e-05,-0.00042417967254689486,6.568742964429624e-05
23.549999999999944,0.00059112045,-0.7844128,-0.00032445168,-2.3560026,-8.72197e-05,1.5706681,0.78573984,0.04,0.04,0.003926222531491774,0.0012667438084900638,-0.00033181530063597364,-0.003262098016113087,-0.01028358312686032,0.0005981122840216051,0.9999998912409607,-9.965727976937178e-06,-0.0004608713773038222,7.082601638905751e-05
23.56666666666661,0.0006535587,-0.78436863,-0.0003781936,-2.355991,-0.00011381385,1.5706236,0.78570163,0.04,0.039999995,0.0006102598644419643,0.0013283509339795006,-0.0012682900607741132,-0.003595557926660023,-0.0101499335756788,0.0006600958292289525,0.9999998715458193,-4.128085655309288e-05,-0.0004993523542836889,7.6494850450728e-05
23.583333333333275,0.0007220762,-0.78432274,-0.0004371743,-2.355975,-0.00014301296,1.5705748,0.78565973,0.04,0.04,0.003981529026475528,0.0014139806635320223,-0.0003793017735898019,-0.003946321890048723,-0.009997535532871074,0.0007235658228945136,0.9999998485891931,-7.562983780970565e-05,-0.0005387585436594401,8.271003626439378e-05
23.59999999999994,0.0007969658,-0.7842748,-0.0005016473,-2.3559558,-0.00017491978,1.5705214,0.78561395,0.04,0.039999995,0.0015884838372670629,0.001466622694795656,-0.0008347846112366497,-0.004314082615022435,-0.009818026348615201,0.0007917973078062682,0.9999998214525724,-0.00011315869712482704,-0.000579894855761167,8.950915532275651e-05
23.616666666666607,0.0008785192,-0.7842246,-0.0005718635,-2.355933,-0.00020968141,1.5704638,0.78556406,0.04,0.04,0.0026517617168098084,0.001550990184342859,-0.00011065704672574839,-0.004699054042589561,-0.009618584875850884,0.0008614454466446715,0.9999997897835663,-0.00015404341197375215,-0.0006223443290597706,9.690710324095006e-05
23.633333333333272,0.00096702465,-0.784172,-0.00064807216,-2.3559067,-0.00024740843,1.5704013,0.78550994,0.04,0.04,0.0014169163844224286,0.0016101240622158727,-0.000756233757215341,-0.005100347830851075,-0.009393437633847167,0.0009349983790231777,0.9999997525067695,-0.00019839929286506335,-0.0006667927355588128,0.00010493601933781435
23.649999999999938,0.0010627679,-0.78411674,-0.0007305201,-2.355877,-0.00028822303,1.5703335,0.78545123,0.04,0.04,0.0014722583196569161,0.001677997253784916,-0.0009022761445987015,-0.005518170065133053,-0.00914694501128797,0.0010115672811881588,0.9999997086689016,-0.00024646039770165307,-0.0007134490350042093,0.00011362155902450266
23.666666666666604,0.0011660309,-0.7840587,-0.00081945135,-2.3558435,-0.00033223818,1.5702603,0.78538805,0.04,0.039999995,0.0012730742811939422,0.001739935995638544,-0.0007999350791765281,-0.005951915346493324,-0.008882382672687924,0.0010919405348244564,0.9999996573391368,-0.00029822133850413877,-0.000762403047507774,0.00012299282647924934
23.68333333333327,0.0012770932,-0.78399754,-0.0009151064,-2.3558066,-0.00037958246,1.5701817,0.78532,0.04,0.039999995,0.0009419091844486971,0.0018117753363128427,-0.0006300943005355109,-0.006402027849929144,-0.00859789388164444,0.0011743627708816705,0.999999597368915,-0.000353945052097902,-0.0008138042107365299,0.00013306996165238883
23.699999999999935,0.0013962303,-0.783933,-0.0010177231,-2.355766,-0.00043037895,1.5700974,0.785247,0.04,0.04,0.0004976838005710249,0.0018813269809636092,-0.0007268312949504363,-0.006867610664934652,-0.008294845747652175,0.0012591445934725513,0.9999995273870647,-0.0004136846317963259,-0.000867980850877547,0.00014387465113737706
23.7166666666666,0.0015237133,-0.7838652,-0.0011275361,-2.3557217,-0.0004847358,1.5700073,0.78516895,0.04,0.04,0.0010604566161198647,0.0019411685866831845,-0.0008077802444939053,-0.007349389040651848,-0.007975659763611134,0.0013471706217119978,0.9999994462503335,-0.000477611312793542,-0.0009247844961975637,0.00015543518128280763
23.733333333333267,0.0016598096,-0.78379387,-0.0012447758,-2.3556736,-0.00054276764,1.5699111,0.7850856,0.04,0.04,0.0005875663653620578,0.0020050911829002185,-0.0007816379737457524,-0.007846172470299017,-0.007637534811225263,0.0014381212717297447,0.9999993523233613,-0.000545836155945063,-0.0009845137718018108,0.00016777479519647923
23.749999999999932,0.001804782,-0.7837187,-0.0013696697,-2.3556216,-0.0006045869,1.5698088,0.78499687,0.04,0.04,0.00032141784354067227,0.0020683474724364362,-0.0006449104234640402,-0.008358408416103056,-0.007282030731300509,0.0015318512060225526,0.9999992439571788,-0.0006184989356810641,-0.0010472885432588636,0.00018091667828374144
23.766666666666598,0.0019588892,-0.7836397,-0.0015024411,-2.3555658,-0.0006703034,1.5696999,0.7849024,0.04,0.039999995,0.00013066820165885673,0.002130423579260296,-0.001087306726654802,-0.008885720413251254,-0.00691158143636273,0.0016290698438367218,0.9999991191038797,-0.0006957983266276841,-0.0011134075398030055,0.0001948840772220702
23.783333333333264,0.0021223866,-0.7835565,-0.0016433098,-2.3555057,-0.00074002694,1.5695841,0.7848022,0.04,0.039999995,0.0004384958242509285,0.0021920083585905375,-0.0007233414813123673,-0.009426907970817347,-0.006525095638803884,0.0017282021965397782,0.999998975911544,-0.0007777832395827327,-0.0011829013618503124,0.00020969850658820657
23.79999999999993,0.0022955225,-0.783469,-0.0017924913,-2.3554416,-0.00081386336,1.5694618,0.78469604,0.039999995,0.03999999,3.951783400513165e-05,0.0022528044807309513,-0.0006166394143303222,-0.009982671928232066,-0.006123968427735469,0.0018298041215319182,0.9999988122992207,-0.0008646199989235081,-0.0012558006555607164,0.00022538216157931326
23.816666666666595,0.0024785416,-0.78337723,-0.0019501969,-2.3553736,-0.00089191756,1.5693325,0.7845839,0.039999995,0.03999999,-0.0005190899454277087,0.002312576870692701,-0.001077024622686551,-0.010552362460354712,-0.005707989313893151,0.0019338703889233508,0.9999986256897081,-0.0009563554126026766,-0.0013324639897737325,0.0002419560616309463
23.83333333333326,0.0026716846,-0.78328097,-0.002116634,-2.3553014,-0.00097429194,1.569196,0.78446555,0.039999995,0.03999999,5.132070168833991e-05,0.0023710654892749824,-0.0008470834645724068,-0.0111361270295097,-0.005280152839399511,0.0020404593526695764,0.9999984137392992,-0.0010531842437162815,-0.0014128029400704907,0.0002594411048365465
23.849999999999927,0.002875186,-0.7831798,-0.0022920056,-2.3552246,-0.0010610871,1.5690521,0.78434086,0.04,0.039999995,-8.443803996005528e-05,0.002429609746224231,-0.0006785514584217722,-0.01173329843805125,-0.004837106962491983,0.0021494435146620318,0.9999981736299189,-0.0011551804385811421,-0.0014970272099552972,0.0002778570016081649
23.866666666666593,0.0030892766,-0.78307414,-0.0024765106,-2.3551438,-0.0011524013,1.5689008,0.7842097,0.04,0.039999995,-0.0005031463867544161,0.002485604766565611,-0.0010920835523897665,-0.012343495937608535,-0.0043807464524360865,0.0022608187700951373,0.9999979025140169,-0.0012624477027562983,-0.001585197567053446,0.00029722388534317437
23.88333333333326,0.0033141803,-0.7829633,-0.0026703437,-2.3550584,-0.0012483303,1.5687419,0.7840719,0.04,0.04,-0.0004983185678097968,0.002542829849028832,-0.0006809437781640781,-0.012967126573389193,-0.003912611805987926,0.0023744239736254846,0.999997597017351,-0.0013751467036873933,-0.0016775238555500926,0.0003175606727568805
23.899999999999924,0.0035501176,-0.78284764,-0.0028736936,-2.354968,-0.0013489673,1.5685751,0.7839274,0.04,0.03999999,0.0006917431109920713,0.002597207397424619,-0.0008754149171563697,-0.013603266310731676,-0.003431712356380734,0.002490943739815234,0.9999972545589346,-0.00149334906956501,-0.0017736795917598519,0.0003388861987676193
23.91666666666659,0.0037973027,-0.7827268,-0.0030867464,-2.3548732,-0.0014544064,1.5684003,0.783776,0.04,0.039999995,-0.0006591453303173012,0.0026528480242352147,-0.001028511683220934,-0.014251484220457578,-0.0029356521432483025,0.0026082876244733827,0.9999968707883482,-0.0016171544397118056,-0.001874232442012637,0.00036121708594980174
23.933333333333255,0.0040559443,-0.7826004,-0.0033096839,-2.3547735,-0.0015647345,1.5682175,0.78361756,0.04,0.03999999,-0.000646796683012596,0.0027051369116190896,-0.0005028492586323097,-0.014911947283339003,-0.002429930373822246,0.0027287932733711887,0.9999964420568408,-0.001746690343209849,-0.001979154108833683,0.0003845718630630362
23.94999999999992,0.004326248,-0.7824684,-0.003542681,-2.3546703,-0.0016800403,1.5680267,0.783452,0.04,0.03999999,-0.002750483375657531,0.0027509871773437463,-0.0012141713400692922,-0.015584018818450129,-0.0019122797207175649,0.002850831807564804,0.9999959629983357,-0.0018820568992145416,-0.0020891614542819462,0.0004089661076150457
23.966666666666587,0.0046084127,-0.78233147,-0.0037859103,-2.3545613,-0.0018004079,1.5678271,0.78327906,0.039999995,0.039999988,0.0014867135029072998,0.002812035463977346,-0.0010893368019626593,-0.016267459335812254,-0.0013892362141150385,0.002974766096622653,0.9999954317237768,-0.0020233780981755004,-0.002203123690924871,0.0004344176002609435
23.983333333333253,0.0049026324,-0.78218883,-0.004039541,-2.3544476,-0.0019259208,1.5676191,0.7830988,0.03999999,0.039999984,-0.000985769570371886,0.002858838668635716,-0.0008652461029656777,-0.016961725178016664,-0.0008495972023069582,0.0031003694475965514,0.999994842387497,-0.0021706900228037293,-0.0023218175103159487,0.0004609410794894337
23.99999999999992,0.005209094,-0.7820404,-0.0043037324,-2.3543296,-0.0020566594,1.5674026,0.78291094,0.039999988,0.03999998,-0.0018678586961140553,0.0029037973356744627,-0.0010413836956768563,-0.017666866738783208,-0.00030051688963343356,0.003227896296496565,0.999994189475701,-0.002324177105977224,-0.002445512998549624,0.0004885507033758715
24.016666666666584,0.005527981,-0.78188604,-0.004578643,-2.3542056,-0.002192701,1.5671772,0.7827155,0.039999988,0.039999977,0.0006077868660359087,0.0029571557409874922,-0.0005364810068186898,-0.01838193342317742,0.00025592294036331543,0.0033579828255395636,0.9999934694851408,-0.002483841385541013,-0.0025737055766772896,0.0005172607144816065
24.03333333333325,0.005859471,-0.7817259,-0.0048644287,-2.354077,-0.0023341218,1.566943,0.7825123,0.039999984,0.039999973,-0.0015544910378917365,0.003002668670527473,-0.0010994067540348595,-0.019107125925887914,0.0008249821635847119,0.00348885083386076,0.9999926759235982,-0.002649805067295369,-0.0027069039915934103,0.0005470859595444192
24.049999999999915,0.0062037357,-0.78155965,-0.005161238,-2.353944,-0.0024809965,1.5666997,0.78230137,0.03999998,0.03999997,-0.0020414601697105184,0.0030484458298873137,-0.0012808646659312473,-0.019841970078690867,0.0014018105226019754,0.003621306058864711,0.9999918023500776,-0.002822099511048508,-0.002845497936349199,0.0005780384825618517
24.06666666666658,0.0065609426,-0.78138715,-0.005469213,-2.353805,-0.0026333951,1.5664474,0.7820824,0.039999977,0.039999966,0.0002144592393671374,0.003096110710628123,-0.00043711411450431115,-0.02058664678928652,0.0019853154211529646,0.003755251654827211,0.9999908446458613,-0.003000902284739748,-0.002988804253379458,0.0006101303709472553
24.083333333333247,0.0069312523,-0.7812084,-0.005788494,-2.3536608,-0.002791387,1.5661858,0.7818554,0.039999973,0.03999996,-0.001045312751157823,0.0031396646636531154,-0.0008421867561336782,-0.021339938552953363,0.002580231957443068,0.0038906094121369285,0.9999897958622801,-0.003186212515963655,-0.0031372426810755295,0.000643373514031201
24.099999999999913,0.0073148217,-0.7810235,-0.0061192173,-2.3535125,-0.002955038,1.5659149,0.7816203,0.039999973,0.039999958,-0.003018480896033182,0.0031765179546261327,-0.0016195428524268252,-0.022102242184873232,0.0031835658000147413,0.004028213904570515,0.999988647504191,-0.0033781196217824378,-0.0032914714377810525,0.0006777804468807238
24.11666666666658,0.0077118026,-0.78083205,-0.006461512,-2.3533573,-0.0031244138,1.5656343,0.78137714,0.03999997,0.039999954,0.0012847051326758674,0.0032324646780779783,-0.00025939840375688306,-0.022872822155076085,0.0037892608088304462,0.0041662399052692575,0.9999873966847765,-0.0035766457639040965,-0.003450390580449782,0.0007133593240547206
24.133333333333244,0.008122339,-0.7806343,-0.0068155047,-2.3531969,-0.0032995779,1.5653441,0.78112555,0.039999966,0.03999995,-0.0012544289321292368,0.003269833734377537,-0.0010517763580075723,-0.023652479996786713,0.004408405065751802,0.004305451977444164,0.9999860340475085,-0.0037819667562176986,-0.0036146584980086354,0.0007501208787389003
24.14999999999991,0.008546573,-0.78043,-0.0071813175,-2.353032,-0.0034805879,1.5650444,0.7808655,0.03999997,0.039999954,-0.003078969482772642,0.0032988566970874184,-0.0013743541924515768,-0.024439366582105663,0.005034840578915246,0.004445819970060666,0.9999845502507694,-0.003994139416817997,-0.003784844367741804,0.0007880756293725623
24.166666666666575,0.008984636,-0.7802193,-0.007559065,-2.3528614,-0.0036675027,1.5647348,0.7805969,0.03999997,0.039999954,-0.00030861131210535575,0.003354050912835458,-0.0009103733632942479,-0.025233339413295093,0.005664471998914001,0.004587237117724104,0.999982940270328,-0.00421321164308606,-0.003960265807434061,0.0008272307384093833
24.18333333333324,0.0094366595,-0.78000176,-0.0079488605,-2.3526847,-0.0038603763,1.5644153,0.78031987,0.039999973,0.039999958,-0.0007821686392572857,0.003388621056191806,-0.0006653733891859304,-0.02603430631323224,0.0063032941045452155,0.004729646926817842,0.9999811958232138,-0.0044391760050469095,-0.004141134672560053,0.0008675943726612885
24.199999999999907,0.009902766,-0.7797779,-0.008350814,-2.352502,-0.0040592635,1.5640858,0.7800341,0.039999973,0.039999958,-0.00023976057799135475,0.003436536777631609,-0.0010471911751741558,-0.026842662588860106,0.006949844223294749,0.004872964512375261,0.9999793093718115,-0.004672170162845836,-0.004327245591360031,0.0009091753606843852
24.216666666666573,0.010383083,-0.7795469,-0.00876502,-2.3523154,-0.0042642145,1.5637463,0.7797396,0.039999977,0.03999996,-0.00433834156079449,0.003435187560871418,-0.00146535787983737,-0.027657215037787362,0.007605121861486708,0.005017108681342648,0.9999772665472225,-0.004912254400987097,-0.0045199430623157994,0.000951976973627574
24.23333333333324,0.0108777145,-0.7793091,-0.0091915885,-2.352122,-0.0044752774,1.5633969,0.77943647,0.039999984,0.039999966,0.0003887546107028683,0.0035139085908207635,-0.00031039009762423575,-0.028477711148332162,0.008258335599524996,0.005162929396709771,0.99997506556942,-0.005159373024622918,-0.004717740657231197,0.000996008292279947
24.249999999999904,0.011386772,-0.77906454,-0.009630609,-2.3519232,-0.0046925005,1.5630373,0.7791245,0.03999999,0.039999973,-0.0016230560911267844,0.003537602222150344,-0.001175172323653051,-0.029304709748024037,0.008923417275622673,0.0053085551009938,0.9999726938889474,-0.0054136372009821925,-0.004921357246184246,0.0010412740241031342
24.26666666666657,0.011910361,-0.778813,-0.010082168,-2.3517182,-0.0049159247,1.5626671,0.7788035,0.04,0.039999984,-0.0007641755880083423,0.0035656865318765656,-0.0008830842834983699,-0.030137488914008227,0.00959342135634899,0.005454802656950015,0.9999701423142224,-0.005675153567216297,-0.00513067736246401,0.0010877784078263987
24.283333333333236,0.012448583,-0.7785544,-0.010546352,-2.3515086,-0.005145596,1.5622869,0.77847356,0.04,0.039999984,-0.0036242929833285586,0.0035858140487461665,-0.0012951031852947992,-0.030975074972758136,0.010269393362751051,0.005601721599610962,0.999967397438305,-0.005943940953022928,-0.005346420203162172,0.001135525174106298
24.2999999999999,0.013001525,-0.7782888,-0.011023244,-2.3512926,-0.005381552,1.561896,0.7781346,0.04,0.039999984,-0.00042808920888148805,0.0036447036497585985,-0.0008405990449711354,-0.031817327050269587,0.010945889342588722,0.005749492442053821,0.9999644533150197,-0.006220004611888836,-0.005567815025270277,0.0011845188332339648
24.316666666666567,0.013569279,-0.77801615,-0.011512919,-2.3510702,-0.00562383,1.5614948,0.7777866,0.04,0.03999998,-0.000400148161805447,0.003670469797138363,-0.000526582848725532,-0.032664653004236155,0.011627751555740477,0.005897265321576681,0.9999613007257944,-0.0065033582194131525,-0.005794717041097134,0.0012347619451121292
24.333333333333233,0.014151926,-0.7777364,-0.012015453,-2.3508422,-0.0058724675,1.5610831,0.7774295,0.04,0.03999998,-0.002205897158935599,0.0036974495352148137,-0.0011818489732862147,-0.03351644599492167,0.012320133298886062,0.0060453356720335145,0.9999579248800724,-0.006794074350060163,-0.00602781595988444,0.0012862573690001413
24.3499999999999,0.014749549,-0.77744955,-0.012530911,-2.3506083,-0.0061274962,1.5606608,0.7770633,0.04,0.03999998,-0.0014454377484929282,0.0037254032341637634,-0.0008290329193139101,-0.034372550306309424,0.013013617188980618,0.006193677321313776,0.9999543164034705,-0.007092163451657897,-0.006266848038999506,0.0013390068329821954
24.366666666666564,0.015362212,-0.77715546,-0.013059353,-2.3503692,-0.00638895,1.560228,0.77668756,0.04,0.039999977,-0.0027742225768623285,0.003752626043259776,-0.001197305811695415,-0.03523281041322852,0.01371183217375962,0.006342222832352843,0.999950459700954,-0.007397842664261154,-0.006512264585144477,0.001393010315315355
24.38333333333323,0.01598999,-0.776854,-0.013600845,-2.3501236,-0.006656855,1.5597843,0.7763028,0.039999995,0.039999973,-0.0010475725860770169,0.0037901531927796855,-0.0007183978154357007,-0.036094939394613876,0.014412547941440276,0.0064908528893181175,0.9999463475184552,-0.007710848886176701,-0.006763683279923664,0.0014482687748260713
24.399999999999896,0.016632946,-0.7765453,-0.014155435,-2.3498719,-0.006931239,1.55933,0.7759087,0.03999999,0.039999966,-0.0011984077022741957,0.0038130757984167554,-0.0007349100975773126,-0.03696123471824133,0.01511643009786913,0.006640297668295065,0.999941967332379,-0.008031368998717696,-0.0070210192967612405,0.0015047815431860035
24.41666666666656,0.017291145,-0.77622926,-0.014723176,-2.349614,-0.007212131,1.5588647,0.77550524,0.03999999,0.039999966,-0.0014584750928969825,0.0038341609955124933,-0.0009211815406473534,-0.03783054066694948,0.0158258428363569,0.00678892301788905,0.9999373052830969,-0.00835941267924554,-0.00728451600904348,0.0015625457915800828
24.433333333333227,0.017964631,-0.77590597,-0.015304119,-2.349351,-0.0074995477,1.5583888,0.77509236,0.039999995,0.03999997,-0.0033155362987091763,0.0038553300276338714,-0.0012162877081500767,-0.038702160941283134,0.01653881776444132,0.006937471242108872,0.9999323456246898,-0.008695011844262218,-0.007554565839660449,0.0016215663749483721
24.449999999999893,0.018653452,-0.77557546,-0.015898306,-2.349082,-0.0077935145,1.5579019,0.7746701,0.039999995,0.03999997,-0.0018037308440854716,0.0038977019456979366,-0.0011572675116200415,-0.03957558958801364,0.01725035136741875,0.007085885609240793,0.9999270775496607,-0.009038136764834864,-0.00783090582968683,0.0016818384885793026
24.46666666666656,0.019357659,-0.7752375,-0.016505772,-2.3488064,-0.00809405,1.5574043,0.7742384,0.039999995,0.03999997,-0.0007338336430517955,0.003918948191783834,-0.00032294232468199624,-0.040451448798509926,0.01796510336681587,0.007234019624310212,0.9999214911208932,-0.00938884903872201,-0.008113064377424262,0.0017433573084990178
24.483333333333224,0.020077292,-0.77489215,-0.017126549,-2.3485243,-0.00840117,1.5568955,0.7737972,0.04,0.03999997,-0.0012729501774666474,0.003936044029146778,-0.0008965127644255944,-0.041328912402040965,0.018684748014664035,0.007382718825521627,0.9999155698541773,-0.009747153251788158,-0.00840143430751837,0.0018061196689506786
24.49999999999989,0.020812375,-0.77453935,-0.017760672,-2.3482363,-0.008714888,1.5563761,0.7733466,0.04,0.039999973,-0.001982822800750128,0.003963126136091299,-0.0006177221540282218,-0.042207398382201486,0.019407787699713703,0.007529868046756091,0.9999093005421601,-0.01011301431503978,-0.008695991396674263,0.001870124161884333
24.516666666666556,0.021562947,-0.7741791,-0.018408168,-2.3479433,-0.009035219,1.5558457,0.7728865,0.04,0.03999997,-0.003720949245722416,0.003965150462799903,-0.001306647837928665,-0.0430876134293864,0.02013384952117183,0.007677014138452887,0.9999026628433995,-0.010486469515575757,-0.008997396844744295,0.0019353670959381755
24.53333333333322,0.022329032,-0.77381134,-0.019069059,-2.3476439,-0.009362175,1.5553042,0.7724169,0.04,0.039999973,-0.0014668181421484405,0.004007975945319493,-0.0007806665603959928,-0.043968517589942635,0.020855842155738866,0.007823718722252942,0.9998956468033648,-0.010867540233618715,-0.00930509015304079,0.0020018417008302682
24.549999999999887,0.023110658,-0.7734361,-0.019743359,-2.3473377,-0.009695764,1.5547519,0.77193785,0.04,0.039999973,-0.0008766504268509223,0.004020784386167282,-0.00032955508062482153,-0.04485010799095397,0.02158078904947474,0.007969770509319057,0.999888242026695,-0.011256165567064031,-0.009618689891102138,0.0020695405941642945
24.566666666666553,0.02390783,-0.77305335,-0.020431083,-2.347025,-0.010035992,1.5541885,0.7714491,0.04,0.039999977,-0.0011392547361488425,0.004053078945132592,-0.0005133368252474568,-0.04573223490320921,0.022310798930585945,0.008115226773563782,0.999880429852725,-0.011652484610735417,-0.009938440105834768,0.002138459302662954
24.58333333333322,0.024720563,-0.77266324,-0.021132244,-2.3467062,-0.010382861,1.553614,0.770951,0.04,0.039999984,-0.0021041527850096386,0.004055882425464848,-0.000958021053087954,-0.046613676308603066,0.02304478913974428,0.008259934634845402,0.9998721946120278,-0.012056319294116515,-0.010264585629379187,0.002208594272963743
24.599999999999884,0.02554887,-0.7722657,-0.021846844,-2.3463829,-0.010736376,1.5530287,0.77044314,0.04,0.03999998,-0.004595236237525668,0.004030774006967379,-0.0013517181829847402,-0.047495743159637775,0.023777984249636484,0.008403979640642757,0.9998635113732195,-0.012467854629860293,-0.01059778775855437,0.002279938588888228
24.61666666666655,0.026392743,-0.77186054,-0.022574892,-2.3460531,-0.011096539,1.5524323,0.7699258,0.04,0.03999997,-0.0016079087559406346,0.004104601253617814,-0.0005699771181033597,-0.048376425564348416,0.02450572859155746,0.008547674946925331,0.9998543732204336,-0.012886974848280672,-0.01093727818776304,0.0023524831725705935
24.633333333333216,0.027252195,-0.77144814,-0.02331639,-2.3457167,-0.011463351,1.5518247,0.7693988,0.04,0.03999997,-0.0009371711079175782,0.004119737430047232,-0.0006987875746045091,-0.04925623139475648,0.025236248921459245,0.008690003161400388,0.9998447658809927,-0.01331370636810343,-0.011282854634127017,0.0024262222552808815
24.64999999999988,0.02812721,-0.7710284,-0.024071328,-2.345374,-0.011836811,1.5512061,0.7688624,0.04,0.039999973,-0.001757636282717634,0.004128531830718211,-0.0006866555116502582,-0.050134843119557966,0.025969167132114928,0.008831356356870528,0.9998346726075605,-0.013747949966521594,-0.011634672683359108,0.0025011427390638536
24.666666666666547,0.029017778,-0.7706011,-0.024839696,-2.345025,-0.012216915,1.5505767,0.7683164,0.04,0.039999973,-0.0016076213496418745,0.004141379259780999,-0.0003341431595416111,-0.05101279169111905,0.026702486502433367,0.008971702848063319,0.9998240758865279,-0.014189812948528417,-0.011992678942635667,0.002577234547966137
24.683333333333213,0.029923894,-0.77016634,-0.025621487,-2.3446705,-0.012603653,1.5499363,0.7677608,0.04,0.039999966,-0.0031400461882657993,0.0041282193669469475,-0.0009114658126252451,-0.05188894020263425,0.027439169656241685,0.00911141305073596,0.9998129536189093,-0.014639233746380082,-0.012357356921940309,0.0026544945008575827
24.69999999999988,0.030845528,-0.7697242,-0.026416682,-2.3443098,-0.012997018,1.549285,0.7671958,0.04,0.039999966,-0.0018593610359385337,0.004164312423355406,-0.0005064485109285144,-0.052762665138816375,0.028172704905750502,0.009249595510575036,0.9998012948771267,-0.015096132289983239,-0.01272826644989068,0.0027329078075868166
24.716666666666544,0.03178267,-0.7692746,-0.02722526,-2.343943,-0.013397005,1.5486227,0.7666213,0.04,0.039999973,-0.002421053810031104,0.004158424932775191,-0.0007430710163180976,-0.05363516672807151,0.028906892576104813,0.00938658697411707,0.999789077765679,-0.01556056313412396,-0.013105682290835493,0.0028124628164110546
24.73333333333321,0.032735273,-0.7688174,-0.028047204,-2.3435705,-0.013803596,1.5479493,0.76603717,0.04,0.039999966,-0.0025764295425112493,0.004193963426463686,-0.000657032668072155,-0.054505155818305964,0.029640637489421476,0.009522373848502672,0.9997762832221979,-0.01603252791376448,-0.013489670716263464,0.0028931538273539582
24.749999999999876,0.033703327,-0.768353,-0.028882485,-2.3431914,-0.014216778,1.547265,0.7654437,0.04,0.03999997,-0.0014004536632361564,0.00418942684757926,-0.0004043268036379999,-0.055372038274345114,0.030370744899212404,0.00965688202672478,0.9997629017326849,-0.016511902396034103,-0.013879732407378833,0.002974966656145811
24.76666666666654,0.034686793,-0.7678811,-0.029731072,-2.342806,-0.01463654,1.54657,0.7648407,0.04,0.03999997,-0.0020230903590379157,0.004197574027733214,-0.00039406811813691434,-0.056236569219842034,0.031103525132633657,0.009789752851719978,0.9997489114845617,-0.016998728542902287,-0.014276082677506203,0.003057887627749366
24.783333333333207,0.03568563,-0.7674017,-0.030592933,-2.3424153,-0.015062863,1.5458642,0.76422834,0.04,0.039999958,-0.0032436820533554567,0.004181766938956243,-0.00049235016303939,-0.0570979653783403,0.031836575456225404,0.009922093188308785,0.9997342905408706,-0.017492964447909733,-0.01467899670486839,0.003141905043899547
24.799999999999873,0.036699798,-0.7669151,-0.03146803,-2.3420181,-0.015495733,1.5451475,0.7636066,0.04,0.039999966,-0.00144484539432721,0.004221244559282113,-0.0004670504790915686,-0.057955928032093526,0.03256544587750136,0.01005237518867429,0.9997190272911083,-0.017994558058509573,-0.0150880347295434,0.0032270048650850512
24.81666666666654,0.037729252,-0.766421,-0.03235633,-2.341615,-0.01593513,1.5444199,0.7629754,0.04,0.039999958,-0.0025326255714608337,0.00421791712557542,-0.000534100255622505,-0.05881060483282568,0.033295559462451566,0.010181100799971032,0.9997030964566501,-0.018503550764050084,-0.01550356118122747,0.003313175939784157
24.833333333333204,0.038773917,-0.76591986,-0.033257782,-2.3412056,-0.016381022,1.5436816,0.76233494,0.04,0.03999996,-0.001658410213756234,0.004246944423240938,-0.00033408272348545154,-0.059661098033265025,0.034022906736497355,0.010308342887935536,0.9996864887184739,-0.019019791483660505,-0.015925106743433743,0.0034004089249637525
24.84999999999987,0.039833754,-0.7654112,-0.03417233,-2.3407907,-0.016833393,1.5429326,0.76168513,0.04,0.039999966,-0.0033764092547849955,0.004193175648505194,-0.0005020540091660308,-0.06050834608620928,0.03475110543532348,0.010433806753971868,0.9996691735184619,-0.019543338651481657,-0.01635330398513388,0.0034886788385434693
24.866666666666536,0.04090872,-0.7648954,-0.035099946,-2.34037,-0.01729222,1.5421729,0.761026,0.04,0.039999958,-0.002208499621580984,0.004232864822344834,-0.0004602669093856093,-0.06135078516781532,0.03547409199326685,0.010557932176240833,0.9996511385527369,-0.02007413552525605,-0.016787743232935953,0.0035779813128731233
24.8833333333332,0.04199874,-0.76437235,-0.036040552,-2.3399432,-0.017757477,1.5414025,0.76035774,0.04,0.039999954,-0.002297907522463838,0.004218621694537968,-0.00040664917133614864,-0.06218881217033518,0.036196175175875984,0.01068043764989137,0.9996323649107263,-0.020612102709667703,-0.01722846151846856,0.003668290961920747
24.899999999999867,0.043103743,-0.76384205,-0.03699411,-2.3395107,-0.01822914,1.5406214,0.7596802,0.04,0.039999966,-0.0027532696390775158,0.004240457625537264,-0.0003736996905923107,-0.0630222163986732,0.03691533090338381,0.010800949180427715,0.9996128307381773,-0.02115723968969557,-0.017675555416904184,0.0037595974551671166
24.916666666666533,0.044223674,-0.76330453,-0.037960567,-2.3390725,-0.018707167,1.5398297,0.75899357,0.04,0.039999966,-0.0027119204440095857,0.004222917734809928,-0.00038674525222326395,-0.06385055158012884,0.03763144814417837,0.010919101574811855,0.999592517562422,-0.02170946865339229,-0.018129002603387318,0.003851891562964675
24.9333333333332,0.045358445,-0.76275986,-0.03893985,-2.3386283,-0.019191531,1.5390277,0.75829774,0.04,0.03999996,-0.0022024662953423757,0.004236809738702475,-0.00010815638604722011,-0.0646740675613169,0.03834417035732606,0.011036816733077565,0.9995714096276904,-0.022268788232222024,-0.018588541993907855,0.003945152990850387
24.949999999999864,0.04650799,-0.7622082,-0.039931875,-2.3381784,-0.019682202,1.5382152,0.75759274,0.04,0.03999996,-0.0024627059163950804,0.004205321871527876,-0.00038922813851982596,-0.06549177968686996,0.0390552813451176,0.01115138848460771,0.9995494848215023,-0.02283518656584291,-0.01905427011853132,0.004039361066114825
24.96666666666653,0.04767223,-0.7616495,-0.040936593,-2.337722,-0.020179145,1.5373923,0.7568789,0.04,0.039999958,-0.0013891627158590936,0.004247346648612697,0.00012336269965551594,-0.06630372418002062,0.03976402599447959,0.011264607884128409,0.9995267342072897,-0.023408442750439597,-0.019525837569298415,0.004134498775772314
24.983333333333196,0.048851065,-0.7610838,-0.04195393,-2.3372602,-0.020682324,1.5365589,0.7561565,0.04,0.03999996,-0.00291024052097022,0.0042245936900173545,-0.0004595905490178964,-0.0671104446119225,0.040471744131559344,0.011375585092206108,0.9995031311470322,-0.02398841629141747,-0.020003728691277037,0.004230549556985754
24.99999999999986,0.050044425,-0.76051104,-0.04298381,-2.3367927,-0.021191703,1.5357152,0.75542504,0.04,0.03999995,-0.0025327054893331535,0.004213557463554965,-0.00011354415188069567,-0.06791329276386013,0.041176405977703286,0.011485001762339592,0.9994786535062161,-0.024575320866375237,-0.020487741241155138,0.004327499110499899
25.016666666666527,0.051252216,-0.7599315,-0.044026162,-2.33632,-0.021707244,1.5348618,0.75468403,0.04,0.03999995,-0.0029537102861576514,0.004191844323020964,-8.926731893676987e-05,-0.06870907016894857,0.041876135905425924,0.011592001905640924,0.9994532768783343,-0.025169370638886527,-0.02097776211141915,0.004425337907833621
25.033333333333193,0.05247434,-0.75934505,-0.045080893,-2.3358414,-0.0222289,1.533998,0.753935,0.04,0.039999954,-0.0024819708968060183,0.004201239516288084,-0.00023037798548841693,-0.06949545415500291,0.042573165050113465,0.011697088537767183,0.9994269968234885,-0.025769786185173914,-0.02147392088381232,0.004524031634399857
25.04999999999986,0.05371071,-0.7587517,-0.046147916,-2.3353577,-0.02275664,1.533124,0.7531767,0.04,0.03999996,-0.0032657074978237333,0.004160859237312825,-0.0003441998036590732,-0.07027853569345638,0.043266345615805765,0.011799459360741248,0.9993997731192533,-0.026377147334420578,-0.02197640078009605,0.004623569663795207
25.066666666666524,0.054961216,-0.75815165,-0.047227163,-2.3348677,-0.02329042,1.53224,0.7524101,0.04,0.039999958,-0.0013354592164116497,0.004232275979395433,0.0002628624410139224,-0.07105285407704992,0.04395325632554746,0.01190035969163554,0.9993716149655255,-0.026990920829864203,-0.0224844367326314,0.004723928319715306
25.08333333333319,0.056225754,-0.7575448,-0.048318546,-2.334373,-0.023830185,1.5313463,0.7516349,0.04,0.03999996,-0.0038397850269378253,0.004147438096281479,-0.00023443005217060886,-0.0718219393708937,0.04464021545885373,0.01199831665041793,0.9993424805908672,-0.02761127287557808,-0.022998749785713198,0.004825101550925211
25.099999999999856,0.057504207,-0.75693125,-0.04942196,-2.3338723,-0.024375893,1.5304426,0.7508509,0.04,0.039999954,-0.0018766038942796825,0.00419401461827229,0.0001329254660342727,-0.07258368599539622,0.04532043646760861,0.012095124938343978,0.9993123593009801,-0.028238214555016076,-0.023518840258558982,0.004927061999451747
25.11666666666652,0.058796484,-0.756311,-0.050537296,-2.3333664,-0.024927506,1.5295291,0.75005865,0.04,0.039999954,-0.0029563077683869565,0.0041216339390142895,-3.7220145365779445e-05,-0.07333728879286476,0.0459971334571804,0.012188937790724958,0.999281231448585,-0.02887149789004022,-0.024044924703475867,0.005029779337991487
25.133333333333187,0.060102463,-0.7556842,-0.05166448,-2.3328552,-0.025484962,1.528606,0.7492579,0.04,0.03999995,-0.002780332459662027,0.004133652189480981,9.630716444331e-05,-0.0740843100533169,0.04666866700756918,0.012280947460636116,0.999249078129543,-0.02951116699483992,-0.024576830952986087,0.005133250448723488
25.149999999999853,0.06142203,-0.75505096,-0.052803397,-2.3323388,-0.026048219,1.527673,0.7484489,0.04,0.039999954,-0.002802666351198191,0.00411825074447883,-0.0003135208520799182,-0.07482323721683523,0.047335056727463326,0.01237013637645389,0.9992158764061729,-0.030157106063791368,-0.025114745021457902,0.005237449208165061
25.16666666666652,0.06275507,-0.75441116,-0.053953968,-2.3318167,-0.026617229,1.5267309,0.74763155,0.04,0.03999995,-0.0018965149163108208,0.004138430173000751,0.0007230994693019355,-0.0755547114478704,0.04799598262814878,0.012456741548524039,0.9991816215360217,-0.030809292775931814,-0.025658018399038657,0.005342354829830038
25.183333333333184,0.06410144,-0.753765,-0.055116054,-2.331289,-0.027191933,1.525779,0.7468061,0.04,0.03999995,-0.0023145761119724995,0.00410296270562209,-1.4970705075612045e-05,-0.07627791407968529,0.04865662125452126,0.012541411863569787,0.9991462865843871,-0.031467581764667164,-0.026207045358340245,0.005447942373036529
25.19999999999985,0.06546103,-0.7531126,-0.056289565,-2.3307567,-0.02777228,1.5248182,0.74597245,0.04,0.039999947,-0.003095056092017323,0.004056892393887804,0.00019899759040598042,-0.07699337525056431,0.04931123120432611,0.012623758623086193,0.9991098534902392,-0.03213197499023503,-0.02676168346804426,0.005554200203066466
25.216666666666516,0.06683372,-0.75245374,-0.05747439,-2.330219,-0.028358215,1.5238478,0.7451309,0.039999995,0.03999994,-0.0028142391878871464,0.004053682215702029,0.00015621835425250197,-0.07770039186499487,0.04996054570527298,0.012703412189051015,0.9990722998596238,-0.03280231425764034,-0.027322148517807576,0.005661098207596459
25.23333333333318,0.06821937,-0.7517885,-0.058670428,-2.3296762,-0.028949685,1.5228684,0.7442813,0.03999999,0.03999994,-0.0025709664033701785,0.004051296849513081,0.0004706926250763743,-0.07839925334266037,0.050604571789276444,0.012780093103129699,0.9990336112947741,-0.03347861500552704,-0.027888148853903245,0.005768621510927028
25.249999999999847,0.06961787,-0.75111735,-0.05987755,-2.329129,-0.02954663,1.5218797,0.74342376,0.039999995,0.03999994,-0.0037109076119978823,0.003966945677731301,-0.00041381177804389324,-0.07908928556125036,0.05124220196251779,0.012855588893145767,0.9989937579320087,-0.034160810905042104,-0.02846004836270222,0.00587675577048657
25.266666666666513,0.07102904,-0.7504401,-0.061095633,-2.3285763,-0.030149,1.5208822,0.7425585,0.04,0.039999943,-0.0017846649486230604,0.004040352241746134,0.0007251554041243224,-0.07976998126835844,0.05187269226095036,0.012927733551206834,0.9989527464508008,-0.03484873508579377,-0.029037049716133627,0.00598546281460529
25.28333333333318,0.072452724,-0.74975675,-0.06232456,-2.3280187,-0.030756725,1.5198755,0.7416855,0.04,0.039999943,-0.0028201143866146694,0.004013434489522072,9.286899209648425e-05,-0.0804418664171127,0.05249994099018836,0.012997349129828528,0.9989105413995553,-0.035542319080302365,-0.029619724959428325,0.006094729573101813
25.299999999999844,0.073888846,-0.7490675,-0.06356423,-2.3274565,-0.03136975,1.5188605,0.74080503,0.04,0.039999943,-0.0031054789523921045,0.0039209909612335225,0.0004768654411346773,-0.08110502779901686,0.05312024596505576,0.013064451978857854,0.9988671350434668,-0.0362414634011317,-0.030207723537953316,0.0062045386013431505
25.31666666666651,0.075337216,-0.74837244,-0.06481448,-2.3268898,-0.031988014,1.5178368,0.739917,0.039999995,0.03999994,-0.003051638064044404,0.0038990265005957314,0.00024318374194365333,-0.08175956932893096,0.05373461270221408,0.013128981242729834,0.9988225046765857,-0.03694615491293898,-0.030801110159980744,0.006314855632055087
25.333333333333176,0.0767977,-0.74767137,-0.06607521,-2.3263175,-0.03261143,1.5168041,0.7390215,0.04,0.039999943,-0.0018822131629292471,0.003951817069540106,0.00048526487068656365,-0.08240421663084126,0.0543429319751419,0.013190758805875474,0.9987766369451825,-0.037656266847155014,-0.031399772460775764,0.006425678876091365
25.34999999999984,0.078270145,-0.7469647,-0.067346275,-2.3257415,-0.033239968,1.5157633,0.73811865,0.04,0.03999995,-0.003937981295654147,0.003819394580687613,0.00019521444820647105,-0.08303959995948834,0.05494600109654505,0.013250244942054838,0.9987295081525284,-0.03837173785381608,-0.03200386467305001,0.006536966075788759
25.366666666666507,0.079754435,-0.7462523,-0.06862755,-2.3251605,-0.033873547,1.5147144,0.7372086,0.04,0.039999943,-0.0021136864858384286,0.003826837673623351,0.0008498311028892758,-0.08366536246355696,0.05554058260553888,0.01330741120819525,0.9986811183191239,-0.039092457500081335,-0.032612857192357875,0.0066487010174424875
25.383333333333173,0.081250384,-0.74553424,-0.069918916,-2.3245742,-0.034512114,1.5136571,0.7362914,0.03999999,0.039999936,-0.001733383863444793,0.0038776346550008223,0.0007645747255313751,-0.08428109459328739,0.056130397769610305,0.013361062093303233,0.9986314515191458,-0.039818331458982614,-0.03322672597118702,0.0067608577726714
25.39999999999984,0.0827578,-0.7448106,-0.07122023,-2.3239846,-0.035155572,1.5125911,0.7353671,0.039999995,0.039999936,-0.004920543537223487,0.003749223479436112,-0.00044979950284407266,-0.08488736905814934,0.05671728984735701,0.013413522434915517,0.9985804516726727,-0.04054931068327515,-0.033846577309881554,0.006873437620168187
25.416666666666504,0.08427658,-0.7440817,-0.072531335,-2.3233895,-0.03580387,1.5115175,0.734436,0.04,0.03999994,-0.0007143089907568623,0.0037924945505030117,0.0012226343161891862,-0.08548317352645864,0.05728806368591626,0.013462503059868097,0.9985281650504403,-0.04128522096594409,-0.03447063120469266,0.006986395003422287
25.43333333333317,0.08580651,-0.7433474,-0.073852085,-2.3227904,-0.03645695,1.5104362,0.7334979,0.03999999,0.039999932,-0.0032452691338225037,0.0037094129908897544,0.0005189583778708595,-0.08606988841376927,0.05786068048047146,0.013508611018430539,0.9984745434032878,-0.04202605976668492,-0.03509972532653279,0.007099701267308951
25.449999999999836,0.087347485,-0.74260783,-0.0751824,-2.322187,-0.037114713,1.509347,0.73255306,0.039999995,0.039999936,-0.0028326094793751366,0.003698641561222793,0.0005236631884120158,-0.08664585170157915,0.05842465151531053,0.013552167934278478,0.9984195732553817,-0.04277172247541225,-0.03573377641191967,0.007213370943673777
25.4666666666665,0.0888993,-0.74186295,-0.076522075,-2.321579,-0.037777126,1.5082501,0.73160154,0.04,0.039999947,-0.002381467673062687,0.0036690958208435154,0.0008328293980452983,-0.08721095921529656,0.05898153173448335,0.01359254309965277,0.9983632475561819,-0.043522105131040614,-0.036372550561624285,0.007327336465502862
25.483333333333167,0.090461805,-0.7411128,-0.07787097,-2.3209674,-0.03844408,1.5071458,0.7306435,0.04,0.03999994,-0.003861836889273995,0.003535621907721498,0.0004389840097429598,-0.087765922900373,0.05953181836182516,0.013631017948280526,0.9983055364728887,-0.04427710082696107,-0.03701643950346626,0.007441599050161326
25.499999999999833,0.09203481,-0.7403578,-0.07922897,-2.3203511,-0.03911552,1.5060339,0.729679,0.04,0.039999936,-0.0015191247965562482,0.003666917308388709,0.0008317718923622763,-0.08831019056671033,0.060072358520619346,0.01366741601654737,0.9982464524286024,-0.045036621841986015,-0.03766467417284126,0.007556138314358716
25.5166666666665,0.09361814,-0.7395979,-0.0805959,-2.319731,-0.03979137,1.5049149,0.7287081,0.04,0.039999943,-0.0029995453205255984,0.0035506162519845924,0.0006525227979947701,-0.08884397366827883,0.060609438452064554,0.013699226399799903,0.9981859686354524,-0.04580058685579981,-0.03831755627078635,0.007670928522885259
25.533333333333164,0.09521161,-0.73883295,-0.08197162,-2.3191066,-0.04047158,1.5037884,0.727731,0.039999995,0.039999932,-0.002509125268157497,0.0035668662302413418,0.0007188949627590091,-0.08936649097662042,0.06113796417656864,0.013730022285235899,0.9981240713567587,-0.04656884662380103,-0.03897512017807568,0.007785930223257235
25.54999999999983,0.096815065,-0.73806345,-0.08335598,-2.3184788,-0.04115604,1.5026548,0.7267479,0.039999995,0.039999932,-0.0033683009327711844,0.0034383682397776116,0.00033188582462262417,-0.08987871651102593,0.06165836593504036,0.013757132865444645,0.9980607469053103,-0.04734129920412496,-0.039637340152428625,0.007901148152027741
25.566666666666496,0.09842832,-0.737289,-0.08474881,-2.3178465,-0.041844673,1.5015143,0.7257587,0.039999995,0.039999932,-0.001841456343809611,0.003472965494270147,0.0012442685090263694,-0.09037993372203934,0.06216955013782726,0.013782212185656693,0.9979959965264074,-0.04811789509099655,-0.04030377311150732,0.008016543036191875
25.58333333333316,0.1000512,-0.73651,-0.08614997,-2.3172116,-0.042537406,1.5003668,0.72476363,0.039999995,0.039999932,-0.00460892760336673,0.0032931039492780506,2.9876298834885517e-05,-0.0908703678481779,0.06267492516987788,0.013804054927410311,0.9979297728061676,-0.048898525228895096,-0.04097525604363862,0.008132107330099496
25.599999999999827,0.1016835,-0.73572654,-0.087559275,-2.3165724,-0.043234173,1.499213,0.7237627,0.039999995,0.039999932,-0.0014968583522678713,0.003414407127161692,0.001304542286395538,-0.09134927062799852,0.06316529222066088,0.013823574609102107,0.997862112978317,-0.04968311680805238,-0.04165051219645108,0.00824780094687051
25.616666666666493,0.103325054,-0.7349385,-0.088976584,-2.31593,-0.043934893,1.4980527,0.72275615,0.04,0.03999994,-0.0032859617992597734,0.0032650802715340765,0.0008513976210045016,-0.09181674647238276,0.06365431437476518,0.013840258363443853,0.9977929812590168,-0.0504715107466733,-0.04233017040716395,0.00836360128725711
25.63333333333316,0.10497566,-0.7341462,-0.09040176,-2.315283,-0.044639483,1.4968859,0.72174394,0.039999995,0.039999932,-0.001433115195115242,0.0033751102179537668,0.001070718136153559,-0.09227291139451517,0.06413183871977751,0.013854513574656828,0.997722386632101,-0.05126364780711346,-0.04301366840791402,0.008479502152041608
25.649999999999824,0.106635176,-0.7333497,-0.091834605,-2.314633,-0.045347854,1.4957125,0.7207264,0.04,0.039999936,-0.002857233677455717,0.003170472946516234,0.0005416370548072535,-0.09271780281700734,0.06460539683767946,0.01386604617203599,0.9976503010280215,-0.05205938996616814,-0.043701425624055164,0.008595474010993028
25.66666666666649,0.10830337,-0.732549,-0.09327497,-2.3139796,-0.046059936,1.4945334,0.71970356,0.04,0.039999936,-0.00303657212115116,0.0031586099687817143,0.0010703241710929845,-0.09315126050301192,0.06506836284531425,0.013875057668736188,0.9975767267737861,-0.05285860948748159,-0.04439314706169358,0.00871149219755234
25.683333333333156,0.10998004,-0.73174417,-0.09472266,-2.313323,-0.04677563,1.4933481,0.71867543,0.03999999,0.039999925,-0.002758131925451046,0.0030951123814248332,0.0008229965868800093,-0.09357334490673161,0.06552326134551627,0.013881138906311562,0.9975016423388369,-0.053661294901654326,-0.045088952767034236,0.008827530751744014
25.69999999999982,0.111665,-0.7309355,-0.09617754,-2.312663,-0.04749487,1.4921571,0.71764225,0.039999995,0.03999993,-0.0022499392718922095,0.0031185252345591885,0.000998868207346959,-0.09398349192094871,0.06596877944323111,0.013885038543642335,0.9974250592849992,-0.05446726701440085,-0.04578842976765445,0.008943580586668007
25.716666666666487,0.11335805,-0.73012286,-0.09763943,-2.3120003,-0.048217576,1.4909605,0.7166041,0.04,0.039999932,-0.0031847026126241573,0.003011011376945552,0.0009545314101133684,-0.09438215621429746,0.06640794224110676,0.013885776202283984,0.9973469546050511,-0.05527643183673887,-0.04649184703155427,0.009059601703350193
25.733333333333153,0.11505901,-0.7293064,-0.09910814,-2.311334,-0.04894365,1.4897579,0.7155611,0.039999995,0.03999993,-0.0019044939643331205,0.0029969161077281203,0.000937291553371189,-0.09476911272066199,0.06683636599231992,0.013883628114742474,0.9972673289803268,-0.056088710843502323,-0.047198938616375155,0.009175579428380837
25.74999999999982,0.11676768,-0.7284863,-0.10058355,-2.3106647,-0.049673,1.4885502,0.71451336,0.04,0.039999932,-0.002667490299446129,0.0029357940672117278,0.0011299654771868006,-0.09514418853106923,0.06725583070343463,0.013879357338112706,0.9971861816044343,-0.05690396506633298,-0.047909557796271464,0.00929151487452847
25.766666666666485,0.11848384,-0.72766244,-0.10206546,-2.3099923,-0.050405547,1.4873371,0.713461,0.039999995,0.03999993,-0.0024547277354791674,0.002891511246251588,0.001129012670753049,-0.09550741465232407,0.06766781057488826,0.013872238537301011,0.9971034994911433,-0.05772211337385775,-0.048623764404632605,0.009407362292060467
25.78333333333315,0.12020731,-0.7268349,-0.103553675,-2.3093176,-0.05114121,1.4861187,0.7124042,0.04,0.039999932,-0.003541152669095382,0.002752830624003222,0.0007398122416679698,-0.09585828690413833,0.06807009604674798,0.013863026054544925,0.9970192592710151,-0.05854302211704119,-0.04934188679746396,0.009523098831070805
25.799999999999816,0.12193786,-0.7260042,-0.10504804,-2.3086395,-0.051879913,1.4848955,0.71134305,0.03999999,0.039999925,-0.0012542714634911079,0.0028535538303474384,0.001381628011598579,-0.09619771146684981,0.06845983605586436,0.01385114957791092,0.9969335046713735,-0.059366574033435315,-0.05006288522342497,0.009638707086087819
25.81666666666648,0.12367533,-0.7251701,-0.10654836,-2.307959,-0.052621543,1.4836674,0.7102777,0.04,0.039999932,-0.003078081888374662,0.0026387508430064655,0.0009420560411754764,-0.09652517150614168,0.06884461516671894,0.013836595071722559,0.9968461931211797,-0.06019270731880106,-0.050787413683157784,0.009754171252365324
25.833333333333147,0.12541948,-0.72433275,-0.10805449,-2.3072758,-0.053366043,1.4824343,0.70920825,0.04,0.039999932,-0.0021274520968894706,0.0027227816825806106,0.0009886726077823482,-0.09684023203127279,0.06921846980959855,0.013819122768375665,0.9967573346047187,-0.06102125165946284,-0.05151520589187685,0.009869463993905262
25.849999999999813,0.12717009,-0.7234923,-0.10956621,-2.30659,-0.0541133,1.4811968,0.70813483,0.039999995,0.03999993,-0.0026107567715705216,0.002590650908727149,0.0011401581894610047,-0.09714365946321121,0.06958258746794077,0.013800073650623489,0.9966669261874139,-0.06185214109668351,-0.0522461413441037,0.009984568119855363
25.86666666666648,0.12892696,-0.7226489,-0.11108337,-2.305902,-0.05486323,1.4799548,0.70705754,0.039999995,0.03999993,-0.0024685635905408176,0.0025475637918340177,0.0010726895561807837,-0.09743464446988637,0.06993740307156035,0.013778100375407519,0.9965749643546598,-0.06268527499269846,-0.05298016095054772,0.010099468612390828
25.883333333333145,0.13068995,-0.72180265,-0.11260579,-2.3052115,-0.055615745,1.4787086,0.70597655,0.039999995,0.039999925,-0.0022938577035835905,0.002443489626548223,0.001096618335338917,-0.09771344630402382,0.07028279357957878,0.013753850802972659,0.9964814501281246,-0.06352054100066494,-0.05371714570086953,0.010214141142769192
25.89999999999981,0.13245875,-0.72095364,-0.11413331,-2.3045185,-0.05637077,1.4774582,0.70489186,0.039999995,0.039999925,-0.0017387224092502152,0.0025718322065243493,0.0012373615356331413,-0.09797966265699368,0.07061744466372086,0.013727050172167299,0.996386391656483,-0.06435782564506295,-0.05445685693486021,0.010328578449600063
25.916666666666476,0.13423318,-0.72010165,-0.11566568,-2.3038232,-0.057128195,1.4762036,0.7038037,0.04,0.03999994,-0.002767144990944992,0.0023105491396294142,0.0010266787654034104,-0.09823360324740463,0.07094596755340371,0.013697371240380896,0.9962897620720438,-0.06519702156973788,-0.05519970846040005,0.01044272736176624
25.93333333333314,0.13601305,-0.71924746,-0.11720278,-2.3031263,-0.05788792,1.4749451,0.7027124,0.04,0.03999993,-0.0025731873322110133,0.0023033133006826467,0.0007285658394584615,-0.0984750858130335,0.07125989069943969,0.013666046891923071,0.9961915832343898,-0.06603793654682175,-0.05594531474270336,0.010556618205542692
25.949999999999807,0.13779807,-0.7183906,-0.11874441,-2.3024266,-0.058649883,1.473683,0.7016176,0.04,0.03999993,-0.0010895020485790496,0.0024064387948143084,0.001766031697880699,-0.09870513511576934,0.07156439617818178,0.013632532109527855,0.9960918682522819,-0.06688062827910667,-0.05669319606555324,0.01067019599367428
25.966666666666473,0.13958813,-0.7175312,-0.120290354,-2.3017259,-0.059413962,1.4724175,0.70051986,0.03999999,0.03999992,-0.003918517316625625,0.0020009000162059254,0.0007883127308927484,-0.09892163431785092,0.0718629237183131,0.013595297489817235,0.9959905762745996,-0.06772487299110463,-0.05744415402074268,0.010783446544157185
25.98333333333314,0.14138293,-0.7166693,-0.12184044,-2.3010223,-0.06018007,1.4711487,0.69941926,0.03999999,0.03999992,-0.0007688312454678936,0.00224417271985633,0.0019286866094203603,-0.09912578071874337,0.07214596038925193,0.013556902546195994,0.9958877718343504,-0.06857048389534925,-0.058197117296499755,0.010896338263280259
25.999999999999805,0.14318232,-0.7158052,-0.123394474,-2.3003178,-0.06094816,1.4698768,0.6983157,0.04,0.039999932,-0.0035587239838985596,0.0019569320713522242,0.0008246585212701163,-0.09931836557123044,0.07242271319256292,0.013516533333488866,0.9957833899929704,-0.06941757193322717,-0.05895291375791633,0.011008854638629805
26.01666666666647,0.14498605,-0.71493894,-0.12495229,-2.2996113,-0.061718073,1.4686018,0.69720954,0.03999999,0.03999992,-0.0017514077076619117,0.0020161178734552643,0.001383254238751519,-0.09949758830713673,0.07268596742643264,0.013473561134658113,0.9956774829168803,-0.07026582863436762,-0.05971085912271397,0.011121000020614688
26.033333333333136,0.14679389,-0.7140708,-0.12651365,-2.2989032,-0.062489755,1.4673237,0.6961011,0.04,0.039999932,-0.001964422620570616,0.001940257755424224,0.0009687685669668156,-0.09966456281401756,0.07293991131007581,0.01342839894451233,0.9955700464617474,-0.07111507985795194,-0.06047109960296042,0.011232725304220589
26.0499999999998,0.14860569,-0.71320117,-0.1280784,-2.2981932,-0.06326309,1.4660425,0.6949899,0.04,0.03999993,-0.0010543272149332594,0.0018841218320082842,0.0010410420471673731,-0.09982033734579243,0.07318279721752763,0.013381264216387065,0.9954610827792387,-0.07196556120977247,-0.06123318405241988,0.011344066402777133
26.066666666666467,0.15042114,-0.7123298,-0.12964638,-2.2974818,-0.064038,1.4647592,0.6938768,0.04,0.039999932,-0.001866293624641635,0.0018583310511660622,0.001560115753185265,-0.09996196107320611,0.0734182177750567,0.013332235555931014,0.9953506274399933,-0.07281674071729873,-0.06199705295931596,0.011454961828014821
26.083333333333133,0.15224007,-0.7114568,-0.13121739,-2.2967696,-0.064814374,1.4634734,0.6927614,0.04,0.03999993,-0.0030005646021846744,0.0016859013284221958,0.0008700856537258161,-0.10009271831698247,0.07364438147511908,0.013280437859347231,0.9952386296022783,-0.07366879287027803,-0.06276320479544188,0.011565432470114772
26.0999999999998,0.15406221,-0.71058196,-0.13279118,-2.2960565,-0.065592155,1.4621849,0.69164413,0.039999995,0.039999925,-0.0027571749211752206,0.0016260177482400884,0.0008534383589831052,-0.10021030136032427,0.07385688701339228,0.01322574328062693,0.9951250954490625,-0.07452149471891253,-0.06353169501492946,0.011675399816858298
26.116666666666465,0.1558874,-0.70970565,-0.13436764,-2.2953415,-0.06637122,1.4608948,0.690525,0.04,0.039999932,-0.0006285631607205744,0.0017003727960838988,0.002098340257750131,-0.10031572558076343,0.07405510619144272,0.013170343797581446,0.9950101055627893,-0.07537472098405038,-0.0643013037001209,0.011784888924734263
26.13333333333313,0.15771535,-0.7088282,-0.1359465,-2.294625,-0.06715147,1.4596024,0.6894041,0.039999988,0.039999917,-0.001144324639446026,0.0015784832860736564,0.0009920495848803057,-0.10040884170757484,0.07424754471540546,0.013112440529349283,0.9948936283530019,-0.07622843279907611,-0.06507249917722448,0.011893870119760439
26.149999999999796,0.15954593,-0.70794916,-0.13752764,-2.2939074,-0.06793282,1.4583085,0.6882815,0.039999984,0.039999913,-0.001814459319193773,0.0014527311739440107,0.0018575403225584708,-0.10048945281826549,0.07443020110032432,0.0130533613670279,0.9947756749239736,-0.07708252461055351,-0.06584515930059852,0.012002332102357495
26.166666666666462,0.1613788,-0.70706946,-0.13911082,-2.2931895,-0.06871516,1.4570124,0.68715745,0.039999988,0.039999913,-0.00241919564041293,0.00140944363311718,0.00027124639194742173,-0.10055707056918048,0.07460269651158846,0.012992320259271058,0.994656228068624,-0.07793685419476813,-0.06661963414972673,0.012110287704166636
26.183333333333128,0.1632138,-0.70618826,-0.14069584,-2.2924705,-0.069498435,1.4557152,0.68603235,0.04,0.039999925,-0.0015572283724507585,0.0013257146972388278,0.0019407749105804228,-0.10061234300852774,0.07476106676746251,0.012927746352930078,0.9945353397302841,-0.07879117450586434,-0.06739538580609791,0.012217643782740567
26.199999999999793,0.16505073,-0.7053064,-0.14228252,-2.291751,-0.070282474,1.4544168,0.6849058,0.039999995,0.039999925,-0.0017631900573578108,0.0011821676534184977,0.0011020420364271644,-0.10065633868821006,0.07491052751309339,0.01286190152095388,0.9944129962024602,-0.07964566291416876,-0.06817234593348473,0.012324472099595323
26.21666666666646,0.16688934,-0.70442396,-0.14387064,-2.2910311,-0.07106725,1.4531169,0.6837781,0.039999995,0.039999925,-0.0020906988390523296,0.001154444931569104,0.0007421518403827321,-0.10068640260645365,0.07504938161499762,0.012794423876031066,0.9942891931069758,-0.08050016287338252,-0.0689507174130967,0.01243072066524047
26.233333333333125,0.16872932,-0.7035403,-0.14546004,-2.2903109,-0.07185265,1.4518161,0.6826498,0.03999999,0.03999992,-0.0022162268044745304,0.00115966437315429,0.0015314881071315511,-0.10070302155069927,0.0751741273035681,0.012726045778867032,0.9941639654925508,-0.0813542616050812,-0.06973043676903057,0.012536348065470177
26.24999999999979,0.17057055,-0.70265645,-0.14705053,-2.2895904,-0.07263854,1.4505146,0.6815208,0.03999999,0.039999917,-0.0014804171162952073,0.0010093606263930632,0.001065757804208367,-0.10070924092191194,0.07528601318052408,0.012655376382858644,0.9940373397816128,-0.08220801679526987,-0.07051102263043407,0.012641391620124554
26.266666666666456,0.1724128,-0.7017721,-0.14864197,-2.2888691,-0.073424876,1.4492121,0.680391,0.039999995,0.03999992,-0.0009987109117703952,0.001105757581985889,0.0012361979136343848,-0.10070326743125733,0.07538846582703854,0.01258273536354336,0.993909315570759,-0.08306142305415246,-0.07129246862370664,0.012745836160186116
26.283333333333122,0.17425577,-0.70088744,-0.15023398,-2.2881474,-0.07421155,1.4479088,0.6792609,0.039999995,0.03999992,-0.0010912876414526096,0.0008597366167234499,0.0010798709390691386,-0.10068392841917037,0.07547884359921721,0.012508954620169363,0.9937799172696158,-0.08391422062601309,-0.07207473576697314,0.012849594252160491
26.299999999999788,0.17609935,-0.7000026,-0.15182653,-2.2874253,-0.07499843,1.4466052,0.67813027,0.03999999,0.039999917,-0.000823581519981964,0.0008411631842127065,0.0014658202719619595,-0.10065348735225943,0.07555926994259546,0.012433566330989326,0.9936491645004089,-0.0847664713413952,-0.07285746225024824,0.012952737873578882
26.316666666666453,0.17794323,-0.6991177,-0.15341935,-2.2867029,-0.07578545,1.4453015,0.6769996,0.039999995,0.03999992,-0.000998112347971869,0.0007581327870237464,0.001344814727977095,-0.10060948963077762,0.07563104705475317,0.012355995287313626,0.9935170847056657,-0.08561787234199052,-0.07364064150998269,0.013055200174023673
26.33333333333312,0.17978714,-0.69823265,-0.15501231,-2.2859802,-0.07657251,1.4439979,0.6758689,0.03999999,0.039999917,-0.0010712850005090147,0.0008229665803390074,0.001476176382331218,-0.1005544661618307,0.07569177893017266,0.012277145871868435,0.9933836852211709,-0.08646835261347281,-0.07442426590460569,0.013156997274387119
26.349999999999785,0.18163092,-0.6973476,-0.15660515,-2.2852576,-0.077359505,1.4426942,0.6747383,0.03999999,0.039999917,-0.0012023714028419619,0.0005897086165822241,0.0012318046023196416,-0.10048771136552367,0.07574326102280488,0.01219631914920015,0.9932489688673029,-0.087317878757012,-0.07520835574383607,0.01325809638387909
26.36666666666645,0.18347438,-0.69646245,-0.1581977,-2.2845354,-0.07814636,1.4413906,0.67360765,0.039999995,0.03999992,-0.00195387723400664,0.0004467799552196339,0.0010822712050551075,-0.10040869442031135,0.0757823011049675,0.0121144567943103,0.9931129202923832,-0.08816646598896627,-0.07599310931328608,0.013358486450572797
26.383333333333116,0.18531722,-0.6955776,-0.15978977,-2.283814,-0.07893295,1.4400876,0.6724776,0.04,0.039999925,-0.0018309424862250623,0.00042630818081271227,0.0010155342552886637,-0.10031605659546808,0.0758062071548557,0.012031635911022902,0.9929755907750927,-0.08901375679305287,-0.07677828355385762,0.013458172274358412
26.399999999999782,0.1871593,-0.6946932,-0.16138114,-2.2830927,-0.07971921,1.4387854,0.6713479,0.04,0.03999992,-0.0008052085354481875,0.0003213415233467576,0.0015547333752419235,-0.10021243040756286,0.07581696988051476,0.011947935638782957,0.992837015838233,-0.08985985617296638,-0.07756333415248472,0.01355711714029824
26.416666666666448,0.1890003,-0.69380945,-0.16297162,-2.282372,-0.08050499,1.4374841,0.67021906,0.04,0.03999992,-0.0009035266341106407,0.00032582432182293175,0.0011740343813126941,-0.10009590238786789,0.07582050828325242,0.011862083551189007,0.9926972229101665,-0.09070444991056033,-0.07834831279947534,0.013655338675459051
26.433333333333113,0.19084004,-0.6929261,-0.16456102,-2.2816513,-0.081290215,1.4361836,0.6690909,0.039999988,0.03999991,-0.00038600859828541445,0.00026617207547416366,0.0014350457420375662,-0.09996870378778522,0.0758115557709936,0.011775171691524075,0.9925562197169152,-0.09154755742701765,-0.07913315081792703,0.013752813240964962
26.44999999999978,0.19267829,-0.69204366,-0.1661492,-2.2809308,-0.08207483,1.4348838,0.6679637,0.039999995,0.03999992,-0.00018990798893447902,0.00031509001561652594,0.0011248835439126026,-0.0998291642605811,0.07579178489179962,0.011687333563603776,0.9924140376949216,-0.09238904161170601,-0.07991766340855691,0.01384954336610541
26.466666666666445,0.19451478,-0.6911618,-0.16773587,-2.2802112,-0.0828587,1.4335856,0.66683745,0.04,0.03999992,-0.0014320851039029137,1.8227505629853091e-06,0.001428132694503148,-0.09967816743626179,0.07576227881436567,0.011597157571707706,0.9922706770861907,-0.09322883930253281,-0.08070198417744538,0.013945489128693637
26.48333333333311,0.19634935,-0.69028103,-0.16932093,-2.2794921,-0.08364173,1.4322886,0.6657125,0.03999999,0.039999913,-0.00020508927616180728,9.180526450922044e-05,0.00112442105046906,-0.09951491217183345,0.07572115484504365,0.011506575533837618,0.9921261826120383,-0.09406678294987318,-0.08148581183251717,0.014040676305699057
26.499999999999776,0.19818172,-0.689401,-0.17090411,-2.278774,-0.08442382,1.4309928,0.66458863,0.03999999,0.039999913,-0.0012779958131758917,-7.688312089471072e-05,0.001023267929789462,-0.09934084699908494,0.07566977252559987,0.011414674948944409,0.9919805248172042,-0.09490289508399802,-0.0822695466354286,0.01413508346140354
26.516666666666442,0.2000117,-0.6885223,-0.17248525,-2.2780561,-0.08520489,1.4296992,0.6634664,0.039999988,0.03999991,0.000775149705023459,-5.12011475280183e-05,0.0017816401789882974,-0.0991537966746378,0.07560228602310863,0.01132197532052566,0.9918338327296696,-0.09573689838102412,-0.08305202689164706,0.014228681258089142
26.533333333333108,0.20183909,-0.687645,-0.17406414,-2.2773402,-0.08598485,1.428407,0.6623456,0.039999984,0.039999906,-0.0018670556862554477,-0.00031070159648843854,0.0002666692550779004,-0.0989559705788865,0.07553164725813546,0.011228918944141117,0.9916860047203268,-0.09656892207212775,-0.08383439469522809,0.014321508221836534
26.549999999999773,0.2036636,-0.68676895,-0.17564063,-2.2766256,-0.086763605,1.4271172,0.66122663,0.039999984,0.039999906,-0.0011208419762320787,-0.0002997488504095924,0.0014543825989532522,-0.09874586080991873,0.0754430484928944,0.011134083852826743,0.9915371330260219,-0.0973986600456375,-0.08461598894410327,0.01441350987313298
26.56666666666644,0.20548508,-0.68589425,-0.17721446,-2.2759123,-0.08754105,1.4258295,0.6601096,0.039999984,0.039999906,-0.0005852602202871537,-0.00042351125873751894,0.0010809899677388657,-0.098524363212715,0.0753427249416118,0.011038389696124473,0.9913872262214292,-0.09822608474841289,-0.0853968279398748,0.014504679858097171
26.583333333333105,0.20730327,-0.68502116,-0.17878547,-2.2751997,-0.088317074,1.424544,0.6589945,0.03999999,0.039999913,0.00048457521855116426,-0.00036530881085128364,0.0012715658254336404,-0.09829153275403187,0.07523022681039289,0.01094212065943731,0.9912363385522155,-0.09905109397068351,-0.0861764868803904,0.014595034284383556
26.59999999999977,0.20911795,-0.68414986,-0.18035349,-2.2744884,-0.08909162,1.4232614,0.65788144,0.03999999,0.039999917,-0.0002421682828268601,-0.0004881190051903017,0.0014194112317511554,-0.09804764218167511,0.07510887219921672,0.010843112541867886,0.9910844976123189,-0.09987364145909293,-0.08695480540783682,0.01468455483572544
26.616666666666436,0.2109289,-0.6832803,-0.18191831,-2.2737784,-0.08986457,1.4219807,0.65677094,0.039999995,0.03999992,-7.201632150621862e-05,-0.0005318316668119494,0.0006987154255178041,-0.09779161958940281,0.07497780221962369,0.010744695353198094,0.9909317043070336,-0.10069342898849792,-0.08773221988430462,0.014773230921774686
26.633333333333102,0.21273589,-0.68241256,-0.18347976,-2.2730708,-0.09063582,1.420703,0.6556628,0.04,0.03999992,-0.0015608019205082257,-0.0007559695372569286,0.0008036521136567387,-0.09752564669421013,0.07483302875170879,0.010646530520901615,0.9907779563295616,-0.1015105761824753,-0.08850871406989533,0.014861080317822128
26.649999999999768,0.21453874,-0.68154675,-0.18503767,-2.2723646,-0.0914053,1.4194285,0.6545572,0.039999988,0.039999913,6.178226270581177e-05,-0.000691985244605231,0.001348598230688225,-0.09724837671380027,0.07467389760536336,0.010546704926254986,0.9906233361538165,-0.1023248681209902,-0.08928371748013986,0.014948077616571262
26.666666666666433,0.21633716,-0.6806832,-0.18659176,-2.2716599,-0.09217289,1.4181572,0.65345436,0.039999988,0.039999913,0.0005571967579331982,-0.0008082279929197411,0.0013071261623087693,-0.09696005805058351,0.07450460537311598,0.010447360563239264,0.990467887935331,-0.10313625449817798,-0.09005691813139129,0.015034210111854386
26.6833333333331,0.21813102,-0.67982185,-0.18814182,-2.2709568,-0.09293853,1.4168892,0.6523543,0.039999988,0.03999991,0.00015545800426952638,-0.000981010016883055,0.0010867735233732745,-0.09666095146088322,0.07432714765528825,0.010346874854818132,0.9903116095748291,-0.10394469539170562,-0.09082851181528116,0.015119447167746386
26.699999999999765,0.21992004,-0.678963,-0.18968782,-2.2702563,-0.09370209,1.4156246,0.6512572,0.03999998,0.039999906,-0.0009404681419633576,-0.0009443332288264217,0.0005648240487321488,-0.09635081320133006,0.07413883413884166,0.010244929280949507,0.9901545087460337,-0.10475003638424846,-0.09159869604506202,0.015203866950341484
26.71666666666643,0.221704,-0.67810625,-0.19122945,-2.2695572,-0.09446353,1.4143634,0.6501631,0.039999984,0.039999906,0.0005263497697693964,-0.0009917610670831523,0.00129675301836496,-0.0960295303645247,0.07393659170193581,0.010143292981279944,0.989996635069472,-0.10555222370332674,-0.09236713033898218,0.01528737568542106
26.733333333333096,0.2234827,-0.6772522,-0.19276655,-2.2688599,-0.095222704,1.4131057,0.6490722,0.039999984,0.039999906,0.0008798602204818096,-0.0010267283299184027,0.001007657848561827,-0.09569756021925496,0.07372321880593603,0.010041939736560618,0.9898380401942715,-0.10635114697564144,-0.09313350729440856,0.015370020831853251
26.749999999999762,0.22525595,-0.6764007,-0.19429897,-2.2681646,-0.09597952,1.4118522,0.64798474,0.039999988,0.03999991,0.00022764939733299627,-0.0012245747796540973,0.0012162156228123777,-0.09535484563655798,0.07350030782961044,0.00993840540690677,0.9896787596128875,-0.10714663129592786,-0.09389778625377906,0.015451793089165904
26.766666666666428,0.2270235,-0.675552,-0.19582649,-2.2674725,-0.09673394,1.4106026,0.64690065,0.039999988,0.03999991,-0.0011232100114000332,-0.0013368820277803728,0.0003133901772089942,-0.0950020176905596,0.07326717236786869,0.009835678586793524,0.9895187415206437,-0.10793876865039019,-0.09466054218582226,0.015532680217059558
26.783333333333093,0.22878511,-0.67470616,-0.19734895,-2.2667823,-0.09748582,1.4093572,0.64582014,0.039999995,0.03999992,0.0009834550499965289,-0.001234514512465923,0.0012363687477812135,-0.09463838416376834,0.07301813491994752,0.009731451416895541,0.9893581078976389,-0.10872733848414234,-0.09542087707017524,0.015612700679804952
26.79999999999976,0.23054063,-0.67386335,-0.19886614,-2.2660942,-0.09823508,1.408116,0.6447434,0.039999995,0.039999917,0.0008453426366905603,-0.0013880066835642024,0.0008853687561094503,-0.09426402064912576,0.07276037664403334,0.009627718679520114,0.9891968730552996,-0.10951227491984909,-0.09617886670712218,0.015691831583046843
26.816666666666425,0.23228987,-0.6730234,-0.20037791,-2.2654095,-0.09898166,1.4068792,0.64367056,0.03999999,0.039999917,-0.001096675195255692,-0.0016245291069486023,0.0004786046978733083,-0.09387987195977968,0.07249244429841384,0.00952290396486246,0.9890350048749774,-0.1102935115804963,-0.09693505915903027,0.015770058371212765
26.83333333333309,0.2340326,-0.67218655,-0.20188406,-2.2647266,-0.09972546,1.4056469,0.64260185,0.039999995,0.03999992,0.001446532697424452,-0.001482308528347187,0.0011926595535172169,-0.09348516949068462,0.07220889303789393,0.009419026388608746,0.9888726250071933,-0.11107087022120032,-0.09768855641139744,0.01584737347150815
26.849999999999756,0.23576856,-0.6713531,-0.20338441,-2.2640462,-0.10046639,1.4044197,0.64153725,0.039999995,0.039999917,0.0011573244486751122,-0.00151967478922016,0.0011123841150206815,-0.09308076656482195,0.07191606329226818,0.009315537783212084,0.9887097688958556,-0.11184431391508512,-0.09843919518029919,0.015923793110395427
26.866666666666422,0.23749757,-0.670523,-0.20487875,-2.2633688,-0.10120435,1.4031973,0.6404767,0.04,0.03999992,3.652550342181371e-05,-0.001806000752771486,0.0006174156719884749,-0.09266716880114234,0.07161582433730743,0.009211081540807867,0.9885464009350277,-0.11261391762991974,-0.09918740141057543,0.015999317356139398
26.883333333333088,0.23921944,-0.66969615,-0.20636696,-2.2626941,-0.10193925,1.4019797,0.6394207,0.03999999,0.039999913,0.0007326056225664956,-0.0017175804940816608,0.0007794803162930464,-0.09224214910956115,0.071303084704839,0.009106432283063029,0.9883825867929582,-0.11337937298741818,-0.09993301984540921,0.01607393697939735
26.899999999999753,0.24093395,-0.6688728,-0.20784883,-2.2620227,-0.10267104,1.4007676,0.63836914,0.04,0.039999925,-2.220932637797546e-06,-0.0019066417381544132,0.0008191697442372359,-0.09180842628696596,0.0709775865010061,0.009001747553030258,0.9882183479302066,-0.11414072378256823,-0.1006759440988759,0.016147639712499474
26.91666666666642,0.2426409,-0.66805303,-0.20932423,-2.2613535,-0.1033996,1.3995605,0.6373222,0.03999999,0.039999917,0.001995749148941961,-0.0017194854518357006,0.0009665079488740957,-0.09136451318462971,0.07064052862505987,0.008897648227947474,0.9880537638795256,-0.11489781682149694,-0.10141572056876058,0.01622044989127926
26.933333333333085,0.24434015,-0.667237,-0.21079296,-2.2606874,-0.1041248,1.398359,0.63628,0.039999988,0.039999913,0.0007435140743083934,-0.002079898776770339,0.0008452323958740848,-0.09091186963362535,0.07029401740310459,0.008793122958555659,0.9878888401119251,-0.11565063181300171,-0.10215248124659734,0.01629237609228298
26.94999999999975,0.24603143,-0.666425,-0.21225482,-2.260025,-0.104846664,1.3971633,0.6352428,0.039999988,0.039999913,0.00011985530028457703,-0.002095534196042137,0.0004147668114962144,-0.0904493218407238,0.06993764781498289,0.008689027842090587,0.9877236043881051,-0.11639903950470819,-0.10288627133794356,0.01636337700862842
26.966666666666416,0.24771452,-0.66561687,-0.21370965,-2.2593653,-0.10556503,1.3959733,0.63421047,0.03999999,0.039999917,0.0018001466033812363,-0.0020086496889906713,0.0010255865313002488,-0.0899778142299662,0.06957068764446758,0.008584756569294735,0.9875581226487119,-0.11714302637988241,-0.10361663193152208,0.016433482536613746
26.983333333333082,0.24938934,-0.66481274,-0.21515733,-2.258709,-0.10627982,1.3947891,0.63318324,0.039999995,0.03999992,0.0008722659216919837,-0.0022276603124149474,0.0005391239173091478,-0.0894969741833959,0.06919319865750401,0.008480163440376692,0.9873923930147276,-0.11788250327202868,-0.10434384782284419,0.01650269858213717
26.999999999999748,0.25105557,-0.6640126,-0.21659765,-2.2580562,-0.10699098,1.3936111,0.6321614,0.039999995,0.03999992,0.0006449663833008046,-0.0022600597796865185,0.0007361474090306075,-0.08900640220661395,0.06880552847860472,0.008376272506558695,0.9872264681473466,-0.11861729799241254,-0.10506778460065089,0.016570994098321832
27.016666666666413,0.2527132,-0.6632166,-0.21803044,-2.2574074,-0.10769841,1.392439,0.6311449,0.03999999,0.039999917,5.958941520223249e-05,-0.0025642191693486804,0.00019193792075711258,-0.08850777732045156,0.06840533530948971,0.008272959411499158,0.9870603241270172,-0.11934750382179354,-0.10578872355980697,0.016638384337480525
27.03333333333308,0.2543618,-0.66242504,-0.21945558,-2.2567608,-0.108402036,1.3912731,0.63013387,0.039999995,0.03999992,0.0034349284782519973,-0.001962850742093236,0.0012058094838618416,-0.08799918751002256,0.06799153968968055,0.008169889161627746,0.9868941500675139,-0.12007281101218699,-0.106505414366947,0.016704889364377737
27.049999999999745,0.2560013,-0.66163766,-0.2208728,-2.2561183,-0.109101765,1.3901141,0.6291284,0.039999995,0.03999992,0.00037415103275595385,-0.002663157261817428,0.0007310889507783358,-0.08748373706944293,0.0675737806895787,0.008066536213864633,0.986727866065821,-0.12079335720366469,-0.10721863085659117,0.016770461588672483
27.06666666666641,0.2576315,-0.66085476,-0.22228204,-2.2554793,-0.109797545,1.3889616,0.6281286,0.039999995,0.03999992,0.0014116198474134478,-0.0024885093537568848,0.000623255331144712,-0.08695850451014012,0.06714397957998015,0.007964149059885552,0.9865615339272057,-0.12150902574259112,-0.10792809956376066,0.016835134773451617
27.083333333333076,0.25925222,-0.6600763,-0.22368312,-2.2548442,-0.11048925,1.3878155,0.6271345,0.03999999,0.039999917,0.0010862726542271162,-0.0025598154025849307,0.00034831221527031886,-0.0864247814099721,0.06670419034610742,0.00786207528484928,0.9863951616108106,-0.12221975748199251,-0.10863398118615113,0.01689893971445522
27.099999999999742,0.26086327,-0.6593026,-0.22507584,-2.2542129,-0.11117683,1.3866761,0.62614644,0.03999999,0.039999917,0.0014355272914379213,-0.002669299521718127,0.0003796536035549636,-0.08588248701257566,0.06625218629544341,0.0077603619492823545,0.986228811698073,-0.12292542570094243,-0.10933602641452314,0.016961840134013396
27.116666666666408,0.26246455,-0.65853375,-0.22646007,-2.2535856,-0.1118602,1.3855437,0.6251644,0.03999999,0.03999992,0.0013605909525038484,-0.002819531904252326,0.0004031498648915388,-0.08533207855948458,0.06578986254478712,0.0076590634773863395,0.9860625182814938,-0.12362605269754282,-0.11003407297115067,0.017023863256101997
27.133333333333074,0.2640557,-0.65776956,-0.22783564,-2.2529616,-0.11253931,1.3844185,0.62418854,0.03999999,0.03999992,0.0022723298123139557,-0.002584969064338416,0.0009695494277428551,-0.08477305773508634,0.06531800184407484,0.007558306582287858,0.9858963660336583,-0.12432140236263692,-0.11072781167121026,0.017084966453559166
27.14999999999974,0.2656367,-0.6570104,-0.22920242,-2.2523422,-0.113214076,1.3833007,0.62321895,0.039999988,0.039999913,0.0009129702951637952,-0.002975167262316003,0.00028231272559686715,-0.08420708231795217,0.06483913861861479,0.007458581628596077,0.9857303294483034,-0.1250115826481734,-0.11141752330765413,0.017145183274804292
27.166666666666405,0.26720735,-0.6562561,-0.23056026,-2.2517269,-0.1138844,1.3821901,0.62225556,0.03999999,0.03999992,0.0015500868948414848,-0.0029147867262574456,0.0004689692728154782,-0.08363260420854604,0.06434840059119556,0.007358693478799638,0.9855644489050218,-0.12569654704405922,-0.11210307395941378,0.01720453209451718
27.18333333333307,0.26876748,-0.65550673,-0.23190898,-2.2511158,-0.11455021,1.3810868,0.6212988,0.039999995,0.039999925,0.00130850513724301,-0.0030489097910868512,0.0002669211387917869,-0.08304956859164923,0.06384724869023432,0.007259626921292419,0.9853987597265441,-0.12637611064759813,-0.11278453969676931,0.017262983298452588
27.199999999999736,0.27031672,-0.6547628,-0.23324847,-2.2505085,-0.11521145,1.379991,0.6203484,0.039999977,0.039999902,0.0026040889049117055,-0.0027087649538529157,0.00043339629585137374,-0.08245881302751028,0.0633341274070667,0.0071621876722722175,0.9852333530235622,-0.12705025268245945,-0.11346131577681105,0.017320600609303297
27.216666666666402,0.2718552,-0.65402406,-0.23457858,-2.2499053,-0.11586804,1.3789034,0.61940485,0.039999977,0.039999913,0.0021307077402443753,-0.0032122914795026936,0.0008751471161749791,-0.08186172838991518,0.06281481692662522,0.0070617218262640155,0.9850682712218486,-0.12771888032468529,-0.11413333211020499,0.01737731688233183
27.233333333333068,0.2733826,-0.6532906,-0.23589917,-2.2493067,-0.116519906,1.3778235,0.6184681,0.039999966,0.039999902,0.0015292614202966348,-0.0031167591149960927,0.00021081022507640768,-0.08125706497734578,0.062289419297167935,0.006964339427271978,0.9849035004692366,-0.12838195559609655,-0.1148009259233108,0.01743317664445286
27.249999999999734,0.27489874,-0.6525626,-0.23721007,-2.2487118,-0.11716699,1.3767515,0.617538,0.03999997,0.039999906,0.0028235081396932316,-0.0030455244096991296,0.0007056850156228478,-0.08064518510709978,0.06175224079445745,0.0068678395958500366,0.9847391204077436,-0.12903951617967419,-0.11546355106415243,0.017488178245749466
27.2666666666664,0.27640343,-0.65184003,-0.23851113,-2.2481227,-0.1178092,1.3756876,0.61661506,0.03999997,0.039999906,-1.1888180040386942e-05,-0.0034281553261253372,-0.0004162759818848727,-0.0800256505030725,0.06121023249533006,0.006771388504797776,0.9845750694706285,-0.12969135995571382,-0.11612213595201579,0.017542328000756273
27.283333333333065,0.27789673,-0.6511229,-0.23980223,-2.2475376,-0.11844647,1.3746318,0.6156993,0.03999998,0.039999913,0.002640571452094953,-0.003427143493707485,0.0005723855719397264,-0.07939937924093743,0.06065265877583796,0.00667731358451111,0.9844114732967034,-0.13033751761767498,-0.11677575744913059,0.017595602156733465
27.29999999999973,0.27937824,-0.6504115,-0.24108323,-2.246957,-0.119078755,1.3735843,0.61479074,0.039999977,0.039999917,0.002179871170171488,-0.003223490920227501,0.0003466555836384444,-0.07876639902796992,0.06008694110369007,0.006581945533360223,0.9842483704141809,-0.13097784524873837,-0.1174244288429463,0.017648028273286053
27.316666666666396,0.28084785,-0.6497058,-0.24235399,-2.2463815,-0.119705975,1.3725452,0.6138895,0.03999997,0.03999991,0.0016534891242203642,-0.003463494507244258,7.614538619638012e-05,-0.07812722028752286,0.059514109856574515,0.006488597855910359,0.9840857693227125,-0.13161234752769188,-0.11806825271955677,0.017699612835478842
27.333333333333062,0.28230545,-0.6490059,-0.2436144,-2.24581,-0.120328076,1.3715144,0.6129955,0.03999996,0.039999902,0.0030362584364729273,-0.0033128765168768948,0.0004260245658249673,-0.07748184124397679,0.058932649463276414,0.006396161020754968,0.983923732524143,-0.1322410166963333,-0.11870689411873712,0.01775036246283002
27.349999999999728,0.28375104,-0.6483117,-0.24486431,-2.2452435,-0.120944984,1.3704922,0.61210895,0.039999973,0.03999991,0.001698515773829179,-0.003761387896687729,0.0001409679157404753,-0.07682929634268974,0.05834302873907846,0.00630489811891238,0.9837622461043777,-0.1328638675961551,-0.11934063235910232,0.017800261098948663
27.366666666666394,0.28518417,-0.64762336,-0.2461036,-2.244682,-0.12155664,1.3694792,0.61122984,0.039999973,0.039999913,0.002004711986414165,-0.0034802453100765685,0.0004661251199022942,-0.07617027084714106,0.05774289742422382,0.006212992220222022,0.9836014001829714,-0.13348074617697409,-0.11996906747206579,0.017849336346745025
27.38333333333306,0.2866049,-0.6469409,-0.24733217,-2.244125,-0.12216299,1.3684742,0.61035854,0.039999966,0.039999906,0.0029173112527702827,-0.0035071741901773756,3.1073408246484746e-05,-0.07550491323542388,0.05713743954726298,0.006123558272403587,0.9834412114301779,-0.1340915103438775,-0.12059240156269098,0.017897575248745516
27.399999999999725,0.28801307,-0.64626473,-0.24854985,-2.2435734,-0.12276394,1.3674785,0.609495,0.039999966,0.03999991,0.001452836324045137,-0.003859794162286434,-0.00021227398399048525,-0.07483455034672676,0.05652102482351477,0.00603431647230002,0.9832816936768911,-0.13469628249413806,-0.12121055416571683,0.017945024965253416
27.41666666666639,0.2894085,-0.6455945,-0.24975659,-2.243026,-0.123359464,1.3664917,0.60863906,0.03999996,0.039999906,0.0035260378740797904,-0.003524141382041379,0.0007281124307478848,-0.07415765829911107,0.055897086123271954,0.005946329017966226,0.983122944296892,-0.13529497149421577,-0.12182301649359478,0.017991657449800476
27.433333333333056,0.29079098,-0.6449305,-0.2509522,-2.2424839,-0.123949505,1.3655144,0.6077911,0.03999996,0.039999906,0.0022333725894663203,-0.003724660753386122,0.00029838817736660417,-0.07347521240120322,0.05526719942410425,0.005858244046699872,0.9829649908828774,-0.13588744681305093,-0.12242988983526333,0.018037476879550488
27.449999999999722,0.29216042,-0.64427274,-0.25213662,-2.2419472,-0.124533996,1.3645461,0.6069511,0.039999958,0.039999902,0.0018399017225778636,-0.0038406277199282135,-0.00034293381274697055,-0.07278798954081481,0.054631683422842345,0.005772489288546085,0.982807795361894,-0.13647377752177012,-0.12303157358883204,0.018082514346401905
27.466666666666388,0.2935169,-0.64362115,-0.25330967,-2.2414155,-0.12511286,1.3635871,0.6061192,0.03999996,0.039999906,0.002538934738649523,-0.004096774342628173,0.00034839362594851764,-0.07209474460346638,0.05398537606881265,0.005687294189082516,0.98265143581106,-0.13705394158951087,-0.12362764418247874,0.01812673128646824
27.483333333333054,0.29486004,-0.64297605,-0.25447118,-2.240889,-0.1256861,1.3626374,0.60529536,0.039999958,0.039999906,0.0025752870552064877,-0.0038640502864645265,-0.00020888670333452097,-0.07139612101701936,0.053332103346102534,0.005601841855620522,0.9824959363059691,-0.13762788145683447,-0.12421814383014577,0.018170143955239103
27.49999999999972,0.29618973,-0.64233744,-0.25562117,-2.2403677,-0.12625358,1.3616972,0.6044796,0.039999954,0.039999902,0.002990922015055908,-0.0038485376318536657,0.00018046868499599356,-0.07069179567451127,0.05267023503801681,0.005519020824576407,0.9823413650470624,-0.13819553122912542,-0.12480276871443419,0.018212813812958133
27.516666666666385,0.2975059,-0.6417053,-0.25675946,-2.2398524,-0.12681527,1.3607664,0.6036724,0.039999954,0.0399999,0.0011783085081651379,-0.004167739525695602,-0.0006010737463757465,-0.06998227207181867,0.0520040751253582,0.005437226313625837,0.982187675139405,-0.1387567824505385,-0.12538218242470603,0.018254710587749287
27.53333333333305,0.29880846,-0.6410798,-0.2578861,-2.2393413,-0.12737118,1.3598455,0.60287344,0.039999947,0.039999895,0.004697154855271002,-0.0036989566139192243,0.0008752102025111341,-0.06926864805198349,0.051326276109833244,0.005356538377485221,0.9820350722340726,-0.13931160770732345,-0.12595496992889063,0.018295857739742308
27.549999999999716,0.30009726,-0.6404608,-0.25900084,-2.2388365,-0.12792121,1.3589343,0.6020831,0.039999943,0.03999989,0.0009943930952660551,-0.004318732929663172,-0.0006434479129513448,-0.06855122846646611,0.05064862185818677,0.005275922847254352,0.9818834020533903,-0.13986002633060976,-0.12652248995276147,0.01833623033817715
27.566666666666382,0.30137226,-0.63984835,-0.26010358,-2.2383368,-0.12846531,1.3580328,0.60130095,0.039999943,0.039999895,0.0032363551852432337,-0.004151320730159946,0.0002220362417926225,-0.06782920086845529,0.049958820197640065,0.005196464696257709,0.9817327719556438,-0.14040215495403693,-0.12708393827705214,0.018375853301137814
27.583333333333048,0.30263317,-0.63924277,-0.26119426,-2.237843,-0.12900344,1.3571414,0.60052764,0.03999995,0.0399999,0.002178531914864834,-0.004112564921610051,-0.00033176849667526653,-0.06710162192859387,0.049264881711195765,0.005118385743238703,0.9815832238393898,-0.140937671400074,-0.127639510731134,0.01841474294449845
27.599999999999714,0.30388004,-0.638644,-0.2622728,-2.237354,-0.12953559,1.3562598,0.59976304,0.039999947,0.0399999,0.0039075234448127105,-0.004037594187052129,0.0002793228006892079,-0.06637132240887299,0.0485620016213794,0.005041054229797132,0.981434838307052,-0.14146662671986038,-0.1281887014008706,0.01845287280812469
27.61666666666638,0.30511272,-0.63805187,-0.26333907,-2.236871,-0.13006167,1.3553883,0.5990066,0.039999943,0.039999895,0.0020681085779905573,-0.0043669980386601415,-0.00029480626739797344,-0.06563746504390922,0.04785812305520217,0.004965211643283212,0.9812875141599547,-0.141989353839458,-0.12873207394892935,0.018490297099750173
27.633333333333045,0.30633113,-0.63746655,-0.26439294,-2.2363935,-0.13058168,1.3545266,0.5982594,0.039999943,0.039999895,0.0029277269412819606,-0.0043112982425971835,-0.0002000056218642854,-0.06489705709175066,0.04714450488394239,0.00489031325385153,0.9811413821177727,-0.14250531595015925,-0.12926939284060673,0.01852693435495437
27.64999999999971,0.30753517,-0.6368883,-0.26543447,-2.2359216,-0.13109554,1.3536754,0.5975205,0.039999943,0.039999895,0.002927949974873556,-0.004226981653961126,-0.0001300153600780618,-0.06415484100596304,0.04642467693703538,0.0048173766857987285,0.9809964327246543,-0.1430149586942855,-0.12980037829372304,0.018562929886760792
27.666666666666377,0.3087248,-0.6363169,-0.26646343,-2.235455,-0.13160324,1.3528341,0.596791,0.039999947,0.039999902,0.0033604004604947946,-0.004401714289896386,-2.0650640597530412e-05,-0.06340725914347536,0.04570030171976106,0.004743819292670082,0.980852759021772,-0.14351773220899577,-0.13032511353517418,0.01859813009441023
27.683333333333042,0.3098998,-0.63575244,-0.26747987,-2.2349944,-0.13210475,1.3520032,0.5960703,0.039999954,0.039999913,0.002513407789495048,-0.00428019561362486,-0.0002679882252110133,-0.06265884720426919,0.044971414792033926,0.004671716325910874,0.9807103206213659,-0.14401397429705937,-0.1308436719195477,0.018632652857640236
27.699999999999708,0.31106016,-0.6351951,-0.26848364,-2.2345397,-0.13259995,1.3511827,0.5953583,0.039999958,0.03999992,0.002683842323381036,-0.004481459898925122,-0.00036076401606077724,-0.06190606891380516,0.04423576889057682,0.004601852345402245,0.9805691440168093,-0.14450370522600098,-0.13135598002326063,0.01866653396396391
27.716666666666374,0.31220582,-0.63464487,-0.26947471,-2.2340913,-0.1330889,1.3503728,0.5946556,0.03999996,0.039999925,0.0024312644603563527,-0.004481221856177109,-0.00035055190810151515,-0.061149000944219385,0.04349474412080954,0.004532666302631327,0.9804292854893076,-0.14498671759229856,-0.13186200628800324,0.018699710544263868
27.73333333333304,0.31333658,-0.6341016,-0.27045298,-2.2336476,-0.13357152,1.3495731,0.5939621,0.039999966,0.039999932,0.004373462801510186,-0.004203548956141501,0.00024154741506965394,-0.060390252009118794,0.042748197582119625,0.004462766069760048,0.980290846341875,-0.14546287640751182,-0.13236129938593896,0.01873218061115664
27.749999999999705,0.3144525,-0.6335656,-0.27141836,-2.2332098,-0.13404776,1.3487839,0.5932777,0.03999997,0.03999994,0.002882408917548318,-0.004568469108599815,-0.0004873562429619227,-0.05963041578534059,0.04200010075045571,0.004395680276921197,0.9801537614857044,-0.14593238974691017,-0.13285425826274272,0.01876399556696362
27.76666666666637,0.31555346,-0.63303673,-0.27237087,-2.2327783,-0.13451762,1.3480054,0.5926024,0.039999977,0.039999947,0.002527221341597219,-0.004530975741963428,-0.00024105216183123446,-0.05886701717422449,0.04124556716087711,0.00433004495489004,0.9800180635138885,-0.14639525902970238,-0.13334078545083436,0.01879516574730226
27.783333333333037,0.31663945,-0.63251513,-0.27331048,-2.232353,-0.13498107,1.3472377,0.5919362,0.04,0.04,0.0026516011778277004,-0.004576804813476165,-0.0004129131748520365,-0.05810324467022483,0.04048545761994905,0.0042585336328457915,0.9798837720206695,-0.14685148660312347,-0.13382087437950826,0.018825721587789754
27.799999999999702,0.31771025,-0.6320006,-0.27423692,-2.2319334,-0.13543807,1.3464804,0.5912793,0.04,0.04,0.0032131578857619303,-0.0045569379796356335,-0.0003753910472470423,-0.05733684062710231,0.03972085945291384,0.004185958444318339,0.9797509298970231,-0.1473009149370308,-0.1342945388223517,0.018855573900683955
27.816666666666368,0.31876585,-0.6314936,-0.27515024,-2.231519,-0.13588858,1.3457339,0.59063184,0.03999999,0.04,0.004387183560439212,-0.004418279210519072,6.447217180127751e-05,-0.05656639628546732,0.03895146408470154,0.00412366253837813,0.9796196511340314,-0.14774352475706268,-0.13476110112660553,0.018884798848349347
27.833333333333034,0.31980622,-0.6309939,-0.2760504,-2.2311108,-0.13633259,1.3449985,0.58999366,0.039999995,0.04,0.002777494621497567,-0.004692302685867233,-0.00020315434194895232,-0.05579505429632481,0.03818463308177577,0.004063429531506284,0.9794898771112469,-0.14817942119699304,-0.13522101819348428,0.018913381745097223
27.8499999999997,0.32083142,-0.6305015,-0.2769374,-2.2307093,-0.13677011,1.3442733,0.5893648,0.039999995,0.04,0.0020445650956268935,-0.004727763935329088,-0.0011842762178915223,-0.05502156766320511,0.03741402752457079,0.00400327263220197,0.9793615360053955,-0.14860863696488472,-0.1356749046880901,0.0189413582002207
27.866666666666365,0.3218413,-0.63001657,-0.27781117,-2.2303138,-0.13720109,1.3435594,0.58874536,0.039999995,0.04,0.003353789923776773,-0.004653002813798102,-9.596328611749527e-05,-0.05424575876817911,0.03663428132323453,0.003944760160328763,0.9792347787762442,-0.14903111177135303,-0.1361218681726656,0.01896873122846824
27.88333333333303,0.3228357,-0.62953895,-0.2786716,-2.2299244,-0.13762552,1.3428562,0.5881353,0.039999988,0.04,0.00286642108888735,-0.004645887399228055,-0.0005863502135827758,-0.05346896711668714,0.0358550250399957,0.00388675567117339,0.9791095744193448,-0.14944681026614165,-0.1365623088711705,0.01899547255059514
27.899999999999697,0.32381475,-0.6290688,-0.27951878,-2.2295403,-0.13804331,1.3421637,0.5875348,0.03999999,0.04,0.004372977329847316,-0.004479066697762879,-9.384267103396127e-05,-0.05269031353841744,0.03507073792598071,0.0038317344239410453,0.9789860277071089,-0.1498556367170942,-0.13699570163011104,0.01902165695316275
27.916666666666362,0.32477832,-0.62860584,-0.28035253,-2.2291622,-0.13845456,1.3414823,0.58694375,0.039999988,0.04,0.0031669357028807354,-0.004769972023391245,-0.00013027568543932944,-0.05191155566249356,0.03428631852056077,0.003777584105547311,0.9788641034976907,-0.1502577023432108,-0.13742232266850105,0.01904717833684968
27.933333333333028,0.32572642,-0.6281503,-0.2811728,-2.2287908,-0.13885915,1.3408118,0.58636224,0.03999998,0.04,0.0022955087878528957,-0.0049741291024710255,-0.0007523286307931087,-0.051132674824840976,0.03350036459573993,0.0037234106031398366,0.9787437662947839,-0.150653057763973,-0.13784248592978735,0.01907210523678368
27.949999999999694,0.32665902,-0.6277023,-0.28197977,-2.2284253,-0.13925713,1.3401523,0.5857903,0.039999984,0.04,0.0034865122073401977,-0.004571251246657249,-0.0005230740940387335,-0.05035257578325304,0.03270860050755372,0.0036708315687997324,0.9786251000608935,-0.15104160734657726,-0.1382558151178951,0.019096490961816998
27.96666666666636,0.32757604,-0.6272617,-0.28277338,-2.2280662,-0.13964854,1.3395038,0.58522785,0.03999998,0.04,0.0026369119360047932,-0.004612485819026346,-0.0005428764965564881,-0.04957230437018349,0.03191602582759093,0.0036187923752719828,0.9785080941084802,-0.1514233562369051,-0.13866250714155579,0.019120305001721863
27.983333333333025,0.32847753,-0.6268286,-0.2835535,-2.2277124,-0.14003325,1.3388664,0.58467484,0.03999998,0.04,0.004551888368431456,-0.004681847448416432,8.121538681571394e-05,-0.048792110788238044,0.031118815554663795,0.0035682751396540653,0.9783928457877039,-0.1517983819048364,-0.13906190723506695,0.019143576433292092
27.99999999999969,0.32936335,-0.62640303,-0.28432018,-2.2273648,-0.14041139,1.3382399,0.5841314,0.039999984,0.04,0.0031351707622029323,-0.004571389522922686,-0.0005872564400766223,-0.04801191506486573,0.030326464793456628,0.003517814960778666,0.9782793129576324,-0.1521665917404275,-0.13945454036981847,0.0191662559590454
28.016666666666357,0.33023357,-0.62598497,-0.2850734,-2.2270234,-0.14078279,1.3376244,0.5835976,0.039999977,0.04,0.003135253283992334,-0.004790186757440418,-0.0006053140514827859,-0.04723259823394303,0.02953017960092927,0.0034683688923030816,0.9781675023707288,-0.15252804099110537,-0.1398403994606099,0.019188452150265142
28.033333333333022,0.33108827,-0.6255743,-0.28581315,-2.2266884,-0.14114754,1.3370198,0.5830734,0.039999984,0.04,0.0026618943273604145,-0.004864988118495617,-0.0007809534449121358,-0.046453395583763726,0.02873362250346015,0.003420172197871352,0.9780573889030129,-0.1528827893543644,-0.14021971567281527,0.01921010328146875
28.049999999999688,0.3319273,-0.6251712,-0.28653935,-2.2263603,-0.14150564,1.3364264,0.58255875,0.039999977,0.04,0.002203570664538468,-0.004897680420948292,-0.0008888973127563204,-0.045674575011111065,0.02793320414046438,0.0033735057222474187,0.9779489921366902,-0.15323084757181027,-0.14059244861443113,0.019231212230514015
28.066666666666354,0.33275074,-0.62477565,-0.28725204,-2.2260377,-0.1418571,1.335844,0.5820536,0.039999977,0.04,0.004283490796663791,-0.004645988754514718,-0.00014108240076193823,-0.044895973225303865,0.027128933588063474,0.003328188687670793,0.9778424196650436,-0.15357221623137557,-0.14095795597247482,0.019251788318439336
28.08333333333302,0.33355856,-0.6243875,-0.28795135,-2.2257204,-0.14220184,1.3352728,0.5815581,0.03999997,0.04,0.004424839219829835,-0.0045173205187112875,7.01883743126075e-05,-0.04411822022669794,0.026328381698925474,0.0032835027613217892,0.9777377139138936,-0.1539067451716549,-0.14131620910993464,0.019271886879538548
28.099999999999685,0.33435076,-0.62400687,-0.28863707,-2.2254093,-0.14253995,1.3347126,0.58107215,0.03999997,0.04,0.003198962021877527,-0.004854358767258926,-0.0005567046491794514,-0.04334343172257618,0.025531662809711548,0.003238381116655477,0.9776348018209595,-0.1542346417566922,-0.14166760432231704,0.019291434271551083
28.11666666666635,0.33512735,-0.6236338,-0.2893093,-2.225105,-0.14287138,1.3341634,0.58059573,0.03999997,0.04,0.002178275696818055,-0.004902858438600444,-0.0011149285133127407,-0.04256923265777776,0.024735063348234197,0.0031952371155401452,0.9775336367469668,-0.1545559361210045,-0.14201251990896718,0.0193105107937192
28.133333333333017,0.33588836,-0.62326807,-0.2899681,-2.224807,-0.1431962,1.3336251,0.5801288,0.03999997,0.04,0.0029552796813714366,-0.0046781309512439195,-0.0006728716967607795,-0.04179587949329818,0.023934960817282698,0.0031533864117112512,0.9774342636103903,-0.15487059446711973,-0.14235078261425588,0.019329096691879016
28.149999999999682,0.33663392,-0.62290984,-0.29061344,-2.224515,-0.14351436,1.3330979,0.57967156,0.03999997,0.04,0.0035375512353441607,-0.004890990259548422,-0.00033038086286740764,-0.04102396222560276,0.023133035218455104,0.0031126268636354464,0.9773367554649837,-0.15517859976484025,-0.1426820088310172,0.01934716899569618
