rsonawane2002/My_IMU/logs_2/traj_2002/imu_400hz_2002.csv
time,j1,j2,j3,j4,j5,j6,j7,gripper1,gripper2,imu_ax,imu_ay,imu_az,imu_gx,imu_gy,imu_gz
0.0,0.00016700293,-0.785875,4.0107683e-05,-2.3551247,9.29385e-05,1.570997,0.786,0.04,0.04,-9.730211862726955,-0.1960143697041736,0.4331783797731704,-0.0016231750495675,-0.0020844862179477,-0.0012741429753623
0.0025,0.000167004295,-0.785857774,4.010793845e-05,-2.35513919,9.29434425e-05,1.570996565,0.786,0.04,0.04,-9.782467654041755,-0.21308263617922407,0.36905578436964204,-0.0012842740028104708,-0.0024261262110904093,-0.0006874510515842867
0.005,0.00016700566,-0.785840548,4.01081939e-05,-2.3551536800000004,9.294838500000001e-05,1.57099613,0.786,0.04,0.04,-9.834723445356554,-0.23015090265427454,0.30493318896611366,-0.0009453729560534414,-0.0027677662042331188,-0.00010075912780627334
0.0075,0.000167007025,-0.785823322,4.010844935e-05,-2.3551681700000002,9.295332750000001e-05,1.570995695,0.786,0.04,0.04,-9.886979236671353,-0.247219169129325,0.2408105935625853,-0.0006064719092964122,-0.003109406197375828,0.0004859327959717398
0.01,0.00016700839,-0.7858060960000001,4.01087048e-05,-2.35518266,9.295827e-05,1.5709952600000001,0.786,0.04,0.04,-9.939235027986152,-0.2642874356043755,0.1766879981590569,-0.00026757086253938276,-0.0034510461905185377,0.0010726247197497534
0.0125,0.00016700975500000002,-0.78578887,4.010896025e-05,-2.3551971500000004,9.29632125e-05,1.570994825,0.786,0.04,0.04,-9.991490819300953,-0.28135570207942595,0.11256540275552851,7.133018421764644e-05,-0.0037926861836612468,0.001659316643527767
0.015,0.00016701112,-0.785771644,4.01092157e-05,-2.3552116400000003,9.296815500000001e-05,1.57099439,0.786,0.04,0.04,-10.043746610615752,-0.29842396855447645,0.04844280735200018,0.00041023123097467563,-0.004134326176803956,0.0022460085673057795
0.0175,0.000167014602,-0.7857548645,4.0107646299999996e-05,-2.3552257350000003,9.297206650000001e-05,1.57099396,0.786,0.04,0.04,-10.066073289986441,-0.278202018855748,-0.004496770369898289,0.000497362827534304,-0.004510130911546522,0.0026784718825265045
0.02,0.00016702231800000002,-0.785738978,4.01024272e-05,-2.3552390400000003,9.2973916e-05,1.5709935400000001,0.786,0.04,0.04,-10.028541745469013,-0.18339963680958918,-0.035070312728575026,8.095552369999056e-05,-0.004954265129488682,0.0028024779806331765
0.0225,0.000167030034,-0.7857230915,4.00972081e-05,-2.3552523450000002,9.29757655e-05,1.57099312,0.786,0.04,0.04,-9.991010200951585,-0.08859725476343036,-0.06564385508725175,-0.0003354517801343229,-0.005398399347430842,0.0029264840787398484
0.025,0.00016703775000000002,-0.785707205,4.0091989e-05,-2.35526565,9.297761500000001e-05,1.5709927,0.786,0.04,0.04,-9.953478656434157,0.006205127282728595,-0.09621739744592853,-0.0007518590839686369,-0.005842533565373002,0.0030504901768465204
0.0275,0.000167045466,-0.7856913185,4.00867699e-05,-2.3552789549999997,9.29794645e-05,1.57099228,0.786,0.04,0.04,-9.915947111916731,0.10100750932888741,-0.12679093980460526,-0.0011682663878029502,-0.006286667783315163,0.0031744962749531923
0.03,0.00016705318200000002,-0.785675432,4.0081550799999995e-05,-2.3552922599999997,9.2981314e-05,1.57099186,0.786,0.04,0.04,-9.878415567399303,0.19580989137504623,-0.157364482163282,-0.0015846736916372637,-0.006730802001257323,0.0032985023730598643
0.0325,0.000167060898,-0.7856595455,4.00763317e-05,-2.3553055649999997,9.29831635e-05,1.57099144,0.786,0.04,0.04,-9.840884022881875,0.2906122734212052,-0.1879380245219588,-0.002001080995471578,-0.007174936219199483,0.0034225084711665367
0.035,0.00016707977500000004,-0.78564451,4.006155479999998e-05,-2.3553181,9.2980049e-05,1.57099101,0.786,0.04,0.04,-9.851737104012903,0.3174057354079287,-0.16825753604909854,-0.002277589090985634,-0.006489985353813787,0.0029290461064813964
0.0375,0.00016710423250000002,-0.7856299,4.004199899999998e-05,-2.3553302499999997,9.29744525e-05,1.570990575,0.786,0.04,0.04,-9.886782497968076,0.3101947373650506,-0.12345003216055572,-0.002484147582339799,-0.005240491946766092,0.0021268495104014066
0.04,0.00016712869000000004,-0.78561529,4.002244319999997e-05,-2.3553424,9.296885599999999e-05,1.57099014,0.786,0.04,0.04,-9.921827891923249,0.3029837393221725,-0.07864252827201276,-0.002690706073693965,-0.003990998539718393,0.001324652914321414
0.0425,0.00016715314750000005,-0.7856006799999999,4.0002887399999966e-05,-2.35535455,9.296325949999999e-05,1.5709897050000001,0.786,0.04,0.04,-9.956873285878421,0.2957727412792943,-0.0338350243834698,-0.002897264565048131,-0.0027415051326706947,0.0005224563182414221
0.045,0.00016717760500000006,-0.7855860699999999,3.998333159999996e-05,-2.3553667,9.295766299999999e-05,1.57098927,0.786,0.04,0.04,-9.991918679833592,0.2885617432364162,0.010972479505073046,-0.0031038230564022964,-0.0014920117256229997,-0.0002797402778385678
0.0475,0.00016720206250000008,-0.7855714599999999,3.9963775799999956e-05,-2.35537885,9.295206649999999e-05,1.570988835,0.786,0.04,0.04,-10.026964073788765,0.2813507451935381,0.055779983393616006,-0.0033103815477564624,-0.00024251831857530128,-0.0010819368739185603
0.05,0.00016722652000000015,-0.78555685,3.9944219999999876e-05,-2.355391,9.294646999999995e-05,1.5709884,0.786,0.04,0.04,-10.062009467743724,0.27413974715056416,0.1005874872819191,-0.0035169400391077796,0.0010069750884685663,-0.0018841334699960645
0.0525,0.00016728256150000016,-0.7855433679999999,3.9897623999999886e-05,-2.35540213,9.292713199999996e-05,1.57098798,0.786,0.04,0.04,-10.013187384346162,0.22950562412178066,0.051668038481072785,-0.002610297058217228,0.0007592726926647104,-0.0017139617691293914
0.055,0.00016733860300000014,-0.785529886,3.985102799999989e-05,-2.35541326,9.290779399999995e-05,1.57098756,0.786,0.04,0.04,-9.964365300948602,0.18487150109299702,0.0027485896802263293,-0.0017036540773266741,0.0005115702968608539,-0.0015437900682627177
0.0575,0.00016739464450000013,-0.785516404,3.98044319999999e-05,-2.35542439,9.288845599999996e-05,1.57098714,0.786,0.04,0.04,-9.91554321755104,0.14023737806421338,-0.04617085912062012,-0.0007970110964361202,0.00026386790105699723,-0.0013736183673960442
0.06,0.0001674506860000001,-0.7855029219999999,3.975783599999991e-05,-2.35543552,9.286911799999997e-05,1.57098672,0.786,0.04,0.04,-9.86672113415348,0.09560325503542985,-0.09509030792146646,0.00010963188445443136,1.6165505253141468e-05,-0.0012034466665293711
0.0625,0.0001675067275000001,-0.78548944,3.9711239999999915e-05,-2.3554466499999998,9.284977999999996e-05,1.5709863,0.786,0.04,0.04,-9.817899050755917,0.05096913200664621,-0.14400975672231292,0.0010162748653449855,-0.00023153689055071505,-0.0010332749656626976
0.065,0.0001675627690000001,-0.7854759579999999,3.9664643999999926e-05,-2.35545778,9.283044199999997e-05,1.57098588,0.786,0.04,0.04,-9.769076967358355,0.006335008977862544,-0.19292920552315934,0.0019229178462355392,-0.0004792392863545716,-0.0008631032647960239
0.0675,0.00016763562350000015,-0.7854628244999999,3.960365389999986e-05,-2.35546854,9.280387899999994e-05,1.570985455,0.786,0.04,0.04,-9.753884184591517,-0.025237346670421677,-0.21788984874304648,0.0025916751838079917,-0.0012122364313565527,-0.0005127314712297329
0.07,0.00016774210400000017,-0.785450388,3.9513875599999853e-05,-2.35547856,9.276286599999993e-05,1.57098502,0.786,0.04,0.04,-9.805950003085664,-0.030686167557885505,-0.19493288080134216,0.002784661234747488,-0.002915823074748156,0.00019804050773333315
0.0725,0.00016784858450000017,-0.7854379515,3.942409729999985e-05,-2.35548858,9.272185299999993e-05,1.570984585,0.786,0.04,0.04,-9.85801582157981,-0.036134988445349306,-0.17197591285963795,0.0029776472856869827,-0.0046194097181397505,0.0009088124866963953
0.075,0.0001679550650000002,-0.785425515,3.933431899999984e-05,-2.3554986,9.268083999999992e-05,1.57098415,0.786,0.04,0.04,-9.910081640073956,-0.04158380933281314,-0.1490189449179336,0.0031706333366264793,-0.0063229963615313535,0.001619584465659461
0.0775,0.00016806154550000018,-0.7854130785,3.924454069999984e-05,-2.35550862,9.263982699999993e-05,1.5709837150000001,0.786,0.04,0.04,-9.962147458568102,-0.04703263022027696,-0.12606197697622928,0.003363619387565975,-0.008026583004922956,0.002330356444622527
0.08,0.0001681680260000002,-0.785400642,3.915476239999983e-05,-2.35551864,9.259881399999992e-05,1.57098328,0.786,0.04,0.04,-10.01421327706225,-0.052481451107740794,-0.10310500903452495,0.0035566054385054715,-0.00973016964831456,0.003041128423585593
0.0825,0.0001682745065000002,-0.7853882055,3.906498409999983e-05,-2.35552866,9.255780099999992e-05,1.570982845,0.786,0.04,0.04,-10.066279095556396,-0.05793027199520462,-0.08014804109282062,0.0037495914894449677,-0.011433756291706162,0.0037519004025486588
0.085,0.00016842955100000037,-0.785376419,3.893357619999968e-05,-2.35553824,9.249597099999985e-05,1.57098241,0.786,0.04,0.04,-10.062388675634287,-0.08345369765731206,-0.04512622377374688,0.0033631442281674955,-0.011179154729265057,0.003942177372981234
0.08750000000000001,0.00016860887750000042,-0.7853649575,3.8781353499999645e-05,-2.3555476000000004,9.242373249999983e-05,1.570981975,0.786,0.04,0.04,-10.030520136504288,-0.11901442570665564,-0.0040719817660399005,0.0026869803107840125,-0.009945459063915953,0.0038722068391507857
0.09,0.00016878820400000047,-0.785353496,3.86291307999996e-05,-2.3555569600000004,9.235149399999981e-05,1.57098154,0.786,0.04,0.04,-9.99865159737429,-0.15457515375599903,0.036982260241666856,0.002010816393400533,-0.008711763398566856,0.0038022363053203372
0.0925,0.00016896753050000052,-0.7853420345,3.8476908099999564e-05,-2.3555663200000003,9.22792554999998e-05,1.570981105,0.786,0.04,0.04,-9.966783058244289,-0.1901358818053426,0.07803650224937385,0.00133465247601705,-0.007478067733217751,0.003732265771489888
0.095,0.00016914685700000057,-0.785330573,3.832468539999952e-05,-2.3555756800000003,9.220701699999976e-05,1.57098067,0.786,0.04,0.04,-9.93491451911429,-0.22569660985468618,0.11909074425708081,0.000658488558633567,-0.006244372067868646,0.0036622952376594393
0.0975,0.00016932618350000062,-0.7853191115,3.817246269999948e-05,-2.3555850400000002,9.213477849999974e-05,1.570980235,0.786,0.04,0.04,-9.903045979984292,-0.2612573379040298,0.1601449862647878,-1.7675358749916475e-05,-0.005010676402519542,0.00359232470382899
0.1,0.00016950551000000102,-0.78530765,3.802023999999913e-05,-2.3555944,9.206253999999958e-05,1.5709798,0.786,0.04,0.04,-9.871177440854252,-0.2968180659531658,0.20119922827225678,-0.0006938392761310443,-0.00377698073717648,0.0035223541699954206
0.10250000000000001,0.00016978332200000097,-0.7852970375,3.778352769999916e-05,-2.35560304,9.194822949999959e-05,1.570979365,0.785999715,0.04,0.04,-9.828432207123265,-0.2762288805388608,0.1778798664131123,-0.0007328673812258132,-0.004177311052480997,0.0026082831856779377
0.105,0.00017006113400000093,-0.785286425,3.75468153999992e-05,-2.35561168,9.183391899999961e-05,1.5709789299999999,0.78599943,0.04,0.04,-9.785686973392277,-0.2556396951245559,0.15456050455396791,-0.0007718954863205819,-0.004577641367785513,0.0016942122013604596
0.1075,0.00017033894600000088,-0.7852758125,3.7310103099999235e-05,-2.3556203200000003,9.171960849999964e-05,1.5709784949999999,0.785999145,0.04,0.04,-9.74294173966129,-0.23505050971025093,0.13124114269482343,-0.0008109235914153508,-0.004977971683090031,0.0007801412170429767
0.11,0.00017061675800000085,-0.7852652,3.707339079999928e-05,-2.35562896,9.160529799999965e-05,1.57097806,0.7859988600000001,0.04,0.04,-9.700196505930302,-0.21446132429594594,0.10792178083567894,-0.0008499516965101198,-0.005378301998394549,-0.00013392976727450616
0.1125,0.0001708945700000008,-0.7852545875,3.683667849999931e-05,-2.3556376,9.149098749999967e-05,1.570977625,0.785998575,0.04,0.04,-9.657451272199316,-0.19387213888164095,0.08460241897653445,-0.0008889798016048887,-0.005778632313699067,-0.0010480007515919895
0.115,0.00017117238200000076,-0.785243975,3.659996619999935e-05,-2.35564624,9.137667699999968e-05,1.57097719,0.78599829,0.04,0.04,-9.614706038468327,-0.17328295346733597,0.06128305711738996,-0.0009280079066996576,-0.006178962629003585,-0.0019620717359094724
0.11750000000000001,0.00017149252050000107,-0.78523363,3.6326917599999074e-05,-2.35565457,9.124476899999955e-05,1.57097675,0.785998005,0.04,0.03999999975,-9.605765839903258,-0.16281587334367645,0.06005313203207021,-0.001063470561135758,-0.006338778063016916,-0.0025876624661638403
0.12,0.0001718973120000011,-0.78522382,3.5981196399999054e-05,-2.35566228,9.107766599999954e-05,1.5709763,0.78599772,0.04,0.039999999,-9.664435711669219,-0.17259300380106585,0.10300208049387188,-0.0013918023142522153,-0.006017563734453624,-0.0026362926882988725
0.1225,0.00017230210350000112,-0.78521401,3.5635475199999034e-05,-2.35566999,9.091056299999953e-05,1.57097585,0.7859974350000001,0.04,0.03999999825,-9.72310558343518,-0.18237013425845533,0.1459510289556738,-0.0017201340673686743,-0.005696349405890331,-0.0026849229104339055
0.125,0.00017270689500000115,-0.7852042,3.5289753999999014e-05,-2.3556777,9.074345999999953e-05,1.5709754,0.78599715,0.04,0.0399999975,-9.78177545520114,-0.19214726471584478,0.18889997741747572,-0.002048465820485133,-0.005375135077327037,-0.002733553132568938
0.1275,0.00017311168650000118,-0.78519439,3.4944032799999e-05,-2.35568541,9.057635699999952e-05,1.57097495,0.785996865,0.04,0.03999999675,-9.840445326967101,-0.20192439517323424,0.23184892587927763,-0.0023767975736015924,-0.005053920748763744,-0.002782183354703971
0.13,0.0001735164780000012,-0.78518458,3.4598311599998974e-05,-2.3556931199999998,9.040925399999951e-05,1.5709745,0.7859965800000001,0.04,0.039999996,-9.899115198733062,-0.21170152563062372,0.2747978743410795,-0.002705129326718051,-0.0047327064202004505,-0.002830813576839004
0.1325,0.00017392126950000123,-0.78517477,3.425259039999896e-05,-2.35570083,9.02421509999995e-05,1.57097405,0.785996295,0.04,0.03999999525,-9.957785070499025,-0.2214786560880132,0.31774682280288147,-0.00303346107983451,-0.0044114920916371566,-0.002879443798974037
0.135,0.00017443143000000182,-0.785165415,3.381639699999845e-05,-2.35570821,9.003003559999924e-05,1.57097358,0.7859960100000001,0.04,0.039999995,-9.962090509263371,-0.20104047832594357,0.2855168598723834,-0.0028548146711084004,-0.004815812370093106,-0.0026807456431838235
0.1375,0.00017499427500000198,-0.7851562875,3.333496749999832e-05,-2.355715425,8.979541399999918e-05,1.5709731,0.785995725,0.04,0.039999995,-9.93921373152728,-0.16549464645435075,0.21569744124624868,-0.0024226791814644685,-0.005582899952053725,-0.002358383298432676
0.14,0.0001755571200000021,-0.78514716,3.2853537999998195e-05,-2.35572264,8.956079239999912e-05,1.57097262,0.78599544,0.04,0.039999995,-9.916336953791191,-0.1299488145827579,0.14587802262011396,-0.0019905436918205366,-0.006349987534014342,-0.0020360209536815286
0.14250000000000002,0.00017611996500000227,-0.7851380325,3.237210849999806e-05,-2.3557298550000003,8.932617079999905e-05,1.57097214,0.7859951550000001,0.04,0.039999995,-9.893460176055102,-0.09440298271116507,0.07605860399397923,-0.0015584082021766043,-0.007117075115974959,-0.0017136586089303814
0.145,0.00017668281000000243,-0.785128905,3.189067899999794e-05,-2.35573707,8.9091549199999e-05,1.5709716599999999,0.78599487,0.04,0.039999995,-9.870583398319011,-0.0588571508395726,0.00623918536784529,-0.0011262727125326772,-0.007884162697935569,-0.0013912962641792377
0.1475,0.0001772456550000026,-0.7851197775,3.140924949999781e-05,-2.355744285,8.885692759999893e-05,1.57097118,0.7859945850000001,0.04,0.039999995,-9.847706620582922,-0.023311318967979777,-0.06358023325828943,-0.0006941372228887453,-0.008651250279896187,-0.0010689339194280903
0.15,0.00017780850000000364,-0.78511065,3.092781999999688e-05,-2.3557515,8.862230599999847e-05,1.5709707,0.7859943,0.04,0.039999995,-9.824829842846787,0.012234512903412023,-0.1333996518840134,-0.0002620017332477423,-0.009418337861852047,-0.0007465715746829006
0.1525,0.00017856267750000337,-0.7851021225,3.028197849999712e-05,-2.355757935,8.830597534999859e-05,1.570970115,0.7859937300000001,0.04,0.039999995,-9.792565227864692,0.006151941445486771,-0.1181789048373198,-0.00043641913244995303,-0.009200471501034164,-0.0016577556464280297
0.155,0.0001793168550000031,-0.785093595,2.9636136999997358e-05,-2.35576437,8.798964469999871e-05,1.57096953,0.7859931600000001,0.04,0.039999995,-9.760300612882595,6.936998756151835e-05,-0.1029581577906262,-0.0006108365316521637,-0.008982605140216279,-0.002568939718173159
0.1575,0.00018007103250000282,-0.7850850675,2.8990295499997595e-05,-2.355770805,8.767331404999883e-05,1.570968945,0.78599259,0.04,0.039999995,-9.728035997900498,-0.006013201470363735,-0.0877374107439326,-0.0007852539308543746,-0.008764738779398394,-0.003480123789918288
0.16,0.00018082521000000254,-0.78507654,2.8344453999997835e-05,-2.35577724,8.735698339999893e-05,1.57096836,0.78599202,0.04,0.039999995,-9.695771382918402,-0.01209577292828899,-0.072516663697239,-0.0009596713300565852,-0.00854687241858051,-0.004391307861663417
0.1625,0.00018157938750000226,-0.7850680125,2.7698612499998072e-05,-2.355783675,8.704065274999905e-05,1.570967775,0.78599145,0.04,0.039999995,-9.663506767936306,-0.01817834438621424,-0.05729591665054541,-0.001134088729258796,-0.008329006057762624,-0.005302491933408546
0.165,0.000182333565000002,-0.785059485,2.705277099999831e-05,-2.35579011,8.672432209999917e-05,1.5709671900000002,0.7859908800000001,0.04,0.039999995,-9.63124215295421,-0.024260915844139495,-0.04207516960385181,-0.0013085061284610067,-0.00811113969694474,-0.006213676005153675
0.1675,0.00018316329200000243,-0.785051138,2.634199679999793e-05,-2.35579633,8.637573749999898e-05,1.5709664700000001,0.785990308,0.04,0.039999995,-9.607592325440695,-0.022515237544274334,-0.02550485352761522,-0.0016045657114914082,-0.007867250495654626,-0.0068289620918997075
0.17,0.0001841441180000027,-0.785043152,2.5501357199997705e-05,-2.3558021200000003,8.596264499999887e-05,1.5709654800000001,0.785989732,0.04,0.039999995,-9.60117207286416,-0.005113059728995471,-0.0062353993923214245,-0.0021439096621755946,-0.0075713156134206115,-0.006852452208653864
0.17250000000000001,0.00018512494400000295,-0.785035166,2.4660717599997475e-05,-2.3558079100000002,8.554955249999876e-05,1.5709644900000002,0.785989156,0.04,0.039999995,-9.594751820287625,0.012289118086283385,0.013034054742972374,-0.0026832536128597807,-0.007275380731186596,-0.00687594232540802
0.17500000000000002,0.00018610577000000323,-0.7850271799999999,2.3820077999997248e-05,-2.3558137,8.513645999999864e-05,1.5709635,0.7859885799999999,0.04,0.039999995,-9.588331567711089,0.029691295901562248,0.03230350887826618,-0.003222597563543967,-0.006979445848952581,-0.006899432442162177
0.1775,0.00018708659600000346,-0.785019194,2.2979438399997028e-05,-2.35581949,8.472336749999854e-05,1.57096251,0.785988004,0.04,0.039999995,-9.581911315134555,0.04709347371684092,0.05157296301355975,-0.0037619415142281475,-0.006683510966718569,-0.006922922558916333
0.18,0.00018806742200000375,-0.7850112079999999,2.21387987999968e-05,-2.35582528,8.431027499999842e-05,1.57096152,0.785987428,0.04,0.039999995,-9.575491062558019,0.06449565153211978,0.07084241714885355,-0.004301285464912334,-0.006387576084484554,-0.006946412675670489
0.1825,0.000189048248000004,-0.785003222,2.1298159199996574e-05,-2.3558310700000002,8.389718249999831e-05,1.57096053,0.785986852,0.04,0.039999995,-9.569070809981483,0.08189782934739864,0.09011187128414734,-0.00484062941559652,-0.006091641202250539,-0.006969902792424646
0.185,0.00019020488200000523,-0.7849955769999999,2.0306381349995512e-05,-2.35583649,8.340803009999778e-05,1.57095952,0.7859860879999999,0.04,0.0399999955,-9.585224199908659,0.10432281673211197,0.08943033692628673,-0.004619869668036673,-0.006353797930645526,-0.0064171063968734635
0.1875,0.00019144942000000532,-0.7849881025,1.9239034374995448e-05,-2.355841725,8.288084774999774e-05,1.5709585,0.78598523,0.04,0.03999999625,-9.612664411087476,0.12925920890149542,0.07877330832203597,-0.004019058071361939,-0.006895000464349783,-0.005576166745175015
0.19,0.00019269395800000538,-0.784980628,1.8171687399995387e-05,-2.35584696,8.235366539999772e-05,1.5709574800000001,0.7859843719999999,0.04,0.039999997,-9.640104622266293,0.15419560107087887,0.06811627971778521,-0.0034182464746872043,-0.007436202998054039,-0.004735227093476567
0.1925,0.00019393849600000544,-0.7849731535,1.7104340424995326e-05,-2.3558521949999998,8.182648304999769e-05,1.57095646,0.785983514,0.04,0.03999999775,-9.66754483344511,0.17913199324026235,0.057459251113534456,-0.0028174348780124693,-0.007977405531758295,-0.0038942874417781177
0.195,0.00019518303400000553,-0.784965679,1.6036993449995266e-05,-2.35585743,8.129930069999767e-05,1.57095544,0.785982656,0.04,0.0399999985,-9.694985044623929,0.2040683854096458,0.0468022225092837,-0.002216623281337735,-0.00851860806546255,-0.003053347790079669
0.1975,0.0001964275720000056,-0.7849582045,1.4969646474995201e-05,-2.355862665,8.077211834999763e-05,1.57095442,0.785981798,0.04,0.03999999925,-9.722425255802746,0.22900477757902926,0.036145193905032943,-0.0016158116846629999,-0.009059810599166808,-0.0022124081383812205
0.2,0.00019767211000000704,-0.78495073,1.3902299499993958e-05,-2.3558679,8.024493599999702e-05,1.5709534,0.78598094,0.04,0.04,-9.749865466981534,0.2539411697482811,0.02548816530061038,-0.001015000087988558,-0.009601013132870767,-0.0013714684866833232
0.2025,0.00019921890700000714,-0.784943641,1.2574987284993881e-05,-2.355872505,7.958883359999697e-05,1.570952305,0.785980079,0.04,0.04,-9.770916215091441,0.24996214026132538,-0.022913147731411322,-0.0004784922276490118,-0.010077060045319339,-0.0006516282022354066
0.20500000000000002,0.0002007657040000072,-0.784936552,1.1247675069993804e-05,-2.3558771099999998,7.893273119999694e-05,1.57095121,0.7859792179999999,0.04,0.04,-9.791966963201348,0.24598311077436968,-0.07131446076343302,5.80156326905341e-05,-0.010553106957767911,6.821208221251002e-05
0.20750000000000002,0.0002023125010000073,-0.784929463,9.920362854993729e-06,-2.3558817149999998,7.82766287999969e-05,1.570950115,0.785978357,0.04,0.04,-9.813017711311256,0.24200408128741396,-0.11971577379545473,0.0005945234930300801,-0.011029153870216484,0.0007880523666604267
0.21,0.00020385929800000738,-0.784922374,8.593050639993667e-06,-2.35588632,7.762052639999687e-05,1.57094902,0.785977496,0.04,0.04,-9.834068459421163,0.23802505180045827,-0.1681170868274759,0.0011310313533696205,-0.011505200782665051,0.0015078926511083353
0.2125,0.00020540609500000747,-0.784915285,7.26573842499359e-06,-2.355890925,7.696442399999683e-05,1.570947925,0.7859766349999999,0.04,0.04,-9.85511920753107,0.23404602231350255,-0.21651839985949758,0.0016675392137091665,-0.011981247695113623,0.002227732935556252
0.215,0.00020695289200000757,-0.7849081960000001,5.938426209993515e-06,-2.35589553,7.63083215999968e-05,1.57094683,0.785975774,0.04,0.04,-9.876169955640979,0.23006699282654683,-0.2649197128915193,0.0022040470740487123,-0.012457294607562196,0.0029475732200041687
0.2175,0.00020861373250000934,-0.7849012215,4.513002729991981e-06,-2.3558999600000003,7.560361349999603e-05,1.570945575,0.78597482,0.04,0.04,-9.888210597462454,0.2169161727961397,-0.28304107858563937,0.002685561188451597,-0.012773978654127759,0.00359599855155844
0.22,0.00021050266000000945,-0.784894476,2.891356719991887e-06,-2.35590404,7.480169399999598e-05,1.5709440000000001,0.78597368,0.04,0.04,-9.882231026707462,0.18542177167923632,-0.24060254960529837,0.003057087810983599,-0.01277193696893437,0.004101593977328589
0.2225,0.00021239158750000956,-0.7848877305,1.2697107099917935e-06,-2.35590812,7.399977449999595e-05,1.5709424250000001,0.7859725399999999,0.04,0.04,-9.87625145595247,0.15392737056233294,-0.19816402062495742,0.0034286144335156,-0.012769895283740978,0.004607189403098739
0.225,0.00021428051500000967,-0.784880985,-3.519353000083006e-07,-2.3559122,7.31978549999959e-05,1.57094085,0.7859714,0.04,0.04,-9.870271885197479,0.12243296944542956,-0.15572549164461644,0.003800141056047602,-0.012767853598547589,0.005112784828868888
0.2275,0.00021616944250000978,-0.7848742395,-1.9735813100083943e-06,-2.35591628,7.239593549999586e-05,1.570939275,0.78597026,0.04,0.04,-9.864292314442489,0.09093856832852618,-0.11328696266427549,0.0041716676785796035,-0.0127658119133542,0.0056183802546390365
0.23,0.00021805837000000988,-0.784867494,-3.595227320008489e-06,-2.3559203600000003,7.159401599999581e-05,1.5709377,0.78596912,0.04,0.04,-9.858312743687497,0.059444167211622795,-0.07084843368393451,0.004543194301111605,-0.012763770228160809,0.006123975680409186
0.2325,0.00021994729750001,-0.7848607485,-5.2168733300085826e-06,-2.35592444,7.079209649999576e-05,1.570936125,0.78596798,0.04,0.04,-9.852333172932505,0.02794976609471944,-0.028409904703593558,0.004914720923643606,-0.01276172854296742,0.006629571106179335
0.23500000000000001,0.00022209165200001217,-0.7848542,-7.058306600010438e-06,-2.35592816,6.988230999999485e-05,1.57093452,0.785966645,0.04,0.0399999995,-9.846656846433689,0.02057833589047043,-0.012390052724649736,0.004114243470192144,-0.012203368243426015,0.006447326964963326
0.23750000000000002,0.0002243637200000123,-0.78484775,-9.009633500010552e-06,-2.3559317,6.891858999999479e-05,1.5709329,0.7859652125,0.04,0.03999999875,-9.841132142062957,0.02526839114226041,-0.009579539246088828,0.002727763978762954,-0.011366848636717252,0.005921163040262455
0.24,0.0002266357880000124,-0.7848413,-1.0960960400010641e-05,-2.35593524,6.795486999999474e-05,1.5709312800000002,0.78596378,0.04,0.039999998,-9.835607437692225,0.029958446394050337,-0.006769025767527952,0.0013412844873337795,-0.010530329030008497,0.005394999115561591
0.2425,0.00022890785600001253,-0.78483485,-1.2912287300010755e-05,-2.3559387800000002,6.69911499999947e-05,1.57092966,0.7859623474999999,0.04,0.03999999725,-9.830082733321493,0.03464850164584032,-0.003958512288967046,-4.519500409541025e-05,-0.009693809423299735,0.00486883519086072
0.245,0.00023117992400001266,-0.7848284,-1.4863614200010867e-05,-2.35594232,6.602742999999463e-05,1.57092804,0.785960915,0.04,0.0399999965,-9.824558028950761,0.0393385568976303,-0.0011479988104061388,-0.0014316744955246005,-0.008857289816590971,0.0043426712661598504
0.2475,0.00023345199200001279,-0.78482195,-1.681494110001098e-05,-2.3559458600000003,6.506370999999457e-05,1.57092642,0.7859594824999999,0.04,0.03999999575,-9.81903332458003,0.044028612149420276,0.0016625146681547697,-0.00281815398695379,-0.008020770209882209,0.0038165073414589794
0.25,0.00023572406000001535,-0.7848155,-1.8766268000013172e-05,-2.3559494,6.409998999999348e-05,1.5709248,0.78595805,0.04,0.039999995,-9.813508620209124,0.04871866740115922,0.004473028146888411,-0.004204633478371619,-0.007184250603177714,0.003290343416762711
0.2525,0.0002384212610000155,-0.784809275,-2.1083437850013304e-05,-2.3559524,6.295288509999341e-05,1.570922655,0.7859563325,0.04,0.03999999575,-9.777653430557196,0.044429604432510074,0.03767149250616981,-0.003592274435534484,-0.007098838306734094,0.0035737946913370023
0.255,0.00024111846200001565,-0.78480305,-2.340060770001344e-05,-2.3559554,6.180578019999335e-05,1.57092051,0.785954615,0.04,0.0399999965,-9.741798240905268,0.040140541463860924,0.07086995686545121,-0.0029799153926973482,-0.007013426010290475,0.0038572459659112937
0.2575,0.0002438156630000158,-0.7847968249999999,-2.571777755001357e-05,-2.3559584,6.065867529999328e-05,1.570918365,0.7859528975,0.04,0.03999999725,-9.705943051253339,0.03585147849521178,0.10406842122473262,-0.002367556349860213,-0.006928013713846854,0.004140697240485585
0.26,0.00024651286400001596,-0.7847905999999999,-2.8034947400013705e-05,-2.3559614,5.9511570399993216e-05,1.57091622,0.78595118,0.04,0.039999998,-9.670087861601411,0.03156241552656263,0.137266885584014,-0.0017551973070230775,-0.006842601417403235,0.004424148515059876
0.2625,0.0002492100650000161,-0.784784375,-3.035211725001384e-05,-2.3559644000000004,5.836446549999315e-05,1.5709140750000001,0.7859494625,0.04,0.03999999875,-9.634232671949484,0.027273352557913483,0.17046534994329543,-0.0011428382641859424,-0.006757189120959615,0.004707599789634168
0.265,0.00025190726600001623,-0.78477815,-3.266928710001397e-05,-2.3559674000000004,5.721736059999308e-05,1.57091193,0.7859477450000001,0.04,0.0399999995,-9.598377482297554,0.022984289589264333,0.20366381430257682,-0.0005304792213488068,-0.0066717768245159945,0.004991051064208459
0.2675,0.0002547604065000195,-0.7847719849999999,-3.5120702150016755e-05,-2.35597028,5.600395349999171e-05,1.5709097600000002,0.7859459400000001,0.04,0.04,-9.59891754474917,0.014746441513822569,0.22025120407165796,8.677391115100228e-05,-0.0069849708154185695,0.005358842540299504
0.27,0.00025792542600002036,-0.7847659399999999,-3.784060760001749e-05,-2.35597292,5.4657941999991346e-05,1.57090754,0.78594396,0.04,0.04,-9.672248111405887,-0.0013889767749887365,0.20361644466124595,0.0007138152229758921,-0.00809537738099176,0.005895314419419449
0.2725,0.0002610904455000212,-0.784759895,-4.0560513050018225e-05,-2.35597556,5.331193049999098e-05,1.57090532,0.78594198,0.04,0.04,-9.745578678062603,-0.017524395063800047,0.18698168525083392,0.001340856534800782,-0.00920578394656495,0.006431786298539395
0.275,0.00026425546500002207,-0.78475385,-4.328041850001896e-05,-2.3559782,5.196591899999062e-05,1.5709031,0.78594,0.04,0.04,-9.81890924471932,-0.03365981335261135,0.1703469258404219,0.001967897846625672,-0.01031619051213814,0.00696825817765934
0.2775,0.0002674204845000229,-0.784747805,-4.60003239500197e-05,-2.35598084,5.061990749999025e-05,1.57090088,0.78593802,0.04,0.04,-9.892239811376037,-0.04979523164142266,0.1537121664300099,0.002594939158450562,-0.011426597077711332,0.0075047300567792855
0.28,0.00027058550400002373,-0.78474176,-4.872022940002044e-05,-2.35598348,4.927389599998989e-05,1.57089866,0.78593604,0.04,0.04,-9.965570378032753,-0.06593064993023397,0.1370774070195979,0.003221980470275452,-0.012537003643284523,0.008041201935899231
0.28250000000000003,0.0002737505235000246,-0.784735715,-5.144013485002117e-05,-2.35598612,4.7927884499989524e-05,1.5708964399999998,0.78593406,0.04,0.04,-10.038900944689468,-0.08206606821904527,0.12044264760918587,0.003849021782100342,-0.013647410208857715,0.008577673815019176
0.28500000000000003,0.00027725638100002854,-0.784729744,-5.445345900002456e-05,-2.35598825,4.6436452899987845e-05,1.57089387,0.78593187,0.04,0.04,-10.030261339338326,-0.06378445429192109,0.11322845978808739,0.003195138121508651,-0.013698770170119034,0.007605780609029625
0.28750000000000003,0.00028093265750002796,-0.7847238099999999,-5.761349250002407e-05,-2.355990125,4.487231124998809e-05,1.570891125,0.7859295749999999,0.04,0.04,-9.980636647984705,-0.02829432425743899,0.11072455776147876,0.001900791974731367,-0.013220606829243182,0.0058797048605120535
0.29,0.0002846089340000273,-0.784717876,-6.077352600002351e-05,-2.3559919999999996,4.330816959998836e-05,1.57088838,0.78592728,0.04,0.04,-9.931011956631085,0.007195805777042319,0.10822065573487018,0.0006064458279541117,-0.012742443488367342,0.00415362911199452
0.2925,0.0002882852105000268,-0.7847119419999999,-6.393355950002301e-05,-2.355993875,4.174402794998861e-05,1.570885635,0.785924985,0.04,0.04,-9.881387265277464,0.04268593581152441,0.10571675370826153,-0.0006879003188231727,-0.012264280147491492,0.002427553363476949
0.295,0.0002919614870000262,-0.784706008,-6.709359300002253e-05,-2.35599575,4.017988629998885e-05,1.57088289,0.7859226899999999,0.04,0.04,-9.831762573923843,0.0781760658460065,0.1032128516816529,-0.0019822464656004566,-0.011786116806615642,0.0007014776149593775
0.2975,0.00029563776350002564,-0.784700074,-7.025362650002203e-05,-2.3559976249999997,3.861574464998909e-05,1.570880145,0.785920395,0.04,0.04,-9.782137882570222,0.11366619588048862,0.10070894965504426,-0.0032765926123777406,-0.011307953465739791,-0.0010245981335581938
0.3,0.00029931404000002886,-0.78469414,-7.34136600000248e-05,-2.3559995,3.705160299998772e-05,1.5708774,0.7859181,0.04,0.04,-9.732513191217484,0.14915632591446668,0.09820504762812089,-0.004570938759144695,-0.010829790124862999,-0.0027506738820636937
0.3025,0.0003035454440000291,-0.784688269,-7.705171200002501e-05,-2.356001225,3.525080094998762e-05,1.57087434,0.7859155274999999,0.04,0.04,-9.812368638881239,0.11070183802283431,0.0495310883106266,-0.004350132197935897,-0.010213408652216649,-0.002705787684102046
0.305,0.00030777684800002936,-0.784682398,-8.068976400002522e-05,-2.3560029499999997,3.344999889998752e-05,1.57087128,0.7859129549999999,0.04,0.04,-9.892224086544992,0.07224735013120195,0.0008571289931323112,-0.0041293256367270995,-0.009597027179570297,-0.0026609014861403986
0.3075,0.0003120082520000296,-0.784676527,-8.432781600002542e-05,-2.356004675,3.164919684998741e-05,1.57086822,0.7859103825,0.04,0.04,-9.972079534208746,0.03379286223956961,-0.047816830324361986,-0.003908519075518302,-0.008980645706923947,-0.002616015288178751
0.31,0.00031623965600002986,-0.784670656,-8.796586800002563e-05,-2.3560064,2.9848394799987308e-05,1.57086516,0.78590781,0.04,0.04,-10.051934981872499,-0.00466162565206274,-0.09649078964185628,-0.003687712514309504,-0.008364264234277597,-0.0025711290902171034
0.3125,0.0003204710600000301,-0.7846647849999999,-9.160392000002585e-05,-2.3560081250000002,2.8047592749987207e-05,1.5708621,0.7859052375,0.04,0.04,-10.131790429536254,-0.0431161135436951,-0.14516474895935058,-0.003466905953100706,-0.007747882761631245,-0.002526242892255456
0.315,0.0003247024640000303,-0.784658914,-9.524197200002606e-05,-2.35600985,2.62467906999871e-05,1.57085904,0.7859026650000001,0.04,0.04,-10.211645877200008,-0.08157060143532746,-0.19383870827684488,-0.0032460993918919084,-0.007131501288984895,-0.0024813566942938083
0.3175,0.0003291336725000352,-0.784653045,-9.90520905000303e-05,-2.35601132,2.4360786449985007e-05,1.57085586,0.7858999725,0.04,0.04,-10.246445620611965,-0.09689830314767185,-0.21748770661499936,-0.0030088516331518403,-0.006791660011796345,-0.0025012975233145757
0.32,0.00033396449000003655,-0.78464718,-0.00010320634200003142,-2.35601228,2.2304377799984448e-05,1.57085244,0.78589704,0.04,0.04,-10.191133955523247,-0.06597243250293919,-0.19108678299609627,-0.0027387214793502973,-0.0070048991255054725,-0.0026508924062959714
0.3225,0.00033879530750003783,-0.784641315,-0.00010736059350003254,-2.35601324,2.0247969149983892e-05,1.5708490199999998,0.7858941075,0.04,0.04,-10.135822290434529,-0.035046561858206524,-0.16468585937719316,-0.0024685913255487538,-0.0072181382392146,-0.0028004872892773668
0.325,0.00034362612500003916,-0.78463545,-0.00011151484500003367,-2.3560142,1.8191560499983336e-05,1.5708456,0.7858911749999999,0.04,0.04,-10.080510625345813,-0.0041206912134738455,-0.1382849357582901,-0.0021984611717472107,-0.007431377352923729,-0.0029500821722587625
0.3275,0.00034845694250004044,-0.784629585,-0.00011566909650003479,-2.35601516,1.6135151849982777e-05,1.5708421799999999,0.7858882425,0.04,0.04,-10.025198960257095,0.02680517943125882,-0.11188401213938698,-0.0019283310179456674,-0.007644616466632856,-0.003099677055240158
0.33,0.0003532877600000418,-0.78462372,-0.00011982334800003591,-2.35601612,1.4078743199982221e-05,1.57083876,0.78588531,0.04,0.04,-9.969887295168377,0.0577310500759915,-0.08548308852048389,-0.0016582008641441242,-0.007857855580341983,-0.0032492719382215536
0.3325,0.00035811857750004306,-0.784617855,-0.00012397759950003704,-2.35601708,1.2022334549981664e-05,1.57083534,0.7858823774999999,0.04,0.04,-9.91457563007966,0.08865692072072415,-0.0590821649015808,-0.0013880707103425811,-0.008071094694051113,-0.003398866821202949
0.335,0.00036337870800004875,-0.78461198,-0.00012850161700004193,-2.3560177799999997,9.782837239979245e-06,1.57083158,0.78587917,0.04,0.04,-9.888159700695239,0.09587649077072719,-0.008896374103050088,-0.0010091296158739815,-0.008621875688984057,-0.0027226646983708426
0.3375,0.0003688534950000479,-0.7846061,-0.0001332105175000412,-2.35601835,7.451795599979607e-06,1.57082765,0.785875825,0.04,0.04,-9.87619163916238,0.09124291052384587,0.053181850284812364,-0.0005757830510740588,-0.00934142762452207,-0.0016335640726487222
0.34,0.000374328282000047,-0.78460022,-0.00013791941800004047,-2.35601892,5.120753959979969e-06,1.57082372,0.78587248,0.04,0.04,-9.864223577629522,0.08660933027696455,0.1152600746726748,-0.0001424364862741361,-0.010060979560060083,-0.0005444634469266019
0.3425,0.0003798030690000462,-0.78459434,-0.00014262831850003971,-2.35601949,2.7897123199803323e-06,1.57081979,0.785869135,0.04,0.04,-9.852255516096664,0.08197575003008323,0.17733829906053725,0.0002909100785257865,-0.010780531495598097,0.0005446371787955185
0.34500000000000003,0.0003852778560000453,-0.7845884599999999,-0.00014733721900003899,-2.3560200599999996,4.5867067998069347e-07,1.57081586,0.78586579,0.04,0.04,-9.840287454563805,0.07734216978320191,0.2394165234483997,0.0007242566433257093,-0.011500083431136109,0.0016337378045176393
0.34750000000000003,0.0003907526430000445,-0.7845825799999999,-0.00015204611950003826,-2.3560206299999997,-1.8723709600189436e-06,1.5708119299999999,0.785862445,0.04,0.04,-9.828319393030947,0.07270858953632059,0.3014947478362622,0.0011576032081256316,-0.012219635366674121,0.00272283843023976
0.35000000000000003,0.0003962274300000491,-0.7845767,-0.00015675502000004224,-2.3560212,-4.203412600020923e-06,1.570808,0.7858591,0.04,0.04,-9.81635133149821,0.0680750092896453,0.36357297222309926,0.0015909497729197275,-0.012939187302205063,0.0038119390559477706
0.3525,0.0004023909060000493,-0.784570766,-0.00016205716600004244,-2.3560212299999996,-6.8281359100210165e-06,1.570803545,0.7858553275,0.04,0.04,-9.819494148854748,0.08928902090562907,0.29702004118962455,0.0012933362796141421,-0.012771474351966652,0.003130836718444746
0.355,0.0004085543820000497,-0.7845648319999999,-0.00016735931200004275,-2.35602126,-9.452859220021169e-06,1.57079909,0.785851555,0.04,0.04,-9.822636966211286,0.11050303252161331,0.2304671101561484,0.0009957227863085498,-0.012603761401728237,0.002449734380941707
0.3575,0.00041471785800005007,-0.7845588979999999,-0.00017266145800004306,-2.3560212899999997,-1.2077582530021319e-05,1.570794635,0.7858477825,0.04,0.04,-9.825779783567825,0.13171704413759755,0.16391417912267223,0.0006981092930029578,-0.012436048451489823,0.0017686320434386672
0.36,0.0004208813340000504,-0.784552964,-0.00017796360400004337,-2.35602132,-1.4702305840021471e-05,1.57079018,0.78584401,0.04,0.04,-9.828922600924361,0.1529310557535818,0.09736124808919605,0.0004004957996973657,-0.012268335501251408,0.001087529705935628
0.3625,0.00042704481000005077,-0.7845470299999999,-0.00018326575000004368,-2.35602135,-1.7327029150021622e-05,1.570785725,0.7858402375,0.04,0.04,-9.8320654182809,0.17414506736956603,0.030808317055719903,0.00010288230639177338,-0.012100622551012994,0.0004064273684325887
0.365,0.00043320828600005115,-0.7845410959999999,-0.000188567896000044,-2.35602138,-1.9951752460021774e-05,1.57078127,0.7858364649999999,0.04,0.04,-9.835208235637438,0.19535907898555027,-0.035744613977756245,-0.0001947311869138187,-0.01193290960077458,-0.00027467496907045055
0.3675,0.0004396162585000581,-0.784535123,-0.00019408067100005,-2.35602122,-2.268076445002475e-05,1.5707766349999999,0.7858325494999999,0.04,0.04,-9.835786920121304,0.21380848734674726,-0.07881633111137237,-0.000428394573005686,-0.011675416975843839,-0.00036891182370323093
0.37,0.00044651322400006,-0.7845290719999999,-0.0002000147040000516,-2.35602068,-2.5618353800025546e-05,1.57077164,0.785828348,0.04,0.04,-9.831237338860014,0.22672868919857714,-0.07492562044702969,-0.0005341577446748996,-0.01123836500153518,0.0007105822873604865
0.3725,0.00045341018950006187,-0.7845230209999999,-0.0002059487370000532,-2.35602014,-2.855594315002634e-05,1.570766645,0.7858241465,0.04,0.04,-9.826687757598725,0.23964889105040701,-0.07103490978268699,-0.0006399209163441133,-0.010801313027226521,0.001790076398424204
0.375,0.0004603071550000637,-0.7845169699999999,-0.0002118827700000548,-2.3560195999999998,-3.149353250002714e-05,1.57076165,0.785819945,0.04,0.04,-9.822138176337434,0.2525690929022369,-0.06714419911834431,-0.000745684088013327,-0.010364261052917862,0.002869570509487921
0.3775,0.0004672041205000656,-0.7845109189999999,-0.0002178168030000564,-2.35601906,-3.4431121850027934e-05,1.570756655,0.7858157434999999,0.04,0.04,-9.817588595076145,0.2654892947540668,-0.06325348845400162,-0.0008514472596825406,-0.009927209078609205,0.003949064620551638
0.38,0.00047410108600006747,-0.784504868,-0.00022375083600005802,-2.35601852,-3.736871120002873e-05,1.57075166,0.785811542,0.04,0.04,-9.813039013814857,0.27840949660589664,-0.059362777789658934,-0.0009572104313517542,-0.009490157104300546,0.005028558731615356
0.3825,0.0004809980515000693,-0.7844988169999999,-0.00022968486900005965,-2.35601798,-4.030630055002953e-05,1.570746665,0.7858073405,0.04,0.04,-9.808489432553566,0.29132969845772655,-0.05547206712531624,-0.0010629736030209678,-0.009053105129991888,0.006108052842679073
0.385,0.0004884138760000759,-0.78449266,-0.00023606594000006535,-2.35601722,-4.346518530003235e-05,1.57074134,0.785802806,0.04,0.04,-9.79715576279575,0.3060996166435643,-0.05361168606488132,-0.001148896844061082,-0.008714101599256901,0.006106126752222121
0.3875,0.0004960891300000731,-0.78448645,-0.0002426705300000629,-2.35601635,-4.6734717750031146e-05,1.57073585,0.785798105,0.04,0.04,-9.782430048789827,0.3217943929963638,-0.05276646980635395,-0.001224900119787099,-0.008424122290306512,0.005563490561029507
0.39,0.0005037643840000702,-0.7844802399999999,-0.0002492751200000605,-2.35601548,-5.000425020002994e-05,1.57073036,0.785793404,0.04,0.04,-9.767704334783904,0.33748916934916334,-0.05192125354782658,-0.001300903395513116,-0.008134142981356124,0.005020854369836891
0.3925,0.0005114396380000674,-0.7844740299999999,-0.0002558797100000581,-2.3560146100000003,-5.327378265002873e-05,1.57072487,0.7857887029999999,0.04,0.04,-9.75297862077798,0.3531839457019628,-0.051076037289299214,-0.0013769066712391329,-0.007844163672405736,0.004478218178644276
0.395,0.0005191148920000646,-0.7844678199999999,-0.0002624843000000556,-2.3560137400000003,-5.654331510002753e-05,1.5707193799999999,0.785784002,0.04,0.04,-9.738252906772058,0.36887872205476235,-0.050230821030771845,-0.00145290994696515,-0.0075541843634553485,0.003935581987451661
0.3975,0.0005267901460000617,-0.7844616099999999,-0.00026908889000005316,-2.3560128700000003,-5.9812847550026326e-05,1.57071389,0.7857793009999999,0.04,0.04,-9.723527192766134,0.38457349840756183,-0.049385604772244476,-0.001528913222691167,-0.007264205054504961,0.003392945796259046
0.4,0.0005344654000000652,-0.7844554,-0.0002756934800000562,-2.356012,-6.308238000002781e-05,1.5707084,0.7857746,0.04,0.04,-9.708801478760268,0.4002682747597053,-0.04854038851360501,-0.0016049164984118917,-0.0069742257455668215,0.002850309605071317
0.4025,0.0005429636575000676,-0.78444901,-0.0002830072100000582,-2.3560105900000003,-6.67029780000288e-05,1.5707023549999999,0.7857693859999999,0.04,0.04,-9.701611575887533,0.33056127138797253,-0.03310379262599404,-0.0009920769373434656,-0.008278606873812294,0.0029436469464870973
0.405,0.0005514619150000699,-0.78444262,-0.00029032094000006016,-2.35600918,-7.032357600002977e-05,1.57069631,0.7857641719999999,0.04,0.04,-9.6944216730148,0.2608542680162398,-0.017667196738383076,-0.0003792373762750397,-0.009582988002057768,0.0030369842879028777
0.40750000000000003,0.0005599601725000721,-0.78443623,-0.0002976346700000621,-2.35600777,-7.394417400003076e-05,1.5706902649999999,0.785758958,0.04,0.04,-9.687231770142064,0.19114726464450704,-0.0022306008507721117,0.00023360218479338618,-0.01088736913030324,0.003130321629318658
0.41000000000000003,0.0005684584300000745,-0.7844298399999999,-0.00030494840000006414,-2.3560063600000003,-7.756477200003174e-05,1.57068422,0.785753744,0.04,0.04,-9.68004186726933,0.1214402612727743,0.01320599503683885,0.0008464417458618121,-0.012191750258548713,0.003223658970734438
0.41250000000000003,0.0005769566875000768,-0.7844234499999999,-0.0003122621300000661,-2.35600495,-8.118537000003272e-05,1.570678175,0.7857485299999999,0.04,0.04,-9.672851964396594,0.05173325790104155,0.02864259092444981,0.0014592813069302382,-0.013496131386794185,0.0033169963121502184
0.41500000000000004,0.0005854549450000792,-0.78441706,-0.00031957586000006807,-2.35600354,-8.48059680000337e-05,1.57067213,0.7857433159999999,0.04,0.04,-9.66566206152386,-0.017973745470691194,0.04407918681206078,0.0020721208679986645,-0.014800512515039659,0.003410333653565999
0.4175,0.0005942423625000889,-0.7844105914999999,-0.00032713877600007646,-2.35600202,-8.854940750003785e-05,1.570665875,0.7857379294999999,0.04,0.03999999975,-9.684073533672223,-0.05927937598866776,0.05294369925918987,0.00207357832503451,-0.015368705918013688,0.003533432393502352
0.42,0.0006036081000000894,-0.784403966,-0.00033520006400007696,-2.35600028,-9.253853000003807e-05,1.5706592,0.7857321979999999,0.04,0.039999999,-9.753687755860595,-0.04378226080155645,0.04866404482591612,0.0008522715740573244,-0.01446452387050763,0.0037160539304773228
0.4225,0.00061297383750009,-0.7843973405,-0.0003432613520000774,-2.35599854,-9.65276525000383e-05,1.5706525249999999,0.7857264664999999,0.04,0.03999999825,-9.823301978048967,-0.02828514561444513,0.044384390392642366,-0.00036903517691986134,-0.013560341823001573,0.0038986754674522933
0.425,0.0006223395750000905,-0.7843907149999999,-0.0003513226400000779,-2.3559968,-0.00010051677500003853,1.57064585,0.785720735,0.04,0.0399999975,-9.892916200237341,-0.012788030427333813,0.040104735959368615,-0.0015903419278970473,-0.012656159775495515,0.004081297004427264
0.4275,0.000631705312500091,-0.7843840894999999,-0.0003593839280000783,-2.35599506,-0.00010450589750003876,1.570639175,0.7857150035,0.04,0.03999999675,-9.962530422425713,0.0027090847597775053,0.03582508152609486,-0.0028116486788742324,-0.011751977727989459,0.004263918541402235
0.43,0.0006410710500000915,-0.784377464,-0.0003674452160000788,-2.35599332,-0.00010849502000003899,1.5706324999999999,0.785709272,0.04,0.039999996,-10.032144644614085,0.018206199946888824,0.03154542709282111,-0.004032955429851418,-0.010847795680483403,0.0044465400783772055
0.4325,0.000650436787500092,-0.7843708385,-0.00037550650400007925,-2.35599158,-0.00011248414250003921,1.570625825,0.7857035405,0.04,0.03999999525,-10.101758866802458,0.03370331513400014,0.02726577265954736,-0.005254262180828603,-0.009943613632977345,0.004629161615352176
0.435,0.0006604104500001016,-0.7843640409999999,-0.0003840916700000875,-2.3559894,-0.0001167337610000433,1.57061872,0.78569744,0.04,0.0399999955,-10.104614361970908,0.03003424910773745,0.04292830833696387,-0.005741500385282809,-0.009715813428294431,0.003924686207387416
0.4375,0.0006706880750001022,-0.7843571574999999,-0.00039293877500008804,-2.355987,-0.00012111362750004356,1.5706114,0.785691155,0.04,0.03999999625,-10.074090493630877,0.016782092475212597,0.0685619390692835,-0.005861704316491796,-0.009826204145008099,0.0027766623269724552
0.44,0.0006809657000001028,-0.7843502739999999,-0.0004017858800000885,-2.3559845999999998,-0.00012549349400004382,1.5706040799999998,0.78568487,0.04,0.039999997,-10.043566625290845,0.003529935842687744,0.09419556980160312,-0.005981908247700783,-0.009936594861721765,0.001628638446557494
0.4425,0.0006912433250001033,-0.7843433904999999,-0.00041063298500008906,-2.3559821999999997,-0.00012987336050004406,1.57059676,0.785678585,0.04,0.03999999775,-10.013042756950814,-0.009722220789837102,0.11982920053392274,-0.00610211217890977,-0.010046985578435431,0.0004806145661425329
0.445,0.0007015209500001039,-0.7843365069999999,-0.00041948009000008954,-2.3559798,-0.00013425322700004433,1.5705894399999998,0.7856723,0.04,0.0399999985,-9.98251888861078,-0.022974377422361955,0.14546283126624238,-0.006222316110118756,-0.010157376295149097,-0.0006674093142724283
0.4475,0.0007117985750001045,-0.7843296234999999,-0.00042832719500009007,-2.3559774,-0.00013863309350004458,1.5705821199999999,0.785666015,0.04,0.03999999925,-9.951995020270749,-0.0362265340548868,0.171096461998562,-0.006342520041327743,-0.010267767011862763,-0.0018154331946873895
0.45,0.000722076200000115,-0.7843227399999999,-0.000437174300000099,-2.355975,-0.00014301296000004897,1.5705748,0.7856597299999999,0.04,0.04,-9.921471151931119,-0.04947869068777233,0.19673009273048941,-0.006462723972529843,-0.010378157728569122,-0.0029634570750882963
0.4525,0.0007333096400001156,-0.784315549,-0.0004468452500000996,-2.3559721199999997,-0.00014779898300004926,1.5705667899999998,0.7856528629999999,0.04,0.03999999925,-9.930199803586818,-0.09796606128477689,0.18405029101086307,-0.005910114616905851,-0.009774708872007628,-0.0027384033679446382
0.455,0.0007445430800001163,-0.784308358,-0.00045651620000010016,-2.35596924,-0.00015258500600004953,1.5705587799999998,0.785645996,0.04,0.0399999985,-9.938928455242516,-0.14645343188178148,0.17137048929123672,-0.005357505261281859,-0.009171260015446133,-0.0025133496608009806
0.4575,0.0007557765200001169,-0.784301167,-0.0004661871500001007,-2.35596636,-0.00015737102900004982,1.5705507699999999,0.7856391289999999,0.04,0.03999999775,-9.947657106898214,-0.19494080247878603,0.1586906875716104,-0.004804895905657868,-0.008567811158884638,-0.0022882959536573225
0.46,0.0007670099600001175,-0.784293976,-0.00047585810000010125,-2.3559634799999998,-0.00016215705200005009,1.57054276,0.7856322619999999,0.04,0.039999997,-9.956385758553912,-0.2434281730757906,0.14601088585198405,-0.004252286550033875,-0.007964362302323143,-0.0020632422465136644
0.4625,0.0007782434000001182,-0.7842867849999999,-0.00048552905000010183,-2.3559606,-0.00016694307500005038,1.57053475,0.785625395,0.04,0.03999999625,-9.96511441020961,-0.29191554367279515,0.13333108413235772,-0.0036996771944098838,-0.007360913445761648,-0.0018381885393700065
0.465,0.0007894768400001188,-0.784279594,-0.0004952000000001024,-2.3559577199999997,-0.00017172909800005064,1.57052674,0.785618528,0.04,0.0399999955,-9.97384306186531,-0.34040291426979974,0.12065128241273138,-0.003147067838785892,-0.006757464589200153,-0.0016131348322263484
0.4675,0.0008010434700001302,-0.78427229,-0.0005051581100001121,-2.3559546599999996,-0.00017665786150005547,1.57051852,0.7856114554999999,0.04,0.03999999525,-9.975979370310005,-0.3550127550335244,0.0979445386457268,-0.0027490125100462235,-0.00664024397447734,-0.0014447273066946337
0.47000000000000003,0.0008132764800001308,-0.78426476,-0.0005156905400001127,-2.35595124,-0.0001818721060000558,1.57050988,0.7856039719999999,0.04,0.039999996,-9.964930992333327,-0.3018675361339278,0.055183910784924205,-0.0026600652350604287,-0.0074954798433854095,-0.0013896121443813904
0.47250000000000003,0.0008255094900001316,-0.7842572299999999,-0.0005262229700001133,-2.35594782,-0.00018708635050005608,1.57050124,0.7855964885,0.04,0.03999999675,-9.95388261435665,-0.2487223172343312,0.012423282924121606,-0.0025711179600746334,-0.00835071571229348,-0.0013344969820681472
0.47500000000000003,0.0008377425000001323,-0.7842496999999999,-0.0005367554000001138,-2.3559444,-0.00019230059500005637,1.5704926,0.785589005,0.04,0.0399999975,-9.942834236379971,-0.19557709833473458,-0.030337344936680985,-0.002482170685088838,-0.009205951581201549,-0.001279381819754904
0.47750000000000004,0.0008499755100001329,-0.78424217,-0.0005472878300001145,-2.3559409799999997,-0.0001975148395000567,1.57048396,0.7855815214999999,0.04,0.03999999825,-9.931785858403293,-0.14243187943513796,-0.07309797279748358,-0.002393223410103043,-0.010061187450109617,-0.001224266657441661
0.48,0.0008622085200001334,-0.78423464,-0.0005578202600001149,-2.3559375599999997,-0.00020272908400005687,1.57047532,0.7855740379999999,0.04,0.039999999,-9.920737480426615,-0.08928666053554252,-0.11585860065828522,-0.00230427613511725,-0.010916423319017668,-0.001169151495128419
0.4825,0.0008744415300001342,-0.78422711,-0.0005683526900001155,-2.35593414,-0.00020794332850005716,1.5704666799999998,0.7855665544999999,0.04,0.03999999975,-9.909689102449937,-0.0361414416359459,-0.15861922851908783,-0.0022153288601314547,-0.011771659187925738,-0.0011140363328151757
0.485,0.0008873697450001464,-0.7842193399999999,-0.0005794843660001259,-2.35593037,-0.00021345411200006237,1.57045755,0.7855586479999999,0.04,0.04,-9.89180656078446,-0.012021498051139865,-0.13551487499429493,-0.0025470843882804154,-0.012325726686830988,-0.0009939295247615753
0.4875,0.0009006455625001471,-0.7842114499999999,-0.0005909156650001266,-2.355926425,-0.00021911316500006269,1.570448175,0.7855505299999999,0.04,0.04,-9.870506937274754,-0.0024141921230118497,-0.07947803077833208,-0.0030891913179863567,-0.01272921000074227,-0.0008413268938394027
0.49,0.0009139213800001478,-0.7842035599999999,-0.0006023469640001273,-2.35592248,-0.00022477221800006302,1.5704388,0.7855424119999999,0.04,0.04,-9.84920731376505,0.007193113805116162,-0.02344118656236921,-0.003631298247692298,-0.013132693314653554,-0.00068872426291723
0.4925,0.0009271971975001487,-0.7841956699999999,-0.000613778263000128,-2.355918535,-0.00023043127100006334,1.570429425,0.7855342939999999,0.04,0.04,-9.827907690255344,0.01680041973324418,0.03259565765359365,-0.004173405177398239,-0.013536176628564838,-0.0005361216319950573
0.495,0.0009404730150001494,-0.7841877799999999,-0.0006252095620001287,-2.35591459,-0.00023609032400006367,1.57042005,0.7855261759999999,0.04,0.04,-9.806608066745637,0.02640772566137219,0.08863250186955654,-0.004715512107104181,-0.013939659942476122,-0.00038351900107288465
0.4975,0.0009537488325001502,-0.7841798899999999,-0.0006366408610001293,-2.355910645,-0.00024174937700006399,1.570410675,0.7855180579999999,0.04,0.04,-9.785308443235932,0.0360150315895002,0.14466934608551937,-0.0052576190368101225,-0.014343143256387404,-0.000230916370150712
0.5,0.0009670246500001633,-0.7841719999999999,-0.0006480721600001406,-2.3559067,-0.0002474084300000696,1.5704012999999999,0.7855099399999999,0.04,0.04,-9.76400881972673,0.04562233751709594,0.20070619030039616,-0.005799725966510645,-0.014746626570290794,-7.831373922944105e-05
0.5025000000000001,0.0009813861375001674,-0.7841637109999999,-0.0006604393510001442,-2.355902245,-0.0002535306200000714,1.57039113,0.7855011334999998,0.04,0.04,-9.78703797254208,0.00840953432740204,0.16120908775435988,-0.005865230234415534,-0.014455813836804849,-5.02375539858343e-06
0.505,0.0009957476250001711,-0.7841554219999999,-0.0006728065420001473,-2.3558977899999998,-0.0002596528100000729,1.57038096,0.7854923269999998,0.04,0.04,-9.810067125357431,-0.028803268862290204,0.12171198520832537,-0.0059307345023204205,-0.014165001103318918,6.826622843227094e-05
0.5075000000000001,0.0010101091125001753,-0.7841471329999998,-0.0006851737330001509,-2.3558933349999998,-0.0002657750000000747,1.57037079,0.7854835204999998,0.04,0.04,-9.83309627817278,-0.0660160720519841,0.08221488266228909,-0.005996238770225309,-0.013874188369832972,0.00014155621226312858
0.51,0.0010244706000001789,-0.7841388439999999,-0.000697540924000154,-2.3558888799999997,-0.0002718971900000762,1.57036062,0.7854747139999998,0.04,0.04,-9.856125430988131,-0.10322887524167636,0.04271778011625457,-0.006061743038130196,-0.01358337563634704,0.00021484619609398294
0.5125,0.0010388320875001824,-0.7841305549999998,-0.0007099081150001572,-2.3558844249999997,-0.00027801938000007775,1.5703504499999998,0.7854659074999998,0.04,0.04,-9.87915458380348,-0.14044167843136862,0.003220677570220043,-0.0061272473060350816,-0.013292562902861106,0.0002881361799248373
0.515,0.0010531935750001866,-0.7841222659999999,-0.0007222753060001607,-2.3558799699999997,-0.00028414157000007954,1.57034028,0.7854571009999999,0.04,0.04,-9.90218373661883,-0.1776544816210625,-0.03627642497581621,-0.006192751573939971,-0.013001750169375163,0.00036142616375569496
0.5175,0.0010679310500002028,-0.7841138379999999,-0.0007349666625001748,-2.355875325,-0.00029042378750008646,1.5703298399999999,0.7854480709999998,0.04,0.03999999975,-9.92157207463648,-0.20003732832510215,-0.054377019088418535,-0.006394309198791665,-0.012553549311250611,0.00048428847222054347
0.52,0.0010834205000002008,-0.7841051319999999,-0.0007483063500001731,-2.3558703,-0.0002970260600000856,1.57031886,0.7854385939999998,0.04,0.039999999,-9.933678783059161,-0.1927602620595928,-0.029684596336689503,-0.006867973537520882,-0.011790572203867427,0.0007062954299475189
0.5225,0.001098909950000198,-0.7840964259999998,-0.0007616460375001707,-2.355865275,-0.00030362833250008445,1.5703078799999999,0.7854291169999998,0.04,0.03999999825,-9.945785491481843,-0.18548319579408376,-0.004992173584961561,-0.0073416378762500775,-0.011027595096484277,0.0009283023876744844
0.525,0.001114399400000196,-0.7840877199999999,-0.0007749857250001689,-2.35586025,-0.00031023060500008355,1.5702968999999998,0.7854196399999999,0.04,0.0399999975,-9.957892199904524,-0.1782061295285744,0.019700249166767478,-0.007815302214979294,-0.010264617989101093,0.00115030934540146
0.5275,0.0011298888500001934,-0.7840790139999999,-0.0007883254125001665,-2.355855225,-0.0003168328775000824,1.57028592,0.7854101629999999,0.04,0.03999999675,-9.969998908327206,-0.17092906326306537,0.04439267191849541,-0.00828896655370849,-0.009501640881717944,0.0013723163031284255
0.53,0.0011453783000001912,-0.7840703079999999,-0.0008016651000001647,-2.3558502,-0.0003234351500000815,1.5702749399999998,0.7854006859999999,0.04,0.039999996,-9.982105616749887,-0.163651996997556,0.06908509467022445,-0.008762630892437707,-0.00873866377433476,0.001594323260855401
0.5325,0.0011608677500001886,-0.7840616019999999,-0.0008150047875001623,-2.3558451750000002,-0.0003300374225000803,1.57026396,0.7853912089999999,0.04,0.03999999525,-9.994212325172569,-0.15637493073204697,0.0937775174219524,-0.009236295231166904,-0.007975686666951611,0.0018163302185823663
0.535,0.0011771371300002029,-0.7840525839999999,-0.0008290168550001747,-2.35583981,-0.0003369726080000865,1.5702524399999997,0.7853812449999998,0.04,0.039999995,-9.968491317683062,-0.10811186504632547,0.07695269829601421,-0.008974694386316848,-0.007859127244472587,0.002315820218321762
0.5375,0.0011937964750002035,-0.7840434099999999,-0.0008433651125001752,-2.3558342750000003,-0.0003440742500000867,1.57024065,0.7853710374999999,0.04,0.039999995,-9.923856452238494,-0.039355799651619006,0.03936925823237662,-0.00834546094969724,-0.008065776664427999,0.002954051739059769
0.54,0.001210455820000205,-0.7840342359999999,-0.0008577133700001764,-2.35582874,-0.0003511758920000873,1.5702288599999998,0.7853608299999999,0.04,0.039999995,-9.879221586793925,0.029400265743090542,0.001785818168737352,-0.0077162275130776056,-0.00827242608438342,0.0035922832597978056
0.5425,0.0012271151650002055,-0.7840250619999999,-0.0008720616275001769,-2.355823205,-0.00035827753400008753,1.5702170699999998,0.7853506224999999,0.04,0.039999995,-9.834586721349357,0.09815633113779704,-0.03579762189490024,-0.007086994076457998,-0.008479075504338832,0.004230514780535813
0.545,0.0012437745100002068,-0.7840158879999999,-0.0008864098850001781,-2.35581767,-0.00036537917600008813,1.57020528,0.7853404149999998,0.04,0.039999995,-9.789951855904786,0.16691239653250656,-0.0733810619585395,-0.006457760639838363,-0.008685724924294255,0.004868746301273849
0.5475,0.0012604338550002074,-0.7840067139999999,-0.0009007581425001785,-2.3558121350000003,-0.00037248081800008836,1.5701934899999999,0.7853302074999999,0.04,0.039999995,-9.745316990460218,0.23566846192721302,-0.11096450202217709,-0.005828527203218755,-0.008892374344249665,0.005506977822011857
0.55,0.0012770932000002238,-0.7839975399999999,-0.0009151064000001927,-2.3558066,-0.0003795824600000954,1.5701816999999998,0.7853199999999999,0.04,0.039999995,-9.700682125015948,0.3044245273208449,-0.14854794208482827,-0.005199293766608082,-0.0090990237642026,0.006145209342738597
0.5525,0.0012949637650002282,-0.7839878589999999,-0.0009304989050001966,-2.35580051,-0.0003872019335000973,1.5701690549999998,0.7853090499999998,0.04,0.03999999575,-9.680005071579155,0.2871275769564361,-0.10723094073628733,-0.0052857449078163345,-0.009107075931090742,0.00588137598882986
0.555,0.0013128343300002334,-0.7839781779999999,-0.000945891410000201,-2.35579442,-0.00039482140700009954,1.5701564099999998,0.7852980999999999,0.04,0.0399999965,-9.659328018142359,0.2698306265920265,-0.06591393938774458,-0.005372196049024589,-0.009115128097978886,0.005617542634921114
0.5575,0.0013307048950002378,-0.7839684969999998,-0.0009612839150002049,-2.35578833,-0.00040244088050010144,1.5701437649999999,0.7852871499999998,0.04,0.03999999725,-9.638650964705565,0.2525336762276177,-0.024596938039203653,-0.00545864719023284,-0.009123180264867027,0.005353709281012377
0.56,0.001348575460000243,-0.7839588159999998,-0.0009766764200002094,-2.35578224,-0.00041006035400010366,1.5701311199999999,0.7852761999999999,0.04,0.039999998,-9.61797391126877,0.2352367258632081,0.016720063309339117,-0.005545098331441096,-0.00913123243175517,0.005089875927103631
0.5625,0.0013664460250002476,-0.7839491349999999,-0.0009920689250002132,-2.35577615,-0.00041767982750010556,1.570118475,0.7852652499999999,0.04,0.03999999875,-9.597296857831976,0.21793977549879928,0.05803706465788003,-0.005631549472649348,-0.009139284598643311,0.004826042573194894
0.5650000000000001,0.0013843165900002527,-0.7839394539999999,-0.0010074614300002178,-2.3557700599999998,-0.0004252993010001078,1.57010583,0.7852542999999998,0.04,0.0399999995,-9.57661980439518,0.20064282513438972,0.0993540660064228,-0.005718000613857603,-0.009147336765531453,0.004562209219286147
0.5675,0.0014026044500002725,-0.7839296099999998,-0.0010232137500002347,-2.3557637849999997,-0.0004330967925001162,1.570092895,0.7852430974999999,0.04,0.04,-9.571211257060622,0.1733038291966744,0.1254852107318855,-0.006017685055867811,-0.0093417601198909,0.004400499927278372
0.5700000000000001,0.00142172690000027,-0.7839194399999999,-0.0010396857000002325,-2.35575714,-0.00044125032000011513,1.57007938,0.7852313899999999,0.04,0.04,-9.596339721928565,0.12588074211363764,0.121244642213148,-0.006743836099454495,-0.00990892584916897,0.00444303875905936
0.5725,0.0014408493500002665,-0.7839092699999999,-0.0010561576500002297,-2.355750495,-0.0004494038475001137,1.570065865,0.7852196824999998,0.04,0.04,-9.621468186796509,0.07845765503060304,0.1170040736944107,-0.007469987143041146,-0.010476091578447014,0.004485577590840348
0.5750000000000001,0.001459971800000264,-0.7838990999999998,-0.0010726296000002275,-2.35574385,-0.0004575573750001126,1.5700523499999999,0.7852079749999998,0.04,0.04,-9.646596651664453,0.031034567947566316,0.11276350517567318,-0.00819613818662783,-0.011043257307725084,0.004528116422621338
0.5775,0.0014790942500002608,-0.7838889299999999,-0.0010891015500002245,-2.355737205,-0.00046571090250011114,1.5700388349999999,0.7851962674999998,0.04,0.04,-9.671725116532397,-0.01638851913546832,0.10852293665693588,-0.008922289230214481,-0.011610423037003128,0.004570655254402325
0.58,0.0014982167000002573,-0.7838787599999999,-0.0011055735000002217,-2.35573056,-0.0004738644300001097,1.5700253199999998,0.7851845599999998,0.04,0.04,-9.69685358140034,-0.06381160621850293,0.10428236813819856,-0.009648440273801132,-0.012177588766281172,0.004613194086183312
0.5825,0.0015173391500002548,-0.7838685899999999,-0.0011220454500002195,-2.355723915,-0.0004820179575001086,1.5700118049999998,0.7851728524999998,0.04,0.04,-9.721982046268284,-0.1112346933015397,0.10004179961946105,-0.010374591317387816,-0.012744754495559242,0.004655732917964302
0.585,0.0015373229300002713,-0.7838580669999999,-0.0011392600700002337,-2.35571689,-0.0004905389840001157,1.56999768,0.7851606149999998,0.04,0.04,-9.719668149757148,-0.10033700177537407,0.08877113949614611,-0.009914576742777449,-0.012273813767216896,0.004239707213033576
0.5875,0.0015577373750002728,-0.7838473674999998,-0.0011568460250002352,-2.355709675,-0.0004992437600001164,1.56998325,0.7851481124999998,0.04,0.04,-9.703633072557286,-0.060278920946346945,0.07398543357075146,-0.008861479359103924,-0.011283819810095292,0.0035943992397606496
0.59,0.0015781518200002735,-0.7838366679999998,-0.0011744319800002358,-2.35570246,-0.0005079485360001166,1.56996882,0.7851356099999999,0.04,0.04,-9.687597995357427,-0.0202208401173216,0.05919972764535749,-0.007808381975430446,-0.010293825852973731,0.002949091266487751
0.5925,0.0015985662650002752,-0.7838259684999999,-0.0011920179350002373,-2.3556952449999997,-0.0005166533120001173,1.5699543899999997,0.7851231074999998,0.04,0.04,-9.671562918157568,0.019837240711705534,0.04441402171996286,-0.0067552845917569215,-0.009303831895852127,0.0023037832932148246
0.595,0.001618980710000276,-0.7838152689999999,-0.0012096038900002379,-2.3556880299999996,-0.0005253580880001177,1.5699399599999997,0.7851106049999999,0.04,0.04,-9.655527840957706,0.05989532154073088,0.029628315794568885,-0.005702187208083444,-0.008313837938730567,0.0016584753199419267
0.5975,0.0016393951550002775,-0.7838045694999999,-0.0012271898450002391,-2.355680815,-0.0005340628640001184,1.5699255299999997,0.7850981024999999,0.04,0.04,-9.639492763757847,0.099953402369758,0.014842609869174253,-0.00464908982440992,-0.007323843981608963,0.001013167346669
0.6,0.0016598096000002963,-0.7837938699999999,-0.0012447758000002555,-2.3556736,-0.0005427676400001265,1.5699110999999997,0.7850855999999998,0.04,0.04,-9.623457686558094,0.14001148319795248,5.690394401916416e-05,-0.003595992440762201,-0.0063338500245110445,0.00036785937340804147
0.6025,0.0016815554600003028,-0.7837825944999999,-0.001263509885000261,-2.3556657999999997,-0.0005520405290001291,1.5698957549999997,0.7850722904999998,0.04,0.04,-9.615184117731769,0.11912740280905268,0.002793475749328023,-0.004432244491939742,-0.007077969714007888,0.0005982811778810139
0.605,0.001703301320000308,-0.7837713189999999,-0.0012822439700002656,-2.3556579999999996,-0.0005613134180001315,1.5698804099999997,0.7850589809999998,0.04,0.04,-9.606910548905445,0.0982433224201538,0.00553004755463676,-0.005268496543117244,-0.007822089403504697,0.0008287029823539763
0.6075,0.0017250471800003145,-0.7837600434999998,-0.0013009780550002712,-2.3556502,-0.0005705863070001342,1.5698650649999997,0.7850456714999998,0.04,0.04,-9.59863698007912,0.07735924203125401,0.00826661935994562,-0.0061047485942947845,-0.008566209093001542,0.001059124786826949
0.61,0.00174679304000032,-0.7837487679999998,-0.0013197121400002757,-2.3556424,-0.0005798591960001365,1.5698497199999997,0.7850323619999998,0.04,0.04,-9.590363411252795,0.05647516164235514,0.011003191165254356,-0.006941000645472288,-0.009310328782498352,0.0012895465912999113
0.6125,0.0017685389000003265,-0.7837374924999998,-0.0013384462250002813,-2.3556345999999997,-0.0005891320850001392,1.5698343749999997,0.7850190524999998,0.04,0.04,-9.58208984242647,0.03559108125345534,0.013739762970563216,-0.007777252696649828,-0.010054448471995195,0.0015199683957728837
0.615,0.0017902847600003318,-0.7837262169999998,-0.0013571803100002858,-2.3556268,-0.0005984049740001416,1.5698190299999997,0.7850057429999998,0.04,0.04,-9.573816273600146,0.01470700086455648,0.016476334775871952,-0.00861350474782733,-0.010798568161492005,0.001750390200245846
0.6175,0.0018124873600003546,-0.7837147499999998,-0.0013763082700003054,-2.35561881,-0.0006078727250001512,1.5698033549999997,0.7849921464999997,0.04,0.03999999975,-9.578100526647196,-0.002011512325665538,0.011987032769057136,-0.00905420945697005,-0.011173788671775379,0.0018559501673673488
0.62,0.0018356034400003455,-0.7837028999999999,-0.0013962239800002977,-2.35561044,-0.0006177302000001473,1.5697870199999997,0.7849779759999997,0.04,0.039999999,-9.607500423439248,-0.010398891119111013,-0.006954016860999151,-0.008703819482098162,-0.01081121082368314,0.0017117864598032852
0.6225,0.0018587195200003375,-0.7836910499999998,-0.001416139690000291,-2.3556020699999998,-0.000627587675000144,1.5697706849999997,0.7849638054999998,0.04,0.03999999825,-9.6369003202313,-0.018786269912556865,-0.02589506649105628,-0.008353429507226258,-0.010448632975590885,0.001567622752239215
0.625,0.0018818356000003286,-0.7836791999999998,-0.001436055400000283,-2.3555937,-0.0006374451500001402,1.5697543499999997,0.7849496349999998,0.04,0.0399999975,-9.666300217023352,-0.02717364870600234,-0.044836116121112574,-0.00800303953235437,-0.010086055127498647,0.0014234590446751513
0.6275000000000001,0.0019049516800003206,-0.7836673499999999,-0.0014559711100002762,-2.35558533,-0.0006473026250001367,1.5697380149999998,0.7849354644999997,0.04,0.03999999675,-9.695700113815404,-0.03556102749944819,-0.06377716575116969,-0.007652649557482467,-0.009723477279406393,0.0012792953371110814
0.63,0.0019280677600003117,-0.7836554999999998,-0.0014758868200002682,-2.35557696,-0.0006571601000001329,1.5697216799999998,0.7849212939999998,0.04,0.039999996,-9.725100010607456,-0.04394840629289367,-0.08271821538122599,-0.007302259582610579,-0.009360899431314153,0.0011351316295470175
0.6325000000000001,0.0019511838400003037,-0.7836436499999999,-0.0014958025300002614,-2.35556859,-0.0006670175750001294,1.5697053449999998,0.7849071234999998,0.04,0.03999999525,-9.754499907399508,-0.05233578508633952,-0.10165926501128311,-0.006951869607738676,-0.0089983215832219,0.0009909679219829476
0.635,0.001975238940000323,-0.7836313799999999,-0.0015165279700002782,-2.35555979,-0.0006772757540001377,1.5696883199999998,0.7848923799999998,0.04,0.039999995,-9.75973689814362,-0.06593095503215601,-0.12940261986032722,-0.007210247982706678,-0.008487277146283185,0.0006213260887206005
0.6375000000000001,0.0019997635500003303,-0.7836188999999999,-0.0015376582750002844,-2.3555507749999998,-0.0006877342850001407,1.5696709499999997,0.7848773499999998,0.04,0.039999995,-9.75289243586447,-0.08213002055400645,-0.16154712731860926,-0.0077730105325768475,-0.007901999414925549,0.00013894519261568416
0.64,0.0020242881600003363,-0.7836064199999998,-0.0015587885800002895,-2.35554176,-0.0006981928160001434,1.5696535799999998,0.7848623199999998,0.04,0.039999995,-9.746047973585322,-0.09832908607585616,-0.1936916347768899,-0.008335773082446993,-0.007316721683567938,-0.0003434357034892108
0.6425,0.0020488127700003422,-0.7835939399999998,-0.0015799188850002949,-2.355532745,-0.000708651347000146,1.5696362099999996,0.7848472899999998,0.04,0.039999995,-9.73920351130617,-0.11452815159770588,-0.22583614223517048,-0.008898535632317139,-0.006731443952210328,-0.0008258165995941059
0.645,0.0020733373800003495,-0.7835814599999998,-0.001601049190000301,-2.35552373,-0.000719109878000149,1.5696188399999997,0.7848322599999998,0.04,0.039999995,-9.732359049027021,-0.13072721711955632,-0.2579806496934525,-0.009461298182187307,-0.006146166220852692,-0.0013081974956990219
0.6475,0.0020978619900003555,-0.7835689799999999,-0.0016221794950003062,-2.355514715,-0.0007295684090001516,1.5696014699999996,0.7848172299999998,0.04,0.039999995,-9.72551458674787,-0.14692628264140603,-0.29012515715173315,-0.010024060732057452,-0.0055608884894950816,-0.0017905783918039171
0.65,0.0021223866000003844,-0.7835564999999998,-0.0016433098000003309,-2.3555057,-0.0007400269400001638,1.5695840999999997,0.7848021999999998,0.04,0.039999995,-9.718670124469401,-0.16312534816344668,-0.322269664608674,-0.0105868232819193,-0.004975610758143277,-0.002272959287887165
0.6525,0.002148356985000385,-0.7835433749999998,-0.0016656870250003318,-2.355496085,-0.0007511024030001642,1.5695657549999997,0.7847862759999997,0.03999999925,0.039999994250000004,-9.757862531270359,-0.19218740728206998,-0.26372312897619726,-0.010586773710043636,-0.004784759407940341,-0.0012900701340812298
0.655,0.0021743273700003873,-0.7835302499999998,-0.0016880642500003333,-2.3554864699999998,-0.0007621778660001651,1.5695474099999998,0.7847703519999998,0.0399999985,0.039999993500000004,-9.797054938071316,-0.2212494664006946,-0.20517659334371793,-0.01058672413816797,-0.0045939080577373954,-0.00030718098027525094
0.6575,0.002200297755000388,-0.7835171249999998,-0.0017104414750003342,-2.355476855,-0.0007732533290001654,1.5695290649999998,0.7847544279999998,0.03999999775,0.039999992750000005,-9.836247344872273,-0.2503115255193179,-0.14663005771124119,-0.010586674566292305,-0.004403056707534459,0.0006757081735306839
0.66,0.00222626814000039,-0.7835039999999998,-0.001732818700000336,-2.35546724,-0.0007843287920001663,1.5695107199999998,0.7847385039999998,0.039999997,0.039999992,-9.87543975167323,-0.2793735846379425,-0.08808352207876183,-0.01058662499441664,-0.0042122053573315135,0.001658597327336663
0.6625,0.002252238525000391,-0.7834908749999998,-0.0017551959250003367,-2.3554576249999997,-0.0007954042550001668,1.5694923749999998,0.7847225799999998,0.03999999625,0.03999999125,-9.914632158474188,-0.30843564375656585,-0.029536986446285107,-0.010586575422540975,-0.004021354007128577,0.0026414864811425977
0.665,0.002278208910000393,-0.7834777499999998,-0.0017775731500003385,-2.3554480099999995,-0.0008064797180001677,1.5694740299999996,0.7847066559999998,0.0399999955,0.0399999905,-9.953824565275145,-0.33749770287519043,0.02900954918619425,-0.01058652585066531,-0.0038305026569256315,0.0036243756349485768
0.6675,0.0023046734550004164,-0.7834644114999998,-0.0018003765800003587,-2.3554381999999996,-0.0008177660700001777,1.5694553349999998,0.7846904329999997,0.039999995,0.03999999,-9.973009214820838,-0.3298388786950743,0.0754613695092268,-0.010645935628003271,-0.0037024322658563667,0.004258480935422447
0.67,0.002332126320000419,-0.7834506459999998,-0.0018240324200003606,-2.355428,-0.0008294742000001786,1.5694359399999998,0.7846736119999997,0.039999995,0.03999999,-9.952178349858729,-0.2487382879224852,0.09772375921502191,-0.01082426410376038,-0.003699923793045882,0.004195018529279773
0.6725,0.0023595791850004196,-0.7834368804999998,-0.0018476882600003616,-2.3554177999999997,-0.000841182330000179,1.5694165449999997,0.7846567909999997,0.039999995,0.03999999,-9.931347484896623,-0.16763769714989976,0.11998614892081605,-0.011002592579517481,-0.0036974153202353967,0.0041315561231371
0.675,0.002387032050000422,-0.7834231149999998,-0.0018713441000003635,-2.3554076,-0.0008528904600001799,1.5693971499999997,0.7846399699999997,0.039999995,0.03999999,-9.910516619934514,-0.08653710637731071,0.14224853862661116,-0.01118092105527459,-0.0036949068474249115,0.004068093716994425
0.6775,0.002414484915000423,-0.7834093494999999,-0.0018949999400003643,-2.3553973999999998,-0.0008645985900001804,1.5693777549999997,0.7846231489999997,0.039999995,0.03999999,-9.889685754972408,-0.005436515604725245,0.16451092833240527,-0.011359249531031693,-0.0036923983746144267,0.004004631310851753
0.68,0.0024419377800004253,-0.7833955839999998,-0.0019186557800003662,-2.3553872,-0.0008763067200001813,1.5693583599999996,0.7846063279999997,0.039999995,0.03999999,-9.868854890010299,0.07566407516786378,0.1867733180382004,-0.0115375780067888,-0.0036898899018039414,0.003941168904709078
0.6825,0.002469390645000426,-0.7833818184999998,-0.0019423116200003672,-2.355377,-0.0008880148500001817,1.5693389649999998,0.7845895069999997,0.039999995,0.03999999,-9.848024025048192,0.15676466594044924,0.20903570774399455,-0.011715906482545902,-0.003687381428993456,0.0038777064985664055
0.685,0.002497855900000452,-0.7833676039999998,-0.0019668406100003893,-2.35536638,-0.0009001549980001927,1.5693188499999997,0.7845720649999998,0.039999995,0.03999999,-9.850393999052153,0.16577520523392422,0.18786733845244452,-0.011564711296077742,-0.0037411065432267168,0.003718826253939838
0.6875,0.002526827350000453,-0.7833531649999997,-0.0019918061750003905,-2.35535555,-0.0009125111550001932,1.5692983749999998,0.7845543124999997,0.039999995,0.03999999,-9.864364392538338,0.13874071879036462,0.14498358966374275,-0.011248754278508487,-0.00382294845097988,0.0035122370900746705
0.6900000000000001,0.0025557988000004554,-0.7833387259999998,-0.0020167717400003922,-2.3553447199999997,-0.0009248673120001941,1.5692778999999997,0.7845365599999997,0.039999995,0.03999999,-9.878334786024523,0.11170623234680381,0.10209984087503902,-0.010932797260939216,-0.0039047903587330463,0.003305647926209494
0.6925,0.0025847702500004562,-0.7833242869999998,-0.002041737305000393,-2.35533389,-0.0009372234690001946,1.5692574249999998,0.7845188074999997,0.039999995,0.03999999,-9.892305179510705,0.0846717459032442,0.05921609208633721,-0.01061684024336996,-0.003986632266486209,0.003099058762344327
0.6950000000000001,0.0026137417000004584,-0.7833098479999998,-0.002066702870000395,-2.35532306,-0.0009495796260001956,1.5692369499999996,0.7845010549999997,0.039999995,0.03999999,-9.90627557299689,0.0576372594596834,0.0163323432976335,-0.01030088322580069,-0.004068474174239375,0.0028924695984791503
0.6975,0.0026427131500004596,-0.7832954089999997,-0.002091668435000396,-2.35531223,-0.000961935783000196,1.5692164749999997,0.7844833024999996,0.039999995,0.03999999,-9.920245966483074,0.03060277301612377,-0.026551405491068297,-0.009984926208231434,-0.004150316081992539,0.002685880434613983
0.7000000000000001,0.0026716846000004865,-0.7832809699999997,-0.0021166340000004194,-2.3553014,-0.0009742919400002075,1.5691959999999996,0.7844655499999996,0.039999995,0.03999999,-9.93421635996883,0.003568286572599481,-0.06943515427920069,-0.009668969190676044,-0.004232157989742697,0.002479291270757021
0.7025,0.002702209810000488,-0.7832657944999998,-0.0021429397400004203,-2.35528988,-0.000987311214000208,1.5691744149999998,0.7844468464999996,0.03999999575,0.03999999075,-9.921238274631103,-0.02117761048123817,-0.07648504557712628,-0.010223648894255144,-0.004125293994748623,0.002787950497187482
0.705,0.0027327350200004887,-0.7832506189999997,-0.002169245480000421,-2.35527836,-0.0010003304880002086,1.5691528299999997,0.7844281429999996,0.0399999965,0.0399999915,-9.908260189293376,-0.04592350753507582,-0.08353493687505188,-0.010778328597834242,-0.004018429999754549,0.003096609723617943
0.7075,0.0027632602300004913,-0.7832354434999997,-0.0021955512200004233,-2.35526684,-0.0010133497620002097,1.5691312449999997,0.7844094394999996,0.03999999725,0.03999999225,-9.895282103955648,-0.07066940458891457,-0.09058482817297779,-0.011333008301413367,-0.003911566004760471,0.003405268950048418
0.71,0.0027937854400004922,-0.7832202679999998,-0.002221856960000424,-2.35525532,-0.00102636903600021,1.5691096599999996,0.7843907359999996,0.039999998,0.039999993000000005,-9.882304018617923,-0.09541530164275222,-0.09763471947090338,-0.011887688004992467,-0.0038047020097663965,0.0037139281764788784
0.7125,0.002824310650000495,-0.7832050924999997,-0.0022481627000004263,-2.3552437999999998,-0.001039388310000211,1.5690880749999996,0.7843720324999998,0.03999999875,0.039999993750000004,-9.869325933280194,-0.12016119869659098,-0.10468461076882929,-0.012442367708571591,-0.0036978380147723177,0.004022587402909354
0.715,0.0028548358600004957,-0.7831899169999997,-0.002274468440000427,-2.35523228,-0.0010524075840002115,1.5690664899999995,0.7843533289999998,0.0399999995,0.039999994500000004,-9.856347847942468,-0.14490709575042865,-0.11173450206675489,-0.01299704741215069,-0.003590974019778244,0.004331246629339814
0.7175,0.002885890530000522,-0.7831745169999997,-0.00230123085000045,-2.35522056,-0.0010656528100002228,1.5690445349999995,0.7843343019999998,0.04,0.039999995,-9.841197410538612,-0.1565183374529592,-0.12296797607573892,-0.013449148782819829,-0.0036585977835640613,0.004452046788193612
0.72,0.002918004120000516,-0.7831586679999998,-0.0023289066000004447,-2.3552084399999997,-0.0010793499400002203,1.5690218399999996,0.7843146279999997,0.04,0.039999995,-9.821702269002818,-0.14186026845480065,-0.14256861550622468,-0.01369609348768403,-0.004075197064884057,0.0041971288119216224
0.7225,0.002950117710000512,-0.7831428189999997,-0.0023565823500004413,-2.3551963199999997,-0.0010930470700002185,1.5689991449999996,0.7842949539999997,0.04,0.039999995,-9.802207127467025,-0.12720219945664146,-0.1621692549367113,-0.013943038192548243,-0.004491796346204072,0.003942210835649621
0.725,0.0029822313000005063,-0.7831269699999998,-0.0023842581000004365,-2.3551842,-0.001106744200000216,1.5689764499999996,0.7842752799999997,0.04,0.039999995,-9.782711985931229,-0.11254413045848291,-0.18176989436719704,-0.014189982897412443,-0.004908395627524068,0.0036872928593776316
0.7275,0.003014344890000502,-0.7831111209999997,-0.0024119338500004327,-2.35517208,-0.0011204413300002142,1.5689537549999997,0.7842556059999997,0.04,0.039999995,-9.763216844395435,-0.09788606146032372,-0.20137053379768366,-0.014436927602276656,-0.005324994908844082,0.0034323748831056305
0.73,0.003046458480000496,-0.7830952719999997,-0.002439609600000428,-2.35515996,-0.0011341384600002118,1.5689310599999997,0.7842359319999997,0.04,0.039999995,-9.743721702859641,-0.08322799246216517,-0.22097117322816945,-0.014683872307140857,-0.005741594190164078,0.0031774569068336407
0.7325,0.003078572070000492,-0.7830794229999998,-0.002467285350000424,-2.35514784,-0.00114783559000021,1.5689083649999995,0.7842162579999997,0.04,0.039999995,-9.724226561323846,-0.06856992346400598,-0.24057181265865607,-0.01493081701200507,-0.006158193471484092,0.0029225389305616396
0.735,0.00311176697000052,-0.7830630559999997,-0.0024958939100004486,-2.35513526,-0.001161994200000222,1.5688849099999995,0.7841959199999997,0.04,0.0399999955,-9.728278010574307,-0.029987419151772644,-0.20365645553394346,-0.014567075200544288,-0.006195882925816719,0.00349784516503907
0.7375,0.00314550252500053,-0.7830464299999997,-0.0025249688750004573,-2.3551224499999996,-0.0011763835500002262,1.5688610749999996,0.7841752499999997,0.04,0.03999999625,-9.744102755217087,0.02055730281667878,-0.1384831001335695,-0.013897990130941958,-0.0060441174666686645,0.004488263504862745
0.74,0.0031792380800005388,-0.7830298039999998,-0.0025540438400004644,-2.35510964,-0.0011907729000002298,1.5688372399999997,0.7841545799999997,0.04,0.039999997,-9.759927499859867,0.07110202478512796,-0.0733097447331984,-0.013228905061339656,-0.005892352007520617,0.005478681844686376
0.7425,0.0032129736350005487,-0.7830131779999997,-0.002583118805000473,-2.35509683,-0.0012051622500002341,1.5688134049999996,0.7841339099999997,0.04,0.03999999775,-9.775752244502646,0.12164674675357938,-0.008136389332824456,-0.012559819991737324,-0.005740586548372562,0.0064691001845100515
0.745,0.003246709190000557,-0.7829965519999997,-0.00261219377000048,-2.3550840199999996,-0.0012195516000002376,1.5687895699999996,0.7841132399999997,0.04,0.0399999985,-9.791576989145426,0.17219146872202856,0.0570369660675466,-0.011890734922135023,-0.005588821089224514,0.007459518524333682
0.7475,0.003280444745000567,-0.7829799259999998,-0.002641268735000489,-2.3550712099999997,-0.0012339409500002419,1.5687657349999997,0.7840925699999997,0.04,0.03999999925,-9.807401733788206,0.22273619069047995,0.1222103214679206,-0.011221649852532692,-0.005437055630076459,0.008449936864157358
0.75,0.0033141803000006037,-0.7829632999999997,-0.00267034370000052,-2.3550583999999994,-0.0012483303000002575,1.5687418999999996,0.7840718999999997,0.04,0.04,-9.82322647843086,0.27328091265750126,0.18738367686671156,-0.010552564782949985,-0.005285290170923182,0.009440355203939299
0.7525000000000001,0.0033495708950006062,-0.7829459509999998,-0.0027008461850005225,-2.3550448399999997,-0.0012634258500002586,1.5687168799999995,0.7840502249999997,0.04,0.0399999985,-9.831676261591232,0.24009461345590552,0.15989665318580754,-0.011032521321417764,-0.004826808859605615,0.007986001154261738
0.755,0.0033849614900006075,-0.7829286019999997,-0.0027313486700005236,-2.3550312799999995,-0.0012785214000002592,1.5686918599999997,0.7840285499999997,0.04,0.039999997,-9.840126044751603,0.20690831425431125,0.13240962950490476,-0.01151247785988552,-0.004368327548288069,0.006531647104584241
0.7575000000000001,0.0034203520850006105,-0.7829112529999998,-0.0027618511550005264,-2.3550177199999998,-0.0012936169500002604,1.5686668399999997,0.7840068749999997,0.04,0.0399999955,-9.848575827911974,0.1737220150527155,0.10492260582400073,-0.011992434398353298,-0.003909846236970502,0.00507729305490668
0.76,0.0034557426800006117,-0.7828939039999997,-0.002792353640000527,-2.3550041599999996,-0.0013087125000002609,1.5686418199999996,0.7839851999999997,0.04,0.039999994,-9.857025611072345,0.1405357158511212,0.07743558214309793,-0.012472390936821055,-0.0034513649256529555,0.0036229390052291838
0.7625000000000001,0.0034911332750006147,-0.7828765549999996,-0.0028228561250005293,-2.3549906,-0.0013238080500002623,1.5686167999999996,0.7839635249999997,0.04,0.0399999925,-9.865475394232718,0.10734941664952546,0.0499485584621939,-0.012952347475288834,-0.002992883614335389,0.0021685849555516225
0.765,0.003526523870000616,-0.7828592059999997,-0.0028533586100005304,-2.3549770399999996,-0.0013389036000002628,1.5685917799999998,0.7839418499999997,0.04,0.039999991,-9.873925177393089,0.07416311744793119,0.02246153478129112,-0.01343230401375659,-0.002534402303017843,0.0007142309058741254
0.7675000000000001,0.003562476855000648,-0.7828415979999996,-0.0028843462400005584,-2.35496326,-0.0013542392550002765,1.5685663599999997,0.7839198299999997,0.04,0.03999999025,-9.883577540487694,0.06899703751288273,-0.002014991095685605,-0.013805419102948547,-0.002301483042231504,-0.0001930291880121376
0.77,0.0035995546200006494,-0.7828234719999997,-0.0029163041600005594,-2.3549490399999997,-0.001370055120000277,1.5685401399999996,0.7838971199999997,0.04,0.039999991,-9.895635063450579,0.11987139610652528,-0.020470521365279704,-0.013964851293605631,-0.0025196878824721818,-6.101370401745952e-06
0.7725,0.0036366323850006506,-0.7828053459999996,-0.002948262080000561,-2.3549348199999995,-0.0013858709850002777,1.5685139199999996,0.7838744099999997,0.04,0.03999999175,-9.907692586413463,0.1707457547001678,-0.03892605163487381,-0.014124283484262718,-0.0027378927227128596,0.0001808264472086457
0.775,0.0036737101500006536,-0.7827872199999997,-0.0029802200000005634,-2.3549206,-0.0014016868500002788,1.5684876999999995,0.7838516999999996,0.04,0.039999992500000005,-9.919750109376348,0.22162011329381262,-0.05738158190446873,-0.01428371567491981,-0.002956097562953547,0.00036775426481904563
0.7775,0.0037107879150006552,-0.7827690939999996,-0.0030121779200005644,-2.3549063799999996,-0.0014175027150002794,1.5684614799999996,0.7838289899999996,0.04,0.039999993250000004,-9.931807632339233,0.2724944718874552,-0.07583711217406283,-0.014443147865576897,-0.003174302403194225,0.0005546820824294373
0.78,0.003747865680000658,-0.7827509679999997,-0.0030441358400005673,-2.35489216,-0.0014333185800002807,1.5684352599999996,0.7838062799999996,0.04,0.039999994000000004,-9.943865155302117,0.3233688304811,-0.09429264244365775,-0.014602580056233988,-0.0033925072434349123,0.0007416099000398372
0.7825,0.0037849434450006594,-0.7827328419999996,-0.0030760937600005684,-2.3548779399999997,-0.0014491344450002813,1.5684090399999995,0.7837835699999997,0.04,0.039999994750000004,-9.955922678265,0.3742431890747425,-0.11274817271325185,-0.014762012246891075,-0.00361071208367559,0.0009285377176502289
0.785,0.0038231668600006985,-0.7827141599999996,-0.003109040150000602,-2.35486323,-0.001465439210000298,1.5683820199999994,0.7837601559999996,0.04,0.039999994500000004,-9.913821503069588,0.34982414688277214,-0.10625420556460435,-0.01501217438915514,-0.0037353749495030023,0.0008705270315442008
0.7875,0.003861963100000708,-0.7826951999999996,-0.0031424807750006106,-2.3548482749999997,-0.0014819884250003022,1.5683545999999995,0.7837363899999996,0.04,0.039999993750000004,-9.844640978797198,0.28775840430101385,-0.08728548970783619,-0.015307701507219043,-0.003813266828127522,0.000690047093589781
0.79,0.0039007593400007196,-0.7826762399999996,-0.0031759214000006203,-2.3548333199999996,-0.001498537640000307,1.5683271799999996,0.7837126239999996,0.04,0.039999993000000005,-9.775460454524804,0.22569266171925276,-0.06831677385106716,-0.01560322862528296,-0.0038911587067520445,0.0005095671556353531
0.7925,0.003939555580000729,-0.7826572799999996,-0.0032093620250006286,-2.354818365,-0.0015150868550003111,1.5682997599999995,0.7836888579999995,0.04,0.03999999225,-9.706279930252414,0.16362691913749441,-0.04934805799429899,-0.015898755743346864,-0.003969050585376564,0.0003290872176809332
0.795,0.003978351820000741,-0.7826383199999996,-0.0032428026500006383,-2.3548034099999997,-0.001531636070000316,1.5682723399999996,0.7836650919999996,0.04,0.0399999915,-9.63709940598002,0.10156117655573332,-0.030379342137529963,-0.01619428286141078,-0.004046942464001086,0.00014860727972650523
0.7975,0.00401714806000075,-0.7826193599999997,-0.0032762432750006467,-2.3547884549999996,-0.00154818528500032,1.5682449199999995,0.7836413259999996,0.04,0.03999999075,-9.56791888170763,0.039495433973975036,-0.011410626280761796,-0.016489809979474683,-0.004124834342625606,-3.187265822791473e-05
0.8,0.0040559443000007965,-0.7826003999999995,-0.0033096839000006863,-2.3547734999999994,-0.0015647345000003397,1.5682174999999994,0.7836175599999996,0.04,0.03999999,-9.498738357437944,-0.022570308605482422,0.007558089575841947,-0.01678533709752245,-0.0042027262212471815,-0.00021235259616614666
0.8025,0.004096489855000789,-0.7825805999999996,-0.00334463346500068,-2.35475802,-0.0015820303700003365,1.5681888799999995,0.7835927259999995,0.04,0.03999999,-9.56740593106547,0.03272506087290982,0.01810624711666077,-0.016258059295472842,-0.004130469837408139,0.00043228134687207877
0.805,0.004137035410000783,-0.7825607999999996,-0.0033795830300006754,-2.3547425399999997,-0.0015993262400003341,1.5681602599999995,0.7835678919999995,0.04,0.03999999,-9.636073504693002,0.08802043035130452,0.028654404657480065,-0.015730781493423215,-0.0040582134535690935,0.0010769152899103328
0.8075,0.0041775809650007765,-0.7825409999999996,-0.003414532595000669,-2.3547270599999996,-0.001616622110000331,1.5681316399999996,0.7835430579999996,0.04,0.03999999,-9.704741078320529,0.14331579982969675,0.03920256219829889,-0.015203503691373608,-0.003985957069730052,0.0017215492329485584
0.81,0.004218126520000771,-0.7825211999999996,-0.0034494821600006644,-2.3547115799999996,-0.0016339179800003286,1.5681030199999995,0.7835182239999996,0.04,0.03999999,-9.773408651948058,0.19861116930809147,0.04975071973911818,-0.014676225889323977,-0.003913700685891006,0.0023661831759868124
0.8125,0.004258672075000764,-0.7825013999999996,-0.003484431725000658,-2.3546960999999995,-0.0016512138500003257,1.5680743999999995,0.7834933899999996,0.04,0.03999999,-9.842076225575585,0.2539065387864837,0.060298877279937005,-0.014148948087274371,-0.0038414443020519645,0.0030108171190250375
0.8150000000000001,0.004299217630000758,-0.7824815999999996,-0.0035193812900006535,-2.35468062,-0.0016685097200003233,1.5680457799999996,0.7834685559999995,0.04,0.03999999,-9.910743799203116,0.3092019082648784,0.07084703482075631,-0.013621670285224742,-0.003769187918212919,0.0036554510620632917
0.8175,0.004340356235000787,-0.7824615534999996,-0.0035548424650006785,-2.35466485,-0.0016860586800003356,1.5680167199999995,0.7834433529999996,0.03999999975,0.0399999899,-9.93729136265545,0.34150420069933635,0.06537771344664375,-0.01361559454229082,-0.003485512870525816,0.003926748137232863
0.8200000000000001,0.004382680940000791,-0.7824410139999995,-0.0035913268600006815,-2.3546484999999997,-0.001704113820000337,1.5679867799999996,0.7834174119999996,0.039999999,0.0399999896,-9.87959890576444,0.3278203390497693,0.027873434245344907,-0.014651922917501168,-0.0027790004951779097,0.003451371476727525
0.8225,0.004425005645000792,-0.7824204744999996,-0.0036278112550006828,-2.3546321499999996,-0.0017221689600003377,1.5679568399999995,0.7833914709999995,0.03999999825,0.0399999893,-9.821906448873433,0.31413647740020295,-0.009630844955952275,-0.01568825129271147,-0.0020724881198300347,0.002975994816222208
0.8250000000000001,0.004467330350000795,-0.7823999349999996,-0.0036642956500006854,-2.3546157999999995,-0.0017402241000003392,1.5679268999999993,0.7833655299999995,0.0399999975,0.039999989,-9.764213991982421,0.3004526157506359,-0.04713512415725113,-0.01672457966792182,-0.001365975744482128,0.00250061815571687
0.8275,0.004509655055000797,-0.7823793954999996,-0.0037007800450006866,-2.35459945,-0.0017582792400003399,1.5678969599999995,0.7833395889999996,0.03999999675,0.0399999887,-9.706521535091413,0.28676875410106956,-0.0846394033585483,-0.017760908043132122,-0.000659463369134253,0.0020252414952115533
0.8300000000000001,0.0045519797600007995,-0.7823588559999997,-0.0037372644400006897,-2.3545830999999997,-0.0017763343800003412,1.5678670199999993,0.7833136479999996,0.039999996,0.0399999884,-9.648829078200404,0.2730848924515026,-0.12214368255984717,-0.018797236418342467,4.704900621365325e-05,0.0015498648347062154
0.8325,0.004594304465000801,-0.7823383164999996,-0.003773748835000691,-2.3545667499999996,-0.001794389520000342,1.5678370799999994,0.7832877069999995,0.03999999525,0.0399999881,-9.591136621309396,0.25940103080193616,-0.15964796176114435,-0.01983356479355277,0.0007535613815615283,0.0010744881742008982
0.835,0.004637834670000837,-0.7823172059999997,-0.003811273370000722,-2.3545499299999997,-0.0018129591900003573,1.5678062999999993,0.7832610339999995,0.039999994500000004,0.0399999876,-9.619752646926582,0.2445469987264086,-0.16582649128861784,-0.020064998171993195,0.001076250259714091,0.0005854013509194012
0.8375,0.0046819676250008406,-0.7822958099999996,-0.003849317975000725,-2.3545328749999994,-0.0018317861250003588,1.5677750999999993,0.7832339949999995,0.039999993750000004,0.039999987,-9.69152291379419,0.22910788143794963,-0.15634214598051457,-0.01989398405208299,0.0012070273892853664,8.945944625037645e-05
0.84,0.004726100580000842,-0.7822744139999996,-0.003887362580000726,-2.3545158199999996,-0.0018506130600003594,1.5677438999999993,0.7832069559999995,0.039999993000000005,0.0399999864,-9.763293180661794,0.21366876414949137,-0.14685780067241172,-0.019722969932172797,0.001337804518856636,-0.0004064824584186263
0.8425,0.004770233535000846,-0.7822530179999996,-0.003925407185000729,-2.3544987649999993,-0.0018694399950003608,1.5677126999999993,0.7831799169999994,0.03999999225,0.0399999858,-9.835063447529402,0.19822964686103242,-0.13737345536430845,-0.019551955812262593,0.0014685816484279115,-0.0009024243630876509
0.845,0.004814366490000848,-0.7822316219999995,-0.00396345179000073,-2.3544817099999995,-0.0018882669300003616,1.5676814999999993,0.7831528779999994,0.0399999915,0.039999985200000004,-9.906833714397006,0.18279052957257416,-0.1278891100562056,-0.019380941692352396,0.001599358777999181,-0.0013983662677566537
0.8475,0.004858499445000851,-0.7822102259999996,-0.004001496395000734,-2.3544646549999997,-0.0019070938650003631,1.5676502999999993,0.7831258389999994,0.03999999075,0.0399999846,-9.978603981264612,0.1673514122841152,-0.11840476474810233,-0.019209927572442193,0.0017301359075704566,-0.0018943081724256785
0.85,0.004902632400000888,-0.7821888299999995,-0.004039541000000766,-2.3544475999999994,-0.001925920800000379,1.5676190999999993,0.7830987999999994,0.03999999,0.039999984,-10.05037424813117,0.15191229499601883,-0.10892041944081471,-0.019038913452535864,0.001860913037138454,-0.0023902500770717383
0.8525,0.004948601640000891,-0.7821665654999995,-0.004079169710000769,-2.3544298999999995,-0.0019455315900003805,1.5675866249999992,0.7830706209999995,0.0399999897,0.0399999834,-10.067901044340621,0.15520489269384657,-0.14163671005999157,-0.019068124946830776,0.0018223043679044312,-0.001698570083312163
0.855,0.004994570880000894,-0.7821443009999995,-0.00411879842000077,-2.3544121999999996,-0.001965142380000381,1.5675541499999994,0.7830424419999995,0.0399999894,0.0399999828,-10.085427840550071,0.15849749039167416,-0.17435300067916698,-0.019097336441125688,0.0017836956986704098,-0.0010068900895526184
0.8575,0.005040540120000897,-0.7821220364999996,-0.004158427130000773,-2.3543944999999993,-0.001984753170000383,1.5675216749999994,0.7830142629999994,0.0399999891,0.0399999822,-10.102954636759524,0.1617900880895019,-0.20706929129834384,-0.0191265479354206,0.0017450870294363867,-0.00031521009579304343
0.86,0.005086509360000898,-0.7820997719999995,-0.004198055840000775,-2.3543767999999994,-0.0020043639600003833,1.5674891999999994,0.7829860839999995,0.0399999888,0.0399999816,-10.120481432968974,0.16508268578732951,-0.23978558191751925,-0.01915575942971551,0.0017064783602023653,0.00037646989796650144
0.8625,0.0051324786000009025,-0.7820775074999995,-0.004237684550000778,-2.3543590999999995,-0.0020239747500003847,1.5674567249999993,0.7829579049999995,0.0399999885,0.039999981,-10.138008229178425,0.16837528348515723,-0.2725018725366961,-0.019184970924010423,0.0016678696909683422,0.0010681498917260767
0.865,0.005178447840000904,-0.7820552429999995,-0.004277313260000779,-2.3543413999999996,-0.0020435855400003857,1.5674242499999995,0.7829297259999995,0.0399999882,0.039999980399999996,-10.155535025387877,0.17166788118298484,-0.3052181631558715,-0.019214182418305335,0.0016292610217343208,0.001759829885485621
0.8675,0.0052250383500009445,-0.7820326819999995,-0.004317477930000814,-2.3543233999999993,-0.0020634614800004026,1.5673913299999993,0.7829011679999994,0.039999988,0.03999997985,-10.139435735175965,0.17326222489287813,-0.3095762225524667,-0.018988438239630135,0.0013112719704128644,0.002449607241279319
0.87,0.005272871400000947,-0.7820095279999995,-0.004358714520000816,-2.3543047999999995,-0.0020838677200004036,1.5673575199999994,0.7828718519999994,0.039999988,0.039999979399999996,-10.0560842721273,0.17146006062720387,-0.2572178195089333,-0.01825278271505999,0.0004345221549661581,0.0031355793211415685
0.8725,0.0053207044500009505,-0.7819863739999995,-0.004399951110000819,-2.3542861999999993,-0.0021042739600004054,1.5673237099999993,0.7828425359999994,0.039999988,0.03999997895,-9.972732809078632,0.16965789636152956,-0.20485941646539757,-0.01751712719048981,-0.000442227660480587,0.003821551401003848
0.875,0.005368537500000952,-0.7819632199999995,-0.00444118770000082,-2.3542675999999996,-0.002124680200000406,1.5672898999999993,0.7828132199999994,0.039999988,0.0399999785,-9.889381346029966,0.16785573209585533,-0.15250101342186415,-0.016781471665919662,-0.0013189774759272933,0.004507523480866097
0.8775000000000001,0.005416370550000956,-0.7819400659999995,-0.004482424290000824,-2.3542489999999994,-0.0021450864400004077,1.5672560899999992,0.7827839039999994,0.039999988,0.039999978049999996,-9.806029882981298,0.16605356783018102,-0.10014261037832839,-0.016045816141349485,-0.0021957272913740384,0.005193495560728376
0.88,0.005464203600000958,-0.7819169119999995,-0.004523660880000825,-2.3542303999999996,-0.002165492680000408,1.5672222799999993,0.7827545879999994,0.039999988,0.0399999776,-9.722678419932633,0.1642514035645068,-0.04778420733479499,-0.01531016061677934,-0.0030724771068207438,0.005879467640590627
0.8825000000000001,0.005512036650000962,-0.7818937579999995,-0.004564897470000829,-2.3542117999999994,-0.00218589892000041,1.5671884699999992,0.7827252719999994,0.039999988,0.03999997715,-9.639326956883965,0.16244923929883248,0.004574195708740736,-0.01457450509220916,-0.003949226922267489,0.006565439720452905
0.885,0.005561130000001001,-0.7818700259999994,-0.004607221570000863,-2.3541927399999993,-0.002206843080000427,1.5671537799999993,0.7826951799999994,0.0399999876,0.0399999766,-9.632088371340037,0.10991839763445405,0.01834180525223168,-0.01480033006767615,-0.003950243897579488,0.006533836629792173
0.8875000000000001,0.005610853500001005,-0.7818460049999995,-0.004650089425000867,-2.3541734499999993,-0.0022280562000004285,1.5671186499999992,0.7826646999999994,0.039999987,0.039999976,-9.662906224545036,0.03202321727301455,0.012814018047446533,-0.015506895293118252,-0.003513394452863723,0.006143445953902387
0.89,0.005660577000001007,-0.7818219839999995,-0.004692957280000868,-2.3541541599999998,-0.0022492693200004293,1.5670835199999993,0.7826342199999994,0.0399999864,0.0399999754,-9.693724077750035,-0.04587196308842148,0.007286230842661633,-0.016213460518560322,-0.0030765450081479775,0.005753055278012618
0.8925000000000001,0.005710300500001011,-0.7817979629999995,-0.0047358251350008715,-2.3541348699999998,-0.002270482440000431,1.5670483899999992,0.7826037399999994,0.0399999858,0.0399999748,-9.724541930955034,-0.123767143449861,0.0017584436378764862,-0.016920025744002424,-0.0026396955634322124,0.005362664602122831
