rsonawane2002/My_IMU/logs_2/traj_479/clean_479.csv
time,j1,j2,j3,j4,j5,j6,j7,gripper1,gripper2,imu_ax,imu_ay,imu_az,imu_gx,imu_gy,imu_gz,quat_x,quat_y,quat_z,quat_w
2520.433333337815,0.00016700293,-0.785875,4.0107683e-05,-2.3551247,9.29385e-05,1.570997,0.786,0.04,0.04,0.0,-0.0,0.0,2.875329272945135e-08,-0.0011641195053377316,4.421952117202833e-08,0.9999995971961153,0.00020320632366974898,0.0008736418299892524,3.263050917662294e-05
2520.450000004482,0.00016700615,-0.78576016,4.0106792e-05,-2.3552213,9.298178e-05,1.5709941,0.786,0.04,0.04,-0.2919984590049829,-3.2234907768437585e-05,0.020128409307318407,1.1191507455996383e-07,-0.0022375849785828406,8.518472194952737e-07,0.999999685058039,0.00020320977405386518,0.0007665025163017013,3.2611393058921914e-05
2520.4666666711487,0.00016701111,-0.78565425,4.0051436e-05,-2.35531,9.307577e-05,1.5709913,0.786,0.04,0.04,0.023262857123618197,2.4522132357422243e-05,-0.0016365684771368905,1.5999916322775643e-06,-0.003224711158593032,6.1772556792648596e-06,0.9999997558591476,0.00020323122076973087,0.0006677674296137119,3.2640097217403994e-05
2520.4833333378156,0.00016701886,-0.7855569,3.9852675e-05,-2.355391,9.330803e-05,1.5709884,0.786,0.04,0.04,0.022460763075637935,6.329303029730879e-05,-0.0015249036305675645,5.190297135958019e-06,-0.004130849321938243,2.0171563669185858e-05,0.9999998122521265,0.00020330160185709853,0.0005771385214482592,3.279173045027156e-05
2520.5000000044824,0.00016702975,-0.78546727,3.9383227e-05,-2.3554652,9.3803894e-05,1.5709856,0.786,0.04,0.04,0.020255479192132775,0.00012005732220066742,-0.001323677755604713,1.1681500006280072e-05,-0.00495650695094754,4.6577313920542947e-05,0.9999998568258812,0.00020346580426643736,0.0004938110912625191,3.317362604552812e-05
2520.5166666711493,0.00016704347,-0.7853847,3.848078e-05,-2.355532,9.471967e-05,1.5709826,0.786,0.04,0.04,0.020368134257409132,0.00019569240262914153,-0.000850097043758602,2.1710571476589616e-05,-0.005706478114048307,8.791535412297903e-05,0.999999891438847,0.00020378138804407744,0.0004176658810343645,3.3921258745337e-05
2520.533333337816,0.0001670585,-0.7853088,3.6951595e-05,-2.3555944,9.626179e-05,1.5709796,0.786,0.04,0.039999995,0.014610085715438537,0.00027291354754336943,-0.001867085162077231,3.6309686557179266e-05,-0.00638151027824292,0.00015051991262781897,0.9999999183118223,0.0002043177712352824,0.0003469742938666692,3.520563099170674e-05
2520.550000004483,0.00016707354,-0.7852388,3.457465e-05,-2.355652,9.862196e-05,1.5709764,0.786,0.04,0.04,0.014619635370505257,0.0003926462910024185,-0.0014526967790695622,5.5284535218662116e-05,-0.006995535578350563,0.00023220474240046843,0.9999999386351001,0.00020515382357341212,0.00028152765115001,3.720062232774594e-05
2520.56666667115,0.00016708611,-0.7851744,3.110318e-05,-2.3557034,0.00010205224,1.5709709,0.7859981,0.04,0.04,0.0164174046415555,0.000499137201298382,-0.0020064355259252764,7.940492305834336e-05,-0.007549628708867329,0.00033862872047191357,0.9999999536821531,0.00020542435086139926,0.00022096828711716722,4.0119120455874055e-05
2520.583333337817,0.0001670936,-0.7851154,2.6268774e-05,-2.3557513,0.00010681061,1.5709642,0.7859962,0.04,0.04,0.01122659801182646,0.0006271904242374955,-0.002453772260380127,0.00011755604811382419,-0.008042361592894474,0.0004702929938191861,0.9999999642940199,0.0002061794586285866,0.00016416360537675986,4.418484396559e-05
2520.6000000044837,0.00016709274,-0.78506124,1.9782832e-05,-2.3557942,0.00011318432,1.5709572,0.7859943,0.039999995,0.04,0.013734210711713324,0.0007573906964401832,-0.000776151143555559,0.00016096026735914676,-0.008486197255493806,0.0006308482699911415,0.999999970951998,0.0002075229117122803,0.0001120970040470515,4.964378967928639e-05
2520.6166666711506,0.00016707998,-0.7850114,1.1339754e-05,-2.3558319,0.000121472185,1.5709467,0.7859924,0.03999999,0.039999995,0.012629629184468527,0.0008999577331950245,-0.0027042823548484307,0.0002095194011834454,-0.008868599529748887,0.0008209410845373628,0.999999974440137,0.0002095645756115026,6.309947672025259e-05,5.6752707472944385e-05
2520.6333333378175,0.00016705164,-0.78496563,6.1870395e-07,-2.3558667,0.00013198759,1.5709352,0.78598857,0.039999988,0.03999999,0.00904218364283782,0.0010494529028483941,-0.0017351781917307463,0.0002638696004787827,-0.00920270846447262,0.0010422136660809677,0.9999999753314985,0.0002114663093094819,1.7081606408723567e-05,6.578161763371427e-05
2520.6500000044844,0.00016700337,-0.7849235,-1.2714683e-05,-2.3558967,0.00014505775,1.5709206,0.78598475,0.039999984,0.039999984,0.011104514750526207,0.0012053472903422518,-0.0023288841573210206,0.00033196150613663746,-0.009489015416298157,0.0012967472736752994,0.9999999737248423,0.00021430215430270284,-2.63441443254922e-05,7.701225545839013e-05
2520.6666666711512,0.0001669311,-0.7848848,-2.9005776e-05,-2.355924,0.0001610194,1.5709023,0.7859795,0.03999998,0.03999998,0.0075528627404342075,0.0013669284240123145,-0.0033470177071892593,0.0004049484835380375,-0.00972957426200553,0.0015839329667214647,0.9999999698953376,0.00021748111884084778,-6.8399653470851e-05,9.073463729134683e-05
2520.683333337818,0.00016683018,-0.7848492,-4.861032e-05,-2.3559465,0.00018022083,1.5708804,0.7859738,0.039999977,0.039999973,0.009956027769608689,0.0015324881744316658,-0.0024828072419991187,0.0004895380397815041,-0.009934388698372007,0.0019064320066967556,0.9999999638088315,0.0002216081224868024,-0.00010848892243469977,0.00010724891345157474
2520.700000004485,0.0001666959,-0.78481656,-7.1891925e-05,-2.355966,0.00020301616,1.570855,0.78596634,0.039999973,0.03999997,0.007403592951704674,0.0017031285122516072,-0.002843853152167952,0.0005805838568291275,-0.010095647898501823,0.002263328987200241,0.9999999555243789,0.0002261882885027605,-0.00014729731536597748,0.0001268605499091209
2520.716666671152,0.00016652346,-0.78478664,-9.9221295e-05,-2.355982,0.00022976809,1.5708255,0.7859587,0.03999997,0.039999966,0.007790180442124317,0.001875729748786046,-0.003060281778788365,0.0006838462228950582,-0.010217681078842274,0.00265614539467981,0.999999944706895,0.00023212981567927255,-0.0001850334801452806,0.00014988184209930997
2520.7333333378187,0.00016630783,-0.7847592,-0.00013097472,-2.3559942,0.00026084395,1.5707917,0.7859492,0.039999966,0.03999996,0.007932295096368946,0.0020517091860714574,-0.0028169971065805655,0.0007918676204129922,-0.010302826476579765,0.003085427741116828,0.9999999313363863,0.00023870385421916558,-0.00022169718930557027,0.00017662969460580102
2520.7500000044856,0.00016604397,-0.7847341,-0.00016753288,-2.356004,0.0002966156,1.5707536,0.78593796,0.039999966,0.03999996,0.005163554400655634,0.002229195934293579,-0.0035009208951830573,0.0009119504180698074,-0.010349056335689305,0.0035516041655601557,0.9999999148441091,0.0002461665673061487,-0.0002582419446296708,0.0002074244293170225
2520.7666666711525,0.00016572686,-0.784711,-0.00020928016,-2.356009,0.00033745813,1.5707101,0.7859257,0.03999997,0.039999966,0.008715633759703856,0.002408958824602815,-0.003039160239270977,0.0010428424676658071,-0.010363336721820826,0.0040549967511369495,0.9999998948440944,0.00025495387984355206,-0.0002940417127823586,0.00024258975773829998
2520.7833333378194,0.00016535122,-0.7846899,-0.0002566028,-2.3560126,0.00038374952,1.5706605,0.78591186,0.03999997,0.03999996,0.002687898657049992,0.002587734370084891,-0.0050030163925685045,0.0011807919451398644,-0.01033880014925981,0.0045967075338601456,0.9999998701663485,0.0002649661781671284,-0.00033118228815945774,0.0002824508850591917
2520.8000000044863,0.0001649118,-0.7846706,-0.00030988915,-2.356011,0.0004358676,1.570605,0.7858963,0.03999997,0.03999996,0.00904767468905554,0.0027708091735287104,-0.0030103136031911504,0.001328023091380998,-0.01029290469687016,0.005175158139342356,0.9999998406567899,0.0002762532287024044,-0.0003677260768759201,0.0003273348143535877
2520.816666671153,0.00016440354,-0.78465307,-0.00036952773,-2.356007,0.00049419235,1.570543,0.7858788,0.03999997,0.03999996,0.0035573812979361463,0.002949916876551611,-0.004935052231869186,0.0014845432843763494,-0.010207451096612913,0.005791279963009693,0.9999998047605481,0.0002888350080042239,-0.00040557985664514077,0.0003775687803319239
2520.83333333782,0.00016382107,-0.7846371,-0.00043590734,-2.355999,0.00055910286,1.570474,0.78585917,0.039999973,0.039999966,0.00679002708658949,0.003131933414146068,-0.004191376213902309,0.001650867559809558,-0.010098939403851365,0.006445060133160128,0.9999997616259084,0.00030279090633144484,-0.0004440276871776735,0.0004334803414281587
2520.850000004487,0.00016315923,-0.7846224,-0.0005094157,-2.3559875,0.0006309781,1.5703976,0.78583735,0.039999973,0.039999966,0.004729487818577738,0.003311036713433415,-0.004717504569984321,0.001827211065253601,-0.009958910191689003,0.007136442534626003,0.9999997095988793,0.0003181998473506482,-0.0004838734025567829,0.0004953963507449658
2520.866666671154,0.00016241272,-0.7846091,-0.0005904396,-2.3559723,0.000710196,1.5703133,0.78581333,0.039999977,0.039999966,0.005588604373274464,0.0034903860101377334,-0.004959670421755824,0.0020132042389521786,-0.009794284610992167,0.007866147525090485,0.9999996471472697,0.0003351996373215611,-0.0005250266403552941,0.0005636431194402568
2520.8833333378207,0.0001615764,-0.7845972,-0.00067936326,-2.3559535,0.00079713034,1.570221,0.78578705,0.03999998,0.03999997,0.005110807341934809,0.0036688820148186776,-0.005244388901748387,0.0022084474512831433,-0.009601321644390402,0.00863227470311206,0.9999995723534224,0.0003538971414230644,-0.0005677246846154498,0.0006385440220429039
2520.9000000044875,0.00016064513,-0.7845863,-0.0007765693,-2.355931,0.00089215476,1.5701199,0.7857581,0.03999998,0.03999997,0.004398537216054876,0.0038451629433642167,-0.005419036691178825,0.002412536305532004,-0.009384081046636931,0.009435458233958575,0.9999994828962199,0.000374219597819783,-0.0006125025301106752,0.000720421845959449
2520.9166666711544,0.00015961367,-0.7845766,-0.0008824366,-2.355905,0.0009956391,1.5700103,0.78572667,0.03999998,0.03999997,0.00474062533468711,0.004020070947684674,-0.005376124396061499,0.002626659064812965,-0.009143639523741864,0.0102754125004456,0.9999993764822711,0.0003964205332715384,-0.0006591203132631153,0.0008095963452952171
2520.9333333378213,0.00015847714,-0.7845678,-0.000997341,-2.3558753,0.0011079502,1.569891,0.78569275,0.03999998,0.03999997,0.004405896070580617,0.004192058463396708,-0.006078240098839061,0.0028492628950200706,-0.008878504825699948,0.011151820448567887,0.9999992499624992,0.0004206024905254901,-0.0007082617398503287,0.0009063847372306415
2520.950000004488,0.00015723053,-0.78456,-0.001121654,-2.3558419,0.0012294516,1.5697621,0.7856558,0.039999984,0.03999997,0.0042781276435421844,0.004361332093354143,-0.0061089000186420606,0.0030798643397483088,-0.008593303312413862,0.012065175459550909,0.9999991004234178,0.00044662810446641416,-0.0007598351792063266,0.0010111014746058287
2520.966666671155,0.00015586868,-0.784553,-0.0012557438,-2.3558044,0.0013605009,1.5696232,0.7856161,0.039999984,0.03999997,0.004547060855641938,0.004531661848905099,-0.00604814634275197,0.0033204298640463308,-0.008286192087272538,0.01301338846141209,0.9999989242296066,0.00047477578138862604,-0.0008140173292911593,0.0011240566598796826
2520.983333337822,0.00015438699,-0.7845469,-0.0013999739,-2.3557634,0.0015014532,1.5694736,0.7855733,0.039999984,0.03999997,0.003780311303591688,0.004694740647319586,-0.0069309170147136,0.0035685285073361315,-0.007957627415971525,0.013996894206709604,0.9999987172162279,0.00050499321107639,-0.000871282306688791,0.0012455580665562912
2521.000000004489,0.00015278043,-0.7845415,-0.0015547024,-2.3557181,0.0016526589,1.5693132,0.7855275,0.039999984,0.039999966,0.004634054892016515,0.004858038624053688,-0.006530242940794295,0.0038255392505016435,-0.007612409265401559,0.015016088668178336,0.9999984751759446,0.0005374649238577222,-0.0009314783366424934,0.0013759089175716872
2521.0166666711557,0.00015104433,-0.7845369,-0.0017202831,-2.355669,0.0018144617,1.5691416,0.7854785,0.039999988,0.03999997,0.003953237768938855,0.005017533988075696,-0.007023863904098704,0.004090091642223874,-0.0072464412881279305,0.01606880586883733,0.999998193197928,0.0005721643743958752,-0.0009948702914091595,0.0015154081666564417
2521.0333333378226,0.00014917411,-0.78453296,-0.0018970645,-2.3556159,0.0019872014,1.5689586,0.7854262,0.03999999,0.039999973,0.004055058794549815,0.005174374818837403,-0.0070827987455057695,0.0043627109258058926,-0.0068623165365110875,0.017155392080807144,0.9999978658768045,0.0006092415592874143,-0.001061603726068923,0.001664350950937139
2521.0500000044894,0.00014716519,-0.7845295,-0.002085389,-2.3555584,0.002171212,1.5687639,0.7853705,0.03999999,0.039999973,0.00415762190555391,0.0053276930389287635,-0.0071418168041459396,0.004642561222055187,-0.006459493477689834,0.01827534635537338,0.9999974873480457,0.0006487245315385475,-0.0011318236561713142,0.0018230275062836947
2521.0666666711563,0.00014501292,-0.7845269,-0.0022855937,-2.3554964,0.0023668243,1.5685565,0.7853113,0.039999995,0.039999973,0.004740530651226038,0.005475692049049393,-0.007771179248905469,0.004929871941600529,-0.006041381028490183,0.01942899602844067,0.9999970513032952,0.0006906379457077049,-0.0012055852729382691,0.001991724903768824
2521.083333337823,0.00014271298,-0.78452486,-0.0024980092,-2.3554304,0.00257436,1.5683366,0.7852484,0.04,0.039999977,0.00363990044445206,0.005620846017554055,-0.007940172123999112,0.005224865280225283,-0.005604861925961499,0.020614068995298475,0.999996550382047,0.000735064423342116,-0.0012833010828715357,0.0021707239876451283
2521.10000000449,0.00014026108,-0.7845232,-0.0027229614,-2.3553598,0.0027941358,1.5681037,0.7851817,0.04,0.039999977,0.00408397542563943,0.005765168477741829,-0.007858659685600067,0.005526680686237047,-0.005153486590370534,0.021830900020892677,0.9999959770536065,0.0007820240167302126,-0.001365025399980744,0.0023603009760551834
2521.116666671157,0.00013765291,-0.78452224,-0.002960769,-2.3552845,0.0030264638,1.5678576,0.7851113,0.039999995,0.03999997,0.004857058808949155,0.005904665699546529,-0.008043738813423573,0.0058360386233942485,-0.004688119690045277,0.023079444392653435,0.99999532348201,0.0008316824616865301,-0.0014505144059655968,0.002560727699496173
2521.133333337824,0.00013488437,-0.7845217,-0.003211744,-2.3552043,0.0032716473,1.5675979,0.785037,0.039999995,0.03999997,0.004352714262623181,0.006038583372047399,-0.00832079327319768,0.006151230284019092,-0.004205654248202217,0.02435819914238386,0.999994580375241,0.0008840235267845652,-0.0015402088473882723,0.002772269693990769
2521.1500000044907,0.00013195141,-0.78452164,-0.003476193,-2.3551195,0.0035299861,1.5673242,0.7849586,0.03999999,0.03999996,0.004356714126263483,0.006169222896801069,-0.008533477243832799,0.006473005373920159,-0.0037089918669444884,0.025667556490704246,0.9999937381670518,0.0009390880675340399,-0.0016341914585997794,0.002995189236756755
2521.1666666711576,0.0001288501,-0.7845219,-0.0037544162,-2.35503,0.003801772,1.567036,0.7848762,0.04,0.03999997,0.0036193465352774012,0.00629474111463889,-0.008896250888357216,0.006801259749195223,-0.0031981774444848135,0.027005445903291105,0.9999927858729832,0.0009970032097818072,-0.0017329023534008578,0.003229742408206292
2521.1833333378245,0.00012557652,-0.78452283,-0.004046707,-2.354936,0.0040872917,1.5667334,0.7847897,0.04,0.039999973,0.0044620740458523045,0.0064178909304081055,-0.009115546045390666,0.007134819598987637,-0.0026771327378187007,0.028372059724339403,0.9999917130387719,0.0010577730062761943,-0.0018360655059819677,0.0034761808795755952
2521.2000000044914,0.00012212692,-0.78452414,-0.0043533524,-2.3548362,0.0043868236,1.5664159,0.78469884,0.04,0.03999997,0.005222354743250612,0.006542603715681142,-0.008771361283499424,0.007473821502279806,-0.002141992787704952,0.029767418621719104,0.999990508161355,0.0011214292847934557,-0.001943613008894364,0.003734749258722496
2521.2166666711582,0.00011849753,-0.7845258,-0.0046746284,-2.3547328,0.004700639,1.5660833,0.7846038,0.04,0.039999973,0.0022969716876541924,0.0066420867903018745,-0.009788572129654227,0.007818449647854714,-0.001592879025525032,0.031189934808585507,0.9999891567014412,0.0011880883815114627,-0.002056549594376811,0.004005687120111978
2521.233333337825,0.00011468492,-0.78452784,-0.0050108116,-2.354623,0.005029007,1.5657355,0.78450435,0.04,0.039999973,0.006322049130802476,0.00677021726563946,-0.008809204462290054,0.00816748973951722,-0.001038472137245252,0.03263930947936966,0.9999876476186148,0.0012577755293721555,-0.0021737333167227285,0.004289230044497816
2521.250000004492,0.00011068547,-0.7845303,-0.005362166,-2.354508,0.005372184,1.565372,0.7844004,0.04,0.03999997,0.005082119933685902,0.0068712339703862115,-0.009432552977695075,0.00852105880245048,-0.00046605961813061744,0.03411546561695379,0.9999859658916644,0.0013304812878618265,-0.0022956605827131743,0.004585605930142416
2521.266666671159,0.00010649589,-0.78453314,-0.0057289526,-2.3543887,0.005730425,1.5649921,0.7842918,0.04,0.039999966,0.0024166405480752218,0.006956814266639725,-0.010698817782905934,0.008879091131576283,0.00011804803929963553,0.035616887268133765,0.9999840938559373,0.0014062230049308878,-0.0024234530725992832,0.00489504312395069
2521.2833333378258,0.000102112754,-0.7845364,-0.006111421,-2.3542635,0.0061039757,1.5645963,0.7841787,0.04,0.039999966,0.0058598315286095826,0.007071562036045989,-0.009400138832127425,0.00924170828756596,0.0007048939926073243,0.037143652026687166,0.9999820183587746,0.0014851345641855435,-0.0025558482393270667,0.005217755668387391
2521.3000000044926,9.7532975e-05,-0.78453994,-0.0065098186,-2.3541327,0.0064930753,1.564184,0.7840607,0.04,0.039999973,0.0050582986113711925,0.007160980483234079,-0.009941821606163082,0.009607947396582547,0.0013054907092497209,0.038694458322440624,0.9999797214083527,0.0015671371163618341,-0.002693399740792712,0.00555395815325423
2521.3166666711595,9.275334e-05,-0.7845437,-0.0069243824,-2.353997,0.006897956,1.563755,0.783938,0.04,0.039999966,0.0034674288280633903,0.007239804036578666,-0.010371181962032239,0.009977957171515561,0.0019170445889592665,0.0402694478953199,0.9999771838010796,0.0016523281405295004,-0.0028365720367016446,0.00590385874311751
2521.3333333378264,8.7770866e-05,-0.7845478,-0.0073553454,-2.3538563,0.0073188418,1.563309,0.78381044,0.04,0.03999997,0.0038436488549953296,0.007324653875711608,-0.010778974740377478,0.010351071381922674,0.0025343348387623713,0.04186716401078512,0.9999743862877912,0.0017407401097101931,-0.002985470955571474,0.006267659483361132
2521.3500000044933,8.258271e-05,-0.7845524,-0.0078029316,-2.3537087,0.007755953,1.5628458,0.78367794,0.04,0.039999966,0.007271762117455616,0.0074249157842730396,-0.009905261241427432,0.010727394620996719,0.003156420473299979,0.043487329202744514,0.9999713124088982,0.0018323724788978893,-0.003139009323295438,0.006645554212593348
2521.36666667116,7.7185876e-05,-0.78455734,-0.00826736,-2.3535554,0.008209504,1.5623654,0.78354055,0.04,0.039999966,0.005075542240295938,0.0074864738014996345,-0.0105522651252965,0.011106180172775584,0.0037931899895099763,0.04512981290011635,0.9999679391162675,0.001927312605071939,-0.003297947516766524,0.00703773741081582
2521.383333337827,7.157778e-05,-0.7845627,-0.008748842,-2.3533976,0.008679696,1.561867,0.78339803,0.04,0.03999997,0.002930495752062612,0.00754116674675908,-0.011656575111951284,0.011487080690039259,0.004439110984155198,0.04679312753420557,0.9999642416741163,0.002025493015980669,-0.0034631931475383967,0.0074443968442424405
2521.400000004494,6.575572e-05,-0.7845682,-0.009247572,-2.353234,0.009166731,1.561351,0.7832506,0.04,0.03999996,0.004766470896977459,0.007610115719229593,-0.010688802882996562,0.011870284743097877,0.0050848285877638545,0.04847739459261806,0.9999601990087671,0.0021270505933369942,-0.0036341048578756702,0.00786570632569162
2521.416666671161,5.9717226e-05,-0.7845739,-0.009763758,-2.3530636,0.009670794,1.5608169,0.78309786,0.04,0.039999958,0.006838488742277882,0.007703791517166183,-0.01049295087398594,0.012254458179124482,0.005736690143203476,0.05018123864364729,0.9999557893248556,0.0022318840052716867,-0.0038101876969368867,0.008301840711911082
2521.4333333378277,5.3459746e-05,-0.78458,-0.010297585,-2.3528874,0.010192074,1.5602646,0.78293985,0.04,0.039999958,0.004912820851332711,0.007737390029436981,-0.011274999100163718,0.012640802177390328,0.00640053046993699,0.05190447855244497,0.999950985382439,0.0023400039333141155,-0.003992079218180721,0.008752971940849714
2521.4500000044945,4.6980826e-05,-0.78458637,-0.010849234,-2.3527048,0.010730752,1.5596937,0.78277665,0.04,0.039999958,0.005984291048699575,0.0077906969477813115,-0.011191483068473396,0.013028363054628504,0.007068574596788241,0.0536469049179953,0.9999457616102257,0.0024515054200544206,-0.0041796123087104314,0.00921926243632519
2521.4666666711614,4.02783e-05,-0.7845929,-0.011418884,-2.352518,0.011286995,1.5591044,0.78260803,0.04,0.03999996,0.001932800793613687,0.007810515604437726,-0.012014057778020337,0.013416529689065312,0.007743939186083976,0.05540693531323875,0.9999400862408199,0.0025663094589003883,-0.004373898920081341,0.00970087587281175
2521.4833333378283,3.3350134e-05,-0.78459984,-0.012006703,-2.3523245,0.011860973,1.5584964,0.7824341,0.04,0.03999996,0.006863294963954658,0.007891284387849962,-0.011196070901786648,0.013805712283802413,0.008415683593098432,0.05718490891869177,0.9999339362688092,0.002684501269386749,-0.00457363784591328,0.010197959980015029
2521.500000004495,2.6194035e-05,-0.7846072,-0.012612856,-2.3521242,0.012452841,1.5578694,0.78225476,0.04,0.03999996,0.006567183663874765,0.007933936280513,-0.011339910747620863,0.014194783377725109,0.009095308077995471,0.05897929861576065,0.9999272823287825,0.0028060497758845954,-0.004778896797228454,0.010710662193915864
2521.516666671162,1.8807988e-05,-0.7846147,-0.013237489,-2.3519177,0.013062748,1.5572232,0.7820699,0.04,0.039999958,0.005395562020771294,0.007945256670215985,-0.011777434383142271,0.014583608175493321,0.009783547209759755,0.06078974898622305,0.9999200913530174,0.0029309451077845373,-0.0049902495053566346,0.011239122706987095
2521.533333337829,1.1190257e-05,-0.78462255,-0.013880761,-2.351705,0.01369084,1.5565578,0.78187954,0.04,0.039999954,0.005674853267700897,0.007988573315616254,-0.01179318301094412,0.01497247904057366,0.010473116658914688,0.06261665874759968,0.9999123324921245,0.003059180826211487,-0.0052075237288862295,0.011783481635097551
2521.550000004496,3.3388533e-06,-0.7846307,-0.014542811,-2.3514862,0.0143372575,1.5558728,0.7816836,0.04,0.039999966,0.005546992500526926,0.00800524363418556,-0.012030266400264722,0.015360568708680378,0.011167563544822852,0.06445806281675101,0.9999039719464414,0.003190770883398812,-0.005430904304163601,0.012343870759966395
2521.5666666711627,-4.747901e-06,-0.7846392,-0.015223771,-2.3512619,0.015002132,1.5551684,0.78148216,0.04,0.03999997,0.004425410231068128,0.008010050672560727,-0.01226329332042475,0.01574755559729156,0.011863784681852892,0.06631430694981644,0.9998949740777651,0.0033257294208336825,-0.005660664619714468,0.01292041848811404
2521.5833333378296,-1.3071597e-05,-0.7846479,-0.015923774,-2.351031,0.01568559,1.5544443,0.78127503,0.04,0.03999996,0.005949794528459229,0.00804701960955053,-0.011985901728728265,0.016133271256064882,0.01255883422786758,0.06818379812585407,0.9998853058168965,0.003464004935964923,-0.005896450551516717,0.013513243583558042
2521.6000000044965,-2.1633869e-05,-0.7846568,-0.016642941,-2.3507934,0.016387748,1.5537007,0.78106225,0.04,0.03999996,0.0068447681536687455,0.008077326698787204,-0.011687841735641413,0.016517537574429496,0.013256322959228042,0.07006709991439461,0.9998749329324228,0.0036056040559422652,-0.00613793762643313,0.014122458513613273
2521.6166666711633,-3.0436386e-05,-0.7846659,-0.017381385,-2.350549,0.017108712,1.5529363,0.7808438,0.04,0.04,0.006000101510839073,0.00806102606495853,-0.01262295607220576,0.01689985858910063,0.013959717465810411,0.07196378356095814,0.9998638135065638,0.0037505205178681358,-0.006385873275744232,0.014748174750196448
2521.63333333783,-3.9480125e-05,-0.78467536,-0.018139215,-2.350298,0.017848596,1.5521522,0.7806196,0.04,0.04,0.006676475253453162,0.008079785991063279,-0.012082337181751335,0.017279784875539588,0.014660345120493582,0.0738713183994311,0.9998519131277124,0.0038987277080875975,-0.006639603006972014,0.015390497361088148
2521.650000004497,-4.876671e-05,-0.78468525,-0.01891654,-2.350041,0.018607497,1.551348,0.7803896,0.04,0.04,0.005454962484718884,0.00806484562711103,-0.012583087887252375,0.017656903198240217,0.015364930215937826,0.07579008889577638,0.9998391893629837,0.004050162363861831,-0.006899573432901071,0.016049532243716587
2521.666666671164,-5.8297297e-05,-0.7846954,-0.01971344,-2.3497782,0.019385519,1.5505235,0.7801539,0.04,0.04,0.004846129915958564,0.00802495327772313,-0.012769195047934723,0.01803187463418627,0.01606949755000688,0.07772056902268015,0.9998255988588969,0.004204870481587854,-0.007166083110706719,0.01672537543768807
2521.683333337831,-6.807283e-05,-0.78470576,-0.020530015,-2.349509,0.02018273,1.5496788,0.7799124,0.04,0.04,0.006115549691454447,0.008057737545987334,-0.012455011868461874,0.018403715191133475,0.016769584385446182,0.07966047200691681,0.9998111022724394,0.004362841743017334,-0.007438743461794857,0.01741810783077541
2521.7000000044977,-7.8094505e-05,-0.7847164,-0.021366347,-2.3492327,0.020999225,1.5488138,0.77966475,0.04,0.04,0.007451076631093123,0.008062547241084218,-0.012175215962817454,0.018771425445013847,0.017468528046725516,0.08161092467278375,0.9997956607062877,0.004523820973727834,-0.007717130785371308,0.018127817549743585
2521.7166666711646,-8.836337e-05,-0.7847273,-0.022222513,-2.3489494,0.021835072,1.5479282,0.7794115,0.04,0.04,0.0068756412427539715,0.008038549853098091,-0.012485699781272785,0.019137238157017036,0.018171752647424537,0.08356992313338901,0.9997792263078028,0.004688085764419406,-0.008001574913362399,0.018854582841914175
2521.7333333378315,-9.88804e-05,-0.7847383,-0.02309858,-2.348659,0.022690337,1.5470221,0.77915233,0.04,0.04,0.007381504461667632,0.008028089220889212,-0.012294929831835333,0.019497738774028488,0.018874114381433153,0.08553799318776648,0.9997617563001661,0.004855463423983957,-0.00829186054522606,0.01959847349270525
2521.7500000044984,-0.0001096462,-0.7847497,-0.023994619,-2.3483622,0.023565091,1.5460953,0.77888733,0.04,0.04,0.0063694923725376995,0.007977066045766756,-0.012897475003792458,0.01985406575488158,0.01957628371395518,0.08751350305669899,0.9997432010471464,0.005025956780540214,-0.008588340700698338,0.02035957078264693
2521.7666666711652,-0.00012066154,-0.78476137,-0.024910683,-2.3480587,0.024459375,1.5451477,0.7786164,0.04,0.04,0.0067778538052065684,0.007965362378397137,-0.012762188878290281,0.02020581305867378,0.020276174695770317,0.08949625392299622,0.9997235143728564,0.005199505256729208,-0.008890889714056889,0.021137928828599526
2521.783333337832,-0.00013192711,-0.7847734,-0.025846826,-2.3477492,0.025373254,1.5441796,0.7783395,0.04,0.04,0.00578592562940905,0.007905147508107183,-0.012938082196400913,0.020552596955233517,0.020974320003503986,0.09148693255144916,0.9997026461332017,0.0053760200333431,-0.009199678057876023,0.021933619092778026
2521.800000004499,-0.00014344354,-0.78478587,-0.026803086,-2.3474336,0.026306767,1.5431907,0.7780566,0.04,0.04,0.006256401853588223,0.007866047351110655,-0.013049413276555732,0.02089473500173648,0.021668850717636585,0.09348290991701383,0.9996805471065194,0.005555488109052383,-0.009514638865040226,0.02274669065926127
2521.816666671166,-0.00015521106,-0.78479844,-0.027779514,-2.3471112,0.027259944,1.5421808,0.7777678,0.04,0.04,0.006704033261928366,0.007857204226190823,-0.012940906873692981,0.021231700952974383,0.022357639857979075,0.09548554846557963,0.9996571659491638,0.00573787242530505,-0.009835822781015508,0.02357719187557294
2521.8333333378328,-0.00016723048,-0.7848112,-0.02877614,-2.346782,0.028232832,1.5411501,0.7774729,0.04,0.04,0.007357962707721377,0.007821748256265151,-0.012605252779973597,0.021563242031863272,0.02304337759694617,0.09749263147731116,0.9996324545555149,0.005923101813751002,-0.010162861681693055,0.024425169531841488
2521.8500000044996,-0.0001795019,-0.78482425,-0.029792985,-2.3464458,0.029225452,1.5400983,0.77717215,0.04,0.04,0.007461142706666202,0.007760129095844143,-0.012946764545840317,0.021888928715721685,0.0237242861137923,0.0995049814611754,0.9996063592325869,0.006111180411943784,-0.010495835736182403,0.025290660093092537
2521.8666666711665,-0.00019202575,-0.78483766,-0.030830074,-2.3461027,0.030237831,1.5390257,0.77686536,0.04,0.04,0.007680663777587249,0.0077239545352908445,-0.012806524832797983,0.02220822161826033,0.024403420067571166,0.10152084680355927,0.9995788285688084,0.006302003103366853,-0.010834553014057143,0.02617370235330444
2521.8833333378334,-0.00020480207,-0.7848512,-0.031887423,-2.3457527,0.031269968,1.5379322,0.7765526,0.04,0.04,0.007505720405998062,0.007685798814020817,-0.012674796299316782,0.022521273761176016,0.02507890444557393,0.10354039893577283,0.9995498072368401,0.006495549643399587,-0.011179091215591744,0.027074316375847677
2521.9000000045003,-0.00021783097,-0.78486514,-0.032965057,-2.345396,0.032321893,1.5368176,0.77623385,0.04,0.04,0.007445247363024876,0.007612902530067939,-0.013134451956453574,0.022827916233623787,0.02575086957644858,0.10556385227161447,0.9995192387755186,0.0066917320972564726,-0.01152949536416935,0.027992548576253353
2521.916666671167,-0.0002311127,-0.7848793,-0.03406295,-2.3450325,0.0333936,1.5356818,0.7759092,0.04,0.04,0.0077398714183773976,0.007544840296484431,-0.012931534582749649,0.02312745383301158,0.026416090210982,0.10758895455041745,0.9994870676027471,0.006890543272952384,-0.011885693418096416,0.028928401273421497
2521.933333337834,-0.000244647,-0.7848938,-0.03518114,-2.3446627,0.034485076,1.5345255,0.77557844,0.04,0.04,0.006836802246334983,0.007508313393866234,-0.01292681936313489,0.023419686919716885,0.0270777175493688,0.10961603195962255,0.9994532359650992,0.007091849945896475,-0.012247727081001148,0.02988190028404851
2521.950000004501,-0.00025843372,-0.78490853,-0.036319584,-2.344286,0.035596322,1.533348,0.7752417,0.04,0.04,0.007887236530890185,0.007423975847469649,-0.013030404986413835,0.023705113206529682,0.02773165689225325,0.11164476700996934,0.9994176865686079,0.007295597613208942,-0.012615521396755133,0.030853049269173483
2521.966666671168,-0.00027247297,-0.78492355,-0.03747828,-2.343903,0.036727343,1.5321498,0.77489895,0.04,0.04,0.007024975759906127,0.007335152835830083,-0.012934599301828165,0.023983018292173763,0.02838012733634819,0.11367415474734417,0.9993803597676473,0.007501759163682094,-0.012989060146379764,0.031841866098763334
2521.9833333378347,-0.00028676415,-0.7849388,-0.038657214,-2.3435133,0.0378781,1.5309304,0.77455026,0.04,0.04,0.008077072472656432,0.007305110949464011,-0.01303979911508879,0.024253307494065478,0.029021007236417075,0.11570470915923833,0.9993411968482452,0.007710255479357596,-0.013368265826460824,0.03284834411584074
2522.0000000045015,-0.00030130727,-0.7849543,-0.03985635,-2.3431168,0.03904857,1.52969,0.77419555,0.04,0.04,0.007846058715532678,0.007208864160362927,-0.012969477816704433,0.024515453900837657,0.029655040350764973,0.11773426631850356,0.9993001381014619,0.007920980621816735,-0.0137530890731601,0.033872475512336596
2522.0166666711684,-0.0003161018,-0.7849701,-0.041075673,-2.342713,0.04023873,1.5284292,0.77383494,0.04,0.04,0.0089469775800044,0.007207379884551293,-0.012440759997978112,0.024769557205987357,0.03028143185755837,0.11976351465263932,0.9992571292859777,0.008133930067922927,-0.014142975930834772,0.03491425188396635
2522.0333333378353,-0.0003311474,-0.7849861,-0.042315155,-2.3423026,0.041448552,1.5271472,0.7734685,0.04,0.04,0.008344032096063714,0.0070895635930628975,-0.012930326589444263,0.0250152011619031,0.03090298446585058,0.12179199441447106,0.999212101900468,0.008349046202099069,-0.014538353730833245,0.03597367251144996
2522.050000004502,-0.00034644353,-0.78500235,-0.04357473,-2.3418853,0.042677987,1.5258443,0.77309555,0.04,0.04,0.0082458923743145,0.00698608067390416,-0.012928472673823244,0.02525157534844343,0.0315181495194502,0.1238197492439172,0.9991649979163819,0.008565912892337619,-0.014939100282898587,0.03705071332396828
2522.066666671169,-0.00036198946,-0.78501904,-0.044854376,-2.3414621,0.04392699,1.524521,0.7727169,0.04,0.04,0.00738751807187743,0.006896205735865482,-0.013044772567138985,0.0254818376867529,0.032124617495168165,0.12584461996511595,0.9991157490230946,0.008784844518863345,-0.015345296733570721,0.03814535920605348
2522.083333337836,-0.00037778457,-0.785036,-0.04615404,-2.3410323,0.045195535,1.5231769,0.77233243,0.04,0.04,0.008490501759661484,0.006835992118645051,-0.012847290968265312,0.025702364518991813,0.03272073427818456,0.12786648891194297,0.9990642946021125,0.009005718997935909,-0.015756710517209022,0.03925758971448029
2522.100000004503,-0.0003938284,-0.78505313,-0.047473665,-2.3405955,0.04648353,1.5218122,0.771942,0.04,0.04,0.008834994786965922,0.006793086651812538,-0.012555665038660457,0.025913028655270287,0.03330934306044323,0.12988517593127033,0.9990105738824263,0.00922836015825973,-0.016173195879921658,0.04038735414612301
2522.1166666711697,-0.00041011974,-0.7850706,-0.048813187,-2.3401525,0.047790945,1.520427,0.7715458,0.04,0.04,0.00804188958205554,0.006641602171993111,-0.012919075014972137,0.026114567941022643,0.03388922025950433,0.13190001108918534,0.9989545181437108,0.009452762101839188,-0.01659488090077797,0.04153463490632145
2522.1333333378366,-0.0004266579,-0.78508824,-0.050172526,-2.3397026,0.0491177,1.5190212,0.77114385,0.04,0.04,0.009116541205345108,0.006591665872216629,-0.012599046619587995,0.026306609911394597,0.0344587868708583,0.13391049198657226,0.9988960667543806,0.009678823437082965,-0.01702150254372046,0.04269937529584961
2522.1500000045035,-0.00044344217,-0.78510606,-0.051551633,-2.3392463,0.050463736,1.5175953,0.770736,0.04,0.04,0.008604264891776126,0.006512193494825208,-0.012361096155055762,0.026488463861594307,0.03502009039523041,0.13591704476747055,0.9988351555967238,0.009906406729560474,-0.017452943105702952,0.04388154312152683
2522.1666666711703,-0.00046047117,-0.7851241,-0.052950423,-2.3387835,0.05182898,1.5161486,0.7703223,0.04,0.04,0.008539866675416619,0.006368999747003584,-0.013029972754363683,0.026660853009544773,0.03557206736756007,0.13791856685661533,0.9987717115624577,0.010135448828921175,-0.017889535872974503,0.0450810976561625
2522.183333337837,-0.00047774424,-0.78514266,-0.05436883,-2.3383143,0.05321333,1.5146824,0.76990277,0.04,0.04,0.00931715700112079,0.006384387081959791,-0.012093354297171288,0.026823166322389548,0.03611219184242942,0.1399136645385277,0.9987056849247503,0.010365818486016,-0.018330388110406368,0.04629796515854628
2522.200000004504,-0.0004952601,-0.78516144,-0.055806745,-2.337839,0.054616734,1.5131958,0.7694775,0.04,0.04,0.008473200430292316,0.006160462000232708,-0.012871860652352574,0.026975606872678255,0.0366450013371226,0.14190095821779256,0.9986369940533864,0.010597471798991271,-0.01877622013119752,0.047532107643896766
2522.216666671171,-0.0005130175,-0.78518033,-0.057264093,-2.3373566,0.0560391,1.5116879,0.7690465,0.04,0.04,0.009446707415916578,0.006104253913678803,-0.01303921056308166,0.027117981188155955,0.03716582005437217,0.14388429432780844,0.9985655707561121,0.0108302897799823,-0.01922703269828112,0.04878346991985237
2522.233333337838,-0.0005310156,-0.7851995,-0.058740787,-2.336868,0.057480317,1.5101602,0.76860976,0.04,0.04,0.008972475253177237,0.006045895865103984,-0.012376669670133289,0.027250656312959518,0.03767150858324776,0.14586148010002323,0.9984913568587154,0.011064196400309239,-0.019682321243280274,0.05005197365672292
2522.2500000045047,-0.0005492528,-0.7852189,-0.060236704,-2.336373,0.058940295,1.5086131,0.7681673,0.04,0.04,0.009459464234118364,0.005959150722378848,-0.01193788769777715,0.027372693619268883,0.03816537921126255,0.14782738577354995,0.9984142911136377,0.011299082522693057,-0.020141788643255408,0.05133753387579301
2522.2666666711716,-0.00056772784,-0.7852384,-0.061751757,-2.3358717,0.06041894,1.5070462,0.76771915,0.04,0.04,0.009411959593097485,0.005855048046355532,-0.012178275055596544,0.027484208968927983,0.03865187218802344,0.14978648768272082,0.9983343018513753,0.011534833246837463,-0.020605582829114816,0.052640092374226496
2522.2833333378385,-0.00058643933,-0.7852584,-0.063285835,-2.335364,0.06191613,1.5054595,0.76726544,0.04,0.04,0.009578702479795531,0.005741886452104161,-0.012529361175572795,0.0275853754108579,0.03912466912276664,0.1517400175010665,0.9982513231679994,0.011771410626533205,-0.021073559276000062,0.053959566201378394
2522.3000000045054,-0.0006053857,-0.7852788,-0.06483883,-2.3348508,0.063431785,1.5038536,0.7668061,0.04,0.04,0.008853612171400016,0.005604611301569806,-0.012272736056417877,0.027675858781310278,0.03958657935388004,0.15368237613885616,0.9981652854284401,0.012008685644193159,-0.02154574471715105,0.055295888809593345
2522.3166666711722,-0.00062456535,-0.78529936,-0.0664106,-2.334331,0.064965755,1.5022284,0.76634127,0.04,0.04,0.009998839328306808,0.005586519170339144,-0.011776360236770422,0.027754766103197014,0.04003636818824708,0.15560410802742633,0.9980761301825707,0.012246569795916448,-0.022021752697591327,0.056648939055767414
2522.333333337839,-0.0006439774,-0.78532016,-0.06800104,-2.333805,0.066517934,1.5005839,0.7658708,0.04,0.04,0.009754891387059317,0.005449948151657613,-0.012008231422422355,0.027823814489014678,0.04047414739814104,0.1575322683473236,0.9979837871432242,0.012484908833449037,-0.02250166839358677,0.05801863985128504
2522.350000004506,-0.0006636195,-0.7853412,-0.069610015,-2.3332725,0.06808821,1.49892,0.765395,0.04,0.04,0.0106319101087049,0.00537790125242979,-0.011899533298120879,0.02788181108965003,0.04090065538463501,0.15944766057730073,0.9978881922652207,0.012723691615038593,-0.0229852576721052,0.05940489322507231
2522.366666671173,-0.00068349025,-0.78536236,-0.07123744,-2.332734,0.069676444,1.4972372,0.76491374,0.04,0.04,0.009213484605852251,0.0052780065238094975,-0.011792132738674965,0.027928160272389917,0.041315404205263126,0.16134509901205676,0.9977892724525321,0.012962802940520867,-0.023472694594096854,0.06080761569955004
2522.3833333378398,-0.00070358784,-0.78538376,-0.07288312,-2.3321898,0.07128252,1.4955355,0.76442707,0.04,0.04,0.009826203136964473,0.005114468890255602,-0.011853157231334066,0.027963985080556614,0.04171503973192086,0.16324374226520316,0.997686964781962,0.013202089832901534,-0.023963797740779773,0.06222669464176312
2522.4000000045066,-0.00072391017,-0.78540534,-0.07454693,-2.3316393,0.07290628,1.493815,0.7639349,0.04,0.04,0.010308893042010325,0.005071495410025051,-0.011632647692105813,0.027987805164664162,0.042101609159257355,0.16511135287715062,0.9975812081158395,0.013441400684231148,-0.024458353737693766,0.06366200510689243
2522.4166666711735,-0.000744456,-0.7854272,-0.076228745,-2.3310828,0.074547574,1.4920758,0.76343745,0.04,0.04,0.010228600730211035,0.004980862834780275,-0.011629135787938338,0.028002775065584615,0.042474072957689145,0.16699160798874874,0.9974719364391382,0.01368070562155466,-0.02495624525658163,0.0651134404923087
2522.4333333378404,-0.0007652231,-0.78544945,-0.07792842,-2.33052,0.07620629,1.4903184,0.76293486,0.04,0.04,0.011298478132082401,0.004946555622552945,-0.011195575493272436,0.028004874776112992,0.04283389891534306,0.16883470785349658,0.9973590944501836,0.013919970826451317,-0.025456968003690718,0.0665808824645613
2522.4500000045073,-0.00078621,-0.7854719,-0.07964578,-2.3299522,0.077882245,1.4885427,0.762427,0.04,0.04,0.008510903048719598,0.004652151229007917,-0.011929141938060717,0.027995890519775427,0.04318380578873356,0.17067878160620045,0.9972425930387925,0.014158979702952202,-0.02596140559296061,0.06806422953853537
2522.466666671174,-0.0008074139,-0.78549445,-0.081380665,-2.3293786,0.07957532,1.4867487,0.761914,0.04,0.04,0.010445087351840243,0.004639253884990147,-0.011231440622938571,0.027975675680031314,0.04351487699881669,0.17250376656155975,0.9971223814036332,0.014397712033316204,-0.02646893643391729,0.06956333658049028
2522.483333337841,-0.0008288328,-0.78551733,-0.08313296,-2.3287985,0.081285365,1.4849368,0.7613958,0.04,0.04,0.01175968775737335,0.004688076026544696,-0.010942057244478498,0.027943852408285515,0.04383005713960227,0.17431187000141565,0.9969984113861347,0.014635961866894493,-0.02697892443847941,0.07107808347090804
2522.500000004508,-0.00085046585,-0.78554046,-0.084902465,-2.328213,0.0830122,1.4831071,0.7608726,0.04,0.04,0.010187112008153143,0.004437784791407051,-0.01127988954581216,0.02790138551451396,0.04413533850609128,0.17611322782147537,0.9968706036865236,0.014873708768012465,-0.027491850456822224,0.07260833596502621
2522.516666671175,-0.00087230984,-0.7855637,-0.08668901,-2.3276222,0.08475568,1.4812597,0.7603443,0.04,0.04,0.009858862652856182,0.004305910000288599,-0.011133098931548346,0.027847932516833616,0.04442576130640628,0.17790085352274676,0.9967388933095596,0.015110797475012478,-0.02800770773382989,0.07415396598429436
2522.5333333378417,-0.00089436234,-0.7855871,-0.08849244,-2.3270257,0.08651563,1.479395,0.75981104,0.04,0.04,0.010857036094158445,0.004318451937183887,-0.010667463280311651,0.02778303127521059,0.044697974971066146,0.17966910363663247,0.9966032301680184,0.015347135402707093,-0.028526018065685145,0.07571481590097832
2522.5500000045085,-0.000916622,-0.7856108,-0.09031259,-2.3264234,0.0882919,1.477513,0.75927275,0.04,0.04,0.011198370366405364,0.004207496215460904,-0.010904950382095713,0.027706634844933804,0.04495782944937597,0.18141921664649646,0.9964635528703734,0.015582575706405767,-0.02904665668502938,0.07729076834091496
2522.5666666711754,-0.00093908625,-0.7856349,-0.09214928,-2.325816,0.09008424,1.4756137,0.7587297,0.04,0.04,0.010591476644528086,0.004106099369585031,-0.010933359676412735,0.027619882513822892,0.04520273558989995,0.18315655203265652,0.9963197981683363,0.015817105327230328,-0.029569690307057413,0.07888163520121724
2522.5833333378423,-0.0009617527,-0.7856592,-0.09400229,-2.3252034,0.09189253,1.4736975,0.7581816,0.04,0.04,0.010267210527170612,0.0039167634094935955,-0.010783496346067345,0.02752173860452821,0.045431283131445906,0.18487921125824855,0.9961719049743933,0.016050439062745482,-0.0300951021288183,0.08048729075722116
2522.600000004509,-0.0009846189,-0.78568363,-0.09587149,-2.3245847,0.093716584,1.4717648,0.75762886,0.04,0.04,0.012300857729807824,0.0040823293550970585,-0.009953096039350129,0.027413566699264487,0.045643656832758485,0.18658395721287682,0.9960198336352685,0.0162827026891548,-0.030622132937247155,0.08210754881667325
2522.616666671176,-0.0010076828,-0.7857083,-0.09775664,-2.3239605,0.09555621,1.4698157,0.7570713,0.04,0.04,0.011435287969141505,0.003846717803228372,-0.010146897554386136,0.02729302547360079,0.04584434629899927,0.1882687940242861,0.9958635239599533,0.01651362545719984,-0.0311508899787081,0.08374224664921213
2522.633333337843,-0.0010309416,-0.78573316,-0.099657565,-2.3233318,0.097411245,1.4678502,0.7565092,0.04,0.04,0.009905686739863917,0.003609913108063023,-0.010603846247669857,0.02716256254639849,0.04603151302917739,0.18994213652858508,0.995702894593637,0.016743195492808897,-0.03168188316280076,0.08539127228119311
2522.65000000451,-0.0010543927,-0.78575814,-0.10157409,-2.322698,0.0992815,1.4658684,0.7559424,0.04,0.04,0.010768918590264853,0.003615346772094241,-0.010287402072006735,0.02702126070142915,0.046199772591636795,0.19159708026692102,0.9955378986429924,0.016971250182631552,-0.03221477913211459,0.087054448698516
2522.6666666711767,-0.0010780336,-0.78578323,-0.10350603,-2.3220587,0.10116675,1.4638709,0.75537115,0.04,0.04,0.012229954192566339,0.0037181543133618655,-0.00945674727685919,0.026868838968935327,0.04635067491187197,0.19322883432353963,0.9953685058774333,0.01719776370098517,-0.03274881077052023,0.08873156047386854
2522.6833333378436,-0.0011018623,-0.78580856,-0.10545313,-2.3214142,0.10306683,1.4618577,0.75479525,0.04,0.04,0.011275555009881977,0.00344071646671551,-0.009919664429469677,0.026705362286823943,0.04648835213145816,0.19484280163036813,0.995194650620109,0.017422484306204408,-0.03328426455153633,0.09042246485792556
2522.7000000045105,-0.0011258759,-0.7858342,-0.10741523,-2.3207653,0.10498152,1.4598289,0.75421506,0.04,0.04,0.010700105741245913,0.003337702352676497,-0.010071161160629671,0.02653207984837133,0.04661204306150223,0.19643816536052605,0.9950162709678242,0.0176454611495585,-0.033821243592607866,0.09212698677344416
2522.7166666711773,-0.0011500707,-0.7858601,-0.1093921,-2.3201115,0.106910616,1.4577849,0.7536305,0.04,0.04,0.01132173717557361,0.0033107735495890855,-0.009617270111683673,0.026347721702684755,0.04671681531215459,0.19801300519735895,0.9948333287382417,0.017866536454298414,-0.03435932788134675,0.09384493323701008
2522.733333337844,-0.001174445,-0.7858862,-0.11138351,-2.3194525,0.1088539,1.4557257,0.7530416,0.04,0.04,0.012048551218524217,0.00327418463248047,-0.00945121592728082,0.026152927969715946,0.04680541874285196,0.19956745197897058,0.9946457804921892,0.018085556740040816,-0.03489833812375937,0.09557609524711796
2522.750000004511,-0.0011989968,-0.7859125,-0.11338929,-2.3187892,0.110811174,1.4536519,0.7524484,0.04,0.04,0.010789572534819492,0.003136797234047639,-0.009305291144223737,0.02594771309240739,0.046880492919424886,0.20110058201215908,0.9944535691937711,0.01830242946724989,-0.035438332419778486,0.09732031847805987
2522.766666671178,-0.001223722,-0.7859389,-0.115409225,-2.318121,0.11278225,1.4515635,0.751851,0.04,0.04,0.011965259030177755,0.0031460374125200086,-0.009077197044216057,0.0257330076079796,0.046938599099170246,0.2026117873502541,0.9942566550704095,0.01851712282028713,-0.035978993717575895,0.09907740419353957
2522.783333337845,-0.0012486187,-0.7859656,-0.11744305,-2.3174481,0.11476688,1.4494606,0.7512496,0.04,0.04,0.011538299931501683,0.0029692398641312234,-0.009207299704261374,0.025508153769374167,0.046981134739994955,0.20410718112329668,0.9940549921542666,0.01872951293839073,-0.03652029834954822,0.10084714039937646
2522.8000000045117,-0.0012736836,-0.7859925,-0.11949055,-2.3167706,0.11676488,1.4473435,0.75064427,0.04,0.04,0.011935187755707233,0.002934236918901434,-0.008957584506941174,0.025272699193937875,0.047007093079848246,0.205578038604887,0.9938485379357878,0.01893952807565289,-0.03706207395837634,0.10262933592824432
2522.8166666711786,-0.0012989138,-0.78601944,-0.12155153,-2.3160887,0.11877599,1.4452127,0.75003475,0.04,0.04,0.011311541961500637,0.0029021161872144763,-0.008546433104617002,0.02502726774738906,0.047018401317595604,0.2070277756229651,0.9936372535919589,0.01914696112613074,-0.037604192703405016,0.10442378486240043
2522.8333333378455,-0.0013243068,-0.78604645,-0.12362574,-2.3154023,0.1208,1.4430684,0.74942136,0.04,0.04,0.011795073886800012,0.0028357749186982972,-0.008459998867049734,0.02477300452886408,0.04701378045521325,0.20845591705187977,0.9934211001142008,0.01935180944666314,-0.03814649417517158,0.10623027017368641
2522.8500000045124,-0.0013498595,-0.7860736,-0.12571296,-2.3147118,0.12283672,1.4409103,0.7488041,0.04,0.04,0.011220029042657842,0.0026392701267349827,-0.00882474757608609,0.024508648497754235,0.04699366538867809,0.20986089680450726,0.9932000239029168,0.019553921797822466,-0.03868915825026804,0.1080486265320193
2522.8666666711792,-0.0013755684,-0.78610104,-0.12781297,-2.3140168,0.124885865,1.4387393,0.748183,0.04,0.04,0.012309093895357393,0.0027691874072560685,-0.008138521560274725,0.02423550233237004,0.046954057180009404,0.2112425239955263,0.9929740143439096,0.019753220309265077,-0.03923151165768643,0.10987859490459276
2522.883333337846,-0.0014014313,-0.78612876,-0.12992553,-2.313318,0.12694728,1.4365551,0.7475583,0.04,0.04,0.011290451325463025,0.002510314516857015,-0.008560991403183671,0.023952834300112094,0.04690152142485877,0.21260113310073236,0.992743010257408,0.019949648583145678,-0.03977389270243454,0.11172002759471777
2522.900000004513,-0.0014274447,-0.7861567,-0.13205038,-2.312615,0.1290206,1.4343585,0.74692994,0.04,0.04,0.012204991792019726,0.0026462969867038777,-0.007899798031929528,0.023661020473699737,0.046832189564384376,0.21393337506275578,0.9925070087131624,0.020143087531689904,-0.04031575091202311,0.11357259312149587
2522.91666667118,-0.0014536063,-0.7861848,-0.13418727,-2.311908,0.13110568,1.4321488,0.7462981,0.04,0.04,0.01130438972829495,0.0023542093698106226,-0.008388924444302504,0.023360217269454406,0.04674866874295428,0.2152464559132476,0.9922659449744716,0.02033343547345582,-0.040857569955115,0.11543615041714018
2522.9333333378468,-0.0014799119,-0.7862131,-0.13633592,-2.311197,0.13320234,1.4299272,0.7456628,0.04,0.04,0.012160547399053812,0.0023709623023393522,-0.00755481986469686,0.02305119809280827,0.0466458794893105,0.21653310320300215,0.9920198151046841,0.020520649871672073,-0.04139859389712757,0.11731046752891894
2522.9500000045136,-0.0015063591,-0.7862414,-0.13849616,-2.3104823,0.13531028,1.4276941,0.745024,0.04,0.04,0.011680522350943079,0.002426296997190547,-0.007252684594694081,0.022732935880199548,0.046528706447862035,0.21779553957583486,0.9917685899201759,0.020704590798987673,-0.04193882672228182,0.1191952968063373
2522.9666666711805,-0.0015329443,-0.78627,-0.14066772,-2.3097637,0.13742924,1.4254491,0.74438184,0.04,0.04,0.01200474746569924,0.0023152111324337143,-0.00763180696339294,0.02240605499222481,0.04639794564715216,0.2190324763070114,0.9915122406062137,0.0208851448160549,-0.042478196246347404,0.12109042198999435
2522.9833333378474,-0.0015596645,-0.7862988,-0.14285032,-2.3090417,0.139559,1.4231926,0.7437364,0.04,0.04,0.011255937601983845,0.0021256612392522856,-0.007576588830326969,0.02207144077173742,0.046250858911763164,0.220242593459306,0.9912507302266108,0.021062245557857587,-0.043016840120342056,0.12299562229336498
2523.0000000045143,-0.0015865164,-0.78632766,-0.14504378,-2.308316,0.14169928,1.4209248,0.74308795,0.04,0.04,0.01201457446811105,0.0022780351462692305,-0.0071548475578220305,0.021729604430950095,0.04608687470324446,0.22142923174939078,0.9909840454136307,0.021235941752296036,-0.043554432800662304,0.12491063964667186
2523.016666671181,-0.0016134973,-0.7863566,-0.14724779,-2.3075874,0.14384988,1.4186463,0.7424361,0.04,0.04,0.010794586898343894,0.0020457658824718505,-0.0070289131445244735,0.021378682252539485,0.04590720627280987,0.22258847052214176,0.990712159677966,0.021405927590499755,-0.04409099324894514,0.12683527602576536
2523.033333337848,-0.0016406031,-0.7863856,-0.14946213,-2.3068542,0.14601052,1.416357,0.7417814,0.04,0.04,0.013339242656851269,0.0023295819454607902,-0.006506871854128349,0.021021611699824472,0.045710489536958755,0.22372250275863187,0.9904350835428004,0.02157231802405751,-0.044625857128847105,0.12876922480993128
2523.050000004515,-0.0016678317,-0.7864147,-0.15168647,-2.306119,0.14818096,1.4140575,0.7411238,0.04,0.04,0.009865429197963849,0.0017545336905344655,-0.007064286657043617,0.02065580210273034,0.04550114513503078,0.22482746617495167,0.9901527530329792,0.02173497727414382,-0.04515981241130097,0.13071230916436588
2523.066666671182,-0.0016951781,-0.78644395,-0.15392059,-2.3053794,0.15036091,1.4117475,0.74046326,0.04,0.04,0.01333344972072048,0.002188167354923165,-0.0064750881692443585,0.020282913056334118,0.04527142663572617,0.22590455252525599,0.989865207189646,0.0218937467739316,-0.04569183868217495,0.13266420514004584
2523.0833333378487,-0.001722641,-0.78647333,-0.15616423,-2.3046372,0.15255012,1.4094278,0.73979986,0.04,0.04,0.010861725337951711,0.001893322873718073,-0.006464090407543033,0.019903438012792138,0.045030909853451026,0.22695728696207948,0.9895724025780543,0.02204860086722387,-0.0462223463600542,0.13462471523708514
2523.1000000045156,-0.0017502151,-0.78650296,-0.15841708,-2.303892,0.15474838,1.4070987,0.7391338,0.04,0.04,0.011857833653783345,0.001862029726407144,-0.0061829130037827085,0.019517424189427895,0.04477309232120652,0.22798178300128613,0.9892743456196729,0.0221994801133876,-0.046750894053164106,0.13659357996147975
2523.1166666711824,-0.0017778985,-0.78653276,-0.16067892,-2.303143,0.1569554,1.40476,0.73846495,0.04,0.04,0.012562180323172356,0.0019903963837233918,-0.006081357728193737,0.019124757494630926,0.04450179934762569,0.22898154948920024,0.9889710352664269,0.022346238523228836,-0.04727729091897947,0.13857054084933318
2523.1333333378493,-0.0018056881,-0.78656274,-0.16294949,-2.3023922,0.15917094,1.4024127,0.73779345,0.04,0.04,0.010149370311784978,0.001651713963501944,-0.006098710621116332,0.018726175323517863,0.04421755986824794,0.22995154688504088,0.9886624348431177,0.022488844309325778,-0.04780192322444348,0.1405553910305592
2523.150000004516,-0.0018335789,-0.78659296,-0.16522859,-2.3016376,0.16139461,1.4000566,0.7371196,0.04,0.04,0.013236249179904291,0.002214063313500658,-0.005443918744796328,0.01832190075282711,0.04391653141967993,0.2308925924319929,0.9883485951663897,0.022627360414982575,-0.04832380572593578,0.142547770215589
2523.166666671183,-0.0018615698,-0.7866232,-0.16751578,-2.3008804,0.16362636,1.397692,0.7364433,0.04,0.04,0.011225148351234893,0.001550575641846852,-0.005654726968273849,0.017910027280431284,0.0436057904451139,0.2318071251117746,0.9880294718075779,0.022761540776333175,-0.048843542851023845,0.14454751268315275
2523.18333333785,-0.001889655,-0.7866535,-0.16981094,-2.3001218,0.16586573,1.395319,0.7357647,0.04,0.04,0.009505499454354194,0.0015394107365965248,-0.006038425362731026,0.01749414821326893,0.04327924999480113,0.23269239837441713,0.987705035196299,0.022891454425485302,-0.04936153922852399,0.14655436945773587
2523.200000004517,-0.0019178311,-0.7866839,-0.17211366,-2.2993598,0.16811253,1.3929383,0.7350837,0.04,0.04,0.012626185635022935,0.0018487685174262136,-0.004837199259544178,0.017072811899070242,0.042932000342161686,0.23354609207561874,0.9873753646999334,0.02301690710539153,-0.04987654726358409,0.1485679682974725
2523.2166666711837,-0.0019460963,-0.7867144,-0.17442375,-2.2985954,0.17036651,1.3905501,0.7344006,0.04,0.04,0.01122508553108581,0.001698634180276326,-0.004947228872964615,0.01664665277282351,0.04257531618958777,0.23437438331722213,0.9870404329276622,0.023137958018273657,-0.050388849574759205,0.15058812205233893
2523.2333333378506,-0.001974446,-0.786745,-0.17674093,-2.2978294,0.17262743,1.3881546,0.73371536,0.04,0.04,0.010249073545454124,0.0014213215697014836,-0.005308127672609686,0.016215244372986104,0.04220518232542328,0.2351723820175377,0.9867002217593368,0.023254506661799238,-0.050898720804815015,0.15261461437367452
2523.2500000045175,-0.0020028763,-0.78677565,-0.1790649,-2.2970603,0.17489496,1.385752,0.7330282,0.04,0.04,0.012366854689105367,0.001804765632690275,-0.004510586112416171,0.015779705343649614,0.0418187551729825,0.23593952556391107,0.9863547912604572,0.023366512874686548,-0.051405410627531935,0.15464706784104232
2523.2666666711843,-0.0020313854,-0.78680634,-0.1813954,-2.2962892,0.17716882,1.3833424,0.7323391,0.04,0.04,0.010617069292129244,0.001509469664462415,-0.00483435479647909,0.015338959496247792,0.04142243594787537,0.23667807402134577,0.9860041173766683,0.02347392029217817,-0.051909346049018965,0.15668527491483358
2523.283333337851,-0.0020599682,-0.78683716,-0.18373209,-2.295516,0.17944878,1.3809267,0.73164815,0.04,0.04,0.011243321191267697,0.0015570290914965201,-0.004162018538811374,0.01489487743511489,0.04100961256843903,0.2373862030758649,0.985648244317049,0.02357668158659683,-0.05240995344922354,0.15872893667990529
2523.300000004518,-0.002088622,-0.7868681,-0.18607473,-2.2947414,0.18173453,1.3785049,0.73095554,0.04,0.04,0.010089487641362638,0.0013797387036385,-0.004548362161105324,0.01444611082744722,0.040586974107310735,0.23806460133365343,0.9852871569773659,0.023674784792127715,-0.05290764393319123,0.16077780964406946
2523.316666671185,-0.0021173414,-0.78689915,-0.18842305,-2.2939644,0.18402584,1.3760772,0.7302612,0.04,0.04,0.01166272759407505,0.0016086471921777923,-0.00394675350980922,0.01399378283457875,0.04014783839624538,0.23871161978760452,0.9849209108875154,0.023768108257941817,-0.053401744428093575,0.16283160018369405
2523.333333337852,-0.002146126,-0.78693026,-0.1907768,-2.2931857,0.18632235,1.3736441,0.7295654,0.04,0.04,0.010555371346976372,0.0015534792290550214,-0.0038418894010128213,0.013538253775434383,0.03969860104535673,0.2393288034323005,0.9845495133040512,0.02385672841163836,-0.053892412801375945,0.1648900245760648
2523.3500000045187,-0.0021749707,-0.7869615,-0.19313557,-2.2924054,0.18862385,1.3712056,0.7288679,0.04,0.04,0.010602803993187138,0.0013149582588301012,-0.003986738938777101,0.013078358526025152,0.039238088361729886,0.23991462466299618,0.9841729857758319,0.023940397228231564,-0.054379652916338964,0.16695282207359374
2523.3666666711856,-0.0022038713,-0.7869929,-0.19549921,-2.2916236,0.19093004,1.3687619,0.7281692,0.04,0.04,0.010337948442895595,0.0013986253745656985,-0.00387233557679334,0.012617093183623668,0.038764931018234194,0.240470461520907,0.9837913432473943,0.02401930684698607,-0.05486340331600141,0.1690197409377492
2523.3833333378525,-0.002232825,-0.7870243,-0.19786736,-2.2908406,0.19324063,1.3663139,0.727469,0.04,0.04,0.009936491842132966,0.0013764362577467493,-0.003230252026664715,0.012151924272968864,0.03827880920902112,0.24099326613761396,0.9834046319498971,0.02409327792903998,-0.05534343180313064,0.17109046839135592
2523.4000000045194,-0.0022618268,-0.78705573,-0.20023973,-2.2900558,0.19555531,1.3638613,0.7267676,0.04,0.04,0.010948677250421923,0.0014640242377655932,-0.003278385168536957,0.0116850935241576,0.03778149622500053,0.24148558873762746,0.9830128933540888,0.024162286635325672,-0.055819575164888884,0.17316469164522674
2523.4166666711862,-0.0022908743,-0.7870872,-0.202616,-2.2892692,0.19787388,1.3614048,0.726065,0.04,0.04,0.010762678809772552,0.0014073942784187388,-0.002877514030452666,0.011216214296184468,0.03727293485874626,0.2419487859160694,0.9826161697045389,0.024226309847708797,-0.056291571134638826,0.1752421409522767
2523.433333337853,-0.002319965,-0.7871188,-0.20499596,-2.288482,0.20019597,1.3589445,0.7253613,0.04,0.04,0.009338598545660659,0.0012600803850348896,-0.003112125499704632,0.010745024929535885,0.036756719079568685,0.24237823941512548,0.9822144645130153,0.024285362339271664,-0.056759754865572346,0.17732257923079378
2523.45000000452,-0.0023490938,-0.7871504,-0.2073793,-2.2876935,0.20252138,1.3564808,0.7246565,0.04,0.04,0.009989526366505075,0.0013207237136936278,-0.002704907246386945,0.010272317324240693,0.036227921908779194,0.2427756729814861,0.9818078288171275,0.02433936649476263,-0.05722382868303889,0.1794057299611304
2523.466666671187,-0.0023782577,-0.78718203,-0.20976567,-2.286904,0.20484973,1.3540139,0.723951,0.04,0.04,0.00965828795180812,0.001266955654388724,-0.0026831394795978625,0.009798550515466423,0.03568865476788313,0.24314309129822753,0.9813963078294797,0.02438838528162193,-0.057683803245114004,0.18149124630460628
2523.4833333378538,-0.0024074519,-0.78721374,-0.2121548,-2.2861137,0.20718081,1.351544,0.7232446,0.04,0.04,0.00967779086269438,0.0012141652632802202,-0.0025241537608078346,0.00932320996394824,0.035138574001478635,0.24347806480447226,0.9809799419030123,0.024432316519267833,-0.058139557000912764,0.18357888605502204
2523.5000000045206,-0.0024366733,-0.78724545,-0.21454644,-2.285323,0.2095143,1.3490714,0.72253746,0.04,0.04,0.00887180021686973,0.0011365338530799907,-0.0025054011747238647,0.008847170265706375,0.03457890519906518,0.24377996589056306,0.9805587574281365,0.024471148255031813,-0.05859125067137797,0.1856683911677831
2523.5166666711875,-0.0024659187,-0.7872772,-0.2169403,-2.284531,0.21184994,1.3465968,0.72182965,0.04,0.04,0.009766131267285871,0.0013751905296510714,-0.0017680388217478082,0.008371258927404632,0.03400704520690531,0.2440499117750367,0.9801328439255401,0.024504919164660736,-0.05903823026811743,0.18775943268441983
2523.5333333378544,-0.0024951843,-0.7873091,-0.21933602,-2.2837384,0.21418743,1.3441199,0.72112125,0.04,0.04,0.009675859133917442,0.0011790623368396203,-0.002204605458189235,0.00789405822116715,0.03342862584455677,0.24428795391451946,0.9797022370979747,0.02453350491267584,-0.0594807215727829,0.18985172509910098
2523.5500000045213,-0.0025244672,-0.78734094,-0.2217333,-2.2829452,0.21652643,1.3416417,0.7204125,0.04,0.04,0.008890318612886361,0.0012120379231761458,-0.0014660883761008492,0.0074176159772069705,0.0328402788213231,0.2444940799235556,0.9792669986917,0.02455706420298652,-0.05991856418476567,0.19194494402592846
2523.566666671188,-0.0025537624,-0.78737277,-0.22413194,-2.2821515,0.21886674,1.3391619,0.7197034,0.04,0.04,0.00885000078181264,0.0011700444289691747,-0.0017193692176009634,0.006940185417599873,0.032244975537071764,0.24466886846733138,0.9788271595940599,0.024575512155407642,-0.06035185310040215,0.19403888700637256
2523.583333337855,-0.0025830672,-0.7874047,-0.2265316,-2.2813575,0.22120802,1.336681,0.7189939,0.04,0.04,0.008608508844165641,0.0011005398148300483,-0.0015458744966112548,0.0064631050497439,0.03164037588881836,0.24480990871610675,0.9783827882651026,0.02458879409425902,-0.06078043856494402,0.19613324327978324
2523.600000004522,-0.0026123766,-0.7874367,-0.22893195,-2.2805634,0.22354999,1.3341998,0.71828413,0.04,0.04,0.008597363517104384,0.001169492185368326,-0.0009909362804316757,0.005986867342157504,0.031027900004052374,0.2449178895283173,0.9779339650862373,0.024596932705243827,-0.061204030177075104,0.19822769110870275
2523.616666671189,-0.0026416888,-0.7874686,-0.23133273,-2.2797692,0.22589236,1.3317178,0.7175743,0.04,0.04,0.007918265509676559,0.0010077767601923693,-0.001263391847339257,0.00551120767360605,0.03040975170438049,0.244994336409334,0.9774807117210944,0.024599967370503687,-0.06162305247384851,0.20032198886392413
2523.6333333378557,-0.002670999,-0.7875005,-0.23373364,-2.278975,0.22823484,1.3292358,0.71686447,0.04,0.04,0.0080494766240502,0.0010528075515381374,-0.0009172309473948204,0.005036721764567695,0.029781538471995453,0.24503682997269638,0.9770231139501849,0.024597896954285797,-0.06203719090215538,0.20241582254725035
2523.6500000045226,-0.002700303,-0.78753245,-0.23613441,-2.2781806,0.23057716,1.326754,0.71615463,0.04,0.04,0.008442494708926773,0.0011767398872819523,-0.0006374830325617253,0.004564011061029688,0.029146174778438838,0.24504918497961758,0.9765612534704352,0.02459069088546452,-0.062446149149912124,0.20450891080433398
2523.6666666711894,-0.0027295994,-0.78756446,-0.2385347,-2.2773864,0.23291904,1.3242728,0.7154448,0.04,0.04,0.0076927335577625655,0.0009759459624947286,-0.0005513465775930371,0.004091825418337719,0.028505748805031726,0.24502652776145895,0.9760951872852808,0.02457830895958345,-0.06285002076132822,0.20660098493836018
2523.6833333378563,-0.0027588822,-0.78759646,-0.24093421,-2.2765923,0.23526019,1.3217921,0.7147353,0.04,0.04,0.007896277373964367,0.000982831174670129,-0.0004676490299004854,0.0036222569213869432,0.027859564642530296,0.2449730162605881,0.9756249873970864,0.02456085863317468,-0.06324878928154873,0.20869173161401128
2523.700000004523,-0.0027881495,-0.78762835,-0.24333267,-2.2757986,0.2376003,1.3193125,0.7140263,0.04,0.04,0.007007941105419135,0.0009112938250510627,-0.00031098332649026617,0.0031542119498903926,0.02720747900858251,0.24488631142406897,0.9751507068786123,0.024538378207891894,-0.06364261528683371,0.21078089189611365
2523.71666667119,-0.0028173965,-0.78766024,-0.2457298,-2.2750056,0.23993912,1.3168343,0.71331763,0.04,0.04,0.006768902474929561,0.0008685771798050412,-3.8597433049680774e-05,0.0026883668658599508,0.026548408395839607,0.2447685059417251,0.9746724245786248,0.024510859468865675,-0.06403130260223872,0.21286820998256897
2523.733333337857,-0.0028466198,-0.78769237,-0.24812531,-2.2742133,0.24227628,1.3143581,0.7126095,0.04,0.04,0.006910821919925425,0.0009477850252376241,3.18025366041752e-05,0.0022245858625613846,0.025883330659599114,0.2446158393058028,0.9741902416910708,0.024478322802370736,-0.06441462210329274,0.21495334648701336
2523.750000004524,-0.0028758158,-0.7877244,-0.25051883,-2.273422,0.24461159,1.3118839,0.7119017,0.04,0.04,0.0061573867716546715,0.000665361986207369,0.00026975547096075303,0.001763216260105449,0.025213806999366747,0.24443244997770153,0.9737042117057098,0.02444061739662053,-0.0647928221238226,0.21703606734610903
2523.7666666711907,-0.0029049811,-0.78775626,-0.2529101,-2.272631,0.24694473,1.3094118,0.7111948,0.04,0.04,0.007098468150879,0.0009346531266940517,0.00045716446148702516,0.0013060775874412511,0.024538800338104037,0.2442157922152737,0.973214436028567,0.024397992550965916,-0.0651656587571761,0.21911603406374527
2523.7833333378576,-0.002934112,-0.787788,-0.25529894,-2.2718403,0.24927539,1.3069425,0.7104886,0.04,0.04,0.0066818709745231075,0.001068201196322005,0.001018805149843871,0.000851111079014838,0.02385943361844839,0.24396729016002455,0.9727210082097221,0.024350437925658473,-0.0655328974672453,0.22119298295795445
2523.8000000045245,-0.0029632056,-0.7878197,-0.25768492,-2.271051,0.2516033,1.3044761,0.7097832,0.04,0.04,0.005682597916623067,0.0006351858471698169,0.0007387859907836969,0.0003983613847277495,0.023178511930830155,0.24368624058480318,0.9722239908726601,0.024297897627045328,-0.06589480933887934,0.22326665188678835
2523.8166666711913,-0.0029922565,-0.78785145,-0.2600678,-2.2702622,0.25392818,1.302013,0.7090787,0.04,0.04,0.0063513190247110884,0.000848787033932985,0.0009934079111317828,-5.047610724649709e-05,0.022492378678579887,0.24337097167014107,0.9717234946438301,0.02424044309430175,-0.06625108474295416,0.22533673612208918
2523.833333337858,-0.0030212633,-0.78788334,-0.2624473,-2.2694745,0.25624973,1.2995535,0.7083753,0.04,0.04,0.005963075620085689,0.0008134570376294725,0.0011137977710129476,-0.0004960676010161286,0.021805069952535665,0.24302424535849046,0.9712196056992536,0.024178105176840863,-0.06660169964597568,0.22740296906529422
2523.850000004525,-0.0030502218,-0.7879151,-0.26482305,-2.268689,0.25856772,1.2970979,0.70767283,0.04,0.04,0.003909776238364415,0.000242483225698642,0.0011615406950271634,-0.0009384771564333455,0.021117018604123135,0.24264637806402595,0.9707123548337374,0.024110888921941506,-0.06694724120497801,0.22946515226407788
2523.866666671192,-0.0030791261,-0.78794694,-0.26719487,-2.267905,0.26088184,1.2946465,0.7069716,0.04,0.04,0.004664465329984324,0.0005383428977601135,0.0013290196223536554,-0.001375642937373453,0.020422919518585103,0.24223435398247187,0.9702018600131891,0.024038880503550335,-0.06728734769921857,0.23152299214265712
2523.883333337859,-0.003107975,-0.7879788,-0.26956242,-2.267122,0.2631917,1.2921991,0.7062717,0.04,0.04,0.0055328668230991696,0.0007241496445237194,0.0014144129441673314,-0.0018086857806137169,0.019725972640186634,0.24179018515219455,0.9696882531026234,0.023962104403485,-0.06762181810268797,0.2335761097882788
2523.9000000045257,-0.003136765,-0.78801066,-0.27192545,-2.2663405,0.26549712,1.2897564,0.7055731,0.04,0.04,0.004685650757796367,0.0005584243357725782,0.0017841888154901397,-0.002237452383142144,0.019026767855125394,0.24131435673604715,0.9691716087912328,0.023880553287717994,-0.06795069705441133,0.23562430829077427
2523.9166666711926,-0.0031654926,-0.7880423,-0.27428368,-2.2655604,0.2677978,1.2873188,0.70487595,0.04,0.04,0.004484775728785806,0.0006182543544869246,0.002195957638528867,-0.00266098214943343,0.018327094420692906,0.24080710351675422,0.9686520316704135,0.02379438734559886,-0.06827390604909846,0.23766729355219826
2523.9333333378595,-0.0031941535,-0.78807396,-0.2766367,-2.264782,0.27009347,1.2848864,0.70418036,0.04,0.04,0.004156263032140117,0.00029858584982001,0.001980291567926784,-0.0030807382628958435,0.017626060853922536,0.2402668399833063,0.9681296178149087,0.02370354534745298,-0.06859155994535343,0.2397047829138649
2523.9500000045264,-0.0032227444,-0.78810555,-0.27898428,-2.2640054,0.27238387,1.2824597,0.7034863,0.04,0.04,0.003691269705896616,0.0003651356245609749,0.002463586829537512,-0.0034951712179936423,0.01692452338899455,0.23969643333514135,0.9676044692779382,0.02360811708817178,-0.0689035237391411,0.24173653480026625
2523.9666666711933,-0.0032512622,-0.78813714,-0.28132617,-2.2632306,0.27466872,1.2800388,0.70279396,0.04,0.04,0.003923294147156753,0.0003574788432020304,0.0023714076300640485,-0.003905008618978148,0.016223337253014558,0.23909314227400047,0.9670766873471515,0.023508114856106585,-0.06920979357780545,0.24376228953324514
2523.98333333786,-0.0032797034,-0.78816867,-0.283662,-2.2624583,0.27694765,1.2776244,0.7021033,0.04,0.04,0.0023654612424817145,3.861300084673225e-05,0.0026423694236665796,-0.004309147053674148,0.015522312783704993,0.23845914890869294,0.966546367360181,0.023403628261193275,-0.06951062145468624,0.2457817394194154
2524.000000004527,-0.0033080638,-0.7882,-0.28599158,-2.261688,0.2792205,1.2752162,0.7014146,0.04,0.04,0.00316462458878064,0.00025015495624947093,0.0028233056964310776,-0.00470700512681084,0.0148195171652434,0.2377936581338438,0.966013608732192,0.02329474251734497,-0.06980584897080531,0.24779468550540623
2524.016666671194,-0.003336341,-0.7882311,-0.28831455,-2.2609198,0.28148714,1.2728146,0.7007277,0.04,0.04,0.0026347717267949378,-0.00010218154597452234,0.0030187326994113306,-0.005099861371788292,0.014117712510917917,0.23709779612049364,0.9654784974904402,0.023181408476583155,-0.07009560211517357,0.24980092023200218
2524.0333333378608,-0.0033645292,-0.78826225,-0.2906308,-2.2601538,0.28374702,1.2704202,0.7000428,0.04,0.04,0.0028075819988870876,0.0003238368287528104,0.003108347065139405,-0.00548587669755371,0.013414112631350297,0.23636844762143372,0.9649411923551714,0.023063765538052942,-0.0703795011509646,0.2518000870395548
2524.0500000045276,-0.0033926284,-0.7882934,-0.29293984,-2.25939,0.28599998,1.2680333,0.69936013,0.04,0.04,0.002279016679374024,-5.362543938902675e-05,0.0033972668600279476,-0.00586639697288055,0.012714086766582824,0.23560962534076826,0.9644017933662695,0.022941941346802674,-0.07065767224457946,0.25379192586081334
2524.0666666711945,-0.0034206335,-0.78832453,-0.29524153,-2.2586288,0.28824556,1.265654,0.6986797,0.04,0.04,0.0019767366363776517,0.00013395926445614048,0.003468164243991545,-0.0062420807985950205,0.012017120197969779,0.23481926682919563,0.9638604223210817,0.022815967779353633,-0.07093017527775139,0.25577612893384943
2524.0833333378614,-0.003448542,-0.7883556,-0.29753566,-2.2578702,0.2904838,1.2632824,0.69800156,0.04,0.04,0.0015853843665869505,-0.00017765432250294033,0.0035034117944698906,-0.006611147451560398,0.01132066999545888,0.23400089042178687,0.9633171297032308,0.02268589850368627,-0.07119713708988062,0.25775264363263883
2524.1000000045283,-0.0034763499,-0.7883866,-0.29982176,-2.2571142,0.29271427,1.2609197,0.6973259,0.04,0.04,0.0014874973209177966,-0.00011236757404553543,0.004292800087801751,-0.006974350772000856,0.010626315197347976,0.23315068243048873,0.9627721077309718,0.022551880313289654,-0.07145817879676886,0.25972102331664676
2524.116666671195,-0.0035040532,-0.78841746,-0.30209965,-2.25636,0.29493663,1.2585652,0.6966524,0.04,0.04,0.0021836961714871705,4.740901304034484e-05,0.004038692063379479,-0.0073327919229428384,0.009936987570575422,0.23227095276133894,0.962225479840153,0.02241374033587469,-0.07171332506857851,0.26168100656744603
2524.133333337862,-0.0035316516,-0.7884482,-0.3043692,-2.2556095,0.29715082,1.2562193,0.69598144,0.04,0.04,-0.0003187768661039314,-0.0005476330018960862,0.0038329909118672845,-0.00768445954324351,0.009253642302723873,0.23136146571467153,0.9616772255212249,0.022271725711558922,-0.07196331723011108,0.2636326328830832
2524.150000004529,-0.0035591384,-0.78847873,-0.30662987,-2.254862,0.29935637,1.2538826,0.69531316,0.04,0.04,0.00011366783434496597,-0.0005397518564848047,0.0045782787375214795,-0.008028043674391028,0.008568637421854632,0.23042146193190122,0.9611275673043788,0.022125937947329376,-0.07220780334320306,0.2655753666548674
2524.166666671196,-0.0035865102,-0.7885092,-0.30888152,-2.2541173,0.30155313,1.2515552,0.6946475,0.04,0.04,0.0007946236025180298,-0.00036189832778033004,0.00447132622927171,-0.008365914671635166,0.007887099605849657,0.22945237467149757,0.9605766142418565,0.021976345775204728,-0.0724465842293438,0.267509066821147
2524.1833333378627,-0.003613767,-0.7885394,-0.31112388,-2.253376,0.3037408,1.2492377,0.6939845,0.04,0.04,-0.0008647855971322116,-0.0006889212893906871,0.004861320309101913,-0.008696874358899959,0.007211160746591491,0.22845381938652487,0.9600244537519793,0.021823106600998527,-0.07267998179339605,0.269433517705216
2524.2000000045296,-0.003640902,-0.78856957,-0.31335664,-2.2526371,0.30591908,1.2469295,0.69332445,0.04,0.04,0.0007588124580681921,-0.000453633311889301,0.004671480407103523,-0.009020272809739563,0.006536893601794318,0.2274280995132356,0.9594712601391623,0.021666224884238066,-0.07290769455759889,0.2713483807589968
2524.2166666711964,-0.0036679145,-0.78859985,-0.31557956,-2.251902,0.30808786,1.2446315,0.69266725,0.04,0.04,-0.0012004458167513832,-0.001033111191570124,0.004701883523727801,-0.009336947953486635,0.005869651862801327,0.22637290536554355,0.9589170800043464,0.021505762697368647,-0.07313007173478978,0.2732535973318685
2524.2333333378633,-0.003694801,-0.78862995,-0.31779245,-2.2511702,0.3102468,1.2423441,0.6920132,0.04,0.04,-0.000609513950111662,-0.0006475553865126216,0.005441458301547186,-0.009645947254626752,0.005205824402474163,0.2252879242217216,0.958362083441293,0.02134198549702572,-0.07334682601694693,0.2751488320715691
2524.25000000453,-0.003721558,-0.78865993,-0.31999502,-2.2504418,0.31239563,1.2400675,0.691362,0.04,0.04,-0.0014304839684786685,-0.0009268303204162942,0.005344276473862042,-0.009949359439514416,0.004547341020756261,0.22417566052103086,0.9578063684047184,0.02117477350479051,-0.07355817055537167,0.2770339061467611
2524.266666671197,-0.0037481827,-0.7886899,-0.32218695,-2.2497168,0.31453413,1.2378019,0.690714,0.04,0.04,-0.001125413292157873,-0.0009585583074039894,0.005588983990612029,-0.010244515988357114,0.003894574073758171,0.22303494843977487,0.9572500894080648,0.021004283991976264,-0.0737639140429389,0.27890853584518027
2524.283333337864,-0.0037746713,-0.7887196,-0.3243681,-2.2489953,0.31666207,1.2355477,0.69006914,0.04,0.04,-0.0018992112438720454,-0.0010260054832483823,0.0059039018709849955,-0.010532965905739072,0.0032494217307044646,0.22186710359429315,0.9566933308191089,0.020830634952382958,-0.07396429579698469,0.2807725740897349
2524.300000004531,-0.0038010222,-0.78874904,-0.32653812,-2.2482774,0.31877917,1.2333049,0.6894277,0.04,0.04,-0.002045555546148492,-0.0011711466127883874,0.005938480415013103,-0.010814036717451764,0.002609301834941291,0.22067193211847647,0.9561362281513707,0.020653945163786377,-0.07415938452231241,0.28262574803600843
2524.3166666711977,-0.0038272308,-0.78877825,-0.32869673,-2.2475636,0.32088515,1.2310736,0.6887894,0.04,0.04,-0.0029184479608979075,-0.0015025372335081277,0.0058953860100685596,-0.011088363219720329,0.0019765803170864044,0.21945050760168905,0.9555788820686097,0.02047415576240163,-0.07434944752722213,0.2844678694382193
2524.3333333378646,-0.0038532934,-0.78880745,-0.33084378,-2.2468534,0.3229798,1.2288544,0.6881547,0.04,0.04,-0.0021647368433797,-0.0012357576527816105,0.006197872470647958,-0.011353511448394915,0.0013466261632594859,0.2182033050981417,0.9550214550838249,0.02029147652433431,-0.0745340532776361,0.2862987097631469
2524.3500000045315,-0.00387921,-0.7888366,-0.33297893,-2.2461474,0.325063,1.2266474,0.6875234,0.04,0.04,-0.0033799996885353067,-0.00178193876841648,0.0061584806985037766,-0.011612294699807651,0.000726350610207864,0.2169281300000404,0.9544640181499084,0.02010589959890695,-0.07471362393822689,0.288118144615134
2524.3666666711983,-0.0039049753,-0.7888655,-0.33510193,-2.2454453,0.32713428,1.2244529,0.6868957,0.04,0.04,-0.003095585077073082,-0.0015427681837543172,0.00665247690734283,-0.011862241987999012,0.0001104372388036623,0.21562541154252673,0.9539067556436299,0.01991758078957941,-0.07488799505739012,0.28992581759687924
2524.383333337865,-0.0039305873,-0.7888944,-0.33721265,-2.2447479,0.32919362,1.2222711,0.6862718,0.04,0.04,-0.0043492936136591,-0.001993363333471776,0.006429028798127234,-0.012104647558854292,-0.0004973657986179075,0.2142982065601389,0.9533497040802505,0.019726659982952248,-0.07505751447637762,0.2917217340834312
2524.400000004532,-0.0039560427,-0.7889231,-0.33931082,-2.2440536,0.3312406,1.2201024,0.68565154,0.04,0.04,-0.0024318998211203535,-0.0012594985191793917,0.007264202366230599,-0.012339944871646857,-0.00109921201294641,0.21294388512438117,0.9527931304475259,0.01953320040013586,-0.0752214446497248,0.2935054325203203
2524.416666671199,-0.0039813393,-0.7889515,-0.34139615,-2.2433646,0.33327508,1.2179468,0.68503505,0.04,0.04,-0.005635143215654281,-0.002462436016567593,0.006654284631812946,-0.012568367502675884,-0.0016895355126973072,0.2115650654710795,0.9522369921427993,0.019337242478296674,-0.0753810043594236,0.29527696494974776
2524.433333337866,-0.004006473,-0.78897977,-0.34346843,-2.2426786,0.3352969,1.2158047,0.68442255,0.04,0.04,-0.002662921876606106,-0.0015651082438561392,0.007599890295684197,-0.012787059828646516,-0.0022783121570705417,0.2101608699015985,0.9516815750798321,0.01913896695185306,-0.07553498666695689,0.2970359328209438
2524.4500000045327,-0.004031443,-0.78900784,-0.3455274,-2.2419982,0.3373057,1.2136766,0.6838139,0.04,0.04,-0.006257852821933696,-0.00254085870323717,0.0072671712385785625,-0.013000108102146288,-0.002853112963988505,0.20873301902419558,0.9511268709175273,0.01893845022445398,-0.07568449557756282,0.2987823081290106
2524.4666666711996,-0.0040562437,-0.7890358,-0.34757295,-2.2413213,0.3393013,1.2115623,0.68320936,0.04,0.04,-0.00371059121588857,-0.0018449748903637264,0.007594607936334263,-0.013205266316479045,-0.003422109241967057,0.20728053104413285,0.9505731086860559,0.018735765296126906,-0.07582876741190546,0.30051578024204834
2524.4833333378665,-0.0040808767,-0.78906375,-0.34960476,-2.2406497,0.34128356,1.2094622,0.68260866,0.04,0.04,-0.006072750119567871,-0.0027550278731358624,0.007397713306134257,-0.01340321001241676,-0.003980197103871964,0.20580547442857172,0.9500203091272698,0.018530886808882725,-0.07596847521737125,0.30223634667748145
2524.5000000045334,-0.004105336,-0.7890915,-0.35162252,-2.2399826,0.34325218,1.2073765,0.6820121,0.04,0.04,-0.005439251600325434,-0.002553296695273488,0.007877453380999988,-0.013591376617237541,-0.004532044026444686,0.20430538455517624,0.9494686659268036,0.018323996706037307,-0.07610342097652441,0.30394366728649386
2524.5166666712003,-0.0041296207,-0.78911895,-0.35362613,-2.23932,0.34520695,1.2053056,0.6814199,0.04,0.04,-0.005767660462829838,-0.0024981969520804226,0.00827665902514152,-0.013772407973257933,-0.005073348889088655,0.20278155622093752,0.9489182933838793,0.018115379641611275,-0.07623367684514498,0.305637582794617
2524.533333337867,-0.0041537276,-0.78914624,-0.3556153,-2.2386625,0.34714767,1.2032495,0.68083185,0.04,0.04,-0.006402379701597738,-0.0029633866217654292,0.008004300333541714,-0.013946695031156697,-0.005605753374774036,0.20123646125990255,0.9483692908890485,0.01790487047257244,-0.07635944207289296,0.3073179775383799
2524.550000004534,-0.0041776523,-0.7891734,-0.35758993,-2.2380102,0.34907413,1.2012084,0.6802481,0.04,0.04,-0.006936457189832268,-0.002962446283558129,0.008118298847370475,-0.014111816468798888,-0.006129679915448591,0.19966840451537832,0.9478217545084795,0.017692677834836006,-0.07648085676770415,0.3089847397195825
2524.566666671201,-0.004201396,-0.7892005,-0.35954964,-2.237362,0.35098615,1.1991825,0.6796688,0.04,0.04,-0.00539701310322549,-0.0028050359915571255,0.008611074408826358,-0.01426871144835895,-0.006646111804276246,0.19807847246312843,0.94727591355695,0.01747886834056496,-0.07659739668881028,0.31063752441853554
2524.5833333378678,-0.0042249546,-0.78922725,-0.3614945,-2.2367194,0.35288355,1.1971726,0.6790939,0.04,0.04,-0.008046976345665868,-0.0031623285320109273,0.008884757639504581,-0.014418929016228002,-0.007149380715612122,0.19646646927279493,0.9467317611788397,0.017263705686068453,-0.07670970166095804,0.3122764136342737
2524.6000000045346,-0.0042483225,-0.7892539,-0.36342427,-2.2360814,0.35476616,1.1951785,0.67852354,0.04,0.04,-0.006411549557272522,-0.0029574755516820206,0.008864629585281225,-0.014562006893271612,-0.00764446233353009,0.1948328461619061,0.9461894921702774,0.017047172635346414,-0.07681736551377354,0.3139011487191737
2524.6166666712015,-0.004271503,-0.7892802,-0.36533827,-2.2354484,0.3566335,1.1931998,0.67795765,0.04,0.04,-0.007594406263056186,-0.0037317660157271115,0.008669412095008155,-0.01469864131580001,-0.008126952719058146,0.1931778129067373,0.9456492495638593,0.016829168948635218,-0.07692109231212171,0.3155113649764745
2524.6333333378684,-0.0042944886,-0.78930634,-0.3672367,-2.2348206,0.35848555,1.1912376,0.67739654,0.04,0.04,-0.007781779981197445,-0.0033262675763756633,0.009344166808811227,-0.01482373994207685,-0.008602363099952222,0.19150765387639465,0.9451111358520885,0.016610128904011978,-0.07702043857426567,0.31710707426355983
2524.6500000045353,-0.0043172785,-0.7893323,-0.36911938,-2.234198,0.36032227,1.1892918,0.6768399,0.04,0.04,-0.007994963344160055,-0.0036410862902236385,0.009383339747304209,-0.014943731994622109,-0.00906647843943386,0.18981524857647983,0.9445752302685027,0.01638992645514233,-0.0771155726465239,0.31868823814097536
2524.666666671202,-0.004339874,-0.78935796,-0.37098595,-2.2335808,0.36214337,1.1873624,0.6762881,0.04,0.04,-0.008230225254513002,-0.0039015389276308987,0.009301299311659239,-0.01505582882807692,-0.009519004819172998,0.1881005291358173,0.9440416664528861,0.01616875538413785,-0.07720676691628021,0.3202546150994872
2524.683333337869,-0.0043622693,-0.78938353,-0.37283635,-2.2329688,0.36394855,1.1854501,0.6757413,0.04,0.04,-0.008316331292812507,-0.0036951278585939384,0.009747644760760288,-0.01516060827151998,-0.009961806806810886,0.1863676590821729,0.943510604490363,0.015946820620311577,-0.07729376658065493,0.32180601575189505
2524.700000004536,-0.0043844637,-0.7894088,-0.37467033,-2.2323623,0.36573777,1.1835545,0.67519915,0.04,0.04,-0.008942766189168339,-0.00414736292334017,0.009685694125138866,-0.015258697967640816,-0.010393914817881517,0.18461651359769413,0.9429821085199737,0.01572398964409766,-0.07737695018904628,0.3233423986122743
2524.716666671203,-0.0044064526,-0.7894339,-0.37648773,-2.2317617,0.36751083,1.1816759,0.67466193,0.04,0.04,-0.00967253009407365,-0.004447496432011255,0.009598496520502042,-0.015348390933932837,-0.010815610723973412,0.18284674711437648,0.9424562569443964,0.015500463521280445,-0.077456603540176,0.32486368517426434
2524.7333333378697,-0.0044282363,-0.789459,-0.37828842,-2.2311661,0.36926755,1.1798147,0.67412966,0.04,0.04,-0.008348546878211849,-0.004017678455275897,0.010047582888794704,-0.015430035401278658,-0.011227995743321166,0.18105964346449904,0.9419332626360505,0.015276325757708048,-0.07753207956622434,0.32636963591805895
2524.7500000045366,-0.0044498118,-0.7894838,-0.38007218,-2.2305765,0.3710078,1.1779709,0.6736023,0.04,0.04,-0.010084734306836651,-0.004648764713402476,0.01009418393671524,-0.015504595747619851,-0.011627381742803443,0.17925408301936094,0.9414131499958496,0.015051645285860981,-0.0776040925816364,0.32786023516684865
2524.7666666712034,-0.0044711772,-0.78950834,-0.38183877,-2.2299924,0.37273133,1.1761448,0.67308015,0.04,0.04,-0.00955121474990328,-0.004529651591336781,0.010441055119592146,-0.01557117714971075,-0.012017210911471773,0.17743072236160365,0.940896101093226,0.014826663593681318,-0.07767241442033028,0.32933522895730755
2524.7833333378703,-0.004492331,-0.7895326,-0.3835881,-2.2294145,0.374438,1.1743367,0.67256296,0.04,0.04,-0.010750127843106583,-0.004894566766014408,0.010443200097487448,-0.01563112593746953,-0.012395578280233112,0.17559164217575407,0.9403821612123405,0.01460135055091776,-0.07773742441183477,0.33079462553299016
2524.800000004537,-0.0045132707,-0.78955644,-0.38532007,-2.2288415,0.37612766,1.1725465,0.672051,0.04,0.04,-0.009362700139581293,-0.004449189303329382,0.010897082598071428,-0.015683007159139895,-0.012765135859879408,0.1737350801996328,0.9398715169312554,0.014375919459227558,-0.07779870947675595,0.33223820581744373
2524.816666671204,-0.0045339963,-0.7895802,-0.3870344,-2.2282743,0.37780017,1.1707746,0.67154425,0.04,0.04,-0.010190247073360581,-0.004973272783367899,0.010688014277715485,-0.015729609366577302,-0.013120362496290186,0.1718649788356224,0.9393642610127122,0.014150352497832206,-0.07785646032531063,0.3336658871413765
2524.833333337871,-0.004554503,-0.7896038,-0.38873097,-2.2277133,0.37945533,1.1690211,0.6710428,0.04,0.04,-0.011113464509060478,-0.005190582743819228,0.01087731234523659,-0.015768610440125647,-0.013464418756040968,0.16997944842910878,0.9388604619355062,0.013924842865122116,-0.077910987289031,0.3350776176128122
2524.850000004538,-0.004574791,-0.7896271,-0.39040965,-2.2271588,0.3810931,1.1672863,0.67054653,0.04,0.04,-0.011684210186979627,-0.00552260215488376,0.01110476051543463,-0.015800966268920746,-0.01379767276610978,0.16807877704041302,0.9383601878864404,0.013699414332178013,-0.07796252078694348,0.3364733706985218
2524.8666666712047,-0.0045948545,-0.7896502,-0.39207026,-2.2266102,0.3827132,1.16557,0.67005557,0.04,0.04,-0.011079217138121322,-0.005343112610406431,0.011017684017922136,-0.015825560171008696,-0.014122687221441714,0.1661618036262088,0.9378636119633612,0.013474145461070033,-0.07801088074175341,0.3378529195449222
2524.8833333378716,-0.004614698,-0.78967303,-0.3937127,-2.2260668,0.38431555,1.1638726,0.66957,0.04,0.04,-0.010347363199469939,-0.005135951988299858,0.011519406381677033,-0.01584308964230831,-0.014434951856470646,0.1642338485040693,0.9373708768178264,0.013249193553685909,-0.07805581678821336,0.33921613704168196
2524.9000000045385,-0.004634318,-0.78969574,-0.3953368,-2.2255297,0.3859,1.162194,0.6690899,0.04,0.04,-0.011671831947746014,-0.005705195237737382,0.011212640160451759,-0.015854921302373176,-0.01473356561759482,0.16229284719934534,0.9368820173867699,0.013024597679519153,-0.07809782617523936,0.3405630263244751
2524.9166666712053,-0.004653712,-0.7897182,-0.3969425,-2.224999,0.38746643,1.1605345,0.6686153,0.04,0.04,-0.012216002160236883,-0.005875952106731974,0.01147130481264913,-0.015859629968053263,-0.015021308046031547,0.1603406928812767,0.936397106080278,0.012800507150073996,-0.0781370833191672,0.3418935550014874
2524.933333337872,-0.0046728766,-0.78974044,-0.3985295,-2.2244747,0.3890148,1.1588944,0.66814613,0.04,0.04,-0.012291053731594559,-0.006130867316023192,0.011802155282469862,-0.015857643729546747,-0.01530026300899108,0.15837162341956912,0.9359162643319023,0.012576980939172889,-0.07817354388154012,0.34320760881203277
2524.950000004539,-0.0046918136,-0.78976244,-0.40009794,-2.2239568,0.39054486,1.1572734,0.66768265,0.04,0.04,-0.012558967496367757,-0.005988322706457216,0.011508583585317922,-0.015849686059171253,-0.015567037990712473,0.15639133532967842,0.9354395523445513,0.012354189269854278,-0.07820750573364345,0.3445051581091815
2524.966666671206,-0.0047105183,-0.789784,-0.40164748,-2.2234442,0.39205664,1.1556716,0.6672247,0.04,0.04,-0.011119189331276758,-0.005890169943439938,0.012048362292949033,-0.015834894729675753,-0.015826086920097564,0.15439833414124754,0.9349671584515906,0.01213206897183271,-0.07823851891295584,0.34578600272094284
2524.983333337873,-0.004728992,-0.78980535,-0.40317804,-2.222938,0.3935499,1.1540895,0.66677225,0.04,0.04,-0.012772437981656282,-0.00633498356102935,0.012050187306889004,-0.015813926512321677,-0.01607162672236097,0.15239509606591317,0.9344991286753793,0.011910744641066201,-0.07826696548653667,0.34705013294995474
2525.0000000045397,-0.004747235,-0.78982663,-0.40468958,-2.222438,0.3950244,1.1525273,0.6663255,0.04,0.04,-0.012472546802566598,-0.0061139713422031505,0.012237950941529352,-0.01578619285218344,-0.016304948699452825,0.15038254402325102,0.9340356010700916,0.011690443733424713,-0.07829263431299108,0.34829742013296705
2525.0166666712066,-0.004765245,-0.7898477,-0.40618184,-2.2219443,0.39648026,1.150985,0.6658845,0.04,0.04,-0.012643157541702976,-0.006628094895883008,0.012278845408542072,-0.01575397638077375,-0.01652604011346747,0.1483609479988326,0.9335766261867464,0.01147113048467232,-0.07831581793931987,0.3495278656468904
2525.0333333378735,-0.0047830176,-0.7898683,-0.40765476,-2.2214575,0.3979173,1.1494621,0.66544914,0.04,0.04,-0.013969584369677435,-0.007070978461953814,0.012022954218704474,-0.015715808585202787,-0.01673584043702925,0.14632905249842554,0.9331222099076638,0.011252839598415049,-0.07833721179952192,0.35074149487263
2525.0500000045404,-0.004800552,-0.7898885,-0.40910837,-2.220977,0.39933535,1.1479589,0.6650195,0.04,0.04,-0.013477416073159887,-0.006737734789796779,0.012307011148782188,-0.015669330123898623,-0.01693942586632069,0.1442866597484222,0.9326724786446161,0.011035728955217476,-0.07835658222038187,0.3519382137365531
2525.0666666712073,-0.0048178495,-0.7899087,-0.41054255,-2.220503,0.40073442,1.1464773,0.6645957,0.03999999,0.04,-0.013076838896930454,-0.006441896122183488,0.013587897478484212,-0.015616062765779246,-0.017134059786398946,0.1422365090464414,0.9322276389574067,0.010820159550650748,-0.07837291212249939,0.3531178839376961
2525.083333337874,-0.004834909,-0.7899288,-0.4119571,-2.220035,0.40211442,1.1450158,0.66417754,0.039999988,0.04,-0.01275048067448381,-0.006892442390027398,0.01253331340461683,-0.015562081455342894,-0.017312100315322657,0.1401789469342236,0.9317877212999011,0.01060576670737068,-0.07838687430327247,0.3542804794005024
2525.100000004541,-0.0048517305,-0.78994846,-0.41335195,-2.2195735,0.4034752,1.1435742,0.66376513,0.03999998,0.04,-0.013805766972829758,-0.007164498697609378,0.012605948077293316,-0.015502025994430749,-0.017476712230040818,0.1381150927223891,0.931352744100017,0.010392753475290025,-0.07839902273452877,0.3554260119445974
2525.116666671208,-0.004868307,-0.7899677,-0.41472715,-2.2191186,0.4048167,1.142153,0.6633586,0.03999997,0.04,-0.014209231666884037,-0.007202494170327478,0.012960035464004704,-0.015435177179619716,-0.017633486778065446,0.13604358756872476,0.9309227756838342,0.010181333149235349,-0.07840935807790654,0.3565544821401362
2525.133333337875,-0.004884645,-0.78998667,-0.41608256,-2.2186706,0.4061389,1.1407523,0.66295797,0.03999996,0.04,-0.014488313929383878,-0.00749269936370367,0.01296818665682542,-0.015363817991812329,-0.017779172978915913,0.13396479317036286,0.9304978737673991,0.009971514894079539,-0.07841796276355315,0.3576659040516449
2525.1500000045417,-0.004900739,-0.79000556,-0.417418,-2.218229,0.40744162,1.139372,0.66256315,0.03999995,0.04,-0.013824916111104812,-0.007454295773445807,0.01280140665671503,-0.015286242786471373,-0.01791824752681466,0.131879704584497,0.9300781870511763,0.009763265029868531,-0.07842467859888569,0.35876010705513955
2525.1666666712085,-0.00491659,-0.7900242,-0.4187335,-2.2177944,0.4087249,1.1380124,0.6621742,0.039999943,0.04,-0.014640881831295971,-0.00766669757284455,0.013177630526273187,-0.015203099929926175,-0.018045404414987608,0.12979002007866688,0.92966372473465,0.009556778856178835,-0.07842972541789255,0.35983719243744794
2525.1833333378754,-0.0049321973,-0.7900426,-0.42002895,-2.2173667,0.4099886,1.1366737,0.6617912,0.039999932,0.04,-0.014822834242433913,-0.007758930475360026,0.013346866012498015,-0.015114481843650315,-0.018163691202753927,0.12769676929799467,0.9292545786962064,0.00935213611009635,-0.07843318437583743,0.360897078279916
2525.2000000045423,-0.004947558,-0.7900605,-0.42130435,-2.2169454,0.4112327,1.1353557,0.661414,0.039999913,0.04,-0.014382121756728594,-0.007617997072911775,0.013467246382770082,-0.01502145929133658,-0.0182725947832314,0.12559863886026934,0.9288508309131187,0.009149366915539888,-0.07843500470228007,0.36193973674412566
2525.216666671209,-0.0049626757,-0.7900782,-0.4225597,-2.2165306,0.41245723,1.1340584,0.6610428,0.039999902,0.04,-0.014301033448260725,-0.0077021858366721485,0.013273477809183643,-0.014924014991059269,-0.018370493686124343,0.12349729933655984,0.9284525190725648,0.008948541282148417,-0.07843524336774735,0.36296522703224987
2525.233333337876,-0.004977547,-0.7900958,-0.42379475,-2.2161222,0.41366202,1.1327821,0.66067797,0.039999895,0.04,-0.014292204103405481,-0.00790989835800504,0.013595182840797637,-0.0148216851371889,-0.018459319519749585,0.12139121625566943,0.9280597843595247,0.008749905719411876,-0.07843383075213108,0.363973364407342
2525.250000004543,-0.004992172,-0.79011303,-0.4250096,-2.21572,0.4148471,1.1315265,0.660319,0.03999988,0.04,-0.014270699427765265,-0.007832938773399967,0.013483184255091984,-0.014717416094092411,-0.018536864687483872,0.11928433577393457,0.9276726325299097,0.008553266219858142,-0.07843093349708813,0.3649642683370177
2525.26666667121,-0.0050065517,-0.79012996,-0.42620417,-2.2153246,0.41601247,1.1302919,0.6599659,0.039999876,0.04,-0.01521608486449999,-0.008246813129636488,0.013729279678631467,-0.014608010421755524,-0.01860380836659283,0.11717476010750837,0.9272910970945929,0.008358764591179594,-0.07842674441170269,0.3659379702416749
2525.2833333378767,-0.0050206836,-0.7901466,-0.42737862,-2.2149365,0.41715798,1.1290779,0.65961874,0.03999987,0.04,-0.015712169559423117,-0.00831068257362011,0.01323199035990763,-0.014494570421414221,-0.018661938521893125,0.11506548981318646,0.9269151583079861,0.00816645441038125,-0.07842172334331268,0.3668945783588376
2525.3000000045436,-0.005034569,-0.7901629,-0.42853275,-2.214555,0.41828364,1.1278855,0.6592777,0.039999858,0.04,-0.015063129948567067,-0.008117956329856124,0.014198439389712103,-0.014374835894620526,-0.01871531805049731,0.11295221609381621,0.9265449947045108,0.007976567204701992,-0.07841526552850465,0.36783392080630756
2525.3166666712104,-0.0050482065,-0.79017913,-0.42966658,-2.2141802,0.4193896,1.126714,0.6589425,0.039999843,0.04,-0.014934143871148109,-0.008394062595207252,0.013656945519269215,-0.014253960843081434,-0.018757317460975306,0.11083981667175673,0.9261805917341609,0.007788924345205529,-0.07840757157174597,0.3687561482507456
2525.3333333378773,-0.005061599,-0.79019505,-0.43078005,-2.2138126,0.42047575,1.1255631,0.65861344,0.03999984,0.04,-0.015847669646174012,-0.008779536370157048,0.013473101053518288,-0.014128879088990562,-0.0187889921057091,0.10872769052944439,0.9258219445001057,0.007603641858745935,-0.07839923624298749,0.3696612929007358
2525.350000004544,-0.0050747413,-0.7902106,-0.43187317,-2.2134519,0.42154202,1.1244335,0.65829027,0.03999983,0.04,-0.01564090211148006,-0.008550619079433774,0.014047130452832235,-0.013998176110956634,-0.01881681979247021,0.10661508762168459,0.9254691592450832,0.007420809435543494,-0.07838993983073528,0.37054930064278047
2525.366666671211,-0.005087634,-0.79022574,-0.43294603,-2.2130978,0.4225884,1.123325,0.6579732,0.039999828,0.04,-0.015448962406550137,-0.008429215682947966,0.014068668543143481,-0.013864023741403768,-0.018835449380417167,0.10450416389312228,0.9251222743339064,0.007240574793544148,-0.07837973526132959,0.3714202050350568
2525.383333337878,-0.005100282,-0.7902407,-0.43399858,-2.2127492,0.42361504,1.1222373,0.65766203,0.03999982,0.04,-0.01368163302410963,-0.008075604311513773,0.013943039862085449,-0.013727861259732695,-0.018846638313792505,0.10239525534981744,0.9247814161088546,0.007062801230638009,-0.07836808077116855,0.3722739490949127
2525.400000004545,-0.005112685,-0.7902554,-0.43503073,-2.2124078,0.42462182,1.1211706,0.6573569,0.03999981,0.04,-0.016016324626155765,-0.009007531007726444,0.01385182329638468,-0.013588859670871561,-0.01884443048258344,0.10028981342622754,0.9244465071406467,0.006887607557925604,-0.07835584225609914,0.3731106783273879
2525.4166666712117,-0.0051248404,-0.79027,-0.43604258,-2.212073,0.42560866,1.1201249,0.6570578,0.03999981,0.04,-0.015453436401724474,-0.008653152937138087,0.01388788053497958,-0.013446339724628581,-0.018836422416383895,0.0981869362162219,0.9241176280704003,0.0067150702573392975,-0.07834282187441723,0.3739303672901275
2525.4333333378786,-0.005136749,-0.7902841,-0.43703413,-2.211745,0.4265758,1.1191002,0.6567647,0.039999794,0.04,-0.015572477516689887,-0.008854603276448048,0.014152815589274503,-0.013301445861334506,-0.018819979005844128,0.09608900659476943,0.9237947672247511,0.006545220044538089,-0.07832914387680424,0.37473314953745873
2525.4500000045455,-0.0051484113,-0.7902978,-0.43800554,-2.2114239,0.4275231,1.1180964,0.6564775,0.039999787,0.04,-0.01603907049294584,-0.008805290997088155,0.014017671854271718,-0.013152866168003888,-0.018797340938414574,0.09399488795817107,0.9234779342766258,0.006378153517759827,-0.07831503341171764,0.3755190802124459
2525.4666666712124,-0.0051598265,-0.79031134,-0.43895665,-2.2111094,0.42845082,1.1171136,0.6561963,0.039999787,0.04,-0.015404745203850823,-0.009018199526944493,0.014142585787968454,-0.013001518339552216,-0.018769350854877173,0.0919054174455283,0.9231671865941121,0.0062138270111798295,-0.07830019621075267,0.3762882050013586
2525.4833333378792,-0.0051709968,-0.7903248,-0.43988755,-2.2108018,0.42935884,1.1161517,0.6559212,0.039999776,0.04,-0.015753355303038674,-0.009082745766147982,0.01383080621730759,-0.012848090117211206,-0.018733066156645557,0.08982090495592143,0.9228625320293198,0.006052351582778984,-0.07828489185585902,0.3770405703951066
2525.500000004546,-0.0051819226,-0.79033804,-0.4407984,-2.2105014,0.4302472,1.1152104,0.65565205,0.03999978,0.04,-0.016269735275420416,-0.009165322512538765,0.013775909421198662,-0.012692751109965476,-0.018689367204604526,0.08774299319713041,0.9225639344197683,0.005893695530539389,-0.0782694092512031,0.37777632381659204
2525.516666671213,-0.0051926044,-0.7903508,-0.44168916,-2.210208,0.4311159,1.1142904,0.6553888,0.039999764,0.04,-0.016147863890036973,-0.009005103254627889,0.014504597441222788,-0.012533434719331063,-0.018642907888566193,0.08567054423609338,0.9222714744411389,0.005738037837424096,-0.07825352407072642,0.37849542708526374
2525.53333333788,-0.005203041,-0.7903631,-0.44255987,-2.2099202,0.43196508,1.1133903,0.65513146,0.039999753,0.04,-0.014620726265679451,-0.00881384687089759,0.013818248393626664,-0.012373260211376864,-0.01859038487818717,0.08360539347193871,0.9219851938818695,0.005585198600217223,-0.07823725674360542,0.3791978895991416
2525.5500000045467,-0.005213235,-0.7903753,-0.4434106,-2.2096384,0.43279478,1.1125114,0.65488005,0.039999742,0.04,-0.014582368152593617,-0.008626231913727578,0.014291805600874508,-0.012210076716248568,-0.01853192329700265,0.08154921462728204,0.9217051689673421,0.00543533582781041,-0.07822005942173596,0.379883746595432
2525.5666666712136,-0.005223191,-0.7903872,-0.4442416,-2.2093632,0.4336051,1.111653,0.65463436,0.03999973,0.04,-0.015744110653992394,-0.008975370108482705,0.013938813406400019,-0.012047810414237435,-0.018461937809210453,0.07950245620527548,0.9214312637938118,0.005288410776837512,-0.07820261833245867,0.380553293640644
2525.5833333378805,-0.0052329055,-0.79039896,-0.44505262,-2.2090948,0.43439612,1.1108149,0.65439445,0.03999973,0.04,-0.015625190532642108,-0.009403501123222968,0.01382560249455489,-0.01188347729339493,-0.01838645802367793,0.0774640909260439,0.9211635304685288,0.005144355192411651,-0.07818501873107925,0.381206490750657
2525.6000000045474,-0.00524238,-0.79041034,-0.44584394,-2.2088335,0.4351677,1.1099973,0.65416044,0.039999723,0.04,-0.0165312927419059,-0.009279499389891477,0.013874032563709893,-0.011715979686363662,-0.018306221543885975,0.07543782950901812,0.9209019230580697,0.0050034102029670275,-0.07816761381814763,0.38184347335559743
