rsonawane2002/My_IMU/logs_incomplete/traj_446/imu_446.csv
time,j1,j2,j3,j4,j5,j6,j7,gripper1,gripper2,imu_ax,imu_ay,imu_az,imu_gx,imu_gy,imu_gz
2155.783333333172,0.00016700293,-0.785875,4.0107683e-05,-2.3551247,9.29385e-05,1.570997,0.786,0.04,0.04,-9.525249,0.019565442577004433,0.10423525,1.6951536e-07,-0.0011641274904832244,5.0345557e-07
2155.7999999998387,0.00016700826,-0.78576016,4.011747e-05,-2.3552213,9.298041e-05,1.5709941,0.786,0.04,0.04,-9.834134,0.0006512121181003749,0.009182334,-3.7220906e-07,-0.002238239860162139,1.245727e-06
2155.8166666665056,0.00016703077,-0.7856542,4.0146533e-05,-2.35531,9.306366e-05,1.5709913,0.786,0.04,0.04,-9.832566,0.0006990502588450909,0.0076021785,-1.8018242e-06,-0.00322881736792624,3.428038e-06
2155.8333333331725,0.00016710025,-0.7855566,4.022763e-05,-2.355391,9.326106e-05,1.5709884,0.786,0.04,0.04,-9.830739,0.0008050976321101189,0.0063336417,-5.308574e-06,-0.0041415453888475895,8.432616e-06
2155.8499999998394,0.00016726016,-0.7854666,4.040784e-05,-2.3554652,9.367839e-05,1.5709856,0.786,0.04,0.04,-9.829051,0.0009639370255172253,0.0052357716,-1.1718168e-05,-0.004982707090675831,1.7487098e-05
2155.8666666665063,0.00016756632,-0.7853832,4.0747098e-05,-2.355532,9.4458235e-05,1.5709836,0.786,0.04,0.039999995,-9.827271,0.0011568523477762938,0.0043536257,-2.1711545e-05,-0.005759630352258682,3.2460885e-05
2155.883333333173,0.00016808577,-0.78530616,4.1317002e-05,-2.3555937,9.574782e-05,1.5709841,0.786,0.04,0.039999995,-9.825965,0.0013954968890175223,0.0033964054,-3.6397865e-05,-0.006469326559454203,5.278451e-05
2155.89999999984,0.00016889539,-0.7852342,4.219969e-05,-2.3556514,9.771742e-05,1.5709847,0.786,0.04,0.04,-9.824742,0.0016618211520835757,0.002647969,-5.5669152e-05,-0.007119504269212484,7.940205e-05
2155.916666666507,0.00017008065,-0.7851672,4.3486103e-05,-2.3557022,0.000100580335,1.5709856,0.786,0.04,0.04,-9.823802,0.0019729917403310537,0.0020165655,-8.0136626e-05,-0.007730301469564438,0.00011467886
2155.933333333174,0.00017173511,-0.7851042,4.5275723e-05,-2.3557487,0.00010455151,1.5709865,0.7860019,0.04,0.04,-9.822293,0.002283354289829731,0.0015498295,-0.00011031399,-0.008289177902042866,0.00015767296
2155.9499999998407,0.00017395927,-0.7850447,4.7675134e-05,-2.355791,0.00010987003,1.5709875,0.7860038,0.04,0.04,-9.8216,0.0026848961133509874,0.0010803931,-0.00015485086,-0.008813779801130295,0.00021072611
2155.9666666665075,0.00017685952,-0.7849879,5.0797447e-05,-2.3558273,0.000116791845,1.5709919,0.78600574,0.04,0.04,-9.8208065,0.003088892437517643,0.0007309725,-0.00020558405,-0.009308340959250927,0.0002743233
2155.9833333331744,0.00018054791,-0.78493327,5.476152e-05,-2.3558617,0.00012557206,1.5709966,0.78600764,0.04,0.04,-9.819698,0.0035139131359755993,0.0003551154,-0.0002622274,-0.00975099764764309,0.000347283
2155.9999999998413,0.00018514108,-0.7848802,5.969097e-05,-2.3558893,0.00013648329,1.5710014,0.78600955,0.04,0.04,-9.819203,0.003928059246391058,0.00016924605,-0.00032470952,-0.010181218385696411,0.00043089752
2156.016666666508,0.00019075956,-0.7848283,6.571354e-05,-2.3559148,0.00014981642,1.5710099,0.78601336,0.039999995,0.03999999,-9.818309,0.004464414902031422,1.0464639e-05,-0.00039342744,-0.010576939210295677,0.00052628043
2156.033333333175,0.00019752789,-0.78477687,7.296128e-05,-2.3559349,0.00016583387,1.5710185,0.7860172,0.03999999,0.039999995,-9.817937,0.004962630104273558,-0.00013616722,-0.00047695587,-0.010949461720883846,0.000630675
2156.049999999842,0.00020557271,-0.78472537,8.156837e-05,-2.3559513,0.00018484707,1.5710307,0.786021,0.039999988,0.039999995,-9.817071,0.005444026552140713,-0.00018722622,-0.0005662615,-0.011299495585262775,0.0007474322
2156.066666666509,0.00021502352,-0.7846732,9.167195e-05,-2.3559632,0.00020716146,1.5710448,0.7860267,0.039999988,0.039999995,-9.816695,0.006084013730287552,-0.00021255668,-0.0006613214,-0.011625044979155064,0.0008768673
2156.0833333331757,0.00022601197,-0.78461987,0.00010341139,-2.3559713,0.00023308286,1.571061,0.78603244,0.039999984,0.039999995,-9.816157,0.006676886696368456,-0.00016696192,-0.00077082525,-0.01193153951317072,0.0010174637
2156.0999999998426,0.00023867084,-0.7845649,0.000116927666,-2.3559754,0.00026292246,1.5710809,0.78604007,0.039999977,0.039999988,-9.815757,0.007307976018637419,-7.974217e-05,-0.0008853349,-0.012224877253174782,0.0011710577
2156.1166666665094,0.00025313444,-0.7845078,0.00013236277,-2.3559752,0.00029699263,1.571103,0.7860477,0.039999966,0.039999977,-9.815265,0.007878052070736885,-2.9804884e-05,-0.0010137481,-0.012499408796429634,0.0013369267
2156.1333333331763,0.00026953768,-0.7844483,0.00014985981,-2.3559713,0.0003356081,1.571127,0.78605723,0.039999958,0.03999997,-9.814979,0.008654167875647545,0.00018779561,-0.0011468139,-0.012763477861881256,0.0015151368
2156.149999999843,0.0002880162,-0.78438556,0.00016956232,-2.3559628,0.00037908464,1.5711547,0.78606766,0.03999995,0.039999966,-9.814707,0.009372521191835403,0.0004252449,-0.0012928254,-0.013021469116210938,0.0017048977
2156.16666666651,0.00030870573,-0.7843192,0.00019161419,-2.355951,0.00042773996,1.5711862,0.7860791,0.03999994,0.039999954,-9.814338,0.010132987052202225,0.0006180289,-0.0014474049,-0.013266334310173988,0.0019079525
2156.183333333177,0.000331742,-0.78424907,0.00021615927,-2.355934,0.00048188996,1.5712215,0.78609246,0.039999936,0.03999995,-9.814144,0.010806605219841003,0.00077842176,-0.0016102765,-0.01350582204759121,0.0021234395
2156.199999999844,0.00035726078,-0.78417456,0.00024334114,-2.3559127,0.00054185005,1.5712606,0.7861069,0.039999932,0.03999995,-9.813794,0.011738955043256283,0.0011472097,-0.0017852462,-0.013730887323617935,0.0023504952
2156.2166666665107,0.00038539676,-0.7840953,0.00027330278,-2.3558865,0.00060793606,1.5713037,0.78612256,0.03999993,0.039999947,-9.8136,0.012608964927494526,0.0014638593,-0.0019678804,-0.013950462453067303,0.0025907971
2156.2333333331776,0.0004162844,-0.78401095,0.00030618667,-2.355856,0.0006804608,1.5713508,0.7861397,0.039999932,0.03999995,-9.813341,0.013510937802493572,0.0018154569,-0.0021592006,-0.014162102714180946,0.002843438
2156.2499999998445,0.00045005704,-0.78392106,0.00034213392,-2.355821,0.0007597347,1.5714028,0.7861588,0.039999936,0.039999958,-9.8131275,0.014300622045993805,0.0020988323,-0.002359386,-0.01437044981867075,0.003107492
2156.2666666665114,0.00048684707,-0.78382504,0.000381285,-2.3557804,0.0008460676,1.5714595,0.78617954,0.039999947,0.03999997,-9.812989,0.015436715446412563,0.0025976785,-0.0025699758,-0.014572330750524998,0.0033845878
2156.2833333331782,0.0005267856,-0.78372264,0.00042377893,-2.355735,0.00093976443,1.5715208,0.786202,0.039999943,0.03999997,-9.812772,0.016455845907330513,0.003012457,-0.0027897442,-0.014767754822969437,0.0036729332
2156.299999999845,0.0005700025,-0.7836136,0.00046975323,-2.3556848,0.0010411292,1.5715874,0.7862263,0.039999943,0.03999997,-9.812629,0.01737031154334545,0.0033514337,-0.0030182833,-0.014962822198867798,0.003974126
2156.316666666512,0.0006166265,-0.7834972,0.0005193442,-2.3556292,0.0011504603,1.5716592,0.7862524,0.039999947,0.039999977,-9.81251,0.01864331029355526,0.0039522275,-0.0032554346,-0.015153001062572002,0.004286332
2156.333333333179,0.00066678406,-0.7833732,0.000572686,-2.3555686,0.0012680546,1.5717361,0.78628045,0.03999995,0.03999998,-9.8124075,0.01981813833117485,0.00443004,-0.0035013158,-0.015342510305345058,0.004611141
2156.3499999998457,0.0007206004,-0.7832414,0.0006299118,-2.3555026,0.0013942025,1.5718191,0.7863105,0.03999995,0.039999984,-9.8123665,0.021029673516750336,0.004951059,-0.0037554738,-0.015534024685621262,0.004946711
2156.3666666665126,0.00077819894,-0.7831018,0.00069115194,-2.355431,0.0015291928,1.5719074,0.78634274,0.039999954,0.039999988,-9.812205,0.02211504429578781,0.005332936,-0.004017999,-0.01572168804705143,0.0052946066
2156.3833333331795,0.00083970116,-0.782954,0.00075653545,-2.3553534,0.0016733084,1.5720022,0.7863773,0.039999954,0.03999999,-9.81211,0.02362207882106304,0.0060850154,-0.004289245,-0.015908120200037956,0.005652987
2156.3999999998464,0.0009052265,-0.78279746,0.0008261893,-2.3552701,0.0018268289,1.5721029,0.78641415,0.039999958,0.04,-9.81195,0.024994634091854095,0.0066794194,-0.004569541,-0.01608944498002529,0.0060225353
2156.4166666665133,0.0009748928,-0.7826319,0.0009002378,-2.355181,0.0019900284,1.5722098,0.7864532,0.039999958,0.04,-9.811904,0.02642952650785446,0.007315067,-0.0048578777,-0.016271982342004776,0.006403949
2156.43333333318,0.0010488149,-0.7824568,0.0009788036,-2.355086,0.0021631883,1.5723234,0.78649455,0.039999954,0.039999995,-9.8118305,0.027714379131793976,0.007794954,-0.005153482,-0.016455840319395065,0.006796238
2156.449999999847,0.0011271073,-0.782272,0.0010620074,-2.3549848,0.0023465483,1.5724438,0.7865384,0.039999947,0.039999995,-9.811808,0.02946651726961136,0.008608694,-0.0054569636,-0.016639815643429756,0.007197402
2156.466666666514,0.0012098807,-0.78207713,0.0011499667,-2.354877,0.0025403816,1.5725712,0.7865848,0.03999994,0.039999984,-9.8117075,0.031092016026377678,0.0092845755,-0.005768069,-0.016823073849081993,0.007611731
2156.483333333181,0.001297244,-0.7818721,0.0012427975,-2.3547626,0.0027449403,1.5727056,0.78663373,0.039999936,0.039999988,-9.811634,0.03275376558303833,0.009990088,-0.006086858,-0.017005885019898415,0.008033823
2156.4999999998477,0.0013893042,-0.78165674,0.0013406129,-2.3546422,0.0029604773,1.5728472,0.7866852,0.039999932,0.039999984,-9.811541,0.034270890057086945,0.010536896,-0.0064128144,-0.01718825101852417,0.008467799
2156.5166666665145,0.0014861657,-0.7814305,0.0014435238,-2.3545153,0.0031872336,1.572996,0.78673947,0.039999932,0.039999988,-9.811549,0.03630358725786209,0.01149505,-0.0067456937,-0.017372310161590576,0.008910903
2156.5333333331814,0.0015879304,-0.78119326,0.0015516389,-2.354382,0.0034254484,1.5731523,0.7867965,0.039999936,0.039999995,-9.811538,0.03817910701036453,0.0122644985,-0.0070858113,-0.017559600993990898,0.0093638
2156.5499999998483,0.0016946989,-0.7809446,0.0016650638,-2.3542414,0.003675371,1.5733165,0.78685623,0.039999936,0.039999995,-9.811526,0.0398772731423378,0.012880165,-0.0074329358,-0.01774982549250126,0.009827117
2156.566666666515,0.001806568,-0.78068453,0.0017839021,-2.3540933,0.003937195,1.5734886,0.78691894,0.039999932,0.039999995,-9.811416,0.042136967182159424,0.013876755,-0.0077861836,-0.017937611788511276,0.010299008
2156.583333333182,0.0019236334,-0.78041273,0.0019082549,-2.3539379,0.0042111664,1.5736686,0.7869844,0.039999925,0.039999995,-9.811317,0.04422759637236595,0.014725323,-0.008146533,-0.018123256042599678,0.010779451
2156.599999999849,0.002045987,-0.78012896,0.0020382206,-2.3537755,0.0044974918,1.5738566,0.78705287,0.039999925,0.03999999,-9.811253,0.04640179127454758,0.015614156,-0.008512206,-0.018310019746422768,0.011271479
2156.616666666516,0.0021737202,-0.7798331,0.0021738948,-2.3536057,0.0047963965,1.5740527,0.78712434,0.03999993,0.04,-9.811234,0.04835961014032364,0.016310692,-0.008884477,-0.01849946565926075,0.0117697725
2156.6333333331827,0.0023069205,-0.7795247,0.0023153718,-2.3534286,0.005108064,1.5742574,0.78719896,0.03999993,0.04,-9.811183,0.05094309523701668,0.017458422,-0.009262422,-0.018689734861254692,0.012276814
2156.6499999998496,0.0024456729,-0.7792036,0.002462741,-2.3532436,0.005432716,1.5744705,0.7872765,0.03999993,0.04,-9.81116,0.0533486008644104,0.018385343,-0.0096469,-0.01888079196214676,0.0127940625
2156.6666666665164,0.002590061,-0.7788697,0.0026160914,-2.3530512,0.0057705687,1.5746924,0.7873574,0.039999925,0.039999995,-9.8110485,0.05583949387073517,0.019368034,-0.010035761,-0.019071128219366074,0.0133220805
2156.6833333331833,0.002740165,-0.7785229,0.0027755082,-2.352851,0.0061217733,1.5749228,0.7874413,0.03999992,0.039999995,-9.811041,0.05808641016483307,0.020138647,-0.010430915,-0.019264239817857742,0.013854817
2156.69999999985,0.002896064,-0.77816284,0.0029410755,-2.352643,0.006486505,1.5751623,0.78752846,0.039999913,0.039999995,-9.810996,0.06100906804203987,0.021416675,-0.010830469,-0.0194579865783453,0.014394822
2156.716666666517,0.0030578333,-0.77778935,0.0031128738,-2.3524275,0.0068649394,1.5754105,0.78761894,0.039999917,0.04,-9.810951,0.06373275816440582,0.022452679,-0.011235233,-0.01965245045721531,0.014942646
2156.733333333184,0.0032255473,-0.7774022,0.0032909801,-2.3522043,0.007257263,1.5756681,0.7877127,0.03999991,0.04,-9.810979,0.06654775142669678,0.023542622,-0.011644692,-0.019851963967084885,0.015498881
2156.749999999851,0.0033992752,-0.77700126,0.0034754705,-2.351973,0.0076636383,1.5759346,0.78780985,0.039999902,0.04,-9.810951,0.06914174556732178,0.024389608,-0.012058874,-0.020052364096045494,0.016062373
2156.7666666665177,0.003579086,-0.77658665,0.003666417,-2.3517342,0.008084224,1.5762107,0.78791046,0.039999895,0.039999995,-9.810911,0.0724259689450264,0.025747932,-0.012477496,-0.02025504782795906,0.016633289
2156.7833333331846,0.0037650452,-0.7761578,0.0038638902,-2.351486,0.008519149,1.5764962,0.7880144,0.039999884,0.04,-9.810907,0.07548888772726059,0.026906475,-0.012900592,-0.020458560436964035,0.01720903
2156.7999999998515,0.0039572176,-0.77571476,0.004067958,-2.351229,0.008968596,1.5767913,0.7881219,0.039999884,0.03999999,-9.810751,0.0783625915646553,0.027824294,-0.013327255,-0.020660677924752235,0.017796444
2156.8166666665184,0.004155664,-0.7752573,0.004278685,-2.3509638,0.009432702,1.5770963,0.7882328,0.03999988,0.04,-9.810599,0.08189970254898071,0.02928639,-0.013758173,-0.02085959166288376,0.018385554
2156.8333333331852,0.0043604444,-0.7747851,0.0044961334,-2.35069,0.009911601,1.5774107,0.78834736,0.039999876,0.04,-9.810593,0.08526346832513809,0.03050993,-0.014192462,-0.021059688180685043,0.018983804
2156.849999999852,0.0045716134,-0.7742985,0.004720364,-2.3504074,0.010405432,1.577735,0.78846544,0.039999876,0.04,-9.810503,0.08870737254619598,0.03176759,-0.014630962,-0.02126188762485981,0.01958847
2156.866666666519,0.0047892276,-0.77379715,0.0049514337,-2.3501167,0.010914336,1.578069,0.78858715,0.039999872,0.04,-9.810403,0.0919259712100029,0.032829054,-0.015072323,-0.02146277204155922,0.020200958
2156.883333333186,0.005013335,-0.773281,0.0051893992,-2.3498182,0.011438416,1.5784131,0.7887124,0.039999872,0.04,-9.810387,0.09587650001049042,0.0344036,-0.015516852,-0.02166612073779106,0.020817721
2156.8999999998528,0.005243988,-0.7727497,0.005434312,-2.3495104,0.011977803,1.5787675,0.7888413,0.039999872,0.04,-9.810448,0.09961720556020737,0.03574486,-0.015964057,-0.021873701363801956,0.021442205
2156.9166666665196,0.0054812315,-0.7722033,0.005686221,-2.349193,0.012532583,1.5791316,0.7889739,0.03999987,0.04,-9.810261,0.10342573374509811,0.037105925,-0.01641415,-0.022077299654483795,0.022069402
2156.9333333331865,0.0057251137,-0.7716416,0.005945177,-2.3488665,0.013102859,1.5795062,0.78911036,0.03999986,0.04,-9.810113,0.10701553523540497,0.038268074,-0.016866894,-0.022281305864453316,0.02270237
2156.9499999998534,0.005975676,-0.7710647,0.0062112208,-2.3485312,0.013688753,1.579891,0.7892505,0.03999986,0.04,-9.809965,0.11139611154794693,0.039939962,-0.017322544,-0.022481339052319527,0.023343468
2156.9666666665203,0.006232956,-0.7704723,0.0064843995,-2.3481877,0.014290359,1.580286,0.7893943,0.03999987,0.04,-9.809898,0.11551523208618164,0.041420415,-0.017780079,-0.02268253266811371,0.023988381
2156.983333333187,0.006496992,-0.7698643,0.006764749,-2.347835,0.014907747,1.5806913,0.7895418,0.039999865,0.04,-9.809908,0.11974073946475983,0.042910576,-0.01823954,-0.022887544706463814,0.024637869
2156.999999999854,0.006767821,-0.7692406,0.0070523103,-2.3474727,0.015541004,1.581107,0.7896932,0.03999986,0.04,-9.809792,0.12372936308383942,0.044158883,-0.0187004,-0.02309305965900421,0.025291957
2157.016666666521,0.007045476,-0.7686015,0.007347117,-2.3471007,0.016190212,1.5815333,0.7898484,0.039999858,0.04,-9.809589,0.128513365983963,0.045960452,-0.019163398,-0.023295041173696518,0.025950892
2157.033333333188,0.007329988,-0.7679464,0.007649202,-2.3467205,0.016855422,1.5819701,0.7900074,0.039999854,0.04,-9.809408,0.1330399215221405,0.04755035,-0.01962783,-0.023493053391575813,0.0266135
2157.0499999998547,0.007621387,-0.7672757,0.007958598,-2.346331,0.01753672,1.5824175,0.7901703,0.039999846,0.04,-9.809403,0.13733883202075958,0.04887516,-0.020093719,-0.023695645853877068,0.027281087
2157.0666666665215,0.007919695,-0.7665888,0.008275333,-2.3459318,0.01823421,1.5828756,0.790337,0.03999985,0.04,-9.8092575,0.1424643099308014,0.050791442,-0.020560784,-0.02389654703438282,0.027956491
2157.0833333331884,0.008224945,-0.76588637,0.008599434,-2.3455229,0.018947875,1.5833445,0.7905076,0.039999846,0.04,-9.809117,0.1472843587398529,0.052428573,-0.021028847,-0.024096045643091202,0.028630162
2157.0999999998553,0.008537151,-0.7651678,0.00893092,-2.3451054,0.019677788,1.5838238,0.79068214,0.039999843,0.04,-9.808861,0.15225179493427277,0.05414778,-0.021497536,-0.024289648979902267,0.029309379
2157.116666666522,0.008856338,-0.76443315,0.009269818,-2.344679,0.020424012,1.5843134,0.7908606,0.039999835,0.04,-9.808815,0.1569671779870987,0.0556072,-0.021966962,-0.02448704093694687,0.029992921
2157.133333333189,0.009182522,-0.7636824,0.009616145,-2.344243,0.021186572,1.5848141,0.79104286,0.039999824,0.04,-9.808756,0.16250328719615936,0.057631135,-0.02243726,-0.024688659235835075,0.030679816
2157.149999999856,0.0095157195,-0.7629156,0.009969918,-2.3437967,0.021965496,1.5853255,0.79122907,0.03999982,0.04,-9.808517,0.16778841614723206,0.059396658,-0.02290721,-0.02488536760210991,0.03136951
2157.166666666523,0.009855942,-0.76213247,0.01033115,-2.3433414,0.022760855,1.5858477,0.7914192,0.039999817,0.04,-9.808216,0.17319296300411224,0.0612086,-0.02337736,-0.025075744837522507,0.03206461
2157.1833333331897,0.010203206,-0.76133317,0.010699854,-2.3428776,0.023572661,1.5863808,0.79161334,0.03999981,0.04,-9.808134,0.17833828926086426,0.06275657,-0.023847654,-0.025267871096730232,0.03276228
2157.1999999998566,0.010557515,-0.7605178,0.0110760415,-2.342404,0.024400922,1.5869248,0.79181135,0.03999981,0.04,-9.808074,0.18431347608566284,0.064896934,-0.024318121,-0.025462979450821877,0.033461362
2157.2166666665235,0.010918881,-0.7596862,0.01145972,-2.34192,0.025245676,1.5874796,0.79201335,0.0399998,0.04,-9.807788,0.19004882872104645,0.066790625,-0.024787847,-0.025652673095464706,0.03416494
2157.2333333331903,0.011287308,-0.7588383,0.011850896,-2.3414268,0.026106926,1.5880454,0.7922193,0.039999798,0.04,-9.807474,0.19588568806648254,0.06871679,-0.025257103,-0.025837045162916183,0.03487159
2157.249999999857,0.0116628,-0.7579739,0.012249575,-2.340925,0.026984682,1.5886217,0.79242915,0.0399998,0.04,-9.80734,0.20146620273590088,0.070392966,-0.025725828,-0.026021068915724754,0.035579957
2157.266666666524,0.012045358,-0.75709355,0.012655756,-2.3404133,0.02787896,1.5892092,0.7926429,0.039999798,0.04,-9.8071995,0.20790204405784607,0.07263061,-0.026193535,-0.026208076626062393,0.036291435
2157.283333333191,0.012434985,-0.75619704,0.01306944,-2.3398917,0.028789734,1.5898075,0.7928606,0.039999798,0.04,-9.806906,0.21406401693820953,0.07464638,-0.026659854,-0.026388898491859436,0.037003245
2157.299999999858,0.012831672,-0.75528425,0.01349062,-2.3393612,0.02971701,1.5904162,0.79308236,0.03999979,0.04,-9.806619,0.21998882293701172,0.076425865,-0.027125062,-0.02656474895775318,0.037718393
2157.3166666665247,0.01323542,-0.754355,0.013919298,-2.3388216,0.030660773,1.5910358,0.79330796,0.039999783,0.04,-9.806448,0.2267681062221527,0.0787738,-0.027589217,-0.026743849739432335,0.03843579
2157.3333333331916,0.013646219,-0.75340974,0.014355467,-2.338272,0.031621028,1.5916662,0.7935375,0.039999783,0.04,-9.806259,0.23329219222068787,0.08083667,-0.028051695,-0.026922747492790222,0.03915616
2157.3499999998585,0.014064061,-0.75244814,0.014799113,-2.3377128,0.032597743,1.5923073,0.793771,0.03999979,0.04,-9.805903,0.23990781605243683,0.08296782,-0.028512396,-0.02709607221186161,0.039876707
2157.3666666665254,0.01448894,-0.7514705,0.01525023,-2.3371449,0.033590883,1.5929593,0.7940085,0.039999787,0.04,-9.805625,0.2462775856256485,0.084830284,-0.028971769,-0.027266239747405052,0.04059868
2157.3833333331922,0.014920841,-0.75047666,0.015708804,-2.3365672,0.03460042,1.5936222,0.79424983,0.03999978,0.04,-9.805395,0.25350475311279297,0.087282665,-0.029428871,-0.027436314150691032,0.041321278
2157.399999999859,0.015359747,-0.7494667,0.01617482,-2.3359804,0.035626337,1.5942959,0.7944949,0.039999776,0.04,-9.805071,0.2604852616786957,0.08946448,-0.029883876,-0.02760184183716774,0.04204668
2157.416666666526,0.015805647,-0.7484406,0.016648265,-2.3353834,0.036668606,1.5949801,0.794744,0.039999776,0.04,-9.804796,0.2675771117210388,0.0916893,-0.030335894,-0.027765624225139618,0.0427739
2157.433333333193,0.016258517,-0.74739856,0.017129108,-2.3347776,0.03772717,1.5956752,0.7949971,0.039999776,0.04,-9.804406,0.27440017461776733,0.09366901,-0.030785585,-0.027923118323087692,0.043501303
2157.4499999998598,0.01671835,-0.7463404,0.017617341,-2.3341627,0.038801987,1.596381,0.79525405,0.039999772,0.04,-9.804113,0.2820899486541748,0.0962119,-0.031233337,-0.028079507872462273,0.04422854
2157.4666666665266,0.017185118,-0.7452663,0.01811294,-2.3335388,0.039892994,1.5970973,0.7955148,0.03999977,0.04,-9.803805,0.28951141238212585,0.09850813,-0.03167819,-0.028234636411070824,0.044955753
2157.4833333331935,0.017658794,-0.74417627,0.018615877,-2.3329046,0.041000128,1.5978245,0.79577947,0.039999764,0.04,-9.803497,0.2970665991306305,0.1008412,-0.032120377,-0.028387241065502167,0.045684267
2157.4999999998604,0.01813936,-0.74307054,0.01912613,-2.3322613,0.042123362,1.5985615,0.79604805,0.039999764,0.04,-9.80302,0.30435606837272644,0.102908105,-0.032559086,-0.028531072661280632,0.046414092
2157.5166666665273,0.018626792,-0.7419489,0.019643666,-2.33161,0.04326261,1.5993099,0.7963204,0.039999757,0.04,-9.802669,0.3124904930591583,0.10557812,-0.03299524,-0.028675781562924385,0.04714175
2157.533333333194,0.01912105,-0.74081165,0.02016846,-2.3309495,0.04441781,1.6000682,0.79659647,0.03999975,0.04,-9.802403,0.32039234042167664,0.107944526,-0.03342789,-0.02881857380270958,0.047870915
2157.549999999861,0.019622108,-0.7396587,0.020700477,-2.330279,0.045588907,1.6008372,0.79687643,0.039999753,0.04,-9.802056,0.328036367893219,0.11012995,-0.033856735,-0.02895987033843994,0.04860041
2157.566666666528,0.02012994,-0.73849016,0.021239689,-2.3295994,0.04677585,1.6016167,0.79716015,0.039999753,0.04,-9.801483,0.33653295040130615,0.11280747,-0.034282513,-0.029092349112033844,0.04933169
2157.583333333195,0.020644506,-0.73730606,0.02178606,-2.328911,0.047978524,1.6024064,0.7974478,0.039999753,0.04,-9.801043,0.34474998712539673,0.11527653,-0.03470431,-0.029220405966043472,0.05005953
2157.5999999998617,0.021165777,-0.7361066,0.02233955,-2.3282142,0.049196858,1.6032062,0.7977391,0.03999975,0.04,-9.800661,0.35311540961265564,0.11776909,-0.03512291,-0.02934727631509304,0.05078853
2157.6166666665285,0.02169372,-0.73489183,0.022900123,-2.3275084,0.050430745,1.6040163,0.7980341,0.039999746,0.04,-9.800323,0.3612085282802582,0.12004182,-0.03553755,-0.029473427683115005,0.05151525
2157.6333333331954,0.022228291,-0.73366183,0.023467746,-2.3267937,0.05168015,1.6048366,0.7983328,0.039999746,0.04,-9.799816,0.37016716599464417,0.12282709,-0.035947718,-0.029594944790005684,0.05224471
2157.6499999998623,0.022769457,-0.7324165,0.02404236,-2.3260696,0.052944936,1.6056669,0.7986352,0.039999742,0.04,-9.799335,0.3788384795188904,0.12537467,-0.036353998,-0.029712213203310966,0.052969716
2157.666666666529,0.023317173,-0.7311562,0.024623936,-2.325337,0.054225028,1.6065073,0.79894114,0.039999735,0.04,-9.798769,0.3876478374004364,0.12793878,-0.036755636,-0.029824301600456238,0.05369376
2157.683333333196,0.023871388,-0.7298808,0.02521242,-2.3245957,0.0555203,1.6073579,0.79925084,0.039999727,0.04,-9.798351,0.3962108790874481,0.13029848,-0.037152212,-0.029932484030723572,0.05441661
2157.699999999863,0.02443207,-0.72859067,0.025807764,-2.3238459,0.05683064,1.6082184,0.7995641,0.03999972,0.04,-9.7978115,0.40560922026634216,0.13313673,-0.037545163,-0.030037304386496544,0.05513808
2157.71666666653,0.024999175,-0.7272858,0.026409928,-2.3230875,0.058155973,1.6090885,0.79988104,0.03999972,0.04,-9.797276,0.4147568941116333,0.1357757,-0.03793303,-0.03013738803565502,0.05585909
2157.7333333331967,0.025572645,-0.72596616,0.027018858,-2.322321,0.05949618,1.6099684,0.8002015,0.03999972,0.04,-9.79671,0.4240157902240753,0.13844144,-0.03831639,-0.0302338395267725,0.05657863
2157.7499999998636,0.026152438,-0.7246322,0.027634503,-2.3215458,0.06085116,1.6108582,0.8005254,0.039999716,0.04,-9.796305,0.43304845690727234,0.14087303,-0.03869484,-0.030329419299960136,0.057296265
2157.7666666665305,0.026738506,-0.72328377,0.028256817,-2.320762,0.06222079,1.6117574,0.8008529,0.039999716,0.04,-9.795586,0.44288143515586853,0.1438046,-0.039068058,-0.030417228117585182,0.058012724
2157.7833333331973,0.02733079,-0.7219211,0.028885746,-2.3199694,0.06360495,1.6126664,0.8011839,0.039999716,0.04,-9.794959,0.452473908662796,0.1465144,-0.039435826,-0.03050033375620842,0.05872634
2157.799999999864,0.027929245,-0.72054416,0.02952122,-2.3191688,0.06500352,1.6135848,0.8015182,0.039999712,0.04,-9.794403,0.46183985471725464,0.14901163,-0.039798718,-0.030577298253774643,0.059438538
2157.816666666531,0.02853381,-0.71915317,0.030163188,-2.3183603,0.066416375,1.6145124,0.801856,0.039999712,0.04,-9.793712,0.4720039665699005,0.15197581,-0.04015591,-0.030650373548269272,0.060148448
2157.833333333198,0.029144436,-0.71774817,0.030811595,-2.3175437,0.0678434,1.6154494,0.8021971,0.03999971,0.04,-9.793093,0.48193204402923584,0.15474142,-0.040507484,-0.03072032891213894,0.060855
2157.849999999865,0.029761065,-0.71632934,0.031466376,-2.316719,0.0692844,1.6163956,0.8025415,0.03999971,0.04,-9.792478,0.4919739365577698,0.15750735,-0.040853687,-0.03078758716583252,0.061558984
2157.8666666665317,0.030383639,-0.71489686,0.032127466,-2.315886,0.070739314,1.6173509,0.8028892,0.03999971,0.04,-9.791856,0.5018010139465332,0.1600742,-0.041193675,-0.030849207192659378,0.0622618
2157.8833333331986,0.0310121,-0.71345085,0.032794826,-2.3150454,0.07220797,1.6183155,0.80324036,0.039999705,0.04,-9.791019,0.5123724341392517,0.16308442,-0.04152773,-0.03090391680598259,0.06295915
2157.8999999998655,0.031646386,-0.7119917,0.033468366,-2.314197,0.0736902,1.6192889,0.80359465,0.0399997,0.04,-9.790343,0.5227508544921875,0.16590637,-0.041856606,-0.030954759567975998,0.063654274
2157.9166666665324,0.032286435,-0.7105191,0.03414802,-2.3133411,0.07518589,1.6202712,0.80395216,0.039999705,0.04,-9.789633,0.533218264579773,0.16876465,-0.042178985,-0.031001245602965355,0.06434548
2157.9333333331992,0.032932177,-0.70903337,0.034833733,-2.3124778,0.07669488,1.6212617,0.8043128,0.039999697,0.04,-9.788991,0.5434899926185608,0.17138332,-0.04249553,-0.03104417771100998,0.065035
2157.949999999866,0.033583555,-0.7075346,0.03552545,-2.311607,0.07821706,1.622261,0.8046769,0.039999694,0.04,-9.788164,0.5544953346252441,0.17445171,-0.042805795,-0.031085237860679626,0.06572022
2157.966666666533,0.034240507,-0.7060229,0.03622307,-2.3107285,0.0797522,1.6232691,0.805044,0.0399997,0.04,-9.7874,0.5652937293052673,0.1772966,-0.043110732,-0.031121380627155304,0.066401795
2157.9833333332,0.03490296,-0.7044989,0.03692654,-2.3098426,0.08130024,1.6242855,0.805414,0.039999697,0.04,-9.786596,0.5762122273445129,0.18015918,-0.043409348,-0.03115268424153328,0.0670819
2157.9999999998668,0.035570845,-0.70296216,0.037635796,-2.308949,0.08286092,1.6253101,0.8057871,0.039999694,0.04,-9.78581,0.5868781208992004,0.18288209,-0.04370058,-0.03117704950273037,0.06775383
2158.0166666665336,0.036244094,-0.7014131,0.038350742,-2.308048,0.08443417,1.626343,0.8061631,0.03999969,0.04,-9.784862,0.5983089208602905,0.18594575,-0.043985177,-0.0311968345195055,0.06842452
2158.0333333332005,0.036922634,-0.69985193,0.03907132,-2.307141,0.086019754,1.6273841,0.80654204,0.039999686,0.04,-9.783963,0.6095196604728699,0.18884553,-0.044262763,-0.031210435554385185,0.069090545
2158.0499999998674,0.037606403,-0.6982788,0.039797455,-2.3062272,0.087617524,1.6284331,0.8069239,0.039999686,0.04,-9.783309,0.620530903339386,0.1915947,-0.044534266,-0.031223230063915253,0.069750786
2158.0666666665343,0.038295317,-0.69669366,0.040529057,-2.3053062,0.08922734,1.62949,0.8073088,0.039999686,0.04,-9.782342,0.6322658061981201,0.194687,-0.044799156,-0.031232820823788643,0.07040828
2158.083333333201,0.03898932,-0.6950969,0.041266058,-2.3043783,0.09084898,1.6305548,0.80769646,0.039999682,0.04,-9.78138,0.6437804102897644,0.19759145,-0.0450576,-0.03123614750802517,0.07106089
2158.099999999868,0.03968832,-0.6934886,0.042008374,-2.303444,0.09248232,1.6316273,0.808087,0.03999968,0.04,-9.780441,0.6553950309753418,0.20051888,-0.045308903,-0.03123445063829422,0.071707904
2158.116666666535,0.040392235,-0.69186866,0.042755935,-2.3025024,0.09412714,1.6327072,0.8084802,0.039999682,0.04,-9.779608,0.6668261885643005,0.20329277,-0.045553837,-0.03122882917523384,0.07235011
2158.133333333202,0.041101012,-0.6902381,0.04350865,-2.3015544,0.095783316,1.6337947,0.8088761,0.03999968,0.04,-9.778496,0.6789343953132629,0.20636284,-0.045791358,-0.031218279153108597,0.07298685
2158.1499999998687,0.041814562,-0.6885961,0.044266455,-2.3006005,0.0974506,1.6348895,0.80927473,0.039999694,0.04,-9.777428,0.6908348798751831,0.20934904,-0.046021327,-0.031199632212519646,0.07361842
2158.1666666665355,0.042532813,-0.68694377,0.045029234,-2.29964,0.09912886,1.6359913,0.80967605,0.039999697,0.04,-9.776529,0.7028553485870361,0.21226484,-0.046244834,-0.031181205064058304,0.07424467
2158.1833333332024,0.04325568,-0.6852809,0.045796923,-2.2986736,0.10081792,1.6371003,0.8100797,0.039999697,0.04,-9.775485,0.7146776914596558,0.21510802,-0.04646133,-0.031154466792941093,0.07486538
2158.1999999998693,0.04398308,-0.68360746,0.04656945,-2.2977014,0.10251755,1.638216,0.810486,0.0399997,0.04,-9.774374,0.7271578311920166,0.2182249,-0.046669487,-0.031124474480748177,0.075480185
2158.216666666536,0.04471493,-0.68192357,0.047346707,-2.2967227,0.10422757,1.6393386,0.8108949,0.0399997,0.04,-9.773307,0.7394526600837708,0.22116378,-0.04687105,-0.031092148274183273,0.07608919
2158.233333333203,0.045451164,-0.68022966,0.048128616,-2.2957382,0.105947785,1.6404681,0.8113061,0.039999697,0.04,-9.772139,0.7518428564071655,0.2240938,-0.047065876,-0.03105306252837181,0.076693065
2158.24999999987,0.046191677,-0.6785261,0.048915077,-2.2947485,0.107678026,1.6416043,0.8117198,0.039999694,0.04,-9.771144,0.7640607357025146,0.22692703,-0.047252335,-0.031009381636977196,0.077289954
2158.266666666537,0.0469364,-0.6768128,0.049706012,-2.293753,0.10941804,1.6427468,0.81213564,0.039999697,0.04,-9.769915,0.7768969535827637,0.2300195,-0.047431767,-0.030961688607931137,0.077880576
2158.2833333332037,0.04768524,-0.6750898,0.05050133,-2.2927513,0.111167684,1.6438954,0.812554,0.039999697,0.04,-9.768718,0.7895570993423462,0.23297702,-0.047603354,-0.030909977853298187,0.07846549
2158.2999999998706,0.048438113,-0.6733578,0.05130095,-2.291745,0.112926774,1.6450503,0.81297445,0.039999686,0.04,-9.767608,0.8020533323287964,0.23580092,-0.04776808,-0.030853498727083206,0.07904387
2158.3166666665375,0.04919494,-0.67161655,0.05210477,-2.290733,0.11469505,1.6462113,0.81339717,0.039999686,0.04,-9.766288,0.8151306509971619,0.23888904,-0.047924478,-0.030792130157351494,0.07961467
2158.3333333332043,0.049955618,-0.66986656,0.05291269,-2.289716,0.116472274,1.6473781,0.8138221,0.039999694,0.04,-9.765031,0.8280526995658875,0.24182385,-0.048073728,-0.030726350843906403,0.08017859
2158.349999999871,0.05072008,-0.66810787,0.05372463,-2.288694,0.118258335,1.648551,0.8142491,0.03999969,0.04,-9.763771,0.8410626649856567,0.24478228,-0.04821562,-0.03065701574087143,0.08073644
2158.366666666538,0.051488213,-0.6663408,0.05454049,-2.2876673,0.12005295,1.6497293,0.8146781,0.03999969,0.04,-9.762568,0.8539183139801025,0.24761434,-0.0483496,-0.030580628663301468,0.08128693
2158.383333333205,0.052259944,-0.66456556,0.05536016,-2.2866352,0.12185595,1.6509131,0.8151091,0.03999969,0.04,-9.761191,0.8673209547996521,0.2506711,-0.048475783,-0.030503112822771072,0.081829526
2158.399999999872,0.053035192,-0.662782,0.056183554,-2.2855988,0.12366713,1.6521022,0.815542,0.03999968,0.04,-9.759761,0.8805720210075378,0.25359735,-0.048594087,-0.030417928472161293,0.082365334
2158.4166666665387,0.053813837,-0.66099054,0.057010595,-2.2845576,0.12548627,1.6532967,0.8159768,0.03999969,0.04,-9.75847,0.8939110040664673,0.25651824,-0.048704766,-0.03033212572336197,0.08289283
2158.4333333332056,0.054595806,-0.6591914,0.057841163,-2.283512,0.12731315,1.6544961,0.8164135,0.039999682,0.04,-9.757165,0.9071119427680969,0.25934684,-0.04880757,-0.0302400104701519,0.08341317
2158.4499999998725,0.05538101,-0.6573851,0.058675174,-2.2824628,0.12914757,1.6557006,0.8168521,0.03999969,0.04,-9.755673,0.920816957950592,0.2623477,-0.048903283,-0.030146263539791107,0.08392562
2158.4666666665394,0.05616936,-0.6555716,0.059512526,-2.2814085,0.13098928,1.65691,0.81729245,0.039999686,0.04,-9.754261,0.9343768954277039,0.2652694,-0.04899133,-0.03004840388894081,0.084429316
2158.4833333332062,0.056960747,-0.653751,0.06035311,-2.2803512,0.13283812,1.6581237,0.8177344,0.03999969,0.04,-9.752689,0.9480130672454834,0.26814902,-0.04907134,-0.029942478984594345,0.08492558
2158.499999999873,0.057755083,-0.65192366,0.06119684,-2.2792888,0.13469376,1.6593422,0.81817806,0.039999686,0.04,-9.751485,0.9615564942359924,0.2709939,-0.04914417,-0.029838919639587402,0.08541265
2158.51666666654,0.05855226,-0.6500898,0.062043622,-2.2782235,0.13655612,1.6605649,0.81862336,0.039999686,0.04,-9.749673,0.9755174517631531,0.27391466,-0.04920838,-0.029724938794970512,0.08589221
2158.533333333207,0.059352204,-0.6482495,0.06289336,-2.2771535,0.13842489,1.6617918,0.8190702,0.039999682,0.04,-9.748291,0.9893919229507446,0.27679878,-0.04926574,-0.02961294911801815,0.08636305
2158.5499999998738,0.060154814,-0.64640325,0.06374589,-2.2760808,0.14029987,1.663023,0.8195183,0.039999694,0.04,-9.74673,1.0031222105026245,0.2795942,-0.049314905,-0.029493073001503944,0.086824425
2158.5666666665406,0.060959995,-0.64455086,0.0646012,-2.2750041,0.14218087,1.6642581,0.81996804,0.039999686,0.04,-9.745079,1.0173096656799316,0.28250167,-0.049355876,-0.029370594769716263,0.08727735
2158.5833333332075,0.06176763,-0.642693,0.065459125,-2.2739248,0.14406763,1.6654971,0.8204191,0.039999686,0.04,-9.743411,1.0313644409179688,0.28532347,-0.049389422,-0.02924329787492752,0.087721355
2158.5999999998744,0.06257765,-0.6408295,0.06631959,-2.2728424,0.1459599,1.6667396,0.8208714,0.03999968,0.04,-9.741885,1.0455055236816406,0.28816333,-0.04941562,-0.029115986078977585,0.088155314
2158.6166666665413,0.06338995,-0.63896096,0.067182496,-2.2717566,0.14785738,1.6679853,0.821325,0.039999682,0.04,-9.740342,1.0595444440841675,0.29092488,-0.049434014,-0.028985144570469856,0.08858114
2158.633333333208,0.06420443,-0.63708735,0.06804769,-2.2706683,0.14976002,1.6692345,0.8217799,0.03999968,0.04,-9.738501,1.0739437341690063,0.29376504,-0.049444143,-0.02885041944682598,0.08899766
2158.649999999875,0.065020986,-0.63520896,0.068915114,-2.2695763,0.15166745,1.6704869,0.8222359,0.039999682,0.04,-9.7367935,1.0882623195648193,0.2965368,-0.04944749,-0.028712626546621323,0.089404225
2158.666666666542,0.06583953,-0.633326,0.069784656,-2.268482,0.1535795,1.6717422,0.8226931,0.039999682,0.04,-9.73495,1.1026158332824707,0.29930022,-0.04944246,-0.02856810763478279,0.089800395
2158.683333333209,0.06665996,-0.63143873,0.07065621,-2.2673855,0.15549593,1.6730006,0.8231512,0.039999686,0.04,-9.733395,1.1169297695159912,0.30203503,-0.049430497,-0.028423508629202843,0.090187676
2158.6999999998757,0.06748216,-0.6295474,0.07152965,-2.266286,0.15741652,1.6742617,0.8236103,0.03999969,0.04,-9.731494,1.1315503120422363,0.30479282,-0.049410235,-0.02827581577003002,0.09056499
2158.7166666665426,0.068306044,-0.62765235,0.072404906,-2.2651846,0.15934101,1.6755254,0.8240703,0.039999686,0.04,-9.729584,1.1460788249969482,0.30749694,-0.04938232,-0.02812192775309086,0.09093177
2158.7333333332094,0.06913149,-0.62575364,0.073281854,-2.2640812,0.1612692,1.6767912,0.8245313,0.03999968,0.04,-9.727791,1.160678744316101,0.31021774,-0.049346633,-0.02796640805900097,0.09128882
2158.7499999998763,0.06995845,-0.6238513,0.07416038,-2.2629757,0.16320077,1.6780595,0.8249931,0.039999686,0.04,-9.72608,1.175216555595398,0.31289628,-0.049304567,-0.02781013771891594,0.09163541
2158.766666666543,0.07078678,-0.621946,0.07504041,-2.2618682,0.16513558,1.6793295,0.8254556,0.039999675,0.04,-9.72403,1.1900075674057007,0.31554806,-0.04925436,-0.027650106698274612,0.09197082
2158.78333333321,0.071616404,-0.62003773,0.07592181,-2.2607596,0.16707335,1.680602,0.82591873,0.039999682,0.04,-9.722088,1.2047449350357056,0.31820583,-0.049196552,-0.02748732455074787,0.09229644
2158.799999999877,0.072447196,-0.61812675,0.07680447,-2.2596495,0.16901386,1.681876,0.8263826,0.03999968,0.04,-9.720356,1.2194535732269287,0.32085288,-0.049131278,-0.027323123067617416,0.09261143
2158.816666666544,0.07327908,-0.6162132,0.07768829,-2.2585382,0.17095684,1.6831517,0.8268471,0.039999686,0.04,-9.71827,1.2343759536743164,0.32344633,-0.049058832,-0.02715805172920227,0.092915826
2158.8333333332107,0.07411191,-0.6142975,0.07857314,-2.2574255,0.1729021,1.6844289,0.82731205,0.039999686,0.04,-9.716331,1.2492518424987793,0.32601604,-0.04897982,-0.02699187956750393,0.093209215
2158.8499999998776,0.074945614,-0.6123799,0.07945893,-2.256311,0.17484939,1.6857074,0.8277776,0.039999682,0.04,-9.714266,1.2641661167144775,0.328577,-0.04889345,-0.026822179555892944,0.09349148
2158.8666666665445,0.07578009,-0.6104605,0.08034555,-2.2551951,0.17679843,1.6869873,0.8282435,0.039999682,0.04,-9.712259,1.27903151512146,0.33114827,-0.048799813,-0.026647230610251427,0.09376254
2158.8833333332113,0.07661526,-0.6085397,0.08123289,-2.2540789,0.178749,1.6882681,0.8287098,0.03999969,0.04,-9.71003,1.2940869331359863,0.3336466,-0.048698053,-0.02646852284669876,0.09402227
2158.899999999878,0.07745098,-0.6066172,0.082120866,-2.2529616,0.18070091,1.6895494,0.8291765,0.03999968,0.04,-9.707972,1.3091075420379639,0.33616322,-0.048589945,-0.026289474219083786,0.09426995
2158.916666666545,0.078287184,-0.604694,0.08300935,-2.251844,0.18265387,1.6908318,0.8296433,0.03999968,0.04,-9.705866,1.3241708278656006,0.3386135,-0.048475202,-0.026110103353857994,0.094506875
2158.933333333212,0.07912373,-0.6027699,0.08389823,-2.2507257,0.18460761,1.6921145,0.8301103,0.039999682,0.04,-9.703849,1.3392161130905151,0.34113762,-0.048352864,-0.025927795097231865,0.094732374
2158.949999999879,0.07996052,-0.6008451,0.08478741,-2.2496076,0.18656194,1.6933978,0.83057755,0.039999682,0.04,-9.701545,1.3543728590011597,0.34352133,-0.048223663,-0.025744402781128883,0.0949464
2158.9666666665457,0.08079749,-0.59892,0.08567675,-2.2484891,0.1885166,1.6946813,0.8310448,0.039999682,0.04,-9.6994295,1.3695346117019653,0.34593013,-0.048088394,-0.025561928749084473,0.09514875
2158.9833333332126,0.08163453,-0.5969948,0.08656617,-2.2473707,0.19047143,1.6959649,0.8315121,0.039999682,0.04,-9.697182,1.3847017288208008,0.34830368,-0.047945917,-0.025376366451382637,0.09533912
2158.9999999998795,0.08247152,-0.5950697,0.08745555,-2.2462523,0.19242606,1.6972485,0.83197933,0.03999968,0.04,-9.695056,1.3998767137527466,0.35072777,-0.047797043,-0.025188980624079704,0.09551646
2159.0166666665464,0.08330836,-0.593145,0.08834479,-2.2451339,0.19438031,1.6985317,0.8324466,0.03999968,0.04,-9.692694,1.4151253700256348,0.35300064,-0.0476416,-0.025001827627420425,0.0956838
2159.0333333332132,0.084144935,-0.5912209,0.08923379,-2.244016,0.19633393,1.6998143,0.8329137,0.039999668,0.04,-9.690342,1.4303351640701294,0.3552974,-0.047479555,-0.024811210110783577,0.09583541
2159.04999999988,0.08498115,-0.5892978,0.09012241,-2.242899,0.19828668,1.7010964,0.83338046,0.039999664,0.04,-9.688182,1.4456099271774292,0.35766304,-0.047311563,-0.024621644988656044,0.09597694
2159.066666666547,0.0858169,-0.58737576,0.09101055,-2.2417822,0.20023826,1.7023776,0.8338471,0.039999664,0.04,-9.68579,1.4608900547027588,0.359868,-0.04713685,-0.024433480575680733,0.09610453
2159.083333333214,0.08665211,-0.585455,0.09189811,-2.240666,0.20218854,1.7036581,0.8343132,0.039999656,0.04,-9.683343,1.4761778116226196,0.36208865,-0.04695592,-0.02424202673137188,0.09622251
2159.0999999998808,0.08748663,-0.5835357,0.09278496,-2.2395504,0.20413722,1.7049378,0.8347791,0.03999965,0.04,-9.68093,1.491460919380188,0.36428347,-0.046767607,-0.024047978222370148,0.096325986
2159.1166666665476,0.088320404,-0.58161825,0.09367103,-2.2384357,0.20608412,1.7062161,0.83524454,0.039999656,0.04,-9.678643,1.50681471824646,0.3665402,-0.046574377,-0.02385309897363186,0.09641888
2159.1333333332145,0.08915328,-0.5797027,0.094556175,-2.2373226,0.20802897,1.7074931,0.8357095,0.039999653,0.04,-9.676041,1.5220927000045776,0.36860585,-0.04637417,-0.02365589328110218,0.09649883
2159.1499999998814,0.08998519,-0.5777895,0.09544033,-2.2362113,0.20997152,1.7087686,0.83617383,0.039999653,0.04,-9.673677,1.5374493598937988,0.37073642,-0.046169266,-0.023462051525712013,0.09656632
2159.1666666665483,0.09081606,-0.57587886,0.09632335,-2.2351012,0.2119115,1.7100421,0.8366376,0.039999645,0.04,-9.671256,1.552786111831665,0.37283817,-0.04595821,-0.023268625140190125,0.09662035
2159.183333333215,0.09164574,-0.5739708,0.097205155,-2.233992,0.21384871,1.7113141,0.83710074,0.03999964,0.04,-9.66881,1.5681415796279907,0.37501124,-0.04574126,-0.023075317963957787,0.09666017
2159.199999999882,0.09247414,-0.57206583,0.09808561,-2.232885,0.21578294,1.7125839,0.83756304,0.039999638,0.04,-9.666142,1.5834373235702515,0.3769319,-0.045518264,-0.02287876605987549,0.09669048
2159.216666666549,0.09330116,-0.57016397,0.098964654,-2.2317793,0.2177139,1.7138518,0.8380246,0.039999634,0.04,-9.663626,1.598758578300476,0.37895814,-0.04528945,-0.02268376015126705,0.09670422
2159.233333333216,0.09412671,-0.56826556,0.09984211,-2.2306764,0.21964136,1.7151173,0.8384854,0.039999638,0.04,-9.661041,1.6140961647033691,0.38093936,-0.045055296,-0.02248750813305378,0.0967081
2159.2499999998827,0.09495066,-0.5663708,0.10071792,-2.229575,0.22156511,1.7163804,0.83894527,0.039999634,0.04,-9.658626,1.6295177936553955,0.38301,-0.044816673,-0.02229364961385727,0.09669987
2159.2666666665496,0.09577293,-0.56448,0.101591915,-2.2284763,0.22348493,1.7176409,0.8394043,0.039999634,0.04,-9.655835,1.6447404623031616,0.38481253,-0.044571705,-0.022097017616033554,0.09667754
2159.2833333332164,0.096593425,-0.5625931,0.102464035,-2.2273805,0.22540055,1.7188987,0.8398622,0.039999634,0.04,-9.653299,1.6600632667541504,0.3867369,-0.04432299,-0.021903706714510918,0.096639715
2159.2999999998833,0.097412065,-0.5607107,0.103334196,-2.2262862,0.2273118,1.7201537,0.8403192,0.039999627,0.04,-9.650806,1.675479531288147,0.38870302,-0.04406951,-0.021713288500905037,0.09659234
2159.31666666655,0.09822872,-0.55883265,0.10420228,-2.225195,0.22921833,1.7214054,0.84077513,0.039999627,0.04,-9.647943,1.6906346082687378,0.39041978,-0.043810457,-0.02151847630739212,0.09652884
2159.333333333217,0.09904327,-0.55695957,0.10506817,-2.2241068,0.23111999,1.722654,0.84122986,0.039999623,0.04,-9.6453285,1.7059255838394165,0.39221203,-0.043547127,-0.021327350288629532,0.09645437
2159.349999999884,0.09985566,-0.5550915,0.10593178,-2.2230215,0.23301661,1.7238994,0.84168315,0.039999623,0.04,-9.642642,1.7211854457855225,0.39400047,-0.043279074,-0.02113724686205387,0.0963668
2159.366666666551,0.10066581,-0.5532288,0.106793,-2.2219393,0.23490785,1.725141,0.84213525,0.039999623,0.04,-9.640004,1.7365200519561768,0.39588445,-0.043005463,-0.020947644487023354,0.09626487
2159.3833333332177,0.10147356,-0.55137146,0.10765171,-2.2208602,0.23679349,1.7263793,0.8425861,0.039999623,0.04,-9.63722,1.751624345779419,0.39748538,-0.04272768,-0.020760441198945045,0.09615096
2159.3999999998846,0.102278866,-0.54952,0.10850779,-2.2197845,0.23867343,1.7276137,0.84303546,0.039999623,0.04,-9.634441,1.7668184041976929,0.39914644,-0.04244592,-0.020572908222675323,0.09602466
2159.4166666665515,0.10308161,-0.5476743,0.10936117,-2.218712,0.2405473,1.7288442,0.8434835,0.03999962,0.04,-9.631649,1.7819768190383911,0.40082514,-0.04215902,-0.020385252311825752,0.09588451
2159.4333333332183,0.10388167,-0.5458346,0.11021172,-2.217643,0.24241492,1.7300702,0.84393,0.039999623,0.04,-9.628981,1.7972495555877686,0.4025811,-0.041868966,-0.020200537517666817,0.09572996
2159.449999999885,0.10467897,-0.54400134,0.1110594,-2.216578,0.24427605,1.7312921,0.84437495,0.039999623,0.04,-9.626066,1.8122189044952393,0.40402493,-0.04157461,-0.020016668364405632,0.095563404
2159.466666666552,0.10547342,-0.5421749,0.11190405,-2.2155163,0.24613048,1.7325099,0.8448184,0.039999623,0.04,-9.623342,1.8273041248321533,0.40559718,-0.041276485,-0.01983725093305111,0.0953825
2159.483333333219,0.106264934,-0.5403551,0.1127456,-2.214459,0.24797806,1.7337232,0.8452601,0.039999634,0.04,-9.6203785,1.8423209190368652,0.40713063,-0.04097402,-0.019653325900435448,0.09518983
2159.499999999886,0.107053414,-0.5385424,0.113583915,-2.2134058,0.2498185,1.7349317,0.8457001,0.039999623,0.04,-9.617685,1.8575023412704468,0.40880308,-0.04066793,-0.019474118947982788,0.09498382
2159.5166666665527,0.10783875,-0.5367368,0.11441894,-2.2123566,0.25165161,1.7361351,0.8461383,0.039999623,0.04,-9.61479,1.8723080158233643,0.41013306,-0.040358692,-0.01929754577577114,0.09476292
2159.5333333332196,0.10862085,-0.5349386,0.11525055,-2.2113113,0.2534772,1.7373338,0.8465748,0.03999963,0.04,-9.611873,1.8872203826904297,0.4115636,-0.04004527,-0.019122082740068436,0.09452937
2159.5499999998865,0.10939964,-0.53314805,0.11607864,-2.2102714,0.2552949,1.7385273,0.8470094,0.03999962,0.04,-9.609021,1.9022828340530396,0.41313362,-0.0397287,-0.018947510048747063,0.09428333
2159.5666666665534,0.110175,-0.53136545,0.11690313,-2.2092357,0.25710467,1.7397155,0.8474421,0.039999627,0.04,-9.606194,1.916978359222412,0.41437173,-0.039409827,-0.01877860352396965,0.09402419
2159.5833333332203,0.11094688,-0.5295911,0.11772391,-2.2082045,0.2589062,1.7408983,0.8478728,0.039999623,0.04,-9.60324,1.9317551851272583,0.41572356,-0.03908732,-0.018610280007123947,0.093751274
2159.599999999887,0.11171517,-0.52782494,0.11854089,-2.207178,0.26069924,1.7420754,0.8483015,0.039999623,0.04,-9.6002865,1.9465008974075317,0.4170549,-0.03876139,-0.018442660570144653,0.09346641
2159.616666666554,0.11247977,-0.5260671,0.11935396,-2.206157,0.26248366,1.743247,0.84872806,0.039999627,0.04,-9.597383,1.9613863229751587,0.41852266,-0.03843231,-0.018277380615472794,0.09316749
2159.633333333221,0.11324058,-0.52431816,0.12016305,-2.2051404,0.2642593,1.7444129,0.8491525,0.039999627,0.04,-9.594508,1.9758591651916504,0.41960865,-0.038101237,-0.018117699772119522,0.09285602
2159.6499999998878,0.11399754,-0.5225781,0.120968044,-2.2041295,0.26602587,1.7455728,0.84957474,0.03999963,0.04,-9.591453,1.990426778793335,0.42084154,-0.03776617,-0.01795610599219799,0.09253167
2159.6666666665546,0.11475054,-0.5208469,0.12176888,-2.203124,0.26778322,1.7467268,0.84999484,0.03999963,0.04,-9.588569,2.004974842071533,0.4220672,-0.03742903,-0.017799239605665207,0.09219414
2159.6833333332215,0.11549949,-0.5191252,0.122565426,-2.2021236,0.26953113,1.7478744,0.8504127,0.039999634,0.04,-9.58569,2.019685745239258,0.42340648,-0.037090667,-0.01764700748026371,0.09184342
2159.6999999998884,0.11624436,-0.517413,0.123357646,-2.2011287,0.2712693,1.7490157,0.8508283,0.03999963,0.04,-9.582655,2.0338706970214844,0.42438328,-0.036749512,-0.01749594137072563,0.09147901
2159.7166666665553,0.116984986,-0.5157103,0.124145396,-2.2001398,0.27299768,1.7501504,0.85124147,0.03999963,0.04,-9.579652,2.048224925994873,0.42550415,-0.036405567,-0.01734643429517746,0.091105
2159.733333333222,0.11772135,-0.5140177,0.12492863,-2.1991565,0.27471602,1.751279,0.85165226,0.039999627,0.04,-9.576727,2.06252121925354,0.42658374,-0.03606041,-0.017202531918883324,0.09071422
2159.749999999889,0.118453346,-0.51233536,0.12570718,-2.1981788,0.27642414,1.7524006,0.8520605,0.03999962,0.04,-9.573731,2.076978921890259,0.42784846,-0.03571293,-0.01705937273800373,0.09031199
2159.766666666556,0.119180866,-0.510663,0.12648103,-2.1972072,0.27812183,1.7535152,0.8524664,0.03999961,0.04,-9.570657,2.0908875465393066,0.42870063,-0.03536239,-0.016916807740926743,0.08989668
2159.783333333223,0.119903855,-0.5090012,0.12725006,-2.1962416,0.27980876,1.7546227,0.8528696,0.03999961,0.04,-9.567725,2.1049768924713135,0.42969364,-0.03501162,-0.016780303791165352,0.08946623
2159.7999999998897,0.12062223,-0.50734997,0.12801419,-2.195282,0.28148496,1.7557232,0.85327035,0.039999604,0.04,-9.564697,2.1192638874053955,0.4308808,-0.034658,-0.016646666452288628,0.089028694
2159.8166666665566,0.12133591,-0.5057097,0.12877335,-2.194329,0.28315008,1.7568164,0.8536685,0.039999604,0.04,-9.56169,2.1329400539398193,0.43162927,-0.034303438,-0.01651497557759285,0.08857558
2159.8333333332234,0.12204481,-0.5040805,0.12952752,-2.1933825,0.284804,1.7579024,0.85406387,0.0399996,0.04,-9.558726,2.146839141845703,0.43257397,-0.033948038,-0.016388773918151855,0.08811372
2159.8499999998903,0.122748874,-0.5024623,0.13027649,-2.1924422,0.28644663,1.7589809,0.8544566,0.039999597,0.04,-9.555706,2.160601854324341,0.43346554,-0.033590235,-0.016264136880636215,0.08763807
2159.866666666557,0.123447984,-0.50085557,0.13102022,-2.1915083,0.2880777,1.7600516,0.85484636,0.0399996,0.04,-9.552661,2.1745996475219727,0.4345245,-0.033231966,-0.01614231988787651,0.08715169
2159.883333333224,0.12414207,-0.49926025,0.1317587,-2.190581,0.28969705,1.7611148,0.85523355,0.039999597,0.04,-9.549628,2.1879286766052246,0.43516612,-0.03287081,-0.016023173928260803,0.08664934
2159.899999999891,0.124831095,-0.4976768,0.13249177,-2.1896615,0.29130444,1.7621703,0.8556179,0.03999959,0.04,-9.54664,2.201507329940796,0.43597728,-0.03251012,-0.015907172113656998,0.08614038
2159.916666666558,0.12551498,-0.49610507,0.13321938,-2.1887488,0.29289982,1.7632179,0.8559994,0.039999593,0.04,-9.543737,2.2150020599365234,0.4367903,-0.032149497,-0.015797743573784828,0.085618384
2159.9333333332247,0.12619363,-0.49454546,0.13394141,-2.1878424,0.29448295,1.7642576,0.85637796,0.03999959,0.04,-9.540692,2.228663921356201,0.4377518,-0.03178799,-0.01569190062582493,0.08508553
2159.9499999998916,0.12686701,-0.492998,0.13465784,-2.1869435,0.29605368,1.765289,0.8567536,0.039999586,0.04,-9.537618,2.2416374683380127,0.43827382,-0.031425316,-0.015585368499159813,0.08453873
2159.9666666665585,0.12753496,-0.49146298,0.13536863,-2.186052,0.2976119,1.766312,0.8571263,0.03999959,0.04,-9.534694,2.254847526550293,0.43899667,-0.031062186,-0.015484892763197422,0.08398106
2159.9833333332253,0.1281975,-0.48994046,0.13607365,-2.1851668,0.29915735,1.7673267,0.85749555,0.03999959,0.04,-9.531753,2.267993927001953,0.43970537,-0.030699998,-0.015390651300549507,0.08341414
2159.999999999892,0.12885451,-0.48843062,0.13677281,-2.1842892,0.3006899,1.7683331,0.85786176,0.039999586,0.04,-9.5285225,2.2812423706054688,0.4405517,-0.030333024,-0.015293153002858162,0.08283355
2160.016666666559,0.12950598,-0.48693365,0.13746601,-2.1834192,0.30220956,1.7693309,0.85822487,0.039999586,0.04,-9.525666,2.2939069271087646,0.44099492,-0.029967483,-0.015201393514871597,0.08224428
2160.033333333226,0.1301517,-0.4854497,0.13815324,-2.1825569,0.3037158,1.7703199,0.8585851,0.03999959,0.04,-9.5226755,2.306722402572632,0.4416229,-0.029601471,-0.015113272704184055,0.08164264
2160.049999999893,0.13079177,-0.48397884,0.13883449,-2.1817021,0.30520865,1.7713001,0.8589421,0.039999586,0.04,-9.519646,2.319795608520508,0.44244042,-0.02923728,-0.0150289973244071,0.08103135
2160.0666666665597,0.1314261,-0.48252127,0.13950956,-2.1808553,0.30668813,1.7722714,0.8592956,0.039999586,0.04,-9.516741,2.332096815109253,0.44280478,-0.028872082,-0.014948947355151176,0.08041074
2160.0833333332266,0.13205455,-0.48107713,0.1401784,-2.1800165,0.308154,1.773234,0.859646,0.039999586,0.04,-9.513818,2.3446407318115234,0.44335568,-0.028506786,-0.014873553067445755,0.07977842
2160.0999999998935,0.13267714,-0.47964656,0.14084099,-2.1791854,0.309606,1.7741873,0.85999316,0.039999586,0.04,-9.510868,2.357084274291992,0.44388336,-0.028142527,-0.014801261015236378,0.07913666
2160.1166666665604,0.13329375,-0.4782298,0.14149728,-2.1783621,0.3110441,1.7751317,0.860337,0.03999958,0.04,-9.507868,2.3697350025177,0.4446148,-0.027778614,-0.014733787626028061,0.0784841
2160.1333333332273,0.13390435,-0.47682676,0.1421472,-2.1775472,0.31246814,1.7760665,0.8606774,0.039999582,0.04,-9.504967,2.381617307662964,0.44488767,-0.027415007,-0.014667841605842113,0.07782166
2160.149999999894,0.13450891,-0.47543773,0.14279069,-2.1767404,0.31387803,1.7769923,0.8610144,0.039999582,0.04,-9.502095,2.393746852874756,0.44535547,-0.02705201,-0.014608736149966717,0.07715075
2160.166666666561,0.13510728,-0.47406283,0.14342768,-2.1759417,0.31527358,1.7779086,0.86134803,0.039999582,0.04,-9.499174,2.4057390689849854,0.4457996,-0.026688987,-0.014551585540175438,0.07646909
2160.183333333228,0.13569951,-0.4727022,0.14405814,-2.1751509,0.31665468,1.7788154,0.8616781,0.039999582,0.04,-9.496186,2.4179887771606445,0.44644958,-0.026327278,-0.014498665928840637,0.07577908
2160.1999999998948,0.1362855,-0.47135577,0.14468195,-2.1743681,0.31802124,1.7797126,0.86200494,0.03999958,0.04,-9.493313,2.4293947219848633,0.44663438,-0.02596486,-0.014446752145886421,0.075078644
2160.2166666665617,0.1368652,-0.4700239,0.14529914,-2.173594,0.31937304,1.7806003,0.8623282,0.039999582,0.04,-9.490444,2.4410810470581055,0.44701228,-0.02560423,-0.014398813247680664,0.07437111
2160.2333333332285,0.13743857,-0.46870655,0.14590958,-2.1728282,0.32071006,1.7814784,0.8626478,0.039999574,0.04,-9.487584,2.45263934135437,0.44739285,-0.025244014,-0.014353526756167412,0.07365489
2160.2499999998954,0.13800552,-0.46740398,0.14651327,-2.1720726,0.32203218,1.7823464,0.86296374,0.03999958,0.04,-9.484625,2.46441912651062,0.44796428,-0.024884306,-0.014311162754893303,0.07292697
2160.2666666665623,0.13856609,-0.4661162,0.1471101,-2.171325,0.32333928,1.7832046,0.8632761,0.03999958,0.04,-9.482126,2.4754796028137207,0.4481279,-0.024527675,-0.01428153831511736,0.07219365
2160.283333333229,0.13912016,-0.46484336,0.14770001,-2.1705856,0.32463118,1.784053,0.863585,0.039999574,0.04,-9.479192,2.4866483211517334,0.44842017,-0.024170984,-0.014251286163926125,0.07145055
2160.299999999896,0.13966769,-0.46358553,0.14828302,-2.1698544,0.3259079,1.7848911,0.8638902,0.03999957,0.04,-9.4762535,2.4981019496917725,0.44892746,-0.023816198,-0.014222710393369198,0.07070026
2160.316666666563,0.14020865,-0.46234277,0.14885908,-2.1691322,0.32716915,1.7857192,0.8641918,0.039999574,0.04,-9.473522,2.5086827278137207,0.44900084,-0.023461275,-0.014196863397955894,0.069939986
2160.33333333323,0.14074294,-0.46111524,0.1494281,-2.1684191,0.3284151,1.7865372,0.86448956,0.03999957,0.04,-9.470798,2.5195608139038086,0.44927013,-0.023108356,-0.01417558267712593,0.06917485
2160.3499999998967,0.14127064,-0.45990303,0.1499901,-2.1677158,0.32964545,1.7873449,0.8647837,0.03999957,0.04,-9.468072,2.530296802520752,0.44953415,-0.022756997,-0.014158466830849648,0.06839956
2160.3666666665636,0.14179169,-0.45870617,0.15054505,-2.1670206,0.3308602,1.7881427,0.86507404,0.03999957,0.04,-9.465333,2.541304349899292,0.4500058,-0.022408359,-0.014148284681141376,0.06761906
2160.3833333332304,0.142306,-0.4575247,0.15109277,-2.1663337,0.33205917,1.7889298,0.8653606,0.039999574,0.04,-9.462623,2.5513699054718018,0.44998485,-0.022058932,-0.014136368408799171,0.06683109
2160.3999999998973,0.14281353,-0.45635882,0.15163335,-2.165656,0.33324236,1.7897067,0.8656435,0.039999567,0.04,-9.459902,2.561720848083496,0.450195,-0.021711107,-0.014127973467111588,0.06603521
2160.416666666564,0.1433143,-0.4552086,0.15216674,-2.1649878,0.33440965,1.790473,0.8659225,0.039999563,0.04,-9.457268,2.5719680786132812,0.45040694,-0.021365402,-0.014123511500656605,0.065233424
2160.433333333231,0.1438082,-0.4540741,0.1526929,-2.1643293,0.335561,1.7912294,0.86619776,0.039999563,0.04,-9.454506,2.5824496746063232,0.45082605,-0.021020852,-0.014123823493719101,0.0644264
2160.449999999898,0.14429528,-0.4529553,0.15321174,-2.163679,0.33669642,1.7919744,0.8664692,0.03999956,0.04,-9.452091,2.5920894145965576,0.45078042,-0.020679599,-0.014127103611826897,0.06361264
2160.466666666565,0.14477548,-0.45185238,0.15372327,-2.163038,0.3378156,1.7927095,0.8667368,0.03999956,0.04,-9.449373,2.601888418197632,0.45093116,-0.020338688,-0.01413310319185257,0.06279344
2160.4833333332317,0.14524877,-0.45076537,0.1542275,-2.1624062,0.33891872,1.7934338,0.8670005,0.039999563,0.04,-9.446833,2.6116371154785156,0.45108888,-0.019999791,-0.014141716063022614,0.06196935
2160.4999999998986,0.14571509,-0.4496943,0.15472434,-2.161784,0.34000567,1.7941476,0.8672604,0.03999956,0.04,-9.444109,2.6215877532958984,0.45145234,-0.019662168,-0.014152299612760544,0.061139695
2160.5166666665655,0.14617445,-0.44863918,0.15521377,-2.161171,0.34107637,1.7948506,0.8675164,0.039999563,0.04,-9.441759,2.6306984424591064,0.45136657,-0.019327482,-0.014167191460728645,0.06030616
2160.5333333332323,0.14662683,-0.44760016,0.15569583,-2.1605673,0.3421308,1.7955428,0.86776847,0.03999956,0.04,-9.439256,2.6400253772735596,0.45148134,-0.018994978,-0.014185448177158833,0.059466526
2160.5499999998992,0.14707223,-0.44657725,0.15617041,-2.1599734,0.34316897,1.7962245,0.8680166,0.039999563,0.04,-9.436639,2.6496081352233887,0.45181948,-0.01866412,-0.014207395724952221,0.058622584
2160.566666666566,0.14751057,-0.44557044,0.1566376,-2.1593885,0.34419066,1.7968954,0.8682609,0.039999563,0.04,-9.434395,2.658320903778076,0.45171413,-0.018336158,-0.014233861118555069,0.05777524
2160.583333333233,0.14794187,-0.44457972,0.1570973,-2.1588132,0.345196,1.7975554,0.86850125,0.039999567,0.04,-9.431921,2.667224645614624,0.4517878,-0.018010177,-0.014261379837989807,0.05692323
2160.5999999999,0.1483662,-0.44360527,0.15754947,-2.158247,0.34618485,1.7982048,0.8687376,0.039999563,0.04,-9.429533,2.6760308742523193,0.4518726,-0.017686242,-0.0142928222194314,0.05606689
2160.6166666665667,0.14878342,-0.44264707,0.1579942,-2.15769,0.34715724,1.7988433,0.86897004,0.03999957,0.04,-9.426989,2.685084342956543,0.45217094,-0.017363902,-0.014325869269669056,0.055208478
2160.6333333332336,0.14919354,-0.441705,0.15843138,-2.1571429,0.34811315,1.7994711,0.86919844,0.03999956,0.04,-9.424729,2.6931986808776855,0.45201266,-0.017043097,-0.014359290711581707,0.054345224
2160.6499999999005,0.14959657,-0.4407793,0.15886106,-2.1566052,0.3490525,1.8000879,0.8694231,0.039999567,0.04,-9.4225,2.70163631439209,0.4520898,-0.016725559,-0.014398070983588696,0.053479552
2160.6666666665674,0.14999256,-0.43986988,0.15928316,-2.156077,0.34997538,1.800694,0.8696438,0.03999957,0.04,-9.42022,2.709907054901123,0.45214957,-0.016411252,-0.014440040104091167,0.052612506
2160.6833333332343,0.15038145,-0.43897682,0.15969774,-2.155558,0.35088167,1.8012893,0.86986053,0.039999567,0.04,-9.41774,2.718400478363037,0.45241287,-0.016098943,-0.014482173137366772,0.051741242
2160.699999999901,0.15076321,-0.43809998,0.16010481,-2.1550488,0.3517714,1.8018737,0.87007326,0.03999957,0.04,-9.415696,2.7260243892669678,0.452247,-0.015789201,-0.014527380466461182,0.05086936
2160.716666666568,0.15113787,-0.4372395,0.16050434,-2.1545494,0.35264462,1.802447,0.870282,0.03999957,0.04,-9.413514,2.733872175216675,0.45228982,-0.015481761,-0.014575953595340252,0.0499947
2160.733333333235,0.15150547,-0.43639526,0.16089629,-2.1540585,0.35350132,1.8030093,0.87048686,0.03999957,0.04,-9.411369,2.7416110038757324,0.45233768,-0.015176879,-0.014628331176936626,0.04911875
2160.749999999902,0.15186594,-0.43556726,0.1612807,-2.153577,0.35434148,1.803561,0.8706878,0.03999957,0.04,-9.408963,2.7495577335357666,0.4525709,-0.0148738725,-0.014680682681500912,0.048241902
2160.7666666665687,0.15221931,-0.4347557,0.16165759,-2.153105,0.35516503,1.8041016,0.8708848,0.03999958,0.04,-9.407005,2.756615161895752,0.4523694,-0.014573695,-0.014733233489096165,0.047362812
2160.7833333332355,0.15256555,-0.4339604,0.16202694,-2.1526432,0.35597214,1.8046314,0.8710778,0.03999958,0.04,-9.404902,2.763918399810791,0.45241946,-0.0142755145,-0.01478805486112833,0.046483614
2160.7999999999024,0.15290482,-0.43318135,0.16238883,-2.152191,0.3567627,1.8051504,0.8712667,0.039999556,0.04,-9.402781,2.7715344429016113,0.45266426,-0.013981464,-0.014848659746348858,0.045605164
2160.8166666665693,0.15323697,-0.43241844,0.16274318,-2.151748,0.3575368,1.8056583,0.8714518,0.039999567,0.04,-9.400975,2.7781944274902344,0.45248032,-0.013689499,-0.01491206232458353,0.04472769
2160.833333333236,0.15356207,-0.43167168,0.16309004,-2.1513143,0.3582945,1.8061556,0.8716329,0.03999957,0.04,-9.398964,2.785090923309326,0.45248953,-0.013400223,-0.014977391809225082,0.043848917
2160.849999999903,0.15388018,-0.4309412,0.16342938,-2.15089,0.35903564,1.8066424,0.87181,0.03999957,0.04,-9.396981,2.7918593883514404,0.45249715,-0.01311332,-0.015043812803924084,0.04297168
2160.86666666657,0.15419121,-0.43022674,0.1637613,-2.150475,0.35976064,1.8071184,0.8719833,0.039999567,0.04,-9.394905,2.798889398574829,0.4527249,-0.012829214,-0.015110867097973824,0.042095
2160.883333333237,0.15449528,-0.4295283,0.16408578,-2.1500695,0.36046928,1.8075839,0.87215275,0.03999957,0.04,-9.393127,2.8049917221069336,0.45251697,-0.012547515,-0.015177883207798004,0.041219443
2160.8999999999037,0.15479235,-0.4288459,0.16440289,-2.1496735,0.36116165,1.8080386,0.8723182,0.039999567,0.04,-9.391314,2.8113698959350586,0.45253026,-0.0122695295,-0.01524733193218708,0.040344853
2160.9166666665706,0.15508252,-0.4281794,0.16471258,-2.1492865,0.36183786,1.8084826,0.8724799,0.03999957,0.04,-9.389521,2.8176162242889404,0.4525572,-0.011994342,-0.015319897793233395,0.039472524
2160.9333333332374,0.15536574,-0.42752886,0.16501492,-2.1489089,0.36249784,1.8089161,0.87263775,0.039999574,0.04,-9.387529,2.824083089828491,0.45276624,-0.011722116,-0.015393606387078762,0.0386021
2160.9499999999043,0.15564203,-0.42689413,0.16530994,-2.14854,0.36314178,1.8093388,0.87279177,0.039999574,0.04,-9.385934,2.8296761512756348,0.45257756,-0.011452344,-0.015468058176338673,0.03773569
2160.966666666571,0.15591148,-0.4262751,0.16559768,-2.1481802,0.36376977,1.8097509,0.8729419,0.039999586,0.04,-9.384147,2.835484266281128,0.4525839,-0.011185112,-0.015542303211987019,0.036870893
2160.983333333238,0.15617406,-0.42567182,0.1658781,-2.1478293,0.36438194,1.8101528,0.87308824,0.03999958,0.04,-9.382475,2.8411967754364014,0.45260474,-0.010921096,-0.01561864372342825,0.036010064
2160.999999999905,0.15642986,-0.42508414,0.16615136,-2.147488,0.36497822,1.8105444,0.87323076,0.039999586,0.04,-9.380569,2.847114324569702,0.45281225,-0.010659449,-0.015693778172135353,0.03515097
2161.016666666572,0.15667896,-0.42451194,0.16641742,-2.1471562,0.36555874,1.8109257,0.8733696,0.03999959,0.04,-9.379211,2.8522274494171143,0.45265704,-0.010401381,-0.015772441402077675,0.034297723
2161.0333333332387,0.15692131,-0.4239551,0.16667631,-2.1468332,0.36612362,1.8112966,0.8735046,0.039999586,0.04,-9.377652,2.857543706893921,0.4526754,-0.010147324,-0.01585311070084572,0.033447992
2161.0499999999056,0.157157,-0.42341352,0.1669281,-2.1465185,0.36667296,1.811657,0.87363595,0.03999959,0.04,-9.375879,2.8630833625793457,0.45288062,-0.009895485,-0.01593399979174137,0.032603644
2161.0666666665725,0.15738603,-0.4228872,0.1671729,-2.146212,0.3672069,1.8120075,0.8737637,0.039999593,0.04,-9.374474,2.867750406265259,0.45270967,-0.009646685,-0.0160151906311512,0.03176278
2161.0833333332394,0.15760852,-0.42237607,0.16741067,-2.145915,0.3677255,1.8123481,0.8738878,0.03999959,0.04,-9.372887,2.872640371322632,0.45272577,-0.0094000045,-0.01609283685684204,0.030927716
2161.0999999999062,0.15782447,-0.42187986,0.16764155,-2.145627,0.36822885,1.8126786,0.8740082,0.039999597,0.04,-9.371509,2.8774776458740234,0.45278588,-0.009157922,-0.016174063086509705,0.030097809
2161.116666666573,0.15803394,-0.42139855,0.16786548,-2.1453478,0.3687172,1.8129991,0.8741249,0.0399996,0.04,-9.369917,2.88250470161438,0.45300367,-0.008918461,-0.016256464645266533,0.029275158
2161.13333333324,0.15823697,-0.42093185,0.1680826,-2.1450772,0.36919057,1.81331,0.874238,0.039999597,0.04,-9.368715,2.8867228031158447,0.4528707,-0.008682809,-0.01634070836007595,0.028457703
2161.149999999907,0.15843363,-0.42047983,0.16829292,-2.1448145,0.36964905,1.813611,0.8743476,0.039999597,0.04,-9.367351,2.8911566734313965,0.45289144,-0.0084505845,-0.016424519941210747,0.027647754
2161.1666666665737,0.158624,-0.42004216,0.16849656,-2.14456,0.37009296,1.8139026,0.8744537,0.0399996,0.04,-9.365928,2.89542818069458,0.45294183,-0.008220522,-0.016506269574165344,0.02684402
2161.1833333332406,0.1588081,-0.41961893,0.16869356,-2.1443143,0.3705223,1.8141844,0.8745563,0.0399996,0.04,-9.364454,2.899944543838501,0.4531509,-0.0079938155,-0.016587838530540466,0.026046876
2161.1999999999075,0.15898609,-0.4192098,0.16888393,-2.1440763,0.3709373,1.8144568,0.8746555,0.039999604,0.04,-9.3633795,2.9036872386932373,0.45305777,-0.007770614,-0.016670987010002136,0.02525892
2161.2166666665744,0.1591579,-0.41881463,0.16906786,-2.1438472,0.371338,1.8147199,0.8747513,0.03999961,0.04,-9.362081,2.907618999481201,0.45310834,-0.007550393,-0.016752388328313828,0.024478752
2161.2333333332413,0.15932363,-0.41843343,0.16924533,-2.1436257,0.37172467,1.8149738,0.8748438,0.039999604,0.04,-9.360937,2.9114744663238525,0.45317185,-0.007335075,-0.016836052760481834,0.023706572
2161.249999999908,0.15948349,-0.4180659,0.16941647,-2.1434124,0.37209752,1.8152188,0.8749328,0.039999608,0.04,-9.359559,2.9155092239379883,0.45341447,-0.007122788,-0.016917942091822624,0.022943096
2161.266666666575,0.1596374,-0.41771182,0.16958138,-2.1432068,0.37245673,1.8154547,0.87501866,0.039999608,0.04,-9.358565,2.91878080368042,0.4533281,-0.006913253,-0.016998831182718277,0.022189492
2161.283333333242,0.1597855,-0.41737095,0.16974011,-2.1430092,0.37280226,1.8156813,0.8751014,0.039999608,0.04,-9.357429,2.9222564697265625,0.45339897,-0.0067075603,-0.017079196870326996,0.02144404
2161.299999999909,0.15992783,-0.41704336,0.16989268,-2.1428192,0.37313446,1.8158995,0.8751808,0.039999615,0.04,-9.356242,2.925973415374756,0.45365196,-0.0065068677,-0.017162522301077843,0.020709742
2161.3166666665757,0.16006456,-0.41672865,0.1700393,-2.1426365,0.37345362,1.8161091,0.875257,0.039999615,0.04,-9.355306,2.9289393424987793,0.45358902,-0.0063090334,-0.017243556678295135,0.019986494
2161.3333333332425,0.1601957,-0.41642675,0.17018,-2.142461,0.3737598,1.8163099,0.87533027,0.039999623,0.04,-9.354254,2.9320766925811768,0.4536801,-0.0061142603,-0.017323054373264313,0.01927237
2161.3499999999094,0.16032135,-0.41613737,0.1703149,-2.142293,0.3740532,1.8165026,0.87540036,0.03999962,0.04,-9.353203,2.935124158859253,0.45378017,-0.0059235953,-0.01740102283656597,0.018569281
2161.3666666665763,0.1604416,-0.41586033,0.17044406,-2.1421323,0.3743341,1.8166872,0.87546754,0.03999962,0.04,-9.352115,2.9383907318115234,0.4540439,-0.0057365685,-0.017479347065091133,0.017879143
2161.383333333243,0.16055658,-0.4155954,0.17056754,-2.1419778,0.37460276,1.8168635,0.87553185,0.039999623,0.04,-9.351317,2.9409637451171875,0.45401028,-0.005553804,-0.01755586452782154,0.017201014
2161.39999999991,0.16066638,-0.4153424,0.17068553,-2.1418307,0.3748594,1.8170321,0.8755931,0.039999623,0.04,-9.350281,2.9436728954315186,0.45412752,-0.005373893,-0.0176286231726408,0.01653392
2161.416666666577,0.16077109,-0.41510102,0.17079806,-2.1416905,0.37510404,1.8171927,0.8756518,0.039999623,0.04,-9.349433,2.946340560913086,0.45426872,-0.005198302,-0.0177017655223608,0.015877536
2161.433333333244,0.1608708,-0.41487107,0.17090534,-2.1415572,0.3753372,1.8173456,0.87570745,0.039999623,0.04,-9.348451,2.9491918087005615,0.45454857,-0.005027799,-0.01777532510459423,0.015236005
2161.4499999999107,0.16096565,-0.41465223,0.1710074,-2.141431,0.375559,1.8174912,0.87576056,0.039999623,0.04,-9.34776,2.951395034790039,0.45456362,-0.004860582,-0.01784832589328289,0.014607615
2161.4666666665776,0.16105573,-0.41444442,0.17110436,-2.141311,0.37576967,1.8176295,0.875811,0.039999627,0.04,-9.347036,2.953824043273926,0.45471448,-0.004699627,-0.017923258244991302,0.0139947515
2161.4833333332444,0.16114108,-0.4142473,0.17119633,-2.1411963,0.3759695,1.8177606,0.8758586,0.039999627,0.04,-9.346182,2.9560959339141846,0.45486405,-0.0045419107,-0.01799519918859005,0.013395871
2161.4999999999113,0.16122194,-0.4140608,0.17128351,-2.1410875,0.37615886,1.817885,0.87590396,0.039999627,0.04,-9.345171,2.9585134983062744,0.45513394,-0.0043865656,-0.018061455339193344,0.012810791
2161.516666666578,0.16129836,-0.4138842,0.171366,-2.1409853,0.3763378,1.8180028,0.8759468,0.039999623,0.04,-9.344517,2.960360050201416,0.45519954,-0.0042361813,-0.018125027418136597,0.012239315
2161.533333333245,0.16137046,-0.41371745,0.1714439,-2.140889,0.37650672,1.8181138,0.87598705,0.03999963,0.04,-9.343887,2.9624412059783936,0.45537257,-0.004091071,-0.01818990148603916,0.011683194
2161.549999999912,0.16143838,-0.41356024,0.17151725,-2.1407976,0.376666,1.8182178,0.8760251,0.039999638,0.04,-9.343069,2.9646449089050293,0.45568234,-0.0039497106,-0.01825430803000927,0.011145162
2161.566666666579,0.16150215,-0.4134124,0.17158633,-2.1407113,0.37681583,1.8183165,0.876061,0.039999638,0.04,-9.34246,2.9662888050079346,0.4557518,-0.0038131801,-0.01831803284585476,0.0106214285
2161.5833333332457,0.16156198,-0.41327357,0.17165126,-2.1406307,0.3769565,1.8184087,0.87609464,0.03999963,0.04,-9.341704,2.968081474304199,0.45593458,-0.0036813521,-0.01837342418730259,0.01011487
2161.5999999999126,0.16161804,-0.4131434,0.1717121,-2.1405556,0.37708837,1.8184956,0.8761261,0.039999638,0.04,-9.341138,2.969846248626709,0.45617148,-0.0035544562,-0.018432075157761574,0.009624181
2161.6166666665795,0.1616705,-0.41302165,0.17176904,-2.1404846,0.37721175,1.8185765,0.8761555,0.03999964,0.04,-9.340436,2.9717512130737305,0.45647228,-0.0034327293,-0.01848774217069149,0.009152879
2161.6333333332464,0.16171937,-0.412908,0.17182228,-2.1404188,0.3773269,1.8186522,0.876183,0.03999964,0.04,-9.339822,2.9731197357177734,0.4566046,-0.0033138818,-0.0185401514172554,0.008699633
2161.6499999999132,0.16176485,-0.41280207,0.17187183,-2.140357,0.37743425,1.8187225,0.8762086,0.039999645,0.04,-9.339279,2.9746875762939453,0.45683575,-0.003201342,-0.018591133877635002,0.008263272
2161.66666666658,0.1618071,-0.41270357,0.17191795,-2.1402998,0.3775341,1.818788,0.87623245,0.039999645,0.04,-9.338631,2.976161003112793,0.45707074,-0.0030933255,-0.01863923855125904,0.007844812
2161.683333333247,0.16184624,-0.41261217,0.17196082,-2.140247,0.3776267,1.818849,0.8762547,0.039999645,0.04,-9.338025,2.977774143218994,0.45740733,-0.002991193,-0.01868591085076332,0.0074458304
2161.699999999914,0.16188245,-0.41252747,0.17200054,-2.1401978,0.37771246,1.8189054,0.8762754,0.03999965,0.04,-9.337616,2.97902250289917,0.45758742,-0.002895238,-0.01873180642724037,0.007067068
2161.7166666665807,0.16191584,-0.41244918,0.17203729,-2.1401527,0.3777918,1.8189569,0.8762945,0.039999645,0.04,-9.336971,2.980332136154175,0.45782676,-0.0028040977,-0.018772369250655174,0.006710357
2161.7333333332476,0.16194658,-0.41237688,0.1720712,-2.1401105,0.37786502,1.8190044,0.8763117,0.039999645,0.04,-9.336535,2.9816195964813232,0.45812678,-0.0027187788,-0.018816381692886353,0.006367763
2161.7499999999145,0.16197485,-0.41231027,0.17210254,-2.1400719,0.37793252,1.8190482,0.87632793,0.039999645,0.04,-9.335876,2.9830095767974854,0.45844766,-0.0026367423,-0.01885494403541088,0.00605149
2161.7666666665814,0.16200082,-0.41224894,0.17213133,-2.1400366,0.37799466,1.8190886,0.8763429,0.03999965,0.04,-9.335453,2.9840614795684814,0.4586719,-0.0025615324,-0.018892083317041397,0.005753504
2161.7833333332483,0.16202463,-0.4121925,0.1721579,-2.140003,0.37805185,1.8191266,0.8763563,0.03999965,0.04,-9.334985,2.9852709770202637,0.4589547,-0.0024932153,-0.018927501514554024,0.0054794177
2161.799999999915,0.1620465,-0.41214055,0.17218234,-2.1399732,0.37810448,1.819162,0.8763693,0.03999965,0.04,-9.33428,2.9864373207092285,0.45925793,-0.002426845,-0.018951039761304855,0.005225672
2161.816666666582,0.16206658,-0.41209278,0.17220485,-2.1399457,0.37815294,1.8191938,0.87638074,0.039999645,0.04,-9.334021,2.9874320030212402,0.45950708,-0.0023709156,-0.018975872546434402,0.004990931
2161.833333333249,0.16208495,-0.41204885,0.17222561,-2.1399193,0.37819746,1.8192223,0.8763918,0.039999645,0.04,-9.3336115,2.9884016513824463,0.45978156,-0.0023172311,-0.01900201477110386,0.004776164
2161.849999999916,0.16210175,-0.4120084,0.17224468,-2.139896,0.3782385,1.8192501,0.87640136,0.039999645,0.04,-9.333083,2.989227771759033,0.46000925,-0.0022685044,-0.0190241951495409,0.004578224
2161.8666666665827,0.16211717,-0.4119712,0.17226227,-2.1398752,0.3782762,1.8192743,0.87641054,0.03999965,0.04,-9.332778,2.9901716709136963,0.46024,-0.0022229715,-0.019041601568460464,0.0043948377
2161.8833333332495,0.16213132,-0.41193694,0.17227843,-2.1398559,0.37831092,1.8192981,0.8764184,0.039999653,0.04,-9.332624,2.990900754928589,0.46044222,-0.0021841428,-0.01906689815223217,0.0042295833
2161.8999999999164,0.16214427,-0.41190547,0.17229332,-2.1398368,0.37834284,1.8193185,0.8764259,0.039999653,0.04,-9.332249,2.991572618484497,0.46057522,-0.0021457043,-0.01908208057284355,0.0040765735
2161.9166666665833,0.16215615,-0.41187644,0.17230704,-2.1398196,0.3783721,1.8193386,0.8764332,0.039999653,0.04,-9.331831,2.9921348094940186,0.46076438,-0.0021095364,-0.019097350537776947,0.003934612
2161.93333333325,0.16216704,-0.4118498,0.17231967,-2.1398044,0.3783992,1.8193554,0.8764397,0.03999965,0.04,-9.331589,2.9927902221679688,0.46092138,-0.0020786799,-0.019107533618807793,0.003804214
2161.949999999917,0.16217701,-0.41182518,0.17233126,-2.1397905,0.3784241,1.8193717,0.8764454,0.03999965,0.04,-9.331482,2.993306875228882,0.46109307,-0.0020505178,-0.01912630721926689,0.0036847393
2161.966666666584,0.16218615,-0.41180253,0.17234194,-2.1397781,0.37844703,1.8193877,0.87645084,0.03999965,0.04,-9.331278,2.993818759918213,0.46119013,-0.0020242524,-0.01914079673588276,0.0035746251
2161.983333333251,0.16219455,-0.41178176,0.17235182,-2.1397665,0.37846807,1.8194004,0.87645614,0.039999653,0.04,-9.331092,2.9942820072174072,0.46129054,-0.0020014474,-0.019151197746396065,0.003473208
2161.9999999999177,0.16220225,-0.41176265,0.17236091,-2.139755,0.3784874,1.819413,0.8764611,0.039999653,0.04,-9.330894,2.994718074798584,0.46146423,-0.0019811522,-0.019168240949511528,0.003381748
2162.0166666665846,0.16220935,-0.411745,0.17236927,-2.1397438,0.37850538,1.8194253,0.8764649,0.039999656,0.04,-9.330631,2.9950122833251953,0.46150216,-0.00196167,-0.019177278503775597,0.0032949438
2162.0333333332514,0.16221581,-0.4117288,0.17237699,-2.139734,0.37852174,1.819437,0.8764686,0.039999656,0.04,-9.330381,2.995338201522827,0.46155968,-0.0019395401,-0.019178947433829308,0.0032151942
2162.0499999999183,0.16222171,-0.41171387,0.17238405,-2.139725,0.37853685,1.819446,0.8764721,0.039999656,0.04,-9.330296,2.9957282543182373,0.46168694,-0.001920834,-0.019181447103619576,0.003143127
2162.066666666585,0.16222714,-0.41170016,0.17239058,-2.1397173,0.3785509,1.8194548,0.8764756,0.039999656,0.04,-9.330217,2.9960007667541504,0.46179828,-0.0019045402,-0.019191758707165718,0.0030752362
2162.083333333252,0.1622321,-0.4116876,0.1723966,-2.1397102,0.37856358,1.8194635,0.8764789,0.039999656,0.04,-9.330168,2.9963133335113525,0.4618637,-0.0018917404,-0.019201260060071945,0.003014451
2162.099999999919,0.16223668,-0.41167602,0.17240217,-2.139704,0.3785753,1.819472,0.876482,0.039999656,0.04,-9.330022,2.9965484142303467,0.46191886,-0.0018802384,-0.019206630066037178,0.0029573087
2162.116666666586,0.16224088,-0.41166535,0.17240727,-2.1396985,0.3785861,1.8194798,0.87648463,0.039999656,0.04,-9.329948,2.9968180656433105,0.46198577,-0.0018702775,-0.01921115070581436,0.0029067404
2162.1333333332527,0.16224468,-0.41165555,0.17241195,-2.1396937,0.37859622,1.819485,0.87648654,0.039999656,0.04,-9.329889,2.9970180988311768,0.4620342,-0.0018606876,-0.019216077402234077,0.0028580804
2162.1499999999196,0.1622482,-0.41164654,0.17241623,-2.1396892,0.37860537,1.8194901,0.87648845,0.03999966,0.04,-9.329877,2.9972360134124756,0.46213472,-0.0018504617,-0.019231026992201805,0.0028146948
2162.1666666665865,0.16225144,-0.41163814,0.17242022,-2.139685,0.37861377,1.8194951,0.87649024,0.039999653,0.04,-9.32976,2.9974122047424316,0.4621512,-0.001841371,-0.019242379814386368,0.0027761136
2162.1833333332534,0.16225442,-0.41163054,0.17242388,-2.1396809,0.37862137,1.8195,0.87649196,0.039999656,0.04,-9.329665,2.997563362121582,0.4621732,-0.0018327811,-0.019251646474003792,0.0027386686
2162.1999999999202,0.16225715,-0.4116235,0.17242724,-2.139677,0.3786286,1.8195049,0.87649363,0.039999656,0.04,-8.795052,2.9473018646240234,0.5425855,0.0,-0.0,0.0
2162.216666666587,0.16225715,-0.4116235,0.17242724,-2.139677,0.3786286,1.8195049,0.87649363,0.039999656,0.04,-9.329003,2.9986233711242676,0.46267465,0.0,-0.0,0.0
2162.233333333254,0.16225715,-0.4116235,0.17242724,-2.139677,0.3786286,1.8195049,0.87649363,0.039999656,0.04,-9.329003,2.9986233711242676,0.46267465,0.0,-0.0,0.0
2162.249999999921,0.16225715,-0.4116235,0.17242724,-2.139677,0.3786286,1.8195049,0.87649363,0.039999656,0.04,-9.329003,2.9986233711242676,0.46267465,0.0,-0.0,0.0
2162.2666666665878,0.16225715,-0.4116235,0.17242724,-2.139677,0.3786286,1.8195049,0.87649363,0.039999656,0.04,-9.329003,2.9986233711242676,0.46267465,0.0,-0.0,0.0
2162.2833333332546,0.16225715,-0.4116235,0.17242724,-2.139677,0.3786286,1.8195049,0.87649363,0.039999656,0.04,-9.329003,2.9986233711242676,0.46267465,0.0,-0.0,0.0
2162.2999999999215,0.16225715,-0.4116235,0.17242724,-2.139677,0.3786286,1.8195049,0.87649363,0.039999656,0.04,-9.329003,2.9986233711242676,0.46267465,0.0,-0.0,0.0
2162.3166666665884,0.16225715,-0.4116235,0.17242724,-2.139677,0.3786286,1.8195049,0.87649363,0.039999656,0.04,-9.329003,2.9986233711242676,0.46267465,0.0,-0.0,0.0
2162.3333333332553,0.16225715,-0.4116235,0.17242724,-2.139677,0.3786286,1.8195049,0.87649363,0.039999656,0.04,-9.329003,2.9986233711242676,0.46267465,0.0,-0.0,0.0
2162.349999999922,0.16225715,-0.4116235,0.17242724,-2.139677,0.3786286,1.8195049,0.87649363,0.039999656,0.04,-9.329003,2.9986233711242676,0.46267465,0.0,-0.0,0.0
2162.366666666589,0.16225715,-0.4116235,0.17242724,-2.139677,0.3786286,1.8195049,0.87649363,0.039999656,0.04,-9.329003,2.9986233711242676,0.46267465,0.0,-0.0,0.0
2162.383333333256,0.16225715,-0.4116235,0.17242724,-2.139677,0.3786286,1.8195049,0.87649363,0.039999656,0.04,-9.329003,2.9986233711242676,0.46267465,0.0,-0.0,0.0
2162.399999999923,0.16225715,-0.4116235,0.17242724,-2.139677,0.3786286,1.8195049,0.87649363,0.039999656,0.04,-9.329003,2.9986233711242676,0.46267465,0.0,-0.0,0.0
2162.4166666665897,0.16225715,-0.4116235,0.17242724,-2.139677,0.3786286,1.8195049,0.87649363,0.039999656,0.04,-9.329003,2.9986233711242676,0.46267465,0.0,-0.0,0.0
2162.4333333332565,0.16225715,-0.4116235,0.17242724,-2.139677,0.3786286,1.8195049,0.87649363,0.039999656,0.04,-9.329003,2.9986233711242676,0.46267465,0.0,-0.0,0.0
2162.4499999999234,0.16225715,-0.4116235,0.17242724,-2.139677,0.3786286,1.8195049,0.87649363,0.039999656,0.04,-9.329003,2.9986233711242676,0.46267465,0.0,-0.0,0.0
2162.4666666665903,0.16225715,-0.4116235,0.17242724,-2.139677,0.3786286,1.8195049,0.87649363,0.039999656,0.04,-9.329003,2.9986233711242676,0.46267465,0.0,-0.0,0.0
2162.483333333257,0.16225715,-0.4116235,0.17242724,-2.139677,0.3786286,1.8195049,0.87649363,0.039999656,0.04,-9.329003,2.9986233711242676,0.46267465,0.0,-0.0,0.0
2162.499999999924,0.16225715,-0.4116235,0.17242724,-2.139677,0.3786286,1.8195049,0.87649363,0.039999656,0.04,-9.329003,2.9986233711242676,0.46267465,0.0,-0.0,0.0
2162.516666666591,0.16225715,-0.4116235,0.17242724,-2.139677,0.3786286,1.8195049,0.87649363,0.039999656,0.04,-9.329003,2.9986233711242676,0.46267465,0.0,-0.0,0.0
2162.533333333258,0.16225715,-0.4116235,0.17242724,-2.139677,0.3786286,1.8195049,0.87649363,0.039999656,0.04,-9.329003,2.9986233711242676,0.46267465,0.0,-0.0,0.0
2162.5499999999247,0.16225715,-0.4116235,0.17242724,-2.139677,0.3786286,1.8195049,0.87649363,0.039999656,0.04,-9.329003,2.9986233711242676,0.46267465,0.0,-0.0,0.0
2162.5666666665916,0.16225715,-0.4116235,0.17242724,-2.139677,0.3786286,1.8195049,0.87649363,0.039999656,0.04,-9.329003,2.9986233711242676,0.46267465,0.0,-0.0,0.0
2162.5833333332585,0.16225715,-0.4116235,0.17242724,-2.139677,0.3786286,1.8195049,0.87649363,0.039999656,0.04,-9.329003,2.9986233711242676,0.46267465,0.0,-0.0,0.0
2162.5999999999253,0.16225715,-0.4116235,0.17242724,-2.139677,0.3786286,1.8195049,0.87649363,0.039999656,0.04,-9.329003,2.9986233711242676,0.46267465,0.0,-0.0,0.0
2162.616666666592,0.16225715,-0.4116235,0.17242724,-2.139677,0.3786286,1.8195049,0.87649363,0.039999656,0.04,-9.329003,2.9986233711242676,0.46267465,0.0,-0.0,0.0
2162.633333333259,0.16225715,-0.4116235,0.17242724,-2.139677,0.3786286,1.8195049,0.87649363,0.039999656,0.04,-9.329003,2.9986233711242676,0.46267465,0.0,-0.0,0.0
2162.649999999926,0.16225715,-0.4116235,0.17242724,-2.139677,0.3786286,1.8195049,0.87649363,0.039999656,0.04,-9.329003,2.9986233711242676,0.46267465,0.0,-0.0,0.0
2162.666666666593,0.16225715,-0.4116235,0.17242724,-2.139677,0.3786286,1.8195049,0.87649363,0.039999656,0.04,-9.329003,2.9986233711242676,0.46267465,0.0,-0.0,0.0
2162.6833333332597,0.16225715,-0.4116235,0.17242724,-2.139677,0.3786286,1.8195049,0.87649363,0.039999656,0.04,-9.329003,2.9986233711242676,0.46267465,0.0,-0.0,0.0
2162.6999999999266,0.16225715,-0.4116235,0.17242724,-2.139677,0.3786286,1.8195049,0.87649363,0.039999656,0.04,-9.329003,2.9986233711242676,0.46267465,0.0,-0.0,0.0
2162.7166666665935,0.16225715,-0.4116235,0.17242724,-2.139677,0.3786286,1.8195049,0.87649363,0.039999656,0.04,-9.329003,2.9986233711242676,0.46267465,0.0,-0.0,0.0
2162.7333333332604,0.16225715,-0.4116235,0.17242724,-2.139677,0.3786286,1.8195049,0.87649363,0.039999656,0.04,-9.329003,2.9986233711242676,0.46267465,0.0,-0.0,0.0
2162.7499999999272,0.16225715,-0.4116235,0.17242724,-2.139677,0.3786286,1.8195049,0.87649363,0.039999656,0.04,-9.329003,2.9986233711242676,0.46267465,0.0,-0.0,0.0
2162.766666666594,0.16225715,-0.4116235,0.17242724,-2.139677,0.3786286,1.8195049,0.87649363,0.039999656,0.04,-9.329003,2.9986233711242676,0.46267465,0.0,-0.0,0.0
2162.783333333261,0.16225715,-0.4116235,0.17242724,-2.139677,0.3786286,1.8195049,0.87649363,0.039999656,0.04,-9.329003,2.9986233711242676,0.46267465,0.0,-0.0,0.0
2162.799999999928,0.16225715,-0.4116235,0.17242724,-2.139677,0.3786286,1.8195049,0.87649363,0.039999656,0.04,-9.329003,2.9986233711242676,0.46267465,0.0,-0.0,0.0
2162.8166666665948,0.16225715,-0.4116235,0.17242724,-2.139677,0.3786286,1.8195049,0.87649363,0.039999656,0.04,-9.329003,2.9986233711242676,0.46267465,0.0,-0.0,0.0
2162.8333333332616,0.16225715,-0.4116235,0.17242724,-2.139677,0.3786286,1.8195049,0.87649363,0.039999656,0.04,-9.329003,2.9986233711242676,0.46267465,0.0,-0.0,0.0
2162.8499999999285,0.16225715,-0.4116235,0.17242724,-2.139677,0.3786286,1.8195049,0.87649363,0.039999656,0.04,-9.329003,2.9986233711242676,0.46267465,0.0,-0.0,0.0
2162.8666666665954,0.16225715,-0.4116235,0.17242724,-2.139677,0.3786286,1.8195049,0.87649363,0.039999656,0.04,-9.329003,2.9986233711242676,0.46267465,0.0,-0.0,0.0
2162.8833333332623,0.16225715,-0.4116235,0.17242724,-2.139677,0.3786286,1.8195049,0.87649363,0.039999656,0.04,-9.329003,2.9986233711242676,0.46267465,0.0,-0.0,0.0
2162.899999999929,0.16225715,-0.4116235,0.17242724,-2.139677,0.3786286,1.8195049,0.87649363,0.039999656,0.04,-9.329003,2.9986233711242676,0.46267465,0.0,-0.0,0.0
2162.916666666596,0.16225715,-0.4116235,0.17242724,-2.139677,0.3786286,1.8195049,0.87649363,0.039999656,0.04,-9.329003,2.9986233711242676,0.46267465,0.0,-0.0,0.0
2162.933333333263,0.16225715,-0.4116235,0.17242724,-2.139677,0.3786286,1.8195049,0.87649363,0.039999656,0.04,-9.329003,2.9986233711242676,0.46267465,0.0,-0.0,0.0
2162.94999999993,0.16225715,-0.4116235,0.17242724,-2.139677,0.3786286,1.8195049,0.87649363,0.039999656,0.04,-9.329003,2.9986233711242676,0.46267465,0.0,-0.0,0.0
2162.9666666665967,0.16225715,-0.4116235,0.17242724,-2.139677,0.3786286,1.8195049,0.87649363,0.039999656,0.04,-9.329003,2.9986233711242676,0.46267465,0.0,-0.0,0.0
2162.9833333332635,0.16225715,-0.4116235,0.17242724,-2.139677,0.3786286,1.8195049,0.87649363,0.039999656,0.04,-9.329003,2.9986233711242676,0.46267465,0.0,-0.0,0.0
2162.9999999999304,0.16225715,-0.4116235,0.17242724,-2.139677,0.3786286,1.8195049,0.87649363,0.039999656,0.04,-9.329003,2.9986233711242676,0.46267465,0.0,-0.0,0.0
2163.0166666665973,0.16225715,-0.4116235,0.17242724,-2.139677,0.3786286,1.8195049,0.87649363,0.039999656,0.04,-9.329003,2.9986233711242676,0.46267465,0.0,-0.0,0.0
2163.033333333264,0.16225715,-0.4116235,0.17242724,-2.139677,0.3786286,1.8195049,0.87649363,0.039999656,0.04,-9.329003,2.9986233711242676,0.46267465,0.0,-0.0,0.0
2163.049999999931,0.16225715,-0.4116235,0.17242724,-2.139677,0.3786286,1.8195049,0.87649363,0.039999656,0.04,-9.329003,2.9986233711242676,0.46267465,0.0,-0.0,0.0
2163.066666666598,0.16225715,-0.4116235,0.17242724,-2.139677,0.3786286,1.8195049,0.87649363,0.039999656,0.04,-9.329003,2.9986233711242676,0.46267465,0.0,-0.0,0.0
2163.083333333265,0.16225715,-0.4116235,0.17242724,-2.139677,0.3786286,1.8195049,0.87649363,0.039999656,0.04,-9.329003,2.9986233711242676,0.46267465,0.0,-0.0,0.0
2163.0999999999317,0.16225715,-0.4116235,0.17242724,-2.139677,0.3786286,1.8195049,0.87649363,0.039999656,0.04,-9.329003,2.9986233711242676,0.46267465,0.0,-0.0,0.0
2163.1166666665986,0.16225715,-0.4116235,0.17242724,-2.139677,0.3786286,1.8195049,0.87649363,0.039999656,0.04,-9.329003,2.9986233711242676,0.46267465,0.0,-0.0,0.0
2163.1333333332655,0.16225715,-0.4116235,0.17242724,-2.139677,0.3786286,1.8195049,0.87649363,0.039999656,0.04,-9.329003,2.9986233711242676,0.46267465,0.0,-0.0,0.0
2163.1499999999323,0.16225715,-0.4116235,0.17242724,-2.139677,0.3786286,1.8195049,0.87649363,0.039999656,0.04,-9.329003,2.9986233711242676,0.46267465,0.0,-0.0,0.0
2163.166666666599,0.16225715,-0.4116235,0.17242724,-2.139677,0.3786286,1.8195049,0.87649363,0.039999656,0.04,-9.329003,2.9986233711242676,0.46267465,0.0,-0.0,0.0
2163.183333333266,0.16225715,-0.4116235,0.17242724,-2.139677,0.3786286,1.8195049,0.87649363,0.039999656,0.04,-9.329003,2.9986233711242676,0.46267465,0.0,-0.0,0.0
2163.199999999933,0.16225715,-0.4116235,0.17242724,-2.139677,0.3786286,1.8195049,0.87649363,0.039999656,0.04,-9.329003,2.9986233711242676,0.46267465,0.0,-0.0,0.0
2163.2166666666,0.16225715,-0.4116235,0.17242724,-2.139677,0.3786286,1.8195049,0.87649363,0.039999656,0.04,-9.329003,2.9986233711242676,0.46267465,0.0,-0.0,0.0
2163.2333333332667,0.16225715,-0.4116235,0.17242724,-2.139677,0.3786286,1.8195049,0.87649363,0.039999656,0.04,-9.329003,2.9986233711242676,0.46267465,0.0,-0.0,0.0
2163.2499999999336,0.16225715,-0.4116235,0.17242724,-2.139677,0.3786286,1.8195049,0.87649363,0.039999656,0.04,-9.329003,2.9986233711242676,0.46267465,0.0,-0.0,0.0
2163.2666666666005,0.16225715,-0.4116235,0.17242724,-2.139677,0.3786286,1.8195049,0.87649363,0.039999656,0.04,-9.329003,2.9986233711242676,0.46267465,0.0,-0.0,0.0
2163.2833333332674,0.16225715,-0.4116235,0.17242724,-2.139677,0.3786286,1.8195049,0.87649363,0.039999656,0.04,-9.329003,2.9986233711242676,0.46267465,0.0,-0.0,0.0
2163.2999999999342,0.16225715,-0.4116235,0.17242724,-2.139677,0.3786286,1.8195049,0.87649363,0.039999656,0.04,-9.329003,2.9986233711242676,0.46267465,0.0,-0.0,0.0
2163.316666666601,0.16225715,-0.4116235,0.17242724,-2.139677,0.3786286,1.8195049,0.87649363,0.039999656,0.04,-9.329003,2.9986233711242676,0.46267465,0.0,-0.0,0.0
2163.333333333268,0.16225715,-0.4116235,0.17242724,-2.139677,0.3786286,1.8195049,0.87649363,0.039999656,0.04,-9.329003,2.9986233711242676,0.46267465,0.0,-0.0,0.0
2163.349999999935,0.16225715,-0.4116235,0.17242724,-2.139677,0.3786286,1.8195049,0.87649363,0.039999656,0.04,-9.329003,2.9986233711242676,0.46267465,0.0,-0.0,0.0
2163.3666666666018,0.16225715,-0.4116235,0.17242724,-2.139677,0.3786286,1.8195049,0.87649363,0.039999656,0.04,-9.329003,2.9986233711242676,0.46267465,0.0,-0.0,0.0
2163.3833333332686,0.16225715,-0.4116235,0.17242724,-2.139677,0.3786286,1.8195049,0.87649363,0.039999656,0.04,-9.329003,2.9986233711242676,0.46267465,0.0,-0.0,0.0
2163.3999999999355,0.16225715,-0.4116235,0.17242724,-2.139677,0.3786286,1.8195049,0.87649363,0.039999656,0.04,-9.329003,2.9986233711242676,0.46267465,0.0,-0.0,0.0
2163.4166666666024,0.16225715,-0.4116235,0.17242724,-2.139677,0.3786286,1.8195049,0.87649363,0.039999656,0.04,-9.329003,2.9986233711242676,0.46267465,0.0,-0.0,0.0
2163.4333333332693,0.16225715,-0.4116235,0.17242724,-2.139677,0.3786286,1.8195049,0.87649363,0.039999656,0.04,-9.329003,2.9986233711242676,0.46267465,0.0,-0.0,0.0
2163.449999999936,0.16225715,-0.4116235,0.17242724,-2.139677,0.3786286,1.8195049,0.87649363,0.039999656,0.04,-9.329003,2.9986233711242676,0.46267465,0.0,-0.0,0.0
2163.466666666603,0.16225715,-0.4116235,0.17242724,-2.139677,0.3786286,1.8195049,0.87649363,0.039999656,0.04,-9.329003,2.9986233711242676,0.46267465,0.0,-0.0,0.0
2163.48333333327,0.16225715,-0.4116235,0.17242724,-2.139677,0.3786286,1.8195049,0.87649363,0.039999656,0.04,-9.329003,2.9986233711242676,0.46267465,0.0,-0.0,0.0
2163.499999999937,0.16225715,-0.4116235,0.17242724,-2.139677,0.3786286,1.8195049,0.87649363,0.039999656,0.04,-9.329003,2.9986233711242676,0.46267465,0.0,-0.0,0.0
2163.5166666666037,0.16225715,-0.4116235,0.17242724,-2.139677,0.3786286,1.8195049,0.87649363,0.039999656,0.04,-9.329003,2.9986233711242676,0.46267465,0.0,-0.0,0.0
2163.5333333332705,0.16225715,-0.4116235,0.17242724,-2.139677,0.3786286,1.8195049,0.87649363,0.039999656,0.04,-9.329003,2.9986233711242676,0.46267465,0.0,-0.0,0.0
2163.5499999999374,0.16225715,-0.4116235,0.17242724,-2.139677,0.3786286,1.8195049,0.87649363,0.039999656,0.04,-9.329003,2.9986233711242676,0.46267465,0.0,-0.0,0.0
2163.5666666666043,0.16225715,-0.4116235,0.17242724,-2.139677,0.3786286,1.8195049,0.87649363,0.039999656,0.04,-9.329003,2.9986233711242676,0.46267465,0.0,-0.0,0.0
2163.583333333271,0.16225715,-0.4116235,0.17242724,-2.139677,0.3786286,1.8195049,0.87649363,0.039999656,0.04,-9.329003,2.9986233711242676,0.46267465,0.0,-0.0,0.0
2163.599999999938,0.16225715,-0.4116235,0.17242724,-2.139677,0.3786286,1.8195049,0.87649363,0.039999656,0.04,-9.329003,2.9986233711242676,0.46267465,0.0,-0.0,0.0
2163.616666666605,0.16225715,-0.4116235,0.17242724,-2.139677,0.3786286,1.8195049,0.87649363,0.039999656,0.04,-9.329003,2.9986233711242676,0.46267465,0.0,-0.0,0.0
2163.633333333272,0.16225715,-0.4116235,0.17242724,-2.139677,0.3786286,1.8195049,0.87649363,0.039999656,0.04,-9.329003,2.9986233711242676,0.46267465,0.0,-0.0,0.0
2163.6499999999387,0.16225715,-0.4116235,0.17242724,-2.139677,0.3786286,1.8195049,0.87649363,0.039999656,0.04,-9.329003,2.9986233711242676,0.46267465,0.0,-0.0,0.0
2163.6666666666056,0.16225715,-0.4116235,0.17242724,-2.139677,0.3786286,1.8195049,0.87649363,0.039999656,0.04,-9.329003,2.9986233711242676,0.46267465,0.0,-0.0,0.0
2163.6833333332725,0.16225715,-0.4116235,0.17242724,-2.139677,0.3786286,1.8195049,0.87649363,0.039999656,0.04,-9.329003,2.9986233711242676,0.46267465,0.0,-0.0,0.0
2163.6999999999393,0.16225715,-0.4116235,0.17242724,-2.139677,0.3786286,1.8195049,0.87649363,0.039999656,0.04,-9.329003,2.9986233711242676,0.46267465,0.0,-0.0,0.0
2163.716666666606,0.16225715,-0.4116235,0.17242724,-2.139677,0.3786286,1.8195049,0.87649363,0.039999656,0.04,-9.329003,2.9986233711242676,0.46267465,0.0,-0.0,0.0
2163.733333333273,0.16225715,-0.4116235,0.17242724,-2.139677,0.3786286,1.8195049,0.87649363,0.039999656,0.04,-9.329003,2.9986233711242676,0.46267465,0.0,-0.0,0.0
2163.74999999994,0.16225715,-0.4116235,0.17242724,-2.139677,0.3786286,1.8195049,0.87649363,0.039999656,0.04,-9.329003,2.9986233711242676,0.46267465,0.0,-0.0,0.0
2163.766666666607,0.16225715,-0.4116235,0.17242724,-2.139677,0.3786286,1.8195049,0.87649363,0.039999656,0.04,-9.329003,2.9986233711242676,0.46267465,0.0,-0.0,0.0
2163.7833333332737,0.16225715,-0.4116235,0.17242724,-2.139677,0.3786286,1.8195049,0.87649363,0.039999656,0.04,-9.329003,2.9986233711242676,0.46267465,0.0,-0.0,0.0
2163.7999999999406,0.16225715,-0.4116235,0.17242724,-2.139677,0.3786286,1.8195049,0.87649363,0.039999656,0.04,-9.329003,2.9986233711242676,0.46267465,0.0,-0.0,0.0
