rsonawane2002/My_IMU/logs_2/traj_472/imu_400hz_472.csv
time,j1,j2,j3,j4,j5,j6,j7,gripper1,gripper2,imu_ax,imu_ay,imu_az,imu_gx,imu_gy,imu_gz
0.0,0.00016700293,-0.785875,4.0107683e-05,-2.3551247,9.29385e-05,1.570997,0.786,0.04,0.04,-9.451655,0.0486593507230281,0.1221451,-4.509059e-07,-0.0011641274904832,3.2473648e-07
0.0025,0.0001670031355,-0.7858577740000002,4.010805755e-05,-2.35513919,9.294443699999993e-05,1.570996565,0.786,0.04,0.04,-9.50908084999927,0.04145341197736416,0.10518480865021596,-3.9513055310071017e-07,-0.0013252448348773337,4.869718329979342e-07
0.005,0.00016700334099999998,-0.7858405480000005,4.010843209999999e-05,-2.35515368,9.295037399999986e-05,1.57099613,0.786,0.04,0.04,-9.566506699998538,0.034247473231700215,0.0882245173004319,-3.393552062014204e-07,-0.001486362179271467,6.492071859958686e-07
0.0075,0.0001670035465,-0.7858233220000007,4.0108806649999986e-05,-2.35516817,9.295631099999977e-05,1.5709956950000001,0.786,0.04,0.04,-9.623932549997807,0.027041534486036273,0.07126422595064787,-2.8357985930213053e-07,-0.0016474795236656003,8.114425389938028e-07
0.01,0.000167003752,-0.785806096000001,4.010918119999998e-05,-2.3551826599999997,9.29622479999997e-05,1.5709952600000001,0.786,0.04,0.04,-9.681358399997075,0.01983559574037233,0.054303934600863815,-2.2780451240284071e-07,-0.0018085968680597339,9.736778919917371e-07
0.0125,0.00016700395749999998,-0.7857888700000011,4.010955574999997e-05,-2.355197149999999,9.296818499999962e-05,1.570994825,0.786,0.04,0.04,-9.738784249996344,0.012629656994708388,0.037343643251079764,-1.720291655035509e-07,-0.0019697142124538674,1.1359132449896714e-06
0.015,0.00016700416299999997,-0.7857716440000013,4.010993029999997e-05,-2.355211639999999,9.297412199999955e-05,1.57099439,0.786,0.04,0.04,-9.796210099995612,0.005423718249044446,0.020383351901295726,-1.1625381860426111e-07,-0.0021308315568480006,1.2981485979876056e-06
0.0175,0.00016700385600000012,-0.7857548570000015,4.010875150000038e-05,-2.355225734999999,9.298130949999913e-05,1.57099396,0.786,0.04,0.04,-9.834374650000031,0.0006182181881744471,0.009009412100017936,-9.233000429645449e-08,-0.0022876027156466367,1.5705996149560695e-06
0.02,0.00016700252400000013,-0.7857389480000017,4.0104466000000436e-05,-2.355239039999999,9.299099799999901e-05,1.5709935400000001,0.786,0.04,0.04,-9.834016600000036,0.0006135954987262109,0.008808175400020499,-1.3210925519594798e-07,-0.002435681503250956,2.0634819599497934e-06
0.0225,0.00016700119200000014,-0.7857230390000018,4.010018050000049e-05,-2.3552523449999985,9.300068649999888e-05,1.57099312,0.786,0.04,0.04,-9.83365855000004,0.0006089728092779748,0.008606938700023062,-1.7188850609544144e-07,-0.0025837602908552757,2.5563643049435175e-06
0.025,0.00016699986000000017,-0.785707130000002,4.0095895000000545e-05,-2.3552656499999984,9.301037499999876e-05,1.5709927000000001,0.786,0.04,0.04,-9.833300500000046,0.0006043501198297386,0.008405702000025623,-2.1166775699493499e-07,-0.0027318390784595954,3.049246649937242e-06
0.0275,0.00016699852800000018,-0.7856912210000022,4.00916095000006e-05,-2.355278954999998,9.302006349999864e-05,1.57099228,0.786,0.04,0.04,-9.83294245000005,0.0005997274303815024,0.008204465300028186,-2.5144700789442845e-07,-0.0028799178660639147,3.542128994930966e-06
0.03,0.0001669971960000002,-0.7856753120000024,4.0087324000000654e-05,-2.355292259999998,9.302975199999852e-05,1.5709918600000001,0.786,0.04,0.04,-9.832584400000055,0.0005951047409332663,0.008003228600030748,-2.9122625879392194e-07,-0.003027996653668234,4.03501133992469e-06
0.0325,0.00016699586400000023,-0.7856594030000027,4.008303850000071e-05,-2.3553055649999974,9.303944049999839e-05,1.57099144,0.786,0.04,0.04,-9.83222635000006,0.0005904820514850301,0.00780199190003331,-3.310055096934155e-07,-0.0031760754412725536,4.527893684918415e-06
0.035,0.00016699172000000099,-0.7856443400000026,4.007061200000294e-05,-2.3553180999999976,9.305618399999639e-05,1.57099101,0.786,0.04,0.04,-9.831940900000046,0.0005812275572700326,0.007600508200035939,-3.4944932899861383e-07,-0.003316048346435561,5.484431319788163e-06
0.0375,0.00016698617000000107,-0.7856297000000028,4.005411500000315e-05,-2.3553302499999975,9.307645499999612e-05,1.5709905750000002,0.786,0.04,0.04,-9.831691750000049,0.0005696571606698848,0.007398901000038506,-3.572254324985148e-07,-0.003451968310374815,6.672796599773029e-06
0.04,0.00016698062000000113,-0.785615060000003,4.003761800000336e-05,-2.3553423999999974,9.309672599999587e-05,1.5709901400000001,0.786,0.04,0.04,-9.83144260000005,0.0005580867640697372,0.007197293800041073,-3.650015359984158e-07,-0.0035878882743140697,7.861161879757898e-06
0.0425,0.00016697507000000122,-0.7856004200000032,4.002112100000357e-05,-2.3553545499999973,9.31169969999956e-05,1.5709897050000001,0.786,0.04,0.04,-9.831193450000054,0.0005465163674695895,0.00699568660004364,-3.727776394983168e-07,-0.003723808238253324,9.049527159742768e-06
0.045,0.00016696952000000128,-0.7855857800000033,4.000462400000378e-05,-2.355366699999997,9.313726799999535e-05,1.57098927,0.786,0.04,0.04,-9.830944300000057,0.0005349459708694419,0.006794079400046207,-3.8055374299821776e-07,-0.003859728202192578,1.0237892439727634e-05
0.0475,0.00016696397000000136,-0.7855711400000035,3.998812700000399e-05,-2.355378849999997,9.31575389999951e-05,1.570988835,0.786,0.04,0.04,-9.83069515000006,0.0005233755742692942,0.006592472200048774,-3.8832984649811875e-07,-0.003995648166131832,1.1426257719712503e-05
0.05,0.00016695842000000142,-0.7855565000000038,3.99716300000042e-05,-2.355390999999997,9.317780999999483e-05,1.5709884,0.786,0.04,0.04,-9.830446000000064,0.0005118051776691465,0.006390865000051341,-3.9610594999801973e-07,-0.004131568130071087,1.2614622999697375e-05
0.0525,0.0001669446320000037,-0.7855429700000036,3.993205655001058e-05,-2.355402159999997,9.321989999998874e-05,1.5709879800000002,0.786,0.04,0.03999999925,-9.830151550000078,0.0004968545690683977,0.0062344889950418135,-5.338112524631786e-07,-0.00425574714314594,1.4915406249384788e-05
0.055,0.00016693084400000387,-0.7855294400000038,3.989248310001108e-05,-2.3554133199999967,9.326198999998821e-05,1.57098756,0.786,0.04,0.0399999985,-9.829857100000083,0.0004819039604667881,0.006078112990043805,-6.715165549614253e-07,-0.0043799261562178044,1.7216189499355497e-05
0.0575,0.00016691705600000405,-0.785515910000004,3.985290965001159e-05,-2.355424479999997,9.330407999998767e-05,1.5709871400000002,0.786,0.04,0.03999999775,-9.829562650000087,0.0004669533518651784,0.005921736985045795,-8.092218574596721e-07,-0.004504105169289669,1.9516972749326202e-05
0.06,0.00016690326800000423,-0.785502380000004,3.981333620001209e-05,-2.3554356399999965,9.334616999998713e-05,1.57098672,0.786,0.04,0.039999997,-9.82926820000009,0.0004520027432635688,0.005765360980047787,-9.469271599579184e-07,-0.004628284182361532,2.18177559992969e-05
0.0625,0.0001668894800000044,-0.7854888500000042,3.97737627500126e-05,-2.3554467999999966,9.33882599999866e-05,1.5709863000000002,0.786,0.04,0.03999999625,-9.828973750000094,0.00043705213466195916,0.005608984975049778,-1.0846324624561651e-06,-0.004752463195433396,2.411853924926761e-05
0.065,0.00016687569200000458,-0.7854753200000044,3.97341893000131e-05,-2.3554579599999963,9.343034999998607e-05,1.57098588,0.786,0.04,0.0399999955,-9.828679300000097,0.0004221015260603495,0.005452608970051769,-1.2223377649544119e-06,-0.00487664220850526,2.6419322499238312e-05
0.0675,0.00016685745100000933,-0.7854621250000042,3.968233465002627e-05,-2.3554687799999963,9.34833374999743e-05,1.5709856199999999,0.786,0.04,0.039999995,-9.8283876500001,0.00040520998737316165,0.0053032877600464835,-1.3956127949159734e-06,-0.004997176653666573,2.9103417598813686e-05
0.07,0.00016683030400000968,-0.7854496000000044,3.960591760002724e-05,-2.3554789199999964,9.355811999997334e-05,1.57098568,0.786,0.04,0.039999995,-9.828101600000101,0.00038443658850888614,0.005168076140048205,-1.6400272799128615e-06,-0.005110421962995646,3.255413639876975e-05
0.0725,0.00016680315700001003,-0.7854370750000046,3.952950055002822e-05,-2.355489059999996,9.363290249997239e-05,1.57098574,0.786,0.04,0.039999995,-9.827815550000105,0.00036366318964461074,0.005032864520049928,-1.8844417649097483e-06,-0.005223667272324719,3.6004855198725796e-05
0.075,0.00016677601000001039,-0.7854245500000048,3.945308350002919e-05,-2.355499199999996,9.370768499997143e-05,1.5709857999999999,0.786,0.04,0.039999995,-9.827529500000109,0.00034288979078033523,0.004897652900051649,-2.128856249906636e-06,-0.005336912581653791,3.945557399868186e-05
0.0775,0.0001667488630000107,-0.785412025000005,3.937666645003016e-05,-2.355509339999996,9.378246749997049e-05,1.57098586,0.786,0.04,0.039999995,-9.827243450000113,0.0003221163919160597,0.004762441280053371,-2.3732707349035247e-06,-0.0054501578909828645,4.290629279863793e-05
0.08,0.00016672171600001106,-0.7853995000000051,3.930024940003114e-05,-2.355519479999996,9.385724999996953e-05,1.57098592,0.786,0.04,0.039999995,-9.826957400000117,0.0003013429930517842,0.004627229660055092,-2.6176852199004128e-06,-0.005563403200311938,4.6357011598593996e-05
0.0825,0.00016669456900001141,-0.7853869750000053,3.9223832350032106e-05,-2.3555296199999955,9.393203249996859e-05,1.57098598,0.786,0.04,0.039999995,-9.826671350000119,0.0002805695941875087,0.004492018040056814,-2.862099704897301e-06,-0.005676648509641011,4.980773039855006e-05
0.085,0.0001666543780000211,-0.7853750340000053,3.911187170005852e-05,-2.3555395199999953,9.403843199994487e-05,1.57098609,0.7859998100000002,0.04,0.039999995,-9.826357900000147,0.00025905498479080255,0.0043703672600518195,-3.230257549806011e-06,-0.005781376874028937,5.426845399775993e-05
0.08750000000000001,0.00016660766500002294,-0.7853633850000058,3.898213925006371e-05,-2.355549299999995,9.416063999993999e-05,1.570986225,0.7859995250000001,0.04,0.039999995,-9.826030750000161,0.00023716977012717334,0.004255496900056416,-3.6602870747888027e-06,-0.005881846765938156,5.923417999756121e-05
0.09,0.00016656095200002482,-0.7853517360000062,3.8852406800068905e-05,-2.355559079999995,9.428284799993509e-05,1.57098636,0.7859992400000002,0.04,0.039999995,-9.825703600000173,0.00021528455546354424,0.004140626540061013,-4.090316599771591e-06,-0.005982316657847375,6.419990599736247e-05
0.0925,0.00016651423900002668,-0.7853400870000067,3.87226743500741e-05,-2.3555688599999947,9.44050559999302e-05,1.5709864949999999,0.7859989550000002,0.04,0.039999995,-9.825376450000187,0.000193399340799915,0.00402575618006561,-4.520346124754383e-06,-0.006082786549756595,6.916563199716376e-05
0.095,0.00016646752600002856,-0.7853284380000071,3.859294190007929e-05,-2.3555786399999943,9.452726399992531e-05,1.57098663,0.7859986700000002,0.04,0.039999995,-9.8250493000002,0.0001715141261362858,0.003910885820070206,-4.9503756497371755e-06,-0.006183256441665815,7.413135799696504e-05
0.0975,0.00016642081300003044,-0.7853167890000076,3.846320945008448e-05,-2.355588419999994,9.464947199992041e-05,1.570986765,0.7859983850000002,0.04,0.039999995,-9.824722150000214,0.00014962891147265656,0.003796015460074803,-5.380405174719967e-06,-0.006283726333575034,7.909708399676633e-05
0.1,0.0001663741000000323,-0.7853051400000081,3.833347700008967e-05,-2.3555981999999935,9.477167999991553e-05,1.5709869,0.7859981000000003,0.04,0.039999995,-9.824395000000226,0.00012774369680902735,0.0036811451000794,-5.810434699702758e-06,-0.006384196225484254,8.406280999656762e-05
0.10250000000000001,0.00016630067350004968,-0.7852942680000073,3.813158885013661e-05,-2.355607004999994,9.495650399987493e-05,1.570987035,0.7859978150000002,0.04,0.03999999575,-9.824223700000116,0.0001005401252952892,0.0035764066250708725,-5.248016570380567e-06,-0.006477202242177321,9.06501469955426e-05
0.105,0.0001662272470000486,-0.7852833960000072,3.7929700700133674e-05,-2.3556158099999944,9.514132799987763e-05,1.57098717,0.7859975300000002,0.04,0.0399999965,-9.824052400000113,7.333655377787508e-05,0.0034716681500693487,-4.685598440372385e-06,-0.00657020825886523,9.723748399563843e-05
0.1075,0.00016615382050004754,-0.785272524000007,3.7727812550130736e-05,-2.3556246149999946,9.532615199988031e-05,1.5709873049999998,0.7859972450000002,0.04,0.03999999725,-9.823881100000111,4.6132982260460806e-05,0.0033669296750678244,-4.1231803103642e-06,-0.006663214275553138,0.00010382482099573429
0.11,0.00016608039400004646,-0.7852616520000069,3.752592440012779e-05,-2.3556334199999944,9.5510975999883e-05,1.57098744,0.7859969600000002,0.04,0.039999998,-9.823709800000108,1.892941074304653e-05,0.0032621912000663006,-3.5607621803560155e-06,-0.006756220292241047,0.00011041215799583015
0.1125,0.0001660069675000454,-0.7852507800000067,3.7324036250124854e-05,-2.3556422249999946,9.56957999998857e-05,1.570987575,0.7859966750000003,0.04,0.03999999875,-9.823538500000106,-8.27416077436776e-06,0.0031574527250647763,-2.9983440503478303e-06,-0.006849226308928955,0.00011699949499592601
0.115,0.00016593354100004432,-0.7852399080000065,3.7122148100121916e-05,-2.355651029999995,9.588062399988838e-05,1.5709877099999998,0.7859963900000002,0.04,0.0399999995,-9.823367200000103,-3.547773229178202e-05,0.003052714250063252,-2.4359259203396457e-06,-0.006942232325616864,0.00012358683199602187
0.11750000000000001,0.00016584855150006468,-0.7852292570000061,3.6889218550176544e-05,-2.355659754999995,9.609315399983966e-05,1.5709879249999996,0.7859961050000002,0.04,0.04,-9.823155150000176,-6.25842483553142e-05,0.002956742485046941,-1.99127174512515e-06,-0.007031866908023744,0.00013085829599482958
0.12,0.00016574043600006607,-0.7852190480000063,3.6594206200180305e-05,-2.3556683199999946,9.636109599983624e-05,1.5709882999999998,0.7859958200000002,0.04,0.04,-9.822861600000179,-8.949665351056302e-05,0.00287830414004794,-1.7821454801278142e-06,-0.007114758621850539,0.00013949801399471955
0.1225,0.00016563232050006743,-0.7852088390000064,3.629919385018406e-05,-2.3556768849999945,9.662903799983283e-05,1.5709886749999997,0.7859955350000002,0.04,0.04,-9.822568050000182,-0.00011640905866581197,0.002799865795048939,-1.5730192151304767e-06,-0.007197650335677333,0.00014813773199460955
0.125,0.00016552420500006882,-0.7851986300000066,3.600418150018782e-05,-2.3556854499999944,9.689697999982942e-05,1.5709890499999997,0.7859952500000003,0.04,0.04,-9.822274500000187,-0.00014332146382106095,0.0027214274500499376,-1.3638929501331394e-06,-0.0072805420495041274,0.00015677744999449954
0.1275,0.0001654160895000702,-0.7851884210000066,3.5709169150191575e-05,-2.3556940149999943,9.716492199982601e-05,1.5709894249999998,0.7859949650000002,0.04,0.04,-9.82198095000019,-0.0001702338689763099,0.0026429891050509364,-1.154766685135802e-06,-0.007363433763330922,0.00016541716799438956
0.13,0.00016530797400007158,-0.7851782120000067,3.541415680019533e-05,-2.355702579999994,9.74328639998226e-05,1.5709897999999998,0.7859946800000002,0.04,0.04,-9.821687400000194,-0.00019714627413155886,0.002564550760051935,-9.456404201384647e-07,-0.007446325477157717,0.00017405688599427956
0.1325,0.00016519985850007297,-0.7851680030000069,3.511914445019909e-05,-2.355711144999994,9.770080599981919e-05,1.5709901749999997,0.7859943950000002,0.04,0.04,-9.821393850000199,-0.00022405867928680784,0.0024861124150529334,-7.365141551411272e-07,-0.007529217190984512,0.00018269660399416955
0.135,0.0001650627940001042,-0.7851581700000066,3.474679260028261e-05,-2.3557191299999944,9.803786939974448e-05,1.5709907699999996,0.7859939200000005,0.04,0.04,-9.821155200000145,-0.0002506989054199064,0.002416779770044541,-8.761688497840706e-07,-0.007607525447331193,0.0001927403529926115
0.1375,0.00016491125500010613,-0.7851485250000068,3.433577100028784e-05,-2.3557268249999943,9.840949349973976e-05,1.5709914749999996,0.7859933500000005,0.04,0.04,-9.820944000000148,-0.000277203042041514,0.0023519999750453656,-1.1902140247800721e-06,-0.007683541974930815,0.0002034861174924747
0.14,0.00016475971600010805,-0.7851388800000069,3.392474940029308e-05,-2.355734519999994,9.878111759973502e-05,1.5709921799999995,0.7859927800000004,0.04,0.04,-9.820732800000151,-0.0003037071786631215,0.0022872201800461906,-1.5042591997760737e-06,-0.007759558502530437,0.00021423188199233786
0.14250000000000002,0.00016460817700011,-0.785129235000007,3.351372780029831e-05,-2.3557422149999945,9.915274169973028e-05,1.5709928849999995,0.7859922100000004,0.04,0.04,-9.820521600000154,-0.00033021131528472906,0.0022224403850470155,-1.8183043747720754e-06,-0.007835575030130059,0.00022497764649220104
0.145,0.00016445663800011191,-0.7851195900000071,3.3102706200303546e-05,-2.3557499099999943,9.952436579972554e-05,1.5709935899999994,0.7859916400000004,0.04,0.04,-9.820310400000157,-0.0003567154519063363,0.002157660590047841,-2.1323495497680733e-06,-0.007911591557729681,0.0002357234109920641
0.1475,0.00016430509900011386,-0.7851099450000072,3.269168460030878e-05,-2.355757604999994,9.989598989972082e-05,1.5709942949999993,0.7859910700000005,0.04,0.04,-9.82009920000016,-0.0003832195885279439,0.0020928807950486654,-2.4463947247640753e-06,-0.007987608085329303,0.0002464691754919273
0.15,0.00016415356000011578,-0.7851003000000073,3.2280663000314015e-05,-2.355765299999994,0.00010026761399971608,1.5709949999999995,0.7859905000000005,0.04,0.04,-9.819888000000162,-0.00040972372514955143,0.0020281010000494904,-2.7604398997600764e-06,-0.008063624612928925,0.0002572149399917905
0.1525,0.00016394924350015871,-0.7850910900000071,3.17291106004284e-05,-2.355772814999994,0.00010076486189961377,1.5709958249999993,0.7859899240000005,0.04,0.04,-9.819616200000212,-0.0004427280451379552,0.0019668697550475588,-2.380331198795234e-06,-0.00812912024552499,0.0002702156769899022
0.155,0.0001637449270001613,-0.7850818800000072,3.117755820043542e-05,-2.3557803299999938,0.00010126210979960744,1.5709966499999992,0.7859893480000004,0.04,0.04,-9.819344400000215,-0.000475732365131325,0.0019056385100483385,-2.000222497300074e-06,-0.008194615878113015,0.0002832164139897367
0.1575,0.0001635406105001639,-0.7850726700000074,3.0626005800442444e-05,-2.355787844999994,0.00010175935769960111,1.5709974749999993,0.7859887720000005,0.04,0.04,-9.819072600000219,-0.0005087366851246948,0.001844407265049118,-1.6201137958049133e-06,-0.008260111510701041,0.00029621715098957115
0.16,0.0001633362940001665,-0.7850634600000075,3.0074453400449465e-05,-2.355795359999994,0.00010225660559959478,1.5709982999999994,0.7859881960000005,0.04,0.04,-9.818800800000222,-0.0005417410051180646,0.0017831760200498978,-1.2400050943097528e-06,-0.008325607143289067,0.0003092178879894056
0.1625,0.0001631319775001691,-0.7850542500000076,2.9522901000456487e-05,-2.3558028749999935,0.00010275385349958845,1.5709991249999993,0.7859876200000004,0.04,0.04,-9.818529000000225,-0.0005747453251114344,0.0017219447750506773,-8.598963928145923e-07,-0.008391102775877093,0.0003222186249892401
0.165,0.00016292766100017172,-0.7850450400000077,2.897134860046351e-05,-2.3558103899999936,0.00010325110139958212,1.5709999499999994,0.7859870440000004,0.04,0.04,-9.818257200000229,-0.0006077496451048042,0.0016607135300514568,-4.797876913194318e-07,-0.008456598408465119,0.00033521936198907456
0.1675,0.00016270241950022788,-0.7850359400000075,2.836427715061262e-05,-2.355817794999994,0.00010379768899944952,1.571000924999999,0.7859863740000007,0.04,0.04,-9.818010200000169,-0.0006395866919522614,0.0016062424250349351,-3.453897351954225e-07,-0.008520110929333967,0.00034899332398693014
0.17,0.00016243532800023128,-0.7850270600000077,2.7646167600621765e-05,-2.3558249799999937,0.0001044429559994413,1.571002199999999,0.7859855160000007,0.04,0.04,-9.817812800000171,-0.0006690891924989757,0.0015652916000354566,-7.024132716908769e-07,-0.008579657226749303,0.00036431373598673505
0.17250000000000001,0.00016216823650023468,-0.7850181800000078,2.692805805063091e-05,-2.3558321649999936,0.0001050882229994331,1.571003474999999,0.7859846580000007,0.04,0.04,-9.817615400000173,-0.0006985916930456901,0.001524340775035978,-1.0594368081863312e-06,-0.00863920352416464,0.00037963414798654
0.17500000000000002,0.00016190114500023807,-0.7850093000000079,2.620994850064005e-05,-2.355839349999994,0.00010573348999942488,1.5710047499999988,0.7859838000000007,0.04,0.04,-9.817418000000176,-0.0007280941935924045,0.0014833899500364994,-1.4164603446817858e-06,-0.008698749821579976,0.00039495455998634493
0.1775,0.00016163405350024147,-0.785000420000008,2.5491838950649203e-05,-2.3558465349999937,0.00010637875699941665,1.5710060249999989,0.7859829420000007,0.04,0.04,-9.817220600000178,-0.0007575966941391185,0.0014424391250370213,-1.7734838811772363e-06,-0.008758296118995312,0.00041027497198614974
0.18,0.00016136696200024487,-0.7849915400000081,2.4773729400658343e-05,-2.3558537199999936,0.00010702402399940844,1.5710072999999989,0.7859820840000007,0.04,0.04,-9.81702320000018,-0.0007870991946858329,0.0014014883000375428,-2.1305074176726906e-06,-0.00881784241641065,0.00042559538398595465
0.1825,0.00016109987050024827,-0.7849826600000082,2.4055619850667487e-05,-2.3558609049999935,0.00010766929099940022,1.571008574999999,0.7859812260000008,0.04,0.04,-9.816825800000183,-0.0008166016952325472,0.001360537475038064,-2.4875309541681447e-06,-0.008877388713825988,0.0004409157959857596
0.185,0.00016078394400032068,-0.7849739240000081,2.3208255900859312e-05,-2.355867689999994,0.00010843176399922636,1.5710102299999984,0.7859802460000009,0.04,0.0399999995,-9.816616800000203,-0.0008442740188658784,0.0013202864300375964,-2.540645180093131e-06,-0.00893190084020361,0.0004580928899829404
0.1875,0.00016044360000032503,-0.7849652600000082,2.2296264750870923e-05,-2.355874274999994,0.0001092528399992159,1.5710120749999983,0.785979205000001,0.04,0.03999999875,-9.816402000000204,-0.0008710312540386727,0.0012803852750381045,-2.4418047500943897e-06,-0.008983895881051796,0.00047619832498270985
0.19,0.00016010325600032937,-0.7849565960000083,2.1384273600882534e-05,-2.355880859999994,0.00011007391599920544,1.5710139199999982,0.785978164000001,0.04,0.039999998,-9.816187200000208,-0.000897788489211467,0.0012404841200386123,-2.3429643200956482e-06,-0.009035890921899985,0.0004943037599824794
0.1925,0.00015976291200033368,-0.7849479320000085,2.0472282450894145e-05,-2.3558874449999934,0.00011089499199919499,1.5710157649999983,0.785977123000001,0.04,0.03999999725,-9.815972400000211,-0.0009245457243842613,0.0012005829650391204,-2.2441238900969064e-06,-0.009087885962748173,0.0005124091949822488
0.195,0.00015942256800033803,-0.7849392680000086,1.956029130090576e-05,-2.3558940299999933,0.00011171606799918453,1.5710176099999982,0.785976082000001,0.04,0.0399999965,-9.815757600000213,-0.0009513029595570556,0.0011606818100396285,-2.145283460098165e-06,-0.00913988100359636,0.0005305146299820183
0.1975,0.00015908222400034237,-0.7849306040000087,1.864830015091737e-05,-2.3559006149999933,0.00011253714399917407,1.571019454999998,0.785975041000001,0.04,0.03999999575,-9.815542800000216,-0.0009780601947298499,0.0011207806550401365,-2.046443030099423e-06,-0.009191876044444549,0.0005486200649817877
0.2,0.00015874188000034668,-0.7849219400000088,1.773630900092898e-05,-2.355907199999993,0.00011335821999916363,1.5710212999999982,0.7859740000000011,0.04,0.039999995,-9.815328000000218,-0.0010048174299026442,0.0010808795000406446,-1.9476026001006816e-06,-0.009243871085292735,0.0005667254999815573
0.2025,0.0001583174160004378,-0.7849133990000089,1.6602015901169868e-05,-2.355913709999993,0.00011437503549895129,1.5710236399999975,0.7859727850000012,0.04,0.03999999575,-9.815050050000286,-0.001031080691582378,0.0010489767800329034,-2.102734354840003e-06,-0.009286424890116631,0.0005870021099790875
0.20500000000000002,0.00015789295200044318,-0.784904858000009,1.546772280118431e-05,-2.355920219999993,0.00011539185099893834,1.5710259799999975,0.7859715700000013,0.04,0.0399999965,-9.81477210000029,-0.0010573439532616086,0.0010170740600333095,-2.257866109838028e-06,-0.00932897869493091,0.0006072787199788293
0.20750000000000002,0.00015746848800044858,-0.7848963170000091,1.433342970119875e-05,-2.355926729999993,0.0001164086664989254,1.5710283199999975,0.7859703550000012,0.04,0.03999999725,-9.814494150000293,-0.0010836072149408393,0.0009851713400337156,-2.4129978648360528e-06,-0.009371532499745188,0.0006275553299785712
0.21,0.000157044024000454,-0.7848877760000091,1.3199136601213204e-05,-2.355933239999993,0.00011742548199891244,1.5710306599999975,0.7859691400000013,0.04,0.039999998,-9.814216200000297,-0.0011098704766200696,0.0009532686200341222,-2.568129619834076e-06,-0.009414086304559465,0.0006478319399783127
0.2125,0.0001566195600004594,-0.7848792350000093,1.2064843501227646e-05,-2.355939749999993,0.0001184422974988995,1.5710329999999975,0.7859679250000013,0.04,0.03999999875,-9.813938250000302,-0.0011361337382993003,0.0009213659000345284,-2.723261374832101e-06,-0.009456640109373743,0.0006681085499780546
0.215,0.0001561950960004648,-0.7848706940000094,1.0930550401242089e-05,-2.355946259999993,0.00011945911299888656,1.5710353399999974,0.7859667100000013,0.04,0.0399999995,-9.813660300000304,-0.001162396999978531,0.0008894631800349345,-2.878393129830126e-06,-0.009499193914188022,0.0006883851599777964
0.2175,0.00015573881250057595,-0.7848621580000095,9.712352418035372e-06,-2.3559527449999926,0.00012055092449862437,1.5710378199999968,0.7859653975000017,0.03999999975,0.04,-9.813411500000212,-0.0011894527822415278,0.0008626296600184942,-3.139213819476915e-06,-0.00953962495546503,0.00070964823247426
0.22,0.00015521889000058258,-0.7848536320000096,8.326344667553017e-06,-2.3559591799999926,0.00012179272799860857,1.571040579999997,0.7859638900000017,0.039999999,0.04,-9.813221000000214,-0.001218093605679928,0.0008459345400187068,-3.611412379470903e-06,-0.009575810469646414,0.0007328842299739642
0.2225,0.00015469896750058918,-0.7848451060000097,6.940336917070665e-06,-2.3559656149999926,0.00012303453149859275,1.5710433399999968,0.7859623825000017,0.03999999825,0.04,-9.813030500000217,-0.0012467344291183283,0.0008292394200189194,-4.083610939464891e-06,-0.009611995983827799,0.0007561202274736683
0.225,0.0001541790450005958,-0.7848365800000098,5.5543291665883114e-06,-2.3559720499999925,0.00012427633499857693,1.571046099999997,0.7859608750000018,0.0399999975,0.04,-9.812840000000218,-0.0012753752525567288,0.0008125443000191319,-4.555809499458879e-06,-0.009648181498009183,0.0007793562249733724
0.2275,0.00015365912250060244,-0.7848280540000099,4.168321416105958e-06,-2.3559784849999925,0.00012551813849856112,1.5710488599999968,0.7859593675000017,0.03999999675,0.04,-9.812649500000221,-0.001304016075995129,0.0007958491800193445,-5.028008059452867e-06,-0.009684367012190567,0.0008025922224730766
0.23,0.00015313920000060904,-0.78481952800001,2.7823136656236047e-06,-2.3559849199999925,0.0001267599419985453,1.5710516199999969,0.7859578600000018,0.039999996,0.04,-9.812459000000224,-0.0013326568994335294,0.000779154060019557,-5.500206619446855e-06,-0.009720552526371952,0.0008258282199727808
0.2325,0.00015261927750061566,-0.7848110020000101,1.3963059151412513e-06,-2.355991354999992,0.0001280017454985295,1.5710543799999968,0.7859563525000018,0.03999999525,0.04,-9.812268500000226,-0.0013612977228719297,0.0007624589400197696,-5.9724051794408426e-06,-0.009756738040553336,0.000849064217472485
0.23500000000000001,0.00015202795900075047,-0.7848024440000102,-1.7770770100356897e-07,-2.355997789999992,0.0001294115309982121,1.571057529999996,0.7859546050000022,0.039999994500000004,0.039999999,-9.81207760000023,-0.0013853953452519266,0.0007489067250143396,-6.4295758294618105e-06,-0.00978931989517098,0.0008742417649687034
0.23750000000000002,0.00015140094250075845,-0.7847938700000103,-1.8457242504823315e-06,-2.356004224999992,0.0001309053074981931,1.571060874999996,0.7859527375000023,0.039999993750000004,0.0399999975,-9.81188650000023,-0.0014072213670905738,0.0007369259625144922,-6.879232524456086e-06,-0.009820099919997117,0.0009003900874683705
0.24,0.00015077392600076645,-0.7847852960000105,-3.5137407999610756e-06,-2.356010659999992,0.00013239908399817406,1.571064219999996,0.7859508700000023,0.039999993000000005,0.039999996,-9.811695400000234,-0.0014290473889292206,0.0007249452000146449,-7.328889219450356e-06,-0.009850879944823256,0.0009265384099680372
0.2425,0.00015014690950077443,-0.7847767220000106,-5.181757349439839e-06,-2.356017094999992,0.00013389286049815503,1.571067564999996,0.7859490025000023,0.039999992250000005,0.039999994500000004,-9.811504300000236,-0.0014508734107678677,0.0007129644375147975,-7.77854591444463e-06,-0.009881659969649393,0.0009526867324677043
0.245,0.0001495198930007824,-0.7847681480000107,-6.849773898918602e-06,-2.356023529999992,0.00013538663699813602,1.5710709099999958,0.7859471350000024,0.0399999915,0.039999993000000005,-9.811313200000239,-0.001472699432606515,0.0007009836750149499,-8.228202609438907e-06,-0.009912439994475532,0.0009788350549673713
0.2475,0.0001488928765007904,-0.7847595740000108,-8.517790448397364e-06,-2.356029964999992,0.000136880413498117,1.5710742549999959,0.7859452675000024,0.03999999075,0.0399999915,-9.81112210000024,-0.0014945254544451619,0.0006890029125151025,-8.67785930443318e-06,-0.00994322001930167,0.0010049833774670384
0.25,0.00014826586000079838,-0.7847510000000109,-1.0185806997876127e-05,-2.356036399999992,0.00013837418999809798,1.5710775999999957,0.7859434000000023,0.03999999,0.03999999,-9.810931000000243,-0.001516351476283809,0.0006770221500152551,-9.127515999427456e-06,-0.009974000044127808,0.0010311316999667055
0.2525,0.00014751987850095935,-0.7847422205000113,-1.216677224745243e-05,-2.3560428799999915,0.00014014742549771958,1.5710816499999947,0.7859411455000028,0.0399999897,0.0399999897,-9.810734500000253,-0.0015364702790716116,0.0006708250275079696,-9.38605787466751e-06,-0.009998835483533952,0.0010599967399628788
0.255,0.00014677389700096884,-0.7847334410000114,-1.4147737497427208e-05,-2.3560493599999917,0.000141920660997697,1.5710856999999947,0.7859388910000029,0.0399999894,0.0399999894,-9.810538000000255,-0.0015565890818572405,0.0006646279050080486,-9.644599749664218e-06,-0.010023670922932526,0.0010888617799625112
0.2575,0.00014602791550097835,-0.7847246615000115,-1.6128702747401987e-05,-2.3560558399999914,0.00014369389649767443,1.5710897499999947,0.785936636500003,0.0399999891,0.0399999891,-9.810341500000257,-0.0015767078846428693,0.0006584307825081275,-9.903141624660926e-06,-0.010048506362331098,0.0011177268199621438
0.26,0.00014528193400098783,-0.7847158820000116,-1.8109667997376766e-05,-2.3560623199999915,0.00014546713199765183,1.5710937999999945,0.785934382000003,0.0399999888,0.0399999888,-9.81014500000026,-0.0015968266874284982,0.0006522336600082064,-1.0161683499657634e-05,-0.010073341801729672,0.0011465918599617762
0.2625,0.00014453595250099734,-0.7847071025000117,-2.0090633247351544e-05,-2.356068799999991,0.00014724036749762926,1.5710978499999946,0.7859321275000031,0.0399999885,0.0399999885,-9.809948500000262,-0.001616945490214127,0.0006460365375082853,-1.0420225374654342e-05,-0.010098177241128246,0.0011754568999614089
0.265,0.00014378997100100683,-0.7846983230000119,-2.2071598497326323e-05,-2.3560752799999913,0.00014901360299760669,1.5711018999999944,0.785929873000003,0.0399999882,0.0399999882,-9.809752000000266,-0.001637064292999756,0.0006398394150083642,-1.067876724965105e-05,-0.01012301268052682,0.0012043219399610412
0.2675,0.00014300028250119497,-0.7846894515000123,-2.416739879683174e-05,-2.3560817699999914,0.00015088942449716482,1.5711061749999935,0.7859275115000035,0.039999987800000004,0.0399999876,-9.809559250000252,-0.001652898447345347,0.0006299750570234319,-1.0902296924790861e-05,-0.010145897930462115,0.0012341965849565473
0.27,0.00014212318000120615,-0.7846803960000125,-2.6492869196802132e-05,-2.3560882799999914,0.0001529704179971383,1.5711108999999934,0.7859249360000036,0.0399999872,0.0399999864,-9.809374000000254,-0.0016601633047584896,0.000612776228023651,-1.1055802199788908e-05,-0.010164882801447013,0.001266090439956141
0.2725,0.0001412460775012173,-0.7846713405000125,-2.8818339596772524e-05,-2.3560947899999913,0.00015505141149711182,1.5711156249999934,0.7859223605000036,0.0399999866,0.0399999852,-9.809188750000256,-0.0016674281621716321,0.00059557739902387,-1.1209307474786953e-05,-0.010183867672431911,0.001297984294955735
0.275,0.00014036897500122847,-0.7846622850000127,-3.114380999674292e-05,-2.356101299999991,0.00015713240499708533,1.5711203499999933,0.7859197850000036,0.039999986,0.039999984,-9.80900350000026,-0.0016746930195847747,0.0005783785700240889,-1.1362812749784998e-05,-0.01020285254341681,0.001329878149955329
0.2775,0.00013949187250123966,-0.7846532295000128,-3.346928039671331e-05,-2.356107809999991,0.00015921339849705882,1.5711250749999932,0.7859172095000037,0.0399999854,0.0399999828,-9.808818250000263,-0.0016819578769979172,0.0005611797410243079,-1.1516318024783043e-05,-0.010221837414401708,0.001361772004954923
0.28,0.00013861477000125081,-0.784644174000013,-3.57947507966837e-05,-2.3561143199999908,0.00016129439199703233,1.5711297999999931,0.7859146340000037,0.039999984800000006,0.0399999816,-9.808633000000265,-0.0016892227344110597,0.0005439809120245269,-1.166982329978109e-05,-0.010240822285386605,0.001393665859954517
0.28250000000000003,0.00013773766750126197,-0.7846351185000131,-3.812022119665409e-05,-2.3561208299999907,0.00016337538549700585,1.571134524999993,0.7859120585000038,0.039999984200000005,0.039999980399999996,-9.808447750000267,-0.0016964875918242023,0.0005267820830247458,-1.1823328574779135e-05,-0.010259807156371504,0.001425559714954111
0.28500000000000003,0.00013676495100148133,-0.7846258300000137,-4.0696708596077944e-05,-2.3561274299999906,0.0001656804819964914,1.5711396699999922,0.7859091860000044,0.039999983600000004,0.0399999797,-9.808250300000296,-0.0017113537410933645,0.0005240339559935011,-1.2215494399257542e-05,-0.010275101754794787,0.001459331029949617
0.28750000000000003,0.00013574442750149433,-0.7846164250000138,-4.339870449604354e-05,-2.3561340749999906,0.00016809762999646063,1.571145024999992,0.7859061650000044,0.039999983,0.03999997925,-9.8080467500003,-0.0017300205363152167,0.000528511179993444,-1.2726990499251029e-05,-0.010288551216925282,0.0014940410749491751
0.29,0.00013472390400150734,-0.7846070200000139,-4.6100700396009076e-05,-2.35614071999999,0.0001705147779964298,1.571150379999992,0.7859031440000045,0.0399999824,0.039999978799999995,-9.8078432000003,-0.0017486873315370687,0.000532988403993387,-1.3238486599244506e-05,-0.010302000679055774,0.0015287511199487324
0.2925,0.00013370338050152034,-0.784597615000014,-4.880269629597468e-05,-2.3561473649999902,0.00017293192599639903,1.5711557349999918,0.7859001230000044,0.0399999818,0.03999997835,-9.807639650000304,-0.0017673541267589211,0.00053746562799333,-1.3749982699237993e-05,-0.010315450141186268,0.0015634611649482904
0.295,0.0001326828570015333,-0.7845882100000141,-5.1504692195940276e-05,-2.3561540099999903,0.00017534907399636827,1.571161089999992,0.7858971020000045,0.0399999812,0.0399999779,-9.807436100000306,-0.0017860209219807733,0.0005419428519932729,-1.4261478799231482e-05,-0.010328899603316762,0.0015981712099478484
0.2975,0.0001316623335015463,-0.7845788050000142,-5.420668809590587e-05,-2.35616065499999,0.00017776622199633748,1.5711664449999918,0.7858940810000046,0.0399999806,0.03999997745,-9.80723255000031,-0.0018046877172026258,0.000546420075993216,-1.4772974899224969e-05,-0.010342349065447256,0.0016328812549474066
0.3,0.00013064181000155931,-0.7845694000000143,-5.6908683995871476e-05,-2.35616729999999,0.0001801833699963067,1.5711717999999917,0.7858910600000046,0.03999998,0.039999977,-9.80702900000031,-0.001823354512424478,0.000550897299993159,-1.5284470999218456e-05,-0.01035579852757775,0.0016675912999469646
0.3025,0.0001294653795018125,-0.7845595090000153,-6.0019617395207023e-05,-2.356174454999989,0.00018296566449571336,1.5711781449999902,0.7858875815000054,0.039999979549999995,0.0399999764,-9.806848550000279,-0.0018282888340687027,0.0005523163599978136,-1.5636609499457463e-05,-0.010364581923918228,0.0017052798649419337
0.305,0.00012828894900182748,-0.7845496180000153,-6.313055079516742e-05,-2.356181609999989,0.00018574795899567792,1.57118448999999,0.7858841030000054,0.0399999791,0.039999975800000004,-9.80666810000028,-0.001833223155691945,0.0005537354199977955,-1.5988747999452982e-05,-0.010373365320251576,0.0017429684299414539
0.3075,0.00012711251850184245,-0.7845397270000155,-6.62414841951278e-05,-2.356188764999989,0.0001885302534956425,1.57119083499999,0.7858806245000054,0.03999997865,0.0399999752,-9.806487650000282,-0.0018381574773151871,0.0005551544799977775,-1.6340886499448498e-05,-0.010382148716584924,0.001780656994940974
0.31,0.00012593608800185745,-0.7845298360000156,-6.93524175950882e-05,-2.3561959199999887,0.00019131254799560708,1.57119717999999,0.7858771460000055,0.0399999782,0.0399999746,-9.806307200000285,-0.0018430917989384293,0.0005565735399977594,-1.6693024999444014e-05,-0.010390932112918272,0.0018183455599404942
0.3125,0.00012475965750187242,-0.7845199450000158,-7.246335099504859e-05,-2.3562030749999887,0.00019409484249557164,1.5712035249999898,0.7858736675000055,0.03999997775,0.039999974,-9.806126750000287,-0.0018480261205616713,0.0005579925999977414,-1.704516349943953e-05,-0.01039971550925162,0.0018560341249400144
0.315,0.00012358322700188742,-0.7845100540000159,-7.557428439500899e-05,-2.3562102299999887,0.00019687713699553623,1.5712098699999897,0.7858701890000056,0.0399999773,0.0399999734,-9.80594630000029,-0.0018529604421849135,0.0005594116599977232,-1.739730199943505e-05,-0.010408498905584969,0.0018937226899395346
0.3175,0.00012235063550218708,-0.7844999940000169,-7.883243379422288e-05,-2.356217489999988,0.00019979087949483423,1.5712165049999882,0.7858665515000065,0.0399999768,0.03999997285,-9.805777300000237,-0.0018560044583876328,0.0005571514600156417,-1.777192524931767e-05,-0.010415831906713734,0.0019324127399338261
0.32,0.0001210057220022409,-0.7844895960000173,-8.238501519408073e-05,-2.3562249599999876,0.0002029675179947071,1.5712237199999879,0.7858625960000066,0.0399999762,0.0399999724,-9.805631200000244,-0.0018552678637218673,0.0005475327400160266,-1.819151799930088e-05,-0.010420264117412276,0.0019731057599321976
0.3225,0.00011966080850229471,-0.7844791980000178,-8.593759659393856e-05,-2.3562324299999875,0.00020614415649458,1.5712309349999878,0.7858586405000068,0.0399999756,0.039999971950000004,-9.805485100000249,-0.0018545312690561018,0.0005379140200164115,-1.8611110749284088e-05,-0.010424696328110819,0.002013798779930569
0.325,0.00011831589500234853,-0.7844688000000182,-8.949017799379639e-05,-2.356239899999987,0.00020932079499445287,1.5712381499999875,0.7858546850000069,0.039999975,0.0399999715,-9.805339000000256,-0.0018537946743903363,0.0005282953000167964,-1.9030703499267296e-05,-0.010429128538809361,0.0020544917999289407
0.3275,0.00011697098150240234,-0.7844584020000186,-9.304275939365422e-05,-2.356247369999987,0.00021249743349432577,1.5712453649999871,0.785850729500007,0.0399999744,0.039999971050000006,-9.805192900000261,-0.0018530580797245708,0.0005186765800171813,-1.9450296249250505e-05,-0.010433560749507903,0.002095184819927312
0.33,0.00011562606800245616,-0.784448004000019,-9.659534079351207e-05,-2.3562548399999863,0.00021567407199419864,1.5712525799999868,0.7858467740000072,0.039999973800000005,0.039999970600000004,-9.805046800000268,-0.0018523214850588053,0.0005090578600175662,-1.9869888999233714e-05,-0.010437992960206446,0.0021358778399256837
0.3325,0.00011428115450250997,-0.7844376060000194,-0.0001001479221933699,-2.356262309999986,0.00021885071049407152,1.5712597949999867,0.7858428185000074,0.039999973200000004,0.03999997015,-9.804900700000273,-0.0018515848903930398,0.0004994391400179512,-2.0289481749216923e-05,-0.010442425170904988,0.0021765708599240556
0.335,0.00011281548600285357,-0.7844267660000207,-0.00010401686139246963,-2.3562698799999855,0.00022230978299326779,1.5712676599999846,0.7858385100000084,0.039999972700000004,0.039999969600000004,-9.804746900000294,-0.0018395420862692498,0.00048676726202654985,-2.0799921398960583e-05,-0.010443785786628978,0.0022192785599182566
0.3375,0.00011128944000283137,-0.7844157050000206,-0.00010804397949252823,-2.356277499999986,0.00022591007249332017,1.5712758499999848,0.7858340250000083,0.03999997225,0.039999969,-9.804589250000292,-0.0018218461773686324,0.00047256880502634325,-2.1355784498968674e-05,-0.0104436106048527,0.002262993599918893
0.34,0.00010976339400280915,-0.7844046440000203,-0.00011207109759258685,-2.3562851199999857,0.00022951036199337258,1.571284039999985,0.7858295400000083,0.039999971800000006,0.0399999684,-9.80443160000029,-0.0018041502684680148,0.0004583703480261366,-2.1911647598976764e-05,-0.010443435423076422,0.002306708639919529
0.3425,0.00010823734800278695,-0.7843935830000202,-0.00011609821569264545,-2.356292739999986,0.00023311065149342496,1.571292229999985,0.7858250550000082,0.03999997135,0.0399999678,-9.804273950000288,-0.0017864543595673972,0.00044417189102593,-2.246751069898485e-05,-0.010443260241300144,0.0023504236799201652
0.34500000000000003,0.00010671130200276474,-0.78438252200002,-0.00012012533379270405,-2.356300359999986,0.00023671094099347737,1.5713004199999852,0.7858205700000082,0.0399999709,0.0399999672,-9.804116300000286,-0.0017687584506667798,0.00042997343402572335,-2.302337379899294e-05,-0.010443085059523868,0.002394138719920801
0.34750000000000003,0.00010518525600274254,-0.7843714610000199,-0.00012415245189276267,-2.356307979999986,0.00024031123049352975,1.5713086099999853,0.7858160850000081,0.039999970450000005,0.0399999666,-9.803958650000283,-0.0017510625417661622,0.00041577497702551675,-2.357923689900103e-05,-0.01044290987774759,0.002437853759921437
0.35000000000000003,0.00010365921000272032,-0.7843604000000197,-0.00012817956999282127,-2.356315599999986,0.00024391151999358216,1.5713167999999853,0.785811600000008,0.03999997,0.039999966,-9.80380100000028,-0.0017333666328655445,0.0004015765200253101,-2.413509999900912e-05,-0.010442734695971312,0.0024815687999220734
0.3525,0.00010193930700308783,-0.784348655000021,-0.0001327142664918586,-2.3563236549999855,0.00024796502699272257,1.5713260549999835,0.7858065450000091,0.039999968500000004,0.0399999642,-9.803591225000376,-0.001728166569964906,0.000406068659991935,-2.465175099907243e-05,-0.010437172465036351,0.002528445989915839
0.355,0.00010021940400310973,-0.7843369100000211,-0.00013724896299180088,-2.3563317099999854,0.00025201853399267095,1.5713353099999832,0.7858014900000092,0.039999967000000004,0.0399999624,-9.80338145000038,-0.001722966507086542,0.00041056079999187784,-2.516840199906585e-05,-0.010431610234091787,0.002575323179915242
0.3575,9.849950100313163e-05,-0.7843251650000214,-0.00014178365949174315,-2.3563397649999853,0.00025607204099261933,1.571344564999983,0.7857964350000093,0.039999965500000005,0.0399999606,-9.803171675000382,-0.0017177664442081784,0.0004150529399918206,-2.5685052999059272e-05,-0.010426048003147222,0.0026222003699146452
0.36,9.677959800315352e-05,-0.7843134200000215,-0.00014631835599168542,-2.356347819999985,0.0002601255479925677,1.571353819999983,0.7857913800000093,0.039999964000000006,0.0399999588,-9.802961900000385,-0.0017125663813298145,0.00041954507999176344,-2.6201703999052693e-05,-0.010420485772202658,0.0026690775599140485
0.3625,9.505969500317543e-05,-0.7843016750000217,-0.0001508530524916277,-2.356355874999985,0.0002641790549925161,1.571363074999983,0.7857863250000093,0.03999996250000001,0.039999957,-9.802752125000387,-0.0017073663184514506,0.0004240372199917062,-2.6718354999046117e-05,-0.010414923541258093,0.0027159547499134517
0.365,9.333979200319733e-05,-0.7842899300000218,-0.00015538774899156996,-2.356363929999985,0.0002682325619924645,1.5713723299999829,0.7857812700000094,0.03999996100000001,0.0399999552,-9.80254235000039,-0.001702166255573087,0.00042852935999164904,-2.7235005999039538e-05,-0.01040936131031353,0.0027628319399128545
0.3675,9.15510270036059e-05,-0.7842779120000235,-0.00016010266449050024,-2.3563721949999836,0.00027244691499150967,1.5713819499999806,0.7857760150000106,0.0399999599,0.0399999538,-9.802348575000302,-0.0016916115535820407,0.0004300770310081257,-2.777790889888555e-05,-0.01040236451664921,0.0028106788349068126
0.37,8.962453800363042e-05,-0.7842653480000237,-0.00016517801799043562,-2.3563808799999837,0.00027698295999145194,1.5713922999999805,0.7857703600000107,0.0399999596,0.0399999532,-9.802186800000305,-0.0016703475732756314,0.000425735764008181,-2.837331559887797e-05,-0.010392498597521272,0.002860465139906179
0.3725,8.769804900365495e-05,-0.7842527840000239,-0.000170253371490371,-2.3563895649999833,0.00028151900499139417,1.5714026499999805,0.7857647050000107,0.0399999593,0.0399999526,-9.802025025000306,-0.001649083592969222,0.0004213944970082363,-2.896872229887039e-05,-0.010382632678393332,0.002910251444905545
0.375,8.577156000367947e-05,-0.784240220000024,-0.00017532872499030638,-2.3563982499999834,0.00028605504999133644,1.5714129999999802,0.7857590500000108,0.039999959,0.039999952,-9.801863250000308,-0.0016278196126628128,0.00041705323000829157,-2.956412899886281e-05,-0.010372766759265392,0.002960037749904911
0.3775,8.384507100370401e-05,-0.7842276560000242,-0.00018040407849024176,-2.3564069349999834,0.00029059109499127866,1.5714233499999801,0.7857533950000108,0.039999958700000005,0.0399999514,-9.80170147500031,-0.0016065556323564037,0.00041271196300834685,-3.015953569885523e-05,-0.010362900840137454,0.0030098240549042772
0.38,8.191858200372853e-05,-0.7842150920000243,-0.00018547943199017714,-2.3564156199999835,0.00029512713999122094,1.57143369999998,0.7857477400000109,0.0399999584,0.0399999508,-9.801539700000312,-0.0015852916520499945,0.0004083706960084021,-3.075494239884765e-05,-0.010353034921009514,0.0030596103599036437
0.3825,7.999209300375306e-05,-0.7842025280000244,-0.00019055478549011252,-2.356424304999983,0.00029966318499116316,1.57144404999998,0.785742085000011,0.0399999581,0.0399999502,-9.801377925000315,-0.0015640276717435852,0.00040402942900845737,-3.135034909884007e-05,-0.010343169001881574,0.0031093966649030098
0.385,7.791939400420763e-05,-0.7841893760000264,-0.00019601264298892284,-2.3564330799999826,0.0003045406469901012,1.5714551799999774,0.7857359860000124,0.039999957600000004,0.0399999497,-9.80124240000024,-0.0015277021798233363,0.0003837078310555156,-3.1942862198840996e-05,-0.010330968722727232,0.0031612083698964186
0.3875,7.577359000423496e-05,-0.7841759300000265,-0.0002016617524888509,-2.3564418999999828,0.00030958881749003695,1.5714666999999773,0.7857296650000125,0.039999957,0.03999994925,-9.80112000000024,-0.0014838459320300047,0.00035539606755587605,-3.253392849883347e-05,-0.010317601263549431,0.003214032774895746
0.39,7.362778600426228e-05,-0.7841624840000267,-0.000207310861988779,-2.3564507199999825,0.0003146369879899727,1.5714782199999773,0.7857233440000125,0.0399999564,0.039999948800000004,-9.800997600000242,-0.001439989684236673,0.0003270843040562365,-3.3124994798825947e-05,-0.010304233804371631,0.0032668571798950734
0.3925,7.14819820042896e-05,-0.7841490380000269,-0.00021295997148870709,-2.356459539999982,0.00031968515848990837,1.571489739999977,0.7857170230000127,0.0399999558,0.03999994835,-9.800875200000245,-0.0013961334364433415,0.000298772540556597,-3.371606109881842e-05,-0.010290866345193833,0.003319681584894401
0.395,6.933617800431691e-05,-0.784135592000027,-0.00021860908098863516,-2.3564683599999823,0.0003247333289898441,1.571501259999977,0.7857107020000127,0.0399999552,0.0399999479,-9.800752800000247,-0.0013522771886500097,0.00027046077705695744,-3.43071273988109e-05,-0.010277498886016033,0.0033725059898937282
0.3975,6.719037400434423e-05,-0.7841221460000272,-0.00022425819048856323,-2.356477179999982,0.00032978149948977985,1.5715127799999768,0.7857043810000128,0.0399999546,0.039999947450000004,-9.800630400000248,-0.0013084209408566782,0.00024214901355731794,-3.489819369880337e-05,-0.010264131426838232,0.0034253303948930556
0.4,6.504457000437155e-05,-0.7841087000000274,-0.0002299072999884913,-2.356485999999982,0.0003348296699897156,1.5715242999999766,0.7856980600000129,0.039999954,0.039999947,-9.80050800000025,-0.0012645646930633464,0.0002138372500576784,-3.548925999879585e-05,-0.010250763967660434,0.003478154799892383
0.4025,6.266673805487453e-05,-0.7840942340000296,-0.00023616316998717552,-2.3564958399999796,0.00034041942148854107,1.571537079999974,0.7856910685000144,0.039999953399999996,0.0399999464,-9.800279625000469,-0.0012370293727708272,0.00021665412849422542,-3.599211879896915e-05,-0.01023167083043789,0.0035340068348855037
0.405,6.028890610490481e-05,-0.7840797680000299,-0.00024241903998709587,-2.3565056799999797,0.0003460091729884699,1.5715498599999738,0.7856840770000144,0.0399999528,0.039999945800000006,-9.800051250000472,-0.0012094940525115578,0.00021947100699418957,-3.6494977598962746e-05,-0.010212577693203684,0.0035898588698847927
0.40750000000000003,5.791107415493508e-05,-0.78406530200003,-0.00024867490998701624,-2.3565155199999794,0.0003515989244883987,1.5715626399999736,0.7856770855000145,0.0399999522,0.039999945200000005,-9.799822875000475,-0.0011819587322522884,0.0002222878854941537,-3.699783639895634e-05,-0.010193484555969476,0.0036457109048840817
0.41000000000000003,5.553324220496536e-05,-0.7840508360000302,-0.0002549307799869366,-2.3565253599999796,0.0003571886759883275,1.5715754199999734,0.7856700940000146,0.0399999516,0.039999944600000004,-9.799594500000477,-0.001154423411993019,0.00022510476399411784,-3.750069519894994e-05,-0.01017439141873527,0.0037015629398833706
0.41250000000000003,5.315541025499563e-05,-0.7840363700000303,-0.00026118664998685693,-2.3565351999999793,0.0003627784274882564,1.5715881999999732,0.7856631025000147,0.039999951,0.039999944,-9.79936612500048,-0.0011268880917337494,0.00022792164249408196,-3.800355399894354e-05,-0.010155298281501062,0.0037574149748826596
0.41500000000000004,5.077757830502591e-05,-0.7840219040000306,-0.0002674425199867773,-2.356545039999979,0.0003683681789881852,1.571600979999973,0.7856561110000148,0.0399999504,0.0399999434,-9.799137750000483,-0.00109935277147448,0.0002307385209940461,-3.850641279893713e-05,-0.010136205144266856,0.003813267009881948
0.4175,4.831818565557653e-05,-0.784007095000033,-0.0002739116129853373,-2.3565549699999786,0.00037414822098690004,1.5716142149999701,0.7856488810000164,0.039999950199999995,0.0399999432,-9.79895572500019,-0.0010644861730868592,0.00022525847954693804,-3.902319889884187e-05,-0.010116588138087771,0.0038701261148748117
0.42,4.569567160560992e-05,-0.7839916000000332,-0.0002808071519852495,-2.3565650799999784,0.00038030884398682156,1.5716283599999699,0.7856411740000165,0.039999950799999996,0.0399999438,-9.798866400000191,-0.0010149570183025098,0.00020318459804721909,-3.956783959883494e-05,-0.010095923394008924,0.003928999359874062
0.4225,4.307315755564331e-05,-0.7839761050000333,-0.0002877026909851617,-2.3565751899999783,0.00038646946698674313,1.5716425049999696,0.7856334670000166,0.0399999514,0.0399999444,-9.798777075000192,-0.0009654278635181603,0.0001811107165475001,-4.0112480298828004e-05,-0.010075258649930077,0.003987872604873313
0.425,4.0450643505676704e-05,-0.7839606100000336,-0.00029459822998507393,-2.356585299999978,0.0003926300899866647,1.5716566499999696,0.7856257600000167,0.039999952,0.039999945,-9.798687750000193,-0.000915898708733811,0.00015903683504778115,-4.065712099882107e-05,-0.010054593905851231,0.004046745849872563
0.4275,3.782812945571009e-05,-0.7839451150000337,-0.0003014937689849861,-2.356595409999978,0.00039879071298658627,1.5716707949999693,0.7856180530000167,0.0399999526,0.0399999456,-9.798598425000195,-0.0008663695539494616,0.0001369629535480622,-4.120176169881414e-05,-0.010033929161772384,0.004105619094871813
0.43,3.520561540574348e-05,-0.783929620000034,-0.00030838930798489833,-2.356605519999978,0.00040495133598650784,1.571684939999969,0.7856103460000169,0.039999953199999994,0.0399999462,-9.798509100000196,-0.0008168403991651121,0.00011488907204834325,-4.1746402398807204e-05,-0.010013264417693537,0.004164492339871064
0.4325,3.258310135577687e-05,-0.7839141250000341,-0.0003152848469848105,-2.3566156299999776,0.0004111119589864294,1.571699084999969,0.7856026390000169,0.039999953799999995,0.0399999468,-9.798419775000196,-0.0007673112443807627,9.28151905486243e-05,-4.229104309880027e-05,-0.00999259967361469,0.004223365584870314
0.435,2.978906560643266e-05,-0.7838978840000371,-0.0003226286599830953,-2.3566263299999752,0.00041767267998489837,1.5717141199999656,0.7855944230000189,0.039999954399999996,0.039999947,-9.798251400000463,-0.000710166199268912,6.90835545548613e-05,-4.2838809998772955e-05,-0.009967941697746419,0.004284324669861506
0.4375,2.69092690065479e-05,-0.7838812700000378,-0.00033019660998279246,-2.356637324999975,0.0004244334499846278,1.5717295999999648,0.7855859525000193,0.039999955,0.039999947,-9.798043500000473,-0.0006492132089554911,4.4523041305844135e-05,-4.338813999875097e-05,-0.009941287105963606,0.004346326674859024
0.44,2.4029472406663138e-05,-0.7838646560000384,-0.00033776455998248963,-2.3566483199999744,0.00043119421998435726,1.5717450799999642,0.7855774820000196,0.0399999556,0.039999947,-9.79783560000048,-0.0005882602186420702,1.9962528056826967e-05,-4.3937469998728985e-05,-0.009914632514180791,0.004408328679856543
0.4425,2.114967580677838e-05,-0.7838480420000391,-0.0003453325099821868,-2.356659314999974,0.00043795498998408673,1.5717605599999636,0.7855690115000199,0.0399999562,0.039999947,-9.797627700000488,-0.0005273072283286494,-4.597985192190195e-06,-4.4486799998707e-05,-0.009887977922397978,0.004470330684854062
0.445,1.826987920689362e-05,-0.7838314280000398,-0.0003529004599818839,-2.356670309999974,0.00044471575998381615,1.571776039999963,0.7855605410000203,0.0399999568,0.039999947,-9.797419800000498,-0.0004663542380152285,-2.9158498441207356e-05,-4.503612999868502e-05,-0.009861323330615165,0.00453233268985158
0.4475,1.539008260700886e-05,-0.7838148140000404,-0.0003604684099815811,-2.3566813049999733,0.00045147652998354563,1.5717915199999624,0.7855520705000206,0.0399999574,0.039999947,-9.797211900000505,-0.00040540124770180764,-5.371901169022453e-05,-4.558545999866304e-05,-0.00983466873883235,0.0045943346948490995
0.45,1.2510286007124099e-05,-0.7837982000000411,-0.00036803635998127826,-2.356692299999973,0.00045823729998327505,1.5718069999999618,0.785543600000021,0.039999958,0.039999947,-9.797004000000515,-0.00034444825738838683,-7.827952493924168e-05,-4.613478999864105e-05,-0.009808014147049538,0.004656336699846619
0.4525,9.36070030765974e-06,-0.7837803350000434,-0.00037630922897988054,-2.356704284999971,0.00046562704998202826,1.5718239799999587,0.7855343600000225,0.0399999583,0.03999994745,-9.796916250000212,-0.000259823096190507,-0.00012850933712784193,-4.665865974872595e-05,-0.00977895744151981,0.00472119329484227
0.455,6.211114607527968e-06,-0.7837624700000427,-0.00038458209798022665,-2.3567162699999713,0.0004730167999823374,1.5718409599999594,0.7855251200000221,0.0399999586,0.0399999479,-9.79682850000021,-0.00017519793493406645,-0.00017873914937994342,-4.718252949874787e-05,-0.009749900735984139,0.004786049889844984
0.4575,3.0615289073961973e-06,-0.783744605000042,-0.00039285496698057275,-2.3567282549999717,0.00048040654998264656,1.5718579399999602,0.7855158800000217,0.0399999589,0.03999994835,-9.796740750000206,-9.057277367762595e-05,-0.0002289689616320449,-4.7706399248769794e-05,-0.00972084403044847,0.004850906484847697
0.46,-8.80567927355736e-08,-0.7837267400000412,-0.00040112783598091886,-2.3567402399999726,0.0004877962999829557,1.5718749199999609,0.7855066400000214,0.039999959200000004,0.0399999488,-9.796653000000202,-5.947612421185395e-06,-0.0002791987738841464,-4.823026899879171e-05,-0.009691787324912798,0.00491576307985041
0.4625,-3.237642492867346e-06,-0.7837088750000404,-0.00040940070498126496,-2.356752224999973,0.0004951860499832649,1.5718918999999616,0.7854974000000209,0.0399999595,0.03999994925,-9.7965652500002,7.867754883525511e-05,-0.0003294285861362479,-4.875413874881363e-05,-0.009662730619377127,0.004980619674853124
0.465,-6.387228192999115e-06,-0.7836910100000397,-0.00041767357398161107,-2.3567642099999735,0.0005025757999835741,1.5719088799999623,0.7854881600000205,0.0399999598,0.039999949699999995,-9.796477500000195,0.0001633027100916956,-0.0003796583983883494,-4.9278008498835545e-05,-0.009633673913841458,0.0050454762698558375
0.4675,-9.63088174245299e-06,-0.783672725000042,-0.0004261921789801855,-2.3567763249999727,0.0005101848169823022,1.5719263549999596,0.7854786465000221,0.0399999603,0.039999950199999995,-9.796374250000296,0.0002421500858301904,-0.00041947267145825315,-4.9824331748699796e-05,-0.009603922115707332,0.0051113192698508635
0.47000000000000003,-1.3062670992409296e-05,-0.7836536000000422,-0.0004352022559800708,-2.3567886999999725,0.0005182323679821997,1.5719448199999593,0.7854685860000222,0.039999961199999996,0.039999950799999996,-9.796240000000298,0.00030944189041865865,-0.00043845586595801144,-5.041556199869227e-05,-0.009572780132362563,0.0051791350798499995
0.47250000000000003,-1.6494460242365603e-05,-0.7836344750000426,-0.0004442123329799561,-2.3568010749999724,0.0005262799189820973,1.571963284999959,0.7854585255000224,0.0399999621,0.0399999514,-9.796105750000299,0.00037673369500712685,-0.0004574390604577698,-5.1006792248684746e-05,-0.009541638149017794,0.0052469508898491364
0.47500000000000003,-1.992624949232191e-05,-0.7836153500000428,-0.00045322240997984134,-2.356813449999972,0.0005343274699819949,1.5719817499999587,0.7854484650000225,0.039999963,0.039999952,-9.7959715000003,0.00044402549959559506,-0.00047642225495752807,-5.1598022498677214e-05,-0.009510496165673026,0.0053147666998482725
0.47750000000000004,-2.3358038742278214e-05,-0.783596225000043,-0.00046223248697972665,-2.356825824999972,0.0005423750209818924,1.5720002149999586,0.7854384045000226,0.0399999639,0.0399999526,-9.795837250000302,0.0005113173041840633,-0.0004954054494572864,-5.218925274866969e-05,-0.009479354182328257,0.005382582509847409
0.48,-2.6789827992234445e-05,-0.7835771000000433,-0.00047124256397961174,-2.356838199999972,0.0005504225719817898,1.5720186799999583,0.7854283440000227,0.039999964799999996,0.039999953199999994,-9.795703000000303,0.00057860910877253,-0.0005143886439570443,-5.278048299866215e-05,-0.00944821219898349,0.005450398319846545
0.4825,-3.022161724219075e-05,-0.7835579750000435,-0.000480252640979497,-2.3568505749999717,0.0005584701229816874,1.572037144999958,0.7854182835000229,0.039999965699999994,0.039999953799999995,-9.795568750000307,0.0006459009133609983,-0.0005333718384568026,-5.337171324865462e-05,-0.009417070215638722,0.005518214129845681
0.485,-3.384975069140533e-05,-0.7835379240000473,-0.0004897755149774443,-2.356863589999969,0.0005669752259798554,1.572056659999954,0.7854076410000251,0.039999966399999996,0.039999954399999996,-9.795393000000454,0.0007306895682292682,-0.0005686280328999155,-5.395955479864806e-05,-0.009382402617568267,0.0055879824098368286
0.4875,-3.757605624125622e-05,-0.7835174100000482,-0.0004995547874770529,-2.356876924999969,0.000575709104979506,1.572076699999953,0.7853967075000257,0.039999967,0.039999955,-9.795196500000461,0.0008242266483271902,-0.000612020727398179,-5.454570199862461e-05,-0.009345972212116884,0.005658726924833998
0.49,-4.130236179110711e-05,-0.7834968960000489,-0.0005093340599766616,-2.356890259999968,0.0005844429839791565,1.5720967399999521,0.7853857740000261,0.0399999676,0.0399999556,-9.795000000000469,0.000917763728425112,-0.0006554134218964426,-5.513184919860115e-05,-0.009309541806665503,0.005729471439831167
0.4925,-4.5028667340957996e-05,-0.7834763820000498,-0.0005191133324762702,-2.3569035949999675,0.000593176862978807,1.5721167799999514,0.7853748405000265,0.0399999682,0.0399999562,-9.794803500000477,0.001011300808523034,-0.0006988061163947061,-5.5717996398577696e-05,-0.00927311140121412,0.005800215954828336
0.495,-4.875497289080888e-05,-0.7834558680000505,-0.000528892604975879,-2.3569169299999673,0.0006019107419784575,1.5721368199999506,0.7853639070000269,0.0399999688,0.0399999568,-9.794607000000484,0.001104837888620956,-0.0007421988108929698,-5.630414359855424e-05,-0.009236680995762737,0.0058709604698255055
0.4975,-5.2481278440659765e-05,-0.7834353540000514,-0.0005386718774754876,-2.3569302649999666,0.0006106446209781079,1.5721568599999498,0.7853529735000274,0.0399999694,0.0399999574,-9.794410500000494,0.001198374968718878,-0.0007855915053912333,-5.689029079853078e-05,-0.009200250590311355,0.005941704984822674
0.5,-5.620758399051065e-05,-0.7834148400000522,-0.0005484511499750963,-2.3569435999999664,0.0006193784999777585,1.572176899999949,0.7853420400000278,0.03999997,0.039999958,-9.794214000000501,0.0012919120488167997,-0.0008289841998894968,-5.7476437998507326e-05,-0.009163820184859972,0.006012449499819843
0.5025000000000001,-6.024058238956833e-05,-0.7833929490000566,-0.0005590312514726337,-2.356958059999963,0.0006288270299755607,1.572198544999944,0.7853302200000305,0.03999997045,0.039999958,-9.7940980500003,0.0013988065996235436,-0.000881855569863244,-5.799170509866722e-05,-0.009124992974202883,0.0060862240748091765
0.505,-6.427358078940686e-05,-0.7833710580000575,-0.0005696113529722101,-2.356972519999962,0.0006382755599751823,1.5722201899999433,0.7853184000000311,0.0399999709,0.039999958,-9.793982100000305,0.0015057011504642987,-0.0009347269398611271,-5.850697219864659e-05,-0.009086165763539693,0.006159998649806223
0.5075000000000001,-6.830657918924556e-05,-0.7833491670000584,-0.0005801914544717869,-2.3569869799999617,0.0006477240899748044,1.5722418349999423,0.7853065800000315,0.03999997135,0.039999958,-9.793866150000309,0.0016125957013050586,-0.0009875983098590125,-5.9022239298625984e-05,-0.009047338552876502,0.006233773224803272
0.51,-7.233957758908408e-05,-0.7833272760000592,-0.0005907715559713633,-2.357001439999961,0.0006571726199744261,1.5722634799999415,0.785294760000032,0.0399999718,0.039999958,-9.793750200000314,0.0017194902521458135,-0.0010404696798568956,-5.953750639860535e-05,-0.009008511342213312,0.006307547799800318
0.5125,-7.637257598892261e-05,-0.7833053850000602,-0.0006013516574709396,-2.3570158999999604,0.0006666211499740478,1.5722851249999406,0.7852829400000325,0.03999997225,0.039999958,-9.793634250000318,0.0018263848029865686,-0.0010933410498547786,-6.0052773498584716e-05,-0.00896968413155012,0.006381322374797364
0.515,-8.04055743887613e-05,-0.783283494000061,-0.0006119317589705166,-2.3570303599999596,0.0006760696799736699,1.5723067699999396,0.785271120000033,0.0399999727,0.039999958,-9.793518300000322,0.0019332793538273285,-0.001146212419852664,-6.056804059856411e-05,-0.008930856920886928,0.006455096949794414
0.5175,-8.454481448777804e-05,-0.7832611000000658,-0.0006227892569679481,-2.3570451499999567,0.0006857656584713785,1.5723289999999344,0.7852589930000358,0.0399999732,0.0399999581,-9.793416550000206,0.0020500864829755532,-0.0012091869597663837,-6.109239739847626e-05,-0.008891312778111133,0.006529784249785111
0.52,-8.889653798784146e-05,-0.7832377000000654,-0.0006342015479681145,-2.357060599999957,0.000695956533971527,1.5723523999999347,0.7852462520000356,0.0399999738,0.0399999584,-9.793343200000205,0.0021867187689897146,-0.001292367839767596,-6.163493359848417e-05,-0.008850334771091971,0.006606296999786226
0.5225,-9.324826148790469e-05,-0.7832143000000651,-0.0006456138389682803,-2.3570760499999572,0.0007061474094716752,1.572375799999935,0.7852335110000355,0.0399999744,0.0399999587,-9.793269850000204,0.0023233510550038704,-0.0013755487197688048,-6.217746979849206e-05,-0.008809356764072811,0.006682809749787339
0.525,-9.759998498796811e-05,-0.7831909000000647,-0.0006570261299684466,-2.3570914999999575,0.0007163382849718237,1.5723991999999354,0.7852207700000352,0.039999975,0.039999959,-9.793196500000203,0.0024599833410180317,-0.001458729599770017,-6.272000599849996e-05,-0.008768378757053647,0.006759322499788454
0.5275,-0.00010195170848803134,-0.7831675000000644,-0.0006684384209686124,-2.3571069499999577,0.0007265291604719717,1.5724225999999357,0.7852080290000351,0.0399999756,0.0399999593,-9.793123150000202,0.002596615627032187,-0.0015419104797712256,-6.326254219850784e-05,-0.008727400750034487,0.006835835249789565
0.53,-0.00010630343198809477,-0.7831441000000641,-0.0006798507119687788,-2.357122399999958,0.0007367200359721203,1.572445999999936,0.7851952880000349,0.039999976199999995,0.0399999596,-9.793049800000201,0.0027332479130463484,-0.0016250913597724381,-6.380507839851575e-05,-0.008686422743015326,0.00691234799979068
0.5325,-0.000110655155488158,-0.7831207000000637,-0.0006912630029689447,-2.3571378499999582,0.0007469109114722684,1.5724693999999364,0.7851825470000346,0.039999976799999996,0.0399999599,-9.7929764500002,0.0028698801990605038,-0.0017082722397736467,-6.434761459852363e-05,-0.008645444735996165,0.0069888607497917915
0.535,-0.00011522729298724139,-0.7830962500000681,-0.0007032506899665517,-2.357153579999957,0.0007576151369701334,1.5724940099999314,0.7851691700000373,0.039999977,0.03999996,-9.792850200000416,0.002991770580098844,-0.0017678383298698655,-6.489164199851557e-05,-0.008602689765512641,0.007067260399783803
0.5375,-0.00011990963748718166,-0.7830712750000683,-0.000715526074966395,-2.3571694499999567,0.0007685760374699936,1.572519224999931,0.7851554750000375,0.039999977,0.03999996,-9.792697500000418,0.003106290008559168,-0.0018155970248692564,-6.543641499850864e-05,-0.008559046313286078,0.007146603499782791
0.54,-0.00012459198198712216,-0.7830463000000687,-0.0007278014599662391,-2.3571853199999566,0.0007795369379698542,1.5725444399999307,0.7851417800000376,0.039999977,0.03999996,-9.79254480000042,0.0032208094370194977,-0.0018633557198686494,-6.598118799850171e-05,-0.008515402861059514,0.007225946599781783
0.5425,-0.00012927432648706242,-0.783021325000069,-0.0007400768449660824,-2.357201189999956,0.0007904978384697145,1.5725696549999304,0.7851280850000378,0.039999977,0.03999996,-9.792392100000422,0.0033353288654798217,-0.0019111144148680403,-6.652596099849476e-05,-0.008471759408832949,0.007305289699780771
0.545,-0.00013395667098700293,-0.7829963500000694,-0.0007523522299659265,-2.357217059999956,0.0008014587389695751,1.57259486999993,0.785114390000038,0.039999977,0.03999996,-9.792239400000424,0.003449848293940151,-0.001958873109867433,-6.707073399848784e-05,-0.008428115956606384,0.007384632799779762
0.5475,-0.0001386390154869432,-0.7829713750000696,-0.0007646276149657699,-2.3572329299999555,0.0008124196394694353,1.5726200849999297,0.7851006950000382,0.039999977,0.03999996,-9.792086700000425,0.0035643677224004755,-0.002006631804866824,-6.76155069984809e-05,-0.008384472504379821,0.00746397589977875
0.55,-0.0001433213599868837,-0.78294640000007,-0.0007769029999656139,-2.3572487999999554,0.000823380539969296,1.5726452999999294,0.7850870000000384,0.039999977,0.03999996,-9.791934000000428,0.0036788871508608052,-0.002054390499866217,-6.816027999847398e-05,-0.008340829052153255,0.007543318999777742
0.5525,-0.00014834607498586053,-0.7829197840000749,-0.0007900719649629428,-2.357265779999952,0.0008351386034669131,1.572672299999924,0.7850722910000414,0.039999977,0.03999996,-9.791733000000566,0.0038256755094569004,-0.0021321026197813195,-6.867857649854153e-05,-0.008291671984035973,0.007625452399768878
0.555,-0.00015337078998579667,-0.7828931680000752,-0.0008032409299627754,-2.357282759999952,0.0008468966669667636,1.5726992999999236,0.7850575820000415,0.039999977,0.03999996,-9.791532000000569,0.003972463868143395,-0.0022098147397803317,-6.919687299853495e-05,-0.008242514915903242,0.007707585799767835
0.5575,-0.0001583955049857326,-0.7828665520000756,-0.0008164098949626074,-2.357299739999952,0.0008586547304666137,1.5727262999999234,0.7850428730000417,0.039999977,0.03999996,-9.79133100000057,0.0041192522268298825,-0.002287526859779341,-6.971516949852832e-05,-0.008193357847770514,0.007789719199766787
0.56,-0.00016342021998566874,-0.782839936000076,-0.0008295788599624401,-2.3573167199999516,0.0008704127939664642,1.572753299999923,0.7850281640000419,0.039999977,0.03999996,-9.791130000000573,0.004266040585516377,-0.002365238979778353,-7.023346599852174e-05,-0.008144200779637784,0.007871852599765743
0.5625,-0.00016844493498560463,-0.7828133200000762,-0.0008427478249622721,-2.3573336999999515,0.0008821708574663143,1.5727802999999227,0.7850134550000422,0.039999977,0.03999996,-9.790929000000576,0.004412828944202865,-0.002442951099777362,-7.075176249851513e-05,-0.008095043711505056,0.007953985999764697
0.5650000000000001,-0.00017346964998554078,-0.7827867040000765,-0.0008559167899621048,-2.3573506799999513,0.0008939289209661648,1.5728072999999223,0.7849987460000423,0.039999977,0.03999996,-9.790728000000579,0.00455961730288936,-0.002520663219776374,-7.127005899850854e-05,-0.008045886643372326,0.008036119399763652
0.5675,-0.00017861233998445373,-0.7827595190000818,-0.0008693936449592671,-2.357368049999948,0.000905961678463633,1.5728349249999167,0.7849836930000454,0.0399999768,0.039999959700000004,-9.790556900000322,0.004711367701644241,-0.0026011386197514223,-7.175985779874904e-05,-0.007996019907443896,0.008119213299754275
0.5700000000000001,-0.00018399097998438537,-0.7827311960000822,-0.0008834862799590879,-2.3573861999999477,0.000918543823963473,1.5728637999999162,0.7849679520000457,0.0399999762,0.039999958800000006,-9.790445600000323,0.004873042180664806,-0.002687140579750329,-7.219266119874353e-05,-0.007944733835905628,0.008204228199753196
0.5725,-0.00018936961998431676,-0.7827028730000826,-0.0008975789149589081,-2.357404349999947,0.0009311259694633126,1.572892674999916,0.7849522110000459,0.0399999756,0.0399999579,-9.790334300000325,0.0050347166596853635,-0.0027731425397492324,-7.262546459873801e-05,-0.007893447764367362,0.008289243099752111
0.5750000000000001,-0.0001947482599842484,-0.7826745500000829,-0.000911671549958729,-2.357422499999947,0.0009437081149631526,1.5729215499999154,0.7849364700000461,0.039999975,0.039999957,-9.790223000000326,0.0051963911387059285,-0.0028591444997481392,-7.305826799873252e-05,-0.007842161692829093,0.008374257999751031
0.5775,-0.0002001268999841798,-0.7826462270000832,-0.0009257641849585493,-2.3574406499999467,0.0009562902604629922,1.572950424999915,0.7849207290000463,0.0399999744,0.039999956100000005,-9.790111700000327,0.005358065617726487,-0.0029451464597470426,-7.3491071398727e-05,-0.007790875621290828,0.008459272899749947
0.58,-0.0002055055399841112,-0.7826179040000837,-0.0009398568199583695,-2.3574587999999466,0.0009688724059628317,1.5729792999999146,0.7849049880000465,0.039999973800000005,0.0399999552,-9.790000400000329,0.005519740096747045,-0.0030311484197459455,-7.392387479872148e-05,-0.007739589549752562,0.008544287799748862
0.5825,-0.00021088417998404283,-0.782589581000084,-0.0009539494549581904,-2.3574769499999464,0.0009814545514626716,1.5730081749999143,0.7848892470000467,0.039999973200000004,0.0399999543,-9.78988910000033,0.00568141457576761,-0.0031171503797448527,-7.435667819871597e-05,-0.007688303478214293,0.00862930269974778
0.585,-0.00021650636698288575,-0.7825600860000896,-0.0009686776599551702,-2.3574958399999426,0.000994603539959978,1.5730383999999078,0.7848728000000501,0.039999972300000006,0.0399999533,-9.789808600000194,0.005865808575762118,-0.0032315860796166777,-7.474501739890917e-05,-0.007635635091150826,0.008716037899739008
0.5875,-0.00022225032748281274,-0.78253000500009,-0.0009837236499549789,-2.3575150999999424,0.0010080359499598072,1.5730692999999074,0.7848560000000503,0.03999997125,0.03999995225,-9.789743500000194,0.006061562336395485,-0.003360238649615042,-7.511112449890452e-05,-0.007582275546315514,0.008803633249737895
0.59,-0.0002279942879827395,-0.7824999240000904,-0.0009987696399547871,-2.357534359999942,0.0010214683599596359,1.573100199999907,0.7848392000000505,0.039999970200000005,0.0399999512,-9.789678400000195,0.006257316097028843,-0.0034888912196134013,-7.547723159889986e-05,-0.007528916001480204,0.008891228599736779
0.5925,-0.0002337382484826665,-0.7824698430000907,-0.0010138156299545958,-2.357553619999942,0.0010349007699594652,1.5731310999999069,0.7848224000000508,0.03999996915,0.039999950150000005,-9.789613300000196,0.00645306985766221,-0.003617543789611766,-7.58433386988952e-05,-0.007475556456644892,0.008978823949735665
0.595,-0.00023948220898259323,-0.7824397620000911,-0.001028861619954404,-2.3575728799999416,0.0010483331799592938,1.5731619999999065,0.784805600000051,0.039999968100000005,0.0399999491,-9.789548200000198,0.006648823618295568,-0.0037461963596101253,-7.620944579889053e-05,-0.007422196911809583,0.009066419299734547
0.5975,-0.0002452261694825202,-0.7824096810000915,-0.0010439076099542127,-2.3575921399999413,0.001061765589959123,1.573192899999906,0.7847888000000511,0.03999996705,0.039999948050000005,-9.789483100000197,0.006844577378928935,-0.00387484892960849,-7.657555289888587e-05,-0.007368837366974271,0.009154014649733434
0.6,-0.000250970129982447,-0.7823796000000919,-0.0010589535999540208,-2.357611399999941,0.0010751979999589518,1.5732237999999057,0.7847720000000513,0.039999966,0.039999947,-9.789418000000198,0.007040331139562294,-0.004003501499606849,-7.694165999888121e-05,-0.007315477822138962,0.009241609999732317
0.6025,-0.00025709062048105154,-0.7823477040000987,-0.0010749821049503773,-2.357631829999937,0.0010895067849557014,1.5732566799998982,0.7847541050000554,0.0399999648,0.039999945950000004,-9.789253750000508,0.00721143917127619,-0.0040816000197582145,-7.725903599901743e-05,-0.007259169523778485,0.00933187099972056
0.605,-0.0002632111109808065,-0.7823158080001,-0.0010910106099497356,-2.357652259999936,0.0011038155699551284,1.5732895599998968,0.7847362100000561,0.0399999636,0.0399999449,-9.789089500000514,0.007382547202914765,-0.004159698539755088,-7.757641199900473e-05,-0.007202861225408999,0.009422131999716947
0.6075,-0.0002693316014805617,-0.7822839120001013,-0.0011070391149490945,-2.3576726899999354,0.0011181243549545563,1.5733224399998955,0.7847183150000568,0.039999962400000005,0.039999943850000004,-9.78892525000052,0.007553655234553347,-0.0042377970597519635,-7.789378799899203e-05,-0.007146552927039512,0.009512392999713338
0.61,-0.0002754520919803166,-0.7822520160001025,-0.0011230676199484528,-2.3576931199999343,0.0011324331399539833,1.5733553199998942,0.7847004200000576,0.0399999612,0.0399999428,-9.788761000000529,0.00772476326619192,-0.004315895579748837,-7.821116399897933e-05,-0.0070902446286700265,0.009602653999709724
0.6125,-0.00028157258248007183,-0.7822201200001038,-0.0011390961249478117,-2.3577135499999335,0.001146741924953411,1.5733881999998929,0.7846825250000583,0.03999996000000001,0.039999941750000004,-9.788596750000535,0.007895871297830502,-0.0043939940997457134,-7.852853999896663e-05,-0.007033936330300538,0.009692914999706113
0.615,-0.00028769307297982677,-0.7821882240001051,-0.00115512462994717,-2.357733979999933,0.0011610507099528381,1.5734210799998916,0.7846646300000589,0.039999958800000006,0.0399999407,-9.78843250000054,0.008066979329469075,-0.004472092619742587,-7.884591599895393e-05,-0.006977628031931053,0.0097831759997025
0.6175,-0.0002939427549784074,-0.7821556885001122,-0.0011714901949434655,-2.3577547999999284,0.0011756601699495332,1.573454654999884,0.7846463550000632,0.039999957600000004,0.0399999396,-9.788286700000361,0.008250240980890139,-0.004563210134611299,-7.914013249917753e-05,-0.006920630019351716,0.009874309999691841
0.62,-0.000300450819978502,-0.7821218740001117,-0.0011885298799437132,-2.3577763999999286,0.0011908709799497543,1.5734896199998845,0.7846273200000629,0.03999995640000001,0.039999938400000004,-9.78817780000036,0.0084578098722396,-0.004680365639613002,-7.938802999918112e-05,-0.006862252578332058,0.00996718999969319
0.6225,-0.00030695888497859683,-0.7820880595001112,-0.0012055695649439615,-2.3577979999999292,0.001206081789949976,1.573524584999885,0.7846082850000626,0.039999955200000006,0.0399999372,-9.788068900000358,0.00866537876358907,-0.00479752114461471,-7.963592749918475e-05,-0.006803875137312397,0.010060069999694546
0.625,-0.0003134669499786914,-0.7820542450001107,-0.001222609249944209,-2.3578195999999294,0.001221292599950197,1.5735595499998853,0.7845892500000623,0.039999954000000004,0.03999993600000001,-9.787960000000357,0.008872947654938531,-0.004914676649616412,-7.988382499918834e-05,-0.006745497696292738,0.010152949999695893
0.6275000000000001,-0.00031997501497878624,-0.7820204305001102,-0.0012396489349444572,-2.3578411999999296,0.0012365034099504188,1.573594514999886,0.7845702150000621,0.0399999528,0.039999934800000005,-9.787851100000355,0.009080516546288003,-0.0050318321546181195,-8.013172249919195e-05,-0.006687120255273077,0.010245829999697248
0.63,-0.00032648307997888086,-0.7819866160001098,-0.001256688619944705,-2.3578627999999298,0.0012517142199506399,1.5736294799998864,0.7845511800000619,0.03999995160000001,0.0399999336,-9.787742200000354,0.009288085437637462,-0.005148987659619822,-8.037961999919556e-05,-0.006628742814253419,0.010338709999698596
0.6325000000000001,-0.0003329911449789757,-0.7819528015001093,-0.0012737283049449532,-2.35788439999993,0.0012669250299508616,1.573664444999887,0.7845321450000615,0.039999950400000005,0.03999993240000001,-9.787633300000351,0.009495654328986934,-0.005266143164621529,-8.062751749919917e-05,-0.006570365373233758,0.010431589999699951
0.635,-0.00033976482197766334,-0.7819177000001156,-0.0012914609399415293,-2.3579067799999263,0.0012827538999478074,1.57370084999988,0.7845123500000653,0.039999949300000004,0.03999993080000001,-9.787552800000215,0.009729765354786866,-0.00541716849945679,-8.07873474996255e-05,-0.006510370504307668,0.010526270949690874
0.6375000000000001,-0.00034667130497757553,-0.781881955000116,-0.0013095400499412995,-2.357929549999926,0.0012988917999476025,1.5737379749998794,0.7844921750000655,0.03999994825,0.03999992900000001,-9.787486500000215,0.009977147448004682,-0.005585128749454655,-8.090314374962403e-05,-0.006449566921416621,0.010621852374689659
0.64,-0.00035357778797748745,-0.7818462100001164,-0.0013276191599410688,-2.3579523199999257,0.0013150296999473966,1.573775099999879,0.7844720000000658,0.039999947200000004,0.03999992720000001,-9.787420200000216,0.010224529541222488,-0.005753088999452513,-8.101893999962255e-05,-0.006388763338525577,0.01071743379968844
0.6425,-0.0003604842709773994,-0.781810465000117,-0.0013456982699408383,-2.3579750899999254,0.0013311675999471907,1.5738122249998785,0.784451825000066,0.03999994615000001,0.039999925400000004,-9.787353900000218,0.010471911634440292,-0.00592104924945037,-8.113473624962107e-05,-0.006327959755634532,0.01081301522468722
0.645,-0.00036739075397731157,-0.7817747200001174,-0.0013637773799406085,-2.357997859999925,0.0013473054999469855,1.573849349999878,0.7844316500000663,0.0399999451,0.03999992360000001,-9.787287600000218,0.010719293727658109,-0.006089009499448236,-8.12505324996196e-05,-0.006267156172743485,0.010908596649686006
0.6475,-0.0003742972369772235,-0.7817389750001179,-0.0013818564899403779,-2.358020629999925,0.00136344339994678,1.5738864749998775,0.7844114750000666,0.03999994405000001,0.039999921800000005,-9.787221300000219,0.010966675820875913,-0.006256969749446093,-8.136632874961812e-05,-0.00620635258985244,0.011004178074684788
0.65,-0.00038120371997713573,-0.7817032300001183,-0.001399935599940148,-2.3580433999999246,0.0013795812999465747,1.573923599999877,0.7843913000000668,0.03999994300000001,0.03999992000000001,-9.78715500000022,0.011214057914093729,-0.006424929999443958,-8.148212499961666e-05,-0.006145549006961393,0.011099759499683573
0.6525,-0.0003885192319756883,-0.7816654705001255,-0.0014190816899363717,-2.35806754999992,0.0013966708299432064,1.5739629149998695,0.7843699100000711,0.039999941950000006,0.039999918950000005,-9.786985050000565,0.011431631305463248,-0.0065321928996435324,-8.152697724985095e-05,-0.006082004541742358,0.011197735374674396
0.655,-0.00039583474397559534,-0.781627711000126,-0.0014382277799361283,-2.3580916999999193,0.001413760359942989,1.5740022299998688,0.7843485200000714,0.0399999409,0.0399999179,-9.786815100000567,0.011649204696734092,-0.006639455799642169,-8.157182949985038e-05,-0.006018460076514245,0.011295711249673152
0.6575,-0.00040315025597550204,-0.7815899515001264,-0.001457373869935884,-2.358115849999919,0.001430849889942771,1.5740415449998684,0.7843271300000716,0.039999939850000006,0.039999916850000004,-9.78664515000057,0.011866778088004928,-0.006746718699640801,-8.161668174984981e-05,-0.005954915611286135,0.011393687124671903
0.66,-0.00041046576797540906,-0.7815521920001269,-0.0014765199599356407,-2.358139999999919,0.001447939419942554,1.574080859999868,0.7843057400000719,0.0399999388,0.0399999158,-9.786475200000572,0.012084351479275772,-0.006853981599639437,-8.166153399984924e-05,-0.005891371146058024,0.011491662999670657
0.6625,-0.00041778127997531576,-0.7815144325001274,-0.0014956660499353966,-2.3581641499999186,0.001465028949942336,1.5741201749998672,0.7842843500000722,0.039999937750000006,0.039999914750000004,-9.786305250000574,0.012301924870546606,-0.00696124449963807,-8.170638624984867e-05,-0.005827826680829914,0.011589638874669407
0.665,-0.0004250967919752228,-0.7814766730001279,-0.0015148121399351532,-2.3581882999999184,0.0014821184799421188,1.5741594899998668,0.7842629600000725,0.0399999367,0.0399999137,-9.786135300000577,0.012519498261817452,-0.0070685073996367065,-8.17512384998481e-05,-0.005764282215601802,0.011687614749668162
0.6675,-0.00043255212847370336,-0.7814382200001354,-0.001534322979931189,-2.358212909999913,0.0014995332949385833,1.5741995599998586,0.7842411700000769,0.0399999357,0.039999912650000004,-9.785991100000317,0.012750489310416183,-0.007191916399470663,-8.175285050028854e-05,-0.005700150761043964,0.011786415749658496
0.67,-0.00044028711397360506,-0.781398380000136,-0.0015545633199309317,-2.358238439999913,0.0015175986799383537,1.5742411399998582,0.7842185800000772,0.039999934800000005,0.0399999116,-9.785898400000317,0.01300831567408075,-0.007347617599468684,-8.166798200028961e-05,-0.005634845327808729,0.01188686699965722
0.6725,-0.00044802209947350643,-0.7813585400001364,-0.0015748036599306735,-2.3582639699999124,0.0015356640649381232,1.5742827199998575,0.7841959900000774,0.039999933900000006,0.039999910550000004,-9.785805700000317,0.013266142037745308,-0.007503318799466698,-8.158311350029069e-05,-0.005569539894573497,0.011987318249655939
0.675,-0.00045575708497340813,-0.7813187000001369,-0.0015950439999304162,-2.358289499999912,0.0015537294499378936,1.574324299999857,0.7841734000000777,0.039999933,0.03999990950000001,-9.78571300000032,0.013523968401409877,-0.00765901999946472,-8.149824500029177e-05,-0.005504234461338262,0.012087769499654661
0.6775,-0.00046349207047330945,-0.7812788600001375,-0.001615284339930158,-2.3583150299999116,0.0015717948349376631,1.5743658799998566,0.784150810000078,0.0399999321,0.03999990845,-9.78562030000032,0.013781794765074433,-0.007814721199462733,-8.141337650029284e-05,-0.00543892902810303,0.01218822074965338
0.68,-0.00047122705597321115,-0.781239020000138,-0.001635524679929901,-2.3583405599999114,0.0015898602199374335,1.574407459999856,0.7841282200000782,0.039999931200000005,0.03999990740000001,-9.785527600000322,0.014039621128739,-0.007970422399460756,-8.132850800029392e-05,-0.005373623594867795,0.012288671999652103
0.6825,-0.0004789620414731125,-0.7811991800001384,-0.0016557650199296428,-2.3583660899999113,0.001607925604937203,1.5744490399998556,0.7841056300000785,0.03999993030000001,0.03999990635,-9.785434900000322,0.014297447492403557,-0.00812612359945877,-8.124363950029501e-05,-0.005308318161632563,0.012389123249650823
0.685,-0.00048698347297151517,-0.7811579240001464,-0.0016767525599254752,-2.3583925799999057,0.0016266574199334859,1.574492149999847,0.7840821960000832,0.0399999295,0.03999990540000001,-9.785344100000314,0.014567933882552163,-0.008291653699405354,-8.108459760068425e-05,-0.005241983290994865,0.012491275799640643
0.6875,-0.0004951481274714111,-0.7811159600001469,-0.0016981136999252029,-2.3584195499999057,0.0016457224499332429,1.5745360249998464,0.7840583400000836,0.039999928750000004,0.0399999045,-9.785254250000314,0.014844750286041913,-0.00846209824940318,-8.088846900068676e-05,-0.005175133701647878,0.012594278999639328
0.6900000000000001,-0.0005033127819713073,-0.7810739960001475,-0.0017194748399249314,-2.358446519999905,0.0016647874799330005,1.574579899999846,0.7840344840000839,0.039999928000000004,0.039999903600000004,-9.785164400000316,0.015121566689531674,-0.008632542799401014,-8.069234040068925e-05,-0.005108284112300888,0.01269728219963802
0.6925,-0.0005114774364712031,-0.781032032000148,-0.0017408359799246588,-2.3584734899999047,0.0016838525099327573,1.5746237749998453,0.7840106280000841,0.039999927250000004,0.039999902700000006,-9.785074550000317,0.015398383093021424,-0.00880298734939884,-8.049621180069174e-05,-0.0050414345229539,0.012800285399636705
0.6950000000000001,-0.0005196420909710993,-0.7809900680001486,-0.0017621971199243873,-2.3585004599999047,0.001702917539932515,1.5746676499998447,0.7839867720000845,0.039999926500000005,0.0399999018,-9.784984700000319,0.015675199496511187,-0.008973431899396672,-8.030008320069425e-05,-0.0049745849336069094,0.012903288599635397
0.6975,-0.0005278067454709952,-0.7809481040001491,-0.001783558259924115,-2.358527429999904,0.0017219825699322717,1.574711524999844,0.7839629160000847,0.039999925750000005,0.0399999009,-9.78489485000032,0.015952015900000935,-0.0091438764493945,-8.010395460069674e-05,-0.0049077353442599225,0.013006291799634083
0.7000000000000001,-0.0005359713999708915,-0.7809061400001497,-0.0018049193999238435,-2.3585543999999037,0.0017410475999320293,1.5747553999998436,0.7839390600000851,0.039999925,0.0399999,-9.78480500000032,0.016228832303490696,-0.009314320999392334,-7.990782600069924e-05,-0.004840885754912932,0.013109294999632773
0.7025,-0.000544575789969214,-0.7808620040001579,-0.0018274274699194674,-2.3585827949998985,0.001761135359928127,1.5748015849998347,0.7839139410000899,0.039999925,0.0399999,-9.784771100000121,0.016546087897178794,-0.009536499049205059,-7.954094910131267e-05,-0.004772486910468612,0.01321454234962343
0.705,-0.0005531801799691042,-0.7808178680001585,-0.0018499355399191804,-2.3586111899998983,0.0017812231199278708,1.5748477699998342,0.7838888220000902,0.039999925,0.0399999,-9.784737200000123,0.01686334349101106,-0.009758677099202225,-7.917407220131734e-05,-0.00470408806601877,0.013319789699622088
0.7075,-0.0005617845699689949,-0.7807737320001591,-0.0018724436099188941,-2.358639584999898,0.0018013108799276156,1.5748939549998335,0.7838637030000906,0.039999925,0.0399999,-9.784703300000123,0.017180599084843342,-0.009980855149199401,-7.880719530132201e-05,-0.004635689221568924,0.013425037049620751
0.71,-0.0005703889599688851,-0.7807295960001597,-0.0018949516799186073,-2.3586679799998973,0.0018213986399273593,1.574940139999833,0.7838385840000909,0.039999925,0.0399999,-9.784669400000123,0.017497854678675612,-0.010203033199196567,-7.844031840132668e-05,-0.0045672903771190815,0.013530284399619409
0.7125,-0.0005789933499687758,-0.7806854600001601,-0.001917459749918321,-2.358696374999897,0.001841486399927104,1.5749863249998324,0.7838134650000912,0.039999925,0.0399999,-9.784635500000125,0.017815110272507893,-0.010425211249193744,-7.807344150133135e-05,-0.004498891532669236,0.01363553174961807
0.715,-0.000587597739968666,-0.7806413240001607,-0.001939967819918034,-2.3587247699998968,0.0018615741599268478,1.575032509999832,0.7837883460000915,0.039999925,0.0399999,-9.784601600000125,0.018132365866340164,-0.01064738929919091,-7.770656460133603e-05,-0.004430492688219393,0.013740779099616728
0.7175,-0.0005963519649669141,-0.7805964400001695,-0.001962866659913464,-2.3587535799998918,0.0018820104499227717,1.5750795099998223,0.7837627850000967,0.03999992525,0.0399999001,-9.78452890000055,0.018439833073756032,-0.010848206774422263,-7.730274875174565e-05,-0.004361538100312305,0.013846799649606915
0.72,-0.0006054058599667986,-0.7805500600001701,-0.0019865470399131617,-2.3587832199998915,0.001903143799922502,1.5751281399998216,0.783736340000097,0.039999926,0.039999900399999996,-9.78437860000055,0.018727723508017498,-0.011006303099420247,-7.682505500175174e-05,-0.0042914720254724785,0.013954366599605542
0.7225,-0.0006144597549666835,-0.7805036800001707,-0.002010227419912861,-2.358812859999891,0.0019242771499222335,1.5751767699998211,0.7837098950000974,0.03999992675,0.03999990069999999,-9.784228300000553,0.01901561394227898,-0.011164399424418237,-7.634736125175782e-05,-0.004221405950632649,0.014061933549604175
0.725,-0.000623513649966568,-0.7804573000001713,-0.0020339077999125587,-2.358842499999891,0.001945410499921964,1.5752253999998205,0.7836834500000976,0.0399999275,0.039999901,-9.784078000000555,0.019303504376540447,-0.01132249574941622,-7.58696675017639e-05,-0.004151339875792823,0.014169500499602803
0.7275,-0.0006325675449664529,-0.7804109200001719,-0.002057588179912258,-2.35887213999989,0.0019665438499216954,1.5752740299998198,0.7836570050000979,0.03999992825,0.039999901299999994,-9.783927700000557,0.019591394810801927,-0.011480592074414212,-7.539197375176998e-05,-0.004081273800952994,0.014277067449601437
0.73,-0.0006416214399663374,-0.7803645400001724,-0.0020812685599119556,-2.35890177999989,0.001987677199921426,1.5753226599998191,0.7836305600000983,0.039999929,0.0399999016,-9.783777400000558,0.019879285245063397,-0.011638688399412195,-7.491428000177607e-05,-0.004011207726113167,0.014384634399600065
0.7325,-0.0006506753349662224,-0.7803181600001731,-0.0021049489399116547,-2.3589314199998896,0.002008810549921157,1.5753712899998185,0.7836041150000986,0.03999992975,0.039999901899999996,-9.78362710000056,0.020167175679324877,-0.011796784724410186,-7.443658625178215e-05,-0.003941141651273338,0.014492201349598697
0.735,-0.0006600352899642152,-0.7802702500001831,-0.002129427529906418,-2.3589619699998834,0.0020306555699164874,1.575421539999808,0.7835767950001044,0.0399999302,0.039999902399999995,-9.783498100000445,0.020483665725834564,-0.011990548849204037,-7.38148645026096e-05,-0.0038693052020796256,0.014601278999586844
0.7375,-0.0006695482749638347,-0.7802215750001851,-0.0021543052249054233,-2.3589929749998824,0.0020528564249155997,1.5754725999998058,0.7835490375001055,0.0399999305,0.039999902999999996,-9.78337975000045,0.020814455578708722,-0.012202146874195574,-7.312112875263736e-05,-0.003796583565694089,0.01471111199958245
0.74,-0.0006790612599634539,-0.780172900000187,-0.002179182919904427,-2.359023979999881,0.0020750572799147107,1.5755236599998037,0.7835212800001066,0.0399999308,0.0399999036,-9.783261400000454,0.02114524543158286,-0.012413744899187102,-7.242739300266512e-05,-0.0037238619293085556,0.014820944999578053
0.7425,-0.0006885742449630734,-0.780124225000189,-0.002204060614903432,-2.3590549849998794,0.0020972581349138226,1.5755747199998018,0.7834935225001077,0.039999931100000004,0.0399999042,-9.78314305000046,0.021476035284457018,-0.01262534292417864,-7.173365725269288e-05,-0.003651140292923019,0.014930777999573661
0.745,-0.0006980872299626925,-0.7800755500001909,-0.002228938309902436,-2.3590859899998784,0.002119458989912934,1.5756257799997997,0.7834657650001089,0.0399999314,0.0399999048,-9.783024700000464,0.02180682513733116,-0.012836940949170168,-7.103992150272066e-05,-0.0035784186565374857,0.015040610999569264
0.7475,-0.000707600214962312,-0.7800268750001929,-0.002253816004901441,-2.359116994999877,0.002141659844912046,1.5756768399997976,0.78343800750011,0.0399999317,0.0399999054,-9.782906350000468,0.022137614990205313,-0.013048538974161705,-7.03461857527484e-05,-0.003505697020151949,0.01515044399956487
0.75,-0.0007171131999619311,-0.7799782000001947,-0.002278693699900445,-2.359147999999876,0.002163860699911157,1.5757278999997957,0.7834102500001111,0.039999932,0.039999906,-9.782788000000474,0.022468404843079454,-0.013260136999153231,-6.965245000277618e-05,-0.003432975383766416,0.015260276999560472
0.7525000000000001,-0.0007270946499602019,-0.7799272150002032,-0.002304793234895936,-2.3591806549998697,0.0021871511399071362,1.5757814949997864,0.7833811125001161,0.0399999332,0.039999906599999996,-9.78268270000042,0.02281935093784468,-0.013486415449097781,-6.880362550338442e-05,-0.0033581394821595007,0.015372452549552733
0.755,-0.000737076099960347,-0.7798762300002026,-0.002330892769896315,-2.3592133099998702,0.0022104415799074745,1.575835089999787,0.7833519750001158,0.0399999344,0.0399999072,-9.782577400000418,0.023170297032690548,-0.01371269389910107,-6.795480100337209e-05,-0.0032833035805441284,0.015484628099554363
0.7575000000000001,-0.0007470575499604925,-0.7798252450002018,-0.0023569923048966956,-2.3592459649998707,0.002233732019907814,1.575888684999788,0.7833228375001153,0.039999935599999994,0.0399999078,-9.782472100000417,0.02352124312753643,-0.013938972349104368,-6.710597650335973e-05,-0.0032084676789287526,0.015596803649555999
0.76,-0.0007570389999606375,-0.779774260000201,-0.002383091839897075,-2.359278619999871,0.002257022459908153,1.5759422799997886,0.7832937000001149,0.0399999368,0.0399999084,-9.782366800000416,0.023872189222382302,-0.014165250799107656,-6.62571520033474e-05,-0.0031336317773133803,0.01570897919955763
0.7625000000000001,-0.000767020449960783,-0.7797232750002003,-0.0024091913748974553,-2.3593112749998717,0.002280312899908492,1.5759958749997895,0.7832645625001144,0.03999993799999999,0.039999909,-9.782261500000413,0.024223135317228184,-0.014391529249110954,-6.540832750333502e-05,-0.0030587958756980046,0.015821154749559262
0.765,-0.0007770018999609281,-0.7796722900001996,-0.0024352909098978347,-2.359343929999872,0.0023036033399088307,1.5760494699997902,0.7832354250001141,0.039999939199999994,0.039999909599999994,-9.782156200000411,0.024574081412074053,-0.014617807699114242,-6.455950300332269e-05,-0.002983959974082632,0.015933330299560892
0.7675000000000001,-0.0007871425549591158,-0.7796205135002086,-0.0024618056198931087,-2.3593770949998665,0.002327263959904617,1.5761039099997807,0.7832058250001194,0.039999940149999996,0.03999991015,-9.782083250000031,0.024940518288250925,-0.014861936248906155,-6.362565750431507e-05,-0.0029087863050571527,0.016046182399553573
0.77,-0.0007976016199589824,-0.7795671540002093,-0.00248915067989276,-2.359411279999866,0.002351664939904306,1.57616003999978,0.7831753000001197,0.0399999406,0.0399999106,-9.782075000000033,0.02533793672763413,-0.015141764998902586,-6.252177000432916e-05,-0.0028329371011996,0.016160387599552118
0.7725,-0.000808060684958849,-0.77951379450021,-0.0025164957398924113,-2.3594454649998657,0.0023760659199039947,1.5762161699997792,0.7831447750001201,0.039999941049999994,0.039999911049999996,-9.782066750000032,0.025735355167017335,-0.015421593748899017,-6.141788250434323e-05,-0.0027570878973420475,0.01627459279955066
0.775,-0.000818519749958716,-0.7794604350002107,-0.002543840799892064,-2.3594796499998654,0.0024004668999036845,1.5762722999997785,0.7831142500001205,0.0399999415,0.0399999115,-9.782058500000032,0.02613277360640056,-0.01570142249889546,-6.031399500435726e-05,-0.002681238693484492,0.016388797999549207
0.7775,-0.0008289788149585826,-0.7794070755002113,-0.0025711858598917153,-2.359513834999865,0.0024248678799033735,1.5763284299997777,0.7830837250001209,0.03999994195,0.039999911949999994,-9.782050250000033,0.026530192045783767,-0.01598125124889189,-5.921010750437134e-05,-0.0026053894896269393,0.016503003199547752
0.78,-0.0008394378799584497,-0.779353716000212,-0.0025985309198913674,-2.359548019999864,0.0024492688599030634,1.576384559999777,0.7830532000001212,0.0399999424,0.0399999124,-9.782042000000033,0.02692761048516699,-0.016261079998888334,-5.810622000438537e-05,-0.0025295402857693832,0.0166172083995463
0.7825,-0.0008498969449583163,-0.7793003565002127,-0.0026258759798910188,-2.359582204999864,0.002473669839902752,1.5764406899997763,0.7830226750001217,0.03999994285,0.03999991285,-9.782033750000032,0.027325028924550198,-0.016540908748884767,-5.700233250439945e-05,-0.0024536910819118306,0.016731413599544845
0.785,-0.0008606803499562382,-0.7792453630002232,-0.002654066789885599,-2.3596173299998577,0.002498825029897919,1.5764985699997651,0.7829912100001277,0.0399999434,0.039999913,-9.78192930000061,0.027699639087953358,-0.0167759845991496,-5.5770367505181583e-05,-0.002376780624345329,0.016847108999534455
0.7875,-0.0008716259249560986,-0.7791895525002238,-0.0026826804748852342,-2.3596529249998572,0.0025243573248975933,1.5765573249997644,0.7829592750001281,0.039999944,0.039999913,-9.781776750000612,0.028062845113161723,-0.016988683999146888,-5.4474363755198116e-05,-0.0022993395399148317,0.016963549499532972
0.79,-0.0008825714999559595,-0.7791337420002246,-0.0027112941598848705,-2.3596885199998567,0.0025498896198972686,1.5766160799997637,0.7829273400001285,0.0399999446,0.039999913,-9.781624200000614,0.028426051138370108,-0.017201383399144184,-5.317836000521459e-05,-0.002221898455484331,0.01707998999953149
0.7925,-0.0008935170749558199,-0.7790779315002252,-0.0027399078448845054,-2.3597241149998562,0.002575421914896943,1.5766748349997628,0.7828954050001289,0.0399999452,0.039999913,-9.781471650000617,0.028789257163578476,-0.017414082799141473,-5.1882356255231115e-05,-0.0021444573710538337,0.017196430499530006
0.795,-0.0009044626499556808,-0.7790221210002259,-0.0027685215298841417,-2.3597597099998557,0.0026009542098966187,1.576733589999762,0.7828634700001293,0.0399999458,0.039999913,-9.781319100000617,0.029152463188786858,-0.01762678219913877,-5.058635250524759e-05,-0.0020670162866233332,0.017312870999528527
0.7975,-0.0009154082249555412,-0.7789663105002267,-0.002797135214883777,-2.3597953049998552,0.0026264865048962927,1.5767923449997614,0.7828315350001297,0.0399999464,0.039999913,-9.78116655000062,0.029515669213995226,-0.017839481599136058,-4.929034875526412e-05,-0.0019895752021928358,0.01742931149952704
0.8,-0.000926353799955402,-0.7789105000002273,-0.0028257488998834133,-2.3598308999998547,0.0026520187998959684,1.5768510999997607,0.7827996000001302,0.039999947,0.039999913,-9.781014000000622,0.02987887523920361,-0.018052180999133353,-4.799434500528059e-05,-0.001912134117762335,0.01754575199952556
0.8025,-0.0009377946299532383,-0.7788522400002381,-0.00285565405487777,-2.359868084999848,0.0026787024798909367,1.576912509999749,0.7827662100001365,0.03999994805,0.039999914049999995,-9.780909450000427,0.0302891428565601,-0.01832313919889252,-4.6472674206219484e-05,-0.0018324781154278158,0.01766410979951624
0.805,-0.0009492354599530929,-0.7787939800002388,-0.0028855592098773896,-2.3599052699998477,0.0027053861598905975,1.5769739199997483,0.7827328200001369,0.039999949099999994,0.03999991509999999,-9.78080490000043,0.03069941047410836,-0.018594097398889075,-4.495100340623882e-05,-0.001752822113084268,0.017782467599514736
0.8075,-0.0009606762899529469,-0.7787357200002396,-0.0029154643648770084,-2.359942454999847,0.0027320698398902573,1.5770353299997475,0.7826994300001373,0.03999995015,0.039999916149999995,-9.78070035000043,0.0311096780916566,-0.01886505559888562,-4.342933260625823e-05,-0.0016731661107407241,0.017900825399513227
0.81,-0.0009721171199528015,-0.7786774600002403,-0.002945369519876628,-2.3599796399998465,0.002758753519889918,1.5770967399997466,0.7826660400001377,0.039999951199999995,0.0399999172,-9.780595800000432,0.03151994570920486,-0.019136013798882176,-4.190766180627757e-05,-0.0015935101083971765,0.01801918319951172
0.8125,-0.0009835579499526555,-0.7786192000002411,-0.002975274674876247,-2.360016824999846,0.0027854371998895775,1.5771581499997458,0.7826326500001382,0.03999995224999999,0.039999918249999995,-9.780491250000432,0.0319302133267531,-0.01940697199887872,-4.0385991006296976e-05,-0.0015138541060536325,0.01813754099951021
0.8150000000000001,-0.00099499877995251,-0.7785609400002418,-0.0030051798298758666,-2.3600540099998457,0.0028121208798892387,1.577219559999745,0.7825992600001386,0.039999953299999995,0.0399999193,-9.780386700000435,0.032340480944301364,-0.019677930198875277,-3.8864320206316316e-05,-0.001434198103710085,0.01825589879950871
