rsonawane2002/My_IMU/logs_2/traj_328/clean_328.csv
time,j1,j2,j3,j4,j5,j6,j7,gripper1,gripper2,imu_ax,imu_ay,imu_az,imu_gx,imu_gy,imu_gz,quat_x,quat_y,quat_z,quat_w
851.8833333328872,0.00016700293,-0.785875,4.0107683e-05,-2.3551247,9.29385e-05,1.570997,0.786,0.04,0.04,0.0,-0.0,0.0,2.875329272945135e-08,-0.0011641195053377316,4.421952117202833e-08,0.9999995971961153,0.00020320632366974898,0.0008736418299892524,3.263050917662294e-05
851.8999999995539,0.00016700244,-0.78576016,4.0114603e-05,-2.3552213,9.29845e-05,1.5709941,0.786,0.04,0.04,-0.2919984595197711,-3.939791181230127e-05,0.020128407842090468,-2.0867137523766573e-08,-0.0022381869102919305,6.891500666349716e-07,0.999999685058269,0.00020320886602020335,0.0007665025167539252,3.260998820621121e-05
851.9166666662205,0.00016697854,-0.7856543,4.0120933e-05,-2.35531,9.3099916e-05,1.5709913,0.786,0.04,0.04,0.0233287287249917,-2.5366848147414037e-05,-0.0016704379423693183,-2.6999328387487984e-07,-0.003230973563469196,4.894367817909923e-06,0.9999997558413385,0.0002032229169119865,0.0006677972359428803,3.262761128935059e-05
851.9333333328872,0.00016689299,-0.785557,4.0126535e-05,-2.355391,9.340319e-05,1.5709884,0.786,0.04,0.04,0.02239487955599806,-7.118877963373954e-05,-0.0014910574780868657,-7.381271568965738e-07,-0.0041506733205432834,1.5932790852643413e-05,0.9999998122434307,0.00020326765503383097,0.0005771683395432059,3.274250275159855e-05
851.9499999995538,0.00016669054,-0.7854673,4.013119e-05,-2.3554652,9.4062954e-05,1.5709856,0.786,0.04,0.04,0.020255461387974627,-0.0001355122753463891,-0.0013237317899816858,-1.8197190697931118e-06,-0.005004576138361451,3.590020609875857e-05,0.999999856834932,0.00020337080860005307,0.000493840936755404,3.303875040298284e-05
851.9666666662205,0.0001663008,-0.7853848,4.0134357e-05,-2.355532,9.530914e-05,1.5709827,0.786,0.04,0.039999995,0.02040594666061768,-0.00022850819889991768,-0.0007613825210306402,-4.011663046996464e-06,-0.005801243072248346,7.077444932423725e-05,0.9999998914547568,0.00020356777654322326,0.00041775537993668575,3.363149697771864e-05
851.9833333328871,0.00016564007,-0.7853089,4.01358e-05,-2.3555932,9.738495e-05,1.5709826,0.786,0.04,0.039999995,0.017571968929530613,-0.00031708278408946696,0.0006747800492368228,-7.616644651111839e-06,-0.006542666878723083,0.00011880649127294516,0.9999999176697402,0.0002039006295444742,0.00034912023987875035,3.464252175134784e-05
851.9999999995538,0.00016461217,-0.7852393,4.0135084e-05,-2.3556507,0.00010057501,1.570983,0.7859981,0.04,0.04,0.013592229284098423,-0.0004218563642632302,-0.0014261436777518455,-1.3299606460919274e-05,-0.007232569015207168,0.00018304091441414668,0.9999999377990937,0.00020346402270544138,0.00028581953335512464,3.621318255755709e-05
852.0166666662204,0.00016311003,-0.7851752,4.0131326e-05,-2.3557012,0.00010522751,1.5709836,0.7859962,0.04,0.039999995,0.017917297656744324,-0.0005623594677874987,1.7412113550996366e-05,-1.2477419981970299e-05,-0.007888889121442404,0.00026770921573855406,0.9999999524234483,0.0002032654490756618,0.0002288068396376322,3.8518677494527425e-05
852.0333333328871,0.00016101728,-0.7851164,4.01241e-05,-2.3557458,0.000111677786,1.5709842,0.7859943,0.04,0.04,0.015928593367897648,-0.0006829461952268564,-0.0003229706815988109,-1.5006417685808925e-05,-0.008509529496766626,0.0003713697115556422,0.9999999627163302,0.0002033633747148163,0.00017739664776834118,4.172655355128174e-05
852.0499999995537,0.00015820855,-0.7850625,4.0112493e-05,-2.3557878,0.000120318764,1.5709851,0.7859905,0.04,0.04,0.01000194203679694,-0.0008356896610398176,-0.0014665278097902856,-2.1210709129904586e-05,-0.009099514700507948,0.0004978973970522359,0.9999999699271741,0.00020286735858576202,0.00012989020408009851,4.603282092989031e-05
852.0666666662204,0.00015455128,-0.785013,4.0095867e-05,-2.355823,0.00013155582,1.570986,0.78598666,0.04,0.04,0.01625868972114919,-0.0009909985916894894,0.0005682429275122303,-2.297365431099064e-05,-0.009679460707501919,0.0006478105407480414,0.9999999742323806,0.00020279757129121237,8.798614500869356e-05,5.164127719901243e-05
852.083333332887,0.00014990596,-0.7849677,4.007316e-05,-2.355854,0.00014582509,1.570987,0.78598094,0.04,0.039999995,0.01190543472826544,-0.0011601975653415181,-0.000449938717883569,-3.0056051643009406e-05,-0.010235059425568875,0.0008230177614697622,0.9999999765506152,0.0002022706752229933,5.031356260431585e-05,5.876978969610357e-05
852.0999999995537,0.00014412781,-0.7849263,4.004378e-05,-2.355881,0.00016354349,1.5709904,0.78597504,0.04,0.04,0.01196387949589095,-0.001310299179588893,0.0014804116814426393,-3.416920806624508e-05,-0.010780683539888924,0.0010213804315931392,0.9999999771066193,0.00020222376248751612,1.7855856664450922e-05,6.76275030048287e-05
852.1166666662203,0.00013706648,-0.78488857,4.000661e-05,-2.355902,0.00018518497,1.5709949,0.7859674,0.039999995,0.04,0.01451600746165127,-0.0014959381242678693,0.001284922349920059,-4.407789646815178e-05,-0.011308675536059989,0.0012478374814762947,0.999999976486007,0.00020195755824628736,-9.297538619292277e-06,7.845180546179925e-05
852.133333332887,0.00012856777,-0.78485405,3.9960767e-05,-2.3559203,0.00021122016,1.5709995,0.7859579,0.03999999,0.039999995,0.008090457098663961,-0.0016746151903582857,-0.0004727312131747041,-5.349746690384621e-05,-0.011821582596749381,0.0015014259700639688,0.9999999749646263,0.00020146035319660053,-3.341157635058717e-05,9.147753448607591e-05
852.1499999995536,0.000118473814,-0.7848227,3.9905317e-05,-2.3559322,0.00024213069,1.5710043,0.7859464,0.039999988,0.03999999,0.014469090852853306,-0.0018582242452030138,0.0011852023616532037,-6.249827175132383e-05,-0.01234252209292899,0.0017828208602327555,0.9999999727316616,0.00020081129378190057,-5.2668265160324034e-05,0.00010694650108583952
852.1666666662203,0.0001066236,-0.7847942,3.983927e-05,-2.3559399,0.00027840768,1.5710124,0.7859331,0.039999988,0.03999999,0.011513165897847344,-0.002044751220544325,0.002791796639467492,-7.172783509313153e-05,-0.012855898797742826,0.002092522131514147,0.9999999699329555,0.000200091644282784,-6.668008662141771e-05,0.00012510470900903376
852.183333332887,9.2853865e-05,-0.7847685,3.976151e-05,-2.3559437,0.00032054933,1.5710208,0.7859178,0.039999988,0.03999999,0.009693602589821992,-0.0022337718648354843,0.0003919703395860452,-8.242138735454693e-05,-0.013361699545623091,0.0024309576782807906,0.9999999664554414,0.0001993834091130971,-7.720524375273581e-05,0.00014620096619138333
852.1999999995536,7.699927e-05,-0.78474534,3.9671166e-05,-2.355941,0.00036905985,1.5710294,0.78590024,0.039999984,0.039999988,0.013745708724055561,-0.0024257491493760697,0.0015611339077459263,-9.4745500336944e-05,-0.013876196979310442,0.002798452599807669,0.9999999622925881,0.0001985607458227854,-8.320043280081583e-05,0.0001704879481341039
852.2166666662202,5.889318e-05,-0.7847246,3.9567145e-05,-2.3559341,0.00042444817,1.5710415,0.78588,0.03999998,0.039999984,0.011091691326403641,-0.0026188007175271624,0.0031204953505170607,-0.00010806596642667465,-0.014391807798704154,0.003195257667717892,0.999999957303243,0.00019755882578160387,-8.409911479707013e-05,0.0001982204873629487
852.2333333328869,3.8367758e-05,-0.784706,3.9448365e-05,-2.3559227,0.0004872259,1.5710539,0.78585714,0.039999977,0.03999998,0.010187039784326224,-0.002812913624720883,0.001087109615727222,-0.00012205655183838483,-0.014907621362887293,0.003621544929865209,0.9999999510172249,0.0001964318817068464,-8.148045235169848e-05,0.00022965408664299557
852.2499999995536,1.5254656e-05,-0.78468955,3.9314004e-05,-2.3559048,0.0005579062,1.5710684,0.7858314,0.03999997,0.039999977,0.013995806156419377,-0.003007755707368166,0.0032764568802079452,-0.00013696156588781133,-0.015437521909677713,0.00407656209176419,0.9999999431278923,0.00019517482894571803,-7.349623430262101e-05,0.0002650458484806464
852.2666666662202,-1.0614938e-05,-0.7846753,3.9162795e-05,-2.3558822,0.000637005,1.5710846,0.7858024,0.039999966,0.039999973,0.011076752364735931,-0.003203266281731241,0.0021387599273614555,-0.00015276814708004667,-0.015967102785803735,0.004562061826759189,0.9999999329624546,0.00019369373083480429,-6.118893567782672e-05,0.0003046534741527952
852.2833333328869,-3.940966e-05,-0.78466296,3.8993774e-05,-2.3558547,0.0007250368,1.5711026,0.78577054,0.039999958,0.03999996,0.010787293859371161,-0.0033983233222343364,0.0023966358835503243,-0.00016920923412699928,-0.01650780593892809,0.0050780213306596675,0.9999999197209,0.00019222215572989472,-4.46473293595927e-05,0.0003487340713829992
852.2999999995535,-7.129776e-05,-0.7846525,3.880594e-05,-2.3558207,0.000822513,1.5711226,0.7857351,0.03999995,0.039999958,0.014040700767048442,-0.0035914274129509737,0.003464197945302061,-0.00018796617328879143,-0.017061008871480498,0.005621793374385562,0.9999999025708651,0.0001905161996429664,-2.282741289412011e-05,0.00039754339023128537
852.3166666662202,-0.00010644707,-0.78464365,3.859828e-05,-2.3557806,0.00092994754,1.5711452,0.78569597,0.039999943,0.03999995,0.012781933884520313,-0.003786259617198401,0.003599715869984088,-0.00020716107950016554,-0.017621556269320906,0.006195835305158841,0.999999880348097,0.00018863024080943063,4.0631882596942504e-06,0.00045133791621951644
852.3333333328868,-0.00014502434,-0.78463656,3.836971e-05,-2.3557353,0.0010478485,1.571169,0.78565305,0.039999936,0.039999943,0.011258492388166452,-0.003978462087509652,0.0023565910175271654,-0.00022740012704783406,-0.01819050146614773,0.0067991145148311545,0.9999998517425803,0.00018655811456018333,3.5101786414099986e-05,0.0005103711901181683
852.3499999995535,-0.00018719547,-0.78463113,3.8119186e-05,-2.3556838,0.001176722,1.5711966,0.7856061,0.039999932,0.03999994,0.013572951837859115,-0.0041685795746316786,0.004594597865170691,-0.0002484777231825568,-0.0187785972640261,0.0074314197766305115,0.999999815183919,0.00018426381694618612,7.192890276571064e-05,0.0005748958221804138
852.3666666662201,-0.00023312491,-0.7846273,3.7845693e-05,-2.3556259,0.0013170692,1.5712255,0.78555495,0.039999936,0.039999943,0.013199545090136766,-0.004358302767415413,0.0030470121372028203,-0.00027049708733517487,-0.019373991191258755,0.008092508683044172,0.9999997689218056,0.00018176905942059824,0.00011350303008855734,0.0006451615352123688
852.3833333328868,-0.00028297567,-0.784625,3.7548205e-05,-2.3555615,0.0014693878,1.571257,0.78549945,0.039999932,0.03999994,0.013413395062467082,-0.0045454727380486466,0.003913401477873002,-0.00029354566282266403,-0.019985954534129286,0.008782091471982662,0.9999997108983966,0.000179065898143603,0.00016030282174951435,0.000721416337964818
852.3999999995534,-0.000336909,-0.78462416,3.722581e-05,-2.3554904,0.0016341696,1.571292,0.7854394,0.03999993,0.039999936,0.01416525313706618,-0.004729649636742173,0.0048189159238987145,-0.00031773654384237944,-0.02061208786320195,0.009499853847704146,0.9999996386785356,0.00017611558027635078,0.0002129860167271064,0.0008039048807219586
852.4166666662201,-0.00039508444,-0.7846247,3.687752e-05,-2.3554125,0.0018119015,1.5713292,0.7853746,0.039999932,0.03999994,0.013992366425519265,-0.004913381606209814,0.003926530552100793,-0.0003426492108620652,-0.0212471139290343,0.010245473851404075,0.9999995497452444,0.00017293710072292454,0.00027089927711046674,0.0008928693349996955
852.4333333328867,-0.0004576598,-0.7846265,3.6502322e-05,-2.3553271,0.0020030634,1.5713687,0.78530496,0.039999943,0.039999954,0.014716783151724755,-0.005092772444039405,0.004295496369199903,-0.00036867442990294987,-0.02189975465395615,0.011017690028777965,0.9999994411398487,0.00016954883096695927,0.0003342836116912544,0.000988548254361206
852.4499999995534,-0.0005247904,-0.7846299,3.609926e-05,-2.3552344,0.002208131,1.5714116,0.7852303,0.03999994,0.03999995,0.015499668014062884,-0.005270175874644463,0.004979434526508619,-0.0003959627372516531,-0.022568204428239185,0.01181784106691793,0.9999993093285354,0.0001659086621253174,0.00040391683118156535,0.0010911773281031276
852.46666666622,-0.0005966293,-0.78463465,3.5667457e-05,-2.3551342,0.0024275717,1.5714577,0.7851504,0.03999994,0.03999995,0.015170533294384114,-0.0054452503661323775,0.004935399522865147,-0.0004243851653980479,-0.023247929576950495,0.01264465833280821,0.9999991506949995,0.00016203249621458241,0.00047956373635675895,0.001200988498200704
852.4833333328867,-0.00067332806,-0.78464043,3.520592e-05,-2.3550265,0.0026618466,1.571507,0.7850651,0.039999947,0.039999954,0.01515349162131141,-0.0056161438375206246,0.005154586584765752,-0.0004540889663491518,-0.02394235125375064,0.013498553732262452,0.9999989612768245,0.00015787573726093845,0.0005611087518013701,0.0013182099576064922
852.4999999995533,-0.00075503497,-0.7846477,3.4713743e-05,-2.354911,0.0029114087,1.5715594,0.7849743,0.039999954,0.03999996,0.01573106503720556,-0.005784775606490359,0.00497099767928777,-0.00048469068820541656,-0.02465232262573087,0.014377357635362138,0.9999987365007257,0.0001534513131520518,0.0006488538316241352,0.0014430656090525687
852.51666666622,-0.0008418964,-0.78465617,3.419003e-05,-2.354788,0.0031767024,1.5716152,0.78487766,0.039999958,0.03999997,0.015452589197417765,-0.005948392492715476,0.005227050283607149,-0.0005166160632242098,-0.025377135080650724,0.015280588757869473,0.9999984715958821,0.00014871196781748183,0.0007427139701780687,0.0015757749233196018
852.5333333328866,-0.00093405606,-0.7846659,3.3633947e-05,-2.3546572,0.0034581674,1.5716745,0.78477514,0.039999966,0.039999977,0.01597630878111822,-0.006111016970375698,0.00538653571686698,-0.0005492186392648951,-0.02612017203795773,0.0162095028868244,0.9999981611560724,0.00014366812330361445,0.0008429025118750917,0.0017165544849072007
852.5499999995533,-0.0010316543,-0.78467685,3.3044573e-05,-2.3545182,0.0037562323,1.5717368,0.7846666,0.03999997,0.03999998,0.016283706700437328,-0.0062695406579768315,0.005224478039589364,-0.0005829592236768566,-0.026877992895061546,0.01716271700251069,0.9999977995230482,0.00013832793384227314,0.0009493649964489598,0.0018656153267630892
852.5666666662199,-0.0011348301,-0.7846892,3.242117e-05,-2.3543708,0.0040713204,1.5718027,0.78455186,0.03999997,0.03999998,0.01698983376225982,-0.006423974041138867,0.005615682354731533,-0.0006180022447047663,-0.02765542802553281,0.018139741520596674,0.9999973801187539,0.0001326693481615695,0.0010625242983855938,0.0020231649926997575
852.5833333328866,-0.0012437183,-0.7847027,3.176282e-05,-2.3542154,0.0044038454,1.5718724,0.78443074,0.039999966,0.039999977,0.016443038571334334,-0.0065755650708779635,0.005697145175420637,-0.000654252127880223,-0.02844708754098067,0.019140027710162363,0.9999968963796101,0.00012666870438426042,0.0011822375234485463,0.00218940645492723
852.5999999995532,-0.0013584523,-0.7847174,3.1068637e-05,-2.3540509,0.0047542118,1.5719457,0.7843032,0.03999997,0.03999998,0.01801883827245998,-0.0067214680953397304,0.006153316654611274,-0.000691367007180115,-0.02925775154782336,0.020163042375635525,0.9999963405464628,0.00012035931454683692,0.0013089581782429489,0.002364537122963771
852.6166666662199,-0.0014791616,-0.78473336,3.0337906e-05,-2.3538766,0.0051228157,1.5720229,0.78416896,0.039999973,0.039999984,0.019531017883789303,-0.00686440033431982,0.006543742106779327,-0.0007298256422726777,-0.030082353559440674,0.02120824190156244,0.9999957039676894,0.00011368306773693943,0.0014432596785422945,0.002548749463090956
852.6333333328865,-0.0016059735,-0.7847503,2.9569948e-05,-2.3536937,0.0055100447,1.5721045,0.78402793,0.039999973,0.039999988,0.017245038771185328,-0.0070031539288097164,0.00647922427630121,-0.0007692405210793646,-0.03091831714436382,0.022274232673102145,0.9999949789760644,0.00010664328398611425,0.0015845535510731982,0.002742232651396202
852.6499999995532,-0.001739012,-0.78476876,2.8763878e-05,-2.3535013,0.0059162825,1.57219,0.78388005,0.03999998,0.04,0.019476036310694944,-0.0071430968430212256,0.006382373774482808,-0.0008098471431642685,-0.03176991191462189,0.02336126646125151,0.9999941555196222,9.926659310670402e-05,0.0017335034644891502,0.002945172062836746
852.6666666662198,-0.0018783981,-0.7847885,2.7918866e-05,-2.3533,0.006341904,1.5722798,0.78372514,0.039999984,0.04,0.017994025650303058,-0.0072785485093524935,0.0063189605626012835,-0.0008518217683069849,-0.032635794766803485,0.02447048428508278,0.9999932246686501,9.152222280202943e-05,0.001889671125371425,0.0031577497550069446
852.6833333328865,-0.0020242508,-0.7848091,2.7034344e-05,-2.3530884,0.006787255,1.5723737,0.783563,0.039999984,0.04,0.020465529616386924,-0.00739302103694192,0.00725956572376063,-0.0008953763582523998,-0.03351750226740311,0.025597959359608544,0.999992174964921,8.337430473450718e-05,0.0020537214966880046,0.0033801310131785387
852.6999999995531,-0.0021766846,-0.7848313,2.6109741e-05,-2.352867,0.007252687,1.5724719,0.78339356,0.03999998,0.04,0.020005163347680543,-0.007518771738473755,0.006562329183257276,-0.0009396316701340626,-0.03441104229798884,0.026744821883316533,0.9999909954135793,7.481629076960732e-05,0.002225634608756542,0.003612484584010957
852.7166666662198,-0.0023358122,-0.78485453,2.5144174e-05,-2.3526363,0.007738539,1.5725743,0.78321666,0.039999973,0.03999999,0.01832976952340637,-0.007634223460906749,0.00660179422189433,-0.000985260697087667,-0.03531870550174681,0.027912250111028068,0.9999896756338205,6.584305229094595e-05,0.002404884463988792,0.0038549735633283603
852.7333333328864,-0.0025017438,-0.7848789,2.4137056e-05,-2.3523946,0.008245157,1.5726808,0.7830321,0.039999966,0.039999984,0.02204315347313912,-0.007756980689884764,0.007423438819653683,-0.0010320613809369963,-0.03624436060971726,0.029097004752426187,0.9999882008955118,5.6411105022486346e-05,0.0025925253338071955,0.004107760939785834
852.7499999995531,-0.0026745838,-0.7849048,2.3087721e-05,-2.3521428,0.00877286,1.5727916,0.78284,0.03999997,0.039999988,0.020446496931758595,-0.007868269581574362,0.006684795079281436,-0.0010798408461249395,-0.03718065080103059,0.030299294206299204,0.9999865591141688,4.659878452693401e-05,0.0027881513176566943,0.004370998946260152
852.7666666662197,-0.0028544357,-0.7849318,2.1995413e-05,-2.351882,0.009321969,1.5729072,0.7826401,0.039999973,0.03999999,0.01869378698158286,-0.007976074345832475,0.006994866419884893,-0.001129151903021458,-0.03813271171772366,0.031518768913563776,0.9999847374880698,3.6338018714834556e-05,0.002991476994153335,0.004644839702080593
852.7833333328864,-0.0030414013,-0.78496,2.0859667e-05,-2.3516095,0.009892788,1.5730274,0.78243226,0.039999977,0.04,0.0231496490782801,-0.008074972274537892,0.007845341009837803,-0.00117990275821123,-0.039101759043488275,0.0327519728237131,0.9999827181427178,2.5607642501645543e-05,0.003203677662039898,0.004929422845354055
852.799999999553,-0.003235578,-0.7849896,1.967979e-05,-2.3513272,0.010485613,1.5731521,0.78221637,0.039999977,0.04,0.02020859001778952,-0.008175542568594589,0.006860426512678153,-0.0012317414069819583,-0.04007931924421339,0.0340036004794343,0.9999804883168328,1.4394815595926594e-05,0.0034239325855038513,0.005224888904821392
852.8166666662197,-0.003437058,-0.7850205,1.8455217e-05,-2.3510332,0.011100732,1.5732814,0.7819924,0.039999977,0.04,0.023340641577895838,-0.008269112558517266,0.007883330327929094,-0.0012849626402853063,-0.04107414583148853,0.03527045377820312,0.9999780288748154,2.7052497720933473e-06,0.003653179854395926,0.0055313684809555445
852.8333333328864,-0.0036459342,-0.7850525,1.7185486e-05,-2.3507288,0.0117384195,1.5734156,0.7817603,0.039999973,0.04,0.021301436987908318,-0.008354681544951292,0.007596558692690714,-0.00133938661697104,-0.042077803074034345,0.036551130588414436,0.9999753247677391,-9.417125229661481e-06,0.0038908977815601885,0.005848989778243443
852.849999999553,-0.0038622953,-0.78508586,1.587e-05,-2.350413,0.012398957,1.5735548,0.78151965,0.03999998,0.04,0.02283280201149651,-0.008447882946638254,0.00776479064925617,-0.0013956068659892063,-0.04309640807566474,0.03784748768712463,0.9999723564912097,-2.2146000100106183e-05,0.004137579890974472,0.006177879540530948
852.8666666662197,-0.0040862244,-0.7851205,1.4508084e-05,-2.3500865,0.01308261,1.5736985,0.78127074,0.039999977,0.04,0.02226816736285997,-0.00853758973258234,0.007542744001187707,-0.001452411833802741,-0.04412498878332152,0.039157268280466166,0.9999691067160306,-3.532766172996956e-05,0.004392943649132323,0.006518160138845363
852.8833333328863,-0.004317806,-0.7851565,1.3099561e-05,-2.3497484,0.013789602,1.5738473,0.78101337,0.03999998,0.04,0.02338108822732554,-0.008588340713635168,0.007938348946390228,-0.001511098852741052,-0.04516771948195276,0.040478193083173825,0.9999655541754928,-4.901769294365994e-05,0.004657483231498762,0.006869927926383295
852.899999999553,-0.004557119,-0.7851935,1.1643844e-05,-2.349399,0.014520181,1.5740012,0.78074735,0.03999998,0.04,0.02267182240445198,-0.00866671356788062,0.00811911490019579,-0.0015713295669338087,-0.04622067142792023,0.041811447757214494,0.9999616797071472,-6.327160187633387e-05,0.0049309784410749916,0.0072332956236239995
852.9166666662196,-0.004804238,-0.785232,1.0140463e-05,-2.3490384,0.015274592,1.57416,0.78047264,0.039999977,0.04,0.023587899819577096,-0.008746899328993668,0.007759918356287088,-0.0016328205132220691,-0.04728597800534094,0.04315718055911171,0.9999574611416935,-7.809358645178724e-05,0.005213686251468931,0.007608369347078337
852.9333333328863,-0.0050592357,-0.7852718,8.588877e-06,-2.3486662,0.016053058,1.5743237,0.7801892,0.03999998,0.04,0.023449067113245903,-0.008812871775024014,0.00785211080835957,-0.0016957335172716817,-0.048363109489388,0.04451395149609097,0.9999528770631195,-9.345543988863622e-05,0.005505536303972401,0.007995247918371726
852.9499999995529,-0.0053221844,-0.78531283,6.9886078e-06,-2.3482816,0.016855782,1.5744927,0.779897,0.039999977,0.04,0.02515978811410413,-0.008853552274920833,0.008676890338632504,-0.0017603137224185793,-0.04945337381500461,0.04588113969757368,0.9999479011191318,-0.00010939101539745501,0.005807204408421156,0.008394013224175018
852.9666666662196,-0.005593153,-0.78535527,5.3394733e-06,-2.347886,0.017682962,1.5746667,0.7795958,0.039999973,0.04,0.02293356074505315,-0.008910219423770727,0.007639879888121648,-0.0018264284515966817,-0.05054947567776383,0.0472574945640144,0.9999425140062056,-0.0001259314863553217,0.006117936744711833,0.008804752932242936
852.9833333328862,-0.005872201,-0.785399,3.64111e-06,-2.347478,0.018534794,1.574846,0.77928567,0.039999973,0.04,0.025792078310904465,-0.008960232914663989,0.008595416262746625,-0.0018941162845043415,-0.05166035595677866,0.048642278163014675,0.9999366858844358,-0.0001430628310626402,0.006438648532221289,0.009227543581900172
852.9999999995529,-0.0061593936,-0.78544414,1.8930023e-06,-2.3470588,0.019411469,1.5750307,0.7789665,0.039999977,0.04,0.02311960960277304,-0.009007782173455284,0.007913727559061279,-0.0019632044693961744,-0.05277785536627575,0.050036734840736743,0.9999303959199827,-0.00016081425849433437,0.006768617300155652,0.009662467279378788
853.0166666662195,-0.006454788,-0.78549045,9.46089e-08,-2.346627,0.020313209,1.5752206,0.7786382,0.039999973,0.04,0.02580170310426677,-0.009080790041907615,0.008635822439351237,-0.0020340113604948237,-0.053909104611270395,0.05144171285692267,0.9999236131257196,-0.00017920470199210935,0.007108551590090849,0.01010961391805945
853.0333333328862,-0.0067584384,-0.7855383,-1.7542193e-06,-2.3461833,0.021240141,1.5754157,0.77830076,0.03999997,0.04,0.02505252561362248,-0.009092943963842116,0.008102818737976136,-0.0021063974243936863,-0.05504808792614879,0.0528516988815323,0.9999163115710084,-0.00019821676383930556,0.0074582958944181335,0.010569029600492441
853.0499999995528,-0.0070704,-0.7855875,-3.6537756e-06,-2.345728,0.022192433,1.5756159,0.7779541,0.03999997,0.04,0.02437834571651365,-0.009132109928053009,0.007947938374042174,-0.002180803853962337,-0.056197451771364315,0.054269454777750865,0.999908465855338,-0.0002178924024737507,0.007817517444898909,0.011040781436293392
853.0666666662195,-0.0073907212,-0.7856378,-5.604258e-06,-2.3452597,0.023170233,1.5758219,0.77759814,0.039999973,0.04,0.02656718113362988,-0.00914489374569654,0.009164643940340333,-0.002256383664129249,-0.0573589794228524,0.05569274062027735,0.9999000399341152,-0.00023824957599542947,0.008187165223432956,0.011524916593993762
853.0833333328861,-0.0077194497,-0.78568953,-7.606224e-06,-2.3447797,0.024173694,1.576033,0.7772329,0.039999973,0.04,0.0247098827397485,-0.00919221839984826,0.007933062890197462,-0.0023339102422072107,-0.058526660645590034,0.05712269970899747,0.9998910101180022,-0.0002592756280383893,0.008566460332721161,0.0120214981894036
853.0999999995528,-0.008056629,-0.7857428,-9.659905e-06,-2.3442874,0.025202954,1.5762497,0.7768581,0.039999973,0.04,0.02630464388788667,-0.009208025239001473,0.00850314376430461,-0.0024132713894773755,-0.05970628814285944,0.0585578356400555,0.9998813401473804,-0.0002810821310306583,0.008956086151883142,0.012530568173644755
853.1166666662194,-0.008402305,-0.7857973,-1.1765507e-05,-2.3437822,0.026258135,1.5764718,0.7764739,0.039999973,0.04,0.026728772073658646,-0.00921804981482404,0.008720161305442176,-0.0024936227058933377,-0.060893655606573754,0.05999851172592519,0.9998709986138045,-0.00030360256858067737,0.009356009465112471,0.013052166234099992
853.1333333328861,-0.008756509,-0.7858531,-1.3923209e-05,-2.3432646,0.027339349,1.5766994,0.7760802,0.039999977,0.04,0.02617446729678008,-0.00923274821878206,0.008514972323236947,-0.0025756844679115827,-0.06208667058337652,0.06144240562510999,0.9998599539012988,-0.0003268602126080085,0.009766139170100325,0.0135863266781119
853.1499999995527,-0.0091192825,-0.7859104,-1.6133317e-05,-2.3427343,0.028446713,1.5769324,0.775677,0.03999998,0.04,0.026938722144187466,-0.009244482663983526,0.008453989389134442,-0.0026593579691289587,-0.06328946632549462,0.06288990785906508,0.9998481700361614,-0.00035085187038972596,0.010186742165849659,0.01413308396460689
853.1666666662194,-0.009490656,-0.7859692,-1.8396035e-05,-2.3421912,0.029580334,1.5771711,0.77526426,0.039999973,0.04,0.02734657980922872,-0.009250805627949998,0.008690194844529486,-0.00274540546813401,-0.06449982040194256,0.06434012435608591,0.9998356110600559,-0.0003756359787801613,0.010617967614670026,0.01469246465062597
853.183333332886,-0.00987066,-0.78602934,-2.0711426e-05,-2.341636,0.030740283,1.5774152,0.7748419,0.039999984,0.04,0.02611235949767643,-0.00924069659907975,0.0083130522084085,-0.002832651434032305,-0.06571482711966842,0.06579299912642775,0.9998222463224737,-0.00040120669977271913,0.01105939832946946,0.015264484939128084
853.1999999995527,-0.010259321,-0.78609073,-2.3079761e-05,-2.341068,0.031926673,1.5776652,0.77440995,0.03999998,0.04,0.027012056355291136,-0.009249257138251032,0.00882542317346413,-0.002921803574482535,-0.06693817251277377,0.06724765472054374,0.9998080356157701,-0.00042756488312708564,0.011511422481286233,0.015849172182265166
853.2166666662193,-0.010656666,-0.78615355,-2.5501176e-05,-2.3404872,0.033139553,1.5779204,0.77396834,0.039999984,0.04,0.02752029455181937,-0.009231678368072475,0.008353984109676915,-0.003012829021904133,-0.06816955949206553,0.06870373953437328,0.999792942927224,-0.0004547502997276152,0.011973982160500458,0.016446526268658262
853.233333332886,-0.011062718,-0.7862179,-2.7975817e-05,-2.3398933,0.03437901,1.5781814,0.7735171,0.03999998,0.04,0.02832345361487576,-0.00922315992911045,0.00870710395304286,-0.0031058477826280094,-0.06940827413816865,0.07016050305055727,0.9997769250314813,-0.0004827662501766229,0.012447526359499939,0.017056558822726848
853.2499999995526,-0.0114774965,-0.7862835,-3.05038e-05,-2.3392868,0.03564509,1.5784479,0.77305615,0.039999984,0.04,0.027172335321989927,-0.009200912478435005,0.008606399789035102,-0.003200586879088939,-0.07064979544601876,0.07161825690068493,0.9997599487047553,-0.0005116127461443636,0.012931610679221668,0.017679272142943132
853.2666666662193,-0.011901016,-0.7863507,-3.3085154e-05,-2.3386679,0.036937866,1.5787201,0.7725854,0.03999999,0.04,0.027403418088911558,-0.00920218009694048,0.008194812460815548,-0.0032973981137695563,-0.07189980635270707,0.07307494838040131,0.9997419726069726,-0.0005413898511505386,0.013426388987978405,0.018314671269004712
853.283333332886,-0.012333293,-0.78641915,-3.5720124e-05,-2.3380353,0.038257364,1.5789977,0.77210504,0.039999984,0.04,0.028980660728805674,-0.009156821311234915,0.00885643915244927,-0.0033954334184682945,-0.07315536547578325,0.07453072712700214,0.9997229523412998,-0.0005719947507136666,0.013932190558430493,0.018962738469010417
853.2999999995526,-0.01277434,-0.786489,-3.840863e-05,-2.3373907,0.03960363,1.5792812,0.77161485,0.03999999,0.04,0.027027622266051488,-0.009136749621076537,0.00835555609282057,-0.00349587293732297,-0.07441557824854551,0.07598527025868326,0.9997028519008369,-0.0006035428986370394,0.014448634722397696,0.01962347043623534
853.3166666662192,-0.013224162,-0.78656024,-4.1150844e-05,-2.3367329,0.040976677,1.5795702,0.77111495,0.03999999,0.04,0.02858692688088027,-0.009103462435496729,0.008489797940858246,-0.0035979211120111855,-0.07568338572365987,0.07743789356389412,0.9996816255001673,-0.0006360005443881038,0.014976023109420169,0.020296843904338245
853.3333333328859,-0.013682772,-0.786633,-4.394665e-05,-2.3360622,0.042376533,1.579865,0.77060527,0.04,0.04,0.0286141552628294,-0.009058168046494758,0.008513566336509903,-0.003701926034169238,-0.07695501191776491,0.07888732814762911,0.9996592276840901,-0.0006694050270200119,0.015514540552427313,0.02098283666250666
853.3499999995526,-0.014150172,-0.786707,-4.6796325e-05,-2.3353786,0.04380321,1.580165,0.7700858,0.04,0.04,0.028128429369322916,-0.009035121223488485,0.008257822969826023,-0.003807862291644811,-0.07823041971241222,0.08033474044904704,0.999635621754898,-0.0007037762643673504,0.016063746174866684,0.021681431606278376
853.3666666662192,-0.014626362,-0.78678256,-4.9699505e-05,-2.3346825,0.04525671,1.5804712,0.7695566,0.04,0.04,0.02858794794091679,-0.008972234826002193,0.008486078483915804,-0.003915537419347925,-0.07951194095536884,0.08177881861125116,0.9996107553409775,-0.0007391239877698083,0.016624182611589898,0.02239258928457433
853.3833333328859,-0.015111342,-0.78685945,-5.2656513e-05,-2.3339734,0.04673704,1.5807825,0.76901764,0.04,0.04,0.028499836782547305,-0.00895157652730863,0.008114891007360292,-0.004025174790355749,-0.0807974204574558,0.08321900151887683,0.999584590110212,-0.000775446807706104,0.01719543913260397,0.023116287969414246
853.3999999995525,-0.01560511,-0.7869378,-5.5667308e-05,-2.3332517,0.048244208,1.5811001,0.7684689,0.04,0.04,0.028671909264010864,-0.008889088234705772,0.008608850325608763,-0.004136871895133534,-0.08208858132458453,0.08465483971789553,0.9995570728133105,-0.000812781303681017,0.017777970735486495,0.023852491106103203
853.4166666662192,-0.01610766,-0.78701735,-5.873169e-05,-2.3325167,0.04977816,1.5814228,0.76791036,0.04,0.04,0.02945544254306931,-0.008831529831402826,0.008179239564443108,-0.004250692055788749,-0.08338273830654774,0.08608574675714413,0.9995281614443297,-0.0008511983128794632,0.018371547397423735,0.024601141993298044
853.4333333328858,-0.016618986,-0.78709835,-6.184974e-05,-2.3317692,0.051338866,1.5817517,0.7673421,0.04,0.04,0.028510582273444385,-0.00874617327884554,0.008433388729156555,-0.004365709633982098,-0.08468022127502778,0.08751208159513293,0.9994978059310543,-0.0008906381735141719,0.018976354565440924,0.025362189772555107
853.4499999995525,-0.017139072,-0.7871809,-6.5021464e-05,-2.3310091,0.052926347,1.5820856,0.76676404,0.04,0.04,0.028772830531753613,-0.008762068001149509,0.007541828389201477,-0.004483169987604552,-0.0859808237597836,0.0889319213217989,0.9994659651497332,-0.0009311778513249366,0.01959201473211183,0.02613561504648967
853.4666666662191,-0.017667918,-0.7872648,-6.8246685e-05,-2.3302362,0.05454052,1.5824255,0.7661764,0.04,0.04,0.029436367236534977,-0.008620124336933266,0.00840199801392938,-0.004602067028411476,-0.08728655014933961,0.09034537938229817,0.999432581403694,-0.0009727363539294814,0.020219070346517324,0.02692133367901277
853.4833333328858,-0.01820549,-0.78735,-7.152549e-05,-2.32945,0.056181345,1.5827707,0.765579,0.04,0.04,0.03004714267875741,-0.008591813803859177,0.008182258097266804,-0.00472343501661374,-0.08859468870992071,0.09175207147814149,0.9993976069776217,-0.0010154530737752267,0.020857443438441717,0.027719290677620818
853.4999999995524,-0.01875178,-0.78743654,-7.485727e-05,-2.3286514,0.05784876,1.5831218,0.7649719,0.04,0.04,0.028426000478676272,-0.008496135681618569,0.007941266062938546,-0.0048465198686925,-0.08990336432733714,0.0931492954444728,0.9993609980370074,-0.001059272190864563,0.021506873870510233,0.0285294220274472
853.5166666662191,-0.01930677,-0.7875247,-7.8242236e-05,-2.32784,0.05954272,1.5834783,0.7643551,0.04,0.04,0.02993342004864452,-0.008440363318103564,0.0077666534971321255,-0.00497155670466317,-0.09121660604548762,0.09454132424978562,0.9993226974029502,-0.0011042710464218351,0.022167700052658904,0.029351662902174874
853.5333333328857,-0.01987044,-0.7876141,-8.168045e-05,-2.3270156,0.061263163,1.5838405,0.7637288,0.04,0.04,0.03011705279765131,-0.008352590813801367,0.008118985424565572,-0.005098278763033134,-0.09253047276610207,0.09592594513827768,0.999282653507133,-0.0011503884442166678,0.022839959197393227,0.030185944908717607
853.5499999995524,-0.02044276,-0.7877048,-8.51717e-05,-2.326179,0.06301002,1.5842083,0.7630927,0.04,0.04,0.02867686958616389,-0.008290018360363957,0.007660679650633995,-0.005227571402175411,-0.09384435593939809,0.09730129126344954,0.9992408241162006,-0.0011977659997790932,0.023523248252090203,0.03103220211097844
853.566666666219,-0.02102371,-0.78779703,-8.871566e-05,-2.3253298,0.06478319,1.5845819,0.76244706,0.04,0.04,0.029917082332664435,-0.008170586274592814,0.007856753817336859,-0.005357988631673159,-0.09516303215674105,0.09866751313085441,0.999197147315375,-0.0012463221793568954,0.024218050260991067,0.03189033583075195
853.5833333328857,-0.02161325,-0.78789055,-9.231191e-05,-2.324468,0.066582575,1.5849605,0.7617918,0.04,0.04,0.029558813508856474,-0.008112654719989384,0.007306495302783489,-0.005490298472230495,-0.09648052496495992,0.10002056372834797,0.999151582202695,-0.0012961387080164216,0.02492390001740276,0.03276026578377369
853.5999999995523,-0.02221136,-0.7879856,-9.596083e-05,-2.323593,0.068408124,1.5853449,0.76112723,0.04,0.04,0.031082447023011994,-0.008013629131856798,0.007891931776082828,-0.005624415275622428,-0.0978006065380295,0.10136923141351958,0.9991040560183941,-0.001347127258853585,0.025641608717669934,0.03364191430510314
853.616666666219,-0.022818,-0.7880819,-9.966179e-05,-2.322706,0.07025967,1.5857344,0.76045316,0.04,0.04,0.02846417549942082,-0.007913488754862988,0.006996611891452176,-0.005761008638916425,-0.09911780041174897,0.1027047637795822,0.9990545454212311,-0.0013993778139473464,0.02637002705956619,0.0345351804366063
853.6333333328856,-0.023433138,-0.7881795,-0.00010341485,-2.321806,0.07213716,1.5861298,0.7597696,0.04,0.04,0.031200497822947426,-0.007810144898462434,0.007973978637787482,-0.00589945200751725,-0.10044023349483358,0.10403111421311874,0.9990029658908327,-0.001452934828913039,0.02711035729223041,0.035439972477280805
853.6499999995523,-0.024056742,-0.7882785,-0.00010721985,-2.3208945,0.07404052,1.5865303,0.75907665,0.04,0.04,0.02816580866338292,-0.007771175138028205,0.006677375170394129,-0.006039678024649532,-0.10175686402570852,0.10534730936790662,0.9989492948892662,-0.001507792724524862,0.027861389231028957,0.03635623456100429
853.6666666662189,-0.024688771,-0.78837895,-0.00011107604,-2.3199708,0.07596955,1.5869366,0.7583743,0.04,0.04,0.029814336593148028,-0.007591159717508164,0.0072825790923713996,-0.0061812146555852085,-0.10307929272933113,0.10664868789840888,0.9988934610363002,-0.0015639968348738625,0.028623847241455305,0.03728381394009979
853.6833333328856,-0.025329176,-0.78848034,-0.00011498389,-2.319034,0.07792414,1.5873481,0.7576626,0.04,0.04,0.03089412186434437,-0.007505586850112961,0.00753367110615244,-0.00632479616561437,-0.10440095862075577,0.10794221385840777,0.998835408649402,-0.001621552300378007,0.029397769665727574,0.03822261287510374
853.6999999995522,-0.02597792,-0.78858334,-0.00011894295,-2.3180857,0.0799042,1.5877651,0.7569417,0.04,0.04,0.02939139097462018,-0.007429184322024426,0.006690265587927513,-0.006470059639841576,-0.10571962862614707,0.109222909869497,0.998775089031805,-0.001680451760371194,0.03018292849463146,0.039172547005258754
853.7166666662189,-0.026634969,-0.7886877,-0.00012295277,-2.317125,0.08190958,1.5881871,0.7562118,0.04,0.04,0.029914845306500126,-0.007317060174548418,0.006609376108013265,-0.006617105113004909,-0.10703891443119712,0.11049013466400143,0.998712450362204,-0.0017406011590285126,0.030979239220136554,0.04013350889803818
853.7333333328855,-0.027300257,-0.78879327,-0.000127013,-2.3161519,0.08394012,1.5886146,0.7554726,0.04,0.04,0.030847348914031514,-0.0071709595759854305,0.007175525033353836,-0.006766855548999445,-0.10835769577093468,0.11174265109859526,0.9986474252321996,-0.0018022601821040356,0.03178713632233702,0.04110535123021888
853.7499999995522,-0.027973741,-0.78890026,-0.00013112341,-2.3151674,0.08599564,1.5890473,0.75472385,0.04,0.04,0.028696182080967247,-0.0070622760560579145,0.0062566245752293526,-0.006917598361039716,-0.1096715053399578,0.11298278952019417,0.9985799794587953,-0.0018655433543513593,0.032605949634940116,0.04208796051686183
853.7666666662188,-0.028655373,-0.7890085,-0.00013528379,-2.3141708,0.08807602,1.589485,0.75396645,0.04,0.04,0.030199289764487602,-0.006965361020067756,0.0064789061132053405,-0.007068122769351905,-0.11098821716536494,0.11421018092681012,0.9985100488824461,-0.00193007311331237,0.033435968682241995,0.04308123833912679
853.7833333328855,-0.029345095,-0.78911805,-0.00013949371,-2.3131618,0.090181105,1.5899283,0.7532,0.04,0.04,0.03099353858040388,-0.0068249081254717625,0.006795988569496814,-0.007222027466391633,-0.11230105966749113,0.11542344174749725,0.9984375638123114,-0.00199610562070127,0.034277628279170295,0.04408504202609703
853.7999999995521,-0.030042855,-0.7892288,-0.0001437531,-2.312142,0.0923107,1.5903766,0.7524245,0.04,0.04,0.02838879287807572,-0.0067044911629329795,0.006027720247936408,-0.0073770687659717935,-0.11360985286283967,0.11662245976339175,0.9983624995820042,-0.0020636638771717895,0.035130015579663526,0.045099254152893314
853.8166666662188,-0.030748596,-0.78934085,-0.00014806123,-2.3111095,0.09446466,1.59083,0.75164014,0.04,0.04,0.031100217456536683,-0.00659868986300563,0.006300361192357329,-0.007533238394648978,-0.11491927479274318,0.11780601857084001,0.9982847753034487,-0.002132718482882059,0.03599387861346505,0.046123742384750116
853.8333333328854,-0.03146227,-0.78945416,-0.00015241813,-2.3100667,0.09664283,1.5912886,0.7508469,0.04,0.04,0.02795350730488977,-0.0064751368299822976,0.005759193373600091,-0.007691119268503521,-0.11622257492208266,0.1189769322830479,0.9982043637048821,-0.00220329495190686,0.03686839550667644,0.04715840523861653
853.8499999995521,-0.032183804,-0.7895687,-0.00015682327,-2.3090112,0.098844975,1.591752,0.750045,0.04,0.04,0.03167762701550281,-0.006320550504079758,0.0061779278135221105,-0.007850289669940523,-0.11752845216696348,0.12013061624953217,0.9981211782480292,-0.0022754239637733783,0.037754491277306505,0.04820305350227181
853.8666666662187,-0.03291313,-0.78968453,-0.00016127594,-2.3079448,0.10107091,1.5922208,0.7492345,0.04,0.04,0.029052482858649142,-0.00619173814688026,0.005767734049766382,-0.008010749747968393,-0.1188255481083009,0.1212666287352174,0.9980351855461056,-0.0023490530966652043,0.038651546597150414,0.04925757106423389
853.8833333328854,-0.033650197,-0.78980166,-0.00016577652,-2.3068666,0.10332044,1.5926944,0.74841535,0.04,0.04,0.030366269789494638,-0.006055276432233303,0.005638179703915114,-0.008173228994901749,-0.12011989352955924,0.1223897637136363,0.9979463213700615,-0.00242428926943982,0.03955980860424135,0.050321804704279924
853.899999999552,-0.034394935,-0.7899199,-0.00017032417,-2.305778,0.10559343,1.5931727,0.7475877,0.04,0.04,0.02814403073472249,-0.005991252684067749,0.00509347605652799,-0.008336714261278286,-0.12140997485483085,0.12349679811257194,0.9978545586234223,-0.0025011033417239753,0.04047850958856914,0.05139566691869357
853.9166666662187,-0.03514727,-0.79003936,-0.00017491834,-2.3046777,0.107889585,1.5936561,0.74675167,0.04,0.04,0.030587231750622834,-0.0057613408259972465,0.005718479990535208,-0.008501542905743148,-0.12270042396337916,0.12458535149518932,0.9977598106187416,-0.0025794858052359004,0.04140854168633963,0.05247894094247744
853.9333333328854,-0.035907142,-0.79016006,-0.0001795589,-2.3035667,0.110208705,1.5941443,0.7459071,0.04,0.04,0.029043288443419968,-0.00563216933828492,0.005095276715949559,-0.008667854506045236,-0.1239817805553497,0.12565653058364532,0.9976620429907611,-0.0026595593479102992,0.04234938104732148,0.053571490967533185
853.949999999552,-0.036674485,-0.79028183,-0.00018424522,-2.3024445,0.11255062,1.5946375,0.7450544,0.04,0.04,0.02980463696924396,-0.005516101689149316,0.005289646397699244,-0.008835020475017219,-0.1252607556012541,0.12671308841601808,0.9975611931460316,-0.002741212315555379,0.04330120287823163,0.05467318824986199
853.9666666662187,-0.03744922,-0.79040486,-0.0001889768,-2.3013122,0.11491508,1.5951352,0.7441933,0.04,0.04,0.027927738669264457,-0.005390039856358053,0.00442445752675269,-0.009003704354891083,-0.1265331663866805,0.1277506886939266,0.997457234871041,-0.0028246067367307774,0.0442633641624461,0.055783875745797455
853.9833333328853,-0.038231272,-0.79052895,-0.00019375375,-2.3001683,0.1173019,1.5956377,0.7433242,0.04,0.04,0.030850519320368974,-0.0052373469057558075,0.005181041120927432,-0.009172958951435134,-0.1278038670099902,0.12877300759237445,0.9973500760833133,-0.0029096286181629063,0.04523674991913849,0.05690339405226061
853.999999999552,-0.039020568,-0.79065424,-0.00019857481,-2.2990146,0.11971078,1.5961452,0.74244696,0.04,0.04,0.027877528561592868,-0.005042835490624842,0.0045442820174823595,-0.009343468036855623,-0.12906563171556565,0.12977498532932266,0.997239696887546,-0.0029963694330693647,0.04622062454002414,0.058031565453519604
854.0166666662186,-0.039817017,-0.79078066,-0.0002034402,-2.29785,0.12214157,1.5966568,0.7415617,0.04,0.04,0.029703332861341636,-0.005013521302941332,0.004289107365273992,-0.00951505354795678,-0.13032313441919907,0.13075981892941332,0.9971260340689319,-0.0030848657369366376,0.047215165504334085,0.059168267946145006
854.0333333328853,-0.04062055,-0.79090834,-0.00020834901,-2.2966745,0.12459396,1.5971731,0.7406688,0.04,0.04,0.02972278220347846,-0.004769572854068649,0.00436890684110125,-0.009687141289714013,-0.13157454291835435,0.13172613012840342,0.9970090280744353,-0.003175007406046214,0.04822057278360673,0.0603132956027308
854.0499999995519,-0.041431095,-0.7910369,-0.00021330093,-2.29549,0.12706769,1.597694,0.7397681,0.04,0.04,0.02652482829779146,-0.004609471308716223,0.0039828913399375665,-0.009860748562016103,-0.1328177153501133,0.13267392913239584,0.9968886722660425,-0.0032668199147119653,0.049235869565715414,0.061466512373808915
854.0666666662186,-0.042248562,-0.7911669,-0.00021829545,-2.294295,0.12956254,1.5982194,0.73885953,0.04,0.04,0.029664579411692316,-0.0045063313253997095,0.0038048522049027866,-0.010035595745395885,-0.13405901288801253,0.13360377270718604,0.9967648727051668,-0.003360498088329903,0.050261951271442694,0.06262772427637975
854.0833333328852,-0.043072872,-0.7912977,-0.00022333203,-2.2930894,0.13207832,1.5987492,0.7379433,0.04,0.04,0.029453533220769046,-0.004355115541973542,0.004231566311352353,-0.010210708816787657,-0.13529026853815354,0.13451405382829693,0.9966375848472051,-0.003456001720580331,0.051298635234703065,0.06379679102505216
854.0999999995519,-0.04390393,-0.7914296,-0.00022841018,-2.291875,0.1346147,1.599283,0.7370197,0.04,0.04,0.026506082635568973,-0.0042357612715003545,0.0030292830625944234,-0.01038580864054537,-0.13651179257097978,0.1354050177596478,0.9965068055442782,-0.003553182856884323,0.05234498769752412,0.06497356122662297
854.1166666662185,-0.04474166,-0.7915626,-0.0002335294,-2.29065,0.13717145,1.5998211,0.73608863,0.04,0.04,0.029625145119061003,-0.004026120137260586,0.0036169526741680613,-0.01056231179346627,-0.13773334978069046,0.13627599700060816,0.9963724366458941,-0.0036522348820082124,0.05340199215429339,0.06615781062461912
854.1333333328852,-0.045585964,-0.79169667,-0.00023868919,-2.289415,0.13974825,1.6003636,0.7351503,0.04,0.04,0.028810815767510434,-0.0038564718049971525,0.0035267801005600674,-0.010738767237723608,-0.13894208509399927,0.13712786825802106,0.9962344399980547,-0.003753088433456437,0.05446942889692806,0.06734935934821847
854.1499999995518,-0.04643677,-0.7918318,-0.000243889,-2.288171,0.1423449,1.6009102,0.73420477,0.04,0.04,0.02677309563328123,-0.003774261574698845,0.0027665045628344487,-0.010916196276558161,-0.1401415600847717,0.13795910119225346,0.9960928012504512,-0.0038557122702179503,0.0555465807016297,0.06854810101144873
854.1666666662185,-0.047293983,-0.7919678,-0.000249128,-2.2869177,0.14496103,1.6014612,0.73325217,0.04,0.04,0.02804943441794272,-0.0034876122145505173,0.0032535801017363752,-0.011094372214097564,-0.14133554397827958,0.13877089573867768,0.9959474530161944,-0.003960151562268881,0.05663391197779089,0.06975376724056524
854.1833333328851,-0.048157502,-0.79210496,-0.0002544061,-2.285655,0.1475965,1.6020161,0.7322926,0.04,0.04,0.02784043803654157,-0.0034974518322461456,0.0025715448005003694,-0.011273404428315162,-0.14251857794934583,0.1395630515957044,0.9957983535168052,-0.004066434337083635,0.05773120862810787,0.0709662651922709
854.1999999995518,-0.049027238,-0.79224294,-0.00025972235,-2.284383,0.15025084,1.602575,0.7313261,0.04,0.04,0.02757880096453391,-0.0031915128846891905,0.0026693378905262577,-0.011452531008457549,-0.1436930833894889,0.14033439292144945,0.9956454697433832,-0.004174583093569045,0.05883833913668451,0.0721853259541657
854.2166666662184,-0.049903113,-0.79238224,-0.0002650764,-2.2831023,0.15292391,1.603138,0.7303527,0.04,0.04,0.027498253103352965,-0.0031128926735728146,0.0022488050343882904,-0.011632249587157951,-0.14485893035198563,0.14108579020914055,0.9954887429970214,-0.0042846491628832275,0.05995544771556991,0.07341082098019903
854.2333333328851,-0.050785005,-0.79252213,-0.00027046754,-2.2818131,0.15561536,1.6037047,0.7293727,0.04,0.04,0.025738719295897994,-0.002955233453649786,0.0021771392163083547,-0.011811867615631876,-0.14601269006475717,0.1418174099452972,0.9953281772160175,-0.004396536386154132,0.06108171218133743,0.07464257863070796
854.2499999995517,-0.051672824,-0.7926631,-0.00027589555,-2.2805152,0.15832493,1.6042751,0.72838616,0.04,0.04,0.027217522335121203,-0.002822592457544376,0.0018627676755089695,-0.011991535784409084,-0.14716158451817224,0.14252644736978679,0.9951636996042298,-0.004510285707056825,0.06221762297462234,0.0758804039541879
854.2666666662184,-0.05256649,-0.79280496,-0.00028135933,-2.2792084,0.16105226,1.6048493,0.7273931,0.04,0.04,0.027140291734406574,-0.00257558316764106,0.0019595821689311066,-0.012171909881269725,-0.1482989022026743,0.1432145504569251,0.9949952696708071,-0.004625972730788508,0.06336317045278583,0.07712407107500907
854.283333332885,-0.053465884,-0.7929478,-0.00028685833,-2.2778935,0.1637971,1.6054273,0.72639364,0.04,0.04,0.026066094325383204,-0.002499233959966235,0.0014734541109229227,-0.012351441398602496,-0.14942586925906762,0.1438810581383221,0.994822863521673,-0.0047435695888676625,0.06451801023911398,0.07837343374434907
854.2999999995517,-0.054370925,-0.79309154,-0.00029239204,-2.2765703,0.1665591,1.6060089,0.72538793,0.04,0.04,0.026355052735382856,-0.002270510113197566,0.0015561096537330954,-0.012531683375043887,-0.1505416320963337,0.1445289740014965,0.9946464390866123,-0.004863075444227641,0.06568218350911247,0.07962827688089714
854.3166666662183,-0.05528149,-0.7932362,-0.0002979602,-2.275239,0.16933797,1.606594,0.7243761,0.04,0.04,0.026057708951388037,-0.002168148218549548,0.0011193765130812494,-0.01271171263992045,-0.15164669283207993,0.14515500117378252,0.9944659657487916,-0.004984514780311727,0.06685552247681012,0.08088842126089862
854.333333332885,-0.056197483,-0.79338175,-0.00030356157,-2.2738993,0.17213348,1.6071826,0.72335815,0.04,0.04,0.026539437761030626,-0.0020326861058475587,0.001194643071067425,-0.012891331621298678,-0.15274047100324276,0.1457589814334925,0.9942813908727465,-0.005107927429463716,0.06803818872380803,0.0821536956972457
854.3499999995516,-0.057118803,-0.7935281,-0.00030919618,-2.272552,0.17494518,1.6077746,0.72233427,0.04,0.04,0.025105588149187952,-0.001807573498692483,0.0008028412540772578,-0.013070672364326262,-0.1538209861037738,0.14634303780887456,0.9940927141648993,-0.00523329393360866,0.0692296547566546,0.08342387656506225
854.3666666662183,-0.058045346,-0.7936752,-0.00031486317,-2.2711973,0.17777283,1.6083701,0.7213046,0.04,0.04,0.024811153589254786,-0.0016915003389961214,0.0007092248292650538,-0.013249644687453342,-0.1548900611487268,0.14690686765283859,0.993899898999284,-0.005360578611472983,0.07042986782986616,0.0846988115833452
854.383333332885,-0.05897702,-0.7938231,-0.00032056123,-2.2698355,0.18061616,1.6089689,0.72026926,0.04,0.04,0.02447859640106742,-0.0015471894011090392,0.00040523522117918986,-0.013427521916469773,-0.1559483492445491,0.14744295635211924,0.9937029178898183,-0.005489781515744642,0.07163868663275222,0.08597832199865635
854.3999999995516,-0.0599137,-0.7939721,-0.00032629035,-2.268466,0.1834747,1.6095707,0.7192283,0.04,0.04,0.025473080524118785,-0.0013478130659175247,0.00010584181331374509,-0.013605765410401593,-0.15699528850708275,0.14796227257268388,0.9935017262759142,-0.005620987967690835,0.07285632089204694,0.0872621389098425
854.4166666662182,-0.060855288,-0.7941216,-0.00033204994,-2.267089,0.18634821,1.6101756,0.71818197,0.04,0.04,0.02500542890868651,-0.001207378656453706,0.0002163701390056616,-0.013783110177522012,-0.15802742277411458,0.14846025236574523,0.9932963052263685,-0.005754160569516568,0.07408250671976592,0.08855010930485166
854.4333333328849,-0.061801653,-0.794272,-0.000337839,-2.2657046,0.1892364,1.6107836,0.71713024,0.04,0.04,0.02454917354959285,-0.0011128353445494232,-0.0001240816373648812,-0.013959922465461232,-0.15904754727845566,0.1489347630365062,0.9930866233147729,-0.005889335770132655,0.07531718913608129,0.08984205773516518
854.4499999995516,-0.06275272,-0.794423,-0.0003436572,-2.264313,0.19213884,1.6113945,0.71607333,0.04,0.04,0.024679192109111625,-0.0008298285084959445,-8.997767071416973e-05,-0.014135561391890476,-0.16005210577538878,0.14938666024174163,0.992872657572017,-0.006026478530124236,0.07656030511102578,0.09113773688057394
854.4666666662182,-0.063708335,-0.79457474,-0.00034950365,-2.2629166,0.19505528,1.6120087,0.7150114,0.04,0.04,0.02041852921581544,-0.0008219389992250581,-0.0008211968623106358,-0.01431087731284126,-0.16104242152914694,0.14982023756637064,0.9926544516018512,-0.0061654672813877265,0.07781075873643167,0.09243707347753506
854.4833333328849,-0.06466843,-0.7947274,-0.00035537765,-2.2615132,0.1979853,1.6126258,0.71394444,0.04,0.04,0.02426974232503376,-0.0005352723774096346,-0.0006687794416260218,-0.014485234618084888,-0.16202627714401013,0.15022888529732073,0.9924319084651183,-0.006306489839768787,0.07906955936599036,0.09373974625446736
854.4999999995515,-0.06563288,-0.7948806,-0.00036127854,-2.2601023,0.2009286,1.6132454,0.7128727,0.04,0.04,0.02497747882843626,-0.0004495471617460556,-0.0008083999036179179,-0.014658671445699621,-0.16299306538906,0.1506158716347587,0.9922050056564806,-0.006449529299843604,0.08033660494996922,0.09504556921364828
854.5166666662182,-0.06660155,-0.79503447,-0.00036720562,-2.2586863,0.2038848,1.6138678,0.7117962,0.04,0.04,0.02057619630440044,-0.0002813834703366269,-0.0012214381078567982,-0.01483113106174308,-0.16394134480587985,0.15098219034697805,0.991973796746338,-0.006594476932367536,0.0816108297848947,0.09635440781025173
854.5333333328848,-0.06757435,-0.7951891,-0.0003731585,-2.2572634,0.20685355,1.614493,0.7107151,0.04,0.04,0.024179199107710048,-8.046798346400541e-05,-0.0010353129425766383,-0.015002693346920531,-0.16488085974087546,0.1513270305990973,0.9917381790494102,-0.006741466720185271,0.08289326281680616,0.09766598088282517
854.5499999995515,-0.068551145,-0.7953443,-0.00037913607,-2.2558346,0.20983453,1.6151203,0.70962965,0.04,0.04,0.021962169547373733,-5.245680834708999e-05,-0.0018117745040235889,-0.01517278493083319,-0.16579994314463595,0.15164873816524868,0.9914982030091039,-0.006890414988218763,0.08418291293496974,0.0989801635722595
854.5666666662181,-0.069531865,-0.79550004,-0.00038513765,-2.2544005,0.21282744,1.6157504,0.70853984,0.04,0.04,0.021007133061878847,0.00020630767584295384,-0.0014692454750830919,-0.015341857196413386,-0.16670553779555317,0.15195013394481036,0.9912538416012608,-0.007041282344132914,0.08547981051017457,0.10029677885574129
854.5833333328848,-0.070516355,-0.7956565,-0.00039116258,-2.252961,0.21583179,1.6163832,0.7074457,0.04,0.04,0.021527520661290822,0.00039394397424175054,-0.001845622688079196,-0.015509537688232017,-0.16759667038439083,0.1522261700381357,0.9910050749762074,-0.007194186821360411,0.0867840318316922,0.10161553457231272
854.5999999995514,-0.0715045,-0.7958135,-0.00039721027,-2.2515154,0.2188473,1.617018,0.7063476,0.04,0.04,0.021936831414581803,0.0004288055416121206,-0.002125514122308658,-0.015675701574264234,-0.1684721848395966,0.15248390383170496,0.9907518911630223,-0.007349036371363209,0.08809540523326961,0.1029362977675659
854.6166666662181,-0.072496176,-0.79597104,-0.0004032799,-2.2500658,0.22187361,1.6176552,0.70524555,0.04,0.04,0.018713428362104878,0.0006010659362357118,-0.0024106216317099083,-0.015840314036717422,-0.16932857349790148,0.15271822349719794,0.9904943368085204,-0.007505782613590164,0.08941315560415773,0.10425890649011088
854.6333333328847,-0.073491275,-0.79612917,-0.00040937087,-2.2486105,0.2249104,1.6182947,0.70413977,0.04,0.04,0.02174516728361553,0.0007723955026073259,-0.0022199060735639264,-0.0160038287422591,-0.17017562049523788,0.15293131785262695,0.9902323239850839,-0.007664487425276389,0.0907381205174303,0.10558311253496988
854.6499999995514,-0.07448968,-0.79628795,-0.00041548235,-2.2471504,0.22795726,1.6189361,0.7030303,0.04,0.04,0.019865057520940255,0.0008493072909329658,-0.0029923335919113114,-0.016166226477089922,-0.17100022271694482,0.1531232949177976,0.989965900135412,-0.007825172040259848,0.09206954946930802,0.10690875227100219
854.666666666218,-0.07549127,-0.79644716,-0.00042161328,-2.2456858,0.23101385,1.6195796,0.7019171,0.04,0.04,0.019307306122673396,0.0010562161482680077,-0.002725848420981336,-0.01632597238821043,-0.17181086183116367,0.15329107281742302,0.9896950581711941,-0.007987858745324138,0.09340737135336341,0.10823561761747574
854.6833333328847,-0.07649593,-0.7966068,-0.00042776333,-2.2442167,0.23407975,1.620225,0.7008008,0.04,0.04,0.01918617707628023,0.0012138568447520037,-0.003003189952521801,-0.016483888067735354,-0.17260380798734612,0.15343901715587666,0.989419801128656,-0.008152355978033574,0.09475142550006325,0.10956351396447586
854.6999999995513,-0.077503525,-0.79676706,-0.0004339317,-2.242743,0.23715468,1.6208723,0.6996808,0.04,0.04,0.019461596545511384,0.0012741893788206782,-0.0033125470122907785,-0.016641234961610588,-0.17338011364790096,0.153565732164751,0.9891401018665794,-0.008318987241461078,0.09610184301213134,0.11089224093831415
854.716666666218,-0.07851394,-0.7969277,-0.0004401176,-2.2412653,0.24023819,1.6215215,0.698558,0.04,0.04,0.018233505965481456,0.0015013832407817507,-0.003281557756329434,-0.016795140739516025,-0.17413732256440606,0.1536720463513441,0.9888559932905464,-0.008487382723807632,0.09745818109850082,0.11222161915084898
854.7333333328846,-0.07952704,-0.7970888,-0.00044632048,-2.2397835,0.24332996,1.6221725,0.6974321,0.04,0.04,0.018302452018348347,0.0015726867736348682,-0.0035736324341728576,-0.016948112740540672,-0.17487759745864848,0.1537550485551151,0.9885674653917378,-0.008657719784609696,0.09882043255404833,0.11355145250905999
854.7499999995513,-0.08054273,-0.79725033,-0.00045253916,-2.238298,0.2464295,1.6228251,0.6963033,0.04,0.04,0.017708945154293332,0.001806285377682626,-0.003765168022362708,-0.017098424865122912,-0.17559842403445738,0.1538146598463084,0.9882745386001277,-0.008829978532361425,0.10018836415205358,0.11488150208958
854.7666666662179,-0.08156088,-0.79741216,-0.0004587731,-2.2368085,0.24953657,1.6234792,0.6951717,0.04,0.04,0.017451244547839195,0.0018451126990406963,-0.003935312372571609,-0.017247279753203427,-0.1763005351381956,0.15385601122423687,0.9879772189238968,-0.009004171711334575,0.10156177774341418,0.11621163917952625
854.7833333328846,-0.082581334,-0.79757446,-0.00046502135,-2.235316,0.25265074,1.624135,0.6940377,0.04,0.04,0.016443813267041918,0.0019916569823488772,-0.004167398724908011,-0.01739292265281963,-0.17698464335212583,0.15387264019595387,0.9876755235660106,-0.009180156979355671,0.10294048039271882,0.11754166224346738
854.7999999995512,-0.08360399,-0.79773706,-0.00047128368,-2.2338212,0.25577158,1.624792,0.69290113,0.04,0.04,0.014701695483809729,0.0021275452065344647,-0.004563947929381307,-0.017537366986271362,-0.17765083121600383,0.1538719835485157,0.9873695192235316,-0.009357985231276214,0.10432377887101202,0.11887140018850377
854.8166666662179,-0.08462876,-0.79789996,-0.0004775589,-2.2323225,0.25889882,1.6254504,0.69176245,0.04,0.04,0.01731914853011496,0.0022782167549473265,-0.004263015781980073,-0.01767909428540842,-0.17830214237853503,0.1538477437771142,0.9870591251571529,-0.00953760597310484,0.10571245465109638,0.1202006424605851
854.8333333328845,-0.08565548,-0.7980631,-0.00048384655,-2.2308214,0.26203203,1.6261101,0.69062155,0.04,0.04,0.014587629020734738,0.002393499068892302,-0.004643983519136974,-0.01781999648720039,-0.1789319243706035,0.1538064687142401,0.9867444246619853,-0.009719037320178852,0.10710569064399174,0.12152922176880036
854.8499999995512,-0.08668402,-0.7982266,-0.00049014535,-2.2293165,0.26517084,1.6267709,0.6894785,0.04,0.04,0.01711284124885637,0.00247937334076076,-0.0047785170426584145,-0.01795748020961504,-0.17954300363633713,0.1537381877674014,0.9864253585197832,-0.009902432699790563,0.10850410125662577,0.12285688383739492
854.8666666662178,-0.08771425,-0.7983905,-0.0004964552,-2.22781,0.2683149,1.627433,0.6883336,0.04,0.04,0.013412510833177294,0.0025978898218897983,-0.005118651716684575,-0.01809246275343364,-0.1801308532533071,0.153653934919397,0.9861020224349513,-0.010087584550196677,0.10990673800108305,0.12418353727287165
854.8833333328845,-0.08874609,-0.79855466,-0.0005027746,-2.2263012,0.27146375,1.6280961,0.687187,0.04,0.04,0.013865660891854148,0.002820572846809477,-0.005145920355231759,-0.018224519071550642,-0.18070128991018952,0.15354671404621226,0.9857744288119293,-0.010274414148721621,0.11131358355367656,0.12550895597866124
854.8999999995511,-0.08977937,-0.7987191,-0.000509103,-2.2247899,0.27461702,1.6287601,0.6860386,0.04,0.04,0.014605877060613892,0.002848677987062065,-0.005389714860215555,-0.018355326392962085,-0.18125142259718396,0.15341873732094782,0.9854425718687375,-0.010463180759120403,0.1127247649799168,0.12683290881057802
854.9166666662178,-0.09081399,-0.7988838,-0.0005154397,-2.2232766,0.27777427,1.6294248,0.6848889,0.04,0.04,0.013125630000887512,0.0030202338121454453,-0.0056217369871269796,-0.01848237725885924,-0.18177915443745968,0.15327196147391997,0.9851065137601805,-0.010653616832096974,0.11413977971608028,0.12815524835925685
854.9333333328844,-0.09184983,-0.79904866,-0.0005217842,-2.221762,0.2809352,1.6300902,0.68373764,0.04,0.04,0.012135510139987815,0.0031146869623716045,-0.005730590523911339,-0.0186069500768562,-0.18228736730115433,0.15310396641943716,0.9847662911985751,-0.010845859023400824,0.11555835071027265,0.12947581489285664
854.9499999995511,-0.09288671,-0.79921365,-0.00052813534,-2.2202454,0.28409943,1.6307566,0.68258536,0.04,0.04,0.012943107865881487,0.0032087417537143836,-0.005555228509002141,-0.01872786489844202,-0.18277710842978967,0.15291484963841517,0.9844218871069914,-0.011039739401027353,0.1169807290562568,0.1307944240712647
854.9666666662177,-0.09392456,-0.79937875,-0.00053449196,-2.218728,0.2872665,1.6314236,0.681432,0.04,0.04,0.010548863508708095,0.0033844436511956677,-0.006039554319259288,-0.01884679816283085,-0.18324253739786756,0.1527050080261113,0.9840734058000089,-0.011235258182530282,0.11840612448200548,0.13211090286533822
854.9833333328844,-0.0949632,-0.7995439,-0.0005408539,-2.2172089,0.29043612,1.6320909,0.6802777,0.04,0.04,0.012427131788017576,0.0033443304240432514,-0.006076785054354161,-0.018963203987367963,-0.18369123238272705,0.15247663687440943,0.9837208117622305,-0.011432538600404827,0.1198349325808464,0.13342507448134483
854.999999999551,-0.09600255,-0.7997092,-0.0005472198,-2.2156885,0.29360777,1.6327589,0.6791226,0.04,0.04,0.011200771868402626,0.0036459516310663465,-0.006159142855932664,-0.019076055880179507,-0.1841169987630959,0.1522284049633029,0.9833641597471744,-0.011631460287529852,0.12126689718978173,0.13473669916647107
855.0166666662177,-0.097042456,-0.79987466,-0.00055358943,-2.2141676,0.29678115,1.633427,0.677967,0.04,0.04,0.009747872971610505,0.0036024269631090844,-0.00661676450830484,-0.019186355535930733,-0.18451859980378787,0.1519613271505776,0.9830035215670795,-0.011831952622672441,0.12270147096626129,0.13604569271597944
855.0333333328844,-0.09808281,-0.8000402,-0.00055996183,-2.2126465,0.2999559,1.6340954,0.6768108,0.04,0.04,0.00908088748836633,0.0037226690010230823,-0.006616997443575912,-0.019293349420715,-0.18490145344967474,0.15167363716043203,0.9826389394306076,-0.01203406607189834,0.12413844690383667,0.13735189102728407
855.049999999551,-0.09912344,-0.80020565,-0.0005663366,-2.211125,0.30313155,1.634764,0.67565423,0.04,0.04,0.009181957320070211,0.003838757787806568,-0.006646323834691437,-0.01939811228201572,-0.18526442469653642,0.15137047031805984,0.9822704478731779,-0.012237774271430706,0.1255777622323689,0.13865507473085376
855.0666666662177,-0.10016424,-0.800371,-0.00057271245,-2.2096026,0.30630773,1.6354326,0.67449754,0.04,0.04,0.009429111368097765,0.003964019922284012,-0.006643327316258052,-0.01949929766545446,-0.18560669554158973,0.1510485192582285,0.9818980644100914,-0.012443016830289208,0.12701944951366317,0.1399550709517996
855.0833333328843,-0.10120513,-0.8005365,-0.0005790889,-2.2080805,0.30948412,1.6361012,0.67334086,0.04,0.04,0.0079156006809189,0.004028048433014908,-0.007159366611353413,-0.019596761606879794,-0.18592514782103634,0.15070439564734386,0.9815218583923565,-0.012649726939818511,0.12846308596308434,0.14125176618791055
855.099999999551,-0.10224593,-0.8007021,-0.00058546494,-2.2065585,0.31266034,1.6367699,0.67218417,0.04,0.04,0.008078860405857924,0.0040773435130703195,-0.007107138390405332,-0.019691638534219083,-0.1862230767513448,0.1503409499793092,0.9811418540957988,-0.012857994874354448,0.1299086827697962,0.14254496922124535
855.1166666662176,-0.10328652,-0.8008676,-0.0005918398,-2.2050366,0.31583583,1.6374384,0.67102766,0.04,0.04,0.007298162224556037,0.004299213782327227,-0.007175003472559283,-0.01978275112381899,-0.18649591034402568,0.14995892305082115,0.9807581244273614,-0.013067751272849714,0.13135594596547873,0.1438344559064677
855.1333333328843,-0.10432677,-0.8010331,-0.0005982122,-2.2035153,0.31901032,1.6381068,0.66987145,0.04,0.04,0.006760848138531728,0.004320216595903037,-0.007264590257349823,-0.019870089186233085,-0.18674655939755236,0.14955829991457462,0.9803707117812605,-0.01327897904893322,0.13280470904709565,0.14512010698672706
855.1499999995509,-0.105366565,-0.8011986,-0.0006045817,-2.2019942,0.3221834,1.638775,0.66871595,0.04,0.04,0.007138978410825558,0.004409259478495298,-0.007494344340508441,-0.01995450339173862,-0.1869749246519758,0.1491400352807838,0.9799796410876909,-0.01349155400423635,0.13425501300809672,0.14640175035288036
855.1666666662176,-0.10640581,-0.80136395,-0.00061094796,-2.2004735,0.3253547,1.6394429,0.667561,0.04,0.04,0.006294133880091479,0.0045650341752245804,-0.007362625868378991,-0.020036191696464062,-0.18717821747241026,0.14870385985620826,0.9795849768329209,-0.01370556107118366,0.13570659410538896,0.147679216802111
855.1833333328842,-0.10744434,-0.8015293,-0.0006173095,-2.1989548,0.32852378,1.6401103,0.66640687,0.04,0.04,0.003629279358241533,0.004539466306065221,-0.00793494299446973,-0.020114282226048517,-0.18735515114392554,0.14824948763534318,0.9791868588038392,-0.013920848614373298,0.1371585961074727,0.14895242540339232
855.1999999995509,-0.10848201,-0.8016945,-0.00062366604,-2.1974375,0.33169028,1.640777,0.66525364,0.04,0.04,0.004195737539802735,0.00463325677064752,-0.007839164879031024,-0.020189081324078664,-0.1875143311293947,0.1477778436739692,0.9787853086329231,-0.014137470269695303,0.1386111396949878,0.15022118189916944
855.2166666662175,-0.10951869,-0.8018595,-0.00063001656,-2.195921,0.33485386,1.6414431,0.66410154,0.04,0.04,0.005200701039820288,0.004694160419858873,-0.007729763920139021,-0.020260241559946712,-0.18765183367973712,0.14728863923393706,0.9783803301273114,-0.014355410823565526,0.14006444967197218,0.15148531855644398
855.2333333328842,-0.1105543,-0.8020243,-0.00063636055,-2.194406,0.33801404,1.6421084,0.66295063,0.04,0.04,0.003277978942284321,0.0048396526598895595,-0.008055694352981924,-0.02032780625504406,-0.18776178015468914,0.14678163899681335,0.9779720450083161,-0.014574610222071776,0.1415179206638329,0.1527446825592044
855.2499999995508,-0.11158867,-0.8021889,-0.0006426969,-2.1928928,0.34117052,1.6427732,0.6618011,0.04,0.04,0.0031845282802756003,0.004874625215466055,-0.007898203356337952,-0.02039192711478078,-0.18784951124837246,0.14625860937264287,0.9775604828122665,-0.014795022334751688,0.14297157691764614,0.15399914919130026
855.2666666662175,-0.112621695,-0.8023531,-0.00064902497,-2.1913817,0.34432295,1.6434371,0.6606531,0.04,0.04,0.0019814881975221965,0.004946001446066994,-0.007932938958732372,-0.020452459678866726,-0.18791372956064914,0.14571768441206776,0.9771457350147527,-0.015016557759328947,0.14442500893714375,0.15524861458011616
855.2833333328841,-0.11365325,-0.80251735,-0.0006553438,-2.1898732,0.34747067,1.6441002,0.6595068,0.04,0.04,0.0012796688029226289,0.005127394978161892,-0.008548757217119451,-0.020509911315247382,-0.18795515558560388,0.1451603863588802,0.9767278942732486,-0.015239206751380501,0.14587799870561452,0.15649280053657155
855.2999999995508,-0.114683196,-0.8026813,-0.0006616525,-2.188367,0.35061353,1.6447618,0.6583622,0.04,0.04,0.0013762472425682404,0.004975821460312391,-0.008514513804014356,-0.020564127634476424,-0.18797343105109343,0.14458768986442969,0.9763070149015891,-0.015463049387317504,0.14733032545960928,0.1577316770897943
855.3166666662174,-0.11571141,-0.80284494,-0.00066795055,-2.1868627,0.3537512,1.6454225,0.6572196,0.04,0.04,0.001377371994459864,0.00512693572304046,-0.00819410226471362,-0.020613793837258365,-0.18796944383334854,0.1439975833302819,0.9758831204427615,-0.01568796437200294,0.14878212316915954,0.15896509942134596
855.3333333328841,-0.116737776,-0.8030084,-0.00067423726,-2.1853616,0.35688323,1.646082,0.656079,0.04,0.04,-0.00037201978977385863,0.005217286054556847,-0.008518298151449777,-0.020660017535184864,-0.18793936593872806,0.1433920865066627,0.9754563311390171,-0.015913905632763032,0.15023289595046072,0.16019291689290635
855.3499999995507,-0.117762156,-0.8031715,-0.0006805118,-2.1838632,0.36000922,1.6467402,0.65494055,0.04,0.04,3.657180158711526e-06,0.005217106595459264,-0.008633460480922395,-0.020702786628014135,-0.1878870967713083,0.1427698466098182,0.9750267014011353,-0.016140920882132686,0.15168258083679412,0.16141498350087433
855.3666666662174,-0.118784435,-0.8033343,-0.0006867733,-2.1823676,0.36312878,1.6473972,0.6538045,0.04,0.04,-0.0005664998754095762,0.005375001007104641,-0.008465341967611728,-0.0207414302664386,-0.18780833625155383,0.1421331373010959,0.9745942976498256,-0.016368883605087425,0.1531310738830921,0.16263114354076552
855.383333332884,-0.11980447,-0.80349666,-0.00069302117,-2.1808753,0.36624143,1.6480526,0.6526707,0.04,0.04,-0.0018679126309706362,0.005421323805526734,-0.008672528953979075,-0.020776772154626012,-0.1877062913194259,0.14148116409451755,0.9741592450795096,-0.016597881584616607,0.1545778911336324,0.16384123756155508
855.3999999995507,-0.12082217,-0.8036588,-0.00069925433,-2.1793861,0.36934698,1.6487064,0.6515398,0.04,0.04,-0.0013607716913277557,0.005367354910323918,-0.008847364197461793,-0.020807248335278042,-0.18758037052027882,0.14081366122937783,0.9737215637764136,-0.016827665090199156,0.15602313674283022,0.16504522630284113
855.4166666662173,-0.1218374,-0.8038206,-0.0007054722,-2.177901,0.372445,1.6493591,0.6504116,0.04,0.04,-0.0031727420263027994,0.005556136305265302,-0.00861279897221845,-0.020835274902675893,-0.18742881919821947,0.1401316667910223,0.9732813637775396,-0.017058263044941294,0.15746645432172188,0.1662429497710124
855.433333332884,-0.122850016,-0.8039818,-0.00071167387,-2.1764195,0.37553504,1.6500098,0.6492864,0.04,0.04,-0.0033392230113005184,0.005484537930411371,-0.008779964675298402,-0.02085986658655014,-0.18725244626315996,0.13943435808683677,0.972838762061894,-0.017289667002837805,0.15890741263209068,0.16743429951890715
855.4499999995506,-0.12385993,-0.8041424,-0.00071785855,-2.174942,0.3786168,1.6506588,0.6481641,0.04,0.04,-0.004001816769960698,0.005641925280763793,-0.008612962484821907,-0.020880505629991428,-0.18705422327989463,0.1387231088408815,0.9723938112606103,-0.017521850368262034,0.16034602320448244,0.16861913718271848
855.4666666662173,-0.124866985,-0.8043029,-0.0007240255,-2.173469,0.38168985,1.6513059,0.6470449,0.04,0.04,-0.004876680044985093,0.005571460247730253,-0.00926989103358089,-0.020897225449542138,-0.18683188714433324,0.13799684343062282,0.9719466260271167,-0.017754806578622755,0.16178192041112455,0.16979732985517926
855.483333332884,-0.12587108,-0.80446273,-0.00073017424,-2.1720006,0.38475382,1.6519512,0.64592886,0.04,0.04,-0.005437187932288978,0.005715864387251246,-0.008708141310243,-0.02090975998392238,-0.18658641848916618,0.13725769249103753,0.9714972830695695,-0.017988475919143685,0.16321495951389514,0.17096877116429396
855.4999999995506,-0.12687206,-0.8046222,-0.00073630427,-2.1705365,0.38780838,1.6525943,0.6448166,0.04,0.04,-0.005163286070297701,0.0056391405672040484,-0.00909944575868682,-0.020918072791453773,-0.18631800757347572,0.13650462749784764,0.9710458501555341,-0.018222687190042455,0.16464505889162218,0.17213336442963062
855.5166666662172,-0.12786986,-0.804781,-0.000742414,-2.1690764,0.39085317,1.6532358,0.64370775,0.04,0.04,-0.004908397000447096,0.00585965161277735,-0.00862483373840206,-0.020923687512675503,-0.18602562415147028,0.13573696003598648,0.9705923555069801,-0.018457561113687928,0.16607244778662855,0.1732909113465096
855.5333333328839,-0.1288643,-0.8049394,-0.0007485031,-2.1676214,0.39388776,1.6538749,0.6426024,0.039999995,0.04,-0.00704200467498417,0.00571796697410587,-0.009175711855125002,-0.020926160411768632,-0.18570374114620894,0.13495906306120245,0.970136982889947,-0.01869313989806809,0.1674963161702525,0.17444135123111312
855.5499999995506,-0.12985535,-0.8050973,-0.0007545707,-2.166172,0.39691195,1.6545116,0.64150095,0.03999999,0.04,-0.008486925100292808,0.005753748811823667,-0.00913931114288058,-0.02092198887967625,-0.18535991631402826,0.13416453821364846,0.9696798461863287,-0.018929123358673867,0.16891623618432336,0.17558470702840823
855.5666666662172,-0.13084283,-0.80525446,-0.0007606164,-2.164727,0.3999252,1.6551461,0.6404037,0.03999999,0.04,-0.006330094700812694,0.00594753831187067,-0.008762628064551414,-0.02091548137798717,-0.18499520790022805,0.13335816905560366,0.9692209343183401,-0.019165536713634967,0.17033280175458584,0.1767206816645842
855.5833333328839,-0.13182661,-0.8054112,-0.0007666394,-2.163288,0.4029271,1.6557783,0.63931036,0.039999988,0.04,-0.009742233505516396,0.005901462277083103,-0.009166614039224363,-0.020906258581062605,-0.18460302678119134,0.1325408449287274,0.968760458184383,-0.01940240520153086,0.17174508312515363,0.17784922758649754
855.5999999995505,-0.13280658,-0.80556726,-0.00077263865,-2.1618547,0.40591753,1.656408,0.638221,0.039999977,0.04,-0.009007420429130164,0.00583250882018882,-0.008910101018999583,-0.020891749254605414,-0.18418910111746228,0.13170910144833767,0.9682984487476001,-0.019639776028544994,0.1731531746629178,0.17897030886349002
855.6166666662172,-0.13378264,-0.8057226,-0.0007786136,-2.1604264,0.408896,1.6570354,0.63713634,0.039999977,0.04,-0.00827118308883712,0.0060062881290318115,-0.008756490254491212,-0.020872912214436302,-0.18375261167394835,0.13086554392789992,0.9678349475015783,-0.01987738211924365,0.17455729498292966,0.18008374397192398
855.6333333328838,-0.13475464,-0.80587745,-0.00078456366,-2.1590047,0.41186213,1.65766,0.636056,0.039999973,0.04,-0.011441580059790013,0.005907258232498713,-0.009214759704678777,-0.020852292649363842,-0.1832883967829602,0.13001246999043067,0.9673701726065992,-0.020115308755551998,0.17595649503047098,0.1811895012447991
855.6499999995505,-0.13572252,-0.80603176,-0.0007904879,-2.1575887,0.41481557,1.6582817,0.63498026,0.039999973,0.04,-0.010125690622375672,0.005946680502497137,-0.009281725969212395,-0.020826282227591447,-0.18280184306725283,0.1291449225956232,0.9669041568048664,-0.020353563315296017,0.17735101124198183,0.1822874181760407
855.6666666662171,-0.13668616,-0.8061852,-0.00079638546,-2.156179,0.417756,1.6589009,0.6339094,0.03999997,0.04,-0.011373745343545849,0.006144763495330441,-0.008576141249960756,-0.020796240950665623,-0.18229278892653472,0.1282676189948076,0.966437007624274,-0.0205918907160201,0.17874058967312745,0.18337744118151814
855.6833333328838,-0.13764542,-0.8063381,-0.00080225617,-2.1547763,0.4206831,1.6595173,0.6328434,0.039999966,0.04,-0.01297965300159909,0.006003821479771965,-0.00900810740700475,-0.02076354963212207,-0.1817588686765742,0.1273784801452132,0.965968862175198,-0.020830326932928182,0.18012477785934058,0.18445953265945322
855.6999999995504,-0.13860019,-0.8064901,-0.0008080993,-2.1533787,0.42359644,1.6601309,0.6317821,0.039999958,0.04,-0.009762834994830882,0.0060802644039625875,-0.008820437752188326,-0.02072735101352175,-0.18120562371663146,0.1264782706129793,0.9654996753778993,-0.021069130509291555,0.1815043424208237,0.18553339933051888
855.7166666662171,-0.13955036,-0.80664146,-0.0008139139,-2.151988,0.42649576,1.6607413,0.63072616,0.039999954,0.04,-0.01337013026692091,0.006043795375840211,-0.008954554004292348,-0.020686742330345703,-0.18062046921663769,0.1255697153044021,0.9650296844580419,-0.021307898482587156,0.1828782123551541,0.1865991452897117
855.7333333328837,-0.14049585,-0.80679214,-0.0008196989,-2.1506045,0.42938083,1.6613489,0.62967557,0.03999995,0.04,-0.013783539831901948,0.006064709537043078,-0.008804105215265423,-0.020642232267408363,-0.18001339979319428,0.12464818547597557,0.9645589549232886,-0.02154657566146529,0.18424636181329682,0.18765672306933695
855.7499999995504,-0.1414365,-0.806942,-0.00082545425,-2.1492286,0.4322511,1.6619533,0.6286302,0.03999995,0.04,-0.015309780982963872,0.006121030768796443,-0.00875569057376957,-0.020595516767111008,-0.17938353072139424,0.12371721242025105,0.9640876709352819,-0.021785229117555427,0.18560824326671208,0.18870597916951184
855.766666666217,-0.14237225,-0.8070911,-0.0008311791,-2.1478603,0.43510637,1.6625547,0.6275902,0.039999947,0.04,-0.015216838768239427,0.0061482942803947616,-0.008665997866708075,-0.020544514583333708,-0.17873400937744904,0.12277716056821537,0.9636158741082848,-0.022023819487309134,0.18696397776750825,0.18974685651959447
855.7833333328837,-0.1433029,-0.8072394,-0.0008368729,-2.1464984,0.43794626,1.6631527,0.6265558,0.039999943,0.04,-0.013680480684685747,0.005996822899206888,-0.008845185324779514,-0.02048877149119952,-0.17806246155765654,0.12182560051901192,0.9631436096878943,-0.02226240169445192,0.18831374479282473,0.1907792077514501
855.7999999995503,-0.14422847,-0.8073869,-0.0008425349,-2.1451437,0.44077045,1.6637475,0.62552714,0.039999943,0.04,-0.015000312486934675,0.006261617935979236,-0.008516787796208902,-0.0204296958961225,-0.17736369751006995,0.12086514843231656,0.9626709927106107,-0.02250079479910244,0.18965732300054236,0.19180295581466966
855.816666666217,-0.14514878,-0.80753356,-0.00084816397,-2.143797,0.44357857,1.664339,0.6245044,0.039999943,0.04,-0.016618547487334823,0.006123230264482027,-0.008683655243468813,-0.020367554003888087,-0.17664044031726045,0.1198964447888882,0.9621981935201974,-0.022738935332170706,0.19099414709904153,0.1928180826072534
855.8333333328836,-0.14606373,-0.8076795,-0.0008537602,-2.1424577,0.4463704,1.6649268,0.6234876,0.039999936,0.04,-0.01643695942314949,0.006058476023088066,-0.008697116758571433,-0.020301835799602742,-0.17589623616742575,0.11891861842467183,0.9617252800666576,-0.02297685549740243,0.19232421563364047,0.1938245234047162
855.8499999995503,-0.1469732,-0.8078243,-0.00085932255,-2.1411266,0.44914562,1.665511,0.6224769,0.039999936,0.04,-0.017853340092299774,0.0060958758910656385,-0.008270442745450524,-0.02023223438773466,-0.17512841531892753,0.11793209159825066,0.9612524005159109,-0.023214440162631276,0.19364709285193643,0.19482226695202956
855.8666666662169,-0.14787717,-0.8079685,-0.0008648508,-2.139804,0.4519039,1.6660918,0.62147224,0.039999932,0.04,-0.017943444864343405,0.006214703176551928,-0.008536517624979645,-0.020159004541386187,-0.17433955958627428,0.1169365014739285,0.9607796204232686,-0.023451663237568268,0.19496287376190194,0.19581118028655123
855.8833333328836,-0.14877547,-0.8081116,-0.00087034405,-2.1384902,0.45464492,1.6666689,0.62047404,0.03999993,0.04,-0.020069289812019164,0.00616195589286106,-0.008095683917841434,-0.020082091936252038,-0.17352807533937203,0.11593202486059731,0.9603071475218786,-0.023688313227149736,0.19627080670494637,0.19679130232364195
855.8999999995502,-0.14966792,-0.80825394,-0.00087580085,-2.1371849,0.4573683,1.6672423,0.61948204,0.03999992,0.04,-0.018646030370117472,0.006036681405827138,-0.008401734083252066,-0.020001694526297527,-0.1726993630508471,0.1149186079558694,0.9598349852539433,-0.02392467037093758,0.19757133076345515,0.1977624344777389
855.9166666662169,-0.15055457,-0.8083952,-0.00088122155,-2.135888,0.46007383,1.6678119,0.6184968,0.03999992,0.04,-0.019686160112852846,0.006241211557891924,-0.008019962767491506,-0.019916721357085936,-0.1718465130659479,0.11389733791938073,0.9593632796736892,-0.02416037094595936,0.1988640456404822,0.1987245969702709
855.9333333328835,-0.15143524,-0.80853564,-0.00088660565,-2.1345997,0.4627612,1.6683776,0.61751795,0.03999991,0.04,-0.019173633559255165,0.006091339125377515,-0.008223771145265957,-0.019829771703156376,-0.17097478701810534,0.11286916304136811,0.9588920708436003,-0.024395666880342455,0.20014914564536201,0.19967765876073099
855.9499999995502,-0.15230988,-0.80867493,-0.0008919519,-2.1333194,0.46542996,1.6689396,0.61654586,0.03999991,0.04,-0.01935080483490559,0.006286972997579521,-0.007836056493082388,-0.019738966579953304,-0.17007865050119694,0.11183516869057583,0.958421472453977,-0.02463040070587411,0.2014265135804361,0.2006214946785333
855.9666666662168,-0.15317838,-0.80881345,-0.00089726044,-2.1320481,0.46808007,1.6694976,0.61558056,0.039999902,0.04,-0.020839181501619564,0.006058897767127758,-0.008104492218929948,-0.019646468653614517,-0.16915817447393194,0.11079806620565044,0.9579516063178323,-0.02486451607522952,0.20269576470346726,0.2015562024962419
855.9833333328835,-0.15404063,-0.80895096,-0.00090253033,-2.1307864,0.47071114,1.6700517,0.6146223,0.0399999,0.04,-0.02221471750352144,0.006163987059695786,-0.0076997013840784945,-0.0195485287344805,-0.16821599351948296,0.10974885935499032,0.9574826355971413,-0.0250978308573521,0.2039564782364668,0.2024817433784718
855.9999999995501,-0.15489654,-0.80908746,-0.0009077606,-2.1295342,0.47332272,1.670602,0.613671,0.039999895,0.04,-0.02240843647158819,0.006291907763550375,-0.007534593792080102,-0.019447600814988614,-0.16725451328057478,0.10869248286538433,0.957014657194973,-0.025330370712898367,0.20520865395353982,0.2033979512583936
856.0166666662168,-0.15574601,-0.80922294,-0.00091295154,-2.1282911,0.47591484,1.6711481,0.6127269,0.0399999,0.04,-0.021838086712167026,0.005999640659282157,-0.00768440509584245,-0.019344322100241493,-0.16627226221573405,0.10763153646814332,0.9565477157723472,-0.025562139693109175,0.2064522896508885,0.20430491076555315
856.0333333328834,-0.15658899,-0.8093574,-0.0009181021,-2.1270578,0.4784871,1.6716897,0.61179006,0.039999887,0.04,-0.02348336679913743,0.006057288508926062,-0.007631857401246833,-0.019237881831502934,-0.16526718040238225,0.10656336473954796,0.9560819945502953,-0.025793075586151012,0.2076868813913899,0.20520257368379843
856.0499999995501,-0.15742536,-0.8094907,-0.0009232119,-2.1258345,0.48103926,1.6722274,0.6108606,0.03999988,0.04,-0.024138403398499264,0.006171559847267805,-0.007096300213849105,-0.019127320085672396,-0.1642447291657742,0.1054889301633384,0.9556175899167381,-0.02602301862322054,0.20891233256447075,0.20609090626694948
856.0666666662167,-0.15825504,-0.80962306,-0.0009282801,-2.1246202,0.48357093,1.6727606,0.60993856,0.039999887,0.04,-0.022480343497921496,0.0060590468175497625,-0.007641407067704442,-0.01901382875211964,-0.16320429188246782,0.10440661770944756,0.9551545230201346,-0.02625213788036972,0.21012900069461252,0.20696972116223358
856.0833333328834,-0.15907791,-0.8097544,-0.0009333066,-2.1234157,0.48608187,1.6732892,0.60902417,0.039999884,0.04,-0.024299461608867645,0.0059997055309651826,-0.007386107795981367,-0.01889753757798171,-0.1621400875024231,0.10332105219229011,0.9546929824170379,-0.026480296490051076,0.2113362815198728,0.20783907076104205
856.09999999955,-0.15989394,-0.8098845,-0.0009382906,-2.1222222,0.48857182,1.6738137,0.60811734,0.039999884,0.04,-0.026466449715023543,0.006261232421683749,-0.006640448908945551,-0.018778185112948043,-0.161056980722986,0.10223065145433285,0.9542331180596043,-0.02670727726276387,0.2125338061492363,0.2086989673744791
856.1166666662167,-0.160703,-0.8100136,-0.00094323163,-2.1210377,0.4910407,1.6743338,0.6072182,0.03999988,0.04,-0.023146688354813705,0.005923469930058101,-0.007185684644706036,-0.018656089187986002,-0.15995743759973352,0.10113449356709968,0.9537748456538816,-0.026933353431123276,0.21372232862298368,0.20954928899625996
856.1333333328834,-0.16150509,-0.8101415,-0.0009481292,-2.119864,0.4934881,1.6748493,0.6063267,0.039999876,0.04,-0.026728000203890545,0.006125121773031816,-0.006770644405729165,-0.018530867456961753,-0.15883325020392589,0.10003379825474532,0.9533184564892304,-0.027158323150439655,0.21490082799463953,0.21039006660930054
856.14999999955,-0.16230005,-0.81026834,-0.0009529828,-2.118701,0.49591377,1.6753601,0.6054431,0.039999876,0.04,-0.026773887129749596,0.00601049422967459,-0.006792545712697162,-0.018401448359810745,-0.15769406007948167,0.0989273534654021,0.9528640300336468,-0.027382097585683537,0.21606927634750728,0.2112212792748638
856.1666666662167,-0.16308779,-0.810394,-0.0009577919,-2.117548,0.49831748,1.6758661,0.6045677,0.039999876,0.04,-0.025875445907930228,0.005944078679639975,-0.006711240922996353,-0.018269638275023044,-0.15653670074119846,0.09781764467831323,0.9524116129742644,-0.027604668312151664,0.21722782319098782,0.2120428602684871
856.1833333328833,-0.16386826,-0.81051856,-0.0009625561,-2.1164062,0.500699,1.6763676,0.60370034,0.03999987,0.04,-0.02794112373152302,0.00606861207588516,-0.006412602984218196,-0.018134782286442983,-0.15535985333766078,0.09670351855034202,0.9519613663672103,-0.02782591455682006,0.21837605158354748,0.21285482263301042
856.19999999955,-0.16464143,-0.81064194,-0.00096727465,-2.115275,0.5030581,1.6768649,0.60284096,0.039999876,0.04,-0.02684580247942492,0.006140094702428156,-0.006126737486544798,-0.01799691470096486,-0.15416737710957523,0.09558380286042675,0.9515132979502593,-0.028045904958374782,0.21951431788875544,0.21365705062253665
856.2166666662166,-0.16540718,-0.8107643,-0.00097194803,-2.1141543,0.5053946,1.6773566,0.60198987,0.039999865,0.04,-0.027846160719269264,0.005716154578047639,-0.006833168218456365,-0.017858285243178576,-0.15295530482910397,0.0944638274742725,0.9510676016704018,-0.028264652343675787,0.22064195977656392,0.21444964925771812
856.2333333328833,-0.1661654,-0.81088513,-0.0009765747,-2.1130443,0.5077082,1.6778439,0.6011472,0.03999986,0.04,-0.02769585187110124,0.006079215693793882,-0.005552477583514737,-0.017713980124978837,-0.1517268985100208,0.09333741944769,0.9506243045827478,-0.028481959471597713,0.22175927597106318,0.21523250925920873
856.2499999995499,-0.16691607,-0.8110048,-0.000981155,-2.111946,0.50999886,1.6783267,0.6003129,0.03999986,0.04,-0.029960511600046758,0.005982750068606046,-0.005728610770350251,-0.01756853463466554,-0.15047947626813818,0.09220944710202678,0.9501835754998723,-0.02869768945611477,0.22286571339619698,0.2160057621050024
856.2666666662166,-0.16765907,-0.81112355,-0.0009856881,-2.1108587,0.51226616,1.6788043,0.5994871,0.039999865,0.04,-0.02821877046992327,0.0057481957794397465,-0.006403739564819766,-0.01742088460998234,-0.14921742127560644,0.09107642837088936,0.9497454627659503,-0.028912071923821045,0.22396150209179994,0.2167692174487589
856.2833333328832,-0.16839442,-0.81124085,-0.0009901735,-2.1097827,0.51451015,1.6792768,0.59866977,0.039999858,0.04,-0.03002376623038039,0.005850262075754453,-0.005464410874589376,-0.017270514639798007,-0.147937494005079,0.08994213566702776,0.9493101039601487,-0.029124957219198958,0.22504619688227945,0.21752303936588804
856.2999999995499,-0.169122,-0.81135666,-0.0009946113,-2.1087177,0.51673067,1.6797445,0.5978613,0.039999858,0.04,-0.029332974383855515,0.005811322489299164,-0.005286008282889831,-0.01711693910704025,-0.1466437759899455,0.08880510268830973,0.9488775354139817,-0.02933617599391264,0.22611995459238898,0.21826721627371815
856.3166666662165,-0.16984178,-0.81147164,-0.000999001,-2.1076648,0.5189269,1.6802069,0.5970612,0.039999854,0.04,-0.031249717122783238,0.005998448626234887,-0.005905493273195006,-0.01696136982534427,-0.14533270605097393,0.08766309945350256,0.9484479872973269,-0.029545894581302655,0.2271823398142547,0.21900146114024152
856.3333333328832,-0.17055368,-0.81158537,-0.0010033417,-2.106623,0.52109903,1.6806643,0.59627,0.039999846,0.04,-0.02953128322840115,0.0058747009813286954,-0.005370218688338646,-0.016802662607753732,-0.14401000174830988,0.08652119880024192,0.9480214142806548,-0.029753979118347512,0.2282337513643319,0.21972585994847402
856.3499999995498,-0.17125766,-0.81169754,-0.0010076334,-2.105593,0.523247,1.6811167,0.5954878,0.03999985,0.04,-0.031692064660981956,0.005851993261873911,-0.004720058005647232,-0.01664159410486951,-0.14266890358348175,0.0853763747293654,0.9475979908786364,-0.02996024099254457,0.2292735776545609,0.2204406002348896
856.3666666662165,-0.17195363,-0.81180865,-0.0010118762,-2.1045742,0.5253704,1.6815637,0.59471434,0.03999985,0.04,-0.030268216681861304,0.005741537538456187,-0.005471129909118133,-0.016479709152467173,-0.1413153347239881,0.08423027703439558,0.9471777449872506,-0.030164932168257462,0.23030216616134677,0.22114544654942078
856.3833333328831,-0.17264153,-0.8119186,-0.001016069,-2.1035674,0.52746916,1.682006,0.5939498,0.039999843,0.04,-0.031446062274920195,0.005877583380348161,-0.004820655146464681,-0.016314889079407743,-0.13994616588293796,0.08308425960250833,0.9467607661885811,-0.030367856736159264,0.23131939603703824,0.2218404424362767
856.3999999995498,-0.17332129,-0.8120271,-0.0010202117,-2.1025724,0.5295433,1.682443,0.5931947,0.03999984,0.04,-0.03218770781270308,0.005645756880626185,-0.004525753498363372,-0.016148492252792274,-0.1385604646641993,0.08193694585921603,0.9463471890413585,-0.030568756926624373,0.23232479221647873,0.22252581831115756
856.4166666662164,-0.17399287,-0.8121343,-0.0010243038,-2.1015892,0.5315923,1.6828747,0.59244794,0.03999983,0.04,-0.03179517691891398,0.005738723168144388,-0.004782971644945455,-0.01598057825615102,-0.13716316072085705,0.08078537778867918,0.945937077724166,-0.03076825495873162,0.2333186012358118,0.22320123160687072
856.4333333328831,-0.17465623,-0.8122403,-0.0010283453,-2.1006188,0.53361654,1.6833009,0.59171075,0.039999828,0.04,-0.033986421364806674,0.00545075661184391,-0.004478322845957727,-0.015807978188888266,-0.13575009492834583,0.07963597479244185,0.945530593631798,-0.03096560273809293,0.2343000669522367,0.22386716279870866
856.4499999995497,-0.17531128,-0.81234485,-0.0010323359,-2.0996604,0.5356154,1.6837219,0.590983,0.039999824,0.04,-0.032587608578804605,0.005788113291260721,-0.004131646435778791,-0.015634278476784738,-0.13433027156076735,0.07848362538949354,0.945127758133393,-0.03116092813715257,0.23526967364208462,0.22452326834367242
856.4666666662164,-0.17595804,-0.812448,-0.0010362752,-2.0987136,0.5375889,1.6841376,0.5902642,0.039999828,0.04,-0.03228041960774419,0.005606689072212845,-0.004237253503669436,-0.015460037558579658,-0.1328981730983883,0.07733077710231262,0.9447286051166198,-0.031354480300913534,0.2362274827231958,0.2251695708698842
856.483333332883,-0.17659645,-0.8125499,-0.0010401629,-2.097779,0.53953695,1.6845479,0.5895547,0.039999828,0.04,-0.03319297346622285,0.005577682101937098,-0.004080888939372862,-0.015283075683859774,-0.13145088982342534,0.07617870666202252,0.9443332481093163,-0.03154605939080835,0.23717324013914712,0.22580614875179658
856.4999999995497,-0.17722645,-0.8126505,-0.0010439993,-2.0968573,0.54145926,1.6849529,0.58885455,0.039999824,0.04,-0.03459427923084846,0.005650906952495149,-0.0038751090372546315,-0.015104140467336338,-0.12999112357740633,0.07502609939413662,0.9439418424066442,-0.03173557399263176,0.23810660299020228,0.22643298591365693
856.5166666662163,-0.17784803,-0.8127497,-0.001047784,-2.0959482,0.5433559,1.6853522,0.5881636,0.039999828,0.04,-0.034562840300988995,0.005485122228146566,-0.0036992892341380923,-0.01492348271142984,-0.1285233792135728,0.07387348396568266,0.9435544492188188,-0.03192308739537604,0.23902748104552418,0.22705017321189186
856.533333332883,-0.1784611,-0.8128475,-0.0010515162,-2.0950508,0.5452267,1.6857462,0.58748215,0.039999828,0.04,-0.032776342994100816,0.0054612385297775345,-0.003713098850988139,-0.014739875818921007,-0.1270467041288307,0.07272032022047112,0.94317101838248,-0.03210859248887098,0.23993639791071378,0.22765762304252224
856.5499999995496,-0.17906561,-0.81294405,-0.0010551958,-2.0941658,0.5470714,1.6861347,0.5868102,0.039999824,0.04,-0.03416708494849985,0.005467874756320823,-0.0036456337634716007,-0.01455557870656142,-0.12555614169357251,0.07156843474646445,0.9427917092671252,-0.03229202949702431,0.24083298187242602,0.22825532329076473
856.5666666662163,-0.17966162,-0.8130392,-0.001058823,-2.0932932,0.54888994,1.6865177,0.58614784,0.03999982,0.04,-0.034475486420859625,0.005568132762093225,-0.0032863333654375992,-0.014369065608713968,-0.12405559132784735,0.0704177959963986,0.9424166026816206,-0.032473239741515295,0.24171711990618355,0.22884332988964798
856.583333332883,-0.180249,-0.81313294,-0.001062397,-2.0924335,0.55068207,1.6868953,0.58549505,0.039999817,0.04,-0.035421708667415785,0.005544179304076136,-0.0031335741623506053,-0.014181175626364749,-0.12254436287596845,0.06926574477663772,0.9420458189580446,-0.032652243245468934,0.24258859353991835,0.22942162121088314
856.5999999995496,-0.18082775,-0.81322527,-0.0010659178,-2.0915864,0.5524481,1.6872671,0.58485174,0.039999817,0.04,-0.03515905366686667,0.005210643165418083,-0.0031059477829664672,-0.013992978229971469,-0.12102732892729501,0.0681185875574978,0.9416793726780268,-0.032829131002937974,0.24344738459313492,0.2299903871144884
856.6166666662162,-0.1813979,-0.8133163,-0.0010693853,-2.090752,0.55418766,1.6876336,0.5842181,0.03999981,0.04,-0.03496574208172731,0.005560528051432034,-0.0028575482682091646,-0.013802029771501433,-0.11950081345183622,0.06697058713635612,0.941317307252081,-0.033003714470900634,0.24429371949079065,0.2305494752025467
856.6333333328829,-0.18195935,-0.8134059,-0.0010727997,-2.0899298,0.5559008,1.6879945,0.58359414,0.039999817,0.04,-0.034980491297176286,0.005221281716683013,-0.0029017370100747897,-0.013610526110130056,-0.11796620457184952,0.06582441095252382,0.9409596970189327,-0.03317607957885364,0.2451274047439743,0.23109900859436833
856.6499999995496,-0.18251203,-0.8134943,-0.0010761608,-2.0891209,0.55758744,1.6883497,0.5829798,0.039999817,0.04,-0.035963707092756536,0.00517737908322935,-0.0029144679973391874,-0.01341841676050362,-0.11642222469312682,0.06468135781822007,0.9406066333058205,-0.033346214064536084,0.24594829190228615,0.2316390059963988
856.6666666662162,-0.18305606,-0.81358117,-0.0010794677,-2.0883248,0.5592474,1.6886994,0.5823751,0.039999813,0.04,-0.036226992294396965,0.005465688359282406,-0.0022442270152245314,-0.013224123597169325,-0.11487327210772055,0.06353918543239097,0.940258214827852,-0.03351398243258185,0.24675625434074205,0.2321694496999475
856.6833333328829,-0.18359135,-0.8136666,-0.0010827215,-2.0875413,0.5608807,1.6890434,0.58178025,0.03999981,0.04,-0.03561355374803732,0.005213677531726302,-0.0023962514606568064,-0.013029201331394725,-0.11331754426210622,0.0623994051325306,0.9399144324763575,-0.03367937851983798,0.24755145176278207,0.23269043344173612
856.6999999995495,-0.18411784,-0.8137507,-0.0010859217,-2.0867705,0.5624872,1.6893816,0.5811952,0.039999813,0.04,-0.03577282421725059,0.005158788089335009,-0.0025501329440125176,-0.012832860561375406,-0.11175726238468241,0.06126066685712687,0.9395753821046461,-0.03384248490897165,0.24833379707270264,0.2332018713251419
856.7166666662162,-0.18463558,-0.8138335,-0.0010890677,-2.086013,0.56406695,1.6897146,0.5806197,0.03999981,0.04,-0.03673900050342738,0.005301692422302051,-0.0019341877321776835,-0.012636053974115598,-0.11018941203801272,0.060127356811979754,0.9392410965515343,-0.03400316636802162,0.24910326778209282,0.23370389214966608
856.7333333328828,-0.18514453,-0.8139148,-0.00109216,-2.085268,0.5656198,1.6900417,0.5800542,0.039999813,0.04,-0.03568104235034397,0.005127928243831015,-0.00213528425900833,-0.012438767256638186,-0.10861706148142769,0.05899524330574217,0.9389116317310814,-0.03416141214406684,0.24985986820542444,0.23419648157213904
856.7499999995495,-0.1856447,-0.8139946,-0.0010951981,-2.0845356,0.567146,1.690363,0.57949835,0.039999817,0.04,-0.03604205646094982,0.005046768018515668,-0.001891535212461548,-0.012240516835620715,-0.1070398861665317,0.05786665565770678,0.9385870126772816,-0.034317352634297686,0.2506035969932144,0.23467973094362535
856.7666666662161,-0.18613607,-0.81407297,-0.001098182,-2.0838163,0.568645,1.6906788,0.57895213,0.039999813,0.04,-0.03699527333278496,0.005305916568909552,-0.0016695683479728274,-0.012040565608139125,-0.10545718670381306,0.056739964043807635,0.938267379254918,-0.034470862491518095,0.2513342682384561,0.23515350364015117
856.7833333328828,-0.1866186,-0.81415004,-0.0011011119,-2.0831103,0.5701172,1.6909889,0.57841593,0.03999982,0.04,-0.03727560393751439,0.004963082268710783,-0.0017016200142938587,-0.011840176744937612,-0.10387198967931849,0.05561934746261771,0.9379527546680586,-0.034621786306695615,0.2520517414046183,0.23561808414982427
856.7999999995494,-0.18709233,-0.8142257,-0.0011039879,-2.0824163,0.57156265,1.6912935,0.57788944,0.03999982,0.04,-0.0347362018596975,0.004950200968409368,-0.0016596822997927418,-0.011639818463770078,-0.10228621697411733,0.05450089137060507,0.9376430024650045,-0.034770379999583476,0.25275676668353847,0.2360733731253466
856.8166666662161,-0.18755725,-0.8142999,-0.0011068099,-2.0817354,0.5729812,1.6915922,0.5773726,0.039999817,0.04,-0.03720551402244254,0.004960961054206736,-0.0014400869940534022,-0.011439181288348699,-0.10069305699568422,0.053387550277012266,0.9373383517631669,-0.03491654471282181,0.2534486132705722,0.23651944877842715
856.8333333328827,-0.18801336,-0.8143727,-0.0011095778,-2.0810676,0.57437295,1.6918855,0.5768655,0.03999981,0.04,-0.03693341322454913,0.004939113698707032,-0.0012103277522212963,-0.011236711417532796,-0.09909760664308959,0.05227780609890857,0.937038777677712,-0.035060194870426074,0.254127472634779,0.23695640847245886
856.8499999995494,-0.18846063,-0.8144442,-0.0011122915,-2.0804136,0.5757378,1.6921731,0.5763685,0.039999813,0.04,-0.038395764504217667,0.004972511206741137,-0.0009809085525835926,-0.011033098028952384,-0.09750135113452771,0.051170438647113944,0.9367444366370844,-0.035201042498718076,0.25479289106035996,0.23738435016145917
856.866666666216,-0.18889908,-0.8145143,-0.0011149511,-2.079771,0.5770758,1.6924549,0.5758811,0.03999982,0.04,-0.03425743670817383,0.004697684543439329,-0.0015962488397081032,-0.010831457526066141,-0.09590876948170962,0.05006877462180231,0.9364551203046857,-0.03533968995339163,0.25544591365395425,0.23780306803452195
856.8833333328827,-0.18932879,-0.81458294,-0.0011175573,-2.0791419,0.57838684,1.6927311,0.5754036,0.03999981,0.04,-0.03771071599310005,0.005010258242313381,-0.0007954153224076776,-0.010628519356092096,-0.09430916691714678,0.04897313983962421,0.9361710667645384,-0.0354756611444518,0.25608571807570707,0.23821275410220952
856.8999999995493,-0.18974966,-0.8146503,-0.0011201092,-2.0785258,0.5796709,1.6930017,0.57493573,0.039999813,0.04,-0.03721410497039557,0.004865489953156943,-0.0009090424223368032,-0.010425137368423237,-0.09271174928392703,0.047880996364554236,0.9358922810526191,-0.03560908707881108,0.25671246074791726,0.23861337699359636
856.916666666216,-0.19016178,-0.8147161,-0.0011226077,-2.0779223,0.58092844,1.6932667,0.5744776,0.039999817,0.04,-0.03650975015752067,0.004694751245010176,-0.0006201388946358577,-0.010222407820722642,-0.09111660643766398,0.046795701497169086,0.9356187093069385,-0.03573996536052646,0.25732628610899866,0.23900516343417466
856.9333333328826,-0.19056518,-0.8147805,-0.0011250526,-2.0773318,0.5821593,1.6935259,0.5740293,0.039999813,0.04,-0.03703571526698646,0.004714112255554959,-0.0007203628074048396,-0.010019583290726851,-0.08952012495310532,0.045716015601662614,0.935350450824799,-0.03586822255633321,0.25792700150335657,0.2393881088274486
856.9499999995493,-0.19095984,-0.81484354,-0.0011274437,-2.0767539,0.58336353,1.6937796,0.57359064,0.039999817,0.04,-0.03627792445368705,0.004654769926104585,-0.0006526204420875814,-0.009815836979314305,-0.08792872093509499,0.04463976253816963,0.9350874451547759,-0.03599397513493644,0.2585149618554059,0.2397622117115155
856.9666666662159,-0.19134577,-0.8149052,-0.0011297818,-2.076189,0.58454126,1.6940274,0.57316166,0.039999813,0.04,-0.0374132460348342,0.004531965052934073,-0.0005354078702390908,-0.00961293407398664,-0.08633660205836644,0.04357046395572502,0.9348298116652538,-0.03611712516192906,0.2590897438908585,0.24012763502461132
856.9833333328826,-0.19172311,-0.81496555,-0.0011320667,-2.0756366,0.5856924,1.69427,0.5727424,0.039999817,0.04,-0.03587595758149931,0.004881892823169198,-0.0003015030611175362,-0.009408550478198687,-0.0847499072319936,0.04250595771158823,0.9345774592895859,-0.0362376032040868,0.25965195675808617,0.24048424075922875
856.9999999995492,-0.19209175,-0.81502444,-0.0011342986,-2.075097,0.5868171,1.6945069,0.5723327,0.039999817,0.04,-0.03705064980299433,0.0045221250840193905,-0.0002692921919456026,-0.009207170305581974,-0.08316448920611022,0.04145009576445832,0.9343305018536828,-0.03635553383691964,0.26020114640604786,0.2408322068874015
857.0166666662159,-0.19245175,-0.81508183,-0.0011364777,-2.0745704,0.58791554,1.6947383,0.57193255,0.039999817,0.04,-0.036942489149760505,0.004521355648803849,2.743823668271972e-05,-0.009004886414840197,-0.08158489211928979,0.040400331119841155,0.9340889208182537,-0.03647081625978993,0.2607374064796205,0.24117166589012112
