rsonawane2002/My_IMU/logs_2/traj_328/imu_400hz_328.csv
time,j1,j2,j3,j4,j5,j6,j7,gripper1,gripper2,imu_ax,imu_ay,imu_az,imu_gx,imu_gy,imu_gz
0.0,0.00016700293,-0.785875,4.0107683e-05,-2.3551247,9.29385e-05,1.570997,0.786,0.04,0.04,-9.506235,0.0009109276579692,0.07042236,-1.2019743e-07,-0.0011641276068985,2.4733393e-07
0.0025,0.0001670028565,-0.785857774,4.0108721e-05,-2.35513919,9.294540000000001e-05,1.570996565,0.786,0.04,0.04,-9.555461250000045,0.0008693188690811922,0.06122230274999164,-1.269094425000061e-07,-0.0013252450386063216,4.498953505001842e-07
0.005,0.00016700278299999999,-0.785840548,4.0109759e-05,-2.3551536800000004,9.295230000000002e-05,1.57099613,0.786,0.04,0.04,-9.60468750000009,0.0008277100801931843,0.05202224549998327,-1.3362145500001221e-07,-0.001486362470314143,6.524567710003685e-07
0.0075,0.0001670027095,-0.7858233219999999,4.0110797e-05,-2.3551681700000002,9.295920000000002e-05,1.570995695,0.786,0.04,0.04,-9.653913750000134,0.0007861012913051765,0.0428221882499749,-1.403334675000183e-07,-0.0016474799020219646,8.550181915005526e-07
0.01,0.000167002636,-0.785806096,4.011183500000001e-05,-2.35518266,9.296610000000002e-05,1.5709952600000001,0.786,0.04,0.04,-9.703140000000179,0.0007444925024171687,0.03362213099996653,-1.470454800000244e-07,-0.0018085973337297863,1.057579612000737e-06
0.0125,0.0001670025625,-0.78578887,4.0112873000000006e-05,-2.3551971500000004,9.297300000000003e-05,1.570994825,0.786,0.04,0.04,-9.752366250000224,0.0007028837135291607,0.02442207374995816,-1.5375749250003052e-07,-0.001969714765437608,1.260141032500921e-06
0.015,0.000167002489,-0.785771644,4.0113911000000006e-05,-2.3552116400000003,9.297990000000004e-05,1.57099439,0.786,0.04,0.04,-9.801592500000268,0.000661274924641153,0.015222016499949802,-1.6046950500003662e-07,-0.0021308321971454294,1.4627024530011053e-06
0.0175,0.00016700124499999998,-0.785754867,4.011491950000001e-05,-2.3552257350000003,9.29902708000001e-05,1.57099396,0.786,0.04,0.04,-9.834315999999998,0.0006336181482764916,0.009013357079998561,-1.8033304850029394e-07,-0.002287880401127908,1.8281705000044015e-06
0.02,0.00016699765999999997,-0.785738988,4.011586900000001e-05,-2.3552390400000003,9.300758320000012e-05,1.5709935400000001,0.786,0.04,0.04,-9.834033999999997,0.0006338653969577619,0.008787493319998356,-2.2649965400033591e-07,-0.0024367901496599237,2.51945180000503e-06
0.0225,0.00016699407499999998,-0.7857231089999999,4.011681850000001e-05,-2.3552523450000002,9.302489560000014e-05,1.57099312,0.786,0.04,0.04,-9.833751999999999,0.0006341126456390321,0.008561629559998151,-2.726662595003779e-07,-0.0025856998981919387,3.210733100005658e-06
0.025,0.00016699048999999997,-0.7857072299999999,4.011776800000001e-05,-2.35526565,9.304220800000015e-05,1.5709927,0.786,0.04,0.04,-9.833469999999998,0.0006343598943203023,0.008335765799997945,-3.1883286500041994e-07,-0.0027346096467239546,3.902014400006287e-06
0.0275,0.00016698690499999998,-0.7856913509999999,4.011871750000001e-05,-2.355278955,9.305952040000017e-05,1.57099228,0.786,0.04,0.04,-9.833187999999998,0.0006346071430015725,0.00810990203999774,-3.649994705004619e-07,-0.0028835193952559696,4.593295700006916e-06
0.03,0.00016698331999999997,-0.7856754719999999,4.011966700000001e-05,-2.35529226,9.307683280000019e-05,1.57099186,0.786,0.04,0.04,-9.832905999999998,0.0006348543916828428,0.007884038279997535,-4.1116607600050383e-07,-0.003032429143787985,5.284577000007544e-06
0.0325,0.00016697973499999998,-0.7856595929999999,4.012061650000001e-05,-2.355305565,9.30941452000002e-05,1.57099144,0.786,0.04,0.04,-9.832623999999997,0.000635101640364113,0.007658174519997329,-4.573326815005459e-07,-0.0031813388923200006,5.975858300008174e-06
0.035,0.00016696998499999985,-0.7856445699999999,4.012149320000001e-05,-2.3553181,9.313024340000058e-05,1.57099101,0.786,0.04,0.04,-9.832353499999996,0.0006352418451569512,0.007451365409997488,-5.242615050009845e-07,-0.003322948841379787,7.347447860021797e-06
0.0375,0.00016695715249999985,-0.7856299749999998,4.012233350000001e-05,-2.35533025,9.317573450000062e-05,1.570990575,0.786,0.04,0.04,-9.832088749999997,0.0006353285280055762,0.007254083624997309,-6.015714375010546e-07,-0.003460908890703657,9.05919155002335e-06
0.04,0.0001669443199999998,-0.7856153799999998,4.0123173800000015e-05,-2.3553424,9.322122560000066e-05,1.57099014,0.786,0.04,0.04,-9.831823999999996,0.0006354152108542012,0.007056801839997129,-6.78881370001125e-07,-0.003598868940027528,1.077093524002491e-05
0.0425,0.0001669314874999998,-0.7856007849999997,4.0124014100000014e-05,-2.35535455,9.32667167000007e-05,1.5709897050000001,0.786,0.04,0.04,-9.831559249999996,0.0006355018937028264,0.006859520054996949,-7.561913025011954e-07,-0.0037368289893513983,1.2482678930026467e-05
0.045,0.0001669186549999998,-0.7855861899999997,4.0124854400000013e-05,-2.3553667000000003,9.331220780000075e-05,1.57098927,0.786,0.04,0.04,-9.831294499999995,0.0006355885765514514,0.006662238269996771,-8.335012350012655e-07,-0.0038747890386752687,1.419442262002802e-05
0.0475,0.0001669058224999998,-0.7855715949999997,4.012569470000001e-05,-2.35537885,9.335769890000079e-05,1.570988835,0.786,0.04,0.04,-9.831029749999995,0.0006356752594000764,0.006464956484996591,-9.108111675013359e-07,-0.00401274908799914,1.590616631002958e-05
0.05,0.00016689298999999946,-0.7855569999999997,4.012653500000001e-05,-2.355391,9.34031900000018e-05,1.5709884,0.786,0.04,0.04,-9.830764999999996,0.0006357619422487083,0.006267674699996633,-9.881211000030629e-07,-0.00415070913732283,1.761791000005543e-05
0.0525,0.00016686262249999943,-0.7855435449999997,4.0127233250000014e-05,-2.3554021300000003,9.35021546000019e-05,1.57098798,0.786,0.04,0.04,-9.830545099999995,0.0006362215586704388,0.0060825641399964644,-1.1564932350032157e-06,-0.0042787851067284215,2.0665051400058197e-05
0.055,0.0001668322549999994,-0.7855300899999997,4.0127931500000016e-05,-2.35541326,9.360111920000199e-05,1.57098756,0.786,0.04,0.04,-9.830325199999995,0.0006366811750921691,0.005897453579996296,-1.3248653700033688e-06,-0.004406861076134013,2.371219280006097e-05
0.0575,0.00016680188749999936,-0.7855166349999997,4.012862975000001e-05,-2.35542439,9.370008380000207e-05,1.57098714,0.786,0.04,0.04,-9.830105299999996,0.0006371407915138996,0.005712343019996128,-1.4932375050035221e-06,-0.004534937045539604,2.6759334200063744e-05
0.06,0.00016677151999999935,-0.7855031799999996,4.012932800000001e-05,-2.3554355200000003,9.379904840000216e-05,1.57098672,0.786,0.04,0.04,-9.829885399999995,0.00063760040793563,0.00552723245999596,-1.661609640003675e-06,-0.004663013014945196,2.980647560006651e-05
0.0625,0.00016674115249999932,-0.7854897249999997,4.0130026250000014e-05,-2.35544665,9.389801300000225e-05,1.5709863,0.786,0.04,0.04,-9.829665499999996,0.0006380600243573604,0.0053421218999957915,-1.829981775003828e-06,-0.004791088984350787,3.285361700006928e-05
0.065,0.00016671078499999928,-0.7854762699999996,4.0130724500000016e-05,-2.35545778,9.399697760000235e-05,1.57098588,0.786,0.04,0.04,-9.829445599999996,0.0006385196407790909,0.005157011339995623,-1.998353910003981e-06,-0.004919164953756379,3.590075840007205e-05
0.0675,0.00016667105299999856,-0.7854631749999996,4.013134835000001e-05,-2.35546854,9.41252633000046e-05,1.570985455,0.786,0.04,0.03999999975,-9.829232099999995,0.000639993161894431,0.004977842109995892,-2.2219032000081997e-06,-0.0050443809712335,3.969214570012966e-05
0.07,0.0001666125919999985,-0.7854507999999997,4.013182340000001e-05,-2.3554785600000003,9.431219120000476e-05,1.57098502,0.786,0.04,0.039999999,-9.829031399999996,0.0006434944923967692,0.004810555539995739,-2.555806800008504e-06,-0.005163877084854304,4.497202480013447e-05
0.0725,0.00016655413099999846,-0.7854384249999996,4.013229845000001e-05,-2.3554885800000003,9.449911910000493e-05,1.570984585,0.786,0.04,0.03999999825,-9.828830699999996,0.0006469958228991073,0.004643268969995588,-2.8897104000088063e-06,-0.005283373198475107,5.0251903900139244e-05
0.075,0.00016649566999999842,-0.7854260499999997,4.0132773500000014e-05,-2.3554986,9.46860470000051e-05,1.57098415,0.786,0.04,0.0399999975,-9.828629999999995,0.0006504971534014455,0.004475982399995436,-3.2236140000091106e-06,-0.00540286931209591,5.553178300014406e-05
0.0775,0.00016643720899999834,-0.7854136749999996,4.0133248550000016e-05,-2.35550862,9.487297490000527e-05,1.5709837150000001,0.786,0.04,0.03999999675,-9.828429299999994,0.0006539984839037837,0.004308695829995284,-3.5575176000094145e-06,-0.005522365425716714,6.081166210014886e-05
0.08,0.0001663787479999983,-0.7854012999999996,4.013372360000002e-05,-2.3555186400000006,9.505990280000545e-05,1.57098328,0.786,0.04,0.039999996,-9.828228599999994,0.0006574998144061219,0.004141409259995131,-3.891421200009718e-06,-0.005641861539337518,6.609154120015368e-05
0.0825,0.00016632028699999825,-0.7853889249999996,4.013419865000002e-05,-2.3555286600000005,9.524683070000561e-05,1.570982845,0.786,0.04,0.03999999525,-9.828027899999995,0.00066100114490846,0.003974122689994979,-4.225324800010022e-06,-0.005761357652958322,7.137142030015848e-05
0.085,0.00016623472699999695,-0.7853772099999996,4.013450130000001e-05,-2.3555381200000003,9.551672100000963e-05,1.5709826900000001,0.786,0.04,0.039999995,-9.827828699999994,0.0006626375718042318,0.003816885959995293,-4.700711500016889e-06,-0.005875337030742009,7.796493600022421e-05
0.08750000000000001,0.00016613561749999686,-0.7853658249999996,4.013471775000001e-05,-2.3555473000000005,9.582809250000991e-05,1.570982675,0.786,0.04,0.039999995,-9.827630249999993,0.0006633415468968474,0.003664674149995154,-5.246839750017387e-06,-0.005986558040607516,8.521527000023082e-05
0.09,0.00016603650799999677,-0.7853544399999997,4.013493420000001e-05,-2.35555648,9.613946400001019e-05,1.57098266,0.786,0.04,0.039999995,-9.827431799999994,0.0006640455219894631,0.0035124623399950166,-5.792968000017881e-06,-0.006097779050473021,9.246560400023737e-05
0.0925,0.00016593739849999668,-0.7853430549999996,4.013515065000001e-05,-2.3555656600000003,9.645083550001048e-05,1.570982645,0.786,0.04,0.039999995,-9.827233349999993,0.0006647494970820787,0.003360250529994878,-6.339096250018379e-06,-0.006209000060338528,9.971593800024398e-05
0.095,0.0001658382889999966,-0.7853316699999996,4.013536710000001e-05,-2.3555748400000005,9.676220700001077e-05,1.57098263,0.786,0.04,0.039999995,-9.827034899999994,0.0006654534721746943,0.0032080387199947395,-6.885224500018875e-06,-0.0063202210702040336,0.00010696627200025059
0.0975,0.0001657391794999965,-0.7853202849999996,4.013558355000001e-05,-2.3555840200000002,9.707357850001105e-05,1.570982615,0.786,0.04,0.039999995,-9.826836449999993,0.00066615744726731,0.0030558269099946007,-7.431352750019373e-06,-0.00643144208006954,0.00011421660600025718
0.1,0.0001656400699999944,-0.7853088999999996,4.0135799999999996e-05,-2.3555932000000004,9.738495000001742e-05,1.5709826,0.786,0.04,0.039999995,-9.826637999999996,0.0006668614223600426,0.0029036150999947542,-7.97748100003127e-06,-0.006542663089934765,0.0001214669400003521
0.10250000000000001,0.00016548588499999426,-0.7852984599999996,4.01356926e-05,-2.3556018250000004,9.786345900001785e-05,1.57098266,0.785999715,0.04,0.03999999575,-9.826489649999996,0.0006707798747812412,0.002759429534994623,-8.836967125032053e-06,-0.0066461447393560144,0.0001311446190003609
0.105,0.00016533169999999412,-0.7852880199999995,4.01355852e-05,-2.3556104500000004,9.834196800001828e-05,1.57098272,0.78599943,0.04,0.0399999965,-9.826341299999996,0.0006746983272024397,0.0026152439699944924,-9.696453250032831e-06,-0.006749626388777263,0.00014082229800036966
0.1075,0.00016517751499999398,-0.7852775799999996,4.01354778e-05,-2.3556190750000003,9.882047700001871e-05,1.57098278,0.785999145,0.04,0.03999999725,-9.826192949999994,0.0006786167796236383,0.0024710584049943613,-1.0555939375033614e-05,-0.006853108038198512,0.00015049997700037848
0.11,0.00016502332999999384,-0.7852671399999995,4.013537039999999e-05,-2.3556277000000003,9.929898600001915e-05,1.57098284,0.78599886,0.04,0.039999998,-9.826044599999994,0.0006825352320448369,0.0023268728399942302,-1.1415425500034395e-05,-0.0069565896876197615,0.00016017765600038727
0.1125,0.00016486914499999367,-0.7852566999999996,4.0135262999999994e-05,-2.3556363250000003,9.977749500001959e-05,1.5709829,0.785998575,0.04,0.03999999875,-9.825896249999994,0.0006864536844660353,0.0021826872749940987,-1.2274911625035177e-05,-0.007060071337041011,0.00016985533500039608
0.115,0.00016471495999999353,-0.7852462599999995,4.0135155599999995e-05,-2.3556449500000003,0.00010025600400002003,1.57098296,0.78599829,0.04,0.0399999995,-9.825747899999994,0.0006903721368872339,0.0020385017099939676,-1.3134397750035961e-05,-0.00716355298646226,0.0001795330140004049
0.11750000000000001,0.00016453706299999034,-0.7852360949999996,4.0134896099999974e-05,-2.355653225,0.00010080763500002984,1.57098303,0.785998005,0.04,0.03999999975,-9.825613099999996,0.000695082079619344,0.0019014458349947505,-1.3669218974995106e-05,-0.007265353878032884,0.00019023092350054454
0.12,0.00016431174199999014,-0.7852264799999995,4.013433239999997e-05,-2.3556608000000003,0.00010150551000003047,1.57098312,0.78599772,0.04,0.039999999,-9.825505399999996,0.0007013750029729747,0.0017786493399946394,-1.3554710399995002e-05,-0.007363793253902897,0.00020296929400055608
0.1225,0.00016408642099998994,-0.7852168649999995,4.013376869999997e-05,-2.3556683750000005,0.0001022033850000311,1.57098321,0.785997435,0.04,0.03999999825,-9.825397699999995,0.0007076679263266054,0.0016558528449945277,-1.3440201824994896e-05,-0.007462232629772912,0.00021570766450056768
0.125,0.00016386109999998974,-0.7852072499999996,4.013320499999997e-05,-2.35567595,0.00010290126000003174,1.5709833,0.78599715,0.04,0.0399999975,-9.825289999999995,0.0007139608496802361,0.001533056349994416,-1.3325693249994792e-05,-0.007560672005642926,0.00022844603500057925
0.1275,0.00016363577899998954,-0.7851976349999995,4.013264129999997e-05,-2.3556835250000003,0.00010359913500003237,1.5709833899999999,0.785996865,0.04,0.03999999675,-9.825182299999994,0.000720253773033867,0.0014102598549943042,-1.3211184674994688e-05,-0.007659111381512941,0.00024118440550059087
0.13,0.00016341045799998934,-0.7851880199999995,4.013207759999997e-05,-2.3556911000000005,0.00010429701000003301,1.57098348,0.7859965800000001,0.04,0.039999996,-9.825074599999995,0.0007265466963874977,0.0012874633599941922,-1.3096676099994585e-05,-0.007757550757382955,0.00025392277600060244
0.1325,0.00016318513699998912,-0.7851784049999995,4.013151389999997e-05,-2.355698675,0.00010499488500003364,1.5709835699999999,0.785996295,0.04,0.03999999525,-9.824966899999994,0.0007328396197411284,0.0011646668649940805,-1.2982167524994479e-05,-0.00785599013325297,0.00026666114650061406
0.135,0.00016290075499998457,-0.7851693199999995,4.0130603399999945e-05,-2.3557056600000004,0.00010587253760004752,1.57098366,0.78599601,0.04,0.0399999955,-9.824839999999993,0.0007392068800985047,0.0010510425099946445,-1.320570710001928e-05,-0.007950858958070031,0.00028129752700076547
0.1375,0.0001625868424999843,-0.7851604999999996,4.0129519499999945e-05,-2.35571235,0.00010684007900004839,1.57098375,0.785995725,0.04,0.03999999625,-9.824703499999993,0.0007456113089577454,0.0009420042249945451,-1.3598270750019637e-05,-0.008043942507361006,0.0002968829125007797
0.14,0.000162272929999984,-0.7851516799999996,4.0128435599999945e-05,-2.3557190400000003,0.00010780762040004928,1.57098384,0.78599544,0.04,0.039999997,-9.824566999999993,0.0007520157378169863,0.000832965939994446,-1.3990834400019994e-05,-0.00813702605665198,0.00031246829800079385
0.14250000000000002,0.0001619590174999837,-0.7851428599999996,4.0127351699999944e-05,-2.35572573,0.00010877516180005017,1.57098393,0.7859951550000001,0.04,0.03999999775,-9.824430499999993,0.0007584201666762271,0.0007239276549943466,-1.4383398050020353e-05,-0.008230109605942955,0.00032805368350080806
0.145,0.00016164510499998343,-0.7851340399999995,4.012626779999994e-05,-2.3557324200000003,0.00010974270320005103,1.57098402,0.78599487,0.04,0.0399999985,-9.824293999999993,0.0007648245955354678,0.0006148893699942485,-1.4775961700020705e-05,-0.00832319315523393,0.00034363906900082206
0.1475,0.00016133119249998315,-0.7851252199999995,4.012518389999994e-05,-2.35573911,0.00011071024460005191,1.57098411,0.785994585,0.04,0.03999999925,-9.824157499999993,0.0007712290243947087,0.0005058510849941493,-1.5168525350021062e-05,-0.008416276704524904,0.0003592244545008363
0.15,0.00016101727999997701,-0.7851163999999996,4.01240999999999e-05,-2.3557458000000002,0.00011167778600007073,1.5709842,0.7859943,0.04,0.04,-9.824020999999993,0.0007776334532542469,0.00039681279999473633,-1.5561089000051814e-05,-0.008509360253815629,0.00037480984000103757
0.1525,0.00016059597049997664,-0.7851083149999996,4.0122358949999904e-05,-2.3557521,0.00011297393270007191,1.5709843350000001,0.7859937300000001,0.04,0.04,-9.823905949999993,0.0007894867652800426,0.0003003507144946485,-1.6510630400052678e-05,-0.008597848983486358,0.0003938244640010549
0.155,0.00016017466099997626,-0.7851002299999996,4.01206178999999e-05,-2.3557584,0.0001142700794000731,1.57098447,0.78599316,0.04,0.04,-9.823790899999993,0.0008013400773058384,0.0002038886289945607,-1.7460171800053542e-05,-0.00868633771315709,0.00041283908800107216
0.1575,0.00015975335149997585,-0.7850921449999996,4.01188768499999e-05,-2.3557647000000004,0.00011556622610007428,1.570984605,0.78599259,0.04,0.04,-9.823675849999994,0.0008131933893316341,0.00010742654349447288,-1.8409713200054406e-05,-0.008774826442827819,0.0004318537120010895
0.16,0.00015933204199997548,-0.7850840599999995,4.0117135799999896e-05,-2.3557710000000003,0.00011686237280007544,1.5709847399999999,0.78599202,0.04,0.04,-9.823560799999994,0.00082504670135743,1.0964457994385064e-05,-1.935925460005527e-05,-0.00886331517249855,0.0004508683360011068
0.1625,0.0001589107324999751,-0.7850759749999995,4.01153947499999e-05,-2.3557773,0.00011815851950007663,1.570984875,0.78599145,0.04,0.04,-9.823445749999994,0.0008369000133832257,-8.549762750570275e-05,-2.0308796000056135e-05,-0.008951803902169281,0.0004698829600011241
0.165,0.00015848942299997472,-0.7850678899999995,4.011365369999989e-05,-2.3557836,0.00011945466620007781,1.57098501,0.78599088,0.04,0.04,-9.823330699999994,0.0008487533254090215,-0.00018195971300579057,-2.1258337400057e-05,-0.009040292631840011,0.0004888975840011414
0.1675,0.00015802568649996658,-0.7850600249999995,4.011166169999985e-05,-2.3557895600000003,0.00012088061680010273,1.5709851449999999,0.785990308,0.04,0.04,-9.823242749999999,0.0008612156758325937,-0.00027429273150512355,-2.1987999800017666e-05,-0.009128281055023566,0.0005090804050013723
0.17,0.00015747709599996608,-0.7850525999999995,4.0109167799999846e-05,-2.35579484,0.00012256617520010427,1.57098528,0.785989732,0.04,0.04,-9.823208999999999,0.0008748961030513861,-0.0003583676160052001,-2.227790420001793e-05,-0.00921526886523304,0.0005315996200013928
0.17250000000000001,0.0001569285054999656,-0.7850451749999995,4.010667389999984e-05,-2.35580012,0.0001242517336001058,1.570985415,0.785989156,0.04,0.04,-9.823175249999998,0.0008885765302701785,-0.00044244250050527663,-2.2567808600018193e-05,-0.009302256675442514,0.0005541188350014133
0.17500000000000002,0.00015637991499996507,-0.7850377499999995,4.0104179999999844e-05,-2.3558054000000004,0.00012593729200010732,1.57098555,0.7859885799999999,0.04,0.04,-9.823141499999998,0.0009022569574889711,-0.0005265173850053531,-2.2857713000018457e-05,-0.009389244485651989,0.0005766380500014339
0.1775,0.00015583132449996457,-0.7850303249999995,4.010168609999984e-05,-2.3558106800000003,0.00012762285040010884,1.570985685,0.7859880039999999,0.04,0.04,-9.823107749999998,0.0009159373847077633,-0.0006105922695054288,-2.314761740001872e-05,-0.009476232295861461,0.0005991572650014541
0.18,0.00015528273399996408,-0.7850228999999995,4.0099192199999836e-05,-2.35581596,0.00012930840880011037,1.57098582,0.7859874279999999,0.04,0.04,-9.823073999999998,0.0009296178119265558,-0.0006946671540055053,-2.3437521800018984e-05,-0.009563220106070936,0.0006216764800014746
0.1825,0.00015473414349996358,-0.7850154749999995,4.009669829999983e-05,-2.3558212400000005,0.0001309939672001119,1.570985955,0.785986852,0.04,0.04,-9.823040249999998,0.0009432982391453482,-0.0007787420385055818,-2.3727426200019248e-05,-0.00965020791628041,0.0006441956950014951
0.185,0.0001540867479999531,-0.7850084699999995,4.009359629999977e-05,-2.3558261000000003,0.00013298274700014406,1.5709861,0.7859860879999999,0.04,0.0399999995,-9.822961599999994,0.0009599758486740732,-0.0008574979200051214,-2.455467550007376e-05,-0.009734754730021567,0.000669244190001771
0.1875,0.00015338994999995246,-0.7850016749999995,4.0090190249999766e-05,-2.3558307500000004,0.000135123137500146,1.57098625,0.7859852299999999,0.04,0.03999999875,-9.822860499999994,0.0009781520493573148,-0.0009335943000051907,-2.5650597250074755e-05,-0.009818081045528934,0.0006955573250017949
0.19,0.00015269315199995182,-0.7849948799999995,4.0086784199999766e-05,-2.3558354,0.00013726352800014796,1.5709864,0.7859843719999999,0.04,0.039999998,-9.822759399999994,0.0009963282500405565,-0.00100969068000526,-2.6746519000075753e-05,-0.009901407361036299,0.0007218704600018189
0.1925,0.0001519963539999512,-0.7849880849999995,4.008337814999976e-05,-2.3558400500000003,0.0001394039185001499,1.57098655,0.7859835139999999,0.04,0.03999999725,-9.822658299999993,0.001014504450723798,-0.0010857870600053292,-2.784244075007675e-05,-0.009984733676543666,0.0007481835950018429
0.195,0.00015129955599995056,-0.7849812899999995,4.007997209999976e-05,-2.3558447000000005,0.00014154430900015184,1.5709867,0.785982656,0.04,0.0399999965,-9.822557199999993,0.0010326806514070394,-0.0011618834400053985,-2.8938362500077745e-05,-0.01006805999205103,0.0007744967300018667
0.1975,0.00015060275799994992,-0.7849744949999995,4.0076566049999754e-05,-2.35584935,0.0001436846995001538,1.57098685,0.7859817979999999,0.04,0.03999999575,-9.822456099999993,0.0010508568520902811,-0.0012379798200054678,-3.0034284250078747e-05,-0.010151386307558397,0.0008008098650018907
0.2,0.00014990595999993692,-0.7849676999999996,4.007315999999968e-05,-2.3558540000000003,0.0001458250900001934,1.570987,0.7859809399999999,0.04,0.039999995,-9.822354999999996,0.0010690330527736624,-0.0013140762000046838,-3.11302060000481e-05,-0.010234712623065655,0.0008271230000021672
0.2025,0.00014903923749993615,-0.7849614899999996,4.006875299999967e-05,-2.35585805,0.00014848285000019582,1.57098751,0.7859800549999999,0.04,0.03999999575,-9.822309399999996,0.0010891296784407457,-0.0013784439450047422,-3.179131885004871e-05,-0.01031654975377621,0.0008569068950021944
0.20500000000000002,0.00014817251499993535,-0.7849552799999996,4.006434599999967e-05,-2.3558621000000004,0.00015114061000019824,1.57098802,0.78597917,0.04,0.0399999965,-9.822263799999996,0.001109226304107829,-0.001442811690004801,-3.2452431700049305e-05,-0.010398386884486762,0.0008866907900022215
0.20750000000000002,0.00014730579249993457,-0.7849490699999996,4.005993899999967e-05,-2.35586615,0.00015379837000020064,1.57098853,0.7859782849999999,0.04,0.03999999725,-9.822218199999996,0.0011293229297749123,-0.0015071794350048594,-3.311354455004991e-05,-0.010480224015197317,0.0009164746850022486
0.21,0.0001464390699999338,-0.7849428599999996,4.0055531999999665e-05,-2.3558702000000005,0.00015645613000020303,1.57098904,0.7859773999999999,0.04,0.039999998,-9.822172599999996,0.0011494195554419954,-0.0015715471800049172,-3.3774657400050506e-05,-0.010562061145907872,0.0009462585800022753
0.2125,0.000145572347499933,-0.7849366499999995,4.005112499999966e-05,-2.3558742500000003,0.00015911389000020546,1.57098955,0.7859765149999999,0.04,0.03999999875,-9.822126999999996,0.0011695161811090787,-0.0016359149250049759,-3.44357702500511e-05,-0.010643898276618425,0.0009760424750023026
0.215,0.00014470562499993222,-0.7849304399999995,4.004671799999966e-05,-2.3558783000000005,0.00016177165000020788,1.57099006,0.7859756299999999,0.04,0.0399999995,-9.822081399999997,0.001189612806776162,-0.0017002826700050345,-3.509688310005171e-05,-0.01072573540732898,0.0010058263700023296
0.2175,0.0001437747434999162,-0.7849244134999995,4.004192149999956e-05,-2.3558820500000004,0.00016462556400025687,1.5709906249999999,0.7859746579999999,0.03999999975,0.04,-9.822037174999997,0.0012128946546022114,-0.001763576095004838,-3.605148675012198e-05,-0.010806689877069234,0.0010370151350026903
0.22,0.00014271554399991523,-0.7849187539999996,4.0036345999999553e-05,-2.3558852000000003,0.00016787178600025982,1.5709913,0.7859735119999999,0.039999999,0.04,-9.821995699999997,0.0012425469467439332,-0.0018247208800048938,-3.759307200012338e-05,-0.010885879024869517,0.0010710136400027212
0.2225,0.00014165634449991429,-0.7849130944999996,4.003077049999955e-05,-2.3558883500000003,0.00017111800800026278,1.570991975,0.7859723659999999,0.03999999825,0.04,-9.821954224999997,0.0012721992388856553,-0.0018858656650049494,-3.913465725012478e-05,-0.0109650681726698,0.0011050121450027523
0.225,0.00014059714499991332,-0.7849074349999995,4.002519499999954e-05,-2.3558915000000002,0.00017436423000026573,1.57099265,0.7859712199999999,0.0399999975,0.04,-9.821912749999997,0.0013018515310273774,-0.001947010450005005,-4.067624250012619e-05,-0.011044257320470081,0.0011390106500027831
0.2275,0.00013953794549991235,-0.7849017754999995,4.001961949999954e-05,-2.35589465,0.00017761045200026868,1.570993325,0.7859700739999999,0.03999999675,0.04,-9.821871274999996,0.0013315038231690992,-0.0020081552350050607,-4.221782775012759e-05,-0.011123446468270364,0.001173009155002814
0.23,0.00013847874599991138,-0.7848961159999995,4.001404399999953e-05,-2.3558978,0.00018085667400027163,1.570994,0.7859689279999998,0.039999996,0.04,-9.821829799999996,0.0013611561153108213,-0.0020693000200051165,-4.3759413000128995e-05,-0.011202635616070645,0.001207007660002845
0.2325,0.0001374195464999104,-0.7848904564999996,4.0008468499999524e-05,-2.35590095,0.00018410289600027458,1.5709946750000001,0.7859677819999998,0.03999999525,0.04,-9.821788324999996,0.0013908084074525434,-0.002130444805005172,-4.53009982501304e-05,-0.011281824763870928,0.001241006165002876
0.23500000000000001,0.00013621660899989103,-0.7848851179999996,4.000202569999941e-05,-2.3559038300000004,0.0001877884890003339,1.5709953600000002,0.7859664499999999,0.039999994500000004,0.0399999995,-9.821734649999994,0.0014227856765528935,-0.0021792038400036393,-4.680211700012661e-05,-0.011359490454203454,0.0012777157300032547
0.23750000000000002,0.00013494180249988986,-0.7848799399999995,3.99951492499994e-05,-2.355906575,0.00019169376750033745,1.5709960500000002,0.7859650249999999,0.039999993750000004,0.03999999875,-9.821674874999996,0.0014559254341321136,-0.002221770000003678,-4.828300250012796e-05,-0.011436394415802395,0.0013157808250032893
0.24,0.00013366699599988872,-0.7848747619999995,3.99882727999994e-05,-2.3559093200000003,0.00019559904600034096,1.5709967400000002,0.7859635999999999,0.039999993000000005,0.039999998,-9.821615099999995,0.0014890651917113334,-0.0022643361600037165,-4.976388800012929e-05,-0.011513298377401334,0.0013538459200033235
0.2425,0.00013239218949988755,-0.7848695839999995,3.998139634999939e-05,-2.3559120650000005,0.00019950432450034452,1.5709974300000003,0.7859621749999999,0.03999999225,0.03999999725,-9.821555324999995,0.0015222049492905536,-0.0023069023200037553,-5.124477350013064e-05,-0.011590202339000273,0.0013919110150033582
0.245,0.00013111738299988638,-0.7848644059999995,3.997451989999939e-05,-2.3559148100000002,0.00020340960300034808,1.57099812,0.7859607499999999,0.0399999915,0.0399999965,-9.821495549999995,0.0015553447068697738,-0.002349468480003794,-5.272565900013199e-05,-0.011667106300599214,0.0014299761100033928
0.2475,0.0001298425764998852,-0.7848592279999995,3.996764344999938e-05,-2.3559175550000004,0.00020731488150035164,1.57099881,0.7859593249999999,0.03999999075,0.03999999575,-9.821435774999996,0.0015884844644489938,-0.002392034640003833,-5.420654450013334e-05,-0.011744010262198153,0.0014680412050034274
0.25,0.0001285677699998623,-0.7848540499999995,3.996076699999924e-05,-2.3559203,0.0002112201600004217,1.5709995,0.7859578999999999,0.03999999,0.039999995,-9.821376000000003,0.0016216242220287865,-0.0024346008000027354,-5.5687430000130274e-05,-0.011820914223797205,0.0015061063000038413
0.2525,0.0001270536765998609,-0.7848493474999996,3.995244949999924e-05,-2.3559220850000004,0.00021585673950042593,1.5710002200000002,0.7859561749999998,0.0399999897,0.039999994250000004,-9.821396550000003,0.0016610582475585923,-0.0024646735050027624,-5.711980100013158e-05,-0.011899047531194652,0.0015483421750038797
0.255,0.00012553958319985953,-0.7848446449999995,3.994413199999923e-05,-2.3559238700000003,0.00022049331900043015,1.5710009400000002,0.7859544499999999,0.0399999894,0.039999993500000004,-9.821417100000001,0.0017004922730883983,-0.00249474621000279,-5.855217200013288e-05,-0.011977180838592099,0.0015905780500039182
0.2575,0.00012402548979985816,-0.7848399424999996,3.993581449999922e-05,-2.355925655,0.00022512989850043437,1.57100166,0.7859527249999998,0.0399999891,0.039999992750000005,-9.821437650000002,0.001739926298618204,-0.0025248189150028173,-5.998454300013418e-05,-0.012055314145989544,0.0016328139250039568
0.26,0.00012251139639985677,-0.7848352399999995,3.992749699999921e-05,-2.3559274400000003,0.00022976647800043858,1.5710023800000001,0.7859509999999998,0.0399999888,0.039999992,-9.821458200000002,0.00177936032414801,-0.0025548916200028447,-6.141691400013549e-05,-0.012133447453386991,0.0016750498000039952
0.2625,0.0001209973029998554,-0.7848305374999995,3.99191794999992e-05,-2.355929225,0.0002344030575004428,1.5710031000000002,0.7859492749999999,0.0399999885,0.03999999125,-9.821478750000002,0.0018187943496778159,-0.0025849643250028718,-6.284928500013679e-05,-0.012211580760784437,0.0017172856750040336
0.265,0.00011948320959985403,-0.7848258349999996,3.9910861999999194e-05,-2.35593101,0.00023903963700044702,1.57100382,0.7859475499999998,0.0399999882,0.0399999905,-9.821499300000001,0.0018582283752076219,-0.002615037030002899,-6.42816560001381e-05,-0.012289714068181884,0.001759521550004072
0.2675,0.000117881303299827,-0.7848212749999995,3.990201464999903e-05,-2.355932585,0.00024394453950052957,1.5710047050000002,0.7859457349999999,0.039999988,0.03999999,-9.821496699999996,0.0019004526082471974,-0.002642193085002075,-6.573117800014441e-05,-0.012367462180562352,0.0018031723100045236
0.27,0.00011610377119982539,-0.7848169999999995,3.9892107599999023e-05,-2.3559337399999998,0.0002493860880005345,1.5710059200000002,0.7859437399999999,0.039999988,0.03999999,-9.821447799999994,0.001948257256303876,-0.0026635158400020943,-6.721500200014576e-05,-0.012444439902909202,0.001849652840004566
0.2725,0.00011432623909982378,-0.7848127249999995,3.988220054999902e-05,-2.355934895,0.00025482763650053945,1.571007135,0.7859417449999998,0.039999988,0.03999999,-9.821398899999995,0.0019960619043605547,-0.002684838595002114,-6.86988260001471e-05,-0.012521417625256052,0.0018961333700046083
0.275,0.00011254870699982215,-0.7848084499999995,3.987229349999901e-05,-2.35593605,0.00026026918500054444,1.5710083500000003,0.7859397499999998,0.039999988,0.03999999,-9.821349999999995,0.002043866552417233,-0.0027061613500021335,-7.018265000014846e-05,-0.012598395347602901,0.0019426139000046506
0.2775,0.00011077117489982054,-0.7848041749999995,3.9862386449999e-05,-2.355937205,0.00026571073350054936,1.5710095650000002,0.7859377549999998,0.039999988,0.03999999,-9.821301099999994,0.0020916712004739116,-0.002727484105002153,-7.166647400014981e-05,-0.012675373069949751,0.001989094430004693
0.28,0.00010899364279981891,-0.7847998999999996,3.985247939999899e-05,-2.35593836,0.00027115228200055435,1.5710107800000002,0.7859357599999999,0.039999988,0.03999999,-9.821252199999995,0.00213947584853059,-0.0027488068600021722,-7.315029800015116e-05,-0.012752350792296602,0.0020355749600047355
0.28250000000000003,0.0001072161106998173,-0.7847956249999996,3.984257234999898e-05,-2.355939515,0.0002765938305005593,1.571011995,0.7859337649999999,0.039999988,0.03999999,-9.821203299999995,0.002187280496587269,-0.0027701296150021916,-7.463412200015251e-05,-0.012829328514643452,0.002082055490004778
0.28500000000000003,0.00010524662649978582,-0.7847916299999996,3.983149399999879e-05,-2.35594028,0.0002826218450006555,1.5710132400000003,0.7859315699999998,0.039999988,0.03999999,-9.8211809,0.0022395754233058857,-0.0027896808600019357,-7.62750100001783e-05,-0.012905558478095025,0.0021314086200052667
0.28750000000000003,0.00010318116624978395,-0.7847877749999996,3.9819829999998784e-05,-2.35594085,0.0002889430925006612,1.5710145000000002,0.7859292749999998,0.039999988,0.03999999,-9.82117175,0.0022941154893544305,-0.0028083463500019525,-7.799443000017986e-05,-0.012981414562099135,0.002182198050005313
0.29,0.00010111570599978211,-0.7847839199999996,3.980816599999877e-05,-2.35594142,0.00029526434000066683,1.5710157600000003,0.7859269799999998,0.039999988,0.03999999,-9.8211626,0.002348655555402974,-0.002827011840001969,-7.971385000018138e-05,-0.013057270646103241,0.002232987480005358
0.2925,9.905024574978022e-05,-0.7847800649999995,3.979650199999876e-05,-2.3559419900000003,0.0003015855875006726,1.5710170200000002,0.7859246849999998,0.039999988,0.03999999,-9.821153449999999,0.0024031956214515186,-0.0028456773300019863,-8.143327000018296e-05,-0.013133126730107351,0.0022837769100054043
0.295,9.698478549977835e-05,-0.7847762099999995,3.978483799999875e-05,-2.3559425600000004,0.00030790683500067834,1.5710182800000003,0.7859223899999997,0.039999988,0.03999999,-9.821144299999998,0.002457735687500063,-0.002864342820002003,-8.315269000018452e-05,-0.01320898281411146,0.0023345663400054506
0.2975,9.491932524977647e-05,-0.7847723549999995,3.977317399999874e-05,-2.35594313,0.0003142280825006841,1.5710195400000002,0.7859200949999997,0.039999988,0.03999999,-9.821135149999998,0.0025122757535486076,-0.00288300831000202,-8.487211000018608e-05,-0.01328483889811557,0.0023853557700054965
0.3,9.285386499974046e-05,-0.7847684999999996,3.9761509999998526e-05,-2.3559437,0.0003205493300007941,1.5710208000000003,0.7859177999999997,0.039999988,0.03999999,-9.821126000000001,0.002566815819598174,-0.002901673799999796,-8.659153000021639e-05,-0.01336069498211982,0.0024361452000060185
0.3025,9.047567574973829e-05,-0.7847650259999996,3.9747958399998514e-05,-2.355943295,0.00032782590800080075,1.5710220900000003,0.7859151659999997,0.0399999874,0.0399999897,-9.821149400000003,0.0026307197287748275,-0.0028998047099997944,-8.857428310021819e-05,-0.013437851518400996,0.0024912932400060687
0.305,8.809748649973613e-05,-0.7847615519999996,3.97344067999985e-05,-2.35594289,0.00033510248600080735,1.5710233800000002,0.7859125319999997,0.0399999868,0.0399999894,-9.821172800000003,0.0026946236379514804,-0.0028979356199997923,-9.055703620022e-05,-0.01351500805468217,0.002546441280006119
0.3075,8.571929724973397e-05,-0.7847580779999995,3.972085519999848e-05,-2.355942485,0.000342379064000814,1.5710246700000001,0.7859098979999997,0.039999986200000004,0.0399999891,-9.821196200000003,0.002758527547128134,-0.0028960665299997907,-9.25397893002218e-05,-0.013592164590963346,0.002601589320006169
0.31,8.33411079997318e-05,-0.7847546039999995,3.970730359999847e-05,-2.35594208,0.0003496556420008206,1.5710259600000003,0.7859072639999998,0.0399999856,0.0399999888,-9.821219600000003,0.0028224314563047867,-0.002894197439999789,-9.45225424002236e-05,-0.013669321127244522,0.0026567373600062194
0.3125,8.096291874972963e-05,-0.7847511299999995,3.969375199999846e-05,-2.355941675,0.00035693222000082725,1.5710272500000002,0.7859046299999998,0.039999985,0.0399999885,-9.821243000000003,0.0028863353654814397,-0.0028923283499997874,-9.65052955002254e-05,-0.013746477663525696,0.0027118854000062697
0.315,7.858472949972748e-05,-0.7847476559999995,3.968020039999845e-05,-2.35594127,0.0003642087980008339,1.5710285400000001,0.7859019959999998,0.0399999844,0.0399999882,-9.821266400000003,0.002950239274658093,-0.0028904592599997858,-9.848804860022722e-05,-0.013823634199806872,0.00276703344000632
0.3175,7.60939654996863e-05,-0.7847443029999996,3.9665964949998195e-05,-2.355940655,0.00037182926600095966,1.5710300050000001,0.7858992279999997,0.0399999838,0.0399999878,-9.821274099999997,0.0030175193213011512,-0.002884495024998365,-0.00010052800755024885,-0.01390084382147482,0.002823646935006878
0.32,7.337805199968382e-05,-0.7847411919999996,3.9650361799998186e-05,-2.35593962,0.00038013751400096723,1.5710318200000002,0.7858961919999997,0.0399999832,0.0399999872,-9.821250399999997,0.0030915516428735184,-0.002870340499998352,-0.00010268237820025081,-0.01397815961391626,0.002883191340006932
0.3225,7.066213849968135e-05,-0.7847380809999996,3.963475864999817e-05,-2.3559385849999996,0.0003884457620009748,1.5710336350000003,0.7858931559999996,0.0399999826,0.0399999866,-9.821226699999997,0.003165583964445886,-0.0028561859749983392,-0.00010483674885025276,-0.0140554754063577,0.0029427357450069864
0.325,6.794622499967887e-05,-0.7847349699999996,3.9619155499998153e-05,-2.3559375499999997,0.00039675401000098233,1.57103545,0.7858901199999997,0.039999981999999996,0.039999986,-9.821202999999997,0.003239616286018253,-0.0028420314499983264,-0.00010699111950025472,-0.01413279119879914,0.0030022801500070406
0.3275,6.52303114996764e-05,-0.7847318589999996,3.960355234999814e-05,-2.355936515,0.0004050622580009899,1.5710372650000002,0.7858870839999996,0.0399999814,0.0399999854,-9.821179299999997,0.003313648607590621,-0.0028278769249983136,-0.00010914549015025669,-0.014210106991240581,0.003061824555007095
0.33,6.251439799967393e-05,-0.7847287479999996,3.958794919999813e-05,-2.35593548,0.0004133705060009975,1.5710390800000003,0.7858840479999997,0.0399999808,0.0399999848,-9.821155599999997,0.003387680929162988,-0.002813722399998301,-0.00011129986080025865,-0.014287422783682021,0.0031213689600071487
0.3325,5.9798484499671454e-05,-0.7847256369999996,3.957234604999811e-05,-2.3559344449999995,0.000421678754001005,1.571040895,0.7858810119999996,0.0399999802,0.039999984200000005,-9.821131899999996,0.0034617132507353556,-0.002799567874998288,-0.00011345423145026061,-0.014364738576123462,0.003180913365007203
0.335,5.684063779962475e-05,-0.7847227399999996,3.9555266999997825e-05,-2.3559329599999996,0.0004307259430011477,1.5710427400000002,0.7858777139999996,0.0399999797,0.039999983600000004,-9.821139700000002,0.003541779238740736,-0.002784712299998147,-0.00011568860150027719,-0.014442081097522798,0.003243404650007796
0.3375,5.3761824499621953e-05,-0.7847199499999996,3.953744999999781e-05,-2.35593125,0.00044014260250115625,1.5710446000000002,0.7858742849999996,0.03999997925,0.039999983,-9.821163250000003,0.0036248620599609767,-0.0027695061999981328,-0.00011796297125027927,-0.014519436983401073,0.0033073693750078543
0.34,5.068301119961915e-05,-0.7847171599999997,3.9519632999997795e-05,-2.3559295399999995,0.00044955926200116483,1.5710464600000003,0.7858708559999996,0.039999978799999995,0.0399999824,-9.821186800000003,0.0037079448811812173,-0.002754300099998119,-0.00012023734100028134,-0.014596792869279349,0.0033713341000079127
0.3425,4.7604197899616345e-05,-0.7847143699999997,3.9501815999997776e-05,-2.3559278299999997,0.0004589759215011734,1.57104832,0.7858674269999996,0.03999997835,0.0399999818,-9.821210350000003,0.003791027702401458,-0.0027390939999981053,-0.0001225117107502834,-0.014674148755157624,0.0034352988250079706
0.34500000000000003,4.452538459961354e-05,-0.7847115799999996,3.9483998999997765e-05,-2.3559261199999995,0.000468392581001182,1.57105018,0.7858639979999995,0.0399999779,0.0399999812,-9.821233900000003,0.003874110523621699,-0.0027238878999980916,-0.00012478608050028547,-0.0147515046410359,0.003499263550008029
0.34750000000000003,4.144657129961074e-05,-0.7847087899999997,3.9466181999997746e-05,-2.3559244099999996,0.00047780924050119057,1.57105204,0.7858605689999996,0.03999997745,0.0399999806,-9.821257450000003,0.003957193344841939,-0.0027086817999980774,-0.00012706045025028754,-0.014828860526914175,0.0035632282750080874
0.35000000000000003,3.836775799955851e-05,-0.7847059999999997,3.944836499999743e-05,-2.3559226999999994,0.0004872259000013501,1.5710539000000001,0.7858571399999995,0.039999977,0.03999998,-9.821281000000004,0.004040276166063529,-0.002693475699995405,-0.00012933482000031005,-0.014906216412792715,0.003627193000008694
0.3525,3.490079269955543e-05,-0.7847035324999997,3.942821084999741e-05,-2.3559200149999993,0.0004978279450013596,1.5710560750000002,0.7858532789999995,0.03999997595,0.039999979549999995,-9.821308900000004,0.004133952315908727,-0.002657388849995373,-0.00013176968450031223,-0.014985651150355927,0.003695467195008755
0.355,3.1433827399552276e-05,-0.7847010649999997,3.94080566999974e-05,-2.3559173299999996,0.0005084299900013692,1.57105825,0.7858494179999994,0.0399999749,0.0399999791,-9.821336800000005,0.004227628465753927,-0.0026213019999953395,-0.00013420454900031444,-0.015065085887919138,0.003763741390008817
0.3575,2.7966862099549117e-05,-0.7846985974999997,3.938790254999738e-05,-2.3559146449999995,0.0005190320350013789,1.5710604250000002,0.7858455569999995,0.03999997385,0.03999997865,-9.821364700000004,0.004321304615599128,-0.0025852151499953066,-0.00013663941350031665,-0.01514452062548235,0.0038320155850088793
0.36,2.449989679954596e-05,-0.7846961299999996,3.936774839999736e-05,-2.3559119599999994,0.0005296340800013885,1.5710626,0.7858416959999994,0.0399999728,0.0399999782,-9.821392600000005,0.004414980765444328,-0.0025491282999952737,-0.00013907427800031885,-0.015223955363045563,0.0039002897800089415
0.3625,2.1032931499542805e-05,-0.7846936624999996,3.934759424999734e-05,-2.3559092749999992,0.0005402361250013982,1.5710647750000002,0.7858378349999995,0.03999997175,0.03999997775,-9.821420500000004,0.004508656915289528,-0.002513041449995241,-0.0001415091425003211,-0.015303390100608775,0.003968563975009004
0.365,1.756596619953965e-05,-0.7846911949999996,3.932744009999732e-05,-2.3559065899999996,0.0005508381700014078,1.5710669500000003,0.7858339739999994,0.039999970700000005,0.039999977299999996,-9.821448400000003,0.0046023330651347285,-0.002476954599995208,-0.0001439440070003233,-0.015382824838171986,0.004036838170009066
0.3675,1.3961176299481211e-05,-0.7846888374999996,3.930644354999697e-05,-2.3559036699999996,0.0005618611400015863,1.5710692100000003,0.7858299499999993,0.0399999698,0.039999976799999996,-9.82146525,0.004700481309569708,-0.002438545904994244,-0.00014643180400034675,-0.015462251473228791,0.00410663618500974
0.37,1.008073719947768e-05,-0.7846866999999996,3.928376219999695e-05,-2.3559002799999993,0.0005737259600015971,1.5710716400000002,0.7858255999999993,0.0399999692,0.0399999762,-9.82146,0.004807573743178875,-0.0023954935199942047,-0.0001490254660003491,-0.015541661903272788,0.004179481840009805
0.3725,6.200298099474147e-06,-0.7846845624999996,3.926108084999693e-05,-2.3558968899999995,0.0005855907800016079,1.5710740700000003,0.7858212499999994,0.0399999686,0.0399999756,-9.82145475,0.004914666176788042,-0.002352441134994166,-0.00015161912800035147,-0.015621072333316785,0.004252327495009872
0.375,2.3198589994706154e-06,-0.7846824249999996,3.9238399499996906e-05,-2.355893499999999,0.0005974556000016186,1.5710765000000002,0.7858168999999994,0.039999968,0.039999975,-9.8214495,0.00502175861039721,-0.0023093887499941266,-0.00015421279000035382,-0.015700482763360783,0.004325173150009938
0.3775,-1.5605801005329177e-06,-0.7846802874999996,3.9215718149996884e-05,-2.3558901099999994,0.0006093204200016294,1.5710789300000003,0.7858125499999994,0.0399999674,0.0399999744,-9.821444249999999,0.005128851044006377,-0.0022663363649940873,-0.0001568064520003562,-0.01577989319340478,0.004398018805010004
0.38,-5.441019200536447e-06,-0.7846781499999996,3.919303679999686e-05,-2.3558867199999995,0.0006211852400016402,1.5710813600000004,0.7858081999999994,0.0399999668,0.0399999738,-9.821439,0.005235943477615545,-0.002223283979994048,-0.00015940011400035855,-0.015859303623448777,0.004470864460010071
0.3825,-9.32145830053998e-06,-0.7846760124999996,3.917035544999684e-05,-2.3558833299999993,0.000633050060001651,1.5710837900000003,0.7858038499999994,0.0399999662,0.039999973200000004,-9.821433749999999,0.005343035911224712,-0.0021802315949940093,-0.00016199377600036093,-0.015938714053492772,0.004543710115010137
0.385,-1.3494410200604973e-05,-0.7846740659999997,3.9145892899996446e-05,-2.3558794499999993,0.0006458081800018495,1.5710864000000004,0.7857992139999993,0.0399999652,0.0399999717,-9.821455100000005,0.005458223726617041,-0.002125880349991596,-0.0001646684970003803,-0.016019232198607264,0.004619601560010843
0.3875,-1.7813618500608904e-05,-0.7846722149999997,3.9120539749996425e-05,-2.3558753249999995,0.0006590129500018615,1.5710891000000005,0.7857944349999993,0.039999964,0.03999996975,-9.821489750000005,0.005577459232898409,-0.0020658796749915415,-0.00016738374750038278,-0.016100304201256653,0.004697015900010914
0.39,-2.2132826800612835e-05,-0.7846703639999997,3.9095186599996405e-05,-2.3558711999999993,0.0006722177200018736,1.5710918000000005,0.7857896559999993,0.0399999628,0.0399999678,-9.821524400000005,0.005696694739179778,-0.0020058789999914868,-0.00017009899800038525,-0.016181376203906042,0.004774430240010984
0.3925,-2.645203510061677e-05,-0.7846685129999997,3.906983344999638e-05,-2.3558670749999995,0.0006854224900018856,1.5710945000000003,0.7857848769999993,0.0399999616,0.03999996585,-9.821559050000005,0.005815930245461147,-0.0019458783249914323,-0.00017281424850038772,-0.01626244820655543,0.004851844580011055
0.395,-3.07712434006207e-05,-0.7846666619999998,3.9044480299996356e-05,-2.3558629499999992,0.0006986272600018977,1.5710972000000003,0.7857800979999994,0.0399999604,0.0399999639,-9.821593700000005,0.005935165751742515,-0.0018858776499913776,-0.0001755294990003902,-0.01634352020920482,0.004929258920011125
0.3975,-3.5090451700624635e-05,-0.7846648109999997,3.9019127149996336e-05,-2.3558588249999994,0.0007118320300019096,1.5710999000000003,0.7857753189999993,0.039999959200000004,0.03999996195,-9.821628350000005,0.0060544012580238836,-0.001825876974991323,-0.00017824474950039267,-0.01642459221185421,0.005006673260011195
0.4,-3.940966000069609e-05,-0.7846629599999998,3.89937739999959e-05,-2.355854699999999,0.0007250368000021279,1.5711026000000003,0.7857705399999992,0.039999958,0.03999996,-9.821663000000004,0.006173636764306842,-0.0017658762999898999,-0.0001809600000004494,-0.01650566421450387,0.005084087600011874
0.4025,-4.419287500070045e-05,-0.7846613909999998,3.896559889999588e-05,-2.3558495999999995,0.0007396582300021412,1.5711056000000003,0.7857652239999993,0.0399999568,0.039999959700000004,-9.821700350000004,0.006303799757752946,-0.0016964728899898367,-0.00018404813400045222,-0.01658861599863786,0.005165674115011947
0.405,-4.8976090000704805e-05,-0.7846598219999997,3.8937423799995846e-05,-2.3558444999999995,0.0007542796600021544,1.5711086000000003,0.7857599079999993,0.0399999556,0.0399999594,-9.821737700000005,0.00643396275119905,-0.0016270694799897737,-0.00018713626800045504,-0.016671567782771853,0.005247260630012022
0.40750000000000003,-5.3759305000709155e-05,-0.7846582529999998,3.890924869999582e-05,-2.3558393999999994,0.0007689010900021677,1.5711116000000005,0.7857545919999992,0.0399999544,0.0399999591,-9.821775050000005,0.006564125744645153,-0.0015576660699897103,-0.00019022440200045784,-0.016754519566905844,0.005328847145012096
0.41000000000000003,-5.854252000071351e-05,-0.7846566839999998,3.88810735999958e-05,-2.3558342999999993,0.0007835225200021811,1.5711146000000005,0.7857492759999992,0.0399999532,0.0399999588,-9.821812400000004,0.006694288738091256,-0.0014882626599896473,-0.00019331253600046066,-0.016837471351039836,0.00541043366001217
0.41250000000000003,-6.332573500071788e-05,-0.7846551149999997,3.8852898499995766e-05,-2.3558291999999996,0.0007981439500021944,1.5711176000000004,0.7857439599999992,0.039999952,0.0399999585,-9.821849750000005,0.00682445173153736,-0.0014188592499895841,-0.00019640067000046348,-0.016920423135173824,0.0054920201750122445
0.41500000000000004,-6.810895000072222e-05,-0.7846535459999997,3.882472339999574e-05,-2.3558240999999995,0.0008127653800022077,1.5711206000000004,0.7857386439999993,0.039999950799999996,0.039999958200000005,-9.821887100000005,0.0069546147249834635,-0.001349455839989521,-0.0001994888040004663,-0.017003374919307816,0.005573606690012318
0.4175,-7.305522550080077e-05,-0.7846520574999998,3.8795556999995264e-05,-2.355818694999999,0.0008278847270024475,1.5711237300000005,0.7857331434999991,0.03999994965,0.039999957600000004,-9.821917450000003,0.0070905780885591775,-0.0012758258929875335,-0.00020260817050048326,-0.017086683027459013,0.005656706135013081
0.42,-7.832762200080557e-05,-0.7846507299999997,3.8764407999995236e-05,-2.355812679999999,0.0008439999080024622,1.5711271200000005,0.7857272739999991,0.0399999486,0.0399999564,-9.821933800000002,0.007238142192386206,-0.0011937428719874586,-0.00020579000200048617,-0.017170703783644138,0.005742831440013159
0.4225,-8.360001850081037e-05,-0.7846494024999998,3.873325899999521e-05,-2.3558066649999994,0.0008601150890024769,1.5711305100000006,0.7857214044999992,0.03999994755,0.0399999552,-9.821950150000001,0.007385706296213236,-0.001111659850987384,-0.00020897183350048905,-0.017254724539829264,0.0058289567450132375
0.425,-8.887241500081516e-05,-0.7846480749999998,3.870210999999518e-05,-2.355800649999999,0.0008762302700024916,1.5711339000000004,0.7857155349999991,0.0399999465,0.039999954,-9.821966500000002,0.007533270400040265,-0.0010295768299873093,-0.00021215366500049196,-0.017338745296014393,0.005915082050013316
0.4275,-9.414481150081996e-05,-0.7846467474999999,3.867096099999515e-05,-2.355794634999999,0.0008923454510025062,1.5711372900000005,0.7857096654999991,0.039999945450000005,0.0399999528,-9.821982850000001,0.007680834503867294,-0.0009474938089872344,-0.00021533549650049486,-0.01742276605219952,0.006001207355013394
0.43,-9.941720800082476e-05,-0.7846454199999998,3.863981199999512e-05,-2.3557886199999993,0.0009084606320025209,1.5711406800000005,0.7857037959999991,0.0399999444,0.0399999516,-9.821999200000002,0.007828398607694324,-0.0008654107879871597,-0.00021851732800049774,-0.017506786808384644,0.006087332660013473
0.4325,-0.00010468960450082956,-0.7846440924999998,3.8608662999995095e-05,-2.355782604999999,0.0009245758130025356,1.5711440700000006,0.7856979264999991,0.039999943350000004,0.0399999504,-9.822015550000001,0.007975962711521352,-0.000783327766987085,-0.00022169915950050065,-0.017590807564569773,0.006173457965013551
0.435,-0.00011030479700091574,-0.7846429409999999,3.857542299999457e-05,-2.3557760699999992,0.0009417376360027987,1.5711475800000005,0.785691677999999,0.0399999423,0.0399999493,-9.822038000000003,0.008131997194166503,-0.0006926567899849717,-0.00022500405500053275,-0.017675695009543045,0.0062625067000143236
0.4375,-0.000116091387500921,-0.7846418774999998,3.854113749999454e-05,-2.355769274999999,0.0009594227800028148,1.5711511500000006,0.785685239999999,0.039999941250000004,0.03999994825,-9.822063500000004,0.008292266866217708,-0.0005976918349848852,-0.00022837048250053582,-0.017761015798910082,0.006353017150014406
0.44,-0.00012187797800092627,-0.7846408139999999,3.850685199999451e-05,-2.355762479999999,0.000977107924002831,1.5711547200000004,0.785678801999999,0.0399999402,0.039999947200000004,-9.822089000000004,0.008452536538268916,-0.0005027268799847988,-0.00023173691000053886,-0.01784633658827712,0.006443527600014489
0.4425,-0.00012766456850093154,-0.7846397504999999,3.847256649999448e-05,-2.355755684999999,0.000994793068002847,1.5711582900000005,0.785672363999999,0.039999939150000004,0.03999994615,-9.822114500000003,0.008612806210320121,-0.00040776192498471233,-0.00023510333750054193,-0.017931657377644156,0.006534038050014571
0.445,-0.0001334511590009368,-0.7846386869999998,3.8438280999994446e-05,-2.355748889999999,0.0010124782120028632,1.5711618600000006,0.785665925999999,0.0399999381,0.0399999451,-9.822140000000005,0.008773075882371327,-0.0003127969699846259,-0.000238469765000545,-0.018016978167011196,0.006624548500014653
0.4475,-0.00013923774950094206,-0.7846376234999999,3.840399549999442e-05,-2.355742094999999,0.0010301633560028793,1.5711654300000006,0.785659487999999,0.03999993705,0.03999994405,-9.822165500000004,0.008933345554422533,-0.00021783201498453938,-0.00024183619250054805,-0.018102298956378233,0.006715058950014736
0.45,-0.0001450243400010356,-0.7846365599999999,3.836970999999385e-05,-2.3557352999999988,0.0010478485000031648,1.5711690000000007,0.7856530499999989,0.039999936,0.039999943,-9.822191000000009,0.009093615226476346,-0.0001228670599817049,-0.00024520262000057695,-0.018187619745745735,0.006805569400015531
0.4525,-0.00015135000950104136,-0.7846357454999999,3.8332131399993816e-05,-2.3557275749999986,0.0010671795250031823,1.5711731400000006,0.7856460074999988,0.0399999354,0.03999994255,-9.82224440000001,0.00926980255174549,-1.1116270981603157e-05,-0.0002487269120005802,-0.01827578842641369,0.006900434440015617
0.455,-0.00015767567900104712,-0.7846349309999999,3.829455279999378e-05,-2.355719849999999,0.0010865105500032,1.5711772800000008,0.7856389649999987,0.0399999348,0.0399999421,-9.822297800000008,0.009445989877014636,0.00010063451801849857,-0.0002522512040005834,-0.018363957107081646,0.006995299480015703
0.4575,-0.00016400134850105288,-0.7846341164999998,3.825697419999375e-05,-2.355712124999999,0.0011058415750032176,1.5711814200000007,0.7856319224999988,0.039999934200000004,0.03999994165,-9.822351200000009,0.00962217720228378,0.00021238530701860032,-0.0002557754960005866,-0.0184521257877496,0.00709016452001579
0.46,-0.00017032701800105864,-0.7846333019999998,3.821939559999371e-05,-2.3557043999999987,0.0011251726000032353,1.5711855600000006,0.7856248799999987,0.0399999336,0.0399999412,-9.82240460000001,0.009798364527552925,0.00032413609601870204,-0.0002592997880005898,-0.018540294468417557,0.0071850295600158764
0.4625,-0.0001766526875010644,-0.7846324874999998,3.818181699999368e-05,-2.3556966749999986,0.0011445036250032528,1.5711897000000006,0.7856178374999988,0.039999933,0.03999994075,-9.82245800000001,0.009974551852822072,0.0004358868850188038,-0.000262824080000593,-0.01862846314908551,0.0072798946000159626
0.465,-0.00018297835700107013,-0.7846316729999998,3.814423839999364e-05,-2.355688949999999,0.0011638346500032705,1.5711938400000007,0.7856107949999988,0.0399999324,0.039999940299999995,-9.822511400000009,0.010150739178091216,0.0005476376740189055,-0.00026634837200059625,-0.018716631829753465,0.0073747596400160495
0.4675,-0.00018949194200117177,-0.7846309384999999,3.8105511349993024e-05,-2.3556809049999985,0.0011837393600035808,1.5711980450000007,0.7856035424999986,0.039999932200000005,0.039999940149999996,-9.822558350000007,0.010332592390510443,0.0006617757850202254,-0.00026992953500062846,-0.01880516847597084,0.0074710634000168695
0.47000000000000003,-0.00019638135800117805,-0.7846303639999999,3.8064487399992985e-05,-2.3556722199999984,0.0012047914400036,1.5712023800000008,0.7855958699999986,0.0399999328,0.0399999406,-9.822592400000007,0.010525777377221174,0.0007806885400203337,-0.00027362444000063183,-0.018894441053286484,0.00757024460001696
0.47250000000000003,-0.00020327077400118432,-0.7846297894999998,3.8023463449992946e-05,-2.3556635349999984,0.001225843520003619,1.5712067150000006,0.7855881974999986,0.0399999334,0.03999994105,-9.822626450000007,0.010718962363931904,0.000899601295020442,-0.0002773193450006352,-0.018983713630602132,0.0076694258000170505
0.47500000000000003,-0.0002101601900011906,-0.7846292149999999,3.798243949999291e-05,-2.3556548499999987,0.0012468956000036382,1.5712110500000007,0.7855805249999986,0.039999934,0.039999941500000004,-9.822660500000007,0.010912147350642635,0.00101851405002055,-0.0002810142500006386,-0.019072986207917777,0.00776860700001714
0.47750000000000004,-0.00021704960600119687,-0.7846286404999999,3.794141554999287e-05,-2.3556461649999987,0.0012679476800036573,1.5712153850000008,0.7855728524999986,0.0399999346,0.03999994195,-9.822694550000007,0.011105332337353366,0.0011374268050206586,-0.0002847091550006419,-0.019162258785233425,0.00786778820001723
0.48,-0.00022393902200120298,-0.7846280659999999,3.7900391599992836e-05,-2.3556374799999986,0.001288999760003676,1.5712197200000007,0.7855651799999986,0.0399999352,0.0399999424,-9.822728600000007,0.011298517324064093,0.0012563395600207641,-0.0002884040600006452,-0.01925153136254907,0.007966969400017319
0.4825,-0.00023082843800120928,-0.7846274914999999,3.78593676499928e-05,-2.3556287949999986,0.001310051840003695,1.5712240550000007,0.7855575074999986,0.0399999358,0.039999942850000005,-9.822762650000007,0.011491702310774824,0.0013752523150208722,-0.00029209896500064853,-0.019340803939864714,0.008066150600017408
0.485,-0.00023810998600131932,-0.78462707,3.781594419999212e-05,-2.3556194599999984,0.0013323010600040312,1.5712286500000008,0.7855493999999985,0.0399999356,0.0399999427,-9.822800900000008,0.01169518288228613,0.0015091014100249336,-0.00029591791400068474,-0.019431729428486227,0.008168180500018253
0.4875,-0.00024558760000132615,-0.784626725,3.7771320999992085e-05,-2.3556097999999985,0.001355148850004052,1.5712333750000007,0.7855410749999985,0.039999935,0.039999942250000003,-9.822841250000009,0.011903811246193649,0.0016504186750250622,-0.0002997988850006883,-0.019523481372760023,0.008271634750018348
0.49,-0.00025306521400133295,-0.78462638,3.772669779999204e-05,-2.355600139999998,0.0013779966400040728,1.5712381000000009,0.7855327499999984,0.0399999344,0.0399999418,-9.822881600000008,0.01211243961010117,0.001791735940025191,-0.00030367985600069183,-0.019615233317033815,0.008375089000018442
0.4925,-0.00026054282800133975,-0.7846260349999999,3.7682074599992005e-05,-2.3555904799999983,0.0014008444300040936,1.5712428250000008,0.7855244249999985,0.0399999338,0.03999994135,-9.822921950000008,0.01232106797400869,0.0019330532050253195,-0.00030756082700069537,-0.019706985261307607,0.008478543250018537
0.495,-0.00026802044200134655,-0.7846256899999999,3.763745139999196e-05,-2.3555808199999984,0.0014236922200041144,1.5712475500000007,0.7855160999999985,0.039999933200000004,0.039999940899999996,-9.822962300000007,0.012529696337916209,0.002074370470025448,-0.0003114417980006989,-0.019798737205581403,0.00858199750001863
0.4975,-0.0002754980560013534,-0.7846253449999999,3.7592828199991926e-05,-2.355571159999998,0.0014465400100041352,1.5712522750000009,0.7855077749999985,0.0399999326,0.03999994045,-9.823002650000008,0.01273832470182373,0.002215687735025577,-0.00031532276900070246,-0.019890489149855195,0.008685451750018724
0.5,-0.0002829756700014716,-0.784625,3.7548204999991206e-05,-2.355561499999998,0.001469387800004496,1.5712570000000008,0.7854994499999983,0.039999932,0.03999994,-9.823043000000007,0.012946953065734608,0.002357005000027886,-0.0003192037400007434,-0.019982241094129372,0.008788906000019588
0.5025000000000001,-0.0002910656695014791,-0.784624874,3.749984574999116e-05,-2.355550834999998,0.001494105070004519,1.5712622500000009,0.7854904424999983,0.039999931700000005,0.0399999394,-9.823083350000008,0.013174040755298448,0.0025103069950280286,-0.0003232904390007472,-0.02007610108705082,0.008896588750019689
0.505,-0.0002991556690014863,-0.784624748,3.7451486499991115e-05,-2.355540169999998,0.001518822340004541,1.571267500000001,0.7854814349999983,0.0399999314,0.039999938799999996,-9.823123700000007,0.01340112844486228,0.0026636089900281645,-0.0003273771380007508,-0.020169961079972265,0.009004271500019784
0.5075000000000001,-0.00030724566850149384,-0.7846246219999999,3.740312724999107e-05,-2.355529504999998,0.001543539610004564,1.5712727500000008,0.7854724274999983,0.039999931100000004,0.0399999382,-9.823164050000008,0.013628216134426122,0.0028169109850283073,-0.0003314638370007546,-0.02026382107289371,0.009111954250019885
0.51,-0.00031533566800150104,-0.784624496,3.7354767999991024e-05,-2.355518839999998,0.001568256880004586,1.5712780000000008,0.7854634199999984,0.0399999308,0.0399999376,-9.823204400000007,0.013855303823989954,0.0029702129800284437,-0.00033555053600075826,-0.020357681065815154,0.00921963700001998
0.5125,-0.0003234256675015082,-0.78462437,3.7306408749990986e-05,-2.355508174999998,0.001592974150004608,1.571283250000001,0.7854544124999984,0.0399999305,0.039999937,-9.823244750000008,0.014082391513553786,0.0031235149750285796,-0.00033963723500076185,-0.0204515410587366,0.009327319750020076
0.515,-0.00033151566700151576,-0.784624244,3.725804949999094e-05,-2.355497509999998,0.001617691420004631,1.571288500000001,0.7854454049999983,0.039999930200000006,0.0399999364,-9.823285100000007,0.014309479203117627,0.003276816970028723,-0.00034372393400076566,-0.020545401051658047,0.009435002500020176
0.5175,-0.0003398177720016427,-0.784624187,3.7208395499990166e-05,-2.355486504999998,0.0016430561950050186,1.571293860000001,0.7854361599999982,0.039999930100000004,0.0399999362,-9.823324250000006,0.014542859047697502,0.0034336565600308565,-0.0003478572285007956,-0.02063971282916069,0.009544076500021058
0.52,-0.00034854408800165084,-0.7846242680000001,3.715615199999012e-05,-2.3554748199999977,0.0016697159800050435,1.571299440000001,0.7854264399999982,0.0399999304,0.0399999368,-9.823361000000007,0.014788823202298832,0.0035975713400310094,-0.00035208371400079956,-0.020734928175824972,0.009655933000021162
0.5225,-0.0003572704040016586,-0.784624349,3.710390849999007e-05,-2.3554631349999977,0.0016963757650050673,1.571305020000001,0.7854167199999982,0.039999930700000005,0.0399999374,-9.823397750000007,0.015034787356900151,0.0037614861200311552,-0.00035631019950080334,-0.020830143522489252,0.009767789500021261
0.525,-0.00036599672000166674,-0.78462443,3.705166499999002e-05,-2.3554514499999977,0.0017230355500050922,1.571310600000001,0.7854069999999982,0.039999931,0.039999938,-9.823434500000007,0.015280751511501479,0.003925400900031308,-0.0003605366850008073,-0.020925358869153535,0.009879646000021365
0.5275,-0.0003747230360016745,-0.784624511,3.699942149998998e-05,-2.3554397649999976,0.0017496953350051158,1.571316180000001,0.7853972799999982,0.0399999313,0.0399999386,-9.823471250000006,0.015526715666102798,0.0040893156800314535,-0.00036476317050081105,-0.021020574215817815,0.009991502500021465
0.53,-0.00038344935200168264,-0.784624592,3.694717799998993e-05,-2.3554280799999976,0.0017763551200051407,1.5713217600000011,0.7853875599999982,0.039999931600000004,0.0399999392,-9.823508000000006,0.015772679820704127,0.004253230460031607,-0.000368989656000815,-0.0211157895624821,0.010103359000021569
0.5325,-0.0003921756680016904,-0.7846246729999999,3.689493449998988e-05,-2.3554163949999976,0.0018030149050051643,1.5713273400000012,0.7853778399999981,0.0399999319,0.039999939799999995,-9.823544750000007,0.016018643975305447,0.004417145240031752,-0.00037321614150081877,-0.02121100490914638,0.010215215500021668
0.535,-0.000401341976001827,-0.78462488,3.6840000199989046e-05,-2.355403959999997,0.0018310176900055814,1.5713331500000012,0.785367635999998,0.0399999331,0.039999941399999996,-9.823582300000007,0.016276481747678533,0.0045949510500359605,-0.0003775782990008623,-0.021307967230696633,0.01032973400002255
0.5375,-0.0004107282800018353,-0.78462515,3.6783720499989e-05,-2.3553911499999973,0.0018596919750056068,1.5713390750000011,0.785357189999998,0.03999993475,0.039999943499999996,-9.823620250000006,0.0165402563289323,0.004779702375036125,-0.0003820082925008662,-0.021405803039689104,0.010445583500022653
0.54,-0.0004201145840018441,-0.78462542,3.672744079998894e-05,-2.3553783399999975,0.0018883662600056336,1.5713450000000013,0.785346743999998,0.039999936400000005,0.039999945599999996,-9.823658200000008,0.01680403091018608,0.004964453700036297,-0.00038643828600087035,-0.021503638848681582,0.010561433000022762
0.5425,-0.0004295008880018524,-0.78462569,3.6671161099988894e-05,-2.355365529999997,0.001917040545005659,1.5713509250000013,0.7853362979999979,0.03999993805,0.039999947699999996,-9.823696150000007,0.017067805491439852,0.005149205025036461,-0.00039086827950087427,-0.021601474657674053,0.010677282500022863
0.545,-0.0004388871920018612,-0.7846259600000001,3.661488139998884e-05,-2.3553527199999973,0.0019457148300056856,1.5713568500000012,0.7853258519999979,0.0399999397,0.0399999498,-9.823734100000006,0.01733158007269363,0.005333956350036633,-0.0003952982730008784,-0.021699310466666528,0.010793132000022972
0.5475,-0.0004482734960018695,-0.7846262300000001,3.655860169998879e-05,-2.3553399099999974,0.001974389115005711,1.5713627750000012,0.7853154059999979,0.039999941350000005,0.0399999519,-9.823772050000008,0.0175953546539474,0.005518707675036798,-0.00039972826650088236,-0.021797146275659,0.010908981500023075
0.55,-0.000457659800002015,-0.7846265000000001,3.65023219999879e-05,-2.355327099999997,0.002003063400006155,1.5713687000000014,0.7853049599999978,0.039999943,0.039999954,-9.823810000000009,0.017859129235205468,0.00570345900003999,-0.0004041582600009312,-0.021894982084651952,0.011024831000024021
0.5525,-0.00046772939000202396,-0.7846270100000001,3.644186269998785e-05,-2.3553131949999973,0.0020338235400061827,1.5713751350000014,0.7852937609999978,0.03999994255,0.039999953399999996,-9.82385725000001,0.0181443229318238,0.005903299290040167,-0.00040881193650093537,-0.021995201706906407,0.011144872550024129
0.555,-0.00047779898000203334,-0.7846275200000001,3.638140339998779e-05,-2.355299289999997,0.002064583680006211,1.5713815700000013,0.7852825619999978,0.0399999421,0.039999952799999995,-9.82390450000001,0.01842951662844215,0.006103139580040353,-0.0004134656130009397,-0.022095421329160866,0.01126491410002424
0.5575,-0.0004878685700020423,-0.7846280300000001,3.6320944099987733e-05,-2.355285384999997,0.0020953438200062386,1.5713880050000013,0.7852713629999978,0.03999994165,0.0399999522,-9.82395175000001,0.01871471032506048,0.00630297987004053,-0.00041811928950094383,-0.02219564095141532,0.011384955650024347
0.56,-0.0004979381600020517,-0.7846285400000002,3.626048479998768e-05,-2.355271479999997,0.002126103960006267,1.5713944400000013,0.7852601639999978,0.0399999412,0.0399999516,-9.82399900000001,0.018999904021678827,0.006502820160040717,-0.0004227729660009482,-0.02229586057366978,0.011504997200024458
0.5625,-0.0005080077500020607,-0.78462905,3.6200025499987625e-05,-2.3552575749999973,0.0021568641000062946,1.5714008750000013,0.7852489649999977,0.03999994075,0.039999951,-9.82404625000001,0.01928509771829716,0.006702660450040894,-0.0004274266425009523,-0.022396080195924234,0.011625038750024566
0.5650000000000001,-0.00051807734000207,-0.7846295600000001,3.613956619998757e-05,-2.355243669999997,0.0021876242400063234,1.5714073100000014,0.7852377659999977,0.039999940299999995,0.0399999504,-9.82409350000001,0.019570291414915505,0.00690250074004108,-0.00043208031900095667,-0.022496299818178692,0.011745080300024678
0.5675,-0.0005283823450022248,-0.7846301375000001,3.607766984998663e-05,-2.3552293899999968,0.0022191030350067957,1.5714139050000016,0.7852263049999976,0.03999994,0.03999995,-9.824137600000007,0.019862235244426575,0.007107659770044552,-0.00043680300900100354,-0.022597078420242778,0.01186645330002561
0.5700000000000001,-0.0005391581800022349,-0.7846308500000001,3.601289939998657e-05,-2.355214359999997,0.0022520191400068265,1.5714208200000015,0.7852143199999976,0.03999994,0.03999995,-9.824175400000009,0.020167679339710604,0.007323456280044754,-0.0004416637260010081,-0.022698974981925094,0.011990489200025725
0.5725,-0.0005499340150022444,-0.7846315625000001,3.594812894998651e-05,-2.355199329999997,0.0022849352450068556,1.5714277350000014,0.7852023349999976,0.03999994,0.03999995,-9.824213200000008,0.020473123434994623,0.007539252790044945,-0.0004465244430010124,-0.022800871543607402,0.012114525100025834
0.5750000000000001,-0.0005607098500022544,-0.7846322750000001,3.588335849998645e-05,-2.355184299999997,0.0023178513500068864,1.5714346500000016,0.7851903499999975,0.03999994,0.03999995,-9.824251000000007,0.020778567530278652,0.007755049300045147,-0.00045138516000101694,-0.02290276810528972,0.01223856100002595
0.5775,-0.0005714856850022639,-0.7846329875000001,3.581858804998639e-05,-2.355169269999997,0.0023507674550069155,1.5714415650000015,0.7851783649999975,0.03999994,0.03999995,-9.824288800000009,0.021084011625562667,0.007970845810045339,-0.00045624587700102126,-0.023004664666972027,0.01236259690002606
0.58,-0.0005822615200022736,-0.7846337000000001,3.575381759998633e-05,-2.355154239999997,0.002383683560006945,1.5714484800000015,0.7851663799999975,0.03999994,0.03999995,-9.824326600000008,0.021389455720846686,0.00818664232004553,-0.0004611065940010256,-0.02310656122865434,0.01248663280002617
0.5825,-0.0005930373550022836,-0.7846344125000001,3.568904714998627e-05,-2.355139209999997,0.002416599665006976,1.5714553950000014,0.7851543949999975,0.03999994,0.03999995,-9.824364400000007,0.021694899816130715,0.008402438830045732,-0.0004659673110010301,-0.023208457790336652,0.012610668700026285
0.585,-0.0006042991760024483,-0.7846352280000002,3.562130329998527e-05,-2.355123429999997,0.0024509991900074786,1.5714626300000016,0.7851418699999972,0.0399999407,0.0399999504,-9.82440820000001,0.02201496064669896,0.008630547400049853,-0.0004709806450010831,-0.023311835154913085,0.01273741400002726
0.5875,-0.0006158039900024591,-0.7846360950000002,3.55520727499852e-05,-2.355107274999997,0.0024861404250075114,1.5714700250000015,0.7851290749999973,0.03999994175,0.039999951,-9.82445500000001,0.022342329844902347,0.00886481200005007,-0.00047607028750108787,-0.02341595292093588,0.01286551400002738
0.59,-0.0006273088040024692,-0.7846369620000002,3.548284219998514e-05,-2.355091119999997,0.0025212816600075423,1.5714774200000017,0.7851162799999972,0.0399999428,0.0399999516,-9.824501800000009,0.022669699043105722,0.00909907660005028,-0.0004811599300010924,-0.023520070686958668,0.012993614000027494
0.5925,-0.00063881361800248,-0.7846378290000002,3.541361164998508e-05,-2.3550749649999965,0.002556422895007575,1.5714848150000016,0.7851034849999973,0.03999994385,0.0399999522,-9.82454860000001,0.022997068241309114,0.009333341200050499,-0.00048624957250109716,-0.02362418845298146,0.013121714000027613
0.595,-0.0006503184320024902,-0.7846386960000002,3.534438109998502e-05,-2.3550588099999965,0.0025915641300076064,1.5714922100000017,0.7850906899999972,0.0399999449,0.039999952799999995,-9.82459540000001,0.02332443743951249,0.009567605800050706,-0.0004913392150011017,-0.023728306219004246,0.013249814000027726
0.5975,-0.000661823246002501,-0.7846395630000003,3.527515054998495e-05,-2.3550426549999965,0.002626705365007639,1.5714996050000016,0.7850778949999971,0.03999994595,0.039999953399999996,-9.82464220000001,0.023651806637715878,0.009801870400050924,-0.0004964288575011064,-0.023832423985027038,0.013377914000027847
0.6,-0.0006733280600026752,-0.7846404300000003,3.520591999998389e-05,-2.355026499999996,0.002661846600008171,1.5715070000000018,0.785065099999997,0.039999947,0.039999954,-9.82468900000001,0.02397917583592358,0.010036135000053896,-0.0005015185000011484,-0.023936541751050328,0.013506014000028776
0.6025,-0.0006855840965026866,-0.7846415205000002,3.513209344998382e-05,-2.355009174999996,0.0026992809150082056,1.5715148600000017,0.785051479999997,0.03999994805,0.039999954899999995,-9.82473475000001,0.024326352588908428,0.010283056150054126,-0.0005067796525011532,-0.0240429592319066,0.013637847800028899
0.605,-0.0006978401330026975,-0.7846426110000002,3.505826689998375e-05,-2.3549918499999962,0.002736715230008239,1.5715227200000017,0.785037859999997,0.0399999491,0.0399999558,-9.82478050000001,0.02467352934189326,0.010529977300054345,-0.0005120408050011579,-0.024149376712762873,0.013769681600029015
0.6075,-0.0007100961695027089,-0.7846437015000003,3.498444034998368e-05,-2.3549745249999963,0.002774149545008274,1.5715305800000017,0.7850242399999969,0.03999995015,0.0399999567,-9.82482625000001,0.02502070609487811,0.010776898450054575,-0.0005173019575011628,-0.024255794193619146,0.013901515400029138
0.61,-0.0007223522060027198,-0.7846447920000003,3.4910613799983614e-05,-2.3549571999999963,0.002811583860008307,1.5715384400000016,0.785010619999997,0.0399999512,0.0399999576,-9.82487200000001,0.025367882847862944,0.011023819600054795,-0.0005225631100011675,-0.024362211674475415,0.014033349200029256
0.6125,-0.0007346082425027312,-0.7846458825000002,3.483678724998355e-05,-2.3549398749999964,0.002849018175008342,1.5715463000000016,0.784996999999997,0.03999995225,0.0399999585,-9.82491775000001,0.025715059600847794,0.011270740750055025,-0.0005278242625011724,-0.02446862915533169,0.014165183000029377
0.615,-0.0007468642790027421,-0.7846469730000002,3.476296069998348e-05,-2.354922549999996,0.0028864524900083753,1.5715541600000018,0.784983379999997,0.039999953299999995,0.0399999594,-9.82496350000001,0.026062236353832625,0.011517661900055244,-0.0005330854150011771,-0.02457504663618796,0.014297016800029495
0.6175,-0.0007593780415029273,-0.7846481235000002,3.468755734998235e-05,-2.354904849999996,0.0029246733850089406,1.5715621900000019,0.7849694679999968,0.0399999542,0.0399999605,-9.82500825000001,0.026417145319366172,0.01177258735006087,-0.0005384263825012358,-0.024682213459188272,0.014430072650030441
0.62,-0.0007724072560029388,-0.7846493940000002,3.460900039998228e-05,-2.354886399999996,0.0029644674400089756,1.5715705600000018,0.7849549719999968,0.0399999548,0.039999962,-9.825051000000009,0.02678751870998148,0.01204352140006111,-0.0005439269800012407,-0.02479087896647515,0.014565572600030562
0.6225,-0.000785436470502951,-0.7846506645000002,3.45304434499822e-05,-2.354867949999996,0.0030042614950090128,1.5715789300000018,0.7849404759999967,0.0399999554,0.0399999635,-9.82509375000001,0.027157892100596805,0.012314455450061363,-0.0005494275775012458,-0.024899544473762032,0.014701072550030688
0.625,-0.0007984656850029625,-0.7846519350000003,3.445188649998214e-05,-2.354849499999996,0.0030440555500090482,1.571587300000002,0.7849259799999967,0.039999956,0.039999965000000005,-9.82513650000001,0.027528265491212112,0.012585389500061604,-0.0005549281750012507,-0.025008209981048905,0.01483657250003081
0.6275000000000001,-0.0008114948995029747,-0.7846532055000003,3.437332954998206e-05,-2.354831049999996,0.0030838496050090854,1.571595670000002,0.7849114839999967,0.0399999566,0.039999966500000005,-9.82517925000001,0.027898638881827437,0.012856323550061857,-0.0005604287725012559,-0.02511687548833579,0.014972072450030936
0.63,-0.0008245241140029862,-0.7846544760000003,3.429477259998199e-05,-2.354812599999996,0.003123643660009121,1.571604040000002,0.7848969879999967,0.0399999572,0.039999968000000004,-9.82522200000001,0.028269012272442745,0.013127257600062097,-0.0005659293700012607,-0.025225540995622665,0.015107572400031057
0.6325000000000001,-0.0008375533285029983,-0.7846557465000003,3.421621564998192e-05,-2.354794149999996,0.0031634377150091576,1.571612410000002,0.7848824919999967,0.0399999578,0.0399999695,-9.82526475000001,0.02863938566305807,0.01339819165006235,-0.0005714299675012659,-0.025334206502909545,0.015243072350031183
0.635,-0.0008511123660031936,-0.7846571430000003,3.413442169998073e-05,-2.3547749199999957,0.0032048489000097535,1.5716211300000023,0.7848674079999964,0.0399999588,0.039999970700000005,-9.825317600000014,0.029026275500746376,0.013678280200065762,-0.0005770276300013044,-0.025444687716688532,0.015381139100032193
0.6375000000000001,-0.0008649363150032064,-0.7846586025000003,3.4051009249980654e-05,-2.3547552999999954,0.003247068650009793,1.5716300250000022,0.7848520299999965,0.03999996,0.03999997175,-9.825375500000014,0.029421423561962628,0.013962946000066027,-0.0005826738250013096,-0.025556076783712637,0.015520489250032323
0.64,-0.0008787602640032187,-0.7846600620000004,3.396759679998058e-05,-2.3547356799999957,0.0032892884000098304,1.5716389200000023,0.7848366519999964,0.0399999612,0.0399999728,-9.825433400000014,0.029816571623178863,0.014247611800066281,-0.0005883200200013147,-0.025667465850736735,0.015659839400032446
0.6425,-0.000892584213003231,-0.7846615215000003,3.38841843499805e-05,-2.3547160599999954,0.0033315081500098678,1.5716478150000022,0.7848212739999965,0.0399999624,0.03999997385,-9.825491300000014,0.030211719684395098,0.014532277600066533,-0.0005939662150013196,-0.025778854917760833,0.01579918955003257
0.645,-0.0009064081620032439,-0.7846629810000003,3.3800771899980425e-05,-2.3546964399999957,0.0033737279000099073,1.5716567100000023,0.7848058959999964,0.0399999636,0.0399999749,-9.825549200000014,0.030606867745611353,0.014816943400066798,-0.0005996124100013249,-0.025890243984784938,0.0159385397000327
0.6475,-0.0009202321110032562,-0.7846644405000004,3.371735944998035e-05,-2.3546768199999955,0.0034159476500099446,1.5716656050000022,0.7847905179999964,0.039999964799999996,0.03999997595,-9.825607100000015,0.031002015806827588,0.015101609200067052,-0.0006052586050013299,-0.02600163305180904,0.016077889850032823
0.65,-0.000934056060003462,-0.7846659000000004,3.3633946999979094e-05,-2.3546571999999952,0.0034581674000105727,1.5716745000000023,0.7847751399999962,0.039999966,0.039999977,-9.825665000000011,0.0313971638680492,0.015386275000071774,-0.0006109048000013847,-0.026113022118833668,0.016217240000033818
0.6525,-0.000948695796003475,-0.7846675425000004,3.3545540899979014e-05,-2.354636349999995,0.0035028771350106127,1.5716838450000024,0.7847588589999962,0.0399999666,0.03999997745,-9.825708800000012,0.03181496039042849,0.015689790250072045,-0.0006167606950013899,-0.026226632948991756,0.016360236050033942
0.655,-0.0009633355320034886,-0.7846691850000004,3.3457134799978934e-05,-2.354615499999995,0.0035475868700106544,1.5716931900000024,0.7847425779999961,0.0399999672,0.0399999779,-9.825752600000012,0.032232756912807796,0.015993305500072327,-0.0006226165900013954,-0.026340243779149855,0.016503232100034078
0.6575,-0.0009779752680035016,-0.7846708275000004,3.3368728699978854e-05,-2.354594649999995,0.003592296605010694,1.5717025350000022,0.7847262969999961,0.0399999678,0.03999997835,-9.82579640000001,0.032650553435187094,0.016296820750072594,-0.0006284724850014006,-0.026453854609307947,0.016646228150034203
0.66,-0.0009926150040035153,-0.7846724700000004,3.3280322599978774e-05,-2.354573799999995,0.0036370063400107356,1.5717118800000023,0.7847100159999961,0.0399999684,0.039999978799999995,-9.82584020000001,0.0330683499575664,0.01660033600007288,-0.0006343283800014061,-0.026567465439466042,0.016789224200034338
0.6625,-0.0010072547400035283,-0.7846741125000004,3.3191916499978694e-05,-2.3545529499999946,0.0036817160750107756,1.5717212250000023,0.7846937349999961,0.039999969,0.03999997925,-9.825884000000011,0.03348614647994569,0.016903851250073147,-0.0006401842750014113,-0.026681076269624134,0.016932220250034463
0.665,-0.001021894476003542,-0.7846757550000004,3.310351039997861e-05,-2.354532099999995,0.0037264258100108173,1.5717305700000024,0.7846774539999961,0.039999969600000004,0.0399999797,-9.825927800000011,0.033903943002325,0.017207366500073432,-0.0006460401700014168,-0.02679468709978223,0.0170752163000346
0.6675,-0.001036813090003758,-0.7846774675000004,3.301340284997729e-05,-2.3545108299999944,0.003771986705011477,1.5717400950000024,0.7846608629999958,0.03999997,0.03999998,-9.825975400000013,0.034329995326805245,0.017518069000078938,-0.0006519766600014806,-0.026909275911776637,0.017219401850035593
0.67,-0.0010522894600037726,-0.7846793200000004,3.2919892399977206e-05,-2.354488719999994,0.0038192499200115208,1.5717499800000025,0.7846436519999958,0.03999997,0.03999998,-9.826030600000013,0.034772559255469376,0.01784314600007924,-0.0006580743400014864,-0.02702582068744155,0.017365966400035727
0.6725,-0.0010677658300037862,-0.7846811725000005,3.282638194997712e-05,-2.3544666099999945,0.003866513135011563,1.5717598650000024,0.7846264409999958,0.03999997,0.03999998,-9.826085800000014,0.035215123184133494,0.018168223000079527,-0.0006641720200014918,-0.027142365463106458,0.017512530950035857
0.675,-0.0010832422000038007,-0.7846830250000004,3.2732871499977034e-05,-2.3544444999999943,0.003913776350011607,1.5717697500000025,0.7846092299999957,0.03999997,0.03999998,-9.826141000000014,0.03565768711279763,0.018493300000079833,-0.0006702697000014974,-0.02725891023877137,0.017659095500035995
0.6775,-0.0010987185700038144,-0.7846848775000005,3.2639361049976954e-05,-2.3544223899999945,0.003961039565011649,1.5717796350000026,0.7845920189999958,0.03999997,0.03999998,-9.826196200000014,0.03610025104146175,0.01881837700008012,-0.0006763673800015029,-0.02737545501443628,0.017805660050036125
0.68,-0.0011141949400038289,-0.7846867300000004,3.254585059997686e-05,-2.3544002799999943,0.004008302780011693,1.5717895200000025,0.7845748079999957,0.03999997,0.03999998,-9.826251400000015,0.03654281497012589,0.019143454000080423,-0.0006824650600015086,-0.027491999790101192,0.017952224600036263
0.6825,-0.0011296713100038425,-0.7846885825000004,3.245234014997678e-05,-2.354378169999994,0.004055565995011735,1.5717994050000026,0.7845575969999957,0.03999997,0.03999998,-9.826306600000015,0.03698537889879001,0.019468531000080714,-0.000688562740001514,-0.027608544565766103,0.01809878915003639
0.685,-0.0011457189200040705,-0.7846905500000004,3.235533499997539e-05,-2.354355259999994,0.004104572900012431,1.5718096700000026,0.7845397479999955,0.039999969600000004,0.0399999797,-9.82635260000001,0.037444912269828046,0.019805345700085405,-0.000694811110001576,-0.027726513333648138,0.018247681200037398
0.6875,-0.0011620521500040851,-0.7846925750000004,3.22565824999753e-05,-2.354331949999994,0.004154451650012475,1.5718201250000028,0.7845215799999955,0.039999969,0.03999997925,-9.826394000000011,0.03791293036204353,0.020148029250085707,-0.0007011348250015817,-0.027845194097637933,0.01839773700003753
0.6900000000000001,-0.0011783853800041003,-0.7846946000000005,3.215782999997521e-05,-2.354308639999994,0.004204330400012521,1.5718305800000028,0.7845034119999954,0.0399999684,0.039999978799999995,-9.82643540000001,0.03838094845425903,0.020490712800086026,-0.0007074585400015875,-0.027963874861627734,0.018547792800037672
0.6925,-0.001194718610004115,-0.7846966250000005,3.205907749997512e-05,-2.354285329999994,0.004254209150012566,1.5718410350000027,0.7844852439999954,0.0399999678,0.03999997835,-9.82647680000001,0.03884896654647451,0.020833396350086332,-0.0007137822550015931,-0.02808255562561753,0.018697848600037804
0.6950000000000001,-0.0012110518400041302,-0.7846986500000005,3.196032499997503e-05,-2.3542620199999944,0.004304087900012613,1.5718514900000027,0.7844670759999954,0.0399999672,0.0399999779,-9.826518200000011,0.03931698463869002,0.02117607990008665,-0.000720105970001599,-0.02820123638960733,0.018847904400037946
0.6975,-0.0012273850700041447,-0.7847006750000005,3.186157249997494e-05,-2.3542387099999944,0.004353966650012657,1.5718619450000026,0.7844489079999954,0.0399999666,0.03999997745,-9.82655960000001,0.039785002730905496,0.021518763450086957,-0.0007264296850016046,-0.028319917153597125,0.018997960200038078
0.7000000000000001,-0.0012437183000043833,-0.7847027000000005,3.176281999997348e-05,-2.354215399999994,0.004403845400013385,1.5718724000000028,0.7844307399999951,0.039999966,0.039999977,-9.826601000000016,0.04025302082312757,0.02186144700009184,-0.0007327534000016557,-0.02843859791758765,0.019148016000039084
0.7025,-0.0012609284000043984,-0.7847049050000006,3.165869254997339e-05,-2.354190724999994,0.0044564003600134315,1.5718833950000028,0.7844116089999951,0.0399999666,0.03999997745,-9.826660550000016,0.04074683673692443,0.02222205240009216,-0.0007392541810016614,-0.028560127969862233,0.019301480100039223
0.705,-0.0012781385000044138,-0.7847071100000006,3.1554565099973295e-05,-2.3541660499999937,0.004508955320013479,1.5718943900000026,0.7843924779999951,0.0399999672,0.0399999779,-9.826720100000015,0.041240652650721306,0.02258265780009248,-0.0007457549620016672,-0.02868165802213682,0.01945494420003936
0.7075,-0.0012953486000044298,-0.7847093150000005,3.14504376499732e-05,-2.3541413749999935,0.0045615102800135275,1.5719053850000027,0.7843733469999951,0.0399999678,0.03999997835,-9.826779650000015,0.04173446856451819,0.022943263200092816,-0.0007522557430016733,-0.028803188074411405,0.0196084083000395
0.71,-0.001312558700004445,-0.7847115200000006,3.1346310199973104e-05,-2.3541166999999934,0.004614065240013574,1.5719163800000027,0.784354215999995,0.0399999684,0.039999978799999995,-9.826839200000014,0.042228284478315066,0.023303868600093137,-0.000758756524001679,-0.02892471812668599,0.019761872400039637
0.7125,-0.001329768800004461,-0.7847137250000006,3.124218274997301e-05,-2.3540920249999937,0.004666620200013623,1.5719273750000027,0.784335084999995,0.039999969,0.03999997925,-9.826898750000016,0.04272210039211195,0.023664474000093475,-0.000765257305001685,-0.029046248178960576,0.01991533650003978
0.715,-0.0013469789000044763,-0.7847159300000006,3.113805529997291e-05,-2.3540673499999936,0.00471917516001367,1.5719383700000027,0.784315953999995,0.039999969600000004,0.0399999797,-9.826958300000015,0.04321591630590882,0.024025079400093796,-0.0007717580860016908,-0.02916777823123516,0.020068800600039915
0.7175,-0.0013644877650047264,-0.7847181980000006,3.103210044997138e-05,-2.354042184999993,0.004772641995014433,1.5719495600000029,0.7842964879999947,0.03999997015,0.0399999802,-9.827009575000009,0.04371824581189596,0.024392090700099147,-0.0007783396930017602,-0.029289999790521937,0.02022337460004093
0.72,-0.0013825941600047425,-0.7847205920000007,3.092249079997129e-05,-2.354016039999993,0.004827932580014482,1.5719611400000029,0.7842763519999947,0.039999970600000004,0.0399999808,-9.82704430000001,0.04423760250224361,0.024771913800099486,-0.0007850829520017661,-0.029413604363831454,0.020380168400041067
0.7225,-0.0014007005550047593,-0.7847229860000007,3.081288114997119e-05,-2.353989894999993,0.004883223165014533,1.5719727200000029,0.7842562159999947,0.03999997105,0.0399999814,-9.827079025000009,0.04475695919259128,0.02515173690009984,-0.0007918262110017725,-0.02953720893714098,0.02053696220004121
0.725,-0.0014188069500047755,-0.7847253800000007,3.070327149997109e-05,-2.353963749999993,0.004938513750014583,1.5719843000000029,0.7842360799999947,0.0399999715,0.039999982,-9.82711375000001,0.04527631588293893,0.025531560000100175,-0.0007985694700017784,-0.0296608135104505,0.020693756000041353
0.7275,-0.0014369133450047923,-0.7847277740000007,3.0593661849970984e-05,-2.353937604999993,0.004993804335014634,1.571995880000003,0.7842159439999947,0.039999971950000004,0.0399999826,-9.827148475000008,0.045795672573286594,0.02591138310010053,-0.0008053127290017848,-0.029784418083760027,0.020850549800041498
0.73,-0.0014550197400048084,-0.7847301680000007,3.048405219997089e-05,-2.353911459999993,0.005049094920014683,1.572007460000003,0.7841958079999947,0.0399999724,0.0399999832,-9.82718320000001,0.04631502926363425,0.026291206200100867,-0.0008120559880017907,-0.029908022657069544,0.02100734360004164
0.7325,-0.0014731261350048254,-0.7847325620000006,3.0374442549970788e-05,-2.353885314999993,0.005104385505014734,1.572019040000003,0.7841756719999946,0.03999997285,0.0399999838,-9.827217925000008,0.046834385953981914,0.02667102930010122,-0.0008187992470017971,-0.03003162723037907,0.021164137400041784
0.735,-0.0014918427900050863,-0.7847350540000008,3.02611101999692e-05,-2.3538583099999926,0.0051615386000155306,1.5720310600000031,0.7841548569999943,0.039999973,0.0399999844,-9.827249050000008,0.047371030226495546,0.027065984000107627,-0.0008256685800018536,-0.03015637733045584,0.021323006900042758
0.7375,-0.001510864575005104,-0.7847375950000007,3.014591649996909e-05,-2.3538308749999928,0.0052196229500155854,1.5720433000000031,0.7841337024999944,0.039999973,0.039999985,-9.827278375000008,0.04791631829008181,0.027468504500108,-0.0008326009500018601,-0.030281700193915552,0.021482914250042905
0.74,-0.0015298863600051208,-0.7847401360000007,3.003072279996899e-05,-2.3538034399999925,0.005277707300015637,1.5720555400000031,0.7841125479999943,0.039999973,0.0399999856,-9.827307700000008,0.04846160635366806,0.027871025000108362,-0.0008395333200018662,-0.03040702305737526,0.02164282160004305
0.7425,-0.0015489081450051386,-0.7847426770000007,2.9915529099968883e-05,-2.3537760049999927,0.005335791650015691,1.5720677800000034,0.7840913934999943,0.039999973,0.039999986200000004,-9.827337025000007,0.049006894417254324,0.028273545500108736,-0.0008464656900018727,-0.03053234592083497,0.021802728950043197
0.745,-0.0015679299300051556,-0.7847452180000007,2.980033539996878e-05,-2.3537485699999925,0.005393876000015742,1.5720800200000034,0.7840702389999943,0.039999973,0.0399999868,-9.827366350000007,0.04955218248084057,0.028676066000109093,-0.0008533980600018789,-0.030657668784294677,0.02196263630004334
0.7475,-0.0015869517150051732,-0.7847477590000007,2.968514169996867e-05,-2.3537211349999927,0.005451960350015797,1.5720922600000033,0.7840490844999943,0.039999973,0.0399999874,-9.827395675000007,0.050097470544426835,0.029078586500109468,-0.0008603304300018853,-0.030782991647754387,0.02212254365004349
0.75,-0.001605973500005445,-0.7847503000000008,2.956994799996701e-05,-2.353693699999992,0.005510044700016627,1.5721045000000036,0.7840279299999939,0.039999973,0.039999988,-9.827425000000012,0.05064275860802108,0.02948110700011432,-0.0008672628000019533,-0.03090831451121473,0.022282451000044494
0.7525000000000001,-0.0016259292750054636,-0.7847530690000007,2.94490374999669e-05,-2.353664839999992,0.005570980370016683,1.5721173250000036,0.784005747999994,0.03999997405,0.0399999898,-9.827473000000014,0.051217378862359414,0.02990009570011471,-0.00087442168500196,-0.0310359717347077,0.022445519900044647
0.755,-0.0016458850500054812,-0.7847558380000007,2.932812699996679e-05,-2.353635979999992,0.005631916040016737,1.5721301500000036,0.783983565999994,0.0399999751,0.0399999916,-9.827521000000013,0.05179199911669772,0.030319084400115083,-0.0008815805700019663,-0.031163628958200663,0.02260858880004479
0.7575000000000001,-0.0016658408250055,-0.7847586070000008,2.9207216499966677e-05,-2.353607119999992,0.005692851710016794,1.5721429750000036,0.7839613839999939,0.03999997615,0.0399999934,-9.827569000000013,0.05236661937103605,0.030738073100115473,-0.000888739455001973,-0.031291286181693634,0.022771657700044943
0.76,-0.0016857966000055177,-0.7847613760000007,2.908630599996657e-05,-2.353578259999992,0.0057537873800168485,1.5721558000000035,0.7839392019999939,0.0399999772,0.0399999952,-9.827617000000012,0.05294123962537436,0.031157061800115845,-0.0008958983400019794,-0.0314189434051866,0.022934726600045086
0.7625000000000001,-0.0017057523750055362,-0.7847641450000007,2.8965395499966457e-05,-2.353549399999992,0.005814723050016905,1.5721686250000035,0.7839170199999939,0.03999997825,0.039999997,-9.827665000000014,0.05351585987971269,0.031576050500116234,-0.000903057225001986,-0.03154660062867956,0.02309779550004524
0.765,-0.001725708150005554,-0.7847669140000008,2.884448499996635e-05,-2.353520539999992,0.005875658720016959,1.5721814500000035,0.7838948379999938,0.039999979299999995,0.0399999988,-9.827713000000013,0.054090480134050996,0.03199503920011661,-0.0009102161100019924,-0.031674257852172524,0.023260864400045385
0.7675000000000001,-0.0017459813050058385,-0.7847697470000008,2.8721627399964607e-05,-2.3534912349999915,0.0059375635750178275,1.5721944900000038,0.7838723044999936,0.0399999802,0.04,-9.827758550000011,0.05467475317435427,0.032424085250125426,-0.0009174592130020696,-0.031802631169593726,0.023425040800046464
0.77,-0.001766889220005857,-0.7847727080000008,2.8594875599964493e-05,-2.3534610399999916,0.006001406800017884,1.5722079600000038,0.7838490679999935,0.0399999808,0.04,-9.827799200000012,0.05527833178656316,0.032873246000125825,-0.0009248707520020761,-0.03193243667486958,0.02359143220004661
0.7725,-0.0017877971350058754,-0.7847756690000008,2.8468123799964382e-05,-2.3534308449999917,0.006065250025017941,1.5722214300000037,0.7838258314999935,0.0399999814,0.04,-9.82783985000001,0.05588191039877206,0.033322406750126224,-0.0009322822910020828,-0.03206224218014544,0.02375782360004676
0.775,-0.0018087050500058951,-0.7847786300000008,2.8341371999964265e-05,-2.3534006499999913,0.006129093250018001,1.5722349000000038,0.7838025949999935,0.039999982,0.04,-9.827880500000012,0.05648548901098098,0.03377156750012664,-0.0009396938300020896,-0.0321920476854213,0.023924215000046913
0.7775,-0.0018296129650059135,-0.7847815910000008,2.821462019996415e-05,-2.3533704549999914,0.0061929364750180575,1.5722483700000038,0.7837793584999935,0.0399999826,0.04,-9.827921150000012,0.057089067623189875,0.034220728250127036,-0.0009471053690020962,-0.03232185319069715,0.024090606400047062
0.78,-0.001850520880005933,-0.7847845520000009,2.8087868399964033e-05,-2.3533402599999915,0.006256779700018117,1.572261840000004,0.7837561219999934,0.0399999832,0.04,-9.827961800000011,0.0576926462353988,0.034669889000127456,-0.0009545169080021032,-0.03245165869597302,0.024256997800047215
0.7825,-0.0018714287950059515,-0.7847875130000008,2.796111659996392e-05,-2.353310064999991,0.006320622925018174,1.5722753100000038,0.7837328854999934,0.0399999838,0.04,-9.828002450000012,0.05829622484760769,0.035119049750127855,-0.0009619284470021097,-0.03258146420124887,0.024423389200047364
0.785,-0.001892983370006248,-0.7847905600000009,2.783041379996211e-05,-2.353278839999991,0.006386439100019078,1.572289190000004,0.7837089259999931,0.039999984,0.04,-9.82803920000001,0.05891673602181748,0.03557915900013297,-0.0009695319140021988,-0.032712840288915225,0.0245916087000483
0.7875,-0.0019148612750062674,-0.7847936500000009,2.769773549996199e-05,-2.353247099999991,0.006453241750019137,1.572303275000004,0.783684604999993,0.039999984,0.04,-9.82807400000001,0.059545713477016815,0.036044742500133384,-0.0009772313450022057,-0.03284500166777581,0.024760742250048453
0.79,-0.001936739180006288,-0.7847967400000009,2.7565057199961867e-05,-2.3532153599999908,0.0065200444000192,1.572317360000004,0.783660283999993,0.039999984,0.04,-9.82810880000001,0.060174690932216175,0.03651032600013381,-0.000984930776002213,-0.03297716304663641,0.02492987580004861
0.7925,-0.0019586170850063073,-0.7847998300000009,2.743237889996175e-05,-2.353183619999991,0.006586847050019259,1.572331445000004,0.783635962999993,0.039999984,0.04,-9.82814360000001,0.060803668387415515,0.03697590950013423,-0.0009926302070022198,-0.033109324425496994,0.02509900935004876
0.795,-0.0019804949900063275,-0.784802920000001,2.7299700599961625e-05,-2.3531518799999906,0.006653649700019321,1.572345530000004,0.783611641999993,0.039999984,0.04,-9.82817840000001,0.061432645842614875,0.03744149300013466,-0.001000329638002227,-0.03324148580435759,0.025268142900048918
0.7975,-0.0020023728950063473,-0.7848060100000009,2.716702229996151e-05,-2.353120139999991,0.006720452350019381,1.572359615000004,0.783587320999993,0.039999984,0.04,-9.828213200000011,0.062061623297814214,0.03790707650013508,-0.0010080290690022337,-0.033373647183218176,0.02543727645004907
0.8,-0.0020242508000066547,-0.784809100000001,2.7034343999959634e-05,-2.35308839999999,0.0067872550000203195,1.5723737000000042,0.7835629999999926,0.039999984,0.04,-9.828248000000011,0.06269060075302255,0.038372660000141515,-0.0010157285000022842,-0.033505808562079284,0.025606410000050074
0.8025,-0.002047115870006675,-0.784812430000001,2.689565354995951e-05,-2.3530551899999903,0.006857069800020382,1.5723884300000044,0.7835375839999926,0.0399999834,0.04,-9.82828490000001,0.06335043087620924,0.03885886325014195,-0.0010235766650022913,-0.03363975472752187,0.025778451000050225
0.805,-0.0020699809400066965,-0.784815760000001,2.675696309995938e-05,-2.35302197999999,0.006926884600020447,1.5724031600000044,0.7835121679999926,0.0399999828,0.04,-9.82832180000001,0.06401026099939597,0.0393450665001424,-0.0010314248300022984,-0.03377370089296446,0.025950492000050385
0.8075,-0.002092846010006717,-0.784819090000001,2.661827264995926e-05,-2.3529887699999903,0.006996699400020509,1.5724178900000043,0.7834867519999925,0.0399999822,0.04,-9.828358700000011,0.06467009112258267,0.03983126975014283,-0.0010392729950023055,-0.03390764705840704,0.02612253300005054
0.81,-0.0021157110800067384,-0.784822420000001,2.647958219995913e-05,-2.35295555999999,0.007066514200020574,1.5724326200000043,0.7834613359999926,0.0399999816,0.04,-9.828395600000011,0.06532992124576939,0.04031747300014328,-0.0010471211600023129,-0.034041593223849635,0.0262945740000507
0.8125,-0.0021385761500067584,-0.784825750000001,2.6340891749959007e-05,-2.35292234999999,0.0071363290000206366,1.5724473500000045,0.7834359199999925,0.039999981,0.04,-9.82843250000001,0.06598975136895609,0.040803676250143715,-0.0010549693250023198,-0.034175539389292214,0.02646661500005085
0.8150000000000001,-0.00216144122000678,-0.784829080000001,2.6202201299958877e-05,-2.35288913999999,0.0072061438000207015,1.5724620800000044,0.7834105039999925,0.039999980399999996,0.04,-9.82846940000001,0.06664958149214281,0.041289879500144164,-0.001062817490002327,-0.03430948555473481,0.02663865600005101
0.8175,-0.0021846409800070988,-0.7848324615000011,2.6061462649956926e-05,-2.3528554649999895,0.007276979600021674,1.5724770200000047,0.7833847149999922,0.039999979649999996,0.0399999995,-9.82850535000001,0.06731951423009892,0.041786213250153637,-0.0010707510750024103,-0.03444413337860573,0.02681172440005208
0.8200000000000001,-0.0022085101200071213,-0.7848359460000011,2.591662759995679e-05,-2.3528208599999894,0.007349857400021742,1.5724923800000046,0.7833581799999921,0.0399999786,0.039999998,-9.82853940000001,0.06800965219756688,0.04230280800015412,-0.0010788555000024178,-0.03458018451933147,0.026986847600052245
0.8225,-0.0022323792600071426,-0.784839430500001,2.577179254995666e-05,-2.3527862549999896,0.007422735200021807,1.5725077400000047,0.7833316449999921,0.039999977549999996,0.0399999965,-9.82857345000001,0.0686997901650348,0.04281940275015458,-0.001086959925002425,-0.0347162356600572,0.0271619708000524
0.8250000000000001,-0.0022562484000071647,-0.784842915000001,2.5626957499956528e-05,-2.3527516499999894,0.007495613000021875,1.5725231000000046,0.783305109999992,0.0399999765,0.039999994999999997,-9.82860750000001,0.06938992813250275,0.04333599750015506,-0.0010950643500024326,-0.034852286800782936,0.027337094000052565
0.8275,-0.002280117540007186,-0.7848463995000011,2.54821224499564e-05,-2.3527170449999892,0.00756849080002194,1.5725384600000047,0.783278574999992,0.03999997545,0.0399999935,-9.82864155000001,0.07008006609997068,0.04385259225015552,-0.00110316877500244,-0.03498833794150867,0.02751221720005272
0.8300000000000001,-0.002303986680007208,-0.7848498840000011,2.5337287399956262e-05,-2.3526824399999895,0.007641368600022008,1.5725538200000047,0.783252039999992,0.0399999744,0.039999992,-9.82867560000001,0.07077020406743863,0.044369187000156,-0.0011112732000024474,-0.035124389082234406,0.027687340400052884
0.8325,-0.0023278558200072294,-0.7848533685000011,2.5192452349956136e-05,-2.3526478349999893,0.007714246400022072,1.5725691800000048,0.783225504999992,0.03999997335,0.0399999905,-9.82870965000001,0.07146034203490656,0.04488578175015646,-0.0011193776250024547,-0.03526044022296014,0.02786246360005304
0.835,-0.0023524053600075603,-0.7848569670000012,2.5043462199954112e-05,-2.3526121299999887,0.007789200800023083,1.5725849500000049,0.7831982039999916,0.0399999723,0.0399999894,-9.828755300000015,0.07216981574914842,0.045413260000161874,-0.0011276372000025325,-0.03539829328660406,0.028039321100053985
0.8375,-0.0023772951000075836,-0.7848606225000012,2.4892394499953973e-05,-2.3525758749999888,0.007865193500023154,1.572600925000005,0.7831705199999915,0.03999997125,0.0399999885,-9.828806750000016,0.07288895733676409,0.04594618000016237,-0.0011359743500025403,-0.03553704731170585,0.02821704575005415
