rsonawane2002/My_IMU/logs_2/traj_338/imu_400hz_338.csv
time,j1,j2,j3,j4,j5,j6,j7,gripper1,gripper2,imu_ax,imu_ay,imu_az,imu_gx,imu_gy,imu_gz
0.0,0.00016700293,-0.785875,4.0107683e-05,-2.3551247,9.29385e-05,1.570997,0.786,0.04,0.04,-9.5123005,-0.0211409498006105,0.09957238,4.679833e-07,-0.0011641270248219,1.0558174e-06
0.0025,0.0001670027125,-0.7858577739999999,4.010715095e-05,-2.3551391900000005,9.294330450000004e-05,1.570996565,0.786,0.04,0.04,-9.560617375000374,-0.017875114525643044,0.08599790094989507,4.944075550002043e-07,-0.0013252832402952908,1.0799506000001865e-06
0.005,0.000167002495,-0.7858405479999997,4.0106618899999993e-05,-2.3551536800000004,9.294810900000007e-05,1.57099613,0.786,0.04,0.04,-9.608934250000747,-0.014609279250675587,0.07242342189979012,5.208318100004085e-07,-0.0014864394557686817,1.1040838000003732e-06
0.0075,0.0001670022775,-0.7858233219999996,4.010608684999999e-05,-2.3551681700000007,9.295291350000012e-05,1.570995695,0.786,0.04,0.04,-9.657251125001121,-0.01134344397570813,0.05884894284968518,5.472560650006128e-07,-0.0016475956712420727,1.1282170000005598e-06
0.01,0.00016700205999999997,-0.7858060959999995,4.0105554799999984e-05,-2.3551826600000005,9.295771800000015e-05,1.5709952600000001,0.786,0.04,0.04,-9.705568000001493,-0.008077608700740674,0.045274463799580236,5.73680320000817e-07,-0.0018087518867154636,1.1523502000007462e-06
0.0125,0.00016700184249999998,-0.7857888699999994,4.010502274999998e-05,-2.355197150000001,9.296252250000018e-05,1.570994825,0.786,0.04,0.04,-9.753884875001868,-0.004811773425773217,0.03169998474947529,6.001045750010214e-07,-0.0019699081021888544,1.1764834000009328e-06
0.015,0.00016700162499999998,-0.7857716439999992,4.0104490699999975e-05,-2.3552116400000007,9.296732700000022e-05,1.57099439,0.786,0.04,0.04,-9.80220175000224,-0.0015459381508057604,0.018125505699370353,6.265288300012257e-07,-0.0021310643176622453,1.2006166000011194e-06
0.0175,0.00016699988599999974,-0.7857548669999992,4.010031559999941e-05,-2.3552257350000008,9.297078350000004e-05,1.57099396,0.786,0.04,0.04,-9.834314199999984,0.000624006814904288,0.00899978349998817,9.362916500454363e-07,-0.0022881306125859136,1.3160230200154465e-06
0.02,0.00016699510399999974,-0.7857389879999992,4.008885439999939e-05,-2.3552390400000007,9.297154400000004e-05,1.5709935400000001,0.786,0.04,0.04,-9.834017799999984,0.0006021711626078281,0.008771574999987961,1.812731600046233e-06,-0.002437017066412034,1.6139758800157174e-06
0.0225,0.00016699032199999974,-0.7857231089999992,4.0077393199999384e-05,-2.3552523450000007,9.297230450000003e-05,1.57099312,0.786,0.04,0.04,-9.833721399999984,0.0005803355103113683,0.008543366499987754,2.6891715500470298e-06,-0.0025859035202381543,1.911928740015988e-06
0.025,0.00016698553999999974,-0.7857072299999992,4.0065931999999376e-05,-2.3552656500000007,9.297306500000004e-05,1.5709927,0.786,0.04,0.04,-9.833424999999984,0.0005584998580149084,0.008315157999987546,3.5656115000478277e-06,-0.002734789974064275,2.2098816000162596e-06
0.0275,0.00016698075799999974,-0.7856913509999992,4.005447079999936e-05,-2.3552789550000006,9.297382550000004e-05,1.57099228,0.786,0.04,0.04,-9.833128599999984,0.0005366642057184486,0.00808694949998734,4.442051450048624e-06,-0.002883676427890395,2.5078344600165307e-06
0.03,0.00016697597599999974,-0.7856754719999991,4.004300959999935e-05,-2.3552922600000006,9.297458600000004e-05,1.57099186,0.786,0.04,0.04,-9.832832199999984,0.0005148285534219887,0.00785874099998713,5.318491400049421e-06,-0.0030325628817165153,2.8057873200168014e-06
0.0325,0.00016697119399999974,-0.7856595929999991,4.0031548399999345e-05,-2.3553055650000005,9.297534650000004e-05,1.57099144,0.786,0.04,0.04,-9.832535799999983,0.0004929929011255288,0.007630532499986924,6.194931350050219e-06,-0.003181449335542636,3.1037401800170725e-06
0.035,0.00016695805099999907,-0.7856445729999992,4.000085969999784e-05,-2.3553181000000003,9.296928899999949e-05,1.57099101,0.786,0.04,0.04,-9.832269299999988,0.00046142558858061497,0.007407587529988178,8.010672500122638e-06,-0.0033228236017822346,3.652690720036192e-06
0.0375,0.00016694072749999918,-0.7856299824999993,3.9960557249998075e-05,-2.3553302500000006,9.295982249999955e-05,1.570990575,0.786,0.04,0.04,-9.832017749999988,0.0004249924459127354,0.00718727432498948,1.0296064250109123e-05,-0.003460441774229546,4.327140100032204e-06
0.04,0.00016692340399999928,-0.7856153919999994,3.992025479999831e-05,-2.3553424000000005,9.29503559999996e-05,1.57099014,0.786,0.04,0.04,-9.83176619999999,0.0003885593032448558,0.006966961119990783,1.2581456000095614e-05,-0.0035980599466768574,5.001589480028218e-06
0.0425,0.00016690608049999938,-0.7856008014999994,3.9879952349998554e-05,-2.3553545500000004,9.294088949999966e-05,1.570989705,0.786,0.04,0.04,-9.831514649999992,0.0003521261605769761,0.006746647914992085,1.4866847750082105e-05,-0.003735678119124169,5.6760388600242305e-06
0.045,0.0001668887569999995,-0.7855862109999996,3.983964989999879e-05,-2.3553667000000003,9.293142299999971e-05,1.57098927,0.786,0.04,0.04,-9.831263099999992,0.00031569301790909654,0.006526334709993388,1.7152239500068592e-05,-0.00387329629157148,6.3504882400202425e-06
0.0475,0.00016687143349999956,-0.7855716204999996,3.9799347449999025e-05,-2.35537885,9.292195649999977e-05,1.570988835,0.786,0.04,0.04,-9.831011549999994,0.00027925987524121687,0.00630602150499469,1.9437631250055083e-05,-0.004010914464018791,7.024937620016256e-06
0.05,0.00016685410999999923,-0.7855570299999998,3.975904499999827e-05,-2.355391,9.291248999999947e-05,1.5709884,0.786,0.04,0.04,-9.830759999999996,0.00024282673257303627,0.0060857082999963286,2.172302300007996e-05,-0.0041485326364659155,7.699387000020492e-06
0.0525,0.00016681244899999863,-0.7855436454999996,3.966422774999689e-05,-2.3554021300000003,9.288365399999905e-05,1.57098798,0.786,0.04,0.04,-9.830517749999991,0.00018984882189949546,0.005883869004993392,2.6118590600143918e-05,-0.004275855631571663,8.825875900036882e-06
0.055,0.00016677078799999802,-0.7855302609999993,3.9569410499995514e-05,-2.3554132600000006,9.285481799999863e-05,1.57098756,0.786,0.04,0.04,-9.830275499999988,0.00013687091122595448,0.005682029709990454,3.0514158200207884e-05,-0.004403178626677411,9.952364800053276e-06
0.0575,0.00016672912699999741,-0.7855168764999992,3.9474593249994135e-05,-2.3554243900000005,9.282598199999821e-05,1.57098714,0.786,0.04,0.04,-9.830033249999985,8.389300055241351e-05,0.005480190414987517,3.4909725800271854e-05,-0.004530501621783159,1.107885370006967e-05
0.06,0.0001666874659999968,-0.785503491999999,3.9379775999992756e-05,-2.355435520000001,9.279714599999779e-05,1.57098672,0.786,0.04,0.04,-9.829790999999982,3.0915089878872694e-05,0.00527835111998458,3.930529340033581e-05,-0.004657824616888907,1.2205342600086061e-05
0.0625,0.0001666458049999962,-0.7854901074999988,3.928495874999138e-05,-2.355446650000001,9.276830999999737e-05,1.5709863,0.786,0.04,0.04,-9.829548749999978,-2.206282079466831e-05,0.005076511824981643,4.370086100039978e-05,-0.004785147611994655,1.3331831500102455e-05
0.065,0.0001666041439999956,-0.7854767229999986,3.919014149999e-05,-2.355457780000001,9.273947399999696e-05,1.57098588,0.786,0.04,0.04,-9.829306499999975,-7.504073146820929e-05,0.004874672529978705,4.809642860046375e-05,-0.0049124706071004024,1.4458320400118848e-05
0.0675,0.0001665492974999908,-0.7854637174999987,3.906622849997938e-05,-2.3554685500000008,9.270084699999341e-05,1.570985455,0.786,0.04,0.04,-9.829072249999976,-0.0001320748357175668,0.004676229574978298,5.335601615079124e-05,-0.005036724754622495,1.587536650022626e-05
0.07,0.00016646807999999127,-0.7854514699999987,3.888412399998046e-05,-2.355478600000001,9.264263799999375e-05,1.57098502,0.786,0.04,0.04,-9.828853999999977,-0.00019722132711435172,0.004484579299979432,6.034364360074994e-05,-0.0051548412069804565,1.787352700021445e-05
0.0725,0.00016638686249999176,-0.7854392224999988,3.8702019499981534e-05,-2.3554886500000007,9.258442899999409e-05,1.570984585,0.786,0.04,0.04,-9.828635749999979,-0.00026236781851113626,0.004292929024980565,6.73312710507086e-05,-0.005272957659338418,1.9871687500202628e-05
0.075,0.00016630564499999225,-0.7854269749999988,3.851991499998261e-05,-2.355498700000001,9.252621999999443e-05,1.57098415,0.786,0.04,0.04,-9.82841749999998,-0.00032751430990792126,0.004101278749981698,7.431889850066729e-05,-0.00539107411169638,2.1869848000190816e-05
0.0775,0.00016622442749999273,-0.785414727499999,3.8337810499983686e-05,-2.3555087500000007,9.246801099999478e-05,1.570983715,0.786,0.04,0.04,-9.828199249999981,-0.00039266080130470615,0.003909628474982831,8.130652595062598e-05,-0.005509190564054342,2.3868008500179004e-05
0.08,0.0001661432099999932,-0.785402479999999,3.815570599998476e-05,-2.3555188000000005,9.240980199999513e-05,1.57098328,0.786,0.04,0.04,-9.827980999999982,-0.0004578072927014911,0.0037179781999839637,8.829415340058468e-05,-0.005627307016412304,2.5866169000167192e-05
0.0825,0.00016606199249999368,-0.7853902324999991,3.797360149998584e-05,-2.3555288500000007,9.235159299999547e-05,1.570982845,0.786,0.04,0.04,-9.827762749999984,-0.000522953784098276,0.0035263279249850964,9.528178085054339e-05,-0.005745423468770265,2.7864329500155384e-05
0.085,0.00016594221799998938,-0.7853787109999991,3.770728739997644e-05,-2.3555386800000004,9.226473299999227e-05,1.57098241,0.786,0.04,0.04,-9.827550199999985,-0.000597427290637456,0.0033414956499861394,0.00010439568800077753,-0.005857788259171795,3.0350116400208542e-05
0.08750000000000001,0.00016580316499998924,-0.7853675524999991,3.739886849997616e-05,-2.3555484000000004,9.216354749999218e-05,1.570981975,0.786,0.04,0.04,-9.827340499999984,-0.0006765643047462432,0.003160072374985974,0.0001145727350007868,-0.00596727721859609,3.307971650021103e-05
0.09,0.00016566411199998914,-0.7853563939999991,3.709044959997588e-05,-2.355558120000001,9.206236199999208e-05,1.57098154,0.786,0.04,0.04,-9.827130799999985,-0.0007557013188550297,0.00297864909998581,0.000124749782000796,-0.006076766178020384,3.5809316600213496e-05
0.0925,0.000165525058999989,-0.7853452354999991,3.6782030699975596e-05,-2.355567840000001,9.196117649999199e-05,1.570981105,0.786,0.04,0.04,-9.826921099999984,-0.0008348383329638167,0.002797225824985645,0.0001349268290008053,-0.006186255137444679,3.853891670021598e-05
0.095,0.00016538600599998887,-0.7853340769999991,3.647361179997531e-05,-2.355577560000001,9.18599909999919e-05,1.57098067,0.786,0.04,0.04,-9.826711399999983,-0.0009139753470726038,0.0026158025499854794,0.00014510387600081453,-0.006295744096868973,4.126851680021847e-05
0.0975,0.00016524695299998876,-0.7853229184999991,3.6165192899975036e-05,-2.355587280000001,9.17588054999918e-05,1.570980235,0.786,0.04,0.04,-9.826501699999984,-0.0009931123611813908,0.0024343792749853144,0.00015528092300082382,-0.0064052330562932676,4.399811690022096e-05
0.1,0.00016510789999998218,-0.7853117599999992,3.585677399996075e-05,-2.355597000000001,9.165761999998696e-05,1.5709798,0.786,0.04,0.04,-9.826291999999992,-0.0010722493752910402,0.0022529559999858923,0.00016545797000112915,-0.006514722015717175,4.6727717000300835e-05
0.10250000000000001,0.00016488997549998048,-0.7853016559999991,3.537732644995705e-05,-2.3556057300000006,9.149833649998572e-05,1.5709793799999998,0.786,0.04,0.04,-9.82618744999999,-0.0011619205121031085,0.00208061183498456,0.0001792519445012358,-0.006619470310406754,5.040281945032925e-05
0.105,0.0001646720509999788,-0.785291551999999,3.4897878899953346e-05,-2.355614460000001,9.13390529999845e-05,1.57097896,0.786,0.04,0.04,-9.82608289999999,-0.0012515916489151762,0.0019082676699832284,0.00019304591900134237,-0.006724218605096333,5.4077921900357646e-05
0.1075,0.00016445412649997713,-0.7852814479999989,3.4418431349949637e-05,-2.355623190000001,9.117976949998327e-05,1.57097854,0.786,0.04,0.04,-9.825978349999989,-0.0013412627857272445,0.0017359235049818958,0.00020683989350144902,-0.006828966899785913,5.775302435038606e-05
0.11,0.00016423620199997543,-0.7852713439999989,3.3938983799945927e-05,-2.355631920000001,9.102048599998205e-05,1.57097812,0.786,0.04,0.04,-9.825873799999988,-0.0014309339225393129,0.0015635793399805635,0.00022063386800155567,-0.006933715194475493,6.142812680041447e-05
0.1125,0.00016401827749997375,-0.7852612399999988,3.3459536249942223e-05,-2.355640650000001,9.086120249998081e-05,1.5709777,0.786,0.04,0.04,-9.825769249999988,-0.001520605059351381,0.001391235174979231,0.00023442784250166232,-0.007038463489165073,6.510322925044289e-05
0.115,0.00016380035299997205,-0.7852511359999986,3.2980088699938514e-05,-2.3556493800000013,9.070191899997957e-05,1.57097728,0.786,0.04,0.04,-9.825664699999987,-0.0016102761961634495,0.0012188910099778982,0.00024822181700176894,-0.007143211783854653,6.87783317004713e-05
0.11750000000000001,0.00016354831449995864,-0.7852413634999987,3.242706374990957e-05,-2.3556578600000013,9.051711899996955e-05,1.570976855,0.7860000100000001,0.03999999975,0.04,-9.825532849999975,-0.0017034853110219168,0.0010494152062788529,0.000263364215002304,-0.007245475845423955,7.276307350059462e-05
0.12,0.00016322804799996272,-0.7852322539999989,3.172688399991849e-05,-2.3556658400000012,9.028128599997255e-05,1.57097642,0.78600004,0.039999999,0.04,-9.825346399999978,-0.0018037703819689345,0.0008856761251809385,0.00028120346000207674,-0.007342771440755686,7.736709400053597e-05
0.1225,0.0001629077814999668,-0.785223144499999,3.10267042499274e-05,-2.355673820000001,9.004545299997555e-05,1.570975985,0.78600007,0.03999999825,0.04,-9.82515994999998,-0.0019040554529159528,0.0007219370440830233,0.0002990427050018496,-0.007440067036087418,8.197111450047736e-05
0.125,0.00016258751499997087,-0.7852140349999992,3.032652449993632e-05,-2.355681800000001,8.980961999997856e-05,1.57097555,0.7860001000000001,0.0399999975,0.04,-9.824973499999983,-0.0020043405238629707,0.0005581979629851081,0.0003168819500016225,-0.007537362631419149,8.657513500041873e-05
0.1275,0.00016226724849997495,-0.7852049254999993,2.9626344749945233e-05,-2.355689780000001,8.957378699998156e-05,1.570975115,0.78600013,0.03999999675,0.04,-9.824787049999985,-0.002104625594809989,0.0003944588818871928,0.00033472119500139536,-0.00763465822675088,9.117915550036011e-05
0.13,0.00016194698199997902,-0.7851958159999994,2.8926164999954147e-05,-2.355697760000001,8.933795399998456e-05,1.57097468,0.7860001600000001,0.039999996,0.04,-9.824600599999988,-0.0022049106657570073,0.00023071980078927766,0.00035256044000116823,-0.007731953822082612,9.578317600030149e-05
0.1325,0.0001616267154999831,-0.7851867064999996,2.822598524996306e-05,-2.3557057400000008,8.910212099998756e-05,1.570974245,0.78600019,0.03999999525,0.04,-9.82441414999999,-0.0023051957367040254,6.69807196913624e-05,0.00037039968500094105,-0.007829249417414343,0.00010038719650024288
0.135,0.00016122109499997595,-0.7851782579999995,2.7342481299947668e-05,-2.3557134300000007,8.88036093999823e-05,1.5709739699999998,0.7860003900000001,0.0399999943,0.0399999988,-9.824259299999992,-0.002408771263441057,-9.189350660839527e-05,0.000391166825001193,-0.007922828197484083,0.00010593124500032274
0.1375,0.0001607727974999725,-0.7851701399999995,2.636731524994013e-05,-2.3557209750000005,8.847375849997975e-05,1.570973775,0.786000675,0.039999993250000004,0.039999997,-9.824120249999991,-0.002513992018072735,-0.00024833530550960484,0.00041339791250136486,-0.008014548569923232,0.00011194530750036923
0.14,0.00016032449999996902,-0.7851620219999994,2.539214919993259e-05,-2.3557285200000004,8.81439075999772e-05,1.57097358,0.7860009600000001,0.0399999922,0.0399999952,-9.82398119999999,-0.0026192127727044136,-0.0004047771044108144,0.00043562900000153673,-0.00810626894236238,0.00011795937000041572
0.14250000000000002,0.00015987620249996557,-0.7851539039999994,2.441698314992505e-05,-2.3557360650000008,8.781405669997465e-05,1.570973385,0.786001245,0.039999991150000004,0.0399999934,-9.823842149999988,-0.002724433527336092,-0.000561218903312024,0.0004578600875017086,-0.00819798931480153,0.00012397343250046222
0.145,0.00015942790499996209,-0.7851457859999993,2.344181709991752e-05,-2.3557436100000007,8.748420579997211e-05,1.57097319,0.7860015300000001,0.0399999901,0.0399999916,-9.823703099999989,-0.0028296542819677695,-0.0007176607022132319,0.00048009117500188026,-0.008289709687240677,0.00012998749500050865
0.1475,0.00015897960749995863,-0.7851376679999992,2.2466651049909982e-05,-2.3557511550000005,8.715435489996955e-05,1.570972995,0.7860018150000001,0.039999989050000004,0.0399999898,-9.823564049999987,-0.002934875036599448,-0.0008741025011144414,0.0005023222625020521,-0.008381430059679826,0.00013600155750055515
0.15,0.0001585313099999396,-0.7851295499999993,2.149148499986911e-05,-2.355758700000001,8.682450399995567e-05,1.5709728,0.7860021,0.039999988,0.039999988,-9.82342499999999,-0.0030400957912320842,-0.0010305443000151486,0.0005245533500025836,-0.008473150432118444,0.0001420156200007251
0.1525,0.00015792738749993905,-0.7851223874999993,2.018313219986792e-05,-2.3557655250000007,8.638140189995526e-05,1.570972365,0.7860023850000001,0.0399999874,0.0399999868,-9.823317449999989,-0.0031548887840587435,-0.0011819656550152865,0.0005503790075026072,-0.008559548016646247,0.0001492636320007317
0.155,0.0001573234649999385,-0.7851152249999993,1.8874779399866728e-05,-2.3557723500000005,8.593829979995487e-05,1.57097193,0.78600267,0.0399999868,0.039999985599999996,-9.82320989999999,-0.003269681776885403,-0.0013333870100154244,0.0005762046650026307,-0.00864594560117405,0.00015651164400073828
0.1575,0.00015671954249993795,-0.7851080624999993,1.7566426599865538e-05,-2.355779175000001,8.549519769995446e-05,1.570971495,0.7860029550000001,0.039999986200000004,0.0399999844,-9.823102349999989,-0.0033844747697120625,-0.0014848083650155623,0.0006020303225026542,-0.008732343185701853,0.00016375965600074488
0.16,0.0001561156199999374,-0.7851008999999993,1.6258073799864344e-05,-2.3557860000000006,8.505209559995406e-05,1.57097106,0.7860032400000001,0.0399999856,0.0399999832,-9.82299479999999,-0.003499267762538722,-0.0016362297200157,0.0006278559800026777,-0.008818740770229658,0.00017100766800075149
0.1625,0.00015551169749993685,-0.7850937374999993,1.4949720999863154e-05,-2.355792825000001,8.460899349995365e-05,1.570970625,0.786003525,0.039999985,0.039999981999999996,-9.822887249999988,-0.003614060755365382,-0.0017876510750158379,0.0006536816375027013,-0.008905138354757461,0.0001782556800007581
0.165,0.00015490777499993627,-0.7850865749999992,1.3641368199861963e-05,-2.3557996500000007,8.416589139995326e-05,1.57097019,0.7860038100000001,0.0399999844,0.039999980799999994,-9.82277969999999,-0.003728853748192041,-0.0019390724300159755,0.0006795072950027248,-0.008991535939285264,0.0001855036920007647
0.1675,0.00015424221049991784,-0.7850797229999994,1.2201388679822623e-05,-2.355806345000001,8.367800149993987e-05,1.5709698699999999,0.786004095,0.03999998365,0.039999979649999996,-9.822668599999988,-0.0038457779097496605,-0.002084015175013745,0.0007070358025032216,-0.009076720057063902,0.0001931450650008777
0.17,0.0001534533619999225,-0.7850734919999994,1.049815571983269e-05,-2.355812780000001,8.310053599994328e-05,1.57096978,0.7860043800000001,0.039999982600000004,0.0399999786,-9.822550399999988,-0.003966964408767164,-0.0022160007000129648,0.0007379700100030387,-0.009159477241345368,0.00020157316000082788
0.17250000000000001,0.00015266451349992718,-0.7850672609999995,8.794922759842758e-06,-2.355819215000001,8.25230704999467e-05,1.5709696899999999,0.7860046650000001,0.03999998155,0.039999977549999996,-9.822432199999989,-0.004088150907784668,-0.002347986225012185,0.0007689042175028558,-0.009242234425626834,0.00021000125500077809
0.17500000000000002,0.00015187566499993185,-0.7850610299999995,7.091689799852826e-06,-2.3558256500000008,8.194560499995011e-05,1.5709696,0.78600495,0.0399999805,0.0399999765,-9.82231399999999,-0.0042093374068021714,-0.0024799717500114046,0.000799838425002673,-0.0093249916099083,0.00021842935000072826
0.1775,0.00015108681649993652,-0.7850547989999995,5.388456839862912e-06,-2.3558320850000007,8.136813949995352e-05,1.57096951,0.7860052350000001,0.03999997945,0.03999997545,-9.82219579999999,-0.004330523905819674,-0.002611957275010623,0.0008307726325024899,-0.009407748794189767,0.00022685744500067836
0.18,0.0001502979679999412,-0.7850485679999996,3.68522387987298e-06,-2.3558385200000007,8.079067399995694e-05,1.57096942,0.78600552,0.0399999784,0.0399999744,-9.822077599999991,-0.004451710404837177,-0.0027439428000098427,0.0008617068400023069,-0.009490505978471233,0.00023528554000062853
0.1825,0.00014950911949994584,-0.7850423369999996,1.9819909198830475e-06,-2.3558449550000007,8.021320849996035e-05,1.57096933,0.7860058050000001,0.03999997735,0.03999997335,-9.821959399999992,-0.004572896903854681,-0.002875928325009063,0.0008926410475021241,-0.009573263162752697,0.00024371363500057873
0.185,0.00014857645099992326,-0.7850367439999997,-2.7710060165240915e-08,-2.3558512900000004,7.953163449994395e-05,1.57096902,0.7860060900000001,0.0399999763,0.0399999717,-9.821862149999994,-0.004695809632549156,-0.0030129229500106573,0.000927229365002782,-0.009652934223419429,0.0002531431880007587
0.1875,0.00014757187249990865,-0.7850314699999995,-2.1906450501967175e-06,-2.355857575000001,7.879800624993328e-05,1.5709686,0.786006375,0.03999997525,0.03999996975,-9.821775374999993,-0.0048195854760818575,-0.003152422125012687,0.0009636447375033119,-0.009731062222279256,0.00026307347000090317
0.19,0.00014656729399989402,-0.7850261959999995,-4.353580040228194e-06,-2.355863860000001,7.806437799992261e-05,1.57096818,0.7860066600000001,0.0399999742,0.0399999678,-9.821688599999991,-0.004943361319614559,-0.0032919213000147172,0.0010000601100038419,-0.009809190221139083,0.00027300375200104766
0.1925,0.0001455627154998794,-0.7850209219999994,-6.516515030259671e-06,-2.355870145000001,7.733074974991193e-05,1.5709677599999998,0.7860069450000001,0.03999997315,0.03999996585,-9.82160182499999,-0.00506713716314726,-0.0034314204750167474,0.0010364754825043718,-0.00988731821999891,0.0002829340340011922
0.195,0.00014455813699986478,-0.7850156479999993,-8.679450020291147e-06,-2.355876430000001,7.659712149990126e-05,1.57096734,0.7860072300000001,0.0399999721,0.0399999639,-9.82151504999999,-0.005190913006679961,-0.0035709196500187776,0.0010728908550049017,-0.009965446218858738,0.0002928643160013367
0.1975,0.00014355355849985017,-0.7850103739999992,-1.0842385010322625e-05,-2.355882715000001,7.586349324989057e-05,1.5709669199999998,0.7860075150000001,0.03999997105,0.03999996195,-9.821428274999988,-0.005314688850212663,-0.003710418825020808,0.0011093062275054316,-0.010043574217718563,0.00030279459800148123
0.2,0.00014254897999979498,-0.7850050999999993,-1.30053200004404e-05,-2.355889000000001,7.512986499985056e-05,1.5709665,0.7860078000000001,0.03999997,0.03999996,-9.821341499999994,-0.005438464693746368,-0.003849918000018624,0.001145721600006882,-0.010121702216578338,0.00031272488000183937
0.2025,0.00014129660299980236,-0.7850007709999993,-1.5695382050424498e-05,-2.3558944450000006,7.421706264985596e-05,1.570966065,0.7860083760000002,0.03999997,0.03999996,-9.821303474999995,-0.005568373575827105,-0.003963678525017952,0.0011877595950066336,-0.01019951282070313,0.00032395991750177293
0.20500000000000002,0.00014004422599980977,-0.7849964419999993,-1.83854441004086e-05,-2.3558998900000008,7.330426029986135e-05,1.57096563,0.7860089520000001,0.03999997,0.03999996,-9.821265449999995,-0.0056982824579078425,-0.004077439050017279,0.0012297975900063852,-0.010277323424827919,0.00033519495500170654
0.20750000000000002,0.00013879184899981718,-0.7849921129999994,-2.10755061503927e-05,-2.3559053350000005,7.239145794986675e-05,1.5709651949999999,0.7860095280000001,0.03999997,0.03999996,-9.821227424999995,-0.00582819133998858,-0.004191199575016607,0.0012718355850061367,-0.010355134028952708,0.0003464299925016401
0.21,0.00013753947199982459,-0.7849877839999994,-2.3765568200376768e-05,-2.3559107800000008,7.147865559987216e-05,1.5709647599999998,0.7860101040000002,0.03999997,0.03999996,-9.821189399999994,-0.005958100222069315,-0.004304960100015933,0.0013138735800058878,-0.010432944633077498,0.0003576650300015736
0.2125,0.000136287094999832,-0.7849834549999994,-2.645563025036087e-05,-2.3559162250000005,7.056585324987754e-05,1.5709643249999998,0.7860106800000001,0.03999997,0.03999996,-9.821151374999994,-0.006088009104150052,-0.004418720625015261,0.0013559115750056395,-0.010510755237202287,0.0003689000675015072
0.215,0.0001350347179998394,-0.7849791259999994,-2.9145692300344967e-05,-2.3559216700000007,6.965305089988295e-05,1.57096389,0.7860112560000001,0.03999997,0.03999996,-9.821113349999996,-0.00621791798623079,-0.004532481150014588,0.0013979495700053909,-0.010588565841327077,0.0003801351050014408
0.2175,0.00013368866699980893,-0.7849751179999995,-3.203473165040956e-05,-2.355927065000001,6.867265889986099e-05,1.57096346,0.7860118305000001,0.03999997,0.03999996,-9.821045399999983,-0.006348301307314575,-0.004647027635014469,0.0014415437850058197,-0.010664864443251595,0.0003918645060015847
0.22,0.00013215526799980755,-0.7849717519999996,-3.5321725600412555e-05,-2.3559323600000006,6.755708759985999e-05,1.5709630399999999,0.7860124020000001,0.03999997,0.03999996,-9.820917599999984,-0.006479633506403924,-0.004763146040014574,0.0014882504400058622,-0.010738139040777256,0.0004045826340015963
0.2225,0.00013062186899980615,-0.7849683859999996,-3.860871955041554e-05,-2.355937655000001,6.644151629985897e-05,1.57096262,0.7860129735000001,0.03999997,0.03999996,-9.820789799999984,-0.006610965705493273,-0.00487926444501468,0.0015349570950059048,-0.010811413638302918,0.00041730076200160787
0.225,0.00012908846999980475,-0.7849650199999996,-4.1895713500418536e-05,-2.3559429500000006,6.532594499985795e-05,1.5709621999999999,0.7860135450000001,0.03999997,0.03999996,-9.820661999999983,-0.006742297904582623,-0.004995382850014786,0.0015816637500059472,-0.010884688235828579,0.00043001889000161944
0.2275,0.00012755507099980335,-0.7849616539999996,-4.518270745042153e-05,-2.3559482450000004,6.421037369985694e-05,1.57096178,0.7860141165000001,0.03999997,0.03999996,-9.820534199999983,-0.006873630103671972,-0.005111501255014891,0.0016283704050059898,-0.010957962833354241,0.000442737018001631
0.23,0.00012602167199980197,-0.7849582879999996,-4.846970140042452e-05,-2.3559535400000007,6.309480239985593e-05,1.5709613599999999,0.7860146880000001,0.03999997,0.03999996,-9.820406399999984,-0.007004962302761321,-0.005227619660014997,0.0016750770600060323,-0.011031237430879904,0.0004554551460016426
0.2325,0.00012448827299980057,-0.7849549219999996,-5.175669535042752e-05,-2.3559588350000005,6.197923109985491e-05,1.57096094,0.7860152595000001,0.03999997,0.03999996,-9.820278599999982,-0.007136294501850671,-0.0053437380650151025,0.0017217837150060747,-0.011104512028405565,0.00046817327400165416
0.23500000000000001,0.00012274473949974948,-0.7849521999999997,-5.548949500053608e-05,-2.355964040000001,6.071234859981806e-05,1.57096051,0.786015891,0.03999997,0.0399999598,-9.820215599999996,-0.007268151408079264,-0.005453064780014356,0.0017725413400071532,-0.011177017912278323,0.0004819944020019478
0.23750000000000002,0.00012089613874973519,-0.7849497999999997,-5.9445197500566666e-05,-2.3559692000000005,5.9369810499807684e-05,1.570960075,0.7860165525,0.03999997,0.0399999595,-9.820184999999995,-0.007400270667877326,-0.005558995650015175,0.0018253244500075613,-0.011249139439324856,0.0004963670300020589
0.24,0.00011904753799972092,-0.7849473999999996,-6.340090000059721e-05,-2.3559743600000007,5.802727239979732e-05,1.5709596399999999,0.786017214,0.03999997,0.039999959200000004,-9.820154399999995,-0.007532389927675386,-0.005664926520015993,0.0018781075600079688,-0.011321260966371389,0.0005107396580021699
0.2425,0.00011719893724970662,-0.7849449999999997,-6.735660250062778e-05,-2.355979520000001,5.668473429978694e-05,1.5709592049999999,0.7860178755000001,0.03999997,0.0399999589,-9.820123799999994,-0.007664509187473447,-0.005770857390016812,0.001930890670008377,-0.011393382493417922,0.000525112286002281
0.245,0.00011535033649969233,-0.7849425999999996,-7.131230500065838e-05,-2.355984680000001,5.534219619977656e-05,1.5709587699999998,0.7860185370000001,0.03999997,0.0399999586,-9.820093199999995,-0.007796628447271509,-0.005876788260017631,0.001983673780008785,-0.011465504020464454,0.0005394849140023921
0.2475,0.00011350173574967803,-0.7849401999999996,-7.526800750068895e-05,-2.355989840000001,5.399965809976618e-05,1.570958335,0.7860191985000001,0.03999997,0.0399999583,-9.820062599999995,-0.007928747707069571,-0.00598271913001845,0.002036456890009193,-0.011537625547510987,0.0005538575420025033
0.25,0.00011165313499960005,-0.7849377999999998,-7.922371000085453e-05,-2.355995000000001,5.265711999970996e-05,1.5709579,0.7860198600000001,0.03999997,0.039999958,-9.820031999999992,-0.008060866966868209,-0.006088650000017943,0.0020892400000106824,-0.011609747074557286,0.0005682301700028748
0.2525,0.00010945436314961304,-0.7849363749999998,-8.392154050082677e-05,-2.355999800000001,5.106257259971938e-05,1.570957465,0.7860207210000002,0.039999970450000005,0.0399999583,-9.819993299999993,-0.008196150464960894,-0.00618729270001736,0.0021479669500103354,-0.01168058156037084,0.0005840345540027815
0.255,0.00010725559129962603,-0.7849349499999998,-8.8619371000799e-05,-2.356004600000001,4.946802519972881e-05,1.57095703,0.7860215820000002,0.0399999709,0.0399999586,-9.819954599999994,-0.008331433963053579,-0.006285935400016777,0.002206693900009988,-0.011751416046184397,0.000599838938002688
0.2575,0.00010505681944963904,-0.7849335249999998,-9.331720150077123e-05,-2.356009400000001,4.787347779973823e-05,1.570956595,0.7860224430000001,0.03999997135,0.0399999589,-9.819915899999994,-0.008466717461146264,-0.006384578100016193,0.002265420850009641,-0.011822250531997954,0.0006156433220025945
0.26,0.00010285804759965203,-0.7849320999999998,-9.801503200074346e-05,-2.356014200000001,4.6278930399747656e-05,1.57095616,0.7860233040000001,0.0399999718,0.039999959200000004,-9.819877199999993,-0.008602000959238949,-0.006483220800015611,0.002324147800009294,-0.01189308501781151,0.0006314477060025012
0.2625,0.00010065927574966503,-0.7849306749999998,-0.0001027128625007157,-2.3560190000000008,4.468438299975708e-05,1.570955725,0.7860241650000002,0.03999997225,0.0399999595,-9.819838499999994,-0.008737284457331634,-0.006581863500015028,0.002382874750008947,-0.011963919503625067,0.0006472520900024077
0.265,9.846050389967802e-05,-0.7849292499999998,-0.00010741069300068793,-2.356023800000001,4.3089835599766504e-05,1.5709552900000001,0.7860250260000001,0.039999972700000004,0.0399999598,-9.819799799999995,-0.00887256795542432,-0.006680506200014444,0.0024416017000085995,-0.012034753989438624,0.0006630564740023143
0.2675,9.613312549963092e-05,-0.7849281699999999,-0.0001123808420007875,-2.3560284600000005,4.1402855449732706e-05,1.57095486,0.7860259030000001,0.039999973200000004,0.0399999603,-9.819754299999992,-0.00900533478708898,-0.006775637530012582,0.0025021757250091774,-0.012104996899152693,0.0006793920535024844
0.27,9.354853399962857e-05,-0.78492778,-0.00011789562800079252,-2.3560328400000006,3.9531009799731005e-05,1.57095444,0.7860268120000001,0.0399999738,0.0399999612,-9.819695199999993,-0.009133068285900816,-0.006863746120012662,0.002566443900009236,-0.012174056656668545,0.0006967900240025002
0.2725,9.096394249962621e-05,-0.7849273899999999,-0.00012341041400079752,-2.3560372200000006,3.76591641497293e-05,1.57095402,0.7860277210000002,0.0399999744,0.0399999621,-9.819636099999991,-0.009260801784712653,-0.006951854710012742,0.0026307120750092942,-0.012243116414184399,0.0007141879945025161
0.275,8.837935099962386e-05,-0.7849269999999999,-0.00012892520000080254,-2.3560416000000006,3.57873184997276e-05,1.5709536,0.7860286300000001,0.039999975,0.039999963,-9.819576999999992,-0.009388535283524489,-0.0070399633000128225,0.002694980250009353,-0.01231217617170025,0.0007315859650025319
0.2775,8.579475949962152e-05,-0.78492661,-0.0001344399860008076,-2.3560459800000007,3.391547284972589e-05,1.57095318,0.7860295390000002,0.0399999756,0.0399999639,-9.819517899999992,-0.009516268782336326,-0.0071280718900129025,0.0027592484250094115,-0.012381235929216104,0.0007489839355025478
0.28,8.321016799961916e-05,-0.7849262199999999,-0.0001399547720008126,-2.3560503600000007,3.204362719972418e-05,1.57095276,0.7860304480000001,0.0399999762,0.039999964799999996,-9.819458799999992,-0.00964400228114816,-0.0072161804800129825,0.00282351660000947,-0.012450295686731956,0.0007663819060025636
0.28250000000000003,8.062557649961681e-05,-0.7849258299999999,-0.00014546955800081763,-2.3560547400000007,3.017178154972248e-05,1.57095234,0.7860313570000002,0.039999976799999996,0.0399999657,-9.819399699999991,-0.009771735779959998,-0.007304289070013063,0.002887784775009529,-0.012519355444247808,0.0007837798765025794
0.28500000000000003,7.77596263995515e-05,-0.78492611,-0.00015157963600095583,-2.3560589800000007,2.8097939699675578e-05,1.57095191,0.7860324240000002,0.039999977,0.0399999654,-9.819343599999993,-0.009907026682069754,-0.007389066340012398,0.002956320690010542,-0.01258711079136536,0.0008023401500028553
0.28750000000000003,7.475299699954876e-05,-0.784926725,-0.0001579873600009617,-2.3560631500000007,2.5923099749673598e-05,1.570951475,0.7860335700000002,0.039999977,0.0399999645,-9.819288999999992,-0.010046096285825947,-0.007472177950012473,0.003026990475010606,-0.012654213933284196,0.0008214815750028727
0.29,7.17463675995461e-05,-0.7849273400000001,-0.00016439508400096738,-2.3560673200000006,2.3748259799671668e-05,1.57095104,0.7860347160000002,0.039999977,0.0399999636,-9.819234399999992,-0.010185165889582135,-0.007555289560012547,0.003097660260010669,-0.01272131707520303,0.0008406230000028897
0.2925,6.873973819954336e-05,-0.7849279550000001,-0.0001708028080009732,-2.3560714900000006,2.1573419849669687e-05,1.570950605,0.7860358620000002,0.039999977,0.0399999627,-9.819179799999992,-0.010324235493338326,-0.007638401170012622,0.0031683300450107334,-0.012788420217121867,0.0008597644250029072
0.295,6.573310879954061e-05,-0.78492857,-0.00017721053200097904,-2.3560756600000006,1.9398579899667707e-05,1.57095017,0.7860370080000002,0.039999977,0.0399999618,-9.819125199999991,-0.010463305097094517,-0.007721512780012698,0.0032389998300107977,-0.012855523359040702,0.0008789058500029246
0.2975,6.272647939953788e-05,-0.7849291850000001,-0.00018361825600098487,-2.3560798300000005,1.722373994966573e-05,1.5709497350000001,0.7860381540000002,0.039999977,0.0399999609,-9.819070599999991,-0.01060237470085071,-0.007804624390012773,0.003309669615010862,-0.012922626500959539,0.000898047275002942
0.3,5.9719849999464235e-05,-0.7849298000000002,-0.00019002598000114065,-2.3560840000000005,1.5048899999612873e-05,1.5709493,0.7860393000000002,0.039999977,0.03999996,-9.819015999999994,-0.01074144430460589,-0.007887736000011155,0.00338033940001181,-0.012989729642878253,0.0009171887000031928
0.3025,5.625455704948471e-05,-0.7849315190000002,-0.00019740350200109704,-2.3560881700000005,1.2545008034627674e-05,1.57094888,0.7860406350000002,0.03999997745,0.0399999609,-9.818985099999995,-0.010873970435951936,-0.00795989635001073,0.0034567241700113583,-0.013056037900979211,0.0009378392600030707
0.305,5.2789264099505197e-05,-0.7849332380000003,-0.00020478102400105344,-2.3560923400000005,1.0041116069642475e-05,1.57094846,0.7860419700000002,0.0399999779,0.0399999618,-9.818954199999995,-0.011006496567297982,-0.008032056700010302,0.003533108940010907,-0.013122346159080167,0.0009584898200029487
0.3075,4.932397114952568e-05,-0.7849349570000003,-0.0002121585460010098,-2.3560965100000004,7.537224104657274e-06,1.57094804,0.7860433050000002,0.03999997835,0.0399999627,-9.818923299999994,-0.01113902269864403,-0.008104217050009877,0.0036094937100104555,-0.013188654417181126,0.0009791403800028266
0.31,4.585867819954616e-05,-0.7849366760000002,-0.0002195360680009662,-2.3561006800000004,5.033332139672073e-06,1.57094762,0.7860446400000002,0.039999978799999995,0.0399999636,-9.818892399999996,-0.011271548829990076,-0.00817637740000945,0.003685878480010004,-0.013254962675282084,0.0009997909400027045
0.3125,4.239338524956665e-05,-0.7849383950000002,-0.0002269135900009226,-2.3561048500000004,2.5294401746868735e-06,1.5709472,0.7860459750000002,0.03999997925,0.0399999645,-9.818861499999995,-0.011404074961336124,-0.008248537750009024,0.0037622632500095526,-0.013321270933383042,0.0010204415000025825
0.315,3.8928092299587126e-05,-0.7849401140000002,-0.00023429111200087897,-2.3561090200000003,2.554820970167434e-08,1.5709467799999999,0.7860473100000002,0.0399999797,0.0399999654,-9.818830599999995,-0.01153660109268217,-0.008320698100008598,0.003838648020009101,-0.013387579191483999,0.0010410920600024604
0.3175,3.529758989952447e-05,-0.7849421835000003,-0.00024201774700101145,-2.3561131800000004,-2.5968124453432732e-06,1.570946355,0.7860486750000002,0.03999998,0.0399999657,-9.818803749999997,-0.011668050987661504,-0.008388028100006923,0.003917024890009888,-0.01345373298973635,0.001062336425002693
0.32,3.1336668599466826e-05,-0.7849449540000003,-0.00025044260800113406,-2.3561173200000005,-5.456110480384884e-06,1.57094592,0.7860501000000002,0.03999998,0.039999964799999996,-9.818784999999997,-0.011797348409908525,-0.008445697400007763,0.0039993859600110865,-0.013519577868291643,0.0010847684000030195
0.3225,2.7375747299409184e-05,-0.7849477245000004,-0.00025886746900125664,-2.3561214600000007,-8.315408515426496e-06,1.570945485,0.7860515250000002,0.03999998,0.0399999639,-9.818766249999996,-0.011926645832155545,-0.008503366700008601,0.004081747030012285,-0.013585422746846937,0.001107200375003346
0.325,2.341482599935154e-05,-0.7849504950000005,-0.0002672923300013793,-2.356125600000001,-1.1174706550468106e-05,1.57094505,0.7860529500000002,0.03999998,0.039999963,-9.818747499999997,-0.012055943254402568,-0.008561036000009441,0.004164108100013483,-0.01365126762540223,0.0011296323500036725
0.3275,1.9453904699293902e-05,-0.7849532655000004,-0.00027571719100150186,-2.3561297400000005,-1.4034004585509718e-05,1.570944615,0.7860543750000002,0.03999998,0.0399999621,-9.818728749999996,-0.012185240676649589,-0.008618705300010281,0.004246469170014682,-0.013717112503957522,0.001152064325003999
0.33,1.549298339923626e-05,-0.7849560360000005,-0.0002841420520016245,-2.3561338800000007,-1.6893302620551328e-05,1.57094418,0.7860558000000002,0.03999998,0.0399999612,-9.818709999999996,-0.012314538098896611,-0.00867637460001112,0.004328830240015881,-0.013782957382512815,0.0011744963000043253
0.3325,1.1532062099178617e-05,-0.7849588065000005,-0.0002925669130017471,-2.356138020000001,-1.975260065559294e-05,1.5709437450000001,0.7860572250000003,0.03999998,0.0399999603,-9.818691249999997,-0.012443835521143632,-0.00873404390001196,0.004411191310017079,-0.013848802261068108,0.0011969282750046517
0.335,7.2159058990640265e-06,-0.7849623410000008,-0.0003017420720019892,-2.356142120000001,-2.286635620067504e-05,1.5709433,0.7860588450000003,0.03999998,0.0399999598,-9.8186876,-0.012571455165770197,-0.008790544100011646,0.0044979042000185135,-0.013915001135333234,0.0012204628100050167
0.3375,2.7221322490905878e-06,-0.7849662575000008,-0.0003112923800019327,-2.356146200000001,-2.6107340500655882e-05,1.57094285,0.7860605625000003,0.03999998,0.0399999595,-9.818691500000002,-0.012698235921587331,-0.008846459750011316,0.004586793000017989,-0.013981377007453107,0.0012445486250048743
0.34,-1.771641400882851e-06,-0.7849701740000008,-0.0003208426880018763,-2.356150280000001,-2.9348324800636728e-05,1.5709423999999999,0.7860622800000003,0.03999998,0.039999959200000004,-9.818695400000001,-0.012825016677404467,-0.008902375400010985,0.004675681800017463,-0.01404775287957298,0.001268634440004732
0.3425,-6.265415050856289e-06,-0.7849740905000008,-0.0003303929960018198,-2.3561543600000006,-3.258930910061757e-05,1.57094195,0.7860639975000003,0.03999998,0.0399999589,-9.8186993,-0.012951797433221602,-0.008958291050010654,0.004764570600016937,-0.014114128751692852,0.0012927202550045895
0.34500000000000003,-1.0759188700829728e-05,-0.7849780070000008,-0.00033994330400176337,-2.3561584400000006,-3.5830293400598414e-05,1.5709415,0.7860657150000003,0.03999998,0.0399999586,-9.818703200000002,-0.013078578189038738,-0.009014206700010324,0.004853459400016412,-0.014180504623812725,0.0013168060700044473
0.34750000000000003,-1.5252962350803165e-05,-0.7849819235000007,-0.0003494936120017069,-2.3561625200000007,-3.9071277700579253e-05,1.5709410499999998,0.7860674325000003,0.03999998,0.0399999583,-9.818707100000001,-0.013205358944855874,-0.009070122350009993,0.004942348200015887,-0.014246880495932599,0.001340891885004305
0.35000000000000003,-1.974673600087514e-05,-0.7849858400000009,-0.00035904392000185847,-2.3561666000000008,-4.231226200063065e-05,1.5709406,0.7860691500000003,0.03999998,0.039999958,-9.818710999999997,-0.013332139700672534,-0.009126038000007351,0.005031237000016351,-0.014313256368052429,0.0013649777000044314
0.3525,-2.481069535087964e-05,-0.784990934000001,-0.00036979794500186804,-2.3561706800000004,-4.596148720063389e-05,1.5709401499999998,0.7860710730000003,0.0399999806,0.0399999583,-9.818694199999998,-0.013456169515869634,-0.00916858175000739,0.005125849650016435,-0.014379387348901757,0.0013906192250044541
0.355,-2.987465470088425e-05,-0.7849960280000009,-0.00038055197000187783,-2.3561747600000005,-4.9610712400637215e-05,1.5709396999999998,0.7860729960000004,0.0399999812,0.0399999586,-9.818677399999997,-0.013580199331066738,-0.009211125500007428,0.005220462300016521,-0.014445518329751088,0.0014162607500044775
0.3575,-3.493861405088886e-05,-0.7850011220000009,-0.0003913059950018876,-2.3561788400000006,-5.325993760064053e-05,1.57093925,0.7860749190000004,0.0399999818,0.0399999589,-9.818660599999998,-0.01370422914626384,-0.009253669250007467,0.0053150749500166065,-0.014511649310600418,0.0014419022750045008
0.36,-4.000257340089347e-05,-0.785006216000001,-0.0004020600200018974,-2.3561829200000006,-5.6909162800643856e-05,1.5709387999999997,0.7860768420000004,0.0399999824,0.039999959200000004,-9.818643799999998,-0.013828258961460943,-0.009296213000007506,0.005409687600016693,-0.014577780291449748,0.0014675438000045242
0.3625,-4.5066532750898076e-05,-0.7850113100000009,-0.0004128140450019072,-2.3561870000000007,-6.055838800064718e-05,1.5709383499999998,0.7860787650000004,0.039999983,0.0399999595,-9.818626999999998,-0.013952288776658047,-0.009338756750007546,0.005504300250016779,-0.014643911272299078,0.0014931853250045475
0.365,-5.0130492100902693e-05,-0.785016404000001,-0.000423568070001917,-2.3561910800000003,-6.420761320065051e-05,1.5709378999999999,0.7860806880000003,0.039999983600000004,0.0399999598,-9.818610199999998,-0.014076318591855149,-0.009381300500007584,0.005598912900016865,-0.014710042253148408,0.0015188268500045709
0.3675,-5.539698225102905e-05,-0.7850218950000012,-0.00043474951400218387,-2.3561951600000004,-6.800183550074105e-05,1.5709374399999998,0.7860826665000004,0.039999984,0.03999996,-9.81859705,-0.0141991178039679,-0.009420278000005779,0.00569558945001829,-0.014776216307666987,0.001544980095004931
0.37,-6.10685340010729e-05,-0.7850281800000012,-0.00044678579600227695,-2.3561992400000005,-7.208605200077263e-05,1.5709369599999998,0.7860847560000004,0.039999984,0.03999996,-9.8185912,-0.014319455809913926,-0.009452123000006024,0.00579639380001907,-0.014842476509523994,0.001572156780005141
0.3725,-6.674008575111675e-05,-0.7850344650000013,-0.00045882207800237003,-2.3562033200000005,-7.61702685008042e-05,1.5709364799999999,0.7860868455000004,0.039999984,0.03999996,-9.81858535,-0.01443979381585995,-0.009483968000006272,0.005897198150019848,-0.014908736711381002,0.0015993334650053512
0.375,-7.24116375011606e-05,-0.7850407500000013,-0.00047085836000246306,-2.3562074000000006,-8.025448500083578e-05,1.5709359999999999,0.7860889350000004,0.039999984,0.03999996,-9.818579499999998,-0.014560131821805976,-0.009515813000006517,0.005998002500020628,-0.014974996913238009,0.0016265101500055614
0.3775,-7.808318925120445e-05,-0.7850470350000013,-0.00048289464200255614,-2.3562114800000007,-8.433870150086736e-05,1.57093552,0.7860910245000005,0.039999984,0.03999996,-9.81857365,-0.014680469827752,-0.009547658000006764,0.0060988068500214074,-0.015041257115095016,0.0016536868350057715
0.38,-8.37547410012483e-05,-0.7850533200000014,-0.0004949309240026492,-2.3562155600000008,-8.842291800089893e-05,1.57093504,0.7860931140000005,0.039999984,0.03999996,-9.818567799999999,-0.014800807833698026,-0.00957950300000701,0.006199611200022187,-0.015107517316952025,0.0016808635200059815
0.3825,-8.942629275129216e-05,-0.7850596050000014,-0.0005069672060027423,-2.356219640000001,-9.250713450093051e-05,1.57093456,0.7860952035000004,0.039999984,0.03999996,-9.818561949999998,-0.01492114583964405,-0.009611348000007257,0.006300415550022967,-0.015173777518809032,0.0017080402050061916
0.385,-9.55278570014305e-05,-0.7850667100000017,-0.000519910600003034,-2.356223710000001,-9.689879900102938e-05,1.5709340699999998,0.7860974450000004,0.0399999844,0.03999996,-9.818559299999999,-0.01503661731260593,-0.009638615800005657,0.006405474450024274,-0.015240357909366694,0.0017365168300065962
0.3875,-0.00010184442750139315,-0.7850742250000017,-0.0005333075500029549,-2.356227775000001,-0.00010144418750100252,1.570933575,0.7860997625000005,0.039999985,0.03999996,-9.818558249999999,-0.015149655519078256,-0.00966359500000551,0.0065126606250236405,-0.01530709839427452,0.001765643425006424
0.39,-0.00010816099800135583,-0.7850817400000016,-0.0005467045000028757,-2.356231840000001,-0.00010598957600097565,1.5709330799999999,0.7861020800000005,0.0399999856,0.03999996,-9.818557199999999,-0.015262693725550584,-0.009688574200005361,0.006619846800023007,-0.015373838879182346,0.0017947700200062519
0.3925,-0.00011447756850131849,-0.7850892550000016,-0.0005601014500027964,-2.356235905000001,-0.00011053496450094879,1.5709325849999998,0.7861043975000005,0.039999986200000004,0.03999996,-9.81855615,-0.01537573193202291,-0.009713553400005214,0.006727032975022374,-0.01544057936409017,0.0018238966150060797
0.395,-0.00012079413900128116,-0.7850967700000016,-0.0005734984000027172,-2.356239970000001,-0.00011508035300092193,1.57093209,0.7861067150000004,0.0399999868,0.03999996,-9.8185551,-0.015488770138495237,-0.009738532600005066,0.00683421915002174,-0.015507319848997995,0.0018530232100059077
0.3975,-0.00012711070950124383,-0.7851042850000015,-0.000586895350002638,-2.356244035000001,-0.00011962574150089505,1.5709315949999998,0.7861090325000004,0.0399999874,0.03999996,-9.81855405,-0.015601808344967565,-0.009763511800004919,0.006941405325021106,-0.01557406033390582,0.0018821498050057355
0.4,-0.00013342728000133682,-0.7851118000000017,-0.0006002923000028337,-2.356248100000001,-0.00012417113000096137,1.5709310999999997,0.7861113500000004,0.039999988,0.03999996,-9.818553,-0.015714846551439406,-0.00978849100000268,0.007048591500021658,-0.01564080081881375,0.001911276400005861
0.4025,-0.00014042618850134317,-0.7851206140000017,-0.0006151282750028473,-2.356252180000001,-0.00012920442050096595,1.5709304849999999,0.7861139225000005,0.0399999883,0.0399999609,-9.81855375,-0.015825338754824142,-0.009802525150002694,0.007161984225021761,-0.015708082076174974,0.001941961390005889
0.405,-0.00014742509700134954,-0.7851294280000017,-0.0006299642500028608,-2.3562562600000008,-0.00013423771100097055,1.5709298699999998,0.7861164950000005,0.0399999886,0.0399999618,-9.8185545,-0.015935830958208875,-0.009816559300002706,0.007275376950021864,-0.015775363333536203,0.0019726463800059167
0.40750000000000003,-0.00015442400550135592,-0.7851382420000017,-0.0006448002250028742,-2.356260340000001,-0.00013927100150097513,1.5709292549999998,0.7861190675000005,0.0399999889,0.0399999627,-9.81855525,-0.01604632316159361,-0.00983059345000272,0.007388769675021968,-0.015842644590897428,0.002003331370005945
0.41000000000000003,-0.0001614229140013623,-0.7851470560000017,-0.0006596362000028877,-2.356264420000001,-0.0001443042920009797,1.5709286399999998,0.7861216400000005,0.0399999892,0.0399999636,-9.818556,-0.016156815364978348,-0.009844627600002731,0.007502162400022071,-0.015909925848258656,0.0020340163600059726
0.41250000000000003,-0.00016842182250136867,-0.7851558700000018,-0.0006744721750029012,-2.356268500000001,-0.00014933758250098428,1.5709280249999997,0.7861242125000005,0.0399999895,0.0399999645,-9.818556749999999,-0.01626730756836308,-0.009858661750002745,0.0076155551250221745,-0.01597720710561988,0.0020647013500060007
0.41500000000000004,-0.00017542073100137502,-0.7851646840000017,-0.0006893081500029147,-2.356272580000001,-0.00015437087300098886,1.57092741,0.7861267850000005,0.039999989799999996,0.0399999654,-9.818557499999999,-0.016377799771747817,-0.009872695900002757,0.007728947850022277,-0.01604448836298111,0.0020953863400060284
0.4175,-0.0001826594865015408,-0.785173937000002,-0.0007046498225032645,-2.356276670000001,-0.0001595756800011075,1.5709266649999998,0.7861294550000005,0.0399999899,0.0399999662,-9.818556549999998,-0.016486818529686618,-0.009881575699999715,0.007844361700023846,-0.01611197628082192,0.0021264920500063777
0.42,-0.00019037793600160048,-0.7851840680000021,-0.000721002890003391,-2.356280780000001,-0.00016512352000115039,1.5709256599999997,0.7861323200000006,0.0399999896,0.0399999668,-9.8185522,-0.016592890396736174,-0.009880146799999705,0.00796381780002477,-0.01617987751962154,0.0021584392000066244
0.4225,-0.00019809638550166014,-0.7851941990000022,-0.0007373559575035173,-2.356284890000001,-0.00017067136000119328,1.5709246549999998,0.7861351850000006,0.0399999893,0.0399999674,-9.818547849999998,-0.01669896226378573,-0.009878717899999693,0.008083273900025693,-0.01624777875842116,0.0021903863500068715
0.425,-0.00020581483500171983,-0.7852043300000022,-0.0007537090250036438,-2.356289000000001,-0.00017621920000123617,1.5709236499999997,0.7861380500000006,0.039999989,0.039999968000000004,-9.818543499999999,-0.016805034130835284,-0.009877288999999682,0.008202730000026618,-0.01631567999722078,0.0022223335000071186
0.4275,-0.0002135332845017795,-0.7852144610000024,-0.0007700620925037702,-2.356293110000001,-0.00018176704000127906,1.5709226449999998,0.7861409150000006,0.0399999887,0.0399999686,-9.81853915,-0.01691110599788484,-0.00987586009999967,0.00832218610002754,-0.016383581236020402,0.0022542806500073656
0.43,-0.00022125173400183918,-0.7852245920000025,-0.0007864151600038967,-2.356297220000001,-0.00018731488000132195,1.57092164,0.7861437800000006,0.0399999884,0.0399999692,-9.818534799999998,-0.017017177864934396,-0.009874431199999659,0.008441642200028463,-0.01645148247482002,0.0022862278000076127
0.4325,-0.00022897018350189884,-0.7852347230000025,-0.0008027682275040231,-2.3563013300000013,-0.00019286272000136484,1.5709206349999998,0.7861466450000006,0.0399999881,0.0399999698,-9.818530449999999,-0.01712324973198395,-0.009873002299999649,0.008561098300029388,-0.01651938371361964,0.00231817495000786
0.435,-0.0002371930400020349,-0.7852457460000029,-0.0008201844450043093,-2.356305470000001,-0.0001987705510014617,1.5709196399999998,0.7861497000000007,0.0399999882,0.0399999684,-9.818536300000002,-0.017217647656819563,-0.009861654999996083,0.00868454810003012,-0.016588836722092725,0.002352112630008388
0.4375,-0.000245668100001927,-0.7852572150000027,-0.0008381322375040809,-2.356309625000001,-0.0002048583775013842,1.5709186499999999,0.7861528500000007,0.0399999885,0.039999966,-9.818547250000002,-0.017306208610554735,-0.009845348499996291,0.008809994750028523,-0.01665906561540167,0.002387045575007943
0.44,-0.0002541431600018191,-0.7852686840000025,-0.0008560800300038523,-2.356313780000001,-0.0002109462040013067,1.5709176599999999,0.7861560000000006,0.0399999888,0.0399999636,-9.818558200000002,-0.01739476956428991,-0.009829041999996499,0.008935441400026925,-0.016729294508710614,0.0024219785200074984
0.4425,-0.0002626182200017112,-0.7852801530000023,-0.0008740278225036238,-2.3563179350000008,-0.00021703403050122918,1.57091667,0.7861591500000006,0.0399999891,0.039999961199999996,-9.818569150000002,-0.017483330518025083,-0.009812735499996707,0.009060888050025329,-0.01679952340201956,0.0024569114650070533
0.445,-0.0002710932800016033,-0.7852916220000021,-0.0008919756150033954,-2.356322090000001,-0.0002231218570011517,1.5709156799999997,0.7861623000000005,0.0399999894,0.0399999588,-9.818580100000002,-0.017571891471760255,-0.009796428999996915,0.009186334700023733,-0.016869752295328506,0.0024918444100066085
0.4475,-0.0002795683400014954,-0.7853030910000021,-0.0009099234075031668,-2.356326245000001,-0.00022920968350107417,1.5709146899999997,0.7861654500000006,0.0399999897,0.039999956399999995,-9.818591050000002,-0.017660452425495427,-0.009780122499997122,0.009311781350022134,-0.016939981188637453,0.002526777355006164
0.45,-0.00028804340000151735,-0.7853145600000021,-0.0009278712000032119,-2.356330400000001,-0.00023529751000108952,1.5709136999999997,0.7861686000000006,0.03999999,0.039999954,-9.818602,-0.01774901337923201,-0.009763815999997755,0.009437228000021518,-0.017010210081946496,0.0025617103000058193
0.4525,-0.00029731172000158903,-0.7853274615000022,-0.0009474908100033637,-2.356334585000001,-0.00024195253600114096,1.5709126799999997,0.7861720350000005,0.0399999915,0.039999954899999995,-9.818606200000001,-0.01784620992840994,-0.00975010787499765,0.009568667150022536,-0.01708103911952396,0.0025972561300060945
0.455,-0.00030658004000166066,-0.7853403630000023,-0.0009671104200035153,-2.3563387700000007,-0.0002486075620011924,1.5709116599999997,0.7861754700000007,0.039999993,0.0399999558,-9.8186104,-0.017943406477587867,-0.009736399749997543,0.009700106300023551,-0.017151868157101423,0.0026328019600063693
0.4575,-0.00031584836000173234,-0.7853532645000024,-0.000986730030003667,-2.356342955000001,-0.00025526258800124386,1.5709106399999997,0.7861789050000006,0.0399999945,0.0399999567,-9.818614600000002,-0.018040603026765793,-0.009722691624997438,0.009831545450024567,-0.017222697194678883,0.002668347790006644
0.46,-0.000325116680001804,-0.7853661660000025,-0.0010063496400038187,-2.356347140000001,-0.00026191761400129536,1.57090962,0.7861823400000006,0.039999996,0.0399999576,-9.818618800000001,-0.01813779957594372,-0.009708983499997333,0.009962984600025584,-0.017293526232256346,0.002703893620006919
0.4625,-0.00033438500000187565,-0.7853790675000026,-0.0010259692500039705,-2.3563513250000008,-0.0002685726400013468,1.5709085999999999,0.7861857750000008,0.0399999975,0.0399999585,-9.818623,-0.018234996125121646,-0.009695275374997226,0.0100944237500266,-0.01736435526983381,0.0027394394500071936
0.465,-0.00034365332000194733,-0.7853919690000026,-0.0010455888600041222,-2.356355510000001,-0.00027522766600139825,1.5709075799999999,0.7861892100000007,0.039999999,0.0399999594,-9.818627200000002,-0.01833219267429957,-0.00968156724999712,0.010225862900027615,-0.017435184307411273,0.0027749852800074684
0.4675,-0.0003531982490021768,-0.7854053615000031,-0.001065791275004606,-2.356359755000001,-0.00028208026050156236,1.5709065599999998,0.7861927550000009,0.04,0.03999996,-9.81862845,-0.01842394554989287,-0.009662071674993302,0.010359286200029617,-0.01750608962030748,0.002811167985008074
0.47000000000000003,-0.000363296396002186,-0.785419736000003,-0.0010871593000046256,-2.356364120000001,-0.0002893279920015689,1.5709055399999998,0.7861965200000008,0.04,0.03999996,-9.8186238,-0.018504811078327466,-0.009631001199993274,0.010496677800029742,-0.01757714748384104,0.002848624440008108
0.47250000000000003,-0.00037339454300219517,-0.7854341105000031,-0.001108527325004645,-2.356368485000001,-0.00029657572350157553,1.5709045199999998,0.7862002850000008,0.04,0.03999996,-9.81861915,-0.01858567660676206,-0.009599930724993246,0.010634069400029866,-0.0176482053473746,0.0028860808950081423
0.47500000000000003,-0.0003834926900022044,-0.7854484850000031,-0.0011298953500046645,-2.356372850000001,-0.00030382345500158214,1.5709034999999998,0.7862040500000008,0.04,0.03999996,-9.818614499999999,-0.01866654213519665,-0.009568860249993217,0.010771461000029991,-0.01771926321090816,0.0029235373500081764
0.47750000000000004,-0.00039359083700221356,-0.7854628595000032,-0.001151263375004684,-2.356377215000001,-0.0003110711865015887,1.5709024799999998,0.7862078150000009,0.04,0.03999996,-9.81860985,-0.018747407663631244,-0.009537789774993189,0.010908852600030118,-0.01779032107444172,0.0029609938050082106
0.48,-0.0004036889840022225,-0.7854772340000031,-0.001172631400004703,-2.356381580000001,-0.00031831891800159515,1.5709014599999997,0.7862115800000009,0.04,0.03999996,-9.8186052,-0.018828273192065835,-0.009506719299993163,0.011046244200030239,-0.017861378937975278,0.002998450260008244
0.4825,-0.00041378713100223173,-0.7854916085000032,-0.0011939994250047224,-2.356385945000001,-0.0003255666495016017,1.5709004399999997,0.7862153450000009,0.04,0.03999996,-9.81860055,-0.01890913872050043,-0.009475648824993134,0.011183635800030364,-0.017932436801508838,0.003035906715008278
0.485,-0.0004244625780023832,-0.7855069900000035,-0.0012165836000050411,-2.356390430000001,-0.00033322645600170975,1.57089939,0.7862193200000009,0.039999999,0.0399999587,-9.818609100000003,-0.018985253572479988,-0.009435822499990391,0.011324957700031146,-0.018004172667876614,0.003074587580008541
0.4875,-0.0004354266750023184,-0.7855228750000034,-0.0012397758500049042,-2.356394975000001,-0.00034109230000166325,1.5708983249999997,0.7862234000000009,0.0399999975,0.03999995675,-9.818624250000004,-0.01905899308623439,-0.009391618249990652,0.011468244750030299,-0.018076247535661165,0.0031138806500083088
0.49,-0.0004463907720022536,-0.7855387600000032,-0.001262968100004767,-2.356399520000001,-0.00034895814400161674,1.5708972599999997,0.7862274800000009,0.039999996,0.0399999548,-9.818639400000004,-0.019132732599988794,-0.009347413999990915,0.011611531800029452,-0.018148322403445716,0.0031531737200080766
0.4925,-0.00045735486900218877,-0.7855546450000032,-0.0012861603500046298,-2.356404065000001,-0.00035682398800157024,1.5708961949999998,0.7862315600000008,0.0399999945,0.03999995285,-9.818654550000003,-0.019206472113743198,-0.009303209749991177,0.011754818850028605,-0.018220397271230263,0.003192466790007844
0.495,-0.00046831896600212395,-0.7855705300000031,-0.0013093526000044929,-2.356408610000001,-0.0003646898320015238,1.5708951299999998,0.7862356400000008,0.039999993,0.0399999509,-9.818669700000003,-0.019280211627497604,-0.009259005499991438,0.011898105900027758,-0.018292472139014814,0.003231759860007612
0.4975,-0.00047928306300205913,-0.7855864150000029,-0.0013325448500043557,-2.356413155000001,-0.0003725556760014773,1.5708940649999998,0.7862397200000009,0.0399999915,0.03999994895,-9.818684850000002,-0.019353951141252008,-0.009214801249991699,0.012041392950026911,-0.01836454700679936,0.0032710529300073797
0.5,-0.0004902471600021584,-0.7856023000000032,-0.001355737100004564,-2.356417700000001,-0.0003804215200015479,1.5708929999999999,0.7862438000000008,0.03999999,0.039999947,-9.818700000000003,-0.01942769065500525,-0.009170596999990148,0.012184680000027122,-0.018436621874584145,0.003310346000007417
0.5025000000000001,-0.0005021129910023313,-0.7856197390000034,-0.0013808287850049297,-2.3564226350000013,-0.0003889308415016719,1.57089186,0.7862482100000009,0.0399999891,0.03999994475,-9.818722500000003,-0.019495047070099178,-0.009116425999989358,0.012333791700029297,-0.0185099836439038,0.0033511207550080114
0.505,-0.0005139788220025037,-0.7856371780000037,-0.0014059204700052944,-2.356427570000001,-0.00039744016300179554,1.57089072,0.786252620000001,0.0399999882,0.0399999425,-9.818745000000005,-0.0195624034851931,-0.00906225499998857,0.012482903400031463,-0.01858334541322345,0.0033918955100086037
0.5075000000000001,-0.0005258446530026767,-0.7856546170000039,-0.0014310121550056602,-2.3564325050000012,-0.00040594948450191955,1.5708895799999998,0.786257030000001,0.0399999873,0.03999994025,-9.818767500000005,-0.01962975990028703,-0.00900808399998778,0.012632015100033638,-0.018656707182543104,0.003432670265009198
0.51,-0.0005377104840028491,-0.7856720560000041,-0.0014561038400060246,-2.3564374400000014,-0.0004144588060020432,1.5708884399999998,0.7862614400000011,0.0399999864,0.039999938,-9.818790000000005,-0.01969711631538095,-0.008953912999986994,0.012781126800035804,-0.018730068951862754,0.0034734450200097906
0.5125,-0.0005495763150030215,-0.7856894950000044,-0.0014811955250063893,-2.356442375000001,-0.00042296812750216683,1.5708872999999999,0.7862658500000012,0.0399999855,0.03999993575,-9.818812500000005,-0.019764472730474877,-0.008899741999986206,0.01293023850003797,-0.018803430721182405,0.003514219775010383
0.515,-0.0005614421460031944,-0.7857069340000047,-0.001506287210006755,-2.3564473100000014,-0.00043147744900229085,1.5708861599999997,0.7862702600000012,0.0399999846,0.0399999335,-9.818835000000005,-0.019831829145568802,-0.008845570999985416,0.013079350200040144,-0.01887679249050206,0.003554994530010977
0.5175,-0.0005736203520035454,-0.7857248970000053,-0.001532036750007495,-2.3564523200000016,-0.0004402096710025416,1.5708849049999998,0.7862747800000013,0.03999998345,0.03999993105,-9.818861600000009,-0.01989146759734776,-0.008784049349978892,0.013230388750042893,-0.018950881250223553,0.003596329275011757
0.52,-0.00058642330800347,-0.7857439080000052,-0.0015591020000073356,-2.3564574800000013,-0.00044938769400248757,1.5708834199999997,0.7862795200000013,0.0399999818,0.0399999282,-9.818896400000009,-0.01993567012251616,-0.008707826399979341,0.013385281000041981,-0.019026423990746916,0.003638784000011507
0.5225,-0.0005992262640033941,-0.785762919000005,-0.001586167250007175,-2.3564626400000015,-0.00045856571700243315,1.5708819349999996,0.7862842600000013,0.03999998015,0.03999992535,-9.818931200000009,-0.019979872647684558,-0.008631603449979793,0.013540173250041063,-0.01910196673127027,0.003681238725011255
0.525,-0.0006120292200033187,-0.7857819300000048,-0.0016132325000070156,-2.3564678000000017,-0.0004677437400023791,1.5708804499999998,0.7862890000000012,0.0399999785,0.0399999225,-9.818966000000009,-0.020024075172852956,-0.008555380499980243,0.013695065500040151,-0.01917750947179363,0.003723693450011005
0.5275,-0.0006248321760032428,-0.7858009410000047,-0.0016402977500068552,-2.3564729600000014,-0.0004769217630023246,1.5708789649999997,0.7862937400000012,0.03999997685,0.03999991965,-9.819000800000008,-0.020068277698021355,-0.008479157549980694,0.013849957750039232,-0.019253052212316987,0.0037661481750107533
0.53,-0.0006376351320031673,-0.7858199520000047,-0.0016673630000066959,-2.3564781200000016,-0.0004860997860022706,1.5708774799999998,0.7862984800000012,0.0399999752,0.0399999168,-9.819035600000008,-0.020112480223189753,-0.008402934599981144,0.01400485000003832,-0.019328594952840346,0.003808602900010503
0.5325,-0.0006504380880030914,-0.7858389630000046,-0.0016944282500065352,-2.3564832800000013,-0.0004952778090022162,1.5708759949999997,0.7863032200000012,0.03999997355,0.03999991395,-9.819070400000008,-0.020156682748358152,-0.008326711649981595,0.0141597422500374,-0.019404137693363705,0.003851057625010251
0.535,-0.0006638890660033076,-0.785859067000005,-0.0017228581300069905,-2.3564884700000013,-0.0005049183290023704,1.5708744499999996,0.7863081800000012,0.0399999734,0.039999913,-9.819103800000008,-0.020214080251768653,-0.008251289669981987,0.014318496300038583,-0.019481451250631426,0.003894490840010547
0.5375,-0.0006776640550033198,-0.785879717500005,-0.0017519703250070164,-2.3564936750000016,-0.0005147900975023792,1.5708728749999996,0.7863132500000013,0.039999974,0.039999913,-9.819136500000008,-0.020278075244293096,-0.00817626817498192,0.014479181250038727,-0.01955965021627037,0.003938413300010586
0.54,-0.0006914390440033327,-0.785900368000005,-0.0017810825200070433,-2.3564988800000015,-0.0005246618660023883,1.5708712999999996,0.7863183200000012,0.0399999746,0.039999913,-9.819169200000008,-0.02034207023681754,-0.00810124667998185,0.014639866200038876,-0.01963784918190932,0.0039823357600106265
0.5425,-0.0007052140330033449,-0.785921018500005,-0.0018101947150070692,-2.3565040850000014,-0.0005345336345023971,1.5708697249999997,0.7863233900000013,0.0399999752,0.039999913,-9.819201900000008,-0.020406065229341984,-0.008026225184981783,0.014800551150039018,-0.019716048147548265,0.0040262582200106655
0.545,-0.0007189890220033578,-0.785941669000005,-0.0018393069100070963,-2.3565092900000013,-0.0005444054030024064,1.5708681499999997,0.7863284600000012,0.0399999758,0.039999913,-9.819234600000009,-0.02047006022186643,-0.007951203689981713,0.014961236100039169,-0.01979424711318721,0.004070180680010707
0.5475,-0.00073276401100337,-0.7859623195000051,-0.0018684191050071222,-2.3565144950000017,-0.0005542771715024152,1.5708665749999995,0.7863335300000013,0.0399999764,0.039999913,-9.819267300000009,-0.020534055214390872,-0.007876182194981646,0.015121921050039311,-0.019872446078826156,0.004114103140010746
0.55,-0.00074653900000363,-0.7859829700000054,-0.0018975313000076698,-2.3565197000000015,-0.0005641489400026007,1.5708649999999995,0.7863386000000013,0.039999977,0.039999913,-9.8193,-0.0205980502069094,-0.007801160699977325,0.015282606000040867,-0.01995064504446531,0.004158025600011174
0.5525,-0.000761320540003744,-0.7860053035000056,-0.0019287629050079105,-2.3565250250000016,-0.0005747389190026824,1.5708634099999996,0.7863440900000014,0.039999977,0.039999912549999996,-9.819303150000001,-0.020637949462990093,-0.007708825844976613,0.01544901660004215,-0.020029678568263914,0.004203524410011525
0.555,-0.0007761020800038587,-0.7860276370000058,-0.0019599945100081525,-2.3565303500000017,-0.0005853288980027645,1.5708618199999995,0.7863495800000014,0.039999977,0.0399999121,-9.819306300000001,-0.020677848719070788,-0.0076164909899758965,0.015615427200043441,-0.02010871209206252,0.004249023220011877
0.5575,-0.0007908836200039726,-0.786049970500006,-0.0019912261150083935,-2.3565356750000013,-0.0005959188770028462,1.5708602299999996,0.7863550700000015,0.039999977,0.03999991165,-9.81930945,-0.02071774797515148,-0.007524156134975185,0.015781837800044725,-0.020187745615861126,0.004294522030012228
0.56,-0.0008056651600040872,-0.7860723040000062,-0.0020224577200086357,-2.3565410000000013,-0.0006065088560029282,1.5708586399999995,0.7863605600000015,0.039999977,0.0399999112,-9.819312600000002,-0.020757647231232173,-0.007431821279974469,0.015948248400046012,-0.020266779139659734,0.00434002084001258
0.5625,-0.0008204467000042012,-0.7860946375000063,-0.0020536893250088766,-2.3565463250000014,-0.0006170988350030098,1.5708570499999994,0.7863660500000016,0.039999977,0.03999991075,-9.819315750000001,-0.020797546487312867,-0.007339486424973757,0.016114659000047295,-0.020345812663458338,0.0043855196500129316
0.5650000000000001,-0.0008352282400043158,-0.7861169710000065,-0.0020849209300091184,-2.3565516500000014,-0.000627688814003092,1.5708554599999995,0.7863715400000016,0.039999977,0.0399999103,-9.8193189,-0.02083744574339356,-0.007247151569973041,0.016281069600048586,-0.020424846187256946,0.0044310184600132845
0.5675,-0.0008503566315046337,-0.7861398945000071,-0.002116882750009788,-2.3565570250000016,-0.0006385262100033188,1.5708538649999995,0.7863771535000018,0.03999997735,0.03999991015,-9.819320750000001,-0.020873822551229177,-0.0071514329499699865,0.016449264800050302,-0.020504034217470272,0.004477036050013781
0.5700000000000001,-0.0008661787260044326,-0.7861639980000068,-0.002150305000009363,-2.3565625000000012,-0.0006498584400031747,1.5708522599999994,0.7863830140000017,0.0399999784,0.0399999106,-9.81932,-0.020903154462584058,-0.007048946799971289,0.01662102920004812,-0.02058353126051263,0.004524091200013182
0.5725,-0.0008820008205042308,-0.7861881015000064,-0.002183727250008937,-2.3565679750000013,-0.0006611906700030302,1.5708506549999997,0.7863888745000016,0.03999997945,0.039999911049999996,-9.81931925,-0.02093248637393894,-0.006946460649972596,0.016792793600045926,-0.020663028303554987,0.004571146350012582
0.5750000000000001,-0.0008978229150040297,-0.7862122050000061,-0.0022171495000085123,-2.3565734500000013,-0.0006725229000028862,1.5708490499999996,0.7863947350000015,0.039999980500000004,0.0399999115,-9.8193185,-0.02096181828529382,-0.006843974499973898,0.016964558000043744,-0.020742525346597346,0.004618201500011984
0.5775,-0.0009136450095038279,-0.7862363085000058,-0.002250571750008086,-2.3565789250000013,-0.0006838551300027417,1.5708474449999996,0.7864005955000014,0.03999998155,0.03999991195,-9.81931775,-0.0209911501966487,-0.006741488349975205,0.017136322400041554,-0.0208220223896397,0.004665256650011384
0.58,-0.000929467104003626,-0.7862604120000055,-0.00228399400000766,-2.3565844000000014,-0.0006951873600025971,1.5708458399999996,0.7864064560000014,0.039999982600000004,0.0399999124,-9.819317,-0.021020482108003582,-0.0066390021999765125,0.017308086800039365,-0.02090151943268206,0.004712311800010784
0.5825,-0.000945289198503425,-0.7862845155000052,-0.002317416250007235,-2.3565898750000014,-0.0007065195900024531,1.5708442349999996,0.7864123165000012,0.03999998365,0.03999991285,-9.81931625,-0.021049814019358463,-0.006536516049977815,0.017479851200037182,-0.02098101647572442,0.004759366950010186
0.585,-0.0009618273070036725,-0.7863097950000056,-0.002352345860007756,-2.356595680000001,-0.0007183625760026297,1.5708425999999995,0.7864184300000013,0.039999984,0.0399999127,-9.819318100000002,-0.02107261940837323,-0.006420432599973291,0.017655301800038537,-0.021060801297443515,0.0048074493000105625
0.5875,-0.0009787234225038036,-0.7863356625000057,-0.0023880291500080328,-2.3566016500000013,-0.0007304609400027235,1.5708409499999996,0.7864246700000014,0.039999984,0.03999991225,-9.819321250000002,-0.02109216153622105,-0.0062975504999723386,0.017832595500039912,-0.021140730008500842,0.00485604525001094
0.59,-0.0009956195380039338,-0.786361530000006,-0.0024237124400083077,-2.3566076200000015,-0.0007425593040028168,1.5708392999999996,0.7864309100000014,0.039999984,0.039999911799999996,-9.819324400000001,-0.02111170366406887,-0.0061746683999713906,0.018009889200041276,-0.02122065871955817,0.004904641200011314
0.5925,-0.0010125156535040647,-0.7863873975000062,-0.0024593957300085845,-2.3566135900000016,-0.0007546576680029105,1.5708376499999996,0.7864371500000015,0.039999984,0.03999991135,-9.819327550000002,-0.021131245791916692,-0.006051786299970438,0.01818718290004265,-0.021300587430615497,0.004953237150011691
0.595,-0.001029411769004195,-0.7864132650000064,-0.0024950790200088595,-2.3566195600000017,-0.0007667560320030038,1.5708359999999995,0.7864433900000015,0.039999984,0.0399999109,-9.819330700000002,-0.021150787919764512,-0.00592890419996949,0.01836447660004402,-0.021380516141672825,0.005001833100012065
0.5975,-0.0010463078845043261,-0.7864391325000066,-0.002530762310009136,-2.356625530000002,-0.0007788543960030977,1.5708343499999995,0.7864496300000016,0.039999984,0.03999991045,-9.819333850000001,-0.021170330047612332,-0.005806022099968538,0.018541770300045394,-0.021460444852730156,0.0050504290500124425
0.6,-0.0010632040000047483,-0.7864650000000073,-0.0025664456000100257,-2.356631500000002,-0.0007909527600033991,1.5708326999999995,0.7864558700000017,0.039999984,0.03999991,-9.819337000000015,-0.021189872175457248,-0.005683139999964708,0.018719064000048184,-0.02154037356378816,0.005099025000013215
0.6025,-0.001081207120004765,-0.7864926750000073,-0.002604459065010061,-2.3566378300000017,-0.0008038406760034111,1.5708308699999995,0.7864625345000017,0.0399999846,0.03999991,-9.819391900000015,-0.021198398806156902,-0.005549327249964583,0.018901756200048355,-0.021622883901021784,0.005149131900013262
0.605,-0.001099210240004781,-0.7865203500000073,-0.002642472530010095,-2.356644160000002,-0.0008167285920034226,1.5708290399999996,0.7864691990000018,0.039999985200000004,0.03999991,-9.819446800000016,-0.021206925436856552,-0.005415514499964464,0.019084448400048516,-0.0217053942382554,0.005199238800013307
0.6075,-0.0011172133600047978,-0.7865480250000073,-0.0026804859950101305,-2.3566504900000016,-0.0008296165080034346,1.5708272099999996,0.7864758635000018,0.0399999858,0.03999991,-9.819501700000016,-0.021215452067556206,-0.005281701749964339,0.019267140600048686,-0.021787904575489025,0.005249345700013354
0.61,-0.0011352164800048138,-0.7865757000000074,-0.002718499460010164,-2.3566568200000018,-0.0008425044240034461,1.5708253799999994,0.7864825280000017,0.0399999864,0.03999991,-9.819556600000015,-0.02122397869825586,-0.005147888999964221,0.01944983280004885,-0.021870414912722642,0.005299452600013398
0.6125,-0.0011532196000048306,-0.7866033750000074,-0.0027565129250101995,-2.356663150000002,-0.0008553923400034581,1.5708235499999994,0.7864891925000018,0.039999987,0.03999991,-9.819611500000015,-0.02123250532895551,-0.0050140762499640956,0.01963252500004902,-0.021952925249956262,0.005349559500013445
0.615,-0.0011712227200048465,-0.7866310500000074,-0.0027945263900102336,-2.3566694800000016,-0.0008682802560034694,1.5708217199999994,0.7864958570000018,0.0399999876,0.03999991,-9.819666400000015,-0.021241031959655165,-0.004880263499963977,0.01981521720004918,-0.022035435587189883,0.005399666400013489
0.6175,-0.0011896056250051276,-0.7866593450000079,-0.0028333392800108247,-2.3566758450000016,-0.0008814390635036699,1.5708197799999994,0.7865026550000019,0.03999998835,0.03999991015,-9.819712550000007,-0.02124638780951471,-0.00474126627995999,0.01999964240005033,-0.022118611261271157,0.005450233435013792
0.62,-0.001208748100005014,-0.7866888800000077,-0.002873751020010585,-2.3566822800000016,-0.0008951396540035886,1.5708176199999995,0.7865097200000019,0.0399999894,0.0399999106,-9.819741200000008,-0.021245402097701743,-0.004591900119960876,0.020187533600049216,-0.022203117609046114,0.005501720740013486
0.6225,-0.0012278905750049013,-0.7867184150000075,-0.0029141627600103473,-2.3566887150000015,-0.0009088402445035079,1.5708154599999995,0.7865167850000019,0.03999999045,0.039999911049999996,-9.819769850000007,-0.02124441638588877,-0.004442533959961755,0.020375424800048107,-0.022287623956821077,0.005553208045013183
0.625,-0.0012470330500047877,-0.7867479500000074,-0.0029545745000101073,-2.3566951500000015,-0.0009225408350034267,1.5708132999999995,0.7865238500000018,0.039999991500000005,0.0399999115,-9.819798500000008,-0.021243430674075803,-0.004293167799962642,0.020563316000046995,-0.022372130304596036,0.005604695350012878
0.6275000000000001,-0.001266175525004675,-0.7867774850000072,-0.0029949862400098694,-2.3567015850000015,-0.000936241425503346,1.5708111399999996,0.7865309150000017,0.03999999255,0.03999991195,-9.819827150000007,-0.021242444962262835,-0.004143801639963521,0.020751207200045887,-0.022456636652371,0.005656182655012575
0.63,-0.0012853180000045614,-0.786807020000007,-0.0030353979800096294,-2.3567080200000015,-0.0009499420160032647,1.5708089799999994,0.7865379800000017,0.039999993600000006,0.0399999124,-9.819855800000006,-0.021241459250449863,-0.003994435479964408,0.02093909840004477,-0.02254114300014596,0.005707669960012269
0.6325000000000001,-0.0013044604750044487,-0.7868365550000068,-0.0030758097200093916,-2.3567144550000014,-0.0009636426065031841,1.5708068199999994,0.7865450450000017,0.03999999465,0.03999991285,-9.819884450000007,-0.021240473538636895,-0.0038450693199652873,0.021126989600043666,-0.022625649347920922,0.0057591572650119655
0.635,-0.0013243837700048775,-0.7868673800000076,-0.003117864810010295,-2.3567209900000017,-0.00097789979300349,1.5708046599999994,0.7865524030000018,0.0399999955,0.0399999127,-9.819899800000002,-0.02122998833655941,-0.003685195439960351,0.021318337200046358,-0.02271136883648317,0.005811812130012783
0.6375000000000001,-0.0013446974750051736,-0.7868988500000079,-0.00316074157501092,-2.3567275750000016,-0.000992435277503702,1.5708024999999994,0.7865599075000019,0.03999999625,0.03999991225,-9.819908500000002,-0.021214753389354593,-0.0035200676999579445,0.021511413000049173,-0.02279769489543844,0.0058650507750135595
0.64,-0.0013650111800054688,-0.7869303200000084,-0.003203618340011543,-2.3567341600000016,-0.0010069707620039131,1.5708003399999995,0.786567412000002,0.039999997,0.039999911799999996,-9.819917200000003,-0.021199518442149776,-0.003354939959955545,0.021704488800051977,-0.0228840209543937,0.0059182894200143325
0.6425,-0.001385324885005764,-0.7869617900000089,-0.003246495105012166,-2.356740745000002,-0.0010215062465041243,1.5707981799999995,0.7865749165000021,0.03999999775,0.03999991135,-9.819925900000003,-0.02118428349494496,-0.0031898122199531453,0.021897564600054785,-0.022970347013348966,0.005971528065015106
0.645,-0.0014056385900060601,-0.7869932600000094,-0.003289371870012791,-2.356747330000002,-0.0010360417310043362,1.5707960199999993,0.7865824210000023,0.0399999985,0.0399999109,-9.819934600000003,-0.021169048547740144,-0.0030246844799507386,0.022090640400057596,-0.023056673072304235,0.006024766710015882
0.6475,-0.0014259522950063551,-0.7870247300000098,-0.0033322486350134137,-2.356753915000002,-0.0010505772155045474,1.5707938599999993,0.7865899255000024,0.03999999925,0.03999991045,-9.819943300000004,-0.021153813600535327,-0.0028595567399483392,0.022283716200060404,-0.023142999131259497,0.006078005355016656
0.65,-0.001446266000007045,-0.787056200000011,-0.0033751254000148672,-2.3567605000000023,-0.00106511270000504,1.5707916999999993,0.7865974300000026,0.04,0.03999991,-9.819951999999999,-0.02113857865332707,-0.002694428999941329,0.022476792000064885,-0.02322932519021487,0.006131244000017897
0.6525,-0.0014677821650069174,-0.7870896125000107,-0.003420532815014598,-2.3567676550000023,-0.0010805057900049489,1.5707894949999994,0.7866053905000026,0.03999999925,0.0399999094,-9.8199487,-0.021112845931193832,-0.002515241084942392,0.02267496090006371,-0.02331596584993405,0.006185904045017573
0.655,-0.0014892983300067906,-0.7871230250000105,-0.0034659402300143308,-2.3567748100000023,-0.0010958988800048581,1.5707872899999993,0.7866133510000025,0.0399999985,0.0399999088,-9.8199454,-0.021087113209060586,-0.002336053169943447,0.022873129800062543,-0.023402606509653236,0.006240564090017251
0.6575,-0.001510814495006663,-0.7871564375000103,-0.0035113476450140614,-2.3567819650000024,-0.0011112919700047668,1.5707850849999994,0.7866213115000025,0.03999999775,0.0399999082,-9.819942099999999,-0.021061380486927343,-0.0021568652549445104,0.023071298700061367,-0.023489247169372417,0.006295224135016927
0.66,-0.0015323306600065363,-0.7871898500000102,-0.003556755060013794,-2.3567891200000024,-0.001126685060004676,1.5707828799999994,0.7866292720000024,0.039999997,0.0399999076,-9.8199388,-0.0210356477647941,-0.001977677339945566,0.0232694676000602,-0.0235758878290916,0.006349884180016605
0.6625,-0.0015538468250064085,-0.78722326250001,-0.0036021624750135245,-2.3567962750000024,-0.0011420781500045849,1.5707806749999995,0.7866372325000024,0.03999999625,0.039999907,-9.819935499999998,-0.021009915042660858,-0.0017984894249466288,0.023467636500059025,-0.023662528488810782,0.006404544225016281
0.665,-0.0015753629900062819,-0.7872566750000097,-0.0036475698900132573,-2.356803430000002,-0.0011574712400044941,1.5707784699999994,0.7866451930000024,0.0399999955,0.0399999064,-9.819932199999998,-0.020984182320527615,-0.001619301509947684,0.02366580540005786,-0.023749169148529967,0.006459204270015959
0.6675,-0.0015972901900065586,-0.7872907625000103,-0.0036938424000138395,-2.3568107050000022,-0.001173157230004691,1.5707762349999994,0.7866532950000025,0.039999995,0.03999990545,-9.819947550000014,-0.020954342279572193,-0.0014362950329450369,0.02386559910005854,-0.02383656473832899,0.006514377435016202
0.67,-0.00162003946000658,-0.7873262000000103,-0.003741845100013884,-2.3568182200000023,-0.0011894290200047063,1.5707739399999994,0.7866616800000025,0.039999995,0.0399999038,-9.820000200000015,-0.020916287600983054,-0.0012456514319448592,0.024068642400058727,-0.023925470188285735,0.006570576840016254
0.6725,-0.0016427887300066,-0.7873616375000103,-0.003789847800013927,-2.3568257350000024,-0.0012057008100047207,1.5707716449999993,0.7866700650000025,0.039999995,0.03999990215,-9.820052850000014,-0.020878232922393915,-0.0010550078309446897,0.024271685700058908,-0.02401437563824248,0.006626776245016305
0.675,-0.0016655380000066213,-0.7873970750000103,-0.0038378505000139715,-2.356833250000002,-0.001221972600004736,1.5707693499999993,0.7866784500000025,0.039999995,0.0399999005,-9.820105500000015,-0.020840178243804772,-0.000864364229944512,0.0244747290000591,-0.024103281088199226,0.006682975650016357
0.6775,-0.0016882872700066415,-0.7874325125000103,-0.003885853200014014,-2.356840765000002,-0.0012382443900047504,1.5707670549999995,0.7866868350000025,0.039999995,0.03999989885,-9.820158150000015,-0.020802123565215633,-0.0006737206289443426,0.024677772300059277,-0.024192186538155972,0.006739175055016407
0.68,-0.0017110365400066626,-0.7874679500000104,-0.003933855900014059,-2.356848280000002,-0.0012545161800047657,1.5707647599999994,0.7866952200000025,0.039999995,0.0399998972,-9.820210800000014,-0.020764068886626495,-0.00048307702794416494,0.024880815600059468,-0.024281091988112718,0.00679537446001646
0.6825,-0.0017337858100066829,-0.7875033875000104,-0.003981858600014101,-2.356855795000002,-0.00127078797000478,1.5707624649999994,0.7867036050000025,0.039999995,0.03999989555,-9.820263450000015,-0.020726014208037356,-0.0002924334269439955,0.025083858900059645,-0.024369997438069464,0.0068515738650165095
0.685,-0.0017573771900071856,-0.7875401950000112,-0.00403163355001516,-2.356863420000002,-0.0012876602600051389,1.5707599299999992,0.7867123100000026,0.0399999955,0.0399998955,-9.820294500000006,-0.02068111561237315,-8.878847393711497e-05,0.025290206600062242,-0.024459799006608298,0.006908550230017166
0.6875,-0.0017813896250073707,-0.7875776875000114,-0.004082294625015551,-2.3568711000000024,-0.0013048328000052711,1.5707572749999992,0.7867211750000027,0.03999999625,0.03999989625,-9.820314750000005,-0.020632795058175942,0.00012135715506450512,0.025498206500063847,-0.024550048634437577,0.006965915075017608
0.6900000000000001,-0.0018054020600075569,-0.7876151800000117,-0.0041329557000159434,-2.3568787800000024,-0.0013220053400054043,1.570754619999999,0.7867300400000028,0.039999997,0.039999897,-9.820335000000005,-0.020584474503978732,0.0003315027840661345,0.02570620640006546,-0.024640298262266862,0.007023279920018053
0.6925,-0.001829414495007742,-0.7876526725000121,-0.004183616775016334,-2.3568864600000023,-0.0013391778800055367,1.570751964999999,0.7867389050000029,0.03999999775,0.03999989775,-9.820355250000006,-0.020536153949781526,0.0005416484130677546,0.025914206300067064,-0.024730547890096145,0.007080644765018495
0.6950000000000001,-0.0018534269300079281,-0.7876901650000124,-0.004234277850016727,-2.3568941400000023,-0.0013563504200056699,1.5707493099999992,0.786747770000003,0.0399999985,0.0399998985,-9.820375500000006,-0.020487833395584316,0.0007517940420693841,0.026122206200068675,-0.02482079751792543,0.007138009610018941
0.6975,-0.0018774393650081134,-0.7877276575000127,-0.004284938925017118,-2.3569018200000027,-0.0013735229600058021,1.570746654999999,0.786756635000003,0.03999999925,0.03999989925,-9.820395750000007,-0.02043951284138711,0.0009619396710710041,0.02633020610007028,-0.02491104714575471,0.0071953744550193825
0.7000000000000001,-0.0019014518000087463,-0.7877651500000137,-0.004335600000018451,-2.3569095000000027,-0.0013906955000062538,1.570743999999999,0.7867655000000032,0.04,0.0399999,-9.820416000000003,-0.02039119228718476,0.0011720853000798705,0.026538206000073502,-0.02500129677358465,0.007252739300020369
0.7025,-0.0019267567850084235,-0.7878047215000132,-0.00438898084501777,-2.3569175550000026,-0.001408789355006023,1.570741269999999,0.7867748540000031,0.03999999925,0.039999898049999996,-9.820425150000004,-0.020328008383491414,0.0014031691950769233,0.026750858900070788,-0.025093447417051384,0.007311670955019617
0.705,-0.0019520617700081008,-0.7878442930000127,-0.004442361690017089,-2.3569256100000024,-0.0014268832100057922,1.5707385399999991,0.786784208000003,0.0399999985,0.039999896099999994,-9.820434300000002,-0.020264824479798063,0.0016342530900739758,0.026963511800068077,-0.025185598060518122,0.007370602610018866
0.7075,-0.0019773667550077793,-0.7878838645000121,-0.00449574253501641,-2.3569336650000023,-0.0014449770650055622,1.570735809999999,0.7867935620000029,0.03999999775,0.03999989415,-9.820443450000003,-0.020201640576104712,0.0018653369850710388,0.027176164700065373,-0.02527774870398486,0.007429534265018117
0.71,-0.0020026717400074565,-0.7879234360000117,-0.004549123380015729,-2.3569417200000022,-0.0014630709200053316,1.5707330799999992,0.7868029160000027,0.039999997,0.0399998922,-9.820452600000003,-0.02013845667241136,0.0020964208800680916,0.027388817600062662,-0.025369899347451593,0.007488465920017365
0.7125,-0.0020279767250071345,-0.7879630075000111,-0.004602504225015051,-2.356949775000002,-0.0014811647750051016,1.5707303499999992,0.7868122700000026,0.03999999625,0.039999890249999996,-9.820461750000003,-0.020075272768718008,0.0023275047750651546,0.027601470500059958,-0.025462049990918334,0.007547397575016616
0.715,-0.002053281710006812,-0.7880025790000107,-0.00465588507001437,-2.356957830000002,-0.0014992586300048708,1.570727619999999,0.7868216240000026,0.0399999955,0.039999888299999994,-9.820470900000002,-0.02001208886502466,0.002558588670062207,0.027814123400057244,-0.025554200634385068,0.007606329230015864
0.7175,-0.002079027150007011,-0.788042852000011,-0.004710192720014788,-2.356966070000002,-0.0015176663550050121,1.5707248749999991,0.7868311320000027,0.03999999525,0.039999887,-9.820484150000006,-0.01994495317337915,0.002792116730062777,0.0280283033500572,-0.025646801851714387,0.007665681150015849
0.72,-0.002105653500007216,-0.7880845280000113,-0.004766353980015221,-2.356974680000002,-0.001536701820005159,1.5707220999999991,0.7868409480000027,0.039999996,0.039999887,-9.820505600000006,-0.0198699139058386,0.003030533120064615,0.028245537400058873,-0.0257403042167678,0.007725873600016314
0.7225,-0.0021322798500074225,-0.7881262040000117,-0.004822515240015656,-2.3569832900000023,-0.0015557372850053066,1.5707193249999991,0.7868507640000028,0.03999999675,0.039999887,-9.820527050000006,-0.01979487463829805,0.003268949510066464,0.02846277145006056,-0.02583380658182122,0.00778606605001678
0.725,-0.002158906200007628,-0.7881678800000119,-0.0048786765000160895,-2.3569919000000024,-0.0015747727500054535,1.570716549999999,0.7868605800000028,0.0399999975,0.039999887,-9.820548500000006,-0.019719835370757503,0.0035073659000683017,0.028680005500062233,-0.025927308946874637,0.007846258500017245
0.7275,-0.0021855325500078344,-0.7882095560000123,-0.004934837760016525,-2.3570005100000024,-0.001593808215005601,1.570713774999999,0.786870396000003,0.03999999825,0.039999887,-9.820569950000007,-0.01964479610321695,0.0037457822900701506,0.028897239550063916,-0.026020811311928058,0.007906450950017711
0.73,-0.00221215890000804,-0.7882512320000126,-0.004990999020016957,-2.3570091200000025,-0.0016128436800057478,1.570710999999999,0.786880212000003,0.039999999,0.039999887,-9.820591400000007,-0.019569756835676404,0.003984198680071988,0.029114473600065593,-0.02611431367698147,0.007966643400018174
0.7325,-0.0022387852500082464,-0.7882929080000128,-0.005047160280017393,-2.3570177300000026,-0.0016318791450058952,1.570708224999999,0.7868900280000031,0.03999999975,0.039999887,-9.820612850000007,-0.01949471756813585,0.004222615070073837,0.029331707650067276,-0.02620781604203489,0.00802683585001864
0.735,-0.0022663112400087525,-0.7883360400000137,-0.005105214930018459,-2.3570264700000028,-0.0016515559500062565,1.5707053899999992,0.7869001800000033,0.0399999995,0.0399998859,-9.820652300000015,-0.01941082701084234,0.004470995220079267,0.029552033300069416,-0.02630271594974401,0.008088014400019293
0.7375,-0.0022942870500087787,-0.7883799000000137,-0.005164216275018514,-2.3570352750000025,-0.001671553425006275,1.570702524999999,0.7869105000000033,0.03999999875,0.03999988425,-9.820700750000015,-0.019322510808678563,0.004724357250079503,0.02977390475006962,-0.026398314628779996,0.008149686000019352
0.74,-0.0023222628600088036,-0.7884237600000138,-0.0052232176200185665,-2.3570440800000028,-0.001691550900006293,1.5706996599999992,0.7869208200000033,0.039999998,0.039999882599999995,-9.820749200000016,-0.01923419460651479,0.004977719280079728,0.02999577620006982,-0.026493913307815982,0.008211357600019406
0.7425,-0.0023502386700088294,-0.7884676200000138,-0.005282218965018621,-2.3570528850000025,-0.0017115483750063116,1.570696794999999,0.7869311400000033,0.03999999725,0.03999988095,-9.820797650000015,-0.01914587840435101,0.005231081310079965,0.030217647650070026,-0.02658951198685197,0.008273029200019464
0.745,-0.0023782144800088543,-0.7885114800000138,-0.005341220310018674,-2.3570616900000028,-0.0017315458500063293,1.5706939299999991,0.7869414600000033,0.0399999965,0.0399998793,-9.820846100000015,-0.019057562202187236,0.005484443340080189,0.030439519100070225,-0.026685110665887957,0.008334700800019518
0.7475,-0.0024061902900088805,-0.7885553400000139,-0.005400221655018729,-2.357070495000003,-0.001751543325006348,1.570691064999999,0.7869517800000033,0.03999999575,0.039999877649999994,-9.820894550000014,-0.01896924600002346,0.005737805370080426,0.03066139055007043,-0.026780709344923947,0.008396372400019576
0.75,-0.0024341661000093434,-0.7885992000000146,-0.005459223000019704,-2.357079300000003,-0.0017715408000066781,1.570688199999999,0.7869621000000034,0.039999995,0.039999876,-9.820942999999996,-0.018880929797855134,0.005991167400087366,0.030883262000072024,-0.026876308023959992,0.008458044000020053
0.7525000000000001,-0.002463519045009171,-0.7886452950000143,-0.00552112159501934,-2.357088375000003,-0.0017925196950065547,1.570685079999999,0.7869729300000033,0.03999999575,0.039999875399999996,-9.820931299999996,-0.018778312392500753,0.00626562609008575,0.031109521700070693,-0.02697210256013278,0.008521043550019683
0.755,-0.0024928719900089965,-0.7886913900000141,-0.005583020190018972,-2.357097450000003,-0.0018134985900064302,1.570681959999999,0.7869837600000033,0.0399999965,0.039999874799999995,-9.820919599999996,-0.018675694987146375,0.006540084780084121,0.03133578140006935,-0.02706789709630557,0.008584043100019308
0.7575000000000001,-0.002522224935008824,-0.7887374850000138,-0.005644918785018608,-2.357106525000003,-0.0018344774850063065,1.5706788399999991,0.7869945900000033,0.03999999725,0.0399998742,-9.820907899999996,-0.018573077581791997,0.006814543470082505,0.031562041100068015,-0.02716369163247836,0.008647042650018939
0.76,-0.0025515778800086495,-0.7887835800000136,-0.00570681738001824,-2.357115600000003,-0.001855456380006182,1.570675719999999,0.7870054200000032,0.039999998,0.0399998736,-9.820896199999996,-0.01847046017643762,0.007089002160080877,0.03178830080006668,-0.027259486168651148,0.008710042200018564
0.7625000000000001,-0.002580930825008477,-0.7888296750000132,-0.005768715975017876,-2.357124675000003,-0.0018764352750060586,1.570672599999999,0.7870162500000031,0.03999999875,0.039999873,-9.820884499999996,-0.018367842771083238,0.007363460850079261,0.03201456050006535,-0.027355280704823938,0.008773041750018194
0.765,-0.0026102837700083025,-0.788875770000013,-0.0058306145700175085,-2.3571337500000027,-0.001897414170005934,1.5706694799999992,0.787027080000003,0.0399999995,0.0399998724,-9.820872799999997,-0.018265225365728863,0.007637919540077632,0.032240820200064,-0.027451075240996724,0.008836041300017819
0.7675000000000001,-0.0026401047150087283,-0.7889226120000137,-0.005893497885018404,-2.357143080000003,-0.0019187265450062376,1.5706662949999992,0.7870380775000032,0.0399999995,0.0399998714,-9.820866550000002,-0.018151117023041625,0.00792235265008638,0.03246849900006542,-0.02754736552017706,0.00889947805001825
0.77,-0.0026708616600091754,-0.7889709480000143,-0.005958350640019347,-2.357152920000003,-0.0019407058800065568,1.5706629799999992,0.7870494100000034,0.039999998,0.0399998696,-9.820871200000001,-0.018014026805717523,0.008226734600090803,0.03269901600006877,-0.02764464728537122,0.008963789200019185
0.7725,-0.0027016186050096225,-0.7890192840000151,-0.0060232033950202895,-2.357162760000003,-0.0019626852150068765,1.570659664999999,0.7870607425000036,0.0399999965,0.0399998678,-9.82087585,-0.01787693658839342,0.008531116550095226,0.03292953300007212,-0.027741929050565384,0.00902810035002012
0.775,-0.0027323755500100705,-0.7890676200000158,-0.006088056150021235,-2.3571726000000033,-0.0019846645500071966,1.570656349999999,0.7870720750000036,0.039999994999999997,0.039999865999999995,-9.820880500000001,-0.017739846371069314,0.008835498500099662,0.03316005000007548,-0.027839210815759553,0.009092411500021057
0.7775,-0.0027631324950105176,-0.7891159560000165,-0.0061529089050221765,-2.3571824400000034,-0.002006643885007516,1.570653034999999,0.7870834075000038,0.0399999935,0.0399998642,-9.82088515,-0.01760275615374521,0.009139880450104085,0.03339056700007883,-0.027936492580953716,0.009156722650021992
0.78,-0.002793889440010966,-0.7891642920000173,-0.006217761660023122,-2.357192280000003,-0.0020286232200078364,1.570649719999999,0.787094740000004,0.039999992,0.039999862399999996,-9.820889800000002,-0.017465665936421106,0.009444262400108521,0.03362108400008219,-0.028033774346147886,0.009221033800022928
0.7825,-0.0028246463850114126,-0.7892126280000179,-0.006282614415024064,-2.3572021200000033,-0.0020506025550081556,1.5706464049999989,0.7871060725000042,0.0399999905,0.0399998606,-9.82089445,-0.017328575719097003,0.009748644350112945,0.03385160100008553,-0.028131056111342048,0.009285344950023863
0.785,-0.0028563566700119734,-0.7892624860000188,-0.0063494731300252445,-2.3572120600000037,-0.0020732613200085555,1.5706430699999987,0.7871177650000044,0.0399999905,0.03999986,-9.820947400000028,-0.01721027940507647,0.010050079400111584,0.0340848987000873,-0.028230626694895535,0.009350539800024416
0.7875,-0.0028885436250117823,-0.7893131050000185,-0.006417334825024841,-2.3572220500000034,-0.002096259800008419,1.5706397249999988,0.7871296375000043,0.03999999125,0.03999986,-9.821024500000028,-0.017101380042691836,0.010350041000109805,0.03431958675008591,-0.028331341687626743,0.009416176500024027
0.79,-0.002920730580011593,-0.7893637240000182,-0.006485196520024442,-2.3572320400000035,-0.0021192582800082837,1.570636379999999,0.7871415100000043,0.039999992,0.03999986,-9.821101600000027,-0.016992480680307197,0.010650002600108038,0.03455427480008453,-0.028432056680357955,0.00948181320002364
0.7925,-0.002952917535011402,-0.7894143430000179,-0.00655305821502404,-2.3572420300000037,-0.002142256760008147,1.5706330349999988,0.7871533825000042,0.039999992750000005,0.03999986,-9.821178700000027,-0.016883581317922565,0.01094996420010626,0.034788962850083135,-0.028532771673089163,0.009547449900023252
0.795,-0.0029851044900112123,-0.7894649620000176,-0.00662091991002364,-2.3572520200000033,-0.0021652552400080118,1.570629689999999,0.7871652550000041,0.039999993500000004,0.03999986,-9.821255800000026,-0.016774681955537926,0.011249925800104492,0.035023650900081756,-0.028633486665820374,0.009613086600022865
0.7975,-0.0030172914450110216,-0.7895155810000173,-0.006688781605023238,-2.3572620100000035,-0.002188253720007875,1.5706263449999989,0.7871771275000041,0.039999994250000004,0.03999986,-9.821332900000026,-0.01666578259315329,0.011549887400102713,0.03525833895008036,-0.028734201658551582,0.009678723300022476
0.8,-0.003049478400011322,-0.7895662000000179,-0.006756643300023868,-2.3572720000000036,-0.002211252200008089,1.570622999999999,0.7871890000000042,0.039999995,0.03999986,-9.821409999999991,-0.01655688323075736,0.011849849000108804,0.035493027000080356,-0.028834916651282617,0.00974436000002243
0.8025,-0.003083121015011352,-0.7896191500000179,-0.006827567755023931,-2.3572822450000035,-0.0022352880500081103,1.570619534999999,0.7872014200000043,0.039999995,0.0399998597,-9.821385999999992,-0.016414424404453763,0.012173157200109091,0.03573178440008056,-0.028935105819288893,0.00981100950002249
0.805,-0.003116763630011383,-0.789672100000018,-0.006898492210023997,-2.3572924900000034,-0.0022593239000081324,1.570616069999999,0.7872138400000042,0.039999995,0.0399998594,-9.821361999999992,-0.01627196557815016,0.012496465400109392,0.03597054180008079,-0.02903529498729517,0.009877659000022552
0.8075,-0.003150406245011413,-0.789725050000018,-0.006969416665024061,-2.3573027350000038,-0.002283359750008154,1.5706126049999989,0.7872262600000042,0.039999995,0.0399998591,-9.821337999999992,-0.016129506751846562,0.01281977360010968,0.036209299200081,-0.029135484155301445,0.00994430850002261
0.81,-0.0031840488600114445,-0.7897780000000181,-0.007040341120024126,-2.3573129800000037,-0.0023073956000081762,1.5706091399999988,0.7872386800000042,0.039999995,0.039999858799999996,-9.821313999999992,-0.01598704792554296,0.013143081800109981,0.03644805660008122,-0.02923567332330772,0.010010958000022673
0.8125,-0.003217691475011474,-0.7898309500000181,-0.00711126557502419,-2.3573232250000036,-0.0023314314500081975,1.5706056749999988,0.7872511000000042,0.039999995,0.0399998585,-9.82128999999999,-0.015844589099239362,0.013466390000110268,0.03668681400008143,-0.029335862491313994,0.010077607500022732
0.8150000000000001,-0.0032513340900115054,-0.7898839000000182,-0.007182190030024255,-2.3573334700000035,-0.00235546730000822,1.5706022099999988,0.7872635200000042,0.039999995,0.0399998582,-9.82126599999999,-0.01570213027293576,0.01378969820011057,0.03692557140008166,-0.029436051659320273,0.010144257000022795
0.8175,-0.003285470225012123,-0.7899376250000191,-0.0072541528350255555,-2.357343995000004,-0.00237985478000866,1.5705986449999987,0.7872761180000044,0.03999999525,0.0399998578,-9.82125165,-0.015553837269489373,0.01411970805011853,0.03716561555008374,-0.029536503274028573,0.010211399900023515
0.8200000000000001,-0.0033205934000123953,-0.7899929000000195,-0.0073281923400261295,-2.357355080000004,-0.0024049455200088545,1.5705948799999987,0.7872890720000045,0.039999996,0.0399998572,-9.821256600000002,-0.015393875911775387,0.014463121200121193,0.03740823320008563,-0.029637479782140114,0.010279529600024043
0.8225,-0.0033557165750126663,-0.79004817500002,-0.0074022318450267,-2.357366165000004,-0.002430036260009048,1.5705911149999985,0.7873020260000047,0.03999999675,0.0399998566,-9.821261550000001,-0.015233914554061409,0.014806534350123841,0.03765085085008749,-0.029738456290251652,0.010347659300024568
0.8250000000000001,-0.0033908397500129386,-0.7901034500000204,-0.007476271350027274,-2.3573772500000043,-0.0024551270000092427,1.5705873499999985,0.7873149800000048,0.0399999975,0.039999856,-9.821266500000002,-0.015073953196347424,0.015149947500126503,0.03789346850008938,-0.029839432798363198,0.010415789000025096
0.8275,-0.0034259629250132095,-0.7901587250000208,-0.007550310855027845,-2.3573883350000044,-0.002480217740009436,1.5705835849999985,0.7873279340000049,0.03999999825,0.0399998554,-9.821271450000001,-0.014913991838633447,0.015493360650129151,0.038136086150091245,-0.029940409306474736,0.010483918700025623
0.8300000000000001,-0.003461086100013482,-0.7902140000000213,-0.007624350360028419,-2.357399420000004,-0.0025053084800096305,1.5705798199999985,0.787340888000005,0.039999999,0.0399998548,-9.8212764,-0.014754030480919462,0.015836773800131813,0.03837870380009313,-0.030041385814586277,0.01055204840002615
0.8325,-0.0034962092750137523,-0.7902692750000216,-0.007698389865028989,-2.3574105050000043,-0.0025303992200098237,1.5705760549999985,0.7873538420000051,0.03999999975,0.039999854200000004,-9.821281350000001,-0.014594069123205483,0.016180186950134463,0.038621321450094996,-0.030142362322697815,0.010620178100026675
0.835,-0.0035323356800142907,-0.7903261700000226,-0.007774540030030122,-2.3574216400000045,-0.0025562047900102077,1.5705721999999984,0.7873671610000053,0.04,0.039999854,-9.821334150000029,-0.014424800127676803,0.01653692020014178,0.03886649380009616,-0.030246080085676162,0.010689089050027039
