rsonawane2002/My_IMU/logs_3/traj_251/clean_251.csv
time,j1,j2,j3,j4,j5,j6,j7,gripper1,gripper2,imu_ax,imu_ay,imu_az,imu_gx,imu_gy,imu_gz,quat_x,quat_y,quat_z,quat_w
1.0333333333333345,0.00016703313,-0.78463066,4.018289e-05,-2.3561552,9.3351664e-05,1.5709763,0.7860001,1.2118691e-05,1.21186895e-05,0.0,-0.0,0.0,2.972376988594288e-08,-0.012697867464917412,3.1608473627626904e-07,0.9999999412467147,0.00020324559723577538,-0.00027413488670171,3.237064284739225e-05
1.0500000000000012,0.00016664984,-0.7846152,3.9611015e-05,-2.3561676,0.00016116592,1.5709765,0.7859992,0.003145798,0.0031474053,-0.03804795402120309,-0.04943161223685238,0.003326082631316396,-1.7995160295108971e-06,-0.012836638617882638,-0.0007137107698440188,0.9999999356868958,0.00020320899480967252,-0.00028794689689933206,6.647475692817959e-05
1.0666666666666678,0.00016668496,-0.7846009,3.9784412e-05,-2.3561795,0.00015005111,1.5709765,0.7859992,0.0060938015,0.0060952725,0.0019805216666668457,0.05747027027073414,-0.0005937839592018435,2.810147287171822e-06,-0.012965994592409437,-0.0006353259709173916,0.9999999322001192,0.00020312846741885575,-0.0003010576884900577,6.085105554263559e-05
1.0833333333333344,0.00016665034,-0.78458786,4.0124432e-05,-2.356191,0.00014018909,1.5709769,0.7859992,0.008805985,0.008807338,0.0023071712612399153,-0.00105330753940331,-0.0002280201731430509,1.0771080496298218e-05,-0.013091770674553619,-0.0005713237391111452,0.9999999288102426,0.00020302398564429685,-0.00031312562687030646,5.579527578615488e-05
1.100000000000001,0.00016649508,-0.78457606,4.07916e-05,-2.3562024,0.0001313461,1.5709773,0.7859992,0.011301217,0.011302462,0.001421541499913026,-0.0010124522315787382,-0.0006199045458954444,2.5208254277961866e-05,-0.01321106159223702,-0.0005267602124983147,0.9999999254629179,0.00020286420538072474,-0.00032450827384555446,5.1133677665669504e-05
1.1166666666666676,0.00016615423,-0.78456503,4.1989504e-05,-2.3562136,0.00012328844,1.5709779,0.7860011,0.013596852,0.013597998,0.001299452871905693,-0.001007151005487188,-0.00024302820356147947,4.859005760092945e-05,-0.013330074619555569,-0.0005042459510333341,0.99999992197026,0.00020356323435727117,-0.0003353248115654865,4.667712659253857e-05
1.1333333333333342,0.0001655508,-0.7845552,4.396062e-05,-2.3562238,0.00011577625,1.5709788,0.786003,0.01570886,0.015709914,0.003013489633030275,-0.0010298903501318414,-6.833569410336082e-05,7.455537558299403e-05,-0.01345072453332182,-0.0005048392809809088,0.999999918781216,0.00020412004680119456,-0.0003449492603686827,4.22205633625225e-05
1.1500000000000008,0.00016459689,-0.78454614,4.6982288e-05,-2.3562338,0.000108561966,1.5709797,0.7860068,0.017651925,0.017652895,0.0012993260141813678,-0.0010758932986282884,-0.00024278034203017995,0.00011467613476640664,-0.013567215549330955,-0.0005314068398150955,0.9999999155330904,0.00020543413625130944,-0.0003540074200772436,3.7541635403456384e-05
1.1666666666666674,0.00016319501,-0.7845382,5.1362647e-05,-2.356244,0.00010139401,1.5709832,0.78601086,0.019439561,0.019440453,0.0016385104155469676,-0.0011449356843290287,0.001117958469198932,0.0001624565579908507,-0.01368934345693565,-0.0005847022421079642,0.9999999128379655,0.00020661078029841272,-0.00036136667057129376,3.240642522756338e-05
1.183333333333334,0.00016123934,-0.78453106,5.7437686e-05,-2.3562553,9.401477e-05,1.5709878,0.7860167,0.021084206,0.021085028,-0.0003867987672157014,-0.0012327194094716935,2.1025644825201084e-05,0.00022826097390576518,-0.013805039921664191,-0.0006667805580025078,0.9999999101477748,0.00020835883562211337,-0.0003682190251492463,2.6566658041279652e-05
1.2000000000000006,0.00015861612,-0.784525,6.556794e-05,-2.3562667,8.616332e-05,1.5709926,0.78602535,0.022597294,0.02259805,0.0008184520743137469,-0.0013384575864365707,-0.0006255306079117062,0.0003071416512087702,-0.013928291994682797,-0.0007785204010621182,0.9999999073596914,0.00021111415671947487,-0.0003745941740673936,1.976426903351704e-05
1.2166666666666672,0.00015520513,-0.78451973,7.6135184e-05,-2.3562782,7.7575605e-05,1.571001,0.7860368,0.02398935,0.023990046,0.0020908547341491612,-0.00146040058699118,0.0022823893365275794,0.0003969492280888434,-0.01406034848272343,-0.0009210453537825828,0.9999999051529688,0.00021480175948658043,-0.000378703832235343,1.1733082716752384e-05
1.2333333333333338,0.00015088008,-0.78451544,8.954041e-05,-2.35629,6.7984285e-05,1.5710118,0.78605074,0.025270052,0.025270693,0.0009600408590104692,-0.001595112538897871,0.0009342413217039436,0.0005005773386519296,-0.014184875375207965,-0.0010950876193516251,0.9999999032256555,0.00021919380623983085,-0.00038144190435123804,2.197456107514998e-06
1.2500000000000004,0.00014550965,-0.78451204,0.00010620091,-2.3563027,5.7120295e-05,1.5710242,0.786068,0.026448315,0.026448904,0.0003005402434919091,-0.0017423316025711323,0.00041638086278883435,0.0006220148143074063,-0.0143117810315275,-0.0013014034712982784,0.999999901287773,0.00022462546788181185,-0.00038325524025424157,-9.124915356148705e-06
1.266666666666667,0.00013895801,-0.78450966,0.00012654833,-2.3563178,4.471275e-05,1.5710404,0.7860893,0.027532326,0.027532868,-0.0017245869830206928,-0.0019002419670249675,0.0011978057068207093,0.0007595590235974924,-0.014446521203248852,-0.0015411794371705443,0.9999998993186291,0.00023133970261910648,-0.00038384558795497264,-2.252195582146268e-05
1.2833333333333337,0.00013108565,-0.78450817,0.0001510265,-2.3563366,3.0489407e-05,1.5710604,0.78611493,0.028529622,0.02853012,-0.004286801353092784,-0.0020670306669403446,0.0006215134584985904,0.0009126886616701258,-0.014587358429632392,-0.0018143149158596143,0.9999998968809645,0.00023942794787437197,-0.0003839875312161583,-3.8286995062435714e-05
1.3000000000000003,0.00012174992,-0.7845079,0.00018008964,-2.356356,1.4177746e-05,1.5710843,0.7861453,0.029447144,0.029447604,0.0017133474347286182,-0.002243734546391094,0.001954563457884362,0.0010825059410729968,-0.014742891355069315,-0.002122061906648427,0.9999998944792722,0.0002490091358641802,-0.00038186279502789466,-5.671596514006021e-05
1.3166666666666669,0.00011080525,-0.7845085,0.00021420018,-2.3563771,-4.495341e-06,1.5711119,0.78618085,0.030291276,0.0302917,-0.000980625776780819,-0.002425183834846214,0.0014457040448778713,0.001269661556262052,-0.01489684377138348,-0.0024648653004879953,0.9999998915474685,0.0002601711016593307,-0.00037830544391821713,-7.810915553694843e-05
1.3333333333333335,9.810409e-05,-0.7845103,0.00025382816,-2.356403,-2.5802126e-05,1.5711436,0.7862223,0.031067884,0.031068275,-0.005568418962531574,-0.002613273705058712,0.00023500031920420383,0.001474824996747416,-0.015058498169033175,-0.002841876464984748,0.9999998872588044,0.00027320859816024355,-0.00037453687210942354,-0.00010276950837399612
1.35,8.349708e-05,-0.78451324,0.00029944867,-2.3564308,-5.0014703e-05,1.571181,0.78626996,0.031782378,0.031782735,0.00022507198205179435,-0.00280813826571461,0.002873451578477848,0.0016970589673080303,-0.015239435965784358,-0.0032528259823131466,0.9999998821126258,0.00028820651328705473,-0.0003681723052282688,-0.00013099959546625042
1.3666666666666667,6.683359e-05,-0.7845174,0.00035154115,-2.3564615,-7.740526e-05,1.5712239,0.7863244,0.03243972,0.032440055,-0.0021867091751337497,-0.0030043507382906736,0.0018957118319118393,0.0019367325992245903,-0.015418387628993868,-0.0037011961512294577,0.9999998752752667,0.00030530864212566184,-0.00036004549775766335,-0.00016310525403110526
1.3833333333333333,4.796208e-05,-0.7845228,0.0004105878,-2.3564963,-0.00010824282,1.5712721,0.786386,0.033044465,0.03304477,-0.0038353158317239178,-0.0032051983336997504,0.0015888672265873538,0.002194441615937865,-0.015606055328281968,-0.00418263704482873,0.9999998659589384,0.00032465815405853597,-0.00035060263885181004,-0.0001993915190133431
1.4,2.6730342e-05,-0.7845292,0.00047707302,-2.3565345,-0.0001427967,1.5713266,0.7864555,0.03360085,0.03360113,-0.002525793613061822,-0.0034088671294175456,0.002511004651206683,0.0024703269886211204,-0.01580581694293048,-0.0047003001615287055,0.9999998536101784,0.0003464869257107062,-0.0003391870545231698,-0.00024016364033387395
1.4166666666666665,2.9859789e-06,-0.7845372,0.0005514819,-2.3565774,-0.00018133361,1.5713875,0.7865332,0.034112733,0.034112994,-0.004353865202566531,-0.003613326266895542,0.0017752516960456433,0.002763581074884483,-0.01601241337191556,-0.005252726315538423,0.9999998372274623,0.00037084800230184997,-0.0003261552080937665,-0.0002857264216364011
1.4333333333333331,-2.3423288e-05,-0.7845466,0.0006342994,-2.356626,-0.00022411863,1.5714555,0.78661966,0.034583665,0.03458391,-0.005917713251624157,-0.0038190059733739993,0.0018571865377570163,0.003075260352253014,-0.0162315179300122,-0.005841244576568906,0.99999981563953,0.00039797298903846963,-0.0003117441099884952,-0.00033638373317716524
1.4499999999999997,-5.264967e-05,-0.7845573,0.00072600954,-2.356677,-0.00027141316,1.5715308,0.7867154,0.035016928,0.03501715,-0.0003310414372625914,-0.00403039730944157,0.0037269474718382156,0.0034045993487183696,-0.016464698543631535,-0.006462486402933324,0.9999997881412303,0.00042797420899075983,-0.00029419382086844114,-0.00039243543048883355
1.4666666666666663,-8.484453e-05,-0.7845694,0.0008270946,-2.3567352,-0.00032347874,1.5716139,0.78682095,0.035415523,0.03541573,-0.0081224936950397,-0.004232504769062723,0.0017453852035664852,0.003751883118357385,-0.01669701965943517,-0.0071196437531591715,0.9999997525902339,0.0004610539351117886,-0.0002756184170480521,-0.00045418413463991586
1.483333333333333,-0.00012015876,-0.7845831,0.0009380345,-2.3567986,-0.00038057176,1.5717051,0.78693676,0.035782244,0.035782438,-0.004571068207548379,-0.0044426176700244685,0.002769069989505546,0.004116590521530633,-0.016949463295825983,-0.007810744693720869,0.9999997076704317,0.0004973251197033441,-0.00025479387233313244,-0.0005219261048831708
1.4999999999999996,-0.00015874201,-0.7845984,0.001059306,-2.3568652,-0.00044294697,1.5718044,0.78706336,0.036119618,0.036119796,-0.000925013302355282,-0.004652675910846128,0.0037349289181420886,0.004499090604841729,-0.017211252961028677,-0.008535416797228072,0.9999996516566423,0.000536960659740913,-0.00023064484011177077,-0.0005959553689171629
1.5166666666666662,-0.00020074296,-0.78461534,0.0011913822,-2.3569388,-0.0005108561,1.5719128,0.78720117,0.03643002,0.036430184,-0.007510720611447752,-0.0048535308583930485,0.0026198664999421695,0.004898890833084341,-0.017473662920113597,-0.009293679257599588,0.9999995819311657,0.0005800746017317241,-0.000204718274920818,-0.0006765658713681455
1.5333333333333328,-0.0002463089,-0.78463405,0.0013347316,-2.35702,-0.0005845469,1.5720304,0.78735065,0.036715582,0.03671574,-0.007643166159576609,-0.005057158297300784,0.0025882566044410638,0.005315997481499005,-0.017751651391935328,-0.010086425660858957,0.9999994960194931,0.0006268115571193285,-0.0001769216294680438,-0.0007640463130827824
1.5499999999999994,-0.0002955856,-0.7846545,0.0014898181,-2.357108,-0.0006642645,1.5721577,0.7875124,0.036978304,0.03697845,-0.007191207553436385,-0.005259733743794622,0.002994784192433819,0.0057505790601393835,-0.01804533828524696,-0.010911018852873808,0.9999993911110866,0.000677376216303427,-0.0001469830986199795,-0.0008586820636401273
1.566666666666666,-0.00034871715,-0.7846766,0.0016571011,-2.3572009,-0.0007502503,1.572295,0.7876869,0.03722001,0.037220143,-0.0027249288409691985,-0.0054672502229482405,0.004386890013252653,0.006201892719012407,-0.01835231381051294,-0.011767794925497888,0.9999992642084816,0.0007318841227278238,-0.00011349802796934656,-0.0009607529984408603
1.5833333333333326,-0.00040584616,-0.7847006,0.0018370337,-2.3572993,-0.0008427428,1.5724425,0.78787446,0.03744238,0.037442505,-0.004402222779709142,-0.005663924875510293,0.004103500442842467,0.006669784453854306,-0.01866029479964971,-0.012657184206812704,0.9999991116231154,0.0007904524090574149,-7.67302457320161e-05,-0.001070537453046799
1.5999999999999992,-0.00046711296,-0.7847265,0.0020300632,-2.3574054,-0.0009419753,1.5726011,0.78807575,0.037646964,0.037647083,-0.007323618454480041,-0.005857412472911445,0.003619740186988629,0.007154603304128173,-0.018973193185475547,-0.013577893287273528,0.9999989292144854,0.000853288193873896,-3.727082276850623e-05,-0.0011883097351510395
1.6166666666666658,-0.00053265615,-0.7847544,0.0022366303,-2.3575191,-0.0010481791,1.5727708,0.78829116,0.03783519,0.037835304,-0.007248576895313441,-0.006049723134957954,0.0037960438818318565,0.007654820688787156,-0.019298996225457127,-0.014530291036804543,0.999998712572824,0.0009205103460622568,5.0048622631541474e-06,-0.0013143395103540738
1.6333333333333324,-0.0006026125,-0.7847845,0.0024571691,-2.3576407,-0.0011615794,1.5729518,0.78852123,0.038008355,0.038008463,-0.007390650947636246,-0.006239773803078477,0.0035526523922690956,0.008171139596459945,-0.01963405673909894,-0.015512140856976858,0.9999984567723128,0.0009922987733313319,5.010285103402497e-05,-0.0014488912455898415
1.649999999999999,-0.00067711616,-0.78481674,0.0026921085,-2.35777,-0.0012823989,1.5731444,0.7887663,0.038167667,0.038167767,-0.006900741675086586,-0.006430292261880776,0.004047616716196245,0.008702259393315434,-0.019981389184496892,-0.016523797522121894,0.999998156464004,0.00106874363242016,9.835748249560417e-05,-0.0015922253129580623
1.6666666666666656,-0.0007562993,-0.7848509,0.002941867,-2.3579075,-0.0014108567,1.5733498,0.78902674,0.03831424,0.038314335,-0.00804085021866019,-0.00661129394826784,0.004657097322180448,0.00924862331959696,-0.020337487236345826,-0.01756479512582131,0.9999978058205636,0.001149906958341359,0.00014983541709455233,-0.0017445966276412115
1.6833333333333322,-0.0008402916,-0.7848874,0.0032068603,-2.3580544,-0.0015471667,1.5735676,0.78930306,0.038449094,0.038449183,-0.009314675729932276,-0.0067903456568875606,0.003723097400776254,0.009810588389670881,-0.020703867934637226,-0.018635214801751704,0.9999973984092233,0.0012360010421074046,0.00020409757350180833,-0.001906258216952862
1.6999999999999988,-0.0009292204,-0.78492594,0.0034874922,-2.3582113,-0.0016915399,1.5737981,0.78959566,0.038573153,0.038573243,-0.01071996711738965,-0.006961423054061347,0.0037098194882068114,0.010386918835943622,-0.021082492091519224,-0.01973474013654715,0.9999969274504852,0.001327120349516527,0.0002607947677004185,-0.0020774569204062374
1.7166666666666655,-0.001023211,-0.78496677,0.0037841604,-2.358377,-0.00184418,1.5740417,0.78990495,0.03868729,0.03868737,-0.008307277515884337,-0.007141756324142903,0.004588746351696926,0.010977473263892007,-0.021480139354067566,-0.020860110074480406,0.9999963852262149,0.0014233897901777938,0.00032091967410997587,-0.0022584301121826656
1.733333333333332,-0.001122386,-0.78500986,0.004097255,-2.358551,-0.0020052898,1.574299,0.79023135,0.038792294,0.03879237,-0.007383686484829788,-0.007314971594426286,0.005068153125176167,0.011582117741821017,-0.021888294137169355,-0.02201329457428529,0.9999957633927296,0.0015249349896513805,0.0003848994795531048,-0.002449412635700357
1.7499999999999987,-0.0012268649,-0.78505546,0.004427159,-2.3587334,-0.0021750676,1.5745697,0.7905753,0.038888894,0.038888976,-0.007158252632244455,-0.007482509303328869,0.00484284691988357,0.012200193019610237,-0.02230278173304755,-0.02319459571797456,0.9999950529665238,0.0016319130163922788,0.00045280461206023475,-0.002650635842519784
1.7666666666666653,-0.0013367657,-0.78510356,0.004774246,-2.358925,-0.0023537036,1.5748547,0.790937,0.038977783,0.038977858,-0.00851591545940611,-0.00764216094953289,0.005031039291369943,0.012831305890965946,-0.02272383561389858,-0.024399060573303495,0.9999942446440221,0.0017443032225396002,0.0005245866135414883,-0.0028623231795780655
1.7833333333333319,-0.0014522033,-0.78515404,0.005138881,-2.3591266,-0.0025413895,1.5751543,0.79131705,0.039059564,0.039059635,-0.009384023151337573,-0.007796094301058907,0.005057139579700554,0.013476336636239069,-0.02315155085257693,-0.02563041525316293,0.9999933280733081,0.0018623538873178973,0.0006000793839107913,-0.003084696354686517
1.7999999999999985,-0.0015732899,-0.7852069,0.005521421,-2.359339,-0.0027383068,1.5754687,0.79171586,0.039134797,0.039134867,-0.011337276610712266,-0.007942263043665037,0.004692094467162455,0.01413328058432713,-0.02359038088629871,-0.02688545290192537,0.9999922926225884,0.0019861961700080467,0.0006788193904820739,-0.0033179699258460535
1.816666666666665,-0.001700135,-0.7852625,0.005922216,-2.359561,-0.002944636,1.575798,0.7921336,0.039204005,0.039204076,-0.00843346157028968,-0.008104751765955227,0.0053119577460680745,0.014801922371337642,-0.024042424327591457,-0.028165267624959897,0.9999911262017844,0.002115841879191535,0.0007618337174095983,-0.003562350378048995
1.8333333333333317,-0.0018328457,-0.7853207,0.0063416045,-2.3597927,-0.0031605514,1.5761423,0.7925708,0.039267685,0.039267752,-0.009075878859654551,-0.008245762605382182,0.0052123848983010035,0.01548249388137469,-0.024502450930324625,-0.029467453271629022,0.9999898164179081,0.002251454872822753,0.0008488693595300311,-0.0038180403670384395
1.8499999999999983,-0.001971526,-0.7853817,0.0067799194,-2.3600352,-0.003386225,1.5765023,0.7930277,0.039326273,0.03932634,-0.010170399595699209,-0.008383448352990066,0.005264281211148081,0.016174218890631056,-0.024970781890069047,-0.030793168700777085,0.9999883501301889,0.002393078583312852,0.0009400016770713956,-0.004085238749930269
1.866666666666665,-0.0021162785,-0.78544515,0.0072374837,-2.360288,-0.0036218232,1.576878,0.7935047,0.03938016,0.039380226,-0.009728244576301392,-0.008522436581134656,0.005554577130650884,0.01687700361635442,-0.0254494368332168,-0.0321408642409628,0.9999867131368576,0.0025408781116043827,0.0010352776707779354,-0.004364136605365328
1.8833333333333315,-0.0022672007,-0.7855115,0.0077146143,-2.3605516,-0.0038675058,1.5772698,0.79400206,0.03942974,0.03942981,-0.010361144148451906,-0.008656024035767242,0.005469100608790356,0.01759012352592846,-0.02593626220352746,-0.03351073086300554,0.9999848906593066,0.0026948690836451536,0.001134834145974032,-0.00465492053399573
1.8999999999999981,-0.00242439,-0.7855807,0.008211613,-2.3608265,-0.0041234326,1.5776778,0.79452014,0.03947535,0.039475422,-0.010768469382194112,-0.008773027555105273,0.005356214088458877,0.018313748633765593,-0.026432124255158902,-0.034900481589751474,0.9999828670160332,0.0028551912032200684,0.001238571028986543,-0.004957771615703965
1.9166666666666647,-0.0025879384,-0.78565264,0.008728779,-2.3611124,-0.004389755,1.5781028,0.7950592,0.039517324,0.03951739,-0.010268439814042907,-0.00890839782547899,0.006058528299646149,0.01904684166346795,-0.02693860422540233,-0.03630938564722737,0.9999806252607709,0.003021889815413703,0.001346925327585019,-0.0052728623330229995
1.9333333333333313,-0.0027579372,-0.7857275,0.009266404,-2.3614092,-0.004666619,1.5785441,0.79561967,0.039555952,0.03955602,-0.010261870356664815,-0.009028943756545817,0.005509407101933483,0.019789336737471727,-0.027451931812342283,-0.03773852311461206,0.9999781479981803,0.0031951057883987197,0.001459709750822788,-0.0056003636108373335
1.949999999999998,-0.0029344752,-0.78580517,0.009824768,-2.361718,-0.0049541728,1.5790029,0.79620177,0.039591476,0.039591543,-0.011677443884861027,-0.009131666968415289,0.005936187078292576,0.020540756348662488,-0.027974345897087066,-0.039186428546118146,0.9999754169654416,0.0033748885664996765,0.001576946268625684,-0.005940440423123107
1.9666666666666646,-0.0031176372,-0.78588593,0.010404137,-2.3620377,-0.0052525504,1.5794787,0.7968057,0.03962417,0.039624237,-0.00980105847221413,-0.009254278753423155,0.006019056881112483,0.021300393425483972,-0.0285077357901833,-0.04065237037951434,0.9999724122823471,0.003561262475262138,0.00169916435101858,-0.006293244339298143
1.9833333333333312,-0.003307505,-0.7859695,0.011004776,-2.3623695,-0.0055618887,1.579972,0.7974317,0.03965424,0.03965431,-0.012087395525095523,-0.009344707578380195,0.0058154323500758665,0.022068609720494833,-0.029046049247750807,-0.04213661673661425,0.9999691147095685,0.0037543088308589594,0.001825762504193843,-0.006658932605353075
1.9999999999999978,-0.0035041596,-0.7860562,0.01162694,-2.3627133,-0.005882317,1.5804828,0.7980801,0.03968191,0.03968198,-0.011249151212333608,-0.009451817509485965,0.005805733087083098,0.022844757138153357,-0.029595897275805163,-0.04363591425981285,0.9999655025904377,0.003954082441717047,0.0019571236342468376,-0.007037650757017906
2.0166666666666644,-0.0037076771,-0.78614575,0.012270874,-2.3630688,-0.006213964,1.5810117,0.79875124,0.039707374,0.03970744,-0.01108917574705881,-0.009553246850858756,0.00646209444434831,0.023628664494553572,-0.030155395455465764,-0.04515224086079318,0.9999615531612505,0.0041607248698982725,0.002093453652301198,-0.007429536977650728
2.033333333333331,-0.0039181323,-0.78623855,0.012936817,-2.363437,-0.006556949,1.5815587,0.7994453,0.0397308,0.03973087,-0.012111452112817389,-0.0096347783336676,0.005931546464799098,0.024419021225308053,-0.03072174770666687,-0.04668473338898611,0.9999572437797314,0.0043742335884475935,0.002234660600701547,-0.007834729411808268
2.0499999999999976,-0.0041355956,-0.78633446,0.013624994,-2.3638172,-0.006911389,1.5821239,0.80016226,0.03975234,0.039752413,-0.011537803473427033,-0.009729284748138337,0.006152278006443801,0.025215994304946858,-0.03129821742808526,-0.04823207111897307,0.9999525506217398,0.004594575558281036,0.002380861980299533,-0.008253355484105513
2.066666666666664,-0.0043601384,-0.7864336,0.014335626,-2.3642092,-0.0072773974,1.5827076,0.80090326,0.039772168,0.03977224,-0.01044237512839441,-0.009822755221149115,0.006650254147366752,0.026020241370173697,-0.03188280392409177,-0.04979183224888088,0.9999474453459931,0.004822225554939135,0.0025326277392892977,-0.008685532997678361
2.083333333333331,-0.0045918263,-0.7865358,0.015068921,-2.3646142,-0.0076550795,1.5833099,0.80166763,0.03979042,0.039790496,-0.013053926937400817,-0.00987328088777311,0.005967433964970681,0.026827474127896267,-0.032471429068713635,-0.05136683224206292,0.9999419058363015,0.005056796654607206,0.0026891510622195575,-0.00913138689485528
2.0999999999999974,-0.0048307218,-0.7866411,0.015825083,-2.3650324,-0.008044542,1.5839307,0.80245566,0.03980721,0.039807286,-0.013019087398546958,-0.009946336738063475,0.006046892309075069,0.027641043216986905,-0.03307149822712059,-0.052953900658231204,0.9999359048654334,0.005298377172201148,0.00285052421662232,-0.009591030808972922
2.116666666666664,-0.005076885,-0.78674966,0.016604308,-2.365462,-0.00844588,1.5845706,0.8032677,0.039822657,0.039822735,-0.009890558465830424,-0.01006313343140065,0.007088599857496547,0.028460149380738483,-0.033685589555721415,-0.054553779285284994,0.9999294108824723,0.0055470835180701315,0.0030179138293050236,-0.010064557257744591
2.1333333333333306,-0.005330377,-0.78686154,0.017406773,-2.3659053,-0.008859192,1.5852296,0.8041039,0.03983686,0.03983694,-0.013420579542877675,-0.010068690892497435,0.006032523489341024,0.029283998579966282,-0.03429955722221464,-0.056164482950171665,0.9999223977170679,0.00580292342077948,0.0031903410323686956,-0.010552077881611142
2.1499999999999972,-0.00559125,-0.78697664,0.01823266,-2.3663616,-0.009284568,1.5859077,0.8049646,0.03984995,0.039850026,-0.012743186644703641,-0.010146735457055266,0.006306750692885998,0.030112004459187727,-0.034924949344649014,-0.057786182100604946,0.9999148343199238,0.006066014886700469,0.0033680215083369707,-0.011053687234280336
2.166666666666664,-0.005859559,-0.78709495,0.019082138,-2.366831,-0.009722091,1.5866053,0.80584985,0.039861985,0.039862067,-0.012593447331354923,-0.010208374419056962,0.006650772171190589,0.030943380565380152,-0.03556142687257561,-0.059418810753713844,0.9999066891752291,0.00633632986567534,0.0035512301428700316,-0.011569469777726042
2.1833333333333305,-0.0061353547,-0.7872167,0.01995538,-2.367313,-0.010171847,1.5873222,0.8067599,0.039873052,0.039873134,-0.011187901102549525,-0.010288924331200433,0.006658826738603629,0.03177803848312136,-0.036205030891924214,-0.061060306553307624,0.9998979285018097,0.006613930079262149,0.003740363344299209,-0.012099511921930404
2.199999999999997,-0.006418685,-0.787342,0.02085252,-2.3678079,-0.010633914,1.5880591,0.80769485,0.03988324,0.039883327,-0.01215350757892697,-0.010306173235324206,0.006730502661800308,0.03261528902491003,-0.03685445206401671,-0.06271155693821834,0.9998885191685625,0.006898824317822045,0.003935430498790095,-0.012643885665424733
2.2166666666666637,-0.0067095915,-0.78747046,0.0217737,-2.3683167,-0.011108364,1.5888153,0.8086547,0.03989262,0.039892707,-0.013929557892145006,-0.010323032845895898,0.006234811562833009,0.033455165720676666,-0.03750810215784818,-0.06437043248198693,0.9998784303865169,0.007190958793752899,0.004135696565673968,-0.013202672961891492
2.2333333333333303,-0.007008121,-0.7876021,0.02271907,-2.3688393,-0.011595264,1.5895917,0.8096399,0.039901245,0.03990133,-0.013637527684728923,-0.010383965606723493,0.006720450376995757,0.03429732502114899,-0.03817585269444412,-0.06603695815501896,0.9998676248523827,0.007490452128845851,0.004341592129721992,-0.013775938325198607
2.249999999999997,-0.0073143104,-0.7877373,0.023688754,-2.369375,-0.012094683,1.5903877,0.8106503,0.039909184,0.039909277,-0.01228099403391969,-0.010426773534546324,0.006429631617921316,0.03514091343271289,-0.038852826321190984,-0.06771214664228736,0.9998560658956698,0.007797257434014552,0.004553367951791453,-0.014363742842210947
2.2666666666666635,-0.0076281987,-0.787876,0.024682868,-2.3699236,-0.012606679,1.5912039,0.8116861,0.039916497,0.03991659,-0.011646392111308579,-0.010475653134559178,0.007058702958939733,0.03598574759476017,-0.03953673854498641,-0.06939220703893481,0.9998437141818787,0.008111378712364772,0.004771544766140066,-0.014966131995780825
2.28333333333333,-0.007949822,-0.7880181,0.02570152,-2.3704855,-0.013131313,1.5920402,0.81274754,0.03992322,0.039923314,-0.012674482885821625,-0.010473483294410994,0.0067158012653001364,0.03683194376757008,-0.040225010203761374,-0.07107802949212444,0.9998305326181917,0.008432887811264127,0.004995751564595111,-0.01558316122905477
2.2999999999999967,-0.00827921,-0.78816366,0.026744816,-2.3710613,-0.013668634,1.5928969,0.8138348,0.03992942,0.039929517,-0.01327350640560887,-0.010498323746297063,0.006803654171050333,0.037678381444544565,-0.04092100293810237,-0.07277079502368135,0.9998164814522692,0.008761817933687273,0.005226065158381207,-0.01621487606680079
2.3166666666666633,-0.008616395,-0.7883125,0.02781285,-2.3716512,-0.01421869,1.593774,0.8149479,0.039935116,0.039935216,-0.013962219447605229,-0.010492452858121455,0.006601143829154665,0.03852405265919993,-0.04162351165837641,-0.0744664776581623,0.9998015222461196,0.00909815285097861,0.005462205013549405,-0.016861318021798972
2.33333333333333,-0.008961402,-0.78846484,0.028905714,-2.3722548,-0.01478153,1.5946712,0.8160866,0.039940357,0.039940458,-0.013294492009463532,-0.010523210340124961,0.006565455047624624,0.03936871084078594,-0.04233620404229083,-0.07616621969298079,0.9997856144023923,0.009441691908074284,0.005704454881250667,-0.017522525002174074
2.3499999999999965,-0.009314256,-0.78862077,0.03002348,-2.3728719,-0.015357191,1.595589,0.81725115,0.03994519,0.03994529,-0.012340014696476942,-0.010548104879952967,0.006915864310430564,0.04021410820467689,-0.04305889925034419,-0.07786929136799867,0.9997687128268448,0.009792537230629608,0.005953253256308846,-0.018198512104207646
2.366666666666663,-0.009674981,-0.7887802,0.031166224,-2.3735027,-0.01594571,1.5965273,0.8184418,0.039949626,0.03994973,-0.013227081513078609,-0.010536209629448054,0.006713472985331315,0.04105851989675505,-0.043784649888506645,-0.07957590580742549,0.999750774967312,0.010150759594963983,0.006208384115904663,-0.018889309107902173
2.3833333333333298,-0.010043596,-0.78894323,0.032334015,-2.3741474,-0.01654712,1.5974861,0.81965864,0.03995371,0.039953817,-0.013166226897531885,-0.01054684148065841,0.006665503740754808,0.04190094600699558,-0.04451999475161359,-0.08128483729687071,0.9997317566085734,0.010516339336632827,0.006469928970466259,-0.019594934406887757
2.3999999999999964,-0.01042012,-0.7891096,0.033526897,-2.3748062,-0.017161448,1.5984652,0.82090163,0.03995748,0.039957587,-0.0139232356973773,-0.01050764180304982,0.0064932690536423365,0.04274128837225548,-0.04526016047560465,-0.0829945551035644,0.99971161538305,0.010889235984665615,0.006737582357779992,-0.02031540282286059
2.416666666666663,-0.01080457,-0.78927946,0.034744937,-2.3754785,-0.017788723,1.5994653,0.8221708,0.039960947,0.03996106,-0.01268064300263827,-0.01055613543643058,0.007130504263841431,0.04357874107948896,-0.04601227470679409,-0.0847060766795715,0.9996903015096192,0.011269391602793924,0.007012082697281902,-0.02105071440013114
2.4333333333333296,-0.011196958,-0.78945285,0.035988174,-2.3761647,-0.01842896,1.6004857,0.82346624,0.03996414,0.03996425,-0.013289139241434711,-0.010525325949731212,0.006561826178619334,0.044413829052454584,-0.04676892412317239,-0.08641717097365088,0.9996677704549197,0.011656826650839638,0.007293068221014873,-0.021800877552191476
2.449999999999996,-0.011597294,-0.7896297,0.037256632,-2.376865,-0.019082187,1.6015271,0.82478786,0.039967082,0.039967194,-0.013575285870826015,-0.010491771092922472,0.006908108052394724,0.045245635334001166,-0.04753282330719451,-0.08812811523473363,0.9996439746837973,0.012051434180398472,0.007580741580191486,-0.022565885085002582
2.466666666666663,-0.012005585,-0.7898102,0.03855035,-2.377579,-0.019748408,1.6025894,0.82613575,0.039969794,0.03996991,-0.013012894201391845,-0.010507910810672247,0.006815690522365969,0.04607453195485341,-0.04830374524218232,-0.08983916745717971,0.9996188641941703,0.012453225609951643,0.00787530905974669,-0.023345728223334816
2.4833333333333294,-0.012421835,-0.78999436,0.039869327,-2.378307,-0.020427639,1.603672,0.82750994,0.039972287,0.039972406,-0.013516911271271859,-0.010432120389274047,0.006301795735441651,0.046899547506003204,-0.049081181469577316,-0.09154976141209675,0.9995923922470631,0.012862171452089594,0.008176499787826148,-0.024140396818409928
2.499999999999996,-0.0128460545,-0.7901819,0.041213587,-2.3790493,-0.021119883,1.6047754,0.82891065,0.039974585,0.039974704,-0.013806494445911532,-0.010421336754204771,0.0067429345838920796,0.04772024394295847,-0.0498652723922495,-0.09325502073973026,0.9995645077113345,0.013278337454671463,0.008484374452576998,-0.024949871109606475
2.5166666666666626,-0.013278239,-0.7903729,0.042583145,-2.3798056,-0.02182514,1.6059,0.83033776,0.039976697,0.039976824,-0.01345804451380328,-0.010426419265866307,0.006979223987535477,0.04853533826172157,-0.05065890883446227,-0.09496210981285974,0.9995351582180105,0.013701610905110637,0.008799318079946125,-0.02577412163449302
2.533333333333329,-0.01371839,-0.7905675,0.04397799,-2.380576,-0.022543404,1.6070452,0.8317913,0.039978653,0.039978776,-0.01363337850133206,-0.010363488862337455,0.006398593104561812,0.049345479990494275,-0.051456779382048505,-0.09666292787670794,0.9995042948502673,0.01413196287309551,0.009121062512069674,-0.02661312495507382
2.549999999999996,-0.014166507,-0.7907655,0.04539811,-2.3813596,-0.023274686,1.608211,0.83327097,0.03998046,0.03998059,-0.012533998990704731,-0.010353681495153463,0.0069884554759092055,0.05014958857914889,-0.052262613501261934,-0.09836265292387117,0.99947186395326,0.014569228998447216,0.00945005211949489,-0.027466839045031177
2.5666666666666624,-0.014622581,-0.79096717,0.046843488,-2.3821573,-0.024018964,1.6093976,0.83477676,0.039982107,0.03998224,-0.01350329863905042,-0.010291743814347387,0.006504031062326554,0.05094891661284014,-0.0530733436798175,-0.10005751778440192,0.9994378151796567,0.015013339160334633,0.009786108451795372,-0.028335231030308095
2.583333333333329,-0.015086603,-0.7911724,0.048314124,-2.3829694,-0.024776228,1.6106048,0.8363089,0.039983626,0.039983764,-0.01406656879656687,-0.010244755258757149,0.006227431572414233,0.05174322462515582,-0.05389145597190511,-0.10174782855481129,0.9994020955994891,0.01546436704093583,0.010129028706064379,-0.02921827237952857
2.5999999999999956,-0.015558566,-0.791381,0.04980994,-2.3837953,-0.02554647,1.6118329,0.83786744,0.039985035,0.039985176,-0.013297161744896258,-0.010177665702602867,0.006880291037103525,0.05253044991211077,-0.05471650610957862,-0.10343279180102741,0.9993646474738608,0.015922309200707686,0.010479262923465857,-0.03011588447553776
2.6166666666666623,-0.016038466,-0.7915932,0.051330946,-2.384635,-0.026329665,1.6130816,0.839452,0.03998634,0.039986476,-0.01322501579428259,-0.010169054351021056,0.0064983101132121135,0.05331042774245028,-0.05554843539926606,-0.10511051769111145,0.99932541919685,0.01638694224518786,0.010836779728993664,-0.031028033711439036
2.633333333333329,-0.016526276,-0.7918088,0.052877076,-2.3854883,-0.027125796,1.6143508,0.84106284,0.03998755,0.039987683,-0.013062184253431752,-0.010107838189090876,0.006597989090084688,0.054083795812411746,-0.05638460877326369,-0.10678287143903997,0.9992843544557755,0.016858315645056965,0.01120161572926891,-0.03195465441167338
2.6499999999999955,-0.017021986,-0.79202795,0.054448295,-2.3863552,-0.027934827,1.6156405,0.8426999,0.039988667,0.03998881,-0.012871759204102773,-0.010075640231031746,0.006480360856531142,0.05484953092964762,-0.05722771462039361,-0.10844925475587763,0.9992413962431447,0.01733639027591255,0.011573924383383232,-0.03289568179289789
2.666666666666662,-0.01752558,-0.79225063,0.05604453,-2.387236,-0.028756738,1.6169509,0.844363,0.039989676,0.03998982,-0.013727153943743353,-0.009950426789229194,0.00635312000567545,0.05560716653923068,-0.05807441772199312,-0.11010935760883629,0.9991964916558327,0.017821044256068296,0.011953558954886787,-0.033851054231897125
2.6833333333333287,-0.018037034,-0.7924768,0.057665728,-2.3881314,-0.02959149,1.6182818,0.846052,0.03999063,0.03999077,-0.014214714282045904,-0.009887002708413792,0.006248341635295418,0.056356558073081535,-0.05892913040151553,-0.1117590880488184,0.9991495866486794,0.018312173540230185,0.01234043369952307,-0.03482070499161661
2.6999999999999953,-0.018556328,-0.7927063,0.059311815,-2.3890398,-0.03043905,1.6196332,0.84776694,0.039991505,0.039991654,-0.012318566525237884,-0.00989497433030763,0.006646980092939181,0.05709749394583907,-0.059789700283261756,-0.11340229264704102,0.9991006190283415,0.0188097423179379,0.012735060791452767,-0.03580453711131643
2.716666666666662,-0.019083444,-0.79293954,0.06098272,-2.3899622,-0.03129938,1.6210049,0.8495077,0.039992295,0.03999245,-0.013636167658237497,-0.009752180058069868,0.006011865981836451,0.05782992187304301,-0.06065440492995204,-0.11503761066803658,0.999049535241467,0.019313662874724483,0.01313717640340281,-0.03680248845277065
2.7333333333333285,-0.01961835,-0.7931761,0.06267836,-2.3908982,-0.032172434,1.622397,0.8512743,0.039993033,0.039993186,-0.013266162297287387,-0.009713693305356957,0.0063175671118465004,0.058552911886463756,-0.06152594056029087,-0.11666112281717497,0.9989962769184464,0.01982391957544564,0.013546848078727306,-0.03781446578865108
2.749999999999995,-0.020161018,-0.793416,0.064398624,-2.3918474,-0.033058167,1.623809,0.8530665,0.03999373,0.039993882,-0.012534031903377318,-0.009644069820104878,0.006345585961886613,0.05926601470466958,-0.06240201204033436,-0.11827654937615639,0.9989407871999139,0.02034033946567789,0.013964255490931306,-0.03884036337911261
2.7666666666666617,-0.020711418,-0.7936597,0.06614345,-2.3928108,-0.033956528,1.6252416,0.8548844,0.039994374,0.03999453,-0.013933045377445552,-0.009530914193820253,0.005968942684320133,0.059969977243712856,-0.06328243855529393,-0.11988199617411428,0.9988830064968316,0.020862933033723004,0.014389378684270896,-0.03988010955553571
2.7833333333333283,-0.021269523,-0.7939065,0.06791276,-2.3937879,-0.03486748,1.626694,0.8567276,0.03999497,0.039995126,-0.013699317631887808,-0.009459343235082573,0.0058993763893955276,0.06066307849970524,-0.0641675861267605,-0.12147583866899428,0.9988228847105218,0.021391489065780162,0.0148218615740607,-0.04093362424192861
2.799999999999995,-0.021835292,-0.7941568,0.06970638,-2.394778,-0.03579096,1.6281656,0.8585963,0.03999551,0.039995678,-0.012672603413843575,-0.009358702036938588,0.005682019402786231,0.06134619861931277,-0.06506116192042466,-0.1230600527710185,0.9987603582359321,0.021926089472973757,0.015261982717408105,-0.042000777378392196
2.8166666666666615,-0.022408696,-0.7944106,0.071524225,-2.3957815,-0.036726918,1.6296573,0.8604901,0.03999602,0.039996188,-0.012789224019416068,-0.00929125887471488,0.006037795408642133,0.06201761414691545,-0.06596132589159322,-0.12463189143340164,0.9986953691899161,0.022466446230311448,0.01571006713968936,-0.04308145938642594
2.833333333333328,-0.022989692,-0.7946675,0.073366195,-2.3967984,-0.037675284,1.6311694,0.8624091,0.039996505,0.039996672,-0.013111224259088061,-0.00925702718595628,0.006581514256787102,0.06267911377137086,-0.06686399542363292,-0.126190692876246,0.9986278557019366,0.0230126141084981,0.016166216729624074,-0.04417554577700598
2.8499999999999948,-0.023578249,-0.7949278,0.07523215,-2.3978283,-0.038635988,1.6327013,0.864353,0.039996956,0.039997123,-0.012656399433086385,-0.0091269546298553,0.005899218303251352,0.06332853564601384,-0.06776902247939089,-0.12773699608651604,0.9985577639913764,0.023564384761682232,0.01663034059515301,-0.04528292741238115
2.8666666666666614,-0.024174316,-0.7951917,0.07712195,-2.3988714,-0.039608974,1.6342527,0.86632186,0.039997377,0.039997555,-0.012439618541448816,-0.009026389713654576,0.005660343397595469,0.06396697628079426,-0.06867784857001519,-0.1292719594941672,0.9984850313001943,0.02412178959411117,0.01710256850693576,-0.046403487872068015
2.883333333333328,-0.024777858,-0.7954586,0.07903547,-2.3999276,-0.040594168,1.6358231,0.8683154,0.03999776,0.039997943,-0.01335159178237344,-0.00889019829267007,0.0056274909472353585,0.06459314735648689,-0.06958918430836365,-0.13079285187372525,0.9984096104674139,0.024684647249211173,0.017582395250842174,-0.04753711490753356
2.8999999999999946,-0.025388815,-0.79572886,0.08097257,-2.4009964,-0.041591506,1.6374134,0.8703335,0.03999813,0.039998308,-0.011896802522914918,-0.008906900089765413,0.006167879226959272,0.06520672373763148,-0.07050747800767715,-0.13229605513920376,0.9983314315397316,0.025252844723875144,0.018070658704689033,-0.048683651538895235
2.916666666666661,-0.02600716,-0.7960025,0.08293311,-2.4020786,-0.042600915,1.6390228,0.872376,0.039998475,0.039998632,-0.013280795252534894,-0.008681142017997329,0.005326063129729164,0.06580840258484899,-0.07142524183699618,-0.13378051777218092,0.9982504446042072,0.025826315559424967,0.018566797966936364,-0.04984300638387076
2.933333333333328,-0.026632838,-0.7962794,0.084916934,-2.4031737,-0.04362232,1.6406516,0.87444276,0.039998814,0.03999893,-0.012630511641575914,-0.008620497550106132,0.005709501296746744,0.0663975643828815,-0.07234847279330624,-0.13524879523132738,0.99816659064039,0.026404902237479565,0.019071081577713967,-0.051015020480495166
2.9499999999999944,-0.027265795,-0.79655933,0.0869239,-2.4042811,-0.04465566,1.6422993,0.8765336,0.039999165,0.039999325,-0.012074495507841121,-0.008563291472081513,0.005712649573785811,0.06697660353564602,-0.0732732532271047,-0.13674172820846622,0.9980798102548161,0.026988538244538295,0.019583575328465896,-0.05219956649712542
2.966666666666661,-0.027905978,-0.7968428,0.08895379,-2.4054012,-0.045700807,1.6439657,0.87864846,0.03999947,0.04,-0.012112377986994716,-0.008395449386314202,0.005177022935343167,0.06754399629829325,-0.07420051479139222,-0.13836444420594762,0.9979900472624573,0.027577139920417975,0.02010430872648336,-0.0533964763773608
2.9833333333333276,-0.028553346,-0.7971293,0.09100648,-2.4065342,-0.046757113,1.6456507,0.88078684,0.039999496,0.04,-0.013232670231566601,-0.008659935929393459,0.005207699059583959,0.06809290764119176,-0.07513032121127808,-0.13978927281443365,0.9978972720261708,0.028170472969614654,0.020632872094704824,-0.054605343369656265
2.9999999999999942,-0.029207844,-0.79741895,0.09308178,-2.40768,-0.047824953,1.6473544,0.8829488,0.039999496,0.04,-0.012944182061414011,-0.008205164932414272,0.0050657257119057775,0.06862892551788757,-0.07606467560290414,-0.14120809396221679,0.997801411019591,0.028768534313924107,0.021169464219345666,-0.05582624280217705
3.016666666666661,-0.029869406,-0.79771185,0.09517954,-2.4088378,-0.048904337,1.6490765,0.8851339,0.03999949,0.04,-0.011341801453412792,-0.00817972813073678,0.005417004298724493,0.06915102370372231,-0.07700388158457841,-0.14261115955794335,0.9977024027071384,0.02937103796896124,0.021714556171021575,-0.05705905547171838
3.0333333333333274,-0.030537976,-0.7980078,0.097299546,-2.410008,-0.049995206,1.6508168,0.8873425,0.039999478,0.04,-0.012461760319859572,-0.007904529002319971,0.005073647697773076,0.06966022632296326,-0.07794155137242047,-0.14400154439151977,0.9976001913115085,0.02997815436728266,0.022267775996081634,-0.05830364232328363
3.049999999999994,-0.031213494,-0.79830694,0.099441625,-2.4111903,-0.05109747,1.6525754,0.8895738,0.03999947,0.04,-0.011863218395435915,-0.007845197493670103,0.005068170802635663,0.07015373769565272,-0.07888209179681197,-0.14537197077834013,0.9974947261285295,0.030589464040262044,0.022829373169631108,-0.05955985020280904
3.0666666666666607,-0.031895895,-0.798609,0.10160554,-2.4123847,-0.05221102,1.6543518,0.89182806,0.03999946,0.04,-0.012337298865117141,-0.0076542526503145525,0.004929471742198821,0.07063382617100475,-0.07982331029855877,-0.1467252014671178,0.9973859540528316,0.031205076353419858,0.02339908884920955,-0.060827497967014414
3.0833333333333273,-0.03258511,-0.7989141,0.10379116,-2.4135916,-0.053335723,1.656146,0.89410496,0.039999444,0.04,-0.012747933241818998,-0.007584902368191343,0.004660636658404549,0.07109835645642383,-0.08076773749525405,-0.14805956368571438,0.9972738261069498,0.03182479985997409,0.023976827766027792,-0.062106437719097185
3.099999999999994,-0.0332811,-0.79922205,0.105998255,-2.4148092,-0.054471508,1.6579577,0.8964044,0.039999433,0.04,-0.010054302179418606,-0.007600038809610354,0.005225130415142942,0.07154747916605991,-0.08171447680259354,-0.14937612969169936,0.9971582751063022,0.03244857015194823,0.024563271405578277,-0.06339645400157733
3.1166666666666605,-0.033983782,-0.799533,0.1082266,-2.4160395,-0.05561823,1.6597868,0.89872587,0.03999942,0.04,-0.013276760346925265,-0.007219238020821084,0.004307291834804161,0.07198078907881039,-0.08265906585209565,-0.15067330115341343,0.9970392715663585,0.03307613494741273,0.02515760143429842,-0.06469741371522106
3.133333333333327,-0.03469309,-0.79984695,0.11047599,-2.417281,-0.056775816,1.6616337,0.90106916,0.0399994,0.04,-0.010726547535400144,-0.007320472119681093,0.0051573008807537235,0.07239901918681124,-0.08360806953326799,-0.1519529145231575,0.9969167476476376,0.03370732841599736,0.02576070194178541,-0.06600909411724298
3.1499999999999937,-0.03540896,-0.8001639,0.112746194,-2.4185338,-0.057944123,1.6634972,0.9034342,0.03999939,0.04,-0.011502431023857618,-0.007055998990521811,0.004108898023025276,0.0728023821926949,-0.08455387616988612,-0.15321042802810647,0.9967906634908881,0.034342152761211255,0.026371945222800307,-0.0673313465355219
3.1666666666666603,-0.036131322,-0.80048364,0.11503703,-2.4197981,-0.059123047,1.6653777,0.9058207,0.039999366,0.04,-0.011696571387842525,-0.006990605935519589,0.004574820389713352,0.07318967200591656,-0.08549962891714348,-0.15445080791473934,0.9966609703743995,0.034980398513466834,0.02699146778198921,-0.06866398269233603
3.183333333333327,-0.036860116,-0.8008062,0.11734822,-2.4210737,-0.060312487,1.6672752,0.9082284,0.039999366,0.04,-0.011201647343495047,-0.006802695816760657,0.004515977021335438,0.07356136648991274,-0.08644772416081492,-0.15566997856226683,0.9965276181397295,0.035621926379307875,0.027619433049104098,-0.07000679655455282
3.1999999999999935,-0.037595246,-0.8011317,0.11967956,-2.4223604,-0.0615123,1.6691891,0.9106571,0.03999935,0.04,-0.011323250325379064,-0.006721129543387633,0.004103764183871483,0.07391714316601264,-0.0873929604594611,-0.1568692918440578,0.9963905617357719,0.03626665126419735,0.028255684950337125,-0.07135961573566223
3.21666666666666,-0.038336642,-0.80145985,0.12203083,-2.423658,-0.06272237,1.6711191,0.9131066,0.039999336,0.04,-0.010974381640238562,-0.006614977297943886,0.0041996116190601285,0.07425658967438399,-0.08833865116831591,-0.15805003567415993,0.9962497574413368,0.03691443784917961,0.028900180122239525,-0.0727222432633841
3.2333333333333267,-0.039084237,-0.8017909,0.12440177,-2.4249663,-0.063942604,1.6730653,0.91557664,0.039999325,0.04,-0.011025761759198005,-0.006407181202781886,0.003986943613853988,0.07457949163794257,-0.08928341871143584,-0.15921210381681694,0.9961051569964282,0.03756513552179143,0.02955304955888813,-0.07409449412824523
3.2499999999999933,-0.03983795,-0.8021246,0.12679212,-2.426286,-0.06517283,1.6750277,0.9180669,0.039999314,0.04,-0.011735861265393943,-0.006236291717762882,0.003951295728210624,0.07488599860238836,-0.09022683447666358,-0.1603499195877052,0.9959567247748506,0.03821860669884462,0.030214095705781194,-0.07547614787754602
3.26666666666666,-0.04059771,-0.80246097,0.12920171,-2.4276161,-0.06641297,1.6770055,0.92057705,0.039999314,0.04,-0.010868873956049185,-0.006191638963962132,0.0037008909782754174,0.07517573334390902,-0.09116853860243627,-0.16146745192131984,0.9958044192201656,0.03887462617933612,0.03088326886078189,-0.07686706580505226
3.2833333333333266,-0.04136343,-0.8028002,0.13163023,-2.4289565,-0.067662805,1.6789991,0.9231069,0.03999929,0.04,-0.010084841136182021,-0.006134991700575826,0.003926596078085431,0.07544939139597961,-0.09211120850047214,-0.16255991164885436,0.9956481904715562,0.03953313437811561,0.03156102216974272,-0.0782669405084841
3.299999999999993,-0.04213503,-0.8031418,0.13407736,-2.4303074,-0.068922244,1.681008,0.9256564,0.039999284,0.04,-0.01117925353588678,-0.005800897170309821,0.0037530269412222594,0.07570586936897769,-0.09304986737736917,-0.1636287227628313,0.9954880092173427,0.04019407724290714,0.032246864343904294,-0.07967558847645126
3.3166666666666598,-0.04291242,-0.80348593,0.13654292,-2.4316683,-0.07019117,1.6830322,0.9282251,0.039999265,0.04,-0.010212311623947201,-0.0058359169097244035,0.003782479447256293,0.07594508462639481,-0.09398549343024659,-0.16467857219014523,0.9953238293707382,0.04085723619196472,0.03294109736411515,-0.08109281744995495
3.3333333333333264,-0.04369554,-0.8038327,0.13902661,-2.4330392,-0.07146943,1.685071,0.9308126,0.03999925,0.04,-0.010371895658134456,-0.005570229438962848,0.0032899063737268364,0.0761669803126544,-0.09491892861495194,-0.1657047708309932,0.9951556230101978,0.04152241365197611,0.03364347803338762,-0.0825184315260315
3.349999999999993,-0.044484284,-0.804182,0.14152825,-2.43442,-0.07275692,1.6871247,0.9334188,0.03999923,0.04,-0.010451498464081332,-0.005543599545734801,0.003484402402809117,0.07637225892441676,-0.09584950374496295,-0.16670913061397954,0.9949833481948165,0.04218951714643053,0.0343541083805667,-0.08395222865034499
3.3666666666666596,-0.04527858,-0.80453384,0.14404745,-2.4358106,-0.0740535,1.6891929,0.9360433,0.039999217,0.04,-0.009729003480440923,-0.005297584881869266,0.003322760842272565,0.0765605616639084,-0.09677607914289874,-0.16768966927755163,0.9948069711776841,0.04285838900705725,0.03507304056676455,-0.08539397176267166
3.383333333333326,-0.046078343,-0.80488807,0.14658402,-2.4372106,-0.07535902,1.6912752,0.9386859,0.039999202,0.04,-0.010048726658773433,-0.005216763871972174,0.0032011190836067627,0.07673174809420735,-0.09769770925419298,-0.16864773679191702,0.9946264642904137,0.043528885428454685,0.03580009648188433,-0.08684345547244558
3.399999999999993,-0.046883468,-0.8052446,0.14913766,-2.4386199,-0.07667329,1.6933714,0.9413462,0.039999194,0.04,-0.00985124670538351,-0.005109467252095712,0.0030570537983054535,0.07688544339475398,-0.09861607410240016,-0.16958250685354356,0.99444179967105,0.0442008550514655,0.03653521250452126,-0.08830045145395543
3.4166666666666594,-0.047693864,-0.8056035,0.15170807,-2.4400387,-0.07799617,1.6954813,0.944024,0.03999918,0.04,-0.010332066833496079,-0.004865066704608234,0.0028147445606307997,0.07702235678902494,-0.0995293003586716,-0.17049102221385543,0.9942529531567383,0.04487416249598701,0.03727823256490544,-0.08976473726483793
3.433333333333326,-0.048509464,-0.8059648,0.15429497,-2.4414666,-0.07932757,1.6976049,0.946719,0.039999157,0.04,-0.009380897568345148,-0.004773327215552847,0.0029695675474616934,0.07714178631192589,-0.1004409111165927,-0.17137962615397864,0.9940598843068348,0.045548657978985774,0.03802947618528122,-0.09123609542976348
3.4499999999999926,-0.04933016,-0.8063285,0.15689811,-2.4429028,-0.08066735,1.6997418,0.9494308,0.039999146,0.04,-0.008417201288568599,-0.004791785016990124,0.0031010749472315524,0.07724382026015211,-0.10134641487014209,-0.1722426970456928,0.9938625619420245,0.046224172779008796,0.038789084067092666,-0.09271429651444324
3.4666666666666592,-0.050155893,-0.8066942,0.15951714,-2.4443483,-0.08201526,1.7018918,0.95215935,0.039999135,0.04,-0.010513163824898974,-0.004327920198521351,0.0024335923460405695,0.07732888100471158,-0.10224252038256766,-0.17307928945925993,0.9936609851690758,0.04690067503995475,0.039556301169891436,-0.09419910971646965
3.483333333333326,-0.050986517,-0.8070622,0.16215174,-2.4458022,-0.08337122,1.7040545,0.95490414,0.03999911,0.04,-0.008740079118840782,-0.004365735083357303,0.0026313402021305166,0.07739583786152965,-0.10313675475680815,-0.17389564483646505,0.9934551175552369,0.0475779448285153,0.0403315869643696,-0.0956902903232136
3.4999999999999925,-0.051821973,-0.80743235,0.1648017,-2.4472656,-0.084735096,1.7062298,0.95766485,0.03999909,0.04,-0.011033445781416518,-0.003957445020898176,0.0019528565520676722,0.0774455151798863,-0.10402288175341785,-0.17468662146136904,0.9932449565228755,0.04825579994866433,0.041114243753635815,-0.09718772079718897
3.516666666666659,-0.052662157,-0.8078046,0.16746673,-2.4487371,-0.086106725,1.7084178,0.9604412,0.039999083,0.04,-0.008625434544806687,-0.004154077013311663,0.0026828602159856274,0.07747731506978847,-0.10490812091306068,-0.17545044170124685,0.9930304630331518,0.04893407153999284,0.04190496343688862,-0.09869108455192817
3.5333333333333257,-0.053506978,-0.8081789,0.17014644,-2.4502163,-0.08748586,1.7106174,0.9632329,0.039999057,0.04,-0.00815804640761364,-0.003963172005834459,0.0022090870287039266,0.07749247866121653,-0.10578497275756668,-0.17619249142603974,0.9928116274148284,0.04961272745837176,0.04270351541988895,-0.10020009737941588
3.5499999999999923,-0.054356337,-0.80855536,0.17284052,-2.451703,-0.088872425,1.7128286,0.96603954,0.03999904,0.04,-0.008144499159290497,-0.0037487794282059506,0.002066203409367695,0.07749028128600144,-0.10665354120640208,-0.17690804612664657,0.9925884312043614,0.05029156452442481,0.04350987665653265,-0.10171457816008332
3.566666666666659,-0.055210132,-0.8089336,0.17554872,-2.4531975,-0.090266265,1.7150517,0.96886086,0.039999027,0.04,-0.008499752141322148,-0.0036694149123717157,0.002370537049856125,0.07747011706096002,-0.10751389086003249,-0.17759848786684262,0.9923608646094683,0.050970393738891194,0.04432399250350287,-0.10323428230098955
3.5833333333333255,-0.05606828,-0.8093139,0.17827064,-2.4546995,-0.09166718,1.7172859,0.9716966,0.039999004,0.04,-0.008459933842464018,-0.0033635782434066064,0.0017975513285861666,0.0774337404025715,-0.10836637359222102,-0.17826487505052224,0.9921289170981603,0.05164918326203744,0.045145687957210905,-0.10475896422200001
3.599999999999992,-0.056930657,-0.8096961,0.18100612,-2.456209,-0.093075074,1.7195314,0.9745463,0.03999899,0.04,-0.008168874923297764,-0.0034365457512175457,0.002025157780072284,0.07737972219325459,-0.10921119749920362,-0.178907032308605,0.991892574274238,0.05232762213584996,0.04597508099048404,-0.10628844240627178
3.6166666666666587,-0.05779717,-0.8100799,0.18375468,-2.4577258,-0.09448972,1.7217883,0.97740984,0.03999898,0.04,-0.008528168829524674,-0.0031228130581678615,0.002131622133205724,0.07730907037504603,-0.110045904766924,-0.17951976435725314,0.9916518353174147,0.05300570703795713,0.046812021903393716,-0.10782238699975705
3.6333333333333253,-0.05866774,-0.81046575,0.1865161,-2.45925,-0.09591096,1.724055,0.9802867,0.03999896,0.04,-0.008524956831057473,-0.0028655336579835877,0.000848717815427058,0.07722091347933063,-0.11087074710222589,-0.1801098165096653,0.9914067007785556,0.05368329670853186,0.04765603182743216,-0.10936068734397113
3.649999999999992,-0.05954224,-0.81085324,0.18928999,-2.460781,-0.097338654,1.7263321,0.9831767,0.039998937,0.04,-0.008121664604443524,-0.0027854395059978554,0.0015448378394511408,0.07711578049149947,-0.11169082996580287,-0.18067807406888198,0.9911571641373482,0.05436024847527383,0.04850728414039026,-0.11090303309756502
3.6666666666666585,-0.060420576,-0.81124246,0.19207607,-2.4623187,-0.09877267,1.7286192,0.9860794,0.03999893,0.04,-0.007220212573222362,-0.002791505983155973,0.001620684779579662,0.07699247988828913,-0.11250158307781491,-0.18121729256224678,0.9909032118661117,0.05503635898502173,0.04936600352488769,-0.11244919563552341
3.683333333333325,-0.061302643,-0.81163347,0.19487402,-2.4638624,-0.100212745,1.7309161,0.9889941,0.039998908,0.04,-0.006898094346130534,-0.0027027542830043716,0.001425386619535729,0.07685280155073804,-0.11330008612659138,-0.18173084763465217,0.9906448557981705,0.05571134846918221,0.05023212499817351,-0.11399889890053835
3.6999999999999917,-0.062188335,-0.8120261,0.1976835,-2.4654133,-0.10165877,1.7332224,0.99192095,0.03999889,0.04,-0.008964044787052039,-0.002160446929155846,0.0006327527763749785,0.07669858888497913,-0.11408714733632411,-0.18221960509548885,0.9903821104913476,0.056385291005153694,0.05110486349599965,-0.11555201038503689
3.7166666666666583,-0.063077554,-0.81242025,0.20050414,-2.4669693,-0.103110544,1.7355381,0.9948594,0.039998874,0.04,-0.0052087058880045944,-0.002620761938303129,0.0019311432774893333,0.07652624523225193,-0.11486773264012584,-0.1826803159794488,0.9901149471287076,0.057057947470177194,0.05198533902622347,-0.11710809805105518
3.733333333333325,-0.06397017,-0.81281596,0.20333564,-2.468532,-0.10456792,1.7378626,0.9978092,0.03999885,0.04,-0.008878064301520716,-0.00182827721046247,0.0002911436435937276,0.07633903680837967,-0.11563158069355572,-0.18311957980351187,0.9898434116609541,0.057729239306487136,0.05287218473817559,-0.11866712856351364
3.7499999999999916,-0.064866126,-0.81321305,0.20617764,-2.4701002,-0.106030725,1.7401958,1.00077,0.03999884,0.04,-0.006178086734598409,-0.0020682967983173817,0.0012288165712970311,0.0761343885394685,-0.11639011829645385,-0.18352944486634254,0.9895674864629639,0.058399049196643196,0.053766113021453,-0.1202287231857024
3.766666666666658,-0.06576527,-0.8136116,0.20902982,-2.4716744,-0.10749879,1.7425373,1.0037414,0.039998837,0.04,-0.007870616160809973,-0.0016531116765597376,0.00037493455800063913,0.07591351965220665,-0.11713344993658577,-0.18391217853917363,0.9892872003536383,0.059067201171840035,0.054666511272495485,-0.12179274817278649
3.7833333333333248,-0.06666753,-0.8140117,0.21189184,-2.473253,-0.10897188,1.744887,1.0067233,0.03999882,0.04,-0.004597737836853355,-0.0020449183746329425,0.0012740549813150537,0.07567595229691143,-0.11786802593998616,-0.18426911656646283,0.9890025281974196,0.05973367408503114,0.055574243747278186,-0.12335878903156249
3.7999999999999914,-0.067572795,-0.8144129,0.21476336,-2.4748378,-0.11044989,1.7472445,1.0097144,0.03999879,0.04,-0.008543116703862985,-0.0011540499369508406,5.028781890903389e-05,0.07542260931144373,-0.1185849168123563,-0.1846049391185055,0.9887135600212323,0.060397879968292,0.0564878713305976,-0.12492682945634458
3.816666666666658,-0.06848092,-0.81481546,0.21764404,-2.4764283,-0.111932606,1.7496095,1.0127158,0.039998777,0.04,-0.007549458858857605,-0.001195857738371664,-1.3817879640498631e-05,0.07515589837262682,-0.11929452141559743,-0.1849092665332718,0.9884202554202761,0.0610604366268777,0.057407696245127676,-0.12649655396760204
3.8333333333333246,-0.06939182,-0.8152192,0.22053353,-2.478022,-0.11341985,1.7519815,1.0157257,0.039998762,0.04,-0.0037641362950591173,-0.001687540209359406,0.0009777792503662397,0.07486907861358537,-0.11999505980606484,-0.18518853438026114,0.9881226466579749,0.06172044093216217,0.05833443971651438,-0.12806762071553807
3.849999999999991,-0.07030536,-0.8156241,0.22343144,-2.479621,-0.114911415,1.7543608,1.0187451,0.03999874,0.04,-0.006701812988563205,-0.0010013972286643247,0.00024400250919764943,0.07457109301955284,-0.12067627028708161,-0.18544292856723862,0.9878207472644093,0.062378416619876934,0.05926740565966794,-0.12963980499967373
3.866666666666658,-0.07122147,-0.81603026,0.22633746,-2.481224,-0.116407186,1.7567466,1.0217733,0.039998714,0.04,-0.00558235915053551,-0.0009518994949525572,4.198789436138384e-05,0.07425573804068378,-0.12134423288515393,-0.18567188225160441,0.9875145675354781,0.06303419648570403,0.06020661672706071,-0.1312129272629042
3.8833333333333244,-0.072140045,-0.8164374,0.22925124,-2.482833,-0.117907,1.7591385,1.0248095,0.039998695,0.04,-0.008603161906073353,-0.00013831601156921725,-0.00107395375332775,0.07392251084714727,-0.12199708131676872,-0.18587524170386183,0.9872041963273828,0.06368735051006509,0.061150869514006174,-0.1327869244176376
3.899999999999991,-0.073060945,-0.81684595,0.2321724,-2.484446,-0.119410604,1.7615365,1.0278531,0.03999868,0.04,-0.005629140130025689,-0.0005852187231689121,-0.00033301053854462026,0.07357382931320353,-0.12264629497132305,-0.18605061996695405,0.9868896231370526,0.06433772365094077,0.062101114094901384,-0.1343613809395893
3.9166666666666576,-0.07398406,-0.81725526,0.23510063,-2.4860625,-0.12091783,1.7639408,1.0309037,0.03999866,0.04,-0.004622852857916193,-0.0007773098484750718,0.0004980801597165296,0.07321146918272739,-0.12327941141834428,-0.18619998581380165,0.9865708830122374,0.06498499294278849,0.06305752228452619,-0.13593598628772482
3.9333333333333242,-0.074909285,-0.8176656,0.23803553,-2.4876816,-0.12242853,1.7663502,1.033961,0.03999864,0.04,-0.00357014551402024,-0.0005706854398546124,-0.00016564224551984807,0.07283815522880341,-0.123894661258247,-0.18632566671248074,0.986247991655859,0.06562926136408201,0.06401989280646937,-0.13751055353185793
3.949999999999991,-0.075836495,-0.81807685,0.24097675,-2.489304,-0.12394247,1.7687649,1.0370255,0.03999862,0.04,-0.0048011034278205855,-0.00028540607443644506,-0.000310578651196991,0.07245110707059295,-0.12449223283723979,-0.18642274518932517,0.9859209765991107,0.06627066812447437,0.06498800417911878,-0.13908481499073344
3.9666666666666575,-0.0767656,-0.8184888,0.24392395,-2.4909298,-0.12545946,1.7711846,1.0400962,0.03999861,0.04,-0.005300634813676375,-4.5925546990344124e-05,-0.00046195877023702536,0.07204847362446462,-0.12507360945464807,-0.1864934838740949,0.9855898992128347,0.0669089233517055,0.06596145551804937,-0.14065856863870874
3.983333333333324,-0.077696465,-0.81890166,0.24687678,-2.4925594,-0.12697941,1.7736087,1.0431725,0.03999858,0.04,-0.006012971217539409,0.00042208077760397256,-0.0012965286890098682,0.07163196220064169,-0.12564051469604826,-0.1865446687590649,0.9852548079463568,0.06754377835168072,0.06693979769299473,-0.14223172961539834
3.9999999999999907,-0.078629,-0.81931525,0.2498349,-2.4941916,-0.12850207,1.7760371,1.0462546,0.039998557,0.04,-0.004271644501119276,0.00013930186625460417,-0.0006591643652908985,0.07120204323150005,-0.12619448117748067,-0.18656565977385264,0.9849157106265277,0.06817538683439664,0.0679234213391664,-0.14380392353689295
4.016666666666658,-0.07956306,-0.8197295,0.25279784,-2.4958265,-0.13002728,1.7784697,1.0493419,0.03999854,0.04,-0.0043854221500216894,0.0004065261099001072,-0.0007436498616897325,0.07075783725161942,-0.1267314953813387,-0.18656013898290905,0.9845726656084474,0.06880347476701276,0.06891215318119062,-0.14537490547062654
4.033333333333324,-0.08049858,-0.82014436,0.25576538,-2.497464,-0.13155483,1.7809058,1.0524337,0.039998524,0.04,-0.004710641195715404,0.0006055229731752321,-0.0011651332994411234,0.07030039470542203,-0.1272524838083604,-0.1865305785983077,0.9842257301480845,0.06942783682911537,0.06990559455052604,-0.1469445318419061
4.049999999999991,-0.08143539,-0.82056,0.25873715,-2.4991038,-0.1330845,1.7833455,1.0555297,0.039998505,0.04,-0.0041519436718706615,0.0005897343105229491,-0.001231820763591962,0.0698309853630728,-0.12775836655020564,-0.1864762011157212,0.9838749416835387,0.07004834069359178,0.07090383202480835,-0.1485125439061816
4.0666666666666575,-0.08237342,-0.820976,0.26171255,-2.5007453,-0.13461617,1.7857882,1.0586298,0.03999848,0.04,-0.0034139238082486756,0.000899201739505695,-0.0009436931774020607,0.06935032536904354,-0.1282473895528622,-0.1863960629058653,0.9835203444455628,0.07066509093564155,0.07190680657204228,-0.1500786065811849
4.083333333333324,-0.0833125,-0.8213927,0.26469144,-2.50239,-0.13614964,1.788234,1.0617335,0.039998468,0.04,-0.005697887160094339,0.0013255647162799256,-0.001876580194837274,0.06885624539151088,-0.12871743559137655,-0.18628920242666835,0.9831620008096033,0.07127790778314905,0.0729138804726008,-0.1516426920776
4.099999999999991,-0.08425256,-0.8218097,0.26767337,-2.504035,-0.13768472,1.7906826,1.0648407,0.03999845,0.04,-0.001641546817876538,0.0006503552575976013,-0.0005476006340376927,0.06835017329702718,-0.1291742102973853,-0.18615907178019098,0.982799923658572,0.07188675756630689,0.07392592108980191,-0.1532043156517875
4.116666666666657,-0.085193485,-0.822227,0.27065814,-2.5056825,-0.13922112,1.793133,1.0679507,0.039998434,0.04,-0.005353646660788414,0.0015187133075009185,-0.00222412087007573,0.06783158100213157,-0.12960812744117267,-0.18600114777480536,0.9824342276670613,0.07249146564022314,0.07494149981969943,-0.15476352064466356
4.133333333333324,-0.08613514,-0.82264465,0.2736452,-2.5073304,-0.1407588,1.7955855,1.0710628,0.039998412,0.04,-0.001846390045256996,0.0011298622161245997,-0.0011184410195985706,0.06730182073780136,-0.13003011113416166,-0.18582159067251672,0.9820649330855187,0.07309169565214853,0.07596153307095715,-0.1563199178733769
4.149999999999991,-0.08707744,-0.82306266,0.27663425,-2.5089796,-0.14229752,1.7980394,1.0741773,0.039998386,0.04,-0.00335440828793665,0.0016272977591186288,-0.001957737457347619,0.06676262269996867,-0.13043076898942485,-0.18561669079240914,0.9816920938612541,0.07368775223700963,0.0769853587100535,-0.15787337509804567
4.166666666666657,-0.08802023,-0.8234809,0.27962482,-2.5106294,-0.14383708,1.8004949,1.0772932,0.03999837,0.04,-0.002612922306322041,0.0016336961257801264,-0.0015846075305914198,0.06621118016355933,-0.13081435903726804,-0.1853860720766568,0.9813157880349055,0.07427924142642894,0.07801307950252946,-0.1594235800409679
4.183333333333324,-0.088963404,-0.82389945,0.28261667,-2.5122805,-0.14537726,1.8029513,1.0804105,0.039998353,0.04,-0.003634033204558129,0.0019792688287584292,-0.0023195696801314725,0.06565077650982722,-0.13117815907025232,-0.1851324012420688,0.9809360750353314,0.07486626651728069,0.07904415599794061,-0.16097043279626036
4.19999999999999,-0.089906864,-0.8243181,0.28560948,-2.513932,-0.14691791,1.8054086,1.0835289,0.039998326,0.04,-0.002640503108164438,0.001851710188507938,-0.001952248054015726,0.0650794551136393,-0.13152593205994112,-0.1848545277751716,0.980553005782647,0.07544870528815313,0.08007871499922273,-0.16251367673224024
4.216666666666657,-0.09085049,-0.8247369,0.28860274,-2.5155835,-0.14845888,1.8078662,1.0866476,0.039998308,0.04,-0.0019495503003952308,0.002087310832876721,-0.0020269426719066175,0.06449775326681921,-0.13185445334676116,-0.18455200965342466,0.9801666522141804,0.07602636713686008,0.0811166463121045,-0.16405308615900543
4.233333333333324,-0.09179418,-0.82515556,0.29159614,-2.517235,-0.14999998,1.810324,1.0897665,0.039998293,0.04,-0.0023386723475793403,0.002235780569806445,-0.002119034984082724,0.06390724688200929,-0.13216357403362916,-0.1842265073518945,0.9797770873332401,0.07659920837188244,0.08215764254161284,-0.1655884723813772
4.24999999999999,-0.09273779,-0.8255743,0.29458934,-2.5188866,-0.1515409,1.8127817,1.0928854,0.039998274,0.04,-0.002206203173349408,0.0023034274330424598,-0.002308364341874203,0.06330812545342789,-0.13245302045371082,-0.18387669841667512,0.979384369321609,0.07716727176040178,0.08320166195740124,-0.16711957618752085
4.266666666666657,-0.0936812,-0.825993,0.2975819,-2.5205379,-0.15308155,1.8152388,1.0960035,0.039998263,0.04,-0.002054057018874289,0.002592221948943818,-0.0025735089943079714,0.0626986240712849,-0.13272413992993154,-0.18350128160765955,0.9789885810640283,0.07773035503954247,0.08424839130666417,-0.16864625289020313
4.2833333333333234,-0.09462434,-0.82641166,0.30057344,-2.522189,-0.15462174,1.8176954,1.0991206,0.039998237,0.04,-0.0021198339331895966,0.002850368911500034,-0.0025625270723361737,0.06208136681522543,-0.13297587414991174,-0.18310550036381457,0.9785897940580963,0.07828840389823845,0.08529770605800867,-0.17016827589665645
4.29999999999999,-0.09556704,-0.82683015,0.30356362,-2.5238385,-0.15616122,1.8201504,1.1022364,0.03999822,0.04,-0.000533783458633863,0.002522521194125993,-0.0025300702083397297,0.06145596199926949,-0.13320946360942099,-0.18268515013725106,0.9781880694648939,0.07884140858831369,0.08634959618999691,-0.17168541081343797
4.316666666666657,-0.09650921,-0.8272484,0.30655217,-2.5254874,-0.15769987,1.8226041,1.1053505,0.0399982,0.04,-0.0017798448153305557,0.002935490731517665,-0.002760749127905804,0.06082225125970741,-0.13342185319502342,-0.18224241543377354,0.9777834879323335,0.07938925852420409,0.08740370980148404,-0.17319754002524182
4.333333333333323,-0.09745072,-0.8276663,0.30953866,-2.5271351,-0.15923749,1.8250561,1.1084621,0.03999819,0.04,-0.0012052284200647634,0.002985514010336865,-0.002707476742003223,0.060180883522279086,-0.13361449336568104,-0.18177639535551698,0.9773761448719862,0.07993166871736514,0.08845991298596305,-0.17470444632506446
4.34999999999999,-0.098391466,-0.8280838,0.31252274,-2.5287817,-0.16077386,1.8275061,1.1115717,0.03999817,0.04,-0.001345931340579476,0.003214601593440336,-0.002971679315222353,0.059533283466421866,-0.133788824786822,-0.18128756334172777,0.9769660891941943,0.08046901659531219,0.08951800749202392,-0.17620591439404898
4.3666666666666565,-0.09933134,-0.828501,0.3155039,-2.530426,-0.1623088,1.8299541,1.1146783,0.03999815,0.04,0.0003977625237183702,0.0030397633028950155,-0.0023556429345150676,0.05887702515095856,-0.13394325870435156,-0.18077547071458547,0.9765534003179293,0.08100095979085416,0.0905783584700654,-0.17770160893283732
4.383333333333323,-0.1002702,-0.82891774,0.31848204,-2.5320694,-0.16384216,1.8323995,1.1177814,0.039998136,0.04,-0.002104351928711168,0.0036512607901911798,-0.0036142338539990604,0.058215184005598906,-0.13407476540281157,-0.18024297294770456,0.9761381936085689,0.08152734838073447,0.09163987004711527,-0.17919166460065605
4.39999999999999,-0.10120794,-0.82933396,0.32145652,-2.5337105,-0.1653737,1.8348417,1.1208808,0.03999811,0.04,0.00018311829972361693,0.0035199860089707435,-0.0029961680312773353,0.05754769160644722,-0.13418977789091036,-0.1796882627166799,0.9757205335961329,0.08204829494695412,0.0927028993256737,-0.1806756488068859
4.416666666666656,-0.10214449,-0.82974976,0.3244271,-2.5353494,-0.16690329,1.837281,1.1239762,0.03999811,0.04,-6.151937639309324e-05,0.003669216110871454,-0.0031103805459231637,0.056873474805751584,-0.1342839069668949,-0.17910705599311844,0.975300488405711,0.0825636967844236,0.09376735282721066,-0.18215344309852868
4.433333333333323,-0.10307969,-0.8301651,0.32739344,-2.5369859,-0.16843073,1.8397166,1.1270673,0.03999808,0.04,2.833100234411745e-05,0.003806049337720663,-0.003457178024257601,0.05619461822805498,-0.13435640774225138,-0.17851080615786938,0.9748781425056721,0.0830735851410023,0.09483289061981173,-0.18362491544777357
4.4499999999999895,-0.104013436,-0.83057964,0.3303552,-2.5386212,-0.16995578,1.8421483,1.1301537,0.03999806,0.04,-0.0024677449819598962,0.0045503343090252946,-0.0041273480173575905,0.055509703837016394,-0.13440898881939728,-0.17788971684013577,0.9744536381655469,0.08357785681170016,0.09589861055696128,-0.18508999273309382
4.466666666666656,-0.10494562,-0.83099353,0.33331195,-2.5402522,-0.17147824,1.8445761,1.1332349,0.039998043,0.04,0.003088427723563214,0.0032380531389208933,-0.002481429537048996,0.05481863172814325,-0.1344477746439334,-0.1772467995319535,0.9740269775978517,0.08407643588972155,0.09696591437157583,-0.18654814737691647
4.483333333333323,-0.10587612,-0.83140683,0.3362634,-2.5418804,-0.17299798,1.8469996,1.1363103,0.039998025,0.04,0.0005242099758273611,0.00411860448890633,-0.0035814358552821446,0.05412385799442878,-0.13445742288982832,-0.1765823555775066,0.9735982887225078,0.08456918465847972,0.09803384644322458,-0.18799944189904041
4.499999999999989,-0.10680481,-0.83181924,0.33920917,-2.5435045,-0.1745148,1.8494184,1.1393801,0.039998006,0.04,0.002104279212877813,0.0037735433882885028,-0.003114266097004048,0.05342585128053535,-0.13444843695249106,-0.17589553538446984,0.9731676370475926,0.08505622022124905,0.0991025415833678,-0.18944359544887307
4.516666666666656,-0.10773162,-0.83223075,0.34214884,-2.5451274,-0.17602858,1.851832,1.1424434,0.039997976,0.04,-0.002997320283970595,0.005676276062233088,-0.005002107268792244,0.052725276114575795,-0.13441481181256548,-0.1751952296545694,0.9727351996610885,0.08553745805909502,0.10017029842227004,-0.190880816016393
4.533333333333323,-0.1086564,-0.8326415,0.34508216,-2.546746,-0.17753904,1.8542408,1.1455,0.039997958,0.04,0.002627298013546664,0.003910384896363417,-0.003126168575207089,0.05201774733202286,-0.13437116487701978,-0.17446811914228644,0.9723009813396688,0.08601271623154712,0.10123868472148821,-0.19231053805824483
4.549999999999989,-0.10957904,-0.8330513,0.34800857,-2.5483613,-0.17904596,1.8566437,1.1485497,0.03999794,0.04,0.0005254766545892409,0.00502871762316226,-0.004273289175116268,0.051310307783467526,-0.1343015882150585,-0.1737234665738807,0.9718651110675578,0.08648231469120302,0.10230664091394996,-0.19373271886854712
4.566666666666656,-0.11049943,-0.83346015,0.35092786,-2.5499723,-0.18054925,1.8590407,1.1515918,0.03999793,0.04,0.0020648046290761,0.004539548917945058,-0.0036849946564165847,0.050596438231286636,-0.13421422288584967,-0.1729568735744735,0.9714276700538872,0.08694587457615666,0.10337443291673529,-0.1951471838562035
4.583333333333322,-0.111417465,-0.83386797,0.3538397,-2.5515792,-0.18204878,1.8614315,1.1546261,0.03999791,0.04,0.0015061187543130572,0.0049681513439953084,-0.004142357969438848,0.04988250027142767,-0.13410625639534118,-0.17217350164320502,0.9709887440631182,0.08740351749614741,0.10444163943182083,-0.19655388061501775
4.599999999999989,-0.11233303,-0.83427465,0.35674366,-2.5531812,-0.18354423,1.8638163,1.1576524,0.03999789,0.04,0.003155610599625547,0.0044527105208969076,-0.003319018399516871,0.04916635655529295,-0.13397722528509015,-0.17137055202725568,0.9705484196724148,0.08785516176688826,0.10550870399703202,-0.19795239074878251
4.616666666666656,-0.11324603,-0.83468014,0.3596394,-2.5547774,-0.18503554,1.866194,1.1606703,0.039997872,0.04,0.004012452730872695,0.004584505064025857,-0.0035882859835467684,0.04844934413480735,-0.13382489277509735,-0.17054935407462826,0.9701067714041868,0.08830091673127649,0.10657535099276638,-0.19934265660146508
4.633333333333322,-0.114156365,-0.83508456,0.36252666,-2.5563695,-0.1865225,1.8685648,1.1636788,0.03999787,0.04,0.001267184658004794,0.005502185569436491,-0.0045341443761559574,0.04773080505137001,-0.13364620686387962,-0.16970761649869043,0.9696639587487926,0.08874041018921698,0.10764070321723067,-0.2007247511244429
4.649999999999989,-0.1150639,-0.8354877,0.36540505,-2.5579576,-0.18800487,1.8709283,1.1666782,0.03999785,0.04,0.0008994861485644989,0.005737182614759528,-0.004800541529492719,0.047012736756681925,-0.13345121571538715,-0.1688495067826702,0.9692200696478724,0.08917398850566761,0.10870440555555101,-0.20209851206423704
4.666666666666655,-0.11596851,-0.8358896,0.36827418,-2.5595407,-0.18948257,1.8732842,1.1696684,0.03999783,0.04,0.0025247575849984827,0.005494177508022502,-0.004289699987425344,0.04629254963585856,-0.13324044702867896,-0.16797486206551077,0.9687751618510608,0.08960172386643592,0.10976675427495414,-0.20346369827700417
4.683333333333322,-0.116870075,-0.83629,0.3711337,-2.561118,-0.1909553,1.8756322,1.1726483,0.039997812,0.04,0.003878161316683837,0.005139082612534707,-0.00402072695417921,0.04557017826094107,-0.13300785474326188,-0.16707955334349128,0.968329371038777,0.09002321097235191,0.11082771931829606,-0.20482008519815412
4.699999999999989,-0.11776856,-0.8366894,0.37398326,-2.56269,-0.19242297,1.8779722,1.1756178,0.0399978,0.04,0.0027856830764116935,0.005858521503021574,-0.004631138258481826,0.04484987106991501,-0.13275438027161207,-0.1661670230619034,0.9678827586773161,0.09043864797000313,0.11188702498248172,-0.20616767459792495
4.716666666666655,-0.1186638,-0.8370872,0.37682256,-2.5642567,-0.1938854,1.880304,1.1785768,0.039997786,0.04,0.0027819769985670817,0.005809936216352729,-0.004463398504395144,0.04412914421621818,-0.13247989271696037,-0.16523623513478589,0.9674354491962357,0.09084808307215622,0.11294430434611112,-0.20750629281148372
4.733333333333322,-0.119555704,-0.8374834,0.37965134,-2.5658169,-0.19534236,1.8826269,1.1815248,0.03999777,0.04,0.004277572581345979,0.005405706596825488,-0.004225937680590874,0.043408861693320366,-0.13218636296489808,-0.16429014224393723,0.966987530598307,0.09125137969971579,0.11399965690307147,-0.20883577183104565
4.7499999999999885,-0.12044417,-0.83787835,0.3824691,-2.567371,-0.1967937,1.8849407,1.1844612,0.039997753,0.04,0.004271670444166986,0.005925759433145217,-0.0046313920222917915,0.042690696814022065,-0.13187238733405698,-0.16332874428224237,0.9665390894069523,0.09164864357713443,0.1150529070905035,-0.21015599765144616
4.766666666666655,-0.121329084,-0.83827156,0.38527563,-2.568919,-0.19823928,1.8872452,1.1873854,0.039997738,0.04,0.0031776311104403376,0.006148329541613706,-0.004845602937897375,0.041972779217838624,-0.13153701173827936,-0.16234912910592147,0.9660902813732003,0.09203955222503733,0.11610339109798815,-0.2114669989336702
4.783333333333322,-0.12221033,-0.83866316,0.38807058,-2.5704603,-0.19967891,1.8895401,1.1902981,0.03999772,0.04,0.004570154100158597,0.0059188850230040835,-0.004536000332944212,0.04125885244420703,-0.1311852978818926,-0.16135250715651916,0.965641132282666,0.09242462403457949,0.11715145182159843,-0.2127684888605667
4.799999999999988,-0.12308781,-0.8390531,0.39085355,-2.571996,-0.2011125,1.8918253,1.1931983,0.039997708,0.04,0.002861792830510801,0.0067481393633744835,-0.005141917158457687,0.04054439639663911,-0.13081179500123125,-0.16033932458770458,0.965191790717699,0.09280365056021843,0.11819638440797049,-0.2140605154780803
4.816666666666655,-0.123961456,-0.8394414,0.39362428,-2.5735252,-0.20253968,1.8941008,1.1960866,0.0399977,0.04,0.004115520149672314,0.006369165920272479,-0.004826404606173007,0.039831105022275576,-0.13042242992090508,-0.15930918596548665,0.9647423069277836,0.09317703577524891,0.11923846297324214,-0.21534277367855842
4.8333333333333215,-0.12483113,-0.83982795,0.39638233,-2.575047,-0.2039604,1.896366,1.1989608,0.039997682,0.04,0.005490737772451126,0.006156283137695451,-0.004494191062898167,0.03911698413617225,-0.13001210927828893,-0.15826480439712223,0.9642928567886868,0.09354385473472075,0.12027752882017212,-0.21661521102774678
4.849999999999988,-0.12569673,-0.8402126,0.39912757,-2.5765615,-0.20537458,1.8986207,1.201822,0.03999766,0.04,0.005295710883612692,0.006204289926214912,-0.0046031865401419125,0.03841106128070925,-0.12958177120690223,-0.15720950062994749,0.9638434564025463,0.09390482891297651,0.12131350038937606,-0.2178777392945281
4.866666666666655,-0.12655818,-0.8405954,0.40185952,-2.5780685,-0.20678192,1.9008644,1.204669,0.039997652,0.04,0.005269729808321522,0.006626111464788642,-0.005023996435071787,0.03770604358608664,-0.12913026560095925,-0.1561353616436092,0.963394272380946,0.09425959811492521,0.12234590338195139,-0.21913029008435778
4.883333333333321,-0.12741534,-0.8409765,0.40457794,-2.579568,-0.20818232,1.9030968,1.2075025,0.03999763,0.04,0.005687352048311389,0.0065210614940164335,-0.004953140637242726,0.037006407457504296,-0.12866176916055916,-0.15504770058024556,0.962945334614703,0.09460866849881189,0.12337483002752424,-0.22037271542625053
4.899999999999988,-0.12826815,-0.8413555,0.40728262,-2.5810597,-0.20957562,1.905318,1.210321,0.03999761,0.04,0.0054319466724628285,0.006579684446034184,-0.004858827235953989,0.03630752412291817,-0.12817309204591373,-0.15394744859839504,0.9624968084487816,0.09495140115099801,0.12439992399558686,-0.221605018118417
4.9166666666666545,-0.12911652,-0.8417327,0.40997306,-2.5825438,-0.21096164,1.9075277,1.2131246,0.0399976,0.04,0.005601577433900218,0.006993717376699293,-0.00512855537757595,0.03561550842235624,-0.1276670885807424,-0.15283132350877604,0.9620487670141175,0.09528821213368975,0.12542104264087486,-0.2228270373582553
4.933333333333321,-0.1299603,-0.84210783,0.41264898,-2.5840197,-0.21234024,1.9097254,1.2159134,0.039997596,0.04,0.006560528096777318,0.006672154795261953,-0.004867357841975561,0.0349273948444902,-0.12714076823436526,-0.15169898030183515,0.9616012928403265,0.09561916292186115,0.12643820380349485,-0.2240386348576539
4.949999999999988,-0.1307994,-0.84248096,0.41531003,-2.5854878,-0.21371123,1.911911,1.2186866,0.039997585,0.04,0.005290599918561512,0.007365411482693207,-0.005433642139429651,0.03424334890523437,-0.12659666797512384,-0.1505578911445859,0.961154529355692,0.09594414367287425,0.1274507961600844,-0.22523984228390384
4.966666666666654,-0.13163376,-0.84285194,0.417956,-2.5869477,-0.21507448,1.9140841,1.221444,0.039997574,0.04,0.006304549677915716,0.007077840375716016,-0.0051820725556650515,0.033563736634255256,-0.12603661353421802,-0.14940382939518523,0.9607085495674084,0.09626324831309552,0.12845885935675347,-0.22643054401970508
4.983333333333321,-0.13246329,-0.8432208,0.42058668,-2.5883987,-0.21642986,1.9162445,1.2241856,0.039997555,0.04,0.007133972032513647,0.006831027916645582,-0.004956991034443803,0.032889337196769695,-0.12545996551741379,-0.14823780842104245,0.9602634195685906,0.09657654129999661,0.1294624921523757,-0.2276106320773766
4.999999999999988,-0.13328789,-0.8435875,0.4232016,-2.589841,-0.21777716,1.9183921,1.2269115,0.03999754,0.04,0.00720296890772687,0.007149289205118925,-0.005106590238868058,0.032220012565698605,-0.12486403733684964,-0.14705820664192318,0.9598192208060322,0.09688440367773465,0.13046155508503843,-0.22877993430391735
5.016666666666654,-0.13410743,-0.8439521,0.4258005,-2.5912743,-0.21911623,1.9205265,1.2296202,0.039997537,0.04,0.007090281066668425,0.007211114854493994,-0.005234058880709824,0.03155262196374206,-0.12424735285948531,-0.14586706623309878,0.9593761224323285,0.09718617927184384,0.13145565732812192,-0.22993849704145297
5.033333333333321,-0.13492185,-0.8443143,0.42838302,-2.592699,-0.22044696,1.9226476,1.2323122,0.039997518,0.04,0.006344001068869787,0.007746879067738188,-0.0053934112430154,0.030893277650440715,-0.12361572460754575,-0.14466448187807895,0.9589342050609247,0.09748237058981721,0.1324444268864483,-0.23108624272137446
5.049999999999987,-0.13573106,-0.84467405,0.43094894,-2.5941143,-0.22176918,1.9247551,1.2349864,0.03999751,0.04,0.008018733018388957,0.007163182104000243,-0.004981773904000342,0.030238070257854067,-0.1229676531869126,-0.14344898915517162,0.9584935707288094,0.09777259969610345,0.13342805165242724,-0.23222305796892723
5.066666666666654,-0.13653491,-0.8450317,0.43349808,-2.5955207,-0.22308274,1.9268488,1.2376437,0.039997496,0.04,0.0070056149035879756,0.007632938391868849,-0.005641385584875813,0.029591601792380014,-0.12230320211849602,-0.14222443612096744,0.9580542610943207,0.09805744660976329,0.13440623539449462,-0.23334895296629976
5.083333333333321,-0.13733338,-0.84538686,0.43603018,-2.5969172,-0.22438748,1.9289286,1.240283,0.03999749,0.04,0.008782681460695052,0.006967784866884763,-0.004791647910251662,0.028947786552196382,-0.12162253238295222,-0.1409868875526762,0.9576163924355121,0.09833650287208708,0.13537921013380116,-0.2344637426239528
5.099999999999987,-0.1381264,-0.84573954,0.4385448,-2.5983043,-0.22568324,1.9309939,1.2429041,0.03999747,0.04,0.007317012036067716,0.007972070653142205,-0.005630644397336404,0.02831300302631272,-0.12092150459343193,-0.13973922733152289,0.9571800962421386,0.09861000557595505,0.13634616982546327,-0.2355675107737189
5.116666666666654,-0.13891383,-0.8460898,0.4410418,-2.5996819,-0.22696991,1.9330449,1.2455066,0.03999746,0.04,0.007931259649640587,0.007632016788375329,-0.005342530272778312,0.02768375180205533,-0.12020851444309508,-0.13848016265815727,0.9567454430882052,0.0988778882645773,0.13730729132192657,-0.23666015315664646
5.13333333333332,-0.1396956,-0.8464374,0.44352084,-2.601049,-0.22824739,1.9350809,1.2480905,0.039997444,0.04,0.009213821978382164,0.007407980150558879,-0.00512790113151862,0.027061913280275803,-0.11948002634437734,-0.13721211088447444,0.956312510192924,0.09914026888709594,0.13826252677245274,-0.2377415900173966
5.149999999999987,-0.1404716,-0.8467826,0.44598156,-2.602406,-0.22951551,1.9371018,1.2506554,0.039997425,0.04,0.008756075032434474,0.00787399505997044,-0.005464871572868901,0.026447952073850117,-0.11873536706671249,-0.13593743600158883,0.9558813901804342,0.09939726747511334,0.1392116652142135,-0.2388117739842133
5.166666666666654,-0.1412418,-0.84712535,0.44842383,-2.6037538,-0.23077412,1.9391078,1.2532014,0.03999742,0.04,0.007405080132083519,0.008350746373797513,-0.005842360479402231,0.02583951459038767,-0.11797548179071815,-0.13464977800991512,0.9554521830698016,0.09964901939836607,0.14015424998905937,-0.23987076731043855
5.18333333333332,-0.14200613,-0.8474654,0.45084733,-2.6050901,-0.2320231,1.9410985,1.2557275,0.039997406,0.04,0.010914755984425817,0.007112005901249718,-0.004590276343630073,0.02523728950629697,-0.11720234637942617,-0.13335478977308585,0.9550249585285386,0.09989526334988787,0.14109094449921356,-0.2409182648288402
5.199999999999987,-0.14276443,-0.8478028,0.4532518,-2.6064167,-0.23326235,1.9430734,1.2582339,0.039997395,0.04,0.008008267176795592,0.008437575921999008,-0.005916758215573914,0.02464513497629604,-0.11640949098283375,-0.13205190999278837,0.9545998414978172,0.10013624364070368,0.14202071869545,-0.2419545221381483
5.2166666666666535,-0.14351667,-0.8481375,0.455637,-2.607732,-0.2344917,1.9450326,1.2607204,0.03999739,0.04,0.010411945433430603,0.007552041469732762,-0.004967462570681924,0.024058650288531668,-0.1156073762734508,-0.13073685209045469,0.9541768778677864,0.10037202545812393,0.1429441179194235,-0.2429792612552663
5.23333333333332,-0.14426273,-0.8484695,0.4580027,-2.609037,-0.23571096,1.9469756,1.2631862,0.03999738,0.04,0.00912634468877016,0.008197164859316541,-0.0057167692855575325,0.02348079949203653,-0.11478708429911766,-0.12941562038219073,0.9537562089867968,0.10060251526577393,0.14386046659237534,-0.24399261032489772
5.249999999999987,-0.1450026,-0.8487987,0.46034876,-2.6103306,-0.23692015,1.9489022,1.2656316,0.03999737,0.04,0.01025981665165876,0.007805083715689554,-0.0052670145936684065,0.02291106277195238,-0.11395647727893463,-0.1280882482948064,0.9533378611859561,0.10082785914592045,0.14476997170214484,-0.24499453165896834
5.266666666666653,-0.14573616,-0.8491252,0.46267477,-2.6116135,-0.23811905,1.9508128,1.268056,0.039997358,0.04,0.009755069399064453,0.008220914815668112,-0.005414335828679562,0.022350694344750625,-0.1131104688821889,-0.12675304134803125,0.9529219484136124,0.10104810371662032,0.14567245382236108,-0.24598491247280127
5.28333333333332,-0.14646336,-0.84944874,0.4649805,-2.6128852,-0.23930745,1.9527067,1.2704595,0.03999735,0.04,0.010063943049720692,0.008149876223959018,-0.005384248607165354,0.021797510851430186,-0.11225182353068186,-0.12540866710349607,0.9525085715271197,0.10126341194779695,0.14656764626293367,-0.24696369700221163
5.2999999999999865,-0.14718409,-0.8497696,0.4672659,-2.6141458,-0.24048537,1.9545839,1.2728418,0.03999734,0.04,0.0104958892459317,0.008044447704069757,-0.00544636488288841,0.021252495917298695,-0.11138013078296222,-0.12405946871997368,0.9520977637986849,0.10147374960964137,0.14745564371964084,-0.24793095701208734
5.316666666666653,-0.1478984,-0.85008734,0.46953052,-2.6153948,-0.24165267,1.956444,1.2752024,0.039997328,0.04,0.010412527661496362,0.008437449358913995,-0.005328264165882501,0.020716455669947856,-0.11049556729006868,-0.12270391713312122,0.9516896565097422,0.10167918808415331,0.1483360549070848,-0.24888663125511265
5.33333333333332,-0.1486061,-0.8504024,0.47177434,-2.6166322,-0.24280927,1.958287,1.2775413,0.039997324,0.04,0.011309644456947154,0.007992780074494998,-0.005383198413033696,0.020187720441108243,-0.10960080833073432,-0.1213424878760711,0.9512842647120984,0.10187978947473793,0.14920912343058357,-0.2498307300810338
5.349999999999986,-0.14930713,-0.85071456,0.4739971,-2.617858,-0.243955,1.9601127,1.2798582,0.039997313,0.04,0.011061434807313475,0.008138178905645055,-0.005351191750313511,0.01966897909876345,-0.1086917564423684,-0.11997443469828661,0.9508816971233518,0.10207561514285267,0.15007459224657393,-0.2507632023065723
5.366666666666653,-0.1500014,-0.85102355,0.4761985,-2.619072,-0.24508975,1.9619207,1.2821529,0.039997302,0.04,0.01075112954163071,0.008379074570361023,-0.005468555335963465,0.01915894674426858,-0.10776975376133467,-0.11860181991261393,0.9504820658668675,0.1022666901791809,0.15093209189910364,-0.2516840681890844
5.3833333333333195,-0.1506889,-0.85132957,0.47837827,-2.6202738,-0.24621345,1.9637114,1.284425,0.039997295,0.04,0.011968404644546737,0.008116995140627914,-0.0050208735341339406,0.018656828813702262,-0.10683954516435787,-0.11722274817615953,0.9500854131930319,0.10245306475976534,0.1517819551530516,-0.2525931813194377
5.399999999999986,-0.15136954,-0.85163265,0.4805364,-2.621464,-0.24732596,1.965484,1.2866746,0.03999728,0.04,0.011036346824622179,0.008514737896234137,-0.005695865392940647,0.01816541356790446,-0.1058951399330762,-0.11583814740255576,0.9496918083692754,0.10263491999887561,0.1526236864242323,-0.2534907348511925
5.416666666666653,-0.15204325,-0.8519326,0.48267257,-2.6226423,-0.24842718,1.9672385,1.2889014,0.039997272,0.04,0.011242621515750173,0.008560295820592145,-0.005504921348764569,0.01768137620621951,-0.10494066499068873,-0.11444746126036268,0.949301346776789,0.1028123132476093,0.15345715200447121,-0.25437665724497327
5.433333333333319,-0.15271,-0.8522294,0.4847866,-2.6238084,-0.24951704,1.968975,1.291105,0.039997272,0.04,0.011797550054870598,0.008444601897700243,-0.005330518767787673,0.017205724011811193,-0.10397835417863589,-0.11305391038161447,0.9489140968617349,0.10298516883719398,0.15428238737262873,-0.2552509289371046
5.449999999999986,-0.15336974,-0.85252327,0.4868783,-2.6249619,-0.2505954,1.9706932,1.2932854,0.039997257,0.04,0.012816926293290898,0.008082685542315504,-0.005035073249337607,0.016739091357115446,-0.10300593847566543,-0.11165299583425753,0.9485300954400231,0.10315362930005077,0.15509962837035307,-0.2561134359734895
5.466666666666653,-0.15402237,-0.852814,0.4889475,-2.626103,-0.2516621,1.9723929,1.2954422,0.039997246,0.04,0.01217595168430119,0.008431757093979586,-0.005419844425058606,0.016282757323853016,-0.10201981340589727,-0.11024983467451016,0.9481494405185578,0.10331777974299106,0.1559084233683473,-0.25696427447433434
5.483333333333319,-0.15466782,-0.8531013,0.490994,-2.6272314,-0.2527172,1.9740738,1.2975755,0.039997242,0.04,0.012206145192195095,0.008465542242158675,-0.005263545354372567,0.01583552731236477,-0.10102595018304965,-0.10884299386415482,0.9477722127871222,0.10347768068799996,0.15670856639430986,-0.2578034667856014
5.499999999999986,-0.15530612,-0.8533856,0.49301767,-2.6283472,-0.25376052,1.975736,1.2996849,0.039997242,0.04,0.012885186589306485,0.008363702056823907,-0.005212192091330614,0.015396771233158586,-0.10002365204846518,-0.10743287132029569,0.9473984342417917,0.10363339220402958,0.1575003092194195,-0.25863097148693215
5.516666666666652,-0.15593709,-0.8536664,0.49501833,-2.6294498,-0.25479198,1.9773793,1.3017703,0.03999723,0.04,0.013033643933524353,0.008077126503960863,-0.004962483784498595,0.014967945824494028,-0.09901117348114846,-0.10602055185855037,0.9470282105397281,0.10378492775737226,0.15828342331943054,-0.2594467481287811
5.533333333333319,-0.15656076,-0.85394436,0.49699572,-2.63054,-0.25581148,1.9790033,1.3038318,0.03999722,0.04,0.012978362383386788,0.008775211338049593,-0.005607933968199141,0.014548637186215605,-0.09799059530189522,-0.10460513039340025,0.946661550203617,0.10393264266466949,0.15905778670959456,-0.26025090901256787
5.549999999999986,-0.1571771,-0.85421896,0.49894974,-2.6316175,-0.2568191,1.9806081,1.305869,0.039997205,0.04,0.012150431941582163,0.008979790378382813,-0.005490660133755654,0.01413690133358489,-0.09696052887538864,-0.10319012969330019,0.9462985561145484,0.1040763932173747,0.15982305044356848,-0.26104355885042657
5.566666666666652,-0.15778601,-0.8544903,0.50088024,-2.6326823,-0.25781456,1.9821935,1.3078816,0.0399972,0.04,0.01297448660988465,0.008565789527156809,-0.005351171505507679,0.01373301590155291,-0.0959261452911716,-0.1017689484772307,0.945939296861721,0.10421622990847798,0.16057928360409437,-0.2618245934850507
5.583333333333319,-0.15838751,-0.8547582,0.50278735,-2.633734,-0.2587979,1.9837596,1.3098695,0.039997198,0.04,0.013359613854979635,0.00818642427856675,-0.004971409283638373,0.013337584089737248,-0.09488376884849978,-0.10034419870464749,0.9455837969252863,0.1043520735455996,0.1613266227050792,-0.26259407561037157
5.599999999999985,-0.15898147,-0.85502267,0.5046706,-2.634772,-0.25976893,1.9853063,1.3118325,0.03999719,0.04,0.014098206148505099,0.00809694663337357,-0.00484693444640083,0.01295321698161363,-0.09383539586448654,-0.09891979967316737,0.9452321502495586,0.10448407362244942,0.1620650160111092,-0.2633518389515692
5.616666666666652,-0.15956788,-0.85528404,0.5065299,-2.6357975,-0.26072764,1.9868338,1.3137709,0.039997187,0.04,0.01314233787996777,0.008721570222849917,-0.005189375305469923,0.01257954183375334,-0.09277764835563396,-0.09749620008966677,0.9448843696160394,0.10461245895080766,0.16279440222291208,-0.2640979819923852
5.633333333333319,-0.16014674,-0.855542,0.50836515,-2.6368093,-0.26167405,1.9883413,1.3156838,0.03999718,0.04,0.014211093256566443,0.008459993014031664,-0.005041864888788439,0.012213902318846528,-0.09171378341402621,-0.09606958887582293,0.944540529398284,0.10473709908240021,0.16351455286318964,-0.2648326252593585
5.649999999999985,-0.16071796,-0.8557966,0.5101762,-2.637808,-0.26260805,1.989829,1.3175718,0.039997175,0.04,0.013498912258791407,0.008708337790749865,-0.005240148485730067,0.011858756296729361,-0.09064209033993964,-0.09464330528518523,0.944200675975932,0.10485825384102034,0.16422532092640882,-0.26555578331985763
5.666666666666652,-0.16128156,-0.85604763,0.51196295,-2.6387935,-0.2635295,1.9912969,1.3194345,0.039997168,0.04,0.013866779867965917,0.008396303680749395,-0.004873800060134492,0.011511427640960893,-0.08956685257697913,-0.09321477091707468,0.9438648668331909,0.1049759414364164,0.16492680975806748,-0.2662673699508203
5.6833333333333185,-0.16183744,-0.8562954,0.5137254,-2.6397655,-0.26443845,1.9927446,1.3212718,0.03999716,0.04,0.014045275664709145,0.008575279556394255,-0.005267788460239231,0.011172876827174959,-0.08848512199314885,-0.09178788140723095,0.9435331280513898,0.10509017279141245,0.16561882138223294,-0.2669675970154259
5.699999999999985,-0.1623856,-0.85653967,0.51546323,-2.6407237,-0.26533473,1.9941722,1.3230836,0.039997153,0.04,0.014747511192836349,0.008256685681462539,-0.004705058549969721,0.010843759602674464,-0.08739975176135277,-0.0903608323078704,0.9432055234245093,0.10520112528734035,0.166301536876532,-0.2676562397036134
5.716666666666652,-0.16292596,-0.8567805,0.51717645,-2.6416678,-0.26621833,1.99558,1.3248698,0.039997153,0.04,0.015386897178992776,0.007888514135737101,-0.004478841522659316,0.010522455551738322,-0.0863073767705071,-0.08893355387265887,0.9428820796344828,0.10530866258150598,0.1669751225630392,-0.26833333362537265
5.733333333333318,-0.16345853,-0.85701776,0.518865,-2.6425989,-0.2670892,1.9969672,1.3266302,0.039997153,0.04,0.013343913402641405,0.008913601216431477,-0.005344170719356889,0.010212239758099057,-0.08520774895084555,-0.08750714347450317,0.9425628864215022,0.10541305802005817,0.1676387478484322,-0.268999149737385
5.749999999999985,-0.16398336,-0.85725164,0.5205287,-2.643516,-0.2679473,1.9983344,1.3283648,0.03999715,0.04,0.015168885025862444,0.008323952696145942,-0.004605226727161238,0.009908938646919052,-0.08410763279588021,-0.08608168708835709,0.9422479314477946,0.10551430179728181,0.16829303092826164,-0.2696535249900574
5.7666666666666515,-0.16450027,-0.8574821,0.5221675,-2.6444201,-0.26879245,1.9996808,1.3300735,0.03999715,0.04,0.013553231797858167,0.008922942790046129,-0.005554288296694132,0.009615829496067846,-0.08300105307835351,-0.08465790195156436,0.9419373139989566,0.10561250012557356,0.1689371962094287,-0.27029672593384074
5.783333333333318,-0.16500932,-0.8577091,0.5237815,-2.6453104,-0.2696249,2.0010066,1.3317556,0.03999714,0.04,0.015074674357595796,0.008317445212419061,-0.00481220183241593,0.009328271814023625,-0.08189573826240154,-0.0832349558922401,0.9416310217677708,0.10570741716747759,0.16957170235508898,-0.27092877027138
5.799999999999985,-0.16551046,-0.85793257,0.52537024,-2.6461864,-0.27044448,2.0023122,1.3334122,0.039997138,0.04,0.015870493169045652,0.008019563606861957,-0.004264174581036784,0.009052930082658329,-0.08078667029483164,-0.08181347531355702,0.9413290732823825,0.10579957155082834,0.1701968615520151,-0.2715493597319578
5.816666666666651,-0.16600367,-0.85815257,0.52693385,-2.6470485,-0.27125108,2.003597,1.3350426,0.039997138,0.04,0.015042985045421453,0.008433674209271103,-0.004873354431200738,0.0087844185906721,-0.07967249638183177,-0.08039354587168922,0.9410315347931619,0.10588891682080871,0.1708122147697197,-0.2721587314506098
5.833333333333318,-0.16648899,-0.85836905,0.52847254,-2.647897,-0.27204472,2.004861,1.3366467,0.039997134,0.04,0.01456223316491645,0.008408813619908972,-0.004977582943022085,0.008523916961161459,-0.07855537787015926,-0.07897756077118846,0.9407384350574697,0.10597532791994184,0.17141759676282609,-0.2727570974290874
5.8499999999999845,-0.1669664,-0.85858196,0.52998626,-2.6487315,-0.27282536,2.0061042,1.3382244,0.03999713,0.04,0.01529045908927884,0.008105058397683829,-0.0047635522318678625,0.008271967215130998,-0.0774369000452582,-0.07756328973317872,0.9404497931535627,0.1060589069125393,0.1720130862563944,-0.2733444584740809
5.866666666666651,-0.16743584,-0.85879135,0.5314745,-2.6495514,-0.27359292,2.0073266,1.3397756,0.03999713,0.04,0.01642761147733207,0.008001115594169494,-0.004255482167048186,0.008028550650967642,-0.07631928587273809,-0.07615082108966957,0.9401656626854802,0.10613976319321133,0.17259895350554388,-0.27392056991991665
5.883333333333318,-0.16789733,-0.8589972,0.5329376,-2.6503577,-0.27434763,2.008529,1.341301,0.039997127,0.04,0.015035514160710584,0.008138283074568542,-0.0043895935668336605,0.0077947007270644155,-0.0751985730380848,-0.0747458488862359,0.9398859954931635,0.10621806808906364,0.1731752228647353,-0.2744856638751853
5.899999999999984,-0.1683508,-0.85919946,0.53437525,-2.6511507,-0.2750893,2.0097103,1.3427998,0.039997127,0.04,0.014294103435696925,0.008921292783914403,-0.0050564598000679695,0.007568023742072041,-0.07407377347355788,-0.0733412340114928,0.939610925696689,0.10629379607839562,0.17374115428738765,-0.27503990352954555
5.916666666666651,-0.16879635,-0.85939807,0.5357876,-2.6519296,-0.2758179,2.0108707,1.3442721,0.039997127,0.04,0.015522408884649508,0.008268812532710723,-0.004554231961551025,0.007348558605023784,-0.07295122918299587,-0.07194054372971628,0.9393404299788014,0.10636703373278644,0.17429708852377673,-0.2755832645032409
5.933333333333318,-0.16923386,-0.85959315,0.53717464,-2.6526942,-0.27653334,2.01201,1.3457184,0.039997123,0.04,0.016060101923343062,0.007786483527749688,-0.004433354392996414,0.00713603989525851,-0.0718312785983963,-0.07054304820765442,0.9390745028251228,0.1064379680211939,0.17484324007786117,-0.2761156976818652
5.949999999999984,-0.16966335,-0.8597848,0.5385365,-2.653445,-0.27723587,2.0131288,1.3471379,0.039997112,0.04,0.015517106825257976,0.008117967915288737,-0.004534122749855207,0.006930707782698792,-0.07070827380029754,-0.06915300714021298,0.9388131638494684,0.10650629873403697,0.1753794634606731,-0.2766374803044117
5.966666666666651,-0.17008488,-0.8599729,0.539873,-2.6541822,-0.27792525,2.0142257,1.3485309,0.039997112,0.04,0.014764580694648366,0.008786239418023811,-0.005221531031152082,0.006734193616726848,-0.06958585548780533,-0.0677622328125562,0.9385564719542142,0.10657241657264664,0.17590517982458678,-0.27714876274233013
5.983333333333317,-0.17049839,-0.8601574,0.541184,-2.6549053,-0.2786016,2.0153024,1.3498982,0.03999711,0.04,0.015997357554242697,0.007877925536040054,-0.003955970398061837,0.006541861154252482,-0.06847063528014824,-0.06637664559961427,0.9383043902640603,0.1066365905541913,0.17642129692032296,-0.2776491216609894
5.999999999999984,-0.17090394,-0.86033833,0.5424697,-2.6556144,-0.27926493,2.016359,1.3512386,0.0399971,0.04,0.01622206028826234,0.007648646790650582,-0.003800897471162301,0.0063554426238825006,-0.06735199314499396,-0.06499860737147642,0.9380569700302147,0.10669818431573307,0.17692779687203622,-0.2781387659702731
6.016666666666651,-0.17130148,-0.8605157,0.5437302,-2.6563094,-0.27991518,2.0173945,1.3525522,0.0399971,0.04,0.015756101244113196,0.007872945329842618,-0.004510916001532195,0.006180720577967019,-0.06623243318045104,-0.0636254095163361,0.9378142298145388,0.1067574270056093,0.17742416444988143,-0.2786179965575928
6.033333333333317,-0.17169109,-0.8606895,0.54496545,-2.6569903,-0.2805524,2.0184093,1.3538398,0.039997097,0.04,0.01599338971458586,0.007831032237870517,-0.004155434014485593,0.00601363431139027,-0.06511706387746652,-0.06225747067450999,0.9375761391614967,0.10681475563051217,0.177910701503409,-0.27908667747705296
6.049999999999984,-0.17207272,-0.8608599,0.54617536,-2.6576571,-0.2811767,2.0194032,1.3551017,0.03999709,0.04,0.016247802913293974,0.007872905865211055,-0.004129206605241187,0.005851767332928035,-0.06400304060555158,-0.06089530035905715,0.9373426656171621,0.1068703857601787,0.178387529599292,-0.27954487501051645
6.06666666666665,-0.17244641,-0.8610266,0.54736006,-2.6583102,-0.281788,2.020377,1.3563371,0.039997086,0.04,0.01575711473800201,0.007724626851318694,-0.003928081694115626,0.0056959038961215454,-0.06288754624767459,-0.05954199304311279,0.9371139041646658,0.10692381817502487,0.1788545115750963,-0.27999266314917165
6.083333333333317,-0.17281213,-0.86118984,0.5485198,-2.6589487,-0.2823863,2.0213299,1.357546,0.039997086,0.04,0.017000505973774338,0.006997878957004655,-0.0037990862358006083,0.005546958178863961,-0.06177585129157619,-0.05819268764072205,0.9368898051941393,0.10697512450721468,0.17931189778393786,-0.28043013207049705
6.099999999999984,-0.17316999,-0.86134964,0.5496542,-2.6595738,-0.28297156,2.022262,1.3587284,0.03999709,0.04,0.015126822080535618,0.008466134493381738,-0.004476749802062585,0.0054077142496131644,-0.06066526939612973,-0.0568510521076376,0.9366704431828158,0.10702460709652285,0.1797590819094505,-0.2808574136721586
6.11666666666665,-0.17351992,-0.86150587,0.55076367,-2.6601853,-0.283544,2.0231736,1.3598846,0.03999709,0.04,0.015381595550856275,0.007860127355710511,-0.004280259976252587,0.00527347862126374,-0.059560416524000626,-0.05551691371170991,0.9364557706671958,0.10707217019973614,0.1801962160958263,-0.2812747120833536
