rsonawane2002/My_IMU/logs_2/traj_455/imu_400hz_455.csv
time,j1,j2,j3,j4,j5,j6,j7,gripper1,gripper2,imu_ax,imu_ay,imu_az,imu_gx,imu_gy,imu_gz
0.0,0.00016700293,-0.785875,4.0107683e-05,-2.3551247,9.29385e-05,1.570997,0.786,0.04,0.04,-9.534466,0.0069441176019608,0.08185187,3.955077e-07,-0.0011641274904832,1.993725e-07
0.0025,0.0001670019025,-0.7858577740000002,4.010792585e-05,-2.35513919,9.294357374999994e-05,1.570996565,0.786,0.04,0.04,-9.579423249999428,0.005996335760585833,0.0709508543001388,4.049694044998795e-07,-0.001325520948737635,3.3592727999826125e-07
0.005,0.00016700087500000002,-0.7858405480000005,4.01081687e-05,-2.35515368,9.294864749999987e-05,1.57099613,0.786,0.04,0.04,-9.624380499998855,0.005048553919210866,0.0600498386002776,4.1443110899975906e-07,-0.00148691440699207,4.7248205999652247e-07
0.0075,0.00016699984750000003,-0.7858233220000007,4.0108411549999994e-05,-2.35516817,9.295372124999982e-05,1.5709956950000001,0.786,0.04,0.04,-9.669337749998283,0.0041007720778359,0.0491488229004164,4.238928134996386e-07,-0.001648307865246505,6.090368399947837e-07
0.01,0.00016699882000000005,-0.785806096000001,4.0108654399999985e-05,-2.3551826599999997,9.295879499999975e-05,1.5709952600000001,0.786,0.04,0.04,-9.71429499999771,0.0031529902364609325,0.038247807200555206,4.3335451799951807e-07,-0.00180970132350094,7.45591619993045e-07
0.0125,0.00016699779250000006,-0.7857888700000011,4.010889724999998e-05,-2.355197149999999,9.296386874999968e-05,1.570994825,0.786,0.04,0.04,-9.759252249997138,0.002205208395085965,0.02734679150069401,4.428162224993976e-07,-0.001971094781755375,8.821463999913063e-07
0.015,0.00016699676500000007,-0.7857716440000013,4.010914009999998e-05,-2.355211639999999,9.296894249999962e-05,1.57099439,0.786,0.04,0.04,-9.804209499996565,0.0012574265537109988,0.016445775800832813,4.5227792699927713e-07,-0.00213248824000981,1.0187011799895674e-06
0.0175,0.00016699237250000098,-0.7857548670000014,4.0107520900000475e-05,-2.355225734999999,9.297328474999975e-05,1.57099396,0.786,0.04,0.04,-9.83410735000002,0.0006193214736429363,0.009095785630022099,6.304751434540386e-07,-0.002290000044727313,1.171890409983381e-06
0.02,0.00016698125000000113,-0.7857389880000016,4.0102177600000546e-05,-2.355239039999999,9.297616399999971e-05,1.5709935400000001,0.786,0.04,0.04,-9.833886400000022,0.0006005699164252701,0.008847846520025257,1.1461433839474725e-06,-0.0024397485423679863,1.3583485399810066e-06
0.0225,0.00016697012750000126,-0.7857231090000019,4.009683430000061e-05,-2.3552523449999985,9.297904324999967e-05,1.57099312,0.786,0.04,0.04,-9.833665450000025,0.0005818183592076039,0.008599907410028413,1.6618116244409064e-06,-0.002589497040008659,1.5448066699786324e-06
0.025,0.00016695900500000142,-0.7857072300000021,4.009149100000068e-05,-2.3552656499999984,9.298192249999963e-05,1.5709927000000001,0.786,0.04,0.04,-9.833444500000027,0.0005630668019899377,0.00835196830003157,2.177479864934341e-06,-0.0027392455376493326,1.7312647999762586e-06
0.0275,0.00016694788250000154,-0.7856913510000022,4.008614770000075e-05,-2.355278954999998,9.29848017499996e-05,1.57099228,0.786,0.04,0.04,-9.833223550000032,0.0005443152447722714,0.008104029190034726,2.6931481054277745e-06,-0.002888994035290006,1.917722929973884e-06
0.03,0.0001669367600000017,-0.7856754720000024,4.0080804400000815e-05,-2.355292259999998,9.298768099999957e-05,1.5709918600000001,0.786,0.04,0.04,-9.833002600000034,0.0005255636875546052,0.007856090080037884,3.2088163459212085e-06,-0.0030387425329306793,2.10418105997151e-06
0.0325,0.00016692563750000182,-0.7856595930000027,4.0075461100000885e-05,-2.3553055649999974,9.299056024999953e-05,1.57099144,0.786,0.04,0.04,-9.832781650000037,0.000506812130336939,0.007608150970041041,3.724484586414643e-06,-0.0031884910305713526,2.290639189969136e-06
0.035,0.0001668964750000068,-0.7856445730000027,4.0060319400003576e-05,-2.3553180999999976,9.298987840000044e-05,1.57099101,0.786,0.04,0.04,-9.83255460000004,0.00047855430748899457,0.007386519510037163,4.841114199747387e-06,-0.003331896779102362,2.6065250099321546e-06
0.0375,0.0001668582925000073,-0.7856299825000028,4.004027850000383e-05,-2.3553302499999975,9.298741600000047e-05,1.5709905750000002,0.786,0.04,0.04,-9.832324500000045,0.00044554335182227993,0.007178041875039818,6.25822449972934e-06,-0.003472131153076116,2.9871246749273076e-06
0.04,0.00016682011000000778,-0.785615392000003,4.0020237600004084e-05,-2.3553423999999974,9.298495360000051e-05,1.5709901400000001,0.786,0.04,0.04,-9.832094400000047,0.00041253239615556523,0.006969564240042472,7.675334799711297e-06,-0.0036123655270498705,3.367724339922462e-06
0.0425,0.00016678192750000826,-0.7856008015000031,4.000019670000434e-05,-2.3553545499999973,9.298249120000054e-05,1.5709897050000001,0.786,0.04,0.04,-9.831864300000051,0.00037952144048885054,0.006761086605045127,9.092445099693255e-06,-0.003752599901023625,3.748324004917616e-06
0.045,0.00016674374500000875,-0.7855862110000034,3.99801558000046e-05,-2.355366699999997,9.298002880000056e-05,1.57098927,0.786,0.04,0.04,-9.831634200000053,0.0003465104848221359,0.006552608970047782,1.0509555399675207e-05,-0.003892834274997379,4.128923669912769e-06
0.0475,0.00016670556250000926,-0.7855716205000035,3.996011490000485e-05,-2.355378849999997,9.297756640000059e-05,1.570988835,0.786,0.04,0.04,-9.831404100000057,0.00031349952915542116,0.006344131335050436,1.1926665699657166e-05,-0.004033068648971134,4.5095233349079235e-06
0.05,0.00016666738000000974,-0.7855570300000037,3.9940074000005105e-05,-2.355390999999997,9.297510400000062e-05,1.5709884,0.786,0.04,0.04,-9.83117400000006,0.00028048857348870646,0.006135653700053091,1.334377599963912e-05,-0.004173303022944888,4.890122999903078e-06
0.0525,0.00016657754200002402,-0.7855436365000036,3.98922099000128e-05,-2.355402024999997,9.296297440000324e-05,1.5709879800000002,0.786,0.04,0.04,-9.830935200000065,0.00023538362294236304,0.005958066495047485,1.5934564599307245e-05,-0.004305840958805615,5.551710899823097e-06
0.055,0.00016648770400002518,-0.7855302430000037,3.984434580001341e-05,-2.355413049999997,9.29508448000034e-05,1.57098756,0.786,0.04,0.04,-9.830696400000068,0.00019027867239293966,0.005780479290049747,1.8525353199274257e-05,-0.004438378894664383,6.213298799814674e-06
0.0575,0.00016639786600002631,-0.7855168495000039,3.979648170001402e-05,-2.3554240749999966,9.293871520000355e-05,1.5709871400000002,0.786,0.04,0.04,-9.83045760000007,0.00014517372184351626,0.005602892085052008,2.1116141799241273e-05,-0.004570916830523151,6.87488669980625e-06
0.06,0.00016630802800002745,-0.785503456000004,3.974861760001463e-05,-2.3554350999999967,9.292658560000371e-05,1.57098672,0.786,0.04,0.04,-9.830218800000074,0.000100068771294093,0.00542530488005427,2.370693039920828e-05,-0.004703454766381917,7.536474599797825e-06
0.0625,0.00016621819000002858,-0.7854900625000042,3.9700753500015234e-05,-2.3554461249999967,9.291445600000385e-05,1.5709863000000002,0.786,0.04,0.04,-9.829980000000077,5.49638207446696e-05,0.0052477176750565305,2.629771899917529e-05,-0.004835992702240685,8.198062499789402e-06
0.065,0.00016612835200002974,-0.7854766690000045,3.965288940001585e-05,-2.3554571499999963,9.290232640000402e-05,1.57098588,0.786,0.04,0.04,-9.829741200000079,9.858870195246223e-06,0.005070130470058791,2.8888507599142306e-05,-0.004968530638099452,8.859650399780978e-06
0.0675,0.00016601080750006103,-0.7854636580000043,3.959017670003261e-05,-2.3554678349999967,9.288518830000958e-05,1.5709856,0.786,0.04,0.04,-9.829541000000043,-4.0393098585361314e-05,0.004888054710067419,3.1995975248538774e-05,-0.00509900373867902,9.64063384964014e-06
0.07,0.00016583785000006795,-0.7854514120000048,3.949776680003631e-05,-2.3554778399999963,9.285803320001066e-05,1.5709856,0.786,0.04,0.04,-9.829418000000048,-0.00010093910384406578,0.004697001840075064,3.613680099837307e-05,-0.00522534716869388,1.0660408399599332e-05
0.0725,0.00016566489250007487,-0.7854391660000053,3.9405356900040005e-05,-2.355487844999996,9.283087810001175e-05,1.5709856,0.786,0.04,0.04,-9.829295000000053,-0.0001614851091027699,0.004505948970082711,4.027762674820735e-05,-0.005351690598708738,1.1680182949558518e-05
0.075,0.00016549193500008179,-0.7854269200000058,3.93129470000437e-05,-2.3554978499999955,9.280372300001284e-05,1.5709856,0.786,0.04,0.04,-9.829172000000058,-0.00022203111436147437,0.0043148961000903565,4.441845249804164e-05,-0.005478034028723597,1.2699957499517709e-05
0.0775,0.00016531897750008873,-0.7854146740000063,3.92205371000474e-05,-2.355507854999995,9.277656790001393e-05,1.5709856,0.786,0.04,0.04,-9.829049000000063,-0.00028257711962017884,0.004123843230098002,4.855927824787594e-05,-0.005604377458738457,1.3719732049476901e-05
0.08,0.00016514602000009565,-0.7854024280000067,3.91281272000511e-05,-2.3555178599999946,9.274941280001501e-05,1.5709856,0.786,0.04,0.04,-9.828926000000067,-0.0003431231248788833,0.003932790360105647,5.270010399771024e-05,-0.005730720888753316,1.4739506599436092e-05
0.0825,0.00016497306250010257,-0.7853901820000072,3.90357173000548e-05,-2.3555278649999942,9.27222577000161e-05,1.5709856,0.786,0.04,0.04,-9.828803000000072,-0.00040366913013758777,0.0037417374901132926,5.6840929747544536e-05,-0.0058570643187681746,1.5759281149395285e-05
0.085,0.00016471963300017522,-0.7853786500000066,3.890030960009361e-05,-2.3555371399999947,9.268183240002807e-05,1.5709856599999998,0.7859998100000002,0.04,0.0399999995,-9.828668450000084,-0.0004708972700915866,0.003563594120102434,6.211971149651107e-05,-0.005979093583229101,1.7140084999068475e-05
0.08750000000000001,0.00016442596750017093,-0.7853674750000065,3.874340300009133e-05,-2.355546049999995,9.263477200002739e-05,1.57098575,0.7859995250000001,0.04,0.03999999875,-9.828528125000082,-0.0005414664774023486,0.0033919055000999356,6.796747124659617e-05,-0.006098965764907175,1.8701403499091198e-05
0.09,0.00016413230200016668,-0.7853563000000063,3.858649640008905e-05,-2.355554959999995,9.25877116000267e-05,1.57098584,0.7859992400000002,0.04,0.039999998,-9.82838780000008,-0.0006120356847131101,0.0032202168800974378,7.381523099668124e-05,-0.006218837946585249,2.026272199911391e-05
0.0925,0.0001638386365001624,-0.7853451250000062,3.842958980008676e-05,-2.3555638699999952,9.254065120002602e-05,1.57098593,0.7859989550000002,0.04,0.03999999725,-9.828247475000078,-0.0006826048920238722,0.003048528260094939,7.966299074676634e-05,-0.006338710128263324,2.1824040499136633e-05
0.095,0.0001635449710001581,-0.785333950000006,3.827268320008448e-05,-2.3555727799999953,9.249359080002534e-05,1.57098602,0.7859986700000002,0.04,0.0399999965,-9.828107150000076,-0.0007531740993346342,0.002876839640092441,8.551075049685145e-05,-0.006458582309941398,2.3385358999159353e-05
0.0975,0.00016325130550015385,-0.7853227750000058,3.81157766000822e-05,-2.3555816899999957,9.244653040002466e-05,1.57098611,0.7859983850000002,0.04,0.03999999575,-9.827966825000074,-0.0008237433066453962,0.002705151020089942,9.135851024693654e-05,-0.006578454491619473,2.4946677499182076e-05
0.1,0.00016295764000014956,-0.7853116000000057,3.795887000007991e-05,-2.3555905999999958,9.239947000002397e-05,1.5709862,0.7859981000000001,0.04,0.039999995,-9.827826500000072,-0.0008943125139561581,0.0025334624000874434,9.720626999702164e-05,-0.006698326673297547,2.65079959992048e-05
0.10250000000000001,0.00016250014300023884,-0.7853014675000053,3.77146310001275e-05,-2.3555991049999956,9.232139350004076e-05,1.57098632,0.7859978150000002,0.04,0.03999999575,-9.82771302500006,-0.0009764552174172027,0.00238535277507732,0.00010630532999524986,-0.00681443761562448,2.8322158099052924e-05
0.105,0.00016204264600024466,-0.7852913350000054,3.747039200013062e-05,-2.355607609999996,9.224331700004175e-05,1.57098644,0.7859975300000002,0.04,0.0399999965,-9.82759955000006,-0.0010585979208841414,0.0022372431500792067,0.00011540438999513396,-0.0069305485579494956,3.0136320199029815e-05
0.1075,0.00016158514900025048,-0.7852812025000055,3.722615300013373e-05,-2.3556161149999957,9.216524050004276e-05,1.57098656,0.7859972450000002,0.04,0.03999999725,-9.827486075000063,-0.0011407406243510805,0.0020891335250810923,0.00012450344999501812,-0.007046659500274512,3.195048229900672e-05
0.11,0.0001611276520002563,-0.7852710700000056,3.698191400013684e-05,-2.3556246199999955,9.208716400004374e-05,1.5709866799999999,0.7859969600000002,0.04,0.039999998,-9.827372600000064,-0.0012228833278180196,0.0019410239000829783,0.00013360250999490227,-0.007162770442599529,3.376464439898362e-05
0.1125,0.00016067015500026213,-0.7852609375000058,3.673767500013995e-05,-2.3556331249999953,9.200908750004473e-05,1.5709867999999998,0.7859966750000001,0.04,0.03999999875,-9.827259125000065,-0.001305026031284959,0.0017929142750848638,0.0001427015699947864,-0.007278881384924545,3.557880649896052e-05
0.115,0.00016021265800026798,-0.7852508050000059,3.649343600014306e-05,-2.355641629999995,9.193101100004573e-05,1.57098692,0.7859963900000002,0.04,0.0399999995,-9.827145650000068,-0.001387168734751898,0.0016448046500867498,0.00015180062999467058,-0.007394992327249562,3.739296859893742e-05
0.11750000000000001,0.00015968453700040058,-0.7852409975000054,3.6211606500213654e-05,-2.3556498049999957,9.184043950006917e-05,1.5709870449999999,0.7859961050000002,0.04,0.04,-9.827056850000025,-0.0014696003228394285,0.001505931460072053,0.00016160527749328795,-0.007511369697679631,3.943098809851243e-05
0.12,0.0001590151680004091,-0.7852318400000056,3.58545960002182e-05,-2.3556573199999957,9.172487800007063e-05,1.57098718,0.7859958200000002,0.04,0.04,-9.827017400000026,-0.0015526096801696861,0.0013855311400735866,0.0001728210999931451,-0.007628279924321226,4.1916722398480766e-05
0.1225,0.00015834579900041764,-0.7852226825000057,3.549758550022274e-05,-2.3556648349999953,9.16093165000721e-05,1.5709873149999998,0.7859955350000002,0.04,0.04,-9.826977950000025,-0.0016356190374999442,0.0012651308200751195,0.00018403692249300229,-0.007745190150962823,4.440245669844912e-05
0.125,0.00015767643000042615,-0.7852135250000059,3.514057500022729e-05,-2.3556723499999954,9.149375500007357e-05,1.5709874499999998,0.7859952500000003,0.04,0.04,-9.826938500000026,-0.0017186283948302022,0.0011447305000766524,0.00019525274499285948,-0.00786210037760442,4.688819099841747e-05
0.1275,0.00015700706100043468,-0.7852043675000059,3.478356450023184e-05,-2.355679864999995,9.137819350007504e-05,1.570987585,0.7859949650000002,0.04,0.04,-9.826899050000026,-0.0018016377521604605,0.0010243301800781854,0.00020646856749271668,-0.007979010604246016,4.937392529838582e-05
0.13,0.00015633769200044319,-0.785195210000006,3.4426554000236384e-05,-2.355687379999995,9.126263200007651e-05,1.57098772,0.7859946800000002,0.04,0.04,-9.826859600000027,-0.0018846471094907185,0.0009039298600797183,0.00021768438999257388,-0.008095920830887612,5.185965959835417e-05
0.1325,0.00015566832300045172,-0.7851860525000062,3.406954350024093e-05,-2.3556948949999947,9.114707050007798e-05,1.5709878549999998,0.7859943950000002,0.04,0.04,-9.826820150000026,-0.0019676564668209768,0.0007835295400812512,0.00022890021249243107,-0.008212831057529209,5.4345393898322524e-05
0.135,0.00015482277000064196,-0.7851775360000056,3.361886460034208e-05,-2.3557016899999956,9.099924300011274e-05,1.5709881099999998,0.7859939200000005,0.0399999995,0.04,-9.826795200000012,-0.002064451924453816,0.0006540289020921699,0.00024153759599082213,-0.008329419232824839,5.7149170797962854e-05
0.1375,0.00015388912500065383,-0.7851693400000057,3.312135150034841e-05,-2.3557081249999956,9.083528250011482e-05,1.570988425,0.7859933500000005,0.03999999875,0.04,-9.826777500000013,-0.002168140432259011,0.0005199781050938767,0.00025488575999065217,-0.00844584638244699,6.0111968997925133e-05
0.14,0.00015295548000066574,-0.7851611440000058,3.2623838400354746e-05,-2.355714559999995,9.06713220001169e-05,1.5709887399999998,0.7859927800000004,0.039999998,0.04,-9.826759800000014,-0.0022718289400642058,0.00038592730809558344,0.00026823392399048226,-0.008562273532069143,6.307476719788741e-05
0.14250000000000002,0.0001520218350006776,-0.7851529480000059,3.212632530036108e-05,-2.355720994999995,9.0507361500119e-05,1.5709890549999999,0.7859922100000004,0.03999999725,0.04,-9.826742100000013,-0.002375517447869401,0.0002518765110972902,0.0002815820879903123,-0.008678700681691296,6.603756539784969e-05
0.145,0.0001510881900006895,-0.785144752000006,3.162881220036742e-05,-2.355727429999995,9.034340100012109e-05,1.57098937,0.7859916400000004,0.0399999965,0.04,-9.826724400000014,-0.0024792059556745945,0.00011782571409899836,0.0002949302519901422,-0.008795127831313447,6.900036359781193e-05
0.1475,0.0001501545450007014,-0.7851365560000061,3.113129910037375e-05,-2.355733864999995,9.017944050012317e-05,1.5709896849999998,0.7859910700000005,0.03999999575,0.04,-9.826706700000013,-0.0025828944634797893,-1.622508289929488e-05,0.0003082784159899722,-0.0089115549809356,7.196316179777421e-05
0.15,0.0001492209000007133,-0.7851283600000062,3.063378600038009e-05,-2.355740299999995,9.001548000012527e-05,1.5709899999999999,0.7859905000000005,0.039999995,0.04,-9.826689000000014,-0.002686582971284984,-0.00015027587989758812,0.00032162657998980227,-0.009027982130557752,7.492595999773649e-05
0.1525,0.00014796667500097417,-0.7851211060000056,2.996598405051869e-05,-2.3557458799999957,8.979388350017212e-05,1.5709906899999995,0.7859899240000005,0.03999999395000001,0.039999998200000005,-9.826640400000038,-0.002788642526059249,-0.0002615642279135612,0.00033856374298684474,-0.00914397034785082,7.87914989969976e-05
0.155,0.00014671245000099013,-0.7851138520000057,2.929818210052719e-05,-2.3557514599999956,8.957228700017494e-05,1.5709913799999995,0.7859893480000004,0.0399999929,0.0399999964,-9.826591800000038,-0.00289070208083227,-0.0003728525759121443,0.0003555009059866291,-0.009259958565143554,8.26570379969484e-05
0.1575,0.0001454582250010061,-0.7851065980000058,2.8630380150535693e-05,-2.3557570399999954,8.935069050017776e-05,1.5709920699999995,0.7859887720000005,0.03999999185,0.039999994600000005,-9.826543200000039,-0.0029927616356052902,-0.0004841409239107274,0.0003724380689864134,-0.009375946782436287,8.652257699689916e-05
0.16,0.00014420400000102207,-0.7850993440000059,2.7962578200544197e-05,-2.3557626199999953,8.912909400018058e-05,1.5709927599999993,0.7859881960000005,0.0399999908,0.0399999928,-9.82649460000004,-0.003094821190378311,-0.0005954292719093105,0.0003893752319861978,-0.00949193499972902,9.038811599684996e-05
0.1625,0.00014294977500103802,-0.785092090000006,2.7294776250552697e-05,-2.355768199999995,8.89074975001834e-05,1.5709934499999993,0.7859876200000004,0.03999998975,0.039999991,-9.82644600000004,-0.0031968807451513317,-0.0007067176199078936,0.00040631239498598216,-0.009607923217021754,9.425365499680073e-05
0.165,0.000141695550001054,-0.7850848360000061,2.66269743005612e-05,-2.3557737799999954,8.868590100018623e-05,1.5709941399999994,0.7859870440000004,0.0399999887,0.0399999892,-9.82639740000004,-0.003298940299924352,-0.0008180059679064767,0.00042324955798576653,-0.009723911434314487,9.811919399675152e-05
0.1675,0.00014031456450139439,-0.7850778965000054,2.5891888750741902e-05,-2.3557791749999955,8.844188000024644e-05,1.5709948399999993,0.7859863740000007,0.0399999876,0.03999998745,-9.826363750000002,-0.0034035216433923286,-0.0009248024299165559,0.00044096524998355835,-0.009840081911434609,0.00010221156299612177
0.17,0.0001386800580014152,-0.7850715860000055,2.5022236000752976e-05,-2.3557841999999956,8.815301000025011e-05,1.5709955599999994,0.7859855160000007,0.0399999864,0.0399999858,-9.826360000000003,-0.003513146564269483,-0.0010226151199153105,0.000460237999983313,-0.0099566169082109,0.0001067575919960639
0.17250000000000001,0.00013704555150143602,-0.7850652755000055,2.4152583250764046e-05,-2.3557892249999957,8.786414000025379e-05,1.5709962799999992,0.7859846580000007,0.0399999852,0.03999998415,-9.826356250000003,-0.003622771485146637,-0.001120427809914065,0.0004795107499830676,-0.010073151904987192,0.00011130362099600602
0.17500000000000002,0.00013541104500145682,-0.7850589650000056,2.328293050077512e-05,-2.3557942499999953,8.757527000025746e-05,1.5709969999999993,0.7859838000000007,0.039999984,0.0399999825,-9.826352500000002,-0.0037323964060237916,-0.0012182404999128197,0.0004987834999828222,-0.010189686901763483,0.00011584964999594813
0.1775,0.00013377653850147765,-0.7850526545000057,2.24132777507862e-05,-2.3557992749999954,8.728640000026115e-05,1.5709977199999994,0.7859829420000007,0.0399999828,0.03999998085,-9.826348750000003,-0.0038420213269009444,-0.0013160531899115732,0.0005180562499825767,-0.010306221898539773,0.00012039567899589021
0.18,0.00013214203200149845,-0.7850463440000058,2.1543625000797275e-05,-2.3558042999999955,8.699753000026483e-05,1.5709984399999994,0.7859820840000007,0.0399999816,0.0399999792,-9.826345000000003,-0.003951646247778099,-0.001413865879910328,0.0005373289999823312,-0.010422756895316064,0.00012494170799583234
0.1825,0.00013050752550151928,-0.7850400335000058,2.067397225080835e-05,-2.3558093249999956,8.67086600002685e-05,1.5709991599999993,0.7859812260000008,0.039999980399999996,0.03999997755,-9.826341250000004,-0.004061271168655253,-0.0015116785699090824,0.0005566017499820859,-0.010539291892092354,0.00012948773699577446
0.185,0.00012857770900195746,-0.7850343270000051,1.964766340104083e-05,-2.3558137299999964,8.636741000034622e-05,1.571000239999999,0.785980176000001,0.0399999797,0.0399999766,-9.826359599999973,-0.00416664206413129,-0.0015860893199409125,0.0005782743929784485,-0.010659111291055644,0.00013442424799516467
0.1875,0.0001265002375019839,-0.7850289225000051,1.8543026501054896e-05,-2.355817824999996,8.599997000035089e-05,1.5710014999999988,0.785979030000001,0.03999997925,0.039999976,-9.826388999999972,-0.00426988594689783,-0.001648799099940114,0.0006011469824781574,-0.010780572891119333,0.00013955599999509934
0.19,0.00012442276600201037,-0.7850235180000052,1.743838960106896e-05,-2.355821919999996,8.563253000035557e-05,1.571002759999999,0.7859778840000011,0.039999978799999995,0.0399999754,-9.826418399999971,-0.004373129829664371,-0.0017115088799393157,0.0006240195719778662,-0.010902034491183021,0.000144687751995034
0.1925,0.00012234529450203682,-0.7850181135000053,1.6333752701083022e-05,-2.355826014999996,8.526509000036025e-05,1.5710040199999988,0.7859767380000011,0.03999997835,0.0399999748,-9.826447799999972,-0.004476373712430912,-0.0017742186599385172,0.000646892161477575,-0.011023496091246709,0.00014981950399496868
0.195,0.00012026782300206327,-0.7850127090000054,1.5229115801097087e-05,-2.355830109999996,8.489765000036493e-05,1.5710052799999987,0.7859755920000011,0.0399999779,0.0399999742,-9.826477199999971,-0.004579617595197452,-0.001836928439937719,0.0006697647509772837,-0.011144957691310398,0.00015495125599490332
0.1975,0.00011819035150208971,-0.7850073045000054,1.4124478901111152e-05,-2.355834204999996,8.453021000036961e-05,1.5710065399999988,0.7859744460000011,0.03999997745,0.0399999736,-9.826506599999972,-0.004682861477963993,-0.0018996382199369204,0.0006926373404769926,-0.011266419291374086,0.000160083007994838
0.2,0.00011611288000211617,-0.7850019000000056,1.3019842001125216e-05,-2.355838299999996,8.416277000037428e-05,1.5710077999999987,0.7859733000000012,0.039999977,0.039999973,-9.82653599999997,-0.004786105360730533,-0.001962347999936122,0.0007155099299767014,-0.011387880891437776,0.00016521475999477266
0.2025,0.00011352712600273739,-0.7849974000000047,1.1645696801454735e-05,-2.3558412999999967,8.370544760048414e-05,1.5710090899999987,0.7859720055000013,0.0399999764,0.039999971950000004,-9.826582649999951,-0.004915909888085308,-0.002046219989911209,0.0007420223954719327,-0.011510501848403928,0.00017121556399364728
0.20500000000000002,0.00011094137200284087,-0.784992900000005,1.0271551601509723e-05,-2.3558442999999967,8.324812520050244e-05,1.5710103799999986,0.7859707110000014,0.0399999758,0.0399999709,-9.826629299999949,-0.005045714415467139,-0.002130091979907853,0.0007685348609708717,-0.01163312280537126,0.00017721636799340713
0.20750000000000002,0.00010835561800294434,-0.7849884000000051,8.897406401564712e-06,-2.3558472999999966,8.279080280052075e-05,1.5710116699999985,0.7859694165000015,0.0399999752,0.039999969850000004,-9.826675949999947,-0.0051755189428489695,-0.0022139639699044968,0.0007950473264698107,-0.011755743762338594,0.000183217171993167
0.21,0.00010576986400304784,-0.7849839000000053,7.523261201619717e-06,-2.355850299999996,8.233348040053905e-05,1.5710129599999985,0.7859681220000015,0.0399999746,0.0399999688,-9.826722599999945,-0.0053053234702307986,-0.0022978359599011397,0.0008215597919687495,-0.011878364719305926,0.00018921797599292682
0.2125,0.00010318411000315132,-0.7849794000000054,6.149116001674706e-06,-2.355853299999996,8.187615800055735e-05,1.5710142499999984,0.7859668275000016,0.039999974,0.03999996775,-9.826769249999943,-0.005435127997612629,-0.002381707949897783,0.0008480722574676886,-0.012000985676273258,0.00019521877999268666
0.215,0.00010059835600325479,-0.7849749000000056,4.7749708017296955e-06,-2.355856299999996,8.141883560057566e-05,1.5710155399999983,0.7859655330000016,0.0399999734,0.0399999667,-9.826815899999943,-0.005564932524994459,-0.002465579939894427,0.0008745847229666276,-0.012123606633240592,0.00020121958399244654
0.2175,9.782066050404861e-05,-0.7849707100000045,3.299088452150532e-06,-2.3558590299999973,8.092755680071608e-05,1.5710170199999975,0.7859641395000021,0.03999997285,0.0399999657,-9.826858849999955,-0.005692212609417599,-0.002534987089948166,0.0009020813249622681,-0.012247720034630242,0.00020743344899149704
0.22,9.46590820040026e-05,-0.7849671400000044,1.619731802126093e-06,-2.3558612199999973,8.036836520070795e-05,1.5710188799999976,0.7859625480000021,0.0399999724,0.0399999648,-9.826894399999956,-0.005814443807894153,-0.002575464559948755,0.0009315461999626969,-0.01237481832488179,0.00021407343599159367
0.2225,9.14975035039566e-05,-0.7849635700000045,-5.962484789834647e-08,-2.3558634099999973,7.980917360069981e-05,1.5710207399999976,0.785960956500002,0.039999971950000004,0.0399999639,-9.826929949999956,-0.005936675006370707,-0.0026159420299493442,0.0009610110749631258,-0.01250191661513334,0.0002207134229916903
0.225,8.833592500391059e-05,-0.7849600000000044,-1.7389814979227855e-06,-2.3558655999999973,7.924998200069167e-05,1.5710225999999976,0.785959365000002,0.0399999715,0.039999963,-9.826965499999956,-0.006058906204847261,-0.002656419499949933,0.0009904759499635544,-0.012629014905384891,0.00022735340999178693
0.2275,8.517434650386458e-05,-0.7849564300000044,-3.4183381479472255e-06,-2.3558677899999974,7.869079040068354e-05,1.5710244599999976,0.785957773500002,0.03999997105,0.0399999621,-9.827001049999957,-0.006181137403323814,-0.002696896969950522,0.0010199408249639834,-0.01275611319563644,0.00023399339699188356
0.23,8.201276800381857e-05,-0.7849528600000043,-5.0976947979716645e-06,-2.3558699799999974,7.813159880067539e-05,1.5710263199999976,0.785956182000002,0.039999970600000004,0.0399999612,-9.827036599999957,-0.006303368601800368,-0.002737374439951111,0.0010494056999644122,-0.01288321148588799,0.0002406333839919802
0.2325,7.885118950377256e-05,-0.7849492900000042,-6.7770514479961044e-06,-2.3558721699999974,7.757240720066725e-05,1.5710281799999977,0.7859545905000019,0.03999997015,0.039999960300000005,-9.827072149999957,-0.006425599800276922,-0.0027778519099517004,0.001078870574964841,-0.01301030977613954,0.00024727337099207685
0.23500000000000001,7.525942170455639e-05,-0.7849463370000032,-8.684348597580767e-06,-2.3558737799999983,7.693719000080578e-05,1.571030409999997,0.7859527640000024,0.03999997,0.03999996,-9.827127099999922,-0.00654919138163354,-0.0028129405399612275,0.0011107344499604267,-0.01313989032044245,0.00025443599299111437
0.23750000000000002,7.145255925460486e-05,-0.7849436925000033,-1.0705615997555033e-05,-2.3558750999999982,7.626396000081436e-05,1.571032824999997,0.7859508200000024,0.03999997,0.03999996,-9.82719174999992,-0.006673463154433828,-0.0028453347499608154,0.0011437978249600057,-0.01327071199177768,0.00026185993249101987
0.24,6.764569680465337e-05,-0.7849410480000033,-1.2726883397529274e-05,-2.355876419999998,7.559073000082293e-05,1.571035239999997,0.7859488760000024,0.03999997,0.03999996,-9.827256399999921,-0.006797734927234115,-0.0028777289599604024,0.0011768611999595844,-0.013401533663112909,0.00026928387199092526
0.2425,6.383883435470185e-05,-0.7849384035000033,-1.4748150797503541e-05,-2.355877739999998,7.491750000083151e-05,1.571037654999997,0.7859469320000024,0.03999997,0.03999996,-9.82732104999992,-0.0069220067000344025,-0.00291012316995999,0.0012099245749591634,-0.013532355334448137,0.0002767078114908307
0.245,6.003197190475031e-05,-0.7849357590000033,-1.676941819747781e-05,-2.355879059999998,7.424427000084007e-05,1.571040069999997,0.7859449880000023,0.03999997,0.03999996,-9.827385699999919,-0.00704627847283469,-0.0029425173799595777,0.0012429879499587424,-0.013663177005783367,0.0002841317509907362
0.2475,5.622510945479878e-05,-0.7849331145000034,-1.8790685597452072e-05,-2.355880379999998,7.357104000084865e-05,1.5710424849999969,0.7859430440000024,0.03999997,0.03999996,-9.827450349999918,-0.007170550245634978,-0.002974911589959165,0.0012760513249583216,-0.013793998677118597,0.00029155569049064164
0.25,5.241824700484725e-05,-0.7849304700000034,-2.0811952997426336e-05,-2.355881699999998,7.289781000085723e-05,1.5710448999999969,0.7859411000000024,0.03999997,0.03999996,-9.827514999999918,-0.007294822018435266,-0.0030073057999587525,0.0013091146999579006,-0.013924820348453826,0.00029897962999054714
0.2525,4.789496775581705e-05,-0.7849287705000022,-2.321274154691253e-05,-2.355882269999999,7.209815550102838e-05,1.5710477349999963,0.7859388155000029,0.03999997,0.039999959700000004,-9.82755429999995,-0.00740032608141588,-0.003012726379993029,0.0013458623899527415,-0.01406022286956478,0.00030733243248925806
0.255,4.337168850587464e-05,-0.7849270710000023,-2.561353009688196e-05,-2.355882839999999,7.129850100103856e-05,1.5710505699999964,0.7859365310000029,0.03999997,0.0399999594,-9.827593599999949,-0.007505830144372596,-0.00301814695999296,0.0013826100799522736,-0.014195625390681565,0.00031568523498915174
0.2575,3.884840925593223e-05,-0.7849253715000022,-2.8014318646851394e-05,-2.3558834099999992,7.049884650104874e-05,1.5710534049999962,0.785934246500003,0.03999997,0.0399999591,-9.827632899999948,-0.0076113342073293126,-0.0030235675399928907,0.0014193577699518059,-0.014331027911798352,0.0003240380374890454
0.26,3.432513000598982e-05,-0.7849236720000022,-3.0415107196820826e-05,-2.3558839799999993,6.969919200105892e-05,1.571056239999996,0.785931962000003,0.03999997,0.0399999588,-9.827672199999947,-0.00771683827028603,-0.003028988119992822,0.001456105459951338,-0.014466430432915138,0.00033239083998893904
0.2625,2.980185075604741e-05,-0.7849219725000023,-3.281589574679026e-05,-2.355884549999999,6.88995375010691e-05,1.5710590749999962,0.7859296775000031,0.03999997,0.0399999585,-9.827711499999946,-0.007822342333242747,-0.0030344086999927527,0.00149285314995087,-0.014601832954031923,0.0003407436424888327
0.265,2.5278571506105e-05,-0.7849202730000022,-3.521668429675969e-05,-2.355885119999999,6.809988300107928e-05,1.571061909999996,0.7859273930000031,0.03999997,0.039999958200000005,-9.827750799999947,-0.007927846396199463,-0.003039829279992684,0.0015296008399504023,-0.01473723547514871,0.0003490964449887264
0.2675,2.0492336282237357e-05,-0.7849189045000009,-3.77567409961599e-05,-2.3558853100000006,6.725378775127928e-05,1.5710648699999956,0.7859249915000036,0.039999970350000004,0.0399999584,-9.8278258499998,-0.008047198271178476,-0.0030427277100029235,0.001567570739944939,-0.014874756941378605,0.0003576773399876877
0.27,1.5180189107304992e-05,-0.784918198000001,-4.0575333996124015e-05,-2.3558847400000005,6.631481100129123e-05,1.5710680799999954,0.7859223560000036,0.0399999714,0.0399999596,-9.827972399999798,-0.008194245770371348,-0.0030405818400029505,0.0016079850599444244,-0.01501651629786062,0.0003667144199875727
0.2725,9.868041932372628e-06,-0.784917491500001,-4.339392699608813e-05,-2.355884170000001,6.537583425130319e-05,1.5710712899999955,0.7859197205000037,0.03999997245,0.0399999608,-9.828118949999796,-0.008341293269564221,-0.003038435970002978,0.0016483993799439097,-0.015158275654342636,0.00037575149998745765
0.275,4.555894757440262e-06,-0.784916785000001,-4.6212519996052244e-05,-2.3558836000000007,6.443685750131514e-05,1.5710744999999955,0.7859170850000037,0.0399999735,0.039999962,-9.828265499999794,-0.008488340768757093,-0.0030362901000030055,0.0016888136999433953,-0.01530003501082465,0.00038478857998734255
0.2775,-7.562524174921045e-07,-0.784916078500001,-4.903111299601636e-05,-2.3558830300000007,6.34978807513271e-05,1.5710777099999953,0.7859144495000038,0.03999997455,0.039999963199999995,-9.828412049999793,-0.008635388267949967,-0.0030341442300030326,0.0017292280199428807,-0.015441794367306666,0.0003938256599872275
0.28,-6.068399592424467e-06,-0.784915372000001,-5.1849705995980465e-05,-2.3558824600000006,6.255890400133906e-05,1.5710809199999953,0.7859118140000038,0.0399999756,0.0399999644,-9.828558599999791,-0.008782435767142839,-0.00303199836000306,0.001769642339942366,-0.01558355372378868,0.0004028627399871124
0.28250000000000003,-1.1380546767356833e-05,-0.7849146655000011,-5.466829899594458e-05,-2.3558818900000005,6.161992725135101e-05,1.5710841299999954,0.7859091785000037,0.03999997665,0.0399999656,-9.82870514999979,-0.00892948326633571,-0.0030298524900030876,0.0018100566599418516,-0.015725313080270698,0.0004118998199869974
0.28500000000000003,-1.726765094103734e-05,-0.7849145969999997,-5.779133599524583e-05,-2.3558805800000022,6.0579501501583856e-05,1.5710876999999945,0.7859062360000045,0.0399999766,0.0399999652,-9.828800999999897,-0.009062769822592796,-0.003005432310051613,0.0018528373699361847,-0.015870653651441084,0.0004215700799855037
0.28750000000000003,-2.3442233615958725e-05,-0.7849148474999996,-6.106659499520412e-05,-2.355878900000002,5.9488351251597744e-05,1.5710914499999944,0.7859031400000045,0.039999976,0.039999964,-9.828871499999897,-0.009189175907337307,-0.0029698749750520655,0.0018968012749356249,-0.016017784829967286,0.0004315569299853765
0.29,-2.9616816290879972e-05,-0.7849150979999997,-6.434185399516236e-05,-2.355877220000002,5.839720100161166e-05,1.5710951999999945,0.7859000440000046,0.0399999754,0.039999962800000004,-9.828941999999897,-0.009315581992081814,-0.0029343176400525193,0.0019407651799350641,-0.016164916008493485,0.00044154377998524916
0.2925,-3.579139896580136e-05,-0.7849153484999997,-6.761711299512065e-05,-2.355875540000002,5.7306050751625555e-05,1.5710989499999943,0.7858969480000046,0.039999974800000004,0.0399999616,-9.829012499999894,-0.009441988076826325,-0.002898760305052972,0.0019847290849345045,-0.016312047187019688,0.000451530629985122
0.295,-4.1965981640722744e-05,-0.7849155989999996,-7.089237199507896e-05,-2.3558738600000027,5.621490050163944e-05,1.5711026999999942,0.7858938520000046,0.0399999742,0.0399999604,-9.829082999999894,-0.009568394161570836,-0.0028632029700534248,0.0020286929899339446,-0.016459178365545887,0.00046151747998499483
0.2975,-4.814056431564413e-05,-0.7849158494999996,-7.416763099503725e-05,-2.3558721800000026,5.512375025165334e-05,1.5711064499999943,0.7858907560000047,0.0399999736,0.039999959200000004,-9.829153499999894,-0.009694800246315347,-0.0028276456350538773,0.0020726568949333848,-0.01660630954407209,0.0004715043299848677
0.3,-5.4315146990565516e-05,-0.7849160999999997,-7.744288999499556e-05,-2.3558705000000026,5.4032600001667234e-05,1.5711101999999941,0.7858876600000048,0.039999973,0.039999958,-9.829223999999892,-0.009821206331059857,-0.00279208830005433,0.002116620799932825,-0.01675344072259829,0.00048149117998474056
0.3025,-6.14265806890435e-05,-0.784917374999998,-8.121414949418966e-05,-2.3558677400000043,5.2776169101935767e-05,1.5711145949999932,0.7858841020000055,0.0399999736,0.0399999583,-9.829276049999919,-0.00992369940488635,-0.0027307945950944346,0.0021644464999263156,-0.016906728129597724,0.0004921703429835467
0.305,-6.853801438895296e-05,-0.784918649999998,-8.498540899414165e-05,-2.355864980000004,5.151973820195177e-05,1.571118989999993,0.7858805440000055,0.039999974199999996,0.0399999586,-9.82932809999992,-0.010026192478676305,-0.002669500890095215,0.0022122721999257066,-0.017060015536606563,0.0005028495059834108
0.3075,-7.564944808886242e-05,-0.784919924999998,-8.875666849409363e-05,-2.355862220000004,5.0263307301967764e-05,1.571123384999993,0.7858769860000056,0.0399999748,0.0399999589,-9.829380149999919,-0.01012868555246626,-0.0026082071850959954,0.0022600978999250975,-0.0172133029436154,0.0005135286689832748
0.31,-8.276088178877188e-05,-0.784921199999998,-9.252792799404561e-05,-2.3558594600000045,4.900687640198376e-05,1.571127779999993,0.7858734280000056,0.0399999754,0.039999959200000004,-9.829432199999918,-0.010231178626256216,-0.0025469134800967757,0.002307923599924489,-0.01736659035062424,0.0005242078319831388
0.3125,-8.987231548868133e-05,-0.7849224749999979,-9.62991874939976e-05,-2.3558567000000044,4.775044550199976e-05,1.571132174999993,0.7858698700000057,0.039999976,0.0399999595,-9.829484249999917,-0.01033367170004617,-0.002485619775097556,0.00235574929992388,-0.017519877757633077,0.0005348869949830029
0.315,-9.698374918859079e-05,-0.7849237499999979,-0.00010007044699394958,-2.3558539400000043,4.6494014602015756e-05,1.5711365699999928,0.7858663120000058,0.0399999766,0.0399999598,-9.829536299999916,-0.010436164773836125,-0.0024243260700983365,0.002403574999923271,-0.017673165164641916,0.000545566157982867
0.3175,-0.00010443250923678992,-0.7849253669999963,-0.00010402027549299612,-2.3558508250000063,4.517812280233326e-05,1.5711411899999916,0.7858625810000067,0.039999977,0.0399999599,-9.82961794999977,-0.010555017320192654,-0.0023602189151134,0.0024526788599159915,-0.01782844178352678,0.0005565632684810827
0.32,-0.00011255592198646484,-0.7849276679999961,-0.00010832724199282376,-2.3558470000000065,4.374330920239068e-05,1.5711462599999915,0.7858585040000068,0.039999977,0.0399999596,-9.829758799999764,-0.010706588811919793,-0.0022904848601161903,0.002504339039913924,-0.01798769682619257,0.0005681962739806171
0.3225,-0.00012067933473613977,-0.784929968999996,-0.00011263420849265141,-2.3558431750000066,4.2308495602448094e-05,1.5711513299999913,0.785854427000007,0.039999977,0.0399999593,-9.82989964999976,-0.010858160303646933,-0.0022207508051189807,0.0025559992199118567,-0.01814695186885836,0.0005798292794801517
0.325,-0.0001288027474858147,-0.784932269999996,-0.00011694117499247908,-2.3558393500000068,4.087368200250551e-05,1.5711563999999911,0.7858503500000071,0.039999977,0.039999959,-9.830040499999754,-0.011009731795374072,-0.0021510167501217715,0.0026076593999097898,-0.018306206911524157,0.0005914622849796862
0.3275,-0.00013692616023548961,-0.7849345709999959,-0.00012124814149230672,-2.355835525000007,3.9438868402562924e-05,1.571161469999991,0.7858462730000073,0.039999977,0.039999958700000005,-9.830181349999748,-0.011161303287101212,-0.002081282695124562,0.0026593195799077224,-0.018465461954189948,0.0006030952904792206
0.33,-0.00014504957298516454,-0.7849368719999958,-0.00012555510799213437,-2.355831700000007,3.8004054802620345e-05,1.5711665399999908,0.7858421960000075,0.039999977,0.0399999584,-9.830322199999744,-0.011312874778828351,-0.0020115486401273523,0.002710979759905655,-0.01862471699685574,0.0006147282959787551
0.3325,-0.00015317298573483946,-0.7849391729999957,-0.00012986207449196203,-2.3558278750000072,3.656924120267776e-05,1.5711716099999906,0.7858381190000077,0.039999977,0.0399999581,-9.830463049999738,-0.011464446270555491,-0.001941814585130143,0.0027626399399035876,-0.01878397203952153,0.0006263613014782896
0.335,-0.00016202140198277637,-0.7849421859999937,-0.00013455278199087,-2.355823310000009,3.500656230304162e-05,1.5711771599999893,0.7858336840000086,0.039999977299999996,0.039999958200000005,-9.830590299999775,-0.011598634719613952,-0.0018512764701887493,0.002816878869896167,-0.018947746790635038,0.000638456115976952
0.3375,-0.00017123231998291042,-0.7849455549999937,-0.00013943535999094106,-2.355818375000009,3.3379950753017954e-05,1.5711829499999894,0.7858290700000086,0.03999997775,0.0399999585,-9.830710749999776,-0.011724131647264558,-0.0017503363251872804,0.002872407174896975,-0.01911378139599152,0.0006507818349771314
0.34,-0.00018044323798304448,-0.7849489239999938,-0.00014431793799101213,-2.355813440000009,3.175333920299428e-05,1.5711887399999893,0.7858244560000085,0.039999978199999994,0.0399999588,-9.830831199999778,-0.011849628574915165,-0.0016493961801858114,0.002927935479897783,-0.019279816001348,0.0006631075539773108
0.3425,-0.0001896541559831785,-0.7849522929999938,-0.00014920051599108316,-2.355808505000009,3.012672765297061e-05,1.5711945299999894,0.7858198420000084,0.03999997865,0.0399999591,-9.83095164999978,-0.01197512550256577,-0.0015484560351843423,0.002983463784898591,-0.019445850606704482,0.0006754332729774901
0.34500000000000003,-0.00019886507398331256,-0.7849556619999939,-0.00015408309399115422,-2.355803570000009,2.8500116102946937e-05,1.5712003199999895,0.7858152280000084,0.0399999791,0.0399999594,-9.831072099999782,-0.012100622430216377,-0.0014475158901828735,0.0030389920898993995,-0.01961188521206096,0.0006877589919776695
0.34750000000000003,-0.0002080759919834466,-0.7849590309999939,-0.00015896567199122529,-2.3557986350000086,2.6873504552923264e-05,1.5712061099999897,0.7858106140000083,0.039999979549999995,0.039999959700000004,-9.831192549999784,-0.012226119357866983,-0.0013465757451814045,0.0030945203949002075,-0.019777919817417444,0.0007000847109778489
0.35000000000000003,-0.00021728690998358064,-0.784962399999994,-0.00016384824999129635,-2.355793700000009,2.5246893002899595e-05,1.5712118999999898,0.7858060000000082,0.03999998,0.03999996,-9.831312999999785,-0.01235161628551759,-0.0012456356001799354,0.0031500486999010155,-0.019943954422773927,0.0007124104299780282
0.3525,-0.00022766118598165758,-0.784966863999992,-0.00016934655249027864,-2.3557876250000107,2.341519170323857e-05,1.5712183349999886,0.7858007950000092,0.03999998,0.03999996,-9.831430749999791,-0.012475877860341282,-0.00111444704023195,0.003209391549895078,-0.02011687671735106,0.0007255488879767704
0.355,-0.00023803546198180857,-0.7849713279999921,-0.00017484485499035866,-2.3557815500000108,2.158349040321191e-05,1.5712247699999886,0.7857955900000091,0.03999998,0.03999996,-9.831548499999794,-0.012600139435162775,-0.0009832584802300407,0.0032687343998959416,-0.020289799011940477,0.0007386873459769615
0.3575,-0.00024840973798195956,-0.7849757919999922,-0.00018034315749043868,-2.3557754750000104,1.9751789103185255e-05,1.5712312049999888,0.7857903850000091,0.03999998,0.03999996,-9.831666249999795,-0.012724401009984268,-0.0008520699202281317,0.003328077249896805,-0.020462721306529895,0.0007518258039771528
0.36,-0.0002587840139821105,-0.7849802559999923,-0.0001858414599905187,-2.3557694000000104,1.7920087803158598e-05,1.5712376399999888,0.785785180000009,0.03999998,0.03999996,-9.831783999999796,-0.012848662584805763,-0.0007208813602262225,0.0033874200998976686,-0.02063564360111931,0.0007649642619773439
0.3625,-0.0002691582899822615,-0.7849847199999924,-0.00019133976249059871,-2.3557633250000105,1.608838650313194e-05,1.571244074999989,0.7857799750000088,0.03999998,0.03999996,-9.8319017499998,-0.012972924159627256,-0.0005896928002243133,0.0034467629498985326,-0.020808565895708727,0.0007781027199775352
0.365,-0.0002795325659824125,-0.7849891839999925,-0.0001968380649906787,-2.3557572500000106,1.4256685203105286e-05,1.571250509999989,0.7857747700000087,0.03999998,0.03999996,-9.8320194999998,-0.013097185734448749,-0.00045850424022240424,0.003506105799899396,-0.020981488190298145,0.0007912411779777263
0.3675,-0.0002903199739802691,-0.7849940284999906,-0.00020255499198954443,-2.3557507800000126,1.235221258598285e-05,1.5712572149999877,0.7857693600000099,0.0399999802,0.03999996,-9.832124449999865,-0.013209190033227555,-0.0003148149117865954,0.0035667632398924797,-0.0211570022624641,0.0008046887874761029
0.37,-0.00030193364597980437,-0.7849996339999903,-0.00020870916798929816,-2.3557435200000127,1.0302197333564886e-05,1.5712644599999874,0.78576354000001,0.039999980799999994,0.03999996,-9.832203799999862,-0.01329667977973504,-0.0001461240462933459,0.0036300498598899472,-0.021337699889822453,0.00081875469997554
0.3725,-0.0003135473179793396,-0.78500523949999,-0.00021486334398905188,-2.355736260000013,8.252182081146921e-06,1.5712717049999871,0.7857577200000103,0.039999981399999995,0.03999996,-9.83228314999986,-0.013384169526242523,2.256681919990362e-05,0.0036933364798874147,-0.021518397517180807,0.0008328206124749772
0.375,-0.0003251609899788749,-0.7850108449999899,-0.00022101751998880562,-2.355729000000013,6.202166828728956e-06,1.5712789499999869,0.7857519000000105,0.039999981999999996,0.03999996,-9.832362499999856,-0.013471659272750007,0.00019125768469315316,0.003756623099884882,-0.02169909514453916,0.0008468865249744142
0.3775,-0.0003367746619784101,-0.7850164504999896,-0.00022717169598855934,-2.355721740000013,4.152151576310992e-06,1.5712861949999866,0.7857460800000108,0.0399999826,0.03999996,-9.832441849999853,-0.013559149019257491,0.0003599485501864027,0.0038199097198823497,-0.021879792771897517,0.0008609524374738514
0.38,-0.0003483883339779454,-0.7850220559999893,-0.00023332587198831306,-2.355714480000014,2.102136323893027e-06,1.5712934399999863,0.785740260000011,0.0399999832,0.03999996,-9.83252119999985,-0.013646638765764975,0.0005286394156796522,0.003883196339879817,-0.02206049039925587,0.0008750183499732885
0.3825,-0.00036000200597748066,-0.7850276614999891,-0.00023948004798806679,-2.355707220000014,5.212107147506244e-08,1.571300684999986,0.7857344400000112,0.0399999838,0.03999996,-9.832600549999846,-0.013734128512272459,0.0006973302811729017,0.003946482959877285,-0.022241188026614223,0.0008890842624727257
0.385,-0.0003724925649744128,-0.7850340369999866,-0.00024609824398644307,-2.3556991500000164,-2.15243011048415e-06,1.571308479999984,0.7857282000000128,0.039999984,0.0399999598,-9.83275159999963,-0.013865347299421849,0.0008719729726484827,0.004012314449867198,-0.022426966763660083,0.0009036003899708263
0.3875,-0.0003854215674738954,-0.7850407974999863,-0.0002529484499861689,-2.355690675000017,-4.434249257892839e-06,1.5713165499999837,0.785721750000013,0.039999984,0.0399999595,-9.832938499999623,-0.014018430607084287,0.001049591577141375,0.004079418374864512,-0.022615286055572018,0.0009183416249702364
0.39,-0.000398350569973378,-0.785047557999986,-0.0002597986559858948,-2.3556822000000173,-6.716068405301527e-06,1.5713246199999833,0.7857153000000132,0.039999984,0.039999959200000004,-9.833125399999616,-0.014171513914746726,0.0012272101816342672,0.004146522299861827,-0.022803605347483952,0.0009330828599696465
0.3925,-0.00041127957247286064,-0.7850543184999857,-0.00026664886198562066,-2.3556737250000177,-8.997887552710216e-06,1.571332689999983,0.7857088500000136,0.039999984,0.0399999589,-9.833312299999609,-0.014324597222409167,0.0014048287861271594,0.0042136262248591416,-0.022991924639395887,0.0009478240949690566
0.395,-0.00042420857497234326,-0.7850610789999855,-0.00027349906798534654,-2.355665250000018,-1.1279706700118906e-05,1.5713407599999827,0.7857024000000138,0.039999984,0.0399999586,-9.8334991999996,-0.014477680530071606,0.0015824473906200518,0.004280730149856456,-0.023180243931307822,0.0009625653299684667
0.3975,-0.0004371375774718259,-0.7850678394999853,-0.0002803492739850724,-2.3556567750000186,-1.3561525847527595e-05,1.5713488299999825,0.7856959500000141,0.039999984,0.0399999583,-9.833686099999593,-0.014630763837734045,0.001760065995112944,0.004347834074853771,-0.023368563223219757,0.0009773065649678768
0.4,-0.0004500665799713085,-0.785074599999985,-0.0002871994799847983,-2.3556483000000186,-1.5843344994936282e-05,1.571356899999982,0.7856895000000144,0.039999984,0.039999958,-9.833872999999587,-0.014783847145396484,0.0019376845996058362,0.004414937999851086,-0.023556882515131692,0.0009920477999672869
0.4025,-0.00046438672296842976,-0.7850825289999824,-0.0002947857839832752,-2.3556385050000217,-1.8370312194429036e-05,1.5713658699999802,0.7856823345000158,0.0399999846,0.0399999598,-9.834006949999706,-0.014902610191813525,0.002153735554523693,0.0044858059948437645,-0.02375289192380006,0.001007302724966369
0.405,-0.0004787068659686381,-0.7850904579999826,-0.0003023720879833856,-2.3556287100000213,-2.0897279394465808e-05,1.5713748399999805,0.7856751690000158,0.0399999852,0.0399999616,-9.834140899999706,-0.015021373238154404,0.002369786509526837,0.004556673989844795,-0.02394890133248549,0.001022557649966591
0.40750000000000003,-0.0004930270089688465,-0.7850983869999827,-0.000309958391983496,-2.3556189150000213,-2.3424246594502584e-05,1.5713838099999806,0.7856680035000156,0.0399999858,0.0399999634,-9.834274849999709,-0.015140136284495282,0.002585837464529981,0.004627541984845827,-0.024144910741170922,0.001037812574966813
0.41000000000000003,-0.000507347151969055,-0.7851063159999828,-0.0003175446959836064,-2.3556091200000213,-2.595121379453936e-05,1.5713927799999807,0.7856608380000155,0.0399999864,0.0399999652,-9.83440879999971,-0.01525889933083616,0.0028018884195331255,0.004698409979846858,-0.024340920149856355,0.001053067499967035
0.41250000000000003,-0.0005216672949692634,-0.785114244999983,-0.0003251309999837168,-2.3555993250000213,-2.8478180994576132e-05,1.5714017499999808,0.7856536725000154,0.039999987,0.039999967,-9.834542749999713,-0.015377662377177038,0.0030179393745362695,0.00476927797484789,-0.024536929558541788,0.001068322424967257
0.41500000000000004,-0.0005359874379694718,-0.7851221739999831,-0.0003327173039838272,-2.355589530000021,-3.100514819461291e-05,1.571410719999981,0.7856465070000153,0.0399999876,0.0399999688,-9.834676699999715,-0.015496425423517916,0.003233990329539414,0.0048401459698489205,-0.02473293896722722,0.0010835773499674789
0.4175,-0.0005507964834664308,-0.7851305269999804,-0.0003405622929822182,-2.3555792650000242,-3.361820009407749e-05,1.5714199849999793,0.7856390985000168,0.039999988,0.03999997,-9.834811999999706,-0.015613091736792728,0.0034603375694749056,0.004912302809841084,-0.024931519478126208,0.0010991330199656435
0.42,-0.0005665833339662297,-0.7851397279999803,-0.00034892465198211177,-2.355568060000024,-3.6403421394042026e-05,1.571429839999979,0.785631204000017,0.039999988,0.03999997,-9.834949999999704,-0.015725564583895367,0.003707277379471762,0.004987037339840132,-0.02513524219350143,0.0011152901799654376
0.4225,-0.0005823701844660287,-0.7851489289999802,-0.0003572870109820053,-2.355556855000024,-3.9188642694006567e-05,1.571439694999979,0.785623309500017,0.039999988,0.03999997,-9.835087999999704,-0.015838037430998004,0.003954217189468617,0.005061771869839181,-0.02533896490887665,0.001131447339965232
0.425,-0.0005981570349658277,-0.7851581299999801,-0.0003656493699818988,-2.3555456500000242,-4.197386399397111e-05,1.5714495499999788,0.7856154150000171,0.039999988,0.03999997,-9.835225999999702,-0.01595051027810064,0.004201156999465473,0.005136506399838229,-0.025542687624251874,0.0011476044999650262
0.4275,-0.0006139438854656268,-0.7851673309999799,-0.00037401172898179235,-2.3555344450000244,-4.475908529393564e-05,1.5714594049999786,0.7856075205000173,0.039999988,0.03999997,-9.8353639999997,-0.01606298312520328,0.004448096809462329,0.005211240929837278,-0.025746410339627095,0.0011637616599648206
0.43,-0.0006297307359654258,-0.7851765319999798,-0.00038237408798168584,-2.3555232400000246,-4.754430659390018e-05,1.5714692599999784,0.7855996260000173,0.039999988,0.03999997,-9.835501999999698,-0.016175455972305918,0.004695036619459186,0.005285975459836326,-0.025950133055002315,0.0011799188199646147
0.4325,-0.0006455175864652248,-0.7851857329999797,-0.0003907364469815794,-2.3555120350000247,-5.0329527893864715e-05,1.5714791149999783,0.7855917315000174,0.039999988,0.03999997,-9.835639999999696,-0.016287928819408555,0.004941976429456042,0.005360709989835375,-0.026153855770377536,0.001196075979964409
0.435,-0.0006623323329616078,-0.7851957729999769,-0.0003996426499796656,-2.355499910000028,-5.329578349322763e-05,1.571489609999976,0.7855833300000192,0.039999988,0.0399999707,-9.835733899999841,-0.01637070085838284,0.005220912829346564,0.005438001249825927,-0.026362661458083594,0.0012126430599628411
0.4375,-0.0006796610274613871,-0.7852062324999767,-0.0004088207749795487,-2.355487325000028,-5.635255624318871e-05,1.571500424999976,0.7855746750000193,0.039999988,0.03999997175,-9.83580574999984,-0.01643862249314545,0.005515847524342809,0.005516570874824926,-0.026574008631980315,0.0012294150999626276
0.44,-0.0006969897219611665,-0.7852166919999766,-0.00041799889997943184,-2.355474740000028,-5.9409328993149794e-05,1.5715112399999758,0.7855660200000194,0.039999988,0.0399999728,-9.83587759999984,-0.016506544127908068,0.0058107822193390534,0.0055951404998239255,-0.026785355805877032,0.001246187139962414
0.4425,-0.0007143184164609458,-0.7852271514999765,-0.000427177024979315,-2.355462155000028,-6.246610174311088e-05,1.5715220549999755,0.7855573650000195,0.039999988,0.039999973849999995,-9.835949449999838,-0.016574465762670684,0.006105716914335298,0.005673710124822926,-0.026996702979773753,0.0012629591799622004
0.445,-0.0007316471109607253,-0.7852376109999764,-0.00043635514997919815,-2.3554495700000286,-6.552287449307195e-05,1.5715328699999755,0.7855487100000196,0.039999988,0.0399999749,-9.836021299999837,-0.016642387397433296,0.006400651609331543,0.005752279749821925,-0.02720805015367047,0.0012797312199619869
0.4475,-0.0007489758054605046,-0.7852480704999761,-0.0004455332749790813,-2.3554369850000287,-6.857964724303304e-05,1.5715436849999753,0.7855400550000198,0.039999988,0.039999975949999995,-9.836093149999837,-0.016710309032195912,0.0066955863043277886,0.005830849374820925,-0.02741939732756719,0.0012965032599617733
0.45,-0.000766304499960284,-0.785258529999976,-0.00045471139997896445,-2.355424400000029,-7.163641999299412e-05,1.571554499999975,0.7855314000000199,0.039999988,0.039999977,-9.836164999999834,-0.016778230666958528,0.006990520999324033,0.005909418999819924,-0.02763074450146391,0.0013132752999615597
0.4525,-0.0007852498089563377,-0.7852703454999728,-0.00046474480547687645,-2.3554103900000323,-7.49775784922998e-05,1.5715663949999725,0.7855219410000218,0.0399999883,0.03999997445,-9.836366899999534,-0.01692032376271515,0.007297618699292246,0.005991762354810227,-0.027850199490279785,0.0013317984999573103
0.455,-0.0008041951179560964,-0.7852821609999726,-0.0004747782109767487,-2.3553963800000326,-7.831873699225725e-05,1.5715782899999724,0.7855124820000219,0.0399999886,0.03999997190000001,-9.836568799999531,-0.017062416858641766,0.007604716399288336,0.006074105709809178,-0.02806965447911424,0.0013503216999570745
0.4575,-0.0008231404269558552,-0.7852939764999725,-0.0004848116164766209,-2.3553823700000325,-8.165989549221471e-05,1.5715901849999723,0.7855030230000221,0.0399999889,0.039999969350000004,-9.836770699999528,-0.017204509954568382,0.007911814099284426,0.00615644906480813,-0.028289109467948693,0.0013688448999568388
0.46,-0.0008420857359556141,-0.7853057919999723,-0.0004948450219764932,-2.355368360000033,-8.500105399217216e-05,1.5716020799999721,0.7854935640000221,0.039999989199999995,0.03999996680000001,-9.836972599999527,-0.017346603050494996,0.008218911799280516,0.006238792419807081,-0.02850856445678315,0.0013873680999566028
0.4625,-0.0008610310449553728,-0.7853176074999721,-0.0005048784274763654,-2.355354350000033,-8.834221249212962e-05,1.571613974999972,0.7854841050000223,0.0399999895,0.039999964250000006,-9.837174499999524,-0.017488696146421612,0.008526009499276607,0.006321135774806034,-0.028728019445617606,0.001405891299956367
0.465,-0.0008799763539551316,-0.785329422999972,-0.0005149118329762377,-2.3553403400000334,-9.168337099208709e-05,1.571625869999972,0.7854746460000224,0.039999989799999996,0.03999996170000001,-9.83737639999952,-0.01763078924234823,0.008833107199272697,0.006403479129804985,-0.028947474434452062,0.0014244144999561313
0.4675,-0.0008994851669508652,-0.7853416899999687,-0.0005252433714739804,-2.3553258500000367,-9.512384499133513e-05,1.5716381149999692,0.7854649010000245,0.0399999905,0.03999996065,-9.83755689999967,-0.01776155885283227,0.00915643399915286,0.006487070064795025,-0.029169436636771722,0.0014428246649567029
0.47000000000000003,-0.0009201209879506025,-0.7853548599999685,-0.0005361711759738412,-2.355310400000037,-9.876294999128879e-05,1.5716510599999691,0.7854545840000247,0.039999992,0.039999962599999994,-9.83769459999967,-0.01786968149218894,0.00951221899914833,0.006573156159793929,-0.029396413266115428,0.0014610087599564714
0.47250000000000003,-0.0009407568089503397,-0.7853680299999684,-0.0005470989804737021,-2.355294950000037,-0.00010240205499124246,1.5716640049999688,0.7854442670000248,0.0399999935,0.039999964549999996,-9.837832299999668,-0.017977804131545608,0.009868003999143801,0.006659242254792833,-0.029623389895459134,0.0014791928549562398
0.47500000000000003,-0.0009613926299500771,-0.7853811999999681,-0.000558026784973563,-2.3552795000000373,-0.00010604115999119612,1.5716769499999688,0.7854339500000249,0.039999994999999997,0.0399999665,-9.837969999999666,-0.018085926770902275,0.01022378899913927,0.0067453283497917365,-0.02985036652480284,0.0014973769499560083
0.47750000000000004,-0.0009820284509498142,-0.7853943699999679,-0.0005689545894734238,-2.3552640500000375,-0.00010968026499114978,1.5716898949999687,0.785423633000025,0.039999996499999996,0.03999996845,-9.838107699999664,-0.01819404941025894,0.01057957399913474,0.006831414444790641,-0.030077343154146546,0.0015155610449557769
0.48,-0.001002664271949551,-0.7854075399999678,-0.0005798823939732845,-2.3552486000000377,-0.00011331936999110338,1.5717028399999684,0.7854133160000252,0.039999997999999995,0.039999970399999994,-9.838245399999662,-0.01830217204961561,0.010935358999130203,0.006917500539789543,-0.030304319783490245,0.0015337451399555448
0.4825,-0.0010233000929492884,-0.7854207099999676,-0.0005908101984731454,-2.355233150000038,-0.00011695847499105704,1.5717157849999683,0.7854029990000253,0.039999999499999994,0.039999972349999996,-9.83838309999966,-0.018410294688972276,0.011291143999125673,0.007003586634788447,-0.03053129641283395,0.0015519292349553133
0.485,-0.001045111969944668,-0.785434809999964,-0.000602360169970701,-2.3552165300000425,-0.00012080467599024336,1.5717294599999654,0.7853920940000276,0.0399999995,0.0399999737,-9.83853109999962,-0.018511610291656308,0.011670060599035434,0.007092194469778007,-0.030763843655004834,0.0015704736599537466
0.4875,-0.0010675118749443827,-0.7854493749999638,-0.0006142212249705499,-2.3551993250000427,-0.00012475442499019308,1.5717434999999653,0.7853808950000278,0.03999999875,0.03999997475,-9.83868424999962,-0.018609522375966317,0.012060542999030461,0.007182063174776863,-0.030999176203620162,0.0015891982499535082
0.49,-0.0010899117799440976,-0.7854639399999637,-0.0006260822799703989,-2.355182120000043,-0.0001287041739901428,1.571757539999965,0.7853696960000279,0.039999998,0.0399999758,-9.838837399999617,-0.018707434460276326,0.01245102539902549,0.007271931879775718,-0.03123450875223549,0.0016079228399532698
0.4925,-0.0011123116849438123,-0.7854785049999634,-0.0006379433349702479,-2.355164915000043,-0.0001326539229900925,1.5717715799999648,0.7853584970000281,0.03999999725,0.039999976849999994,-9.838990549999615,-0.018805346544586335,0.012841507799020518,0.007361800584774574,-0.03146984130085082,0.0016266474299530315
0.495,-0.0011347115899435272,-0.7854930699999633,-0.0006498043899700968,-2.3551477100000433,-0.0001366036719900422,1.5717856199999647,0.7853472980000282,0.0399999965,0.0399999779,-9.839143699999614,-0.01890325862889634,0.013231990199015546,0.00745166928977343,-0.031705173849466146,0.001645372019952793
0.4975,-0.001157111494943242,-0.785507634999963,-0.0006616654449699458,-2.355130505000044,-0.0001405534209899919,1.5717996599999644,0.7853360990000283,0.03999999575,0.039999978949999994,-9.839296849999611,-0.01900117071320635,0.013622472599010576,0.007541537994772286,-0.03194050639808148,0.0016640966099525547
0.5,-0.0011795113999429566,-0.7855221999999629,-0.0006735264999697948,-2.355113300000044,-0.00014450316998994165,1.5718136999999643,0.7853249000000285,0.039999995,0.03999998,-9.839449999999609,-0.01909908279751636,0.014012954999005603,0.0076314066997711415,-0.03217583894669681,0.0016828211999523161
0.5025000000000001,-0.0012037480399379713,-0.785538219999959,-0.0006863592444671572,-2.355094595000048,-0.00014877597548906463,1.5718288949999613,0.785312780000031,0.039999995,0.03999997610000001,-9.83950054999987,-0.019134185369967947,0.014456068798865941,0.007725023844760406,-0.03241830449489286,0.001703466374947163
0.505,-0.001227984679937662,-0.7855542399999588,-0.0006991919889669935,-2.355075890000048,-0.00015304878098901015,1.571844089999961,0.7853006600000312,0.039999995,0.039999972200000004,-9.83955109999987,-0.019169287942259583,0.01489918259886029,0.007818640989759212,-0.03266077004310706,0.0017241115499468996
0.5075000000000001,-0.0012522213199373541,-0.7855702599999586,-0.0007120247334668305,-2.3550571850000486,-0.00015732158648895582,1.5718592849999609,0.7852885400000313,0.039999995,0.03999996830000001,-9.839601649999869,-0.019204390514551223,0.015342296398854658,0.007912258134758023,-0.03290323559132127,0.001744756724946637
0.51,-0.001276457959937045,-0.7855862799999583,-0.0007248574779666668,-2.3550384800000486,-0.00016159439198890134,1.5718744799999604,0.7852764200000315,0.039999995,0.039999964400000004,-9.839652199999868,-0.01923949308684286,0.015785410198849006,0.008005875279756828,-0.03314570113953547,0.001765401899946374
0.5125,-0.001300694599936736,-0.7856022999999582,-0.0007376902224665031,-2.355019775000049,-0.00016586719748884683,1.5718896749999602,0.7852643000000317,0.039999995,0.03999996050000001,-9.839702749999867,-0.0192745956591345,0.016228523998843353,0.008099492424755635,-0.033388166687749674,0.0017860470749461105
0.515,-0.0013249312399364278,-0.785618319999958,-0.00075052296696634,-2.355001070000049,-0.00017014000298879253,1.57190486999996,0.7852521800000318,0.039999995,0.039999956600000004,-9.839753299999867,-0.019309698231426135,0.01667163779883772,0.008193109569754444,-0.03363063223596389,0.001806692249945848
0.5175,-0.0013498040749310883,-0.785634827999954,-0.0007636922599635152,-2.3549818050000537,-0.00017452475348785285,1.5719204549999568,0.7852397450000345,0.039999994450000007,0.0399999529,-9.839861249999412,-0.019379552732785733,0.01712112684878166,0.00828794349974363,-0.0338759021826926,0.0018274138599449804
0.52,-0.0013759492999307558,-0.7856523119999537,-0.0007775346499633392,-2.354961420000054,-0.0001791333939877943,1.5719368199999566,0.7852266800000346,0.03999999280000001,0.03999994960000001,-9.84008399999941,-0.0195189110931043,0.017583366398775786,0.008385210999742394,-0.03412678092651676,0.0018482883399447152
0.5225,-0.0014020945249304225,-0.7856697959999535,-0.0007913770399631627,-2.354941035000054,-0.0001837420344877355,1.5719531849999564,0.7852136150000347,0.039999991150000004,0.039999946300000006,-9.840306749999407,-0.019658269453422854,0.01804560594876989,0.008482478499741153,-0.03437765967034091,0.0018691628199444489
0.525,-0.0014282397499300902,-0.7856872799999532,-0.0008052194299629868,-2.3549206500000546,-0.00018835067498767691,1.5719695499999562,0.785200550000035,0.039999989500000006,0.03999994300000001,-9.840529499999404,-0.01979762781374142,0.018507845498764015,0.008579745999739916,-0.03462853841416507,0.0018900372999441837
0.5275,-0.0014543849749297567,-0.785704763999953,-0.0008190618199628102,-2.3549002650000546,-0.00019295931548761816,1.571985914999956,0.7851874850000351,0.03999998785000001,0.03999993970000001,-9.840752249999401,-0.01993698617405998,0.01897008504875812,0.008677013499738675,-0.03487941715798922,0.0019109117799439173
0.53,-0.0014805301999294244,-0.7857222479999527,-0.0008329042099626343,-2.354879880000055,-0.00019756795598755957,1.5720022799999558,0.7851744200000352,0.039999986200000004,0.03999993640000001,-9.840974999999398,-0.02007634453437854,0.019432324598752247,0.00877428099973744,-0.03513029590181339,0.0019317862599436521
0.5325,-0.001506675424929091,-0.7857397319999525,-0.0008467465999624578,-2.354859495000055,-0.00020217659648750081,1.5720186449999556,0.7851613550000355,0.039999984550000006,0.03999993310000001,-9.841197749999395,-0.0202157028946971,0.01989456414874635,0.008871548499736199,-0.03538117464563754,0.0019526607399433858
0.535,-0.001534140299923365,-0.7857582379999482,-0.0008612871269594283,-2.35483799000006,-0.00020701754298649272,1.572035839999952,0.7851476300000383,0.03999998330000001,0.03999993080000001,-9.841365699999617,-0.02031818423397288,0.020391611998598205,0.008971184799725281,-0.03563740327883744,0.0019737419599422756
0.5375,-0.0015622649999230062,-0.7857772549999479,-0.0008761767224592385,-2.3548159250000604,-0.0002119746424864295,1.5720534499999517,0.7851335750000384,0.03999998225,0.039999929000000004,-9.841506249999615,-0.020402227062501877,0.020906063998591642,0.009072005499723994,-0.035896306856757904,0.0019949265499420053
0.54,-0.0015903896999226487,-0.7857962719999476,-0.0008910663179590492,-2.3547938600000604,-0.00021693174198636651,1.5720710599999514,0.7851195200000387,0.03999998120000001,0.03999992720000001,-9.841646799999614,-0.02048626989103088,0.021420515998585105,0.009172826199722713,-0.03615521043467838,0.0020161111399417363
0.5425,-0.00161851439992229,-0.7858152889999475,-0.0009059559134588593,-2.354771795000061,-0.00022188884148630327,1.5720886699999514,0.7851054650000389,0.03999998015,0.039999925400000004,-9.841787349999612,-0.020570312719559874,0.021934967998578542,0.009273646899721428,-0.03641411401259884,0.002037295729941466
0.545,-0.0016466390999219326,-0.7858343059999472,-0.00092084550895867,-2.3547497300000613,-0.00022684594098624028,1.5721062799999512,0.785091410000039,0.039999979100000006,0.03999992360000001,-9.841927899999611,-0.020654355548088876,0.022449419998572,0.009374467599720146,-0.036673017590519316,0.0020584803199411965
0.5475,-0.001674763799921574,-0.7858533229999469,-0.0009357351044584801,-2.3547276650000617,-0.00023180304048617706,1.572123889999951,0.7850773550000392,0.03999997805,0.039999921800000005,-9.842068449999609,-0.020738398376617874,0.022963871998565442,0.00947528829971886,-0.03693192116843978,0.002079664909940926
0.55,-0.0017028884999212165,-0.7858723399999467,-0.0009506246999582908,-2.3547056000000617,-0.00023676013998611407,1.5721414999999508,0.7850633000000394,0.039999977,0.03999992000000001,-9.842208999999606,-0.020822441205146876,0.0234783239985589,0.009576108999717578,-0.037190824746360256,0.002100849499940657
0.5525,-0.00173306282991509,-0.785892921499942,-0.0009665985599550498,-2.354681705000067,-0.00024207810648503537,1.572160384999947,0.7850482250000425,0.039999977449999995,0.03999992,-9.842278299999805,-0.020844953320857066,0.02404687094840012,0.009680543799706122,-0.03745750058367306,0.0021224179849393065
0.555,-0.0017632371599147064,-0.7859135029999418,-0.0009825724199548469,-2.3546578100000675,-0.0002473960729849678,1.5721792699999466,0.7850331500000426,0.0399999779,0.03999992,-9.842347599999805,-0.020867465436394894,0.024615417898392892,0.009784978599704794,-0.037724176421007644,0.0021439864699390326
0.5575,-0.0017934114899143217,-0.7859340844999415,-0.0009985462799546431,-2.354633915000068,-0.00025271403948489996,1.5721981549999464,0.7850180750000428,0.03999997835,0.03999992,-9.842416899999803,-0.020889977551932722,0.025183964848385643,0.009889413399703463,-0.037990852258342214,0.0021655549549387575
0.56,-0.0018235858199139381,-0.7859546659999412,-0.00101452013995444,-2.354610020000068,-0.00025803200598483237,1.5722170399999462,0.785003000000043,0.039999978799999995,0.03999992,-9.842486199999803,-0.02091248966747055,0.025752511798378414,0.009993848199702136,-0.0382575280956768,0.0021871234399384832
0.5625,-0.0018537601499135532,-0.785975247499941,-0.0010304939999542363,-2.3545861250000684,-0.00026334997248476455,1.572235924999946,0.7849879250000432,0.03999997925,0.03999992,-9.8425554999998,-0.02093500178300838,0.026321058748371165,0.010098282999700805,-0.038524203933011376,0.002208691924938208
0.5650000000000001,-0.0018839344799131698,-0.7859958289999407,-0.0010464678599540333,-2.354562230000069,-0.00026866793898469696,1.5722548099999458,0.7849728500000434,0.039999979699999993,0.03999992,-9.8426247999998,-0.020957513898546207,0.026889605698363937,0.010202717799699477,-0.03879087977034596,0.002230260409937934
0.5675,-0.0019148149999066615,-0.7860169474999358,-0.0010628152799505904,-2.354537785000074,-0.00027411024898355094,1.5722741399999416,0.7849574225000466,0.03999998,0.03999991985,-9.842739849999402,-0.021014693658433174,0.027465846148289976,0.010308328949687945,-0.03906013183216409,0.00225199252993624
0.5700000000000001,-0.001947107899906251,-0.7860391399999355,-0.0010799098199503732,-2.354512240000074,-0.0002798012459834786,1.5722943599999413,0.7849412900000468,0.03999998,0.0399999194,-9.8429463999994,-0.021141208707918916,0.028057473598282454,0.010416292799686573,-0.039334536343016285,0.0022740519199359595
0.5725,-0.001979400799905839,-0.7860613324999353,-0.0010970043599501551,-2.3544866950000745,-0.000285492242983406,1.5723145799999412,0.784925157500047,0.03999998,0.039999918950000005,-9.843152949999398,-0.02126772375740465,0.028649101048274908,0.010524256649685195,-0.03960894085386846,0.0022961113099356782
0.5750000000000001,-0.002011693699905429,-0.786083524999935,-0.001114098899949938,-2.3544611500000747,-0.0002911832399833337,1.5723347999999409,0.7849090250000472,0.03999998,0.0399999185,-9.843359499999394,-0.021394238806890394,0.02924072849826739,0.010632220499683823,-0.03988334536472064,0.002318170699935398
0.5775,-0.002043986599905017,-0.7861057174999346,-0.0011311934399497198,-2.354435605000075,-0.0002968742369832611,1.5723550199999405,0.7848928925000475,0.03999998,0.039999918050000006,-9.843566049999392,-0.02152075385637613,0.029832355948259844,0.010740184349682446,-0.04015774987557282,0.0023402300899351166
0.58,-0.002076279499904605,-0.7861279099999344,-0.0011482879799495018,-2.3544100600000752,-0.0003025652339831885,1.5723752399999402,0.7848767600000477,0.03999998,0.039999917600000004,-9.84377259999939,-0.02164726890586187,0.030423983398252297,0.010848148199681069,-0.040432154386424994,0.0023622894799348354
0.5825,-0.002108572399904195,-0.7861501024999341,-0.0011653825199492845,-2.3543845150000755,-0.0003082562309831162,1.57239545999994,0.7848606275000478,0.03999998,0.03999991715,-9.843979149999388,-0.02177378395534761,0.03101561084824478,0.010956112049679697,-0.04070655889727718,0.002384348869934555
0.585,-0.0021423230498972675,-0.7861733899999289,-0.0011832482399456198,-2.354357670000082,-0.00031420385498189663,1.5724165999999355,0.7848437650000514,0.039999980399999996,0.039999917,-9.844155049999522,-0.02186009045670564,0.031645104298068,0.011066382699668009,-0.04098658785139684,0.0024066997999329705
0.5875,-0.0021768025748968296,-0.7861972249999286,-0.0012014995499453878,-2.354330175000082,-0.0003202797924818194,1.5724381999999353,0.7848265375000516,0.039999981,0.039999917,-9.84431562499952,-0.021926292683731034,0.03229353074805976,0.011177806749666593,-0.041269429027187846,0.002429196499932685
0.59,-0.00221128209989639,-0.7862210599999283,-0.0012197508599451551,-2.3543026800000826,-0.0003263557299817419,1.572459799999935,0.7848093100000517,0.0399999816,0.039999917,-9.844476199999518,-0.021992494910756423,0.03294195719805149,0.011289230799665172,-0.041552270202978844,0.002451693199932398
0.5925,-0.0022457616248959516,-0.7862448949999281,-0.0012380021699449231,-2.3542751850000827,-0.00033243166748166467,1.5724813999999347,0.784792082500052,0.0399999822,0.039999917,-9.844636774999517,-0.02205869713778182,0.033590383648043246,0.011400654849663756,-0.04183511137876986,0.002474189899932112
0.595,-0.002280241149895512,-0.7862687299999278,-0.0012562534799446903,-2.3542476900000833,-0.0003385076049815872,1.5725029999999345,0.7847748550000522,0.0399999828,0.039999917,-9.844797349999514,-0.02212489936480721,0.03423881009803498,0.011512078899662334,-0.042117952554560856,0.002496686599931825
0.5975,-0.0023147206748950736,-0.7862925649999275,-0.0012745047899444585,-2.354220195000084,-0.00034458354248151,1.5725245999999342,0.7847576275000524,0.0399999834,0.039999917,-9.84495792499951,-0.0221911015918326,0.03488723654802674,0.011623502949660918,-0.04240079373035186,0.002519183299931539
0.6,-0.002349200199894634,-0.7863163999999272,-0.0012927560999442256,-2.354192700000084,-0.0003506594799814325,1.572546199999934,0.7847404000000526,0.039999984,0.039999917,-9.84511849999951,-0.022257303818857994,0.03553566299801847,0.011734926999659497,-0.04268363490614286,0.002541679999931252
0.6025,-0.0023859334298872797,-0.7863419299999217,-0.0013121994449403357,-2.3541633150000902,-0.0003571321509801378,1.5725692399999291,0.7847220340000564,0.039999984,0.0399999164,-9.845240974999625,-0.02231722045671433,0.0362317085978641,0.011849797599647506,-0.04297363087445914,0.002564456059930109
0.605,-0.0024226666598868114,-0.7863674599999214,-0.0013316427899400878,-2.3541339300000907,-0.00036360482198005527,1.572592279999929,0.7847036680000565,0.039999984,0.0399999158,-9.845363449999622,-0.022377137094551455,0.036927754197855225,0.01196466819964604,-0.04326362684279727,0.0025872321199298188
0.6075,-0.0024593998898863444,-0.786392989999921,-0.0013510861349398406,-2.354104545000091,-0.000370077492979973,1.5726153199999287,0.7846853020000568,0.039999984,0.0399999152,-9.845485924999622,-0.022437053732388582,0.03762379979784638,0.01207953879964458,-0.043553622811135416,0.002610008179929529
0.61,-0.0024961331198858757,-0.7864185199999207,-0.0013705294799395927,-2.3540751600000913,-0.00037655016397989045,1.5726383599999285,0.784666936000057,0.039999984,0.0399999146,-9.84560839999962,-0.02249697037022571,0.0383198453978375,0.012194409399643115,-0.04384361877947355,0.002632784239929239
0.6125,-0.002532866349885409,-0.7864440499999203,-0.0013899728249393455,-2.354045775000092,-0.0003830228349798082,1.5726613999999282,0.7846485700000573,0.039999984,0.039999914000000004,-9.845730874999619,-0.02255688700806284,0.03901589099782865,0.012309279999641655,-0.04413361474781169,0.0026555602999289492
0.615,-0.0025695995798849405,-0.7864695799999201,-0.0014094161699390977,-2.354016390000092,-0.00038949550597972563,1.5726844399999278,0.7846302040000575,0.039999984,0.0399999134,-9.845853349999617,-0.022616803645899963,0.039711936597819776,0.01242415059964019,-0.04442361071614982,0.002678336359928659
0.6175,-0.002607105939876824,-0.7864956849999141,-0.0014292685199348036,-2.3539863900000983,-0.00039610417247829764,1.572707944999923,0.7846114540000615,0.039999984,0.039999912650000004,-9.845954949999811,-0.022652504127512792,0.04042825614761276,0.01254015464962696,-0.044716144352212626,0.002701361599925804
0.62,-0.0026461585598752603,-0.786522939999913,-0.001449938879933976,-2.3539551600001,-0.0004029848299780222,1.572732379999922,0.7845919360000623,0.039999984,0.0399999116,-9.846014799999809,-0.022639772295992507,0.04118512359758245,0.012658425599622224,-0.04501375332379647,0.0027248851999248625
0.6225,-0.0026852111798736982,-0.7865501949999119,-0.0014706092399331492,-2.353923930000101,-0.00040986548747774695,1.572756814999921,0.784572418000063,0.039999984,0.039999910550000004,-9.846074649999807,-0.022627040464472222,0.04194199104755218,0.012776696549617494,-0.04531136229538033,0.0027484087999239213
0.625,-0.002724263799872135,-0.7865774499999107,-0.0014912795999323216,-2.3538927000001024,-0.0004167461449774715,1.57278124999992,0.784552900000064,0.039999984,0.0399999095,-9.846134499999804,-0.022614308632951937,0.04269885849752188,0.01289496749961276,-0.04560897126696417,0.0027719323999229797
0.6275000000000001,-0.002763316419870573,-0.7866047049999096,-0.0015119499599314948,-2.3538614700001035,-0.0004236268024771963,1.572805684999919,0.7845333820000647,0.039999984,0.03999990845,-9.846194349999802,-0.02260157680143165,0.04345572594749161,0.01301323844960803,-0.04590658023854803,0.002795455999922039
0.63,-0.002802369039869009,-0.7866319599999085,-0.0015326203199306672,-2.353830240000105,-0.0004305074599769208,1.572830119999918,0.7845138640000655,0.039999984,0.03999990740000001,-9.8462541999998,-0.022588844969911363,0.0442125933974613,0.013131509399603294,-0.04620418921013188,0.002818979599921097
0.6325000000000001,-0.0028414216598674474,-0.7866592149999074,-0.0015532906799298404,-2.353799010000106,-0.00043738811747664563,1.572854554999917,0.7844943460000663,0.039999984,0.03999990635,-9.846314049999798,-0.022576113138391078,0.04496946084743103,0.013249780349598565,-0.04650179818171573,0.002842503199920156
0.635,-0.002882063599859204,-0.7866876699999013,-0.0015748017999254796,-2.3537663600001135,-0.0004445485369751945,1.5728800099999116,0.7844740420000703,0.039999984,0.0399999056,-9.846487699999217,-0.0226463684808391,0.0457438029973392,0.013370261599586866,-0.0468049269159175,0.002866061119919895
0.6375000000000001,-0.002923500199859808,-0.7867167249999016,-0.0015967332999257994,-2.353733000000113,-0.00045184883747530094,1.5729059749999121,0.78445334500007,0.039999984,0.039999905,-9.84671824999922,-0.022758117410907545,0.04652688249735061,0.013491847999588637,-0.04711081553147056,0.0028896361999202385
0.64,-0.0029649367998604097,-0.7867457799999021,-0.001618664799926118,-2.3536996400001122,-0.000459149137975407,1.5729319399999124,0.7844326480000697,0.039999984,0.0399999044,-9.846948799999224,-0.022869866340975983,0.04730996199736199,0.013613434399590405,-0.04741670414702361,0.0029132112799205813
0.6425,-0.003006373399861012,-0.7867748349999025,-0.0016405962999264366,-2.353666280000112,-0.0004664494384755131,1.572957904999913,0.7844119510000694,0.039999984,0.0399999038,-9.847179349999227,-0.022981615271044423,0.04809304149737337,0.01373502079959217,-0.04772259276257666,0.0029367863599209236
0.645,-0.003047809999861616,-0.7868038899999029,-0.0016625277999267564,-2.3536329200001114,-0.0004737497389756195,1.5729838699999132,0.7843912540000691,0.039999984,0.0399999032,-9.84740989999923,-0.023093364201112868,0.04887612099738478,0.013856607199593942,-0.04802848137812973,0.0029603614399212673
0.6475,-0.003089246599862218,-0.7868329449999033,-0.001684459299927075,-2.3535995600001107,-0.00048105003947572554,1.5730098349999135,0.7843705570000687,0.039999984,0.0399999026,-9.847640449999233,-0.023205113131181305,0.04965920049739616,0.01397819359959571,-0.04833436999368278,0.0029839365199216096
0.65,-0.003130683199862822,-0.7868619999999038,-0.0017063907999273946,-2.3535662000001105,-0.0004883503399758319,1.573035799999914,0.7843498600000685,0.039999984,0.039999902,-9.847870999999236,-0.02331686206124975,0.05044227999740757,0.014099779999597481,-0.04864025860923584,0.0030075115999219533
0.6525,-0.0031745673198541598,-0.7868928699998974,-0.0017296170399228122,-2.353530680000118,-0.000496081492974307,1.5730633249999084,0.7843279360000728,0.0399999846,0.0399999017,-9.847983049999627,-0.023355872556437486,0.051289439497184626,0.014224559899585317,-0.04895271640167104,0.003031463839920399
0.655,-0.003218451439853602,-0.786923739999897,-0.0017528432799225168,-2.3534951600001186,-0.0005038126459742088,1.5730908499999081,0.7843060120000731,0.0399999852,0.039999901399999996,-9.848095099999625,-0.02339488305138442,0.052136598997173864,0.014349339799583732,-0.049265174194127986,0.003055416079920095
0.6575,-0.0032623355598530423,-0.7869546099998966,-0.0017760695199222206,-2.3534596400001186,-0.0005115437989741101,1.5731183749999078,0.7842840880000733,0.0399999858,0.0399999011,-9.848207149999624,-0.023433893546331352,0.05298375849716306,0.014474119699582141,-0.04957763198658493,0.0030793683199197893
0.66,-0.0033062196798524846,-0.7869854799998962,-0.0017992957599219253,-2.353424120000119,-0.0005192749519740119,1.5731458999999075,0.7842621640000736,0.0399999864,0.0399999008,-9.848319199999624,-0.023472904041278286,0.05383091799715229,0.014598899599580554,-0.04989008977904188,0.003103320559919485
0.6625,-0.003350103799851925,-0.7870163499998958,-0.0018225219999216291,-2.3533886000001196,-0.0005270061049739132,1.5731734249999072,0.784240240000074,0.039999987,0.0399999005,-9.848431249999622,-0.02351191453622522,0.054678077497141486,0.014723679499578963,-0.05020254757149882,0.0031272727999191795
0.665,-0.003393987919851367,-0.7870472199998955,-0.001845748239921334,-2.35335308000012,-0.000534737257973815,1.573200949999907,0.7842183160000742,0.0399999876,0.0399999002,-9.848543299999621,-0.023550925031172152,0.05552523699713072,0.014848459399577378,-0.05051500536395578,0.003151225039918875
0.6675,-0.0034387086698422745,-0.7870787049998887,-0.0018694170549165238,-2.353316910000127,-0.000542615721972214,1.5732289899999012,0.7841959800000787,0.0399999881,0.0399999001,-9.848656999999603,-0.02358903316768575,0.05639032419693707,0.014974324749564715,-0.05082971304546552,0.003175115759919197
0.67,-0.003485102679841685,-0.7871114199998883,-0.0018939710199162118,-2.3532794400001276,-0.0005507888079721101,1.5732580599999009,0.7841728200000789,0.0399999884,0.039999900399999996,-9.848773999999601,-0.023625336587305097,0.057291266796925616,0.015102360999563087,-0.05114892050514965,0.003198883439918895
0.6725,-0.003531496689841093,-0.7871441349998879,-0.0019185249849158986,-2.3532419700001284,-0.0005589618939720059,1.5732871299999005,0.7841496600000792,0.039999988699999996,0.03999990069999999,-9.8488909999996,-0.023661640006924445,0.05819220939691413,0.015230397249561455,-0.05146812796483377,0.003222651119918592
0.675,-0.0035778906998405035,-0.7871768499998875,-0.0019430789499155865,-2.3532045000001287,-0.000567134979971902,1.5733161999999001,0.7841265000000796,0.039999989,0.039999901,-9.849007999999598,-0.023697943426543792,0.059093151996902675,0.015358433499559827,-0.051787335424517904,0.0032464187999182896
0.6775,-0.0036242847098399114,-0.7872095649998871,-0.0019676329149152733,-2.353167030000129,-0.0005753080659717978,1.5733452699998998,0.7841033400000799,0.0399999893,0.039999901299999994,-9.849124999999598,-0.02373424684616314,0.05999409459689119,0.015486469749558194,-0.05210654288420202,0.003270186479917987
0.68,-0.003670678719839322,-0.7872422799998867,-0.0019921868799149616,-2.35312956000013,-0.0005834811519716939,1.5733743399998994,0.7840801800000802,0.0399999896,0.0399999016,-9.849241999999595,-0.023770550265782488,0.060895037196879734,0.015614505999556567,-0.052425750343886156,0.0032939541599176845
0.6825,-0.0037170727298387303,-0.7872749949998863,-0.002016740844914648,-2.35309209000013,-0.0005916542379715896,1.573403409999899,0.7840570200000805,0.0399999899,0.039999901899999996,-9.849358999999595,-0.023806853685401835,0.061795979796868246,0.015742542249554934,-0.052744957803570275,0.0033177218399173813
0.685,-0.0037651806298291714,-0.7873089799998791,-0.002042201419909592,-2.3530531600001385,-0.0006001288399699079,1.573433549999893,0.7840329900000853,0.03999999,0.0399999018,-9.849436699999798,-0.02378879189507056,0.06274251009661823,0.01587260309954271,-0.05306948386018569,0.003341848529915201
0.6875,-0.003814145474828547,-0.7873435999998788,-0.002068115299909261,-2.353013500000139,-0.0006087541999697979,1.5734642249998927,0.7840085250000857,0.03999999,0.0399999015,-9.849494749999797,-0.02374354749933825,0.06371183424660586,0.01600367624954104,-0.05339666921530837,0.003366154724914891
0.6900000000000001,-0.0038631103198279245,-0.7873782199998783,-0.002094029179908932,-2.3529738400001396,-0.0006173795599696882,1.5734948999998921,0.7839840600000859,0.03999999,0.0399999012,-9.849552799999797,-0.02369830310360594,0.06468115839659354,0.016134749399539374,-0.053723854570431065,0.0033904609199145817
0.6925,-0.0039120751648272995,-0.7874128399998779,-0.002119943059908601,-2.35293418000014,-0.0006260049199695782,1.5735255749998918,0.7839595950000863,0.03999999,0.039999900899999996,-9.849610849999795,-0.023653058707873632,0.06565048254658118,0.016265822549537703,-0.05405103992555375,0.0034147671149142717
0.6950000000000001,-0.0039610400098266775,-0.7874474599998774,-0.0021458569399082717,-2.3528945200001408,-0.0006346302799694686,1.5735562499998914,0.7839351300000865,0.03999999,0.0399999006,-9.849668899999795,-0.023607814312141324,0.06661980669656886,0.016396895699536035,-0.05437822528067644,0.003439073309913963
0.6975,-0.004010004854826053,-0.787482079999877,-0.0021717708199079414,-2.352854860000141,-0.0006432556399693586,1.573586924999891,0.7839106650000869,0.03999999,0.0399999003,-9.849726949999795,-0.023562569916409017,0.0675891308465565,0.016527968849534364,-0.054705410635799125,0.003463379504913653
0.7000000000000001,-0.004058969699825431,-0.7875166999998765,-0.002197684699907612,-2.3528152000001414,-0.0006518809999692489,1.5736175999998905,0.7838862000000872,0.03999999,0.0399999,-9.849784999999793,-0.023517325520676705,0.06855845499654417,0.0166590419995327,-0.05503259599092182,0.0034876856999133438
0.7025,-0.004110565094815394,-0.7875532549998692,-0.0022249901899023023,-2.35277332000015,-0.0006609693649674823,1.5736498949998845,0.7838604225000922,0.0399999897,0.03999989805,-9.84999199999926,-0.023606592788972904,0.06955566774643203,0.016793306999519607,-0.05536670144527816,0.003512079404912721
0.705,-0.004162160489814736,-0.7875898099998687,-0.0022522956799019543,-2.3527314400001504,-0.0006700577299673664,1.573682189999884,0.7838346450000926,0.0399999894,0.03999989610000001,-9.850198999999257,-0.02369586005774866,0.0705528804964193,0.016927571999517894,-0.055700806899659165,0.0035364731099124095
0.7075,-0.00421375588481408,-0.7876263649998683,-0.002279601169901607,-2.352689560000151,-0.0006791460949672509,1.5737144849998836,0.7838088675000929,0.0399999891,0.03999989415000001,-9.850405999999255,-0.02378512732652442,0.07155009324640664,0.017061836999516185,-0.056034912354040185,0.0035608668149120994
0.71,-0.004265351279813422,-0.7876629199998678,-0.0023069066599012587,-2.3526476800001515,-0.0006882344599671349,1.5737467799998832,0.7837830900000932,0.039999988800000004,0.039999892200000005,-9.850612999999251,-0.023874394595300177,0.07254730599639392,0.017196101999514473,-0.0563690178084212,0.0035852605199117884
0.7125,-0.004316946674812767,-0.7876994749998674,-0.002334212149900912,-2.352605800000152,-0.0006973228249670195,1.5737790749998828,0.7837573125000935,0.0399999885,0.03999989025,-9.85081999999925,-0.023963661864075936,0.07354451874638124,0.017330366999512768,-0.05670312326280222,0.0036096542249114782
0.715,-0.004368542069812109,-0.7877360299998669,-0.0023615176399005636,-2.352563920000153,-0.0007064111899669035,1.5738113699998824,0.7837315350000938,0.0399999882,0.03999988830000001,-9.851026999999247,-0.024052929132851692,0.07454173149636853,0.017464631999511055,-0.05703722871718323,0.0036340479299111672
0.7175,-0.004421033864801626,-0.7877732449998592,-0.002389297319895018,-2.3525213100001614,-0.0007156573184650584,1.5738442249998759,0.783705314000099,0.039999987800000004,0.039999886650000004,-9.851204649999564,-0.024116872064720653,0.07556206149610241,0.01759989764949838,-0.05737367365384605,0.0036584103599112
0.72,-0.004475318459800933,-0.7878117799998587,-0.0024180253798946516,-2.352477240000162,-0.0007252189739649365,1.5738781999998754,0.7836782060000994,0.0399999872,0.0399998856,-9.851323599999564,-0.02413016632194409,0.07662862599608881,0.01773716459949663,-0.057714797555149286,0.0036827102399108903
0.7225,-0.0045296030548002434,-0.7878503149998582,-0.0024467534398942867,-2.3524331700001624,-0.000734780629464815,1.573912174999875,0.7836510980000998,0.0399999866,0.03999988455,-9.851442549999563,-0.024143460579167525,0.07769519049607526,0.017874431549494883,-0.05805592145645254,0.003707010119910581
0.725,-0.004583887649799551,-0.7878888499998578,-0.00247548149989392,-2.352389100000163,-0.0007443422849646931,1.5739461499998746,0.7836239900001001,0.039999986,0.03999988350000001,-9.85156149999956,-0.02415675483639096,0.07876175499606165,0.018011698499493134,-0.05839704535775578,0.0037313099999102713
0.7275,-0.004638172244798861,-0.7879273849998573,-0.002504209559893555,-2.3523450300001634,-0.0007539039404645714,1.5739801249998742,0.7835968820001005,0.03999998540000001,0.03999988245,-9.85168044999956,-0.024170049093614396,0.0798283194960481,0.018148965449491388,-0.05873816925905903,0.0037556098799099626
0.73,-0.004692456839798169,-0.7879659199998568,-0.0025329376198931883,-2.352300960000164,-0.0007634655959644495,1.5740140999998737,0.7835697740001007,0.039999984800000006,0.039999881400000006,-9.851799399999557,-0.02418334335083783,0.08089488399603449,0.01828623239948964,-0.05907929316036227,0.0037799097599096527
0.7325,-0.004746741434797479,-0.7880044549998563,-0.0025616656798928233,-2.3522568900001644,-0.000773027251464328,1.5740480749998733,0.7835426660001011,0.039999984200000005,0.03999988035,-9.851918349999556,-0.024196637608061268,0.08196144849602094,0.018423499349487893,-0.05942041706166553,0.0038042096399093436
0.735,-0.004802856839785469,-0.7880443299998475,-0.0025913624098864688,-2.3522113000001745,-0.0007829110569622144,1.5740832399998657,0.7835146400001072,0.03999998290000001,0.03999987800000001,-9.852041499999528,-0.024204419366996414,0.08306686449576871,0.018562709199472685,-0.05976623855400241,0.0038285861399081594
0.7375,-0.0048598876497831876,-0.7880848749998459,-0.0026215434748852614,-2.3521649500001764,-0.0007929559374618126,1.5741189999998642,0.7834861550001083,0.03999998125000001,0.03999987500000001,-9.852166749999524,-0.024209444876741093,0.08419170624572372,0.01870289049946708,-0.060114408841895624,0.003853000949907183
0.74,-0.0049169184597809045,-0.7881254199998442,-0.002651724539884053,-2.352118600000178,-0.0008030008179614104,1.5741547599998627,0.7834576700001095,0.039999979600000006,0.03999987200000001,-9.852291999999519,-0.024214470386485772,0.08531654799567868,0.018843071799461465,-0.06046257912978881,0.003877415759906205
0.7425,-0.004973949269778623,-0.7881659649998426,-0.002681905604882846,-2.35207225000018,-0.0008130456984610087,1.5741905199998614,0.7834291850001106,0.03999997795000001,0.039999869000000014,-9.852417249999514,-0.02421949589623045,0.0864413897456337,0.01898325309945586,-0.06081074941768201,0.0039018305699052287
0.745,-0.00503098007977634,-0.788206509999841,-0.002712086669881638,-2.3520259000001817,-0.0008230905789606065,1.5742262799998599,0.7834007000001117,0.03999997630000001,0.03999986600000001,-9.852542499999508,-0.02422452140597513,0.08756623149558866,0.019123434399450245,-0.0611589197055752,0.003926245379904251
0.7475,-0.005088010889774059,-0.7882470549998394,-0.0027422677348804304,-2.3519795500001837,-0.0008331354594602047,1.5742620399998584,0.7833722150001129,0.039999974650000006,0.03999986300000001,-9.852667749999505,-0.02422954691571981,0.08869107324554366,0.01926361569944464,-0.061507089993468406,0.0039506601899032745
0.75,-0.005145041699771776,-0.7882875999998378,-0.002772448799879222,-2.3519332000001856,-0.0008431803399598026,1.574297799999857,0.783343730000114,0.03999997300000001,0.03999986000000001,-9.8527929999995,-0.024234572425464486,0.08981591499549862,0.019403796999439026,-0.061855260281361596,0.0039750749999022976
0.7525000000000001,-0.005204874794761434,-0.7883301699998303,-0.0028041120748737523,-2.3518844650001944,-0.0008537184489579824,1.5743353149998505,0.7833138500001191,0.039999971050000006,0.039999857900000005,-9.852802449999963,-0.024157737475194854,0.09101338599522543,0.019546914849429362,-0.062209500184732876,0.003999248159903617
0.755,-0.005264707889762303,-0.7883727399998309,-0.0028357753498742125,-2.3518357300001935,-0.0008642565579581355,1.574372829999851,0.7832839700001187,0.03999996910000001,0.039999855800000005,-9.852811899999962,-0.024080902524597637,0.09221085699524284,0.01969003269943144,-0.06256374008812843,0.004023421319903968
0.7575000000000001,-0.0053245409847631755,-0.7884153099998316,-0.0028674386248746736,-2.351786995000193,-0.0008747946669582891,1.5744103449998517,0.7832540900001183,0.03999996715000001,0.039999853700000004,-9.852821349999962,-0.02400406757400042,0.09340832799526029,0.019833150549433527,-0.06291797999152399,0.00404759447990432
0.76,-0.005384374079764044,-0.7884578799998321,-0.002899101899875134,-2.351738260000192,-0.0008853327759584422,1.5744478599998522,0.7832242100001178,0.03999996520000001,0.039999851600000004,-9.852830799999962,-0.023927232623403204,0.09460579899527768,0.019976268399435605,-0.06327221989491953,0.004071767639904671
0.7625000000000001,-0.0054442071747649165,-0.7885004499998327,-0.0029307651748755954,-2.3516895250001917,-0.0008958708849585959,1.5744853749998526,0.7831943300001174,0.039999963250000006,0.039999849500000004,-9.852840249999963,-0.023850397672805983,0.09580326999529515,0.020119386249437692,-0.0636264597983151,0.0040959407999050235
0.765,-0.005504040269765786,-0.7885430199998333,-0.0029624284498760557,-2.3516407900001908,-0.000906408993958749,1.5745228899998531,0.7831644500001169,0.03999996130000001,0.0399998474,-9.852849699999963,-0.023773562722208767,0.09700074099531254,0.02026250409943977,-0.06398069970171065,0.004120113959905376
0.7675000000000001,-0.005564825599755518,-0.7885862869998258,-0.002994595509870623,-2.3515912500001996,-0.0009171146699569422,1.5745609999998467,0.7831340935001221,0.03999995950000001,0.03999984520000001,-9.8529243999992,-0.023744768090283627,0.09820845844521012,0.020406555249430938,-0.06433716155447873,0.004144279729905814
0.77,-0.005627515399756428,-0.7886309479998265,-0.003027770139871105,-2.3515401000001988,-0.0009281554799571026,1.5746002999998474,0.7831027840001216,0.03999995800000001,0.03999984280000001,-9.853129599999201,-0.02381205409739091,0.09943666879522796,0.02055247299943306,-0.06469806730606993,0.004168430719906165
0.7725,-0.005690205199757339,-0.7886756089998271,-0.003060944769871587,-2.351488950000198,-0.000939196289957263,1.574639599999848,0.7830714745001212,0.0399999565,0.03999984040000001,-9.853334799999205,-0.023879340104498194,0.10066487914524581,0.020698390749435178,-0.06505897305766115,0.004192581709906516
0.775,-0.0057528949997582525,-0.7887202699998278,-0.0030941193998720706,-2.3514378000001974,-0.0009502370999574239,1.5746788999998484,0.7830401650001207,0.039999955000000004,0.03999983800000001,-9.853539999999208,-0.023946626111605477,0.10189308949526371,0.020844308499437306,-0.06541987880925236,0.004216732699906868
0.7775,-0.005815584799759164,-0.7887649309998284,-0.0031272940298725524,-2.3513866500001965,-0.0009612779099575843,1.574718199999849,0.7830088555001202,0.039999953500000004,0.039999835600000005,-9.853745199999212,-0.02401391211871276,0.10312129984528157,0.020990226249439425,-0.06578078456084356,0.004240883689907219
0.78,-0.005878274599760077,-0.788809591999829,-0.003160468659873036,-2.3513355000001956,-0.0009723187199577452,1.5747574999998495,0.7829775460001198,0.039999952000000005,0.03999983320000001,-9.853950399999215,-0.024081198125820047,0.10434951019529946,0.021136143999441553,-0.06614169031243478,0.004265034679907571
0.7825,-0.005940964399760988,-0.7888542529998297,-0.003193643289873518,-2.3512843500001948,-0.0009833595299579055,1.5747967999998502,0.7829462365001193,0.039999950500000006,0.03999983080000001,-9.854155599999219,-0.02414848413292733,0.1055777205453173,0.021282061749443672,-0.06650259606402598,0.004289185669907922
0.785,-0.006005594319748462,-0.7889003359998206,-0.0032278442098668918,-2.351231670000205,-0.0009947418199557007,1.5748372799998425,0.7829139670001255,0.039999949300000004,0.03999982900000001,-9.854289299999625,-0.024160180427195678,0.1068575225949938,0.02142982469942988,-0.0668675377950902,0.004313101299908749
0.7875,-0.006071194299745835,-0.7889471299998186,-0.003262558274865502,-2.351178225000207,-0.0010062948499552382,1.5748783499998409,0.7828812175001268,0.03999994825000001,0.03999982750000001,-9.85438724999962,-0.0241440818645683,0.10816312049494152,0.021578510249423925,-0.0672344975159255,0.004336899249907796
0.79,-0.006136794279743212,-0.7889939239998168,-0.0032972723398641134,-2.3511247800002093,-0.0010178478799547763,1.5749194199998393,0.7828484680001282,0.039999947200000004,0.039999826,-9.854485199999617,-0.02412798330194092,0.10946871839488931,0.021727195799417977,-0.06760145723676081,0.004360697199906845
0.7925,-0.006202394259740585,-0.7890407179998149,-0.0033319864048627235,-2.3510713350002113,-0.0010294009099543135,1.5749604899998375,0.7828157185001295,0.03999994615000001,0.0399998245,-9.854583149999613,-0.024111884739313538,0.11077431629483703,0.021875881349412023,-0.0679684169575961,0.004384495149905891
0.795,-0.006267994239737961,-0.7890875119998131,-0.003366700469861335,-2.3510178900002137,-0.0010409539399538516,1.575001559999836,0.7827829690001308,0.0399999451,0.039999823000000004,-9.85468109999961,-0.024095786176686156,0.1120799141947848,0.022024566899406076,-0.06833537667843143,0.00440829309990494
0.7975,-0.006333594219735335,-0.7891343059998112,-0.003401414534859945,-2.3509644450002156,-0.001052506969953389,1.5750426299998344,0.7827502195001321,0.03999994405000001,0.039999821500000005,-9.854779049999605,-0.024079687614058775,0.11338551209473254,0.022173252449400126,-0.0687023363992667,0.004432091049903987
0.8,-0.006399194199732712,-0.7891810999998093,-0.0034361285998585566,-2.3509110000002176,-0.001064059999952927,1.5750836999998326,0.7827174700001335,0.03999994300000001,0.039999820000000005,-9.8548769999996,-0.024063589051431394,0.11469110999468032,0.02232193799939418,-0.06906929612010203,0.004455888999903035
0.8025,-0.006467756214719768,-0.7892300524997999,-0.0034724096698517093,-2.3508551550002283,-0.0010761344149506486,1.5751266749998243,0.78268323550014,0.03999994135000001,0.03999981775000001,-9.854892599999937,-0.02395985601512268,0.11607669299433675,0.022473345599381155,-0.06944322734918339,0.004479405249903883
0.805,-0.006536318229718897,-0.7892790049997993,-0.003508690739851248,-2.350799310000229,-0.001088208829950495,1.5751696499998238,0.7826490010001403,0.03999993970000001,0.03999981550000001,-9.854908199999937,-0.023856122978456896,0.11746227599431913,0.022624753199379233,-0.06981715857829317,0.004502921499903584
0.8075,-0.006604880244718022,-0.7893279574997987,-0.0035449718098507855,-2.3507434650002295,-0.0011002832449503411,1.5752126249998233,0.7826147665001408,0.03999993805000001,0.03999981325000001,-9.854923799999936,-0.023752389941791113,0.11884785899430146,0.0227761607993773,-0.07019108980740295,0.004526437749903284
0.81,-0.006673442259717151,-0.789376909999798,-0.003581252879850324,-2.3506876200002305,-0.0011123576599501876,1.5752555999998228,0.7825805320001412,0.03999993640000001,0.03999981100000001,-9.854939399999935,-0.023648656905125326,0.12023344199428385,0.022927568399375375,-0.07056502103651273,0.004549953999902985
0.8125,-0.006742004274716277,-0.7894258624997974,-0.0036175339498498616,-2.350631775000231,-0.0011244320749500337,1.5752985749998223,0.7825462975001417,0.03999993475000001,0.03999980875000001,-9.854954999999936,-0.023544923868459543,0.12161902499426618,0.023078975999373447,-0.0709389522656225,0.004573470249902685
0.8150000000000001,-0.006810566289715406,-0.7894748149997968,-0.0036538150198494003,-2.3505759300002316,-0.0011365064899498802,1.5753415499998216,0.7825120630001421,0.03999993310000001,0.039999806500000006,-9.854970599999936,-0.023441190831793756,0.12300460799424857,0.02323038359937152,-0.07131288349473229,0.004596986499902386
0.8175,-0.006880132504701987,-0.7895244909997872,-0.0036906273598423015,-2.350519265000243,-0.0011487576199475187,1.5753851399998133,0.7824773310001487,0.039999930900000015,0.039999803750000014,-9.855050099999138,-0.023388742469042437,0.12439998699410854,0.023382659549358746,-0.07168892249306659,0.004620343814904071
