rsonawane2002/My_IMU/logs_incomplete/traj_512/imu_512.csv
time,j1,j2,j3,j4,j5,j6,j7,gripper1,gripper2,imu_ax,imu_ay,imu_az,imu_gx,imu_gy,imu_gz
2885.083333342458,0.00016700293,-0.785875,4.0107683e-05,-2.3551247,9.29385e-05,1.570997,0.786,0.04,0.04,-9.495071,0.040760863572359085,0.07957378,-4.852669e-08,-0.0011641276068985462,-2.335484e-07
2885.100000009125,0.0001670033,-0.78576016,4.0123894e-05,-2.3552213,9.297844e-05,1.5709941,0.786,0.04,0.04,-9.834494,0.0006439806893467903,0.0090605775,-9.421581e-08,-0.002237935084849596,8.659054e-07
2885.1166666757917,0.00016698743,-0.7856542,4.020363e-05,-2.35531,9.3045746e-05,1.5709913,0.786,0.04,0.04,-9.832053,0.0007203551940619946,0.0076711327,4.2209618e-07,-0.0032199707347899675,4.2862555e-07
2885.1333333424586,0.00016693107,-0.78555673,4.0452443e-05,-2.355391,9.3190334e-05,1.5709884,0.786,0.04,0.04,-9.830334,0.0008636915008537471,0.006222971,2.1966239e-06,-0.0041126408614218235,-1.4831693e-06
2885.1500000091255,0.00016680112,-0.78546685,4.102181e-05,-2.3554654,9.3485876e-05,1.5709856,0.786,0.04,0.04,-9.828209,0.0010694593656808138,0.0050260765,5.5244523e-06,-0.0049131023697555065,-5.4838074e-06
2885.1666666757924,0.00016655655,-0.7853838,4.210448e-05,-2.3555338,9.402224e-05,1.5709827,0.786,0.04,0.04,-9.82592,0.0013179988600313663,0.0040134117,1.1386769e-05,-0.005624076351523399,-1.2149806e-05
2885.1833333424593,0.00016614891,-0.7853073,4.3930293e-05,-2.3555996,9.490952e-05,1.5709798,0.7860019,0.04,0.04,-9.824174,0.001638932852074504,0.002899745,2.0888796e-05,-0.006247648503631353,-2.194138e-05
2885.200000009126,0.0001655233,-0.7852364,4.6762147e-05,-2.3556588,9.628339e-05,1.570977,0.7860038,0.04,0.039999995,-9.822491,0.0019931718707084656,0.0019771736,2.620479e-05,-0.006793299224227667,-3.4573244e-05
2885.216666675793,0.00016461922,-0.7851704,5.0892966e-05,-2.355717,9.82613e-05,1.5709741,0.7860059,0.04,0.04,-9.820245,0.0023782772477716208,0.0010958468,3.688509e-05,-0.007242172956466675,-5.277971e-05
2885.23333334246,0.00016337083,-0.785109,5.6641646e-05,-2.3557742,0.00010100451,1.5709711,0.7860097,0.04,0.04,-9.818598,0.002771834610030055,0.00031608972,5.3262356e-05,-0.007619536016136408,-7.452805e-05
2885.250000009127,0.00016170772,-0.7850514,6.435076e-05,-2.3558261,0.00010467446,1.5709682,0.78601545,0.04,0.04,-9.817062,0.003250622656196356,-0.00053359405,6.972308e-05,-0.007919653318822384,-0.00010092881
2885.2666666757937,0.00015955554,-0.7849972,7.438326e-05,-2.3558774,0.000109443594,1.5709648,0.786022,0.04,0.04,-9.814857,0.003724867943674326,-0.0013156335,8.621135e-05,-0.008123833686113358,-0.00013226981
2885.2833333424605,0.00015683628,-0.78494596,8.712031e-05,-2.3559284,0.00011549311,1.5709581,0.7860302,0.04,0.04,-9.813106,0.004215524531900883,-0.0020393752,0.00010934313,-0.008248748257756233,-0.00016881111
2885.3000000091274,0.00015346915,-0.78489697,0.000102958846,-2.3559797,0.000123,1.5709515,0.78604066,0.04,0.04,-9.811453,0.004653677809983492,-0.0026693263,0.0001364681,-0.008309063501656055,-0.00021207568
2885.3166666757943,0.0001493702,-0.7848499,0.0001223092,-2.3560328,0.00013217058,1.5709447,0.7860538,0.039999995,0.04,-9.809719,0.005241686012595892,-0.0034787168,0.00016610554,-0.008287984877824783,-0.0002589737
2885.333333342461,0.00014445354,-0.7848044,0.00014559354,-2.35609,0.00014320132,1.570937,0.78606904,0.03999999,0.039999995,-9.808179,0.005759731400758028,-0.004271007,0.00019764953,-0.008193097077310085,-0.0003121782
2885.350000009128,0.00013863138,-0.78476,0.00017324385,-2.3561482,0.0001562925,1.5709265,0.7860873,0.039999988,0.039999995,-9.8068285,0.00628436217084527,-0.005054058,0.0002349359,-0.00803373008966446,-0.00037208252
2885.366666675795,0.00013181411,-0.78471607,0.00020570031,-2.3562078,0.00017165557,1.5709157,0.7861086,0.03999998,0.03999999,-9.805128,0.006717651151120663,-0.0058534006,0.0002755544,-0.007801774889230728,-0.00043798305
2885.383333342462,0.000123911,-0.7846725,0.0002434097,-2.3562737,0.00018950235,1.5709014,0.7861335,0.039999977,0.039999988,-9.803223,0.007340622134506702,-0.006808474,0.00032041437,-0.007485908921808004,-0.0005091124
2885.4000000091287,0.000114830094,-0.7846287,0.0002868242,-2.356342,0.00021004597,1.5708867,0.7861621,0.039999977,0.039999988,-9.802037,0.0078652985394001,-0.007714989,0.00036856273,-0.007119558285921812,-0.00058639527
2885.4166666757956,0.00010447884,-0.78458434,0.00033639994,-2.356416,0.00023350197,1.5708692,0.7861948,0.039999977,0.039999988,-9.800421,0.008253834210336208,-0.008779444,0.0004212767,-0.006671534851193428,-0.0006699156
2885.4333333424624,9.2764116e-05,-0.78453916,0.00039259603,-2.356497,0.00026008682,1.5708507,0.7862319,0.039999973,0.039999988,-9.798838,0.008870973251760006,-0.009900889,0.0004773869,-0.006161083001643419,-0.00076057314
2885.4500000091293,7.95924e-05,-0.7844926,0.00045587326,-2.356585,0.0002900188,1.5708287,0.7862735,0.039999966,0.03999998,-9.797506,0.009361878037452698,-0.011134536,0.00053770264,-0.005585166160017252,-0.0008566954
2885.466666675796,6.487006e-05,-0.7844446,0.00052669324,-2.3566802,0.00032351597,1.5708054,0.7863201,0.03999996,0.039999977,-9.79623,0.009831895120441914,-0.012453225,0.0006024985,-0.004955296404659748,-0.0009591636
2885.483333342463,4.850345e-05,-0.78439456,0.00060551753,-2.356783,0.00036079547,1.5707793,0.7863719,0.03999995,0.03999997,-9.794982,0.010121404193341732,-0.013940488,0.0006712592,-0.004255208652466536,-0.0010688687
2885.50000000913,3.0399076e-05,-0.7843423,0.00069280656,-2.3568938,0.00040207605,1.5707496,0.7864292,0.03999994,0.039999958,-9.793424,0.010716311633586884,-0.015516158,0.0007445879,-0.0034957360476255417,-0.001184096
2885.516666675797,1.0463969e-05,-0.7842877,0.0007890196,-2.3570127,0.00044757364,1.5707175,0.78649247,0.039999932,0.039999954,-9.792072,0.011116954497992992,-0.017228162,0.0008222969,-0.002678391057997942,-0.0013065778
2885.5333333424637,-1.1394525e-05,-0.78423023,0.00089461316,-2.35714,0.00049750454,1.5706825,0.78656185,0.03999993,0.03999995,-9.790606,0.011508413590490818,-0.019096984,0.00090394664,-0.001794346608221531,-0.0014345974
2885.5500000091306,-3.526839e-05,-0.7841697,0.0010100411,-2.3572762,0.0005520826,1.5706443,0.78663766,0.03999993,0.039999954,-9.789462,0.011665190570056438,-0.021148317,0.0009896606,-0.0008456583018414676,-0.0015698712
2885.5666666757975,-6.1248866e-05,-0.7841057,0.0011357539,-2.3574245,0.00061152084,1.5706023,0.78672034,0.03999993,0.039999954,-9.78775,0.01218954473733902,-0.023305656,0.0010801327,0.00016467642853967845,-0.0017106695
2885.5833333424644,-8.942648e-05,-0.78403807,0.0012721973,-2.3575835,0.0006760294,1.5705566,0.78681004,0.03999993,0.039999958,-9.786736,0.012476954609155655,-0.02565299,0.0011741713,0.0012215838069096208,-0.001858692
2885.6000000091312,-0.00011989076,-0.7839666,0.0014198127,-2.3577535,0.00074581755,1.5705072,0.7869071,0.039999932,0.03999996,-9.785444,0.012747427448630333,-0.028196298,0.001272512,0.0023349453695118427,-0.0020122982
2885.616666675798,-0.00015273018,-0.783891,0.001579038,-2.3579357,0.0008210914,1.5704538,0.78701174,0.039999932,0.039999966,-9.784521,0.012740788981318474,-0.03094982,0.0013752985,0.0035053256433457136,-0.0021729497
2885.633333342465,-0.00018803233,-0.78381115,0.0017503037,-2.3581316,0.00090205425,1.5703965,0.7871243,0.039999936,0.039999973,-9.782953,0.01315816305577755,-0.033860236,0.0014822579,0.004728660918772221,-0.002340007
2885.650000009132,-0.00022588346,-0.7837265,0.0019340359,-2.3583395,0.000988908,1.5703353,0.7872451,0.039999936,0.039999973,-9.78194,0.013314695097506046,-0.0370122,0.0015936039,0.005999558139592409,-0.0025125185
2885.6666666757988,-0.00026636865,-0.7836371,0.002130654,-2.3585615,0.0010818501,1.57027,0.7873743,0.039999932,0.039999973,-9.781077,0.013169834390282631,-0.04043038,0.0017087371,0.007326225284487009,-0.002692187
2885.6833333424656,-0.00030957183,-0.7835427,0.0023405724,-2.3587983,0.0011810758,1.5702002,0.78751224,0.03999993,0.039999973,-9.779554,0.013491151854395866,-0.043994706,0.0018287384,0.008702728897333145,-0.0028781388
2885.7000000091325,-0.0003555756,-0.783443,0.0025641974,-2.3590503,0.0012867782,1.5701259,0.7876593,0.039999925,0.03999997,-9.778539,0.013527585193514824,-0.047831807,0.0019530499,0.010125325992703438,-0.0030694874
2885.7166666757994,-0.0004044609,-0.7833376,0.0028019296,-2.3593173,0.0013991448,1.5700469,0.78781545,0.03999993,0.039999977,-9.777572,0.013503823429346085,-0.051918518,0.002081129,0.011591210961341858,-0.0032679485
2885.7333333424663,-0.00045630758,-0.7832265,0.0030541613,-2.3595994,0.0015183623,1.5699631,0.78798115,0.039999932,0.039999984,-9.776963,0.0131598562002182,-0.056308717,0.0022143384,0.013104492798447609,-0.0034726425
2885.750000009133,-0.0005111937,-0.78310955,0.003321279,-2.3598976,0.0016446126,1.5698742,0.7881567,0.039999936,0.039999988,-9.775384,0.013333939015865326,-0.060878504,0.0023518999,0.014665218070149422,-0.003682717
2885.7666666758,-0.0005691963,-0.78298676,0.0036036624,-2.3602128,0.0017780751,1.5697802,0.7883422,0.039999936,0.03999999,-9.774417,0.01317335944622755,-0.06574151,0.0024934986,0.01626836322247982,-0.0038998479
2885.783333342467,-0.00063039036,-0.78285795,0.0039016816,-2.3605447,0.0019189245,1.5696813,0.788538,0.039999932,0.03999999,-9.7734375,0.012959866784512997,-0.07086633,0.0026400592,0.017914151772856712,-0.004123196
2885.800000009134,-0.00069485,-0.782722,0.004215699,-2.3608935,0.0020673326,1.5695766,0.7887443,0.039999936,0.04,-9.772923,0.012392905540764332,-0.0763178,0.002790504,0.019606349989771843,-0.004352753
2885.8166666758007,-0.000762647,-0.7825799,0.004546073,-2.3612604,0.0022234716,1.5694671,0.78896123,0.039999943,0.04,-9.771458,0.012392442673444748,-0.08203684,0.0029456893,0.021335698664188385,-0.0045876703
2885.8333333424675,-0.00083385216,-0.7824308,0.00489315,-2.3616457,0.0023875234,1.5693517,0.78918916,0.039999943,0.04,-9.770496,0.012033277191221714,-0.088028915,0.003105954,0.02310877852141857,-0.0048272633
2885.8500000091344,-0.00090853474,-0.7822749,0.0052572726,-2.3620493,0.0025596418,1.5692308,0.7894285,0.039999947,0.04,-9.769659,0.011598607525229454,-0.09435527,0.0032702517,0.024916227906942368,-0.0050740126
2885.8666666758013,-0.0009867613,-0.78211176,0.0056387694,-2.3624723,0.002739964,1.569104,0.789679,0.039999947,0.04,-9.769265,0.01077806856483221,-0.10101336,0.0034386588,0.026764938607811928,-0.005328573
2885.883333342468,-0.0010685981,-0.7819416,0.0060379654,-2.3629146,0.0029286598,1.5689713,0.7899412,0.039999947,0.04,-9.767817,0.010577091947197914,-0.107920796,0.0036123358,0.02864828333258629,-0.005587824
2885.900000009135,-0.0011541089,-0.781764,0.0064551774,-2.3633764,0.0031258613,1.5688328,0.7902152,0.039999947,0.04,-9.766953,0.009967521764338017,-0.11517177,0.0037905239,0.03056761436164379,-0.0058548828
2885.916666675802,-0.001243356,-0.7815787,0.006890713,-2.3638587,0.003331722,1.5686879,0.79050124,0.03999995,0.04,-9.766692,0.008958953432738781,-0.122808464,0.0039735623,0.03252312168478966,-0.0061273947
2885.933333342469,-0.0013364005,-0.78138584,0.007344873,-2.3643613,0.0035464042,1.5685371,0.7907996,0.03999995,0.04,-9.765254,0.008590872399508953,-0.13069645,0.0041612913,0.03451018035411835,-0.0064046886
2885.9500000091357,-0.0014333011,-0.781185,0.007817946,-2.3648844,0.003770014,1.5683799,0.7911103,0.039999947,0.04,-9.764388,0.0077843740582466125,-0.13896471,0.0043532345,0.036531440913677216,-0.006690648
2885.9666666758026,-0.0015341153,-0.78097624,0.008310217,-2.3654294,0.0040026857,1.5682162,0.7914336,0.03999994,0.039999995,-9.763567,0.006933499127626419,-0.14758752,0.004550857,0.038583528250455856,-0.0069828974
2885.9833333424695,-0.0016388985,-0.7807594,0.0088219615,-2.365995,0.0042445427,1.5680463,0.7917697,0.039999932,0.039999995,-9.763473,0.005642712116241455,-0.15658383,0.0047528446,0.04066409543156624,-0.0072821835
2886.0000000091363,-0.0017477049,-0.78053445,0.009353446,-2.366582,0.0044957018,1.5678699,0.7921187,0.039999925,0.04,-9.76189,0.005015769973397255,-0.16588293,0.0049598836,0.042779162526130676,-0.007588559
2886.016666675803,-0.0018605867,-0.780301,0.009904927,-2.3671908,0.004756304,1.5676867,0.7924811,0.03999992,0.04,-9.7610445,0.003968825563788414,-0.1755441,0.005172041,0.04492407292127609,-0.007899726
2886.03333334247,-0.0019775946,-0.78005916,0.010476656,-2.3678222,0.005026466,1.5674967,0.7928566,0.03999992,0.04,-9.760256,0.0028414465487003326,-0.18559967,0.00538803,0.04709586501121521,-0.008217282
2886.050000009137,-0.0020987766,-0.7798088,0.011068873,-2.368476,0.005306314,1.5672997,0.79324543,0.039999917,0.04,-9.760156,0.001264883205294609,-0.1960448,0.0056104534,0.049294568598270416,-0.008540556
2886.066666675804,-0.0022241825,-0.77954984,0.011681814,-2.3691525,0.005595958,1.5670962,0.79364794,0.039999913,0.039999995,-9.758645,0.00037218816578388214,-0.20678842,0.005838313,0.05151909962296486,-0.008870349
2886.0833333424707,-0.0023538575,-0.77928215,0.012315703,-2.369853,0.0058954926,1.5668857,0.7940642,0.039999906,0.03999999,-9.757848,-0.0009798407554626465,-0.21796489,0.0060711442,0.053769417107105255,-0.009207462
2886.1000000091376,-0.002487843,-0.7790056,0.012970757,-2.3705766,0.0062050023,1.5666682,0.79449445,0.039999902,0.04,-9.757119,-0.002410801127552986,-0.22950788,0.0063090366,0.056041888892650604,-0.009552639
2886.1166666758045,-0.0026261832,-0.7787201,0.013647185,-2.3713233,0.0065246345,1.5664436,0.79493856,0.039999902,0.03999999,-9.757064,-0.004277680069208145,-0.24149549,0.0065520885,0.05833616480231285,-0.00990057
2886.1333333424714,-0.0027689177,-0.77842546,0.014345186,-2.3720937,0.006854462,1.5662117,0.7953969,0.03999991,0.04,-9.755437,-0.005473654717206955,-0.25378606,0.0068012527,0.06065685302019119,-0.010256817
2886.1500000091382,-0.0029160862,-0.7781218,0.015064954,-2.3728878,0.0071945693,1.5659727,0.7958696,0.03999991,0.04,-9.754618,-0.0071366578340530396,-0.2665198,0.007055794,0.06299807131290436,-0.010620627
2886.166666675805,-0.003067726,-0.777809,0.015806673,-2.3737066,0.007545051,1.5657263,0.7963566,0.039999902,0.039999995,-9.754491,-0.00926412083208561,-0.27967447,0.0073155533,0.06536222249269485,-0.01099042
2886.183333342472,-0.003223872,-0.777487,0.016570523,-2.3745496,0.00790598,1.5654727,0.7968581,0.039999895,0.03999999,-9.752975,-0.010692177340388298,-0.29315716,0.0075814677,0.06774302572011948,-0.011367758
2886.200000009139,-0.003384559,-0.7771556,0.017356666,-2.3754165,0.008277436,1.5652117,0.79737425,0.039999895,0.039999995,-9.752115,-0.01259329542517662,-0.30708736,0.007853321,0.07014399021863937,-0.011751964
2886.2166666758058,-0.003549819,-0.77681464,0.018165266,-2.3763087,0.008659503,1.5649431,0.79790515,0.039999895,0.039999995,-9.751137,-0.014575660228729248,-0.32141075,0.008130684,0.07256639003753662,-0.012142404
2886.2333333424726,-0.0037196826,-0.7764643,0.018996485,-2.3772259,0.00905225,1.5646671,0.7984509,0.039999895,0.04,-9.75114,-0.017052706331014633,-0.3362106,0.008413926,0.07500170171260834,-0.012540515
2886.2500000091395,-0.0038941796,-0.77610433,0.019850448,-2.3781679,0.00945574,1.5643835,0.7990115,0.039999887,0.039999995,-9.749434,-0.018812350928783417,-0.3513371,0.008703206,0.07745528966188431,-0.012945661
2886.2666666758064,-0.0040733377,-0.7757347,0.020727303,-2.3791356,0.009870039,1.5640923,0.7995873,0.039999887,0.04,-9.748518,-0.02106356993317604,-0.36690098,0.008998494,0.07992338389158249,-0.0133579355
2886.2833333424733,-0.0042571826,-0.7753556,0.02162719,-2.3801281,0.010295212,1.5637937,0.8001781,0.039999884,0.04,-9.747629,-0.02340639941394329,-0.38290963,0.009299749,0.08240407705307007,-0.013777246
2886.30000000914,-0.004445738,-0.77496666,0.022550216,-2.3811457,0.010731324,1.563487,0.8007842,0.03999988,0.039999995,-9.74735,-0.026234114542603493,-0.39935908,0.009607295,0.08490337431430817,-0.014202997
2886.316666675807,-0.0046390267,-0.774568,0.023496494,-2.3821895,0.011178408,1.5631727,0.8014055,0.039999872,0.039999995,-9.745525,-0.028369858860969543,-0.41615093,0.009920907,0.08741530030965805,-0.0146376435
2886.333333342474,-0.00483707,-0.77415955,0.024466129,-2.3832586,0.011636515,1.5628506,0.80204207,0.03999987,0.04,-9.744561,-0.0309867262840271,-0.4334057,0.010240743,0.08993709087371826,-0.015079401
2886.350000009141,-0.0050398894,-0.7737411,0.025459234,-2.3843536,0.012105693,1.5625209,0.8026941,0.03999986,0.04,-9.7434635,-0.03369937837123871,-0.45109397,0.010567601,0.09247151762247086,-0.015528558
2886.3666666758077,-0.0052475026,-0.77331275,0.026475886,-2.3854747,0.012585988,1.5621834,0.80336154,0.039999854,0.04,-9.743167,-0.03691574186086655,-0.4692647,0.010900608,0.095017209649086,-0.015985044
2886.3833333424745,-0.005459924,-0.7728746,0.027516168,-2.3866222,0.013077435,1.561838,0.8040446,0.03999985,0.04,-9.741249,-0.039428941905498505,-0.48777252,0.011240299,0.09757155925035477,-0.016448902
2886.4000000091414,-0.005677172,-0.77242655,0.028580159,-2.3877954,0.013580095,1.5614848,0.804743,0.039999843,0.039999995,-9.740105,-0.04243073612451553,-0.50674385,0.011585952,0.10013391077518463,-0.016918782
2886.4166666758083,-0.0058992556,-0.77196836,0.029667929,-2.3889952,0.014093984,1.5611235,0.80545735,0.03999984,0.039999995,-9.739673,-0.04594311863183975,-0.5261796,0.011939515,0.10270561277866364,-0.017396932
2886.433333342475,-0.0061261915,-0.7715002,0.030779542,-2.390221,0.014619131,1.5607544,0.8061869,0.03999983,0.039999995,-9.737624,-0.0487745925784111,-0.54599464,0.012298127,0.10528241097927094,-0.017883573
2886.450000009142,-0.006357989,-0.771022,0.031915043,-2.3914735,0.0151555445,1.5603775,0.80693215,0.039999824,0.04,-9.736275,-0.052099693566560745,-0.5662652,0.012665638,0.10786697268486023,-0.018378355
2886.466666675809,-0.0065946565,-0.7705337,0.033074494,-2.3927524,0.015703263,1.5599926,0.8076931,0.039999817,0.04,-9.734956,-0.05552617460489273,-0.58698,0.0130402325,0.11045604944229126,-0.01888022
2886.483333342476,-0.006836201,-0.77003545,0.034257933,-2.3940575,0.016262306,1.5595996,0.80847,0.0399998,0.03999999,-9.73435,-0.05944949761033058,-0.6081729,0.013421721,0.11305008828639984,-0.019389533
2886.5000000091427,-0.00708263,-0.76952684,0.035465375,-2.3953896,0.016832678,1.5591987,0.80926263,0.039999798,0.039999995,-9.731994,-0.06270745396614075,-0.6297045,0.01380931,0.1156499907374382,-0.019906625
2886.5166666758096,-0.0073339483,-0.7690082,0.03669685,-2.3967478,0.017414404,1.55879,0.8100711,0.039999787,0.03999999,-9.730554,-0.06646505743265152,-0.65174896,0.014204063,0.11824937909841537,-0.0204315
2886.5333333424765,-0.0075901616,-0.7684796,0.037952386,-2.3981328,0.018007489,1.5583731,0.8108953,0.03999978,0.03999999,-9.728912,-0.07034510374069214,-0.6742028,0.014605538,0.12085254490375519,-0.020964798
2886.5500000091433,-0.007851268,-0.7679407,0.039231993,-2.399544,0.018611915,1.557948,0.8117354,0.039999776,0.04,-9.728081,-0.0747005045413971,-0.6971207,0.0150146065,0.1234566941857338,-0.02150536
2886.56666667581,-0.008117268,-0.76739186,0.04053569,-2.4009817,0.019227725,1.557515,0.8125913,0.03999977,0.039999995,-9.725466,-0.07842427492141724,-0.72041726,0.015430542,0.1260622888803482,-0.022052823
2886.583333342477,-0.008388165,-0.76683265,0.041863445,-2.4024458,0.019854918,1.5570742,0.813463,0.039999764,0.039999995,-9.723623,-0.0826447457075119,-0.744182,0.015853666,0.12866966426372528,-0.022608269
2886.600000009144,-0.008663955,-0.76626337,0.043215275,-2.4039364,0.02049348,1.5566254,0.8143505,0.039999764,0.039999995,-9.721725,-0.08698564767837524,-0.76839304,0.016284376,0.13127607107162476,-0.023171648
2886.616666675811,-0.008944635,-0.7656842,0.044591147,-2.4054534,0.021143414,1.5561687,0.81525373,0.03999976,0.039999995,-9.720543,-0.09180869907140732,-0.79306877,0.01672241,0.1338825523853302,-0.023742322
2886.6333333424777,-0.009230203,-0.7650948,0.04599104,-2.4069972,0.021804702,1.5557039,0.8161727,0.039999757,0.03999999,-9.717649,-0.09603150188922882,-0.8180746,0.017167978,0.13648784160614014,-0.024321683
2886.6500000091446,-0.009520644,-0.7644953,0.047414936,-2.408568,0.022477336,1.5552312,0.8171074,0.039999753,0.03999999,-9.715511,-0.1007363423705101,-0.84357285,0.017621156,0.13908901810646057,-0.024908273
2886.6666666758115,-0.009815957,-0.7638859,0.0488628,-2.4101646,0.023161292,1.5547504,0.81805784,0.039999757,0.039999995,-9.714154,-0.1059194952249527,-0.86955285,0.018082064,0.14168469607830048,-0.025502736
2886.6833333424784,-0.010116136,-0.76326627,0.050334588,-2.411787,0.023856558,1.5542617,0.81902397,0.039999753,0.039999995,-9.710924,-0.11053404957056046,-0.89585465,0.018550366,0.14427810907363892,-0.026106084
2886.7000000091452,-0.010421161,-0.76263666,0.051830247,-2.413436,0.024563082,1.5537649,0.8200058,0.039999753,0.039999995,-9.708379,-0.11562218517065048,-0.92266095,0.019026604,0.14686940610408783,-0.026716392
2886.716666675812,-0.01073103,-0.761997,0.05334974,-2.4151113,0.02528087,1.5532604,0.82100314,0.039999753,0.039999995,-9.705889,-0.12084653973579407,-0.94986224,0.01951017,0.14945276081562042,-0.02733555
2886.733333342479,-0.011045725,-0.76134735,0.05489299,-2.4168127,0.026009902,1.5527482,0.8220162,0.039999746,0.03999999,-9.704032,-0.12653236091136932,-0.97754353,0.020001864,0.15203124284744263,-0.027961947
2886.750000009146,-0.011365234,-0.7606877,0.056459934,-2.41854,0.02675011,1.5522281,0.8230448,0.039999742,0.039999988,-9.700438,-0.13169151544570923,-1.0055664,0.020500649,0.15460355579853058,-0.028596958
2886.7666666758128,-0.011689543,-0.76001835,0.058050506,-2.4202936,0.027501466,1.5517001,0.8240889,0.039999735,0.03999999,-9.697525,-0.13732875883579254,-1.0340515,0.021007326,0.1571689248085022,-0.029241366
2886.7833333424796,-0.012018638,-0.759339,0.059664626,-2.4220731,0.028263925,1.5511643,0.8251484,0.039999727,0.039999995,-9.694522,-0.14310510456562042,-1.0629374,0.021521412,0.15972581505775452,-0.029894827
2886.8000000091465,-0.012352498,-0.75864947,0.061302222,-2.4238787,0.029037476,1.5506207,0.82622355,0.039999723,0.039999995,-9.692241,-0.14930202066898346,-1.0922846,0.022043537,0.16227246820926666,-0.030553238
2886.8166666758134,-0.012691105,-0.7579503,0.06296317,-2.4257097,0.029822042,1.5500692,0.82731384,0.039999712,0.039999995,-9.688193,-0.1550450176000595,-1.12201,0.022572238,0.16480803489685059,-0.031220974
2886.8333333424803,-0.013034436,-0.75724137,0.06464742,-2.4275663,0.03061761,1.5495101,0.8284193,0.0399997,0.039999988,-9.684752,-0.16122309863567352,-1.1521431,0.0231094,0.16733460128307343,-0.03189482
2886.850000009147,-0.013382474,-0.75652266,0.066354826,-2.429449,0.031424098,1.5489434,0.8295402,0.039999694,0.03999999,-9.681226,-0.1675734668970108,-1.1826952,0.023654865,0.16985107958316803,-0.032577846
2886.866666675814,-0.013735193,-0.75579417,0.06808531,-2.4313567,0.032241482,1.548369,0.83067596,0.039999686,0.039999988,-9.678435,-0.1743280589580536,-1.2136787,0.024206972,0.17235304415225983,-0.033266675
2886.883333342481,-0.014092572,-0.7550561,0.06983873,-2.4332902,0.03306971,1.5477871,0.83182687,0.039999686,0.03999999,-9.67374,-0.18067367374897003,-1.2450236,0.024767913,0.17484602332115173,-0.033963185
2886.900000009148,-0.014454589,-0.7543085,0.071615,-2.4352484,0.033908732,1.5471975,0.8329928,0.039999675,0.039999984,-9.669909,-0.18745362758636475,-1.2767787,0.025335968,0.1773216426372528,-0.03466715
2886.9166666758147,-0.014821213,-0.7535514,0.07341399,-2.437231,0.034758493,1.5466002,0.8341736,0.039999664,0.039999973,-9.666444,-0.19465211033821106,-1.3089526,0.02591171,0.17978842556476593,-0.035377707
2886.9333333424815,-0.015192422,-0.7527847,0.075235546,-2.4392395,0.03561893,1.5459954,0.83536917,0.039999645,0.039999947,-9.6613865,-0.20146387815475464,-1.3414694,0.026494868,0.18224108219146729,-0.036094088
2886.9500000091484,-0.015568184,-0.7520087,0.077079564,-2.4412725,0.036489956,1.5453835,0.8365796,0.039999634,0.03999993,-9.6570425,-0.2086939960718155,-1.3744148,0.02708619,0.1846751868724823,-0.036815528
2886.9666666758153,-0.015948478,-0.7512232,0.078945905,-2.4433293,0.037371513,1.544764,0.8378047,0.039999623,0.03999991,-9.652437,-0.21612748503684998,-1.4077405,0.027684042,0.1870957314968109,-0.03754888
2886.983333342482,-0.016333263,-0.75042856,0.08083441,-2.445411,0.038263526,1.5441372,0.83904415,0.039999627,0.039999917,-9.648338,-0.22391584515571594,-1.4414619,0.028289627,0.18950362503528595,-0.03828695
2887.000000009149,-0.016722512,-0.7496248,0.0827449,-2.4475172,0.039165918,1.5435032,0.8402982,0.039999615,0.039999913,-9.642683,-0.2314280867576599,-1.4755123,0.028903114,0.19189327955245972,-0.039036725
2887.016666675816,-0.017116196,-0.7488116,0.084677264,-2.4496477,0.040078666,1.5428618,0.84156656,0.03999961,0.03999991,-9.637593,-0.23928675055503845,-1.509951,0.02952334,0.19426554441452026,-0.03978965
2887.033333342483,-0.017514285,-0.7479894,0.086631335,-2.4518015,0.041001633,1.5422133,0.84284914,0.03999961,0.039999917,-9.632374,-0.24734552204608917,-1.5447934,0.030150928,0.19661633670330048,-0.040550828
2887.0500000091497,-0.017916732,-0.7471581,0.08860693,-2.453979,0.041934773,1.5415576,0.8441459,0.039999604,0.039999913,-9.627551,-0.25576895475387573,-1.579985,0.03078555,0.1989525407552719,-0.041317854
2887.0666666758166,-0.01832352,-0.74631757,0.09060388,-2.45618,0.042877994,1.5408944,0.8454566,0.039999597,0.03999991,-9.621134,-0.26394349336624146,-1.6155088,0.03142753,0.20126917958259583,-0.04209134
2887.0833333424835,-0.018734597,-0.7454686,0.09262203,-2.4584055,0.043831233,1.5402244,0.84678125,0.03999959,0.039999906,-9.615291,-0.2725001871585846,-1.6514192,0.032076534,0.203563392162323,-0.042871833
2887.1000000091503,-0.019149933,-0.7446104,0.09466118,-2.4606538,0.044794377,1.5395474,0.84811974,0.039999582,0.039999906,-9.609338,-0.28122350573539734,-1.687644,0.03273228,0.2058357447385788,-0.04365823
2887.116666675817,-0.01956949,-0.743744,0.09672117,-2.4629245,0.04576736,1.5388637,0.8494718,0.039999574,0.039999902,-9.603767,-0.2903076112270355,-1.724297,0.033394497,0.20808756351470947,-0.04444995
2887.133333342484,-0.019993223,-0.74286854,0.09880179,-2.4652178,0.04675007,1.538173,0.85083747,0.039999567,0.039999902,-9.596494,-0.2992016673088074,-1.7611715,0.034064088,0.21032202243804932,-0.045248225
2887.150000009151,-0.0204211,-0.7419847,0.100902855,-2.4675338,0.047742434,1.5374756,0.8522166,0.039999556,0.0399999,-9.589844,-0.30845358967781067,-1.7984616,0.03474004,0.21253231167793274,-0.046052158
2887.166666675818,-0.020853074,-0.741092,0.10302416,-2.4698722,0.048744354,1.5367713,0.85360897,0.039999552,0.039999902,-9.5836115,-0.318042516708374,-1.8360554,0.035422303,0.2147223800420761,-0.046861686
2887.1833333424847,-0.02128911,-0.74019116,0.105165504,-2.4722326,0.049755733,1.5360607,0.8550144,0.03999955,0.0399999,-9.575881,-0.3274765610694885,-1.8739885,0.036111314,0.2168857604265213,-0.04767481
2887.2000000091516,-0.02172916,-0.73928195,0.10732668,-2.4746149,0.05077647,1.5353432,0.85643274,0.03999954,0.0399999,-9.5685,-0.3372752070426941,-1.9122069,0.036806818,0.21902857720851898,-0.048494767
2887.2166666758185,-0.022173187,-0.73836434,0.109507464,-2.4770193,0.05180647,1.5346193,0.85786396,0.03999953,0.039999895,-9.56097,-0.34724918007850647,-1.9507416,0.037508987,0.2211451530456543,-0.049319543
2887.2333333424854,-0.022621138,-0.7374387,0.11170769,-2.4794445,0.05284563,1.5338887,0.8593082,0.039999522,0.03999989,-9.5539055,-0.3575246334075928,-1.9896325,0.038216952,0.22323520481586456,-0.05014825
2887.2500000091522,-0.023072964,-0.7365049,0.11392708,-2.4818902,0.05389384,1.533152,0.8607649,0.039999522,0.039999895,-9.54514,-0.3677422106266022,-2.0287488,0.038930085,0.22530131042003632,-0.050982084
2887.266666675819,-0.023528628,-0.7355633,0.11616545,-2.4843569,0.05495099,1.5324093,0.86223394,0.03999951,0.039999895,-9.536817,-0.37827253341674805,-2.0681973,0.039649144,0.22734536230564117,-0.051821556
2887.283333342486,-0.023988085,-0.7346137,0.11842254,-2.4868443,0.056017004,1.5316604,0.8637153,0.039999504,0.03999989,-9.528303,-0.38898199796676636,-2.1079173,0.040374756,0.22936511039733887,-0.052663345
2887.300000009153,-0.024451287,-0.7336564,0.12069812,-2.489353,0.05709174,1.5309047,0.8652091,0.039999492,0.03999989,-9.520185,-0.3999946713447571,-2.1479306,0.04110535,0.23135831952095032,-0.053510882
2887.3166666758198,-0.024918182,-0.7326915,0.12299198,-2.4918807,0.058175087,1.530143,0.8667148,0.03999949,0.039999895,-9.510715,-0.41097399592399597,-2.1881764,0.04183981,0.23331592977046967,-0.054360803
2887.3333333424866,-0.025388714,-0.7317191,0.12530385,-2.4944282,0.059266955,1.5293756,0.8682322,0.039999478,0.039999887,-9.5013,-0.42226123809814453,-2.2287183,0.04258003,0.2352529913187027,-0.05521369
2887.3500000091535,-0.025862854,-0.7307392,0.12763348,-2.4969964,0.060367208,1.528602,0.8697612,0.03999947,0.039999887,-9.491805,-0.4337490499019623,-2.2695255,0.043325778,0.23716212809085846,-0.0560707
2887.3666666758204,-0.02634053,-0.729752,0.12998067,-2.499583,0.061475717,1.5278227,0.87130195,0.039999463,0.039999887,-9.482779,-0.4454822242259979,-2.3105936,0.044076208,0.23903720080852509,-0.05693129
2887.3833333424873,-0.026821703,-0.7287575,0.13234513,-2.5021896,0.06259239,1.5270379,0.8728538,0.039999455,0.039999887,-9.472058,-0.4572855234146118,-2.3518758,0.04483045,0.24088719487190247,-0.057793695
2887.400000009154,-0.027306316,-0.72775596,0.1347266,-2.504814,0.0637171,1.5262474,0.8744169,0.039999448,0.039999887,-9.461866,-0.46934792399406433,-2.39343,0.045589726,0.24270451068878174,-0.058658514
2887.416666675821,-0.027794313,-0.7267474,0.13712487,-2.5074573,0.06484973,1.5254514,0.875991,0.039999437,0.039999884,-9.4517145,-0.48166030645370483,-2.4351923,0.046353295,0.24449820816516876,-0.059526138
2887.433333342488,-0.028285643,-0.72573173,0.13953969,-2.5101185,0.06599015,1.5246497,0.8775759,0.039999433,0.039999887,-9.440416,-0.49408239126205444,-2.4771898,0.047120884,0.24625855684280396,-0.0603952
2887.450000009155,-0.028780254,-0.7247094,0.14197072,-2.512798,0.06713823,1.5238427,0.8791715,0.039999425,0.039999884,-9.42928,-0.5067369341850281,-2.5193946,0.047892537,0.2479875683784485,-0.061265312
2887.4666666758217,-0.029278088,-0.72368044,0.14441772,-2.5154948,0.06829386,1.5230306,0.88077754,0.03999941,0.03999988,-9.417948,-0.5196078419685364,-2.5618021,0.048667282,0.24968382716178894,-0.0621381
2887.4833333424885,-0.029779097,-0.72264487,0.14688046,-2.5182085,0.06945688,1.5222131,0.88239384,0.039999403,0.03999988,-9.406736,-0.5326862931251526,-2.6044276,0.04944577,0.25135284662246704,-0.06301239
2887.5000000091554,-0.030283215,-0.72160274,0.14935859,-2.5209403,0.07062723,1.5213906,0.88402027,0.039999396,0.03999988,-9.394221,-0.5459344387054443,-2.6472123,0.050227668,0.2529902756214142,-0.063886605
2887.5166666758223,-0.030790389,-0.72055435,0.15185183,-2.523688,0.071804665,1.5205631,0.88565665,0.03999939,0.039999876,-9.38214,-0.5593869090080261,-2.69023,0.051012177,0.25459009408950806,-0.06476061
2887.533333342489,-0.031300556,-0.7194997,0.15435998,-2.5264525,0.07298912,1.5197306,0.8873029,0.039999377,0.03999988,-9.36952,-0.573070764541626,-2.7333858,0.051799566,0.25616106390953064,-0.065637335
2887.550000009156,-0.031813662,-0.71843886,0.1568828,-2.5292325,0.07418047,1.5188932,0.88895863,0.039999366,0.039999876,-9.357242,-0.5869215726852417,-2.776727,0.05258886,0.2576972544193268,-0.06651223
2887.566666675823,-0.032329656,-0.7173722,0.15941982,-2.5320287,0.07537853,1.5180513,0.8906238,0.039999366,0.039999884,-9.343587,-0.6010264158248901,-2.8202257,0.053381037,0.25920164585113525,-0.06738659
2887.58333334249,-0.032848466,-0.7162995,0.16197088,-2.5348403,0.07658324,1.5172045,0.8922981,0.039999355,0.03999988,-9.330207,-0.6153028011322021,-2.8638678,0.05417473,0.2606724798679352,-0.06826148
2887.6000000091567,-0.03337004,-0.7152211,0.16453572,-2.537667,0.07779441,1.5163532,0.8939815,0.03999935,0.03999988,-9.316561,-0.6297793388366699,-2.907672,0.05497056,0.26210641860961914,-0.06913359
2887.6166666758236,-0.033894323,-0.71413714,0.16711387,-2.5405083,0.07901191,1.5154977,0.8956737,0.039999332,0.039999876,-9.302958,-0.6444472670555115,-2.9516046,0.05576744,0.26350775361061096,-0.07000671
2887.6333333424905,-0.034421243,-0.7130476,0.16970523,-2.5433636,0.08023559,1.5146376,0.8973745,0.03999933,0.039999876,-9.288176,-0.6593665480613708,-2.995668,0.056565702,0.2648763656616211,-0.070876546
2887.6500000091573,-0.034950744,-0.7119526,0.17230941,-2.546233,0.08146533,1.5137732,0.8990837,0.03999931,0.039999872,-9.273538,-0.6744853854179382,-3.0398285,0.057364926,0.26621025800704956,-0.07174662
2887.666666675824,-0.035482764,-0.7108526,0.1749261,-2.549116,0.08270097,1.5129048,0.9008012,0.039999314,0.03999988,-9.259043,-0.6897182464599609,-3.0841243,0.058165133,0.2675083875656128,-0.072612636
2887.683333342491,-0.03601724,-0.7097475,0.17755497,-2.5520134,0.083942376,1.5120322,0.9025266,0.03999929,0.039999865,-9.243372,-0.7052947282791138,-3.1284938,0.058965556,0.26877349615097046,-0.07347658
2887.700000009158,-0.036554106,-0.7086374,0.18019576,-2.554924,0.08518941,1.5111556,0.90426,0.039999276,0.039999843,-9.228018,-0.7209779024124146,-3.1729772,0.059765603,0.26999631524086,-0.07433399
2887.716666675825,-0.037093308,-0.7075224,0.18284814,-2.5578473,0.086441904,1.5102752,0.90600085,0.039999265,0.039999828,-9.212158,-0.7369109392166138,-3.2175488,0.06056554,0.27118366956710815,-0.07518881
2887.7333333424917,-0.03763478,-0.7064025,0.1855118,-2.5607822,0.08769971,1.509391,0.9077492,0.039999247,0.03999981,-9.196342,-0.7529561519622803,-3.2622225,0.061365597,0.27233561873435974,-0.07604238
2887.7500000091586,-0.03817844,-0.7052782,0.18818645,-2.5637298,0.08896267,1.5085031,0.9095048,0.039999243,0.039999817,-9.179444,-0.7693926095962524,-3.3069236,0.062164977,0.2734525203704834,-0.07689351
2887.7666666758255,-0.038724247,-0.7041495,0.19087175,-2.5666885,0.09023067,1.5076118,0.9112673,0.039999224,0.03999981,-9.1627445,-0.7859236001968384,-3.3516788,0.062962845,0.2745305001735687,-0.077740096
2887.7833333424924,-0.039272115,-0.70301646,0.19356738,-2.5696592,0.09150353,1.506717,0.9130365,0.039999213,0.039999805,-9.145587,-0.8026666045188904,-3.396504,0.063759886,0.275574654340744,-0.07858252
2887.8000000091592,-0.03982199,-0.70187926,0.196273,-2.5726407,0.0927811,1.505819,0.91481227,0.039999202,0.039999805,-9.128588,-0.819480299949646,-3.4413683,0.064555526,0.27657875418663025,-0.07941977
2887.816666675826,-0.040373817,-0.70073795,0.19898833,-2.5756335,0.094063245,1.5049179,0.9165945,0.03999919,0.0399998,-9.110515,-0.8367393016815186,-3.4862506,0.0653497,0.27754703164100647,-0.08025127
2887.833333342493,-0.0409275,-0.6995927,0.20171304,-2.5786352,0.09534978,1.5040137,0.91838294,0.03999918,0.039999805,-9.092624,-0.8540871143341064,-3.5311837,0.06614099,0.2784731686115265,-0.081078276
2887.85000000916,-0.041483004,-0.6984438,0.20444676,-2.5816498,0.09664057,1.5031062,0.9201772,0.039999176,0.039999805,-9.074055,-0.871627151966095,-3.5760975,0.06693015,0.2793698012828827,-0.0818978
2887.8666666758268,-0.042040244,-0.6972912,0.20718919,-2.5846725,0.097935446,1.5021957,0.9219772,0.03999916,0.0399998,-9.056065,-0.8892125487327576,-3.6210608,0.06771587,0.28021347522735596,-0.082711965
2887.8833333424936,-0.042599175,-0.696135,0.20994,-2.5877032,0.099234276,1.5012829,0.9237827,0.039999153,0.0399998,-9.036615,-0.9072983860969543,-3.665981,0.068499275,0.28102612495422363,-0.08351859
2887.9000000091605,-0.043159716,-0.6949757,0.21269886,-2.5907419,0.100536875,1.5003673,0.9255936,0.039999142,0.039999805,-9.017207,-0.9254561066627502,-3.7109156,0.06927941,0.2818058431148529,-0.084320605
2887.9166666758274,-0.04372177,-0.6938132,0.21546546,-2.5937893,0.10184318,1.499449,0.92740947,0.03999913,0.039999805,-8.997728,-0.9436293244361877,-3.755793,0.07005583,0.2825518250465393,-0.08511496
2887.9333333424943,-0.0442853,-0.69264734,0.21823941,-2.5968468,0.10315292,1.4985282,0.9292302,0.039999127,0.03999981,-8.977644,-0.9623149037361145,-3.8006341,0.070828535,0.28325650095939636,-0.08590166
2887.950000009161,-0.044850226,-0.6914787,0.22102045,-2.5999134,0.104465984,1.4976053,0.9310555,0.03999911,0.03999981,-8.957665,-0.9810291528701782,-3.8454936,0.07159644,0.2839132845401764,-0.086680986
2887.966666675828,-0.04541649,-0.6903075,0.2238082,-2.6029859,0.10578221,1.4966799,0.93288535,0.039999105,0.03999981,-8.937269,-0.9999199509620667,-3.8903,0.07235992,0.2845277190208435,-0.08744804
2887.983333342495,-0.04598402,-0.6891334,0.22660226,-2.6060636,0.10710143,1.4957523,0.9347192,0.039999083,0.039999805,-8.916462,-1.0188630819320679,-3.9350142,0.073117845,0.2851071357727051,-0.088210024
2888.000000009162,-0.04655274,-0.68795687,0.22940235,-2.609148,0.10842345,1.4948229,0.9365572,0.039999083,0.03999981,-8.894881,-1.038337230682373,-3.979666,0.073872186,0.28565558791160583,-0.08896192
2888.0166666758287,-0.04712259,-0.686778,0.23220818,-2.6122391,0.10974817,1.4938915,0.93839884,0.039999068,0.03999981,-8.873439,-1.0578272342681885,-4.024253,0.074620344,0.28616541624069214,-0.08970618
2888.0333333424956,-0.047693495,-0.68559694,0.2350193,-2.6153364,0.111075416,1.4929583,0.94024414,0.039999053,0.039999805,-8.851756,-1.0774750709533691,-4.0687485,0.075362824,0.28663337230682373,-0.0904394
2888.0500000091624,-0.048265398,-0.6844137,0.23783542,-2.6184404,0.112404995,1.4920235,0.94209254,0.03999905,0.039999805,-8.829839,-1.097100853919983,-4.1131716,0.07609816,0.28706175088882446,-0.09116149
2888.0666666758293,-0.04883821,-0.68322855,0.2406562,-2.6215484,0.11373678,1.4910872,0.9439441,0.039999034,0.03999981,-8.807525,-1.117334246635437,-4.157493,0.07682741,0.28744304180145264,-0.09187575
2888.083333342496,-0.049411874,-0.68204165,0.2434813,-2.624661,0.115070574,1.4901496,0.94579846,0.039999016,0.039999805,-8.784689,-1.1375371217727661,-4.2016973,0.077550106,0.28779172897338867,-0.09257891
2888.100000009163,-0.04998631,-0.68085325,0.24631037,-2.6277797,0.11640624,1.4892105,0.9476554,0.039999004,0.039999805,-8.761678,-1.1579148769378662,-4.245784,0.07826577,0.2881028950214386,-0.09327056
2888.11666667583,-0.050561447,-0.67966324,0.24914302,-2.6309004,0.117743604,1.4882702,0.9495148,0.03999899,0.039999805,-8.738772,-1.1782270669937134,-4.289774,0.07897356,0.28836458921432495,-0.09394986
2888.133333342497,-0.051137228,-0.67847174,0.25197896,-2.6340263,0.1190825,1.4873288,0.9513763,0.039998986,0.039999805,-8.7148285,-1.1991767883300781,-4.3335786,0.07967388,0.2885974049568176,-0.09461774
2888.1500000091637,-0.051713575,-0.6772793,0.25481787,-2.6371536,0.12042279,1.4863864,0.9532398,0.039998963,0.0399998,-8.691235,-1.220065712928772,-4.3773017,0.08036589,0.28878089785575867,-0.095274694
2888.1666666758306,-0.052290414,-0.6760857,0.2576593,-2.640286,0.12176422,1.4854431,0.9551051,0.03999896,0.039999813,-8.666896,-1.2408981323242188,-4.4208302,0.08105011,0.28893548250198364,-0.095919736
2888.1833333424975,-0.05286768,-0.67489105,0.26050296,-2.6434195,0.12310671,1.4844992,0.9569717,0.039998952,0.039999813,-8.642731,-1.262311577796936,-4.464222,0.081723854,0.28903862833976746,-0.09654903
2888.2000000091643,-0.05344529,-0.6736958,0.26334846,-2.646554,0.124450065,1.4835546,0.95883954,0.039998934,0.03999981,-8.61784,-1.2837262153625488,-4.5074463,0.08239032,0.28910940885543823,-0.0971686
2888.216666675831,-0.054023188,-0.6724998,0.2661956,-2.649691,0.12579413,1.4826096,0.9607084,0.03999892,0.03999981,-8.592733,-1.3052555322647095,-4.550465,0.083047844,0.28914517164230347,-0.09777488
2888.233333342498,-0.0546013,-0.6713036,0.26904377,-2.6528306,0.12713875,1.4816642,0.962578,0.039998904,0.039999805,-8.567572,-1.326691746711731,-4.5933647,0.08369589,0.2891390919685364,-0.09836595
2888.250000009165,-0.05517955,-0.670107,0.2718929,-2.6559706,0.12848374,1.4807186,0.9644483,0.03999889,0.039999805,-8.54221,-1.3487544059753418,-4.6360216,0.084332645,0.2890872061252594,-0.098943695
2888.266666675832,-0.055757873,-0.66891015,0.27474245,-2.6591105,0.129829,1.4797728,0.9663187,0.03999887,0.039999805,-8.516336,-1.3707689046859741,-4.6785007,0.0849596,0.2889998257160187,-0.099508524
2888.2833333424987,-0.056336198,-0.6677133,0.2775922,-2.66225,0.13117428,1.478827,0.9681894,0.039998863,0.0399998,-8.490223,-1.3928743600845337,-4.7207823,0.085576996,0.28887471556663513,-0.10005566
2888.3000000091656,-0.05691444,-0.66651666,0.28044167,-2.6653895,0.13251947,1.4778813,0.97005993,0.039998848,0.039999805,-8.463749,-1.4149118661880493,-4.762851,0.08618298,0.2887153923511505,-0.10059181
2888.3166666758325,-0.057492547,-0.66532016,0.2832906,-2.6685288,0.13386431,1.4769357,0.9719302,0.03999883,0.03999981,-8.437278,-1.43758225440979,-4.8046675,0.08677771,0.2885146737098694,-0.10111414
2888.3333333424994,-0.058070436,-0.66412425,0.28613847,-2.671667,0.13520871,1.4759903,0.97379977,0.039998814,0.0399998,-8.410508,-1.4600950479507446,-4.846286,0.08736054,0.28827279806137085,-0.101616606
2888.3500000091663,-0.05864804,-0.6629287,0.28898516,-2.674804,0.13655251,1.4750451,0.9756685,0.039998807,0.039999817,-8.383425,-1.4827773571014404,-4.8876605,0.087931976,0.2879919707775116,-0.10210692
2888.366666675833,-0.059225276,-0.6617341,0.2918303,-2.67794,0.13789557,1.4741007,0.9775362,0.039998792,0.039999813,-8.356016,-1.5052931308746338,-4.9288287,0.08849169,0.2876715660095215,-0.102578625
2888.3833333425,-0.059802096,-0.6605403,0.29467335,-2.6810722,0.13923769,1.4731568,0.9794027,0.03999878,0.039999805,-8.328651,-1.5284831523895264,-4.969705,0.08903836,0.28731125593185425,-0.10303275
2888.400000009167,-0.060378406,-0.6593474,0.29751405,-2.684202,0.14057869,1.4722137,0.9812675,0.039998762,0.039999805,-8.300681,-1.5515397787094116,-5.010331,0.08957285,0.28691768646240234,-0.10347456
2888.4166666758338,-0.06095416,-0.6581558,0.30035213,-2.6873298,0.14191838,1.4712713,0.9831306,0.039998736,0.039999805,-8.272527,-1.574425458908081,-5.0507283,0.09009553,0.28648632764816284,-0.10390079
2888.4333333425006,-0.061529286,-0.6569653,0.30318716,-2.6904535,0.1432566,1.47033,0.98499167,0.03999873,0.03999981,-8.244532,-1.5979492664337158,-5.090826,0.09060457,0.2860121726989746,-0.10430645
2888.4500000091675,-0.06210369,-0.6557764,0.30601874,-2.6935735,0.14459328,1.46939,0.98685074,0.039998714,0.039999805,-8.2160015,-1.6213173866271973,-5.1306815,0.09110049,0.2855030596256256,-0.10469498
2888.4666666758344,-0.06267731,-0.65458924,0.30884674,-2.6966898,0.14592819,1.4684511,0.9887073,0.039998695,0.03999981,-8.187287,-1.6448030471801758,-5.1702347,0.09158222,0.2849581837654114,-0.1050695
2888.4833333425013,-0.06325008,-0.65340364,0.31167054,-2.6998012,0.14726113,1.4675138,0.9905614,0.03999868,0.03999981,-8.158281,-1.6680810451507568,-5.2095137,0.09204994,0.2843742072582245,-0.10542357
2888.500000009168,-0.06382196,-0.65222,0.31449002,-2.7029076,0.14859198,1.4665778,0.9924126,0.03999867,0.039999813,-8.1293125,-1.692037582397461,-5.2484922,0.09250255,0.2837558686733246,-0.10576175
2888.516666675835,-0.06439284,-0.65103835,0.3173048,-2.70601,0.14992061,1.4656433,0.99426055,0.039998654,0.039999817,-8.100009,-1.7157999277114868,-5.287157,0.092941485,0.283100962638855,-0.10608152
2888.533333342502,-0.06496266,-0.6498589,0.32011446,-2.7091057,0.1512468,1.4647105,0.9961052,0.039998643,0.039999817,-8.070715,-1.7396248579025269,-5.3255663,0.093365304,0.28240272402763367,-0.10638006
2888.550000009169,-0.06553134,-0.64868176,0.32291865,-2.712195,0.1525704,1.4637794,0.99794626,0.039998624,0.039999817,-8.040659,-1.7632834911346436,-5.3636465,0.093775205,0.2816738784313202,-0.10666331
2888.5666666758357,-0.06609883,-0.64750713,0.3257171,-2.7152805,0.15389124,1.4628503,0.9997835,0.039998606,0.03999982,-8.010981,-1.7875769138336182,-5.401378,0.09417029,0.2809114158153534,-0.10692837
2888.5833333425026,-0.066665076,-0.6463351,0.32850933,-2.7183583,0.15520917,1.4619234,1.001617,0.03999859,0.039999824,-7.9813366,-1.8116044998168945,-5.438862,0.09454803,0.28009945154190063,-0.10717106
2888.6000000091694,-0.067229986,-0.6451658,0.33129513,-2.7214284,0.15652405,1.4609984,1.0034459,0.039998576,0.039999824,-7.950977,-1.8357622623443604,-5.475979,0.094910495,0.2792588472366333,-0.10739649
2888.6166666758363,-0.067793496,-0.64399934,0.3340741,-2.724491,0.15783566,1.460076,1.0052706,0.039998557,0.039999824,-7.920325,-1.8596664667129517,-5.5127945,0.09525798,0.2783829867839813,-0.10760253
2888.633333342503,-0.06835552,-0.642836,0.33684596,-2.7275453,0.15914395,1.4591556,1.0070906,0.03999854,0.03999982,-7.890068,-1.8842238187789917,-5.5492435,0.0955887,0.27747470140457153,-0.10778888
2888.65000000917,-0.06891603,-0.64167565,0.3396104,-2.7305908,0.1604487,1.4582376,1.0089055,0.039998524,0.03999982,-7.8593965,-1.9085376262664795,-5.5853486,0.09590387,0.27653130888938904,-0.10795568
2888.666666675837,-0.06947493,-0.64051867,0.342367,-2.7336285,0.16174978,1.4573224,1.0107156,0.039998505,0.03999982,-7.828243,-1.9326200485229492,-5.621155,0.0962031,0.2755555510520935,-0.10810458
2888.683333342504,-0.07003216,-0.63936514,0.34511545,-2.736658,0.16304699,1.4564098,1.0125202,0.039998494,0.039999828,-7.7977023,-1.9573134183883667,-5.6565747,0.09648465,0.2745426595211029,-0.108232535
2888.7000000091707,-0.07058765,-0.63821524,0.34785542,-2.7396789,0.16434014,1.4555,1.0143193,0.03999847,0.039999828,-7.7667584,-1.9817441701889038,-5.6916866,0.096749775,0.2734924256801605,-0.108340375
2888.7166666758376,-0.071141325,-0.6370691,0.3505866,-2.742687,0.16562918,1.4545932,1.0161126,0.03999846,0.039999824,-7.73564,-2.006197690963745,-5.7264347,0.09699679,0.27240607142448425,-0.10842536
2888.7333333425045,-0.07169311,-0.6359269,0.35330856,-2.7456853,0.16691393,1.4536893,1.0179,0.03999844,0.039999828,-7.7036567,-2.030470609664917,-5.760796,0.09722882,0.2712993621826172,-0.10849573
2888.7500000091713,-0.07224299,-0.63478863,0.35602108,-2.7486746,0.16819419,1.4527888,1.0196811,0.039998423,0.03999983,-7.6726384,-2.05527925491333,-5.7947907,0.097442314,0.2701588273048401,-0.10854462
2888.766666675838,-0.07279087,-0.6336546,0.35872388,-2.751653,0.16946973,1.4518915,1.0214559,0.03999841,0.03999984,-7.641305,-2.079819917678833,-5.8284736,0.097638264,0.268980473279953,-0.10857324
2888.783333342505,-0.07333667,-0.6325247,0.3614165,-2.7546196,0.17074056,1.4509974,1.0232241,0.03999839,0.039999835,-7.609715,-2.104361057281494,-5.8617587,0.09781573,0.26777052879333496,-0.10857884
2888.800000009172,-0.07388034,-0.6313992,0.36409873,-2.7575772,0.17200644,1.4501066,1.0249852,0.03999837,0.03999984,-7.5775714,-2.128655433654785,-5.894692,0.09797635,0.2665298879146576,-0.10856619
2888.816666675839,-0.074421816,-0.63027835,0.3667702,-2.7605205,0.17326723,1.4492197,1.0267395,0.03999835,0.039999835,-7.5465045,-2.153491735458374,-5.9272704,0.09811832,0.265247106552124,-0.108529426
2888.8333333425057,-0.074961044,-0.62916213,0.36943066,-2.7634528,0.1745228,1.4483362,1.0284867,0.03999834,0.039999843,-7.5143557,-2.1780974864959717,-5.959416,0.09824229,0.263945072889328,-0.10847431
2888.8500000091726,-0.07549792,-0.6280507,0.37207967,-2.766372,0.17577296,1.4474566,1.0302263,0.039998315,0.039999843,-7.482607,-2.2026655673980713,-5.9912324,0.09834669,0.26260650157928467,-0.10839875
2888.8666666758395,-0.07603242,-0.6269441,0.37471712,-2.769278,0.1770176,1.4465808,1.0319582,0.039998293,0.039999843,-7.4501705,-2.2269272804260254,-6.022674,0.09843371,0.26123932003974915,-0.108302
2888.8833333425064,-0.076564506,-0.6258425,0.37734252,-2.7721715,0.17825656,1.4457091,1.0336822,0.039998274,0.039999843,-7.418577,-2.251770257949829,-6.0536995,0.09850353,0.2598426043987274,-0.108183496
2888.9000000091733,-0.07709407,-0.6247464,0.3799556,-2.7750514,0.17948972,1.4448414,1.035398,0.039998263,0.039999843,-7.386587,-2.276265859603882,-6.084383,0.098553576,0.2584143579006195,-0.10804228
2888.91666667584,-0.07762104,-0.6236553,0.38255605,-2.7779167,0.18071695,1.4439777,1.0371057,0.039998237,0.039999843,-7.35402,-2.3004822731018066,-6.1146617,0.09858553,0.2569577991962433,-0.107883215
2888.933333342507,-0.0781454,-0.6225697,0.38514355,-2.7807677,0.18193802,1.4431185,1.0388051,0.039998226,0.039999846,-7.322294,-2.325241804122925,-6.1445403,0.09859937,0.25547340512275696,-0.10770188
2888.950000009174,-0.0786671,-0.6214897,0.38771787,-2.7836044,0.18315288,1.4422635,1.0404958,0.039998207,0.03999985,-7.2901835,-2.349665880203247,-6.1740513,0.09859211,0.25396034121513367,-0.10750037
2888.9666666758408,-0.079186015,-0.62041545,0.3902787,-2.7864263,0.18436134,1.441413,1.0421772,0.03999818,0.039999846,-7.2580295,-2.3740482330322266,-6.2031684,0.09856725,0.2524191439151764,-0.10727794
2888.9833333425076,-0.07970213,-0.619347,0.3928257,-2.7892332,0.1855633,1.4405671,1.0438497,0.039998166,0.03999985,-7.2254114,-2.398087739944458,-6.2319207,0.098524496,0.25084954500198364,-0.1070332
2889.0000000091745,-0.08021534,-0.6182846,0.39535865,-2.7920246,0.18675858,1.439726,1.0455134,0.03999815,0.039999854,-7.1937714,-2.4226603507995605,-6.2602572,0.098461986,0.24925139546394348,-0.10676821
2889.0166666758414,-0.08072567,-0.6172281,0.39787722,-2.7947998,0.18794699,1.4388896,1.0471674,0.039998136,0.039999858,-7.161624,-2.4468905925750732,-6.288209,0.09837828,0.24762725830078125,-0.106481396
2889.0333333425083,-0.081232995,-0.6161778,0.40038106,-2.7975595,0.1891286,1.4380581,1.0488118,0.03999811,0.039999854,-7.129433,-2.471069097518921,-6.3157697,0.09827709,0.24597787857055664,-0.10617467
2889.050000009175,-0.08173727,-0.61513394,0.40287003,-2.8003025,0.19030309,1.4372317,1.0504463,0.0399981,0.03999986,-7.096889,-2.494873523712158,-6.342978,0.09815591,0.24429966509342194,-0.10584658
2889.066666675842,-0.08223845,-0.61409634,0.4053437,-2.8030293,0.1914704,1.4364104,1.052071,0.039998073,0.039999858,-7.0652986,-2.5191941261291504,-6.3697333,0.098016396,0.2425973266363144,-0.10549801
2889.083333342509,-0.08273648,-0.6130655,0.40780187,-2.8057384,0.19263029,1.4355938,1.0536853,0.03999804,0.039999865,-7.0333333,-2.5431559085845947,-6.396154,0.09785616,0.24086681008338928,-0.10513174
2889.100000009176,-0.083231285,-0.61204123,0.41024423,-2.8084297,0.19378279,1.4347827,1.0552895,0.039998017,0.03999987,-7.0012918,-2.567013740539551,-6.4221315,0.097677745,0.23911193013191223,-0.10474209
2889.1166666758427,-0.08372283,-0.61102366,0.41267055,-2.8111036,0.1949277,1.4339768,1.0568829,0.039997984,0.039999865,-6.9687023,-2.5905416011810303,-6.447758,0.09747939,0.2373366504907608,-0.10433366
2889.1333333425096,-0.08421107,-0.6100129,0.4150805,-2.81376,0.19606489,1.4331764,1.0584655,0.039997958,0.039999876,-6.9373884,-2.614522933959961,-6.472965,0.09726323,0.2355361431837082,-0.10390573
2889.1500000091764,-0.08469593,-0.60900915,0.41747394,-2.8163984,0.19719426,1.4323816,1.0600379,0.03999793,0.039999872,-6.9056826,-2.6380767822265625,-6.497841,0.09702768,0.2337084263563156,-0.1034534
2889.1666666758433,-0.085177355,-0.6080125,0.41985053,-2.819018,0.19831568,1.4315923,1.0615989,0.039997898,0.039999884,-6.8733325,-2.6613569259643555,-6.522291,0.09676976,0.23185841739177704,-0.10298574
2889.18333334251,-0.085655324,-0.6070232,0.42220998,-2.8216183,0.19942902,1.4308087,1.0631485,0.039997872,0.03999988,-6.8422294,-2.6849896907806396,-6.5463486,0.09649385,0.2299865037202835,-0.102492765
2889.200000009177,-0.08612973,-0.6060411,0.42455208,-2.8242,0.20053415,1.4300307,1.0646865,0.03999783,0.039999887,-6.8106217,-2.708308696746826,-6.5700107,0.09620001,0.22809359431266785,-0.101986006
2889.216666675844,-0.0866006,-0.6050664,0.4268766,-2.8267617,0.20163095,1.4292586,1.066213,0.039997794,0.039999887,-6.7791843,-2.7314553260803223,-6.593317,0.09588773,0.2261773645877838,-0.10145495
2889.233333342511,-0.087067835,-0.6040992,0.42918313,-2.8293045,0.20271933,1.4284925,1.0677278,0.039997756,0.039999884,-6.7471604,-2.7542619705200195,-6.616232,0.09555662,0.22424088418483734,-0.10090503
2889.2500000091777,-0.0875314,-0.6031397,0.43147153,-2.8318264,0.20379919,1.4277323,1.0692309,0.039997708,0.039999876,-6.716553,-2.7774250507354736,-6.6387687,0.0952065,0.2222818285226822,-0.10033517
2889.2666666758446,-0.087991245,-0.60218793,0.43374163,-2.8343287,0.20487036,1.4269783,1.0707226,0.039997663,0.03999986,-6.685333,-2.799976348876953,-6.660937,0.09483672,0.2203104943037033,-0.09970787
2889.2833333425115,-0.08844732,-0.6012439,0.4359932,-2.8368106,0.20593277,1.4262304,1.072202,0.03999762,0.039999835,-6.6543074,-2.822999954223633,-6.6826706,0.09444491,0.21831242740154266,-0.09911295
2889.3000000091783,-0.088899575,-0.60030776,0.43822595,-2.839272,0.20698632,1.4254887,1.0736684,0.03999757,0.039999817,-6.622792,-2.8452816009521484,-6.704069,0.09403502,0.2162935435771942,-0.09849736
2889.316666675845,-0.089347966,-0.59937966,0.44043964,-2.841712,0.20803083,1.4247537,1.0751225,0.03999753,0.039999794,-6.592718,-2.867871046066284,-6.7251067,0.09360967,0.2142552137374878,-0.09785492
2889.333333342512,-0.089792445,-0.59845966,0.44263414,-2.8441308,0.20906624,1.4240248,1.0765641,0.039997503,0.039999787,-6.5620337,-2.890075922012329,-6.745763,0.09316467,0.21220314502716064,-0.09718642
2889.350000009179,-0.090232976,-0.5975478,0.4448091,-2.846528,0.21009248,1.4233023,1.0779926,0.039997477,0.039999787,-6.531555,-2.9121928215026855,-6.766032,0.092701085,0.21013322472572327,-0.096500374
2889.366666675846,-0.09066951,-0.5966444,0.4469644,-2.8489037,0.21110934,1.4225858,1.0794088,0.039997447,0.03999979,-6.500598,-2.9339144229888916,-6.7859383,0.09222079,0.20804363489151,-0.0957977
2889.3833333425127,-0.09110202,-0.59574926,0.4490998,-2.8512578,0.21211685,1.4218767,1.0808115,0.03999744,0.039999787,-6.4711385,-2.9558897018432617,-6.8054714,0.091718994,0.20593690872192383,-0.09506998
2889.4000000091796,-0.09153045,-0.59486264,0.45121506,-2.8535898,0.2131149,1.4211738,1.082201,0.039997414,0.039999787,-6.4411774,-2.9775588512420654,-6.824687,0.09120162,0.20381420850753784,-0.09432894
2889.4166666758465,-0.09195477,-0.5939845,0.45330998,-2.8558989,0.2141033,1.4204782,1.0835773,0.039997384,0.039999783,-6.4106984,-2.9987926483154297,-6.843494,0.09066571,0.20167431235313416,-0.09357003
2889.4333333425134,-0.092374906,-0.59311473,0.45538446,-2.8581853,0.21508202,1.4197888,1.0849398,0.03999738,0.039999798,-6.3817105,-3.020324468612671,-6.861978,0.0901129,0.19952307641506195,-0.092793815
2889.4500000091803,-0.09279086,-0.592254,0.45743826,-2.8604498,0.21605095,1.4191068,1.0862892,0.039997358,0.039999805,-6.352296,-3.04146671295166,-6.8800774,0.089543775,0.1973533183336258,-0.092000715
2889.466666675847,-0.09320256,-0.591402,0.4594711,-2.862691,0.21701008,1.418431,1.0876248,0.03999733,0.039999805,-6.323127,-3.062406063079834,-6.897856,0.088955,0.19516916573047638,-0.091189586
2889.483333342514,-0.09360999,-0.5905587,0.46148288,-2.8649087,0.21795924,1.4177625,1.0889463,0.039997313,0.039999805,-6.293377,-3.082958936691284,-6.915245,0.08834907,0.1929691731929779,-0.09036074
2889.500000009181,-0.094013095,-0.58972484,0.46347344,-2.8671029,0.21889831,1.4171014,1.0902541,0.039997302,0.039999817,-6.265202,-3.1037795543670654,-6.932325,0.08772812,0.1907580941915512,-0.08951623
2889.516666675848,-0.09441188,-0.58889955,0.4654426,-2.869273,0.21982731,1.4164472,1.0915477,0.039997276,0.039999817,-6.236565,-3.12418794631958,-6.949047,0.08708964,0.18853789567947388,-0.08865672
2889.5333333425147,-0.094806306,-0.58808357,0.46739018,-2.8714197,0.22074609,1.4158,1.0928272,0.03999725,0.03999981,-6.2081385,-3.144407033920288,-6.965425,0.08643541,0.18630465865135193,-0.087779686
2889.5500000091815,-0.0951963,-0.58727646,0.4693159,-2.873542,0.22165456,1.4151604,1.0940922,0.03999724,0.039999817,-6.179309,-3.164217233657837,-6.9814653,0.08576446,0.1840575784444809,-0.08688718
2889.5666666758484,-0.09558186,-0.5864787,0.47121963,-2.875641,0.22255272,1.4145279,1.0953432,0.039997213,0.039999817,-6.152049,-3.1842644214630127,-6.9972124,0.08507816,0.1818009912967682,-0.08598079
2889.5833333425153,-0.095962934,-0.5856902,0.4731013,-2.8777156,0.22344044,1.4139026,1.0965794,0.039997194,0.039999824,-6.1244264,-3.2038724422454834,-7.012602,0.08437465,0.17952965199947357,-0.08505872
2889.600000009182,-0.096339494,-0.58491075,0.47496083,-2.8797648,0.22431767,1.4132849,1.0978011,0.03999717,0.039999824,-6.0969067,-3.2233047485351562,-7.027664,0.083656944,0.17725011706352234,-0.084121786
2889.616666675849,-0.09671153,-0.5841409,0.47679797,-2.88179,0.22518428,1.4126744,1.099008,0.03999716,0.039999817,-6.068892,-3.2423441410064697,-7.0423923,0.082925506,0.17496341466903687,-0.08316791
2889.633333342516,-0.09707901,-0.58338064,0.47861257,-2.88379,0.22604035,1.4120717,1.1002003,0.039997138,0.039999828,-6.0427303,-3.261554718017578,-7.0568323,0.08217809,0.17266343533992767,-0.082203045
2889.650000009183,-0.0974419,-0.5826299,0.48040456,-2.885765,0.2268857,1.4114764,1.1013778,0.039997112,0.039999835,-6.0159845,-3.2803757190704346,-7.070943,0.08141522,0.17035746574401855,-0.0812264
2889.6666666758497,-0.097800165,-0.5818886,0.48217377,-2.8877153,0.22772029,1.4108887,1.1025404,0.039997105,0.039999843,-5.988767,-3.2987637519836426,-7.0847154,0.08063804,0.1680445820093155,-0.08023277
2889.6833333425166,-0.0981538,-0.5811571,0.48392004,-2.8896406,0.22854406,1.4103084,1.1036875,0.039997082,0.039999835,-5.9633527,-3.3173296451568604,-7.098242,0.07984661,0.16572259366512299,-0.07922667
2889.7000000091834,-0.098502755,-0.58043516,0.4856433,-2.89154,0.22935703,1.4097357,1.1048198,0.03999706,0.039999835,-5.9374857,-3.3354709148406982,-7.1114287,0.07904306,0.1633908599615097,-0.078207575
2889.7166666758503,-0.098847024,-0.5797229,0.4873434,-2.8934143,0.23015901,1.4091707,1.1059369,0.03999705,0.039999846,-5.9117675,-3.3534293174743652,-7.124316,0.07822511,0.16105487942695618,-0.07717672
2889.733333342517,-0.0991866,-0.5790203,0.4890203,-2.895263,0.23095003,1.4086133,1.1070389,0.039997023,0.039999846,-5.885658,-3.370978832244873,-7.1368947,0.0773941,0.1587117463350296,-0.076134615
2889.750000009184,-0.099521436,-0.57832766,0.4906738,-2.8970857,0.23173007,1.4080638,1.1081256,0.039997015,0.039999854,-5.861361,-3.3886287212371826,-7.14923,0.07654965,0.15636195242404938,-0.07507824
2889.766666675851,-0.099851534,-0.57764477,0.49230397,-2.8988829,0.23249905,1.407522,1.1091968,0.03999699,0.039999846,-5.836539,-3.4059011936187744,-7.1612377,0.07569254,0.15400803089141846,-0.07401286
2889.783333342518,-0.10017686,-0.5769717,0.49391064,-2.9006538,0.23325695,1.406988,1.1102523,0.039996974,0.03999985,-5.8120546,-3.4229376316070557,-7.1729836,0.07482396,0.15164901316165924,-0.07293488
2889.8000000091847,-0.1004974,-0.5763085,0.49549368,-2.902399,0.2340037,1.4064621,1.1112922,0.039996948,0.03999985,-5.787036,-3.439603567123413,-7.184406,0.07394556,0.14928683638572693,-0.071847916
2889.8166666758516,-0.10081317,-0.5756552,0.4970532,-2.904118,0.23473924,1.4059441,1.112317,0.039996937,0.039999854,-5.763923,-3.45631742477417,-7.1956367,0.0730552,0.1469205915927887,-0.07074903
2889.8333333425185,-0.101124115,-0.575012,0.49858883,-2.905811,0.2354636,1.4054338,1.1133263,0.039996922,0.039999858,-5.7402596,-3.4726781845092773,-7.2065334,0.07215228,0.14455322921276093,-0.06964208
2889.8500000091854,-0.10143023,-0.5743788,0.50010055,-2.9074776,0.23617673,1.4049314,1.1143197,0.039996907,0.03999986,-5.716975,-3.488779067993164,-7.217175,0.07123832,0.14218203723430634,-0.0685255
2889.8666666758522,-0.10173152,-0.57375556,0.50158834,-2.9091177,0.23687859,1.4044371,1.1152974,0.039996892,0.039999858,-5.693181,-3.5044891834259033,-7.227522,0.07031484,0.13980960845947266,-0.067399554
2889.883333342519,-0.10202793,-0.57314247,0.5030521,-2.9107316,0.23756911,1.4039507,1.1162596,0.039996874,0.03999987,-5.671243,-3.5202815532684326,-7.2376733,0.069381796,0.13743624091148376,-0.066268235
2889.900000009186,-0.102319494,-0.5725394,0.50449216,-2.912319,0.23824833,1.4034722,1.1172061,0.039996862,0.03999987,-5.648867,-3.5356554985046387,-7.247535,0.068438895,0.1350628137588501,-0.06512734
2889.916666675853,-0.102606185,-0.5719464,0.50590825,-2.9138794,0.23891623,1.4030015,1.1181366,0.039996844,0.03999987,-5.6260223,-3.5506818294525146,-7.2571,0.06748652,0.1326896846294403,-0.06397829
2889.9333333425197,-0.102888,-0.57136333,0.5073002,-2.915413,0.2395728,1.4025391,1.1190513,0.039996825,0.03999987,-5.6050153,-3.565735101699829,-7.2664943,0.06652654,0.13031789660453796,-0.06282216
2889.9500000091866,-0.103164926,-0.5707904,0.508668,-2.9169211,0.24021798,1.4020845,1.1199503,0.039996814,0.039999872,-5.5835223,-3.580404043197632,-7.275602,0.06555912,0.12794995307922363,-0.061660618
2889.9666666758535,-0.10343696,-0.57022774,0.51001173,-2.9184027,0.24085177,1.4016378,1.1208333,0.03999679,0.03999987,-5.5625806,-3.594794750213623,-7.284499,0.06458271,0.12557697296142578,-0.060491476
2889.9833333425204,-0.10370415,-0.5696751,0.5113314,-2.9198573,0.24147424,1.4011991,1.1217006,0.03999678,0.039999876,-5.5410266,-3.6088311672210693,-7.293108,0.06359882,0.12320730835199356,-0.059315972
2890.0000000091873,-0.10396644,-0.5691326,0.5126269,-2.9212859,0.24208531,1.4007685,1.1225522,0.039996773,0.039999884,-5.5213094,-3.6228973865509033,-7.3015566,0.06260764,0.12084153294563293,-0.058136154
2890.016666675854,-0.104223825,-0.56860036,0.51389843,-2.9226878,0.24268496,1.400346,1.1233879,0.039996747,0.03999988,-5.5012326,-3.636575222015381,-7.309749,0.061609976,0.11847759038209915,-0.056952234
2890.033333342521,-0.10447633,-0.5680781,0.5151457,-2.9240627,0.2432732,1.3999316,1.1242076,0.039996732,0.03999988,-5.4814525,-3.6500022411346436,-7.3177066,0.06060491,0.1161181628704071,-0.05576086
2890.050000009188,-0.10472395,-0.5675659,0.516369,-2.9254115,0.24385011,1.3995248,1.1250117,0.039996725,0.039999887,-5.46118,-3.663081645965576,-7.325409,0.059596255,0.11376526206731796,-0.054567553
2890.066666675855,-0.104966685,-0.5670639,0.5175681,-2.9267335,0.24441564,1.3991263,1.1257993,0.039996713,0.0399999,-5.4428997,-3.6761300563812256,-7.332971,0.058580864,0.11141312122344971,-0.05337015
2890.0833333425217,-0.10520456,-0.566572,0.5187432,-2.9280293,0.24496982,1.3987359,1.1265713,0.0399967,0.039999895,-5.4240503,-3.688819169998169,-7.340287,0.057563756,0.10907077044248581,-0.052170284
2890.1000000091885,-0.105437554,-0.56609017,0.5198942,-2.9292982,0.24551271,1.3983535,1.127328,0.039996684,0.03999989,-5.4056606,-3.701242446899414,-7.3474035,0.05654136,0.10673265904188156,-0.050966803
2890.1166666758554,-0.10566568,-0.56561846,0.5210212,-2.9305408,0.24604425,1.3979788,1.1280689,0.039996672,0.03999989,-5.3867316,-3.713331937789917,-7.3542504,0.05551302,0.10440351814031601,-0.049762588
2890.1333333425223,-0.10588894,-0.56515676,0.52212435,-2.931757,0.2465645,1.3976122,1.1287941,0.03999666,0.039999895,-5.369742,-3.725375175476074,-7.360985,0.05448202,0.10208103060722351,-0.048556585
2890.150000009189,-0.10610738,-0.56470513,0.52320355,-2.932947,0.24707347,1.3972534,1.1295033,0.039996643,0.039999895,-5.352311,-3.73708438873291,-7.3674912,0.053447917,0.0997670367360115,-0.04735026
2890.166666675856,-0.10632097,-0.5642636,0.5242589,-2.9341106,0.24757123,1.3969026,1.130197,0.039996628,0.039999895,-5.334476,-3.748401165008545,-7.3737454,0.052412584,0.0974608063697815,-0.046142597
2890.183333342523,-0.106529765,-0.5638319,0.52529055,-2.9352484,0.24805778,1.3965597,1.1308751,0.03999662,0.039999902,-5.318467,-3.7597079277038574,-7.379918,0.051374003,0.09516485780477524,-0.044936404
2890.20000000919,-0.106733784,-0.56341,0.5262986,-2.9363596,0.24853311,1.3962246,1.1315376,0.039996605,0.039999902,-5.3020926,-3.7706410884857178,-7.385854,0.05033461,0.09287779033184052,-0.043729715
2890.2166666758567,-0.10693301,-0.562998,0.52728295,-2.9374444,0.24899735,1.3958974,1.1321844,0.039996605,0.039999906,-5.2859664,-3.781343936920166,-7.3915973,0.049295187,0.09060295671224594,-0.042522
2890.2333333425236,-0.10712747,-0.56259584,0.52824396,-2.9385033,0.24945047,1.3955778,1.1328161,0.03999659,0.03999991,-5.269439,-3.7917213439941406,-7.3971057,0.048256718,0.0883408635854721,-0.04131955
2890.2500000091904,-0.107317194,-0.5622035,0.5291816,-2.9395366,0.2498926,1.3952659,1.1334324,0.03999657,0.03999991,-5.2548065,-3.802016258239746,-7.4025455,0.047216654,0.0860900804400444,-0.04011811
2890.2666666758573,-0.107502185,-0.561821,0.53009576,-2.9405444,0.25032377,1.394962,1.1340334,0.039996568,0.039999913,-5.2397575,-3.811957359313965,-7.4077682,0.046177063,0.08385180681943893,-0.03891697
2890.283333342524,-0.10768249,-0.5614481,0.5309868,-2.941527,0.25074401,1.3946657,1.1346192,0.039996557,0.03999991,-5.2250767,-3.821664333343506,-7.412832,0.045138285,0.08162545412778854,-0.037720483
2890.300000009191,-0.107858144,-0.56108505,0.5318548,-2.9424841,0.25115338,1.394377,1.1351898,0.039996542,0.039999906,-5.2099986,-3.8310446739196777,-7.4176755,0.04410115,0.07941192388534546,-0.03652744
2890.316666675858,-0.108029135,-0.56073153,0.5326999,-2.9434159,0.25155187,1.394096,1.1357453,0.039996535,0.039999906,-5.196696,-3.8403451442718506,-7.422445,0.043066412,0.07721274346113205,-0.035338014
2890.333333342525,-0.108195506,-0.56038755,0.53352195,-2.9443226,0.2519396,1.3938227,1.1362861,0.03999653,0.039999913,-5.1829476,-3.849339485168457,-7.427015,0.04203448,0.07503052800893784,-0.034154076
2890.3500000091917,-0.10835727,-0.560053,0.53432196,-2.9452043,0.25231677,1.3935568,1.1368117,0.03999652,0.039999913,-5.1695757,-3.858072280883789,-7.431434,0.04100377,0.07286418229341507,-0.0329767
2890.3666666758586,-0.10851448,-0.559728,0.535099,-2.9460614,0.25268334,1.3932984,1.1373225,0.039996505,0.039999913,-5.1558347,-3.866525650024414,-7.4356318,0.039979603,0.07071458548307419,-0.031803083
2890.3833333425255,-0.10866718,-0.55941236,0.53585374,-2.9468937,0.2530393,1.3930475,1.1378187,0.039996494,0.039999913,-5.143853,-3.874830722808838,-7.4397993,0.03895897,0.06858079880475998,-0.030636488
2890.4000000091924,-0.10881538,-0.5591058,0.5365864,-2.9477012,0.25338483,1.3928039,1.1383004,0.03999648,0.039999906,-5.131433,-3.882868528366089,-7.4437623,0.037942976,0.0664663091301918,-0.02947696
2890.4166666758592,-0.10895915,-0.5588086,0.53729725,-2.9484847,0.25372002,1.3925675,1.1387676,0.03999647,0.039999906,-5.1186457,-3.890598773956299,-7.4475255,0.036932882,0.06437262892723083,-0.028324924
2890.433333342526,-0.109098494,-0.55852044,0.5379862,-2.9492445,0.25404483,1.3923385,1.1392206,0.039996468,0.039999917,-5.107624,-3.898223400115967,-7.451251,0.035928644,0.062297336757183075,-0.02718088
2890.450000009193,-0.10923347,-0.5582413,0.5386536,-2.9499805,0.25435954,1.3921167,1.1396594,0.039996456,0.039999917,-5.096246,-3.9055538177490234,-7.4548097,0.034930367,0.06024128943681717,-0.0260452
2890.46666667586,-0.10936412,-0.55797106,0.5392999,-2.9506924,0.25466415,1.3919017,1.1400843,0.039996453,0.039999917,-5.0851784,-3.9126381874084473,-7.4582224,0.033938255,0.058204833418130875,-0.02491734
2890.4833333425267,-0.109490454,-0.55770993,0.53992474,-2.9513812,0.2549588,1.3916938,1.1404951,0.039996445,0.039999913,-5.0736704,-3.919468879699707,-7.4614286,0.032954633,0.05619269981980324,-0.02379885
2890.5000000091936,-0.10961256,-0.5574575,0.54052883,-2.952047,0.25524363,1.3914932,1.1408923,0.03999644,0.039999917,-5.063885,-3.9261605739593506,-7.464627,0.03197887,0.0542026162147522,-0.02269159
2890.5166666758605,-0.10973048,-0.55721366,0.54111224,-2.9526904,0.25551865,1.3912994,1.1412758,0.039996427,0.039999917,-5.053763,-3.9325947761535645,-7.4676676,0.031011002,0.052235450595617294,-0.021596158
2890.5333333425274,-0.10984425,-0.55697846,0.54167503,-2.9533107,0.25578398,1.3911123,1.1416458,0.039996423,0.039999925,-5.043944,-3.9387927055358887,-7.4705725,0.030052336,0.050291236490011215,-0.020510415
2890.5500000091943,-0.10995393,-0.5567517,0.5422177,-2.9539087,0.25603974,1.3909318,1.1420026,0.039996415,0.039999925,-5.0337234,-3.944709062576294,-7.473297,0.02910413,0.048373203724622726,-0.019437313
2890.566666675861,-0.11005955,-0.5565334,0.5427403,-2.9544847,0.25628614,1.3907582,1.1423461,0.03999641,0.039999925,-5.025144,-3.9505274295806885,-7.476015,0.02816558,0.046479254961013794,-0.018375292
2890.583333342528,-0.11016114,-0.5563232,0.5432433,-2.9550395,0.2565233,1.3905909,1.1426771,0.039996408,0.039999925,-5.01618,-3.956087589263916,-7.478559,0.02723832,0.04461277276277542,-0.017327407
2890.600000009195,-0.11025883,-0.55612135,0.5437269,-2.9555724,0.2567513,1.3904305,1.142995,0.03999641,0.039999932,-5.007588,-3.9614226818084717,-7.481008,0.026320562,0.04277060553431511,-0.016291294
2890.616666675862,-0.11035266,-0.5559272,0.54419136,-2.956084,0.25697023,1.3902761,1.1433002,0.039996408,0.039999932,-4.9985704,-3.9665138721466064,-7.4832864,0.025415935,0.04096056893467903,-0.015271589
2890.6333333425287,-0.11044268,-0.5557412,0.5446368,-2.9565752,0.25718024,1.390128,1.1435931,0.0399964,0.039999936,-4.991073,-3.9715116024017334,-7.4855537,0.024525402,0.039177510887384415,-0.014266702
2890.6500000091955,-0.11052894,-0.5555628,0.54506373,-2.9570456,0.25738153,1.3899859,1.1438739,0.039996397,0.039999932,-4.983306,-3.9762039184570312,-7.487684,0.023646496,0.03742365911602974,-0.013276806
2890.6666666758624,-0.11061152,-0.5553921,0.5454726,-2.9574962,0.25757426,1.38985,1.1441427,0.03999638,0.03999993,-4.9752,-3.980696439743042,-7.489647,0.02278087,0.03569919243454933,-0.01230318
2890.6833333425293,-0.11069044,-0.5552289,0.54586357,-2.9579272,0.2577585,1.38972,1.1443999,0.039996378,0.039999932,-4.9685655,-3.9850761890411377,-7.4916186,0.02192928,0.03400501236319542,-0.011344171
2890.700000009196,-0.11076582,-0.55507296,0.5462369,-2.9583387,0.25793445,1.389596,1.1446455,0.039996374,0.039999932,-4.9616017,-3.989206075668335,-7.49345,0.02109201,0.03234170749783516,-0.010402011
2890.716666675863,-0.11083771,-0.55492437,0.54659307,-2.958731,0.25810233,1.3894774,1.1448796,0.03999637,0.039999932,-4.9548273,-3.993168830871582,-7.4951887,0.020269657,0.030713165178894997,-0.009478716
2890.73333334253,-0.11090617,-0.55478287,0.54693246,-2.959105,0.25826216,1.3893647,1.1451026,0.039996367,0.039999932,-4.9478226,-3.996889114379883,-7.4967613,0.019464111,0.029117818921804428,-0.008572848
2890.750000009197,-0.110971294,-0.5546483,0.5472553,-2.9594605,0.25841424,1.3892574,1.1453148,0.039996363,0.039999932,-4.942165,-4.000516891479492,-7.49838,0.01867438,0.027557265013456345,-0.0076847496
2890.7666666758637,-0.11103313,-0.55452055,0.5475618,-2.9597983,0.2585587,1.3891556,1.1455164,0.039996356,0.039999932,-4.9361405,-4.003925800323486,-7.499835,0.017901745,0.026032423600554466,-0.006817283
2890.7833333425306,-0.111091785,-0.55439925,0.5478527,-2.9601188,0.2586957,1.3890588,1.1457077,0.039996352,0.039999932,-4.9304237,-4.007151126861572,-7.5012226,0.017146118,0.024544280022382736,-0.0059694694
2890.8000000091974,-0.11114734,-0.55428445,0.54812807,-2.960422,0.25882542,1.3889673,1.1458888,0.039996352,0.039999932,-4.924455,-4.010168552398682,-7.502483,0.016407397,0.023090790957212448,-0.005140627
2890.8166666758643,-0.111199856,-0.554176,0.5483885,-2.960709,0.25894815,1.3888806,1.14606,0.039996352,0.03999994,-4.919618,-4.013111591339111,-7.5037436,0.015688691,0.021676968783140182,-0.004335355
2890.833333342531,-0.111249365,-0.55407363,0.54863435,-2.96098,0.2590639,1.3887988,1.1462216,0.039996352,0.03999994,-4.9145727,-4.0158371925354,-7.504892,0.014988711,0.02030082978308201,-0.0035504804
2890.850000009198,-0.11129606,-0.5539772,0.54886615,-2.9612353,0.25917304,1.3887218,1.1463739,0.03999635,0.039999936,-4.9097276,-4.0184125900268555,-7.505968,0.014308431,0.018965383991599083,-0.0027870538
2890.866666675865,-0.111339964,-0.5538863,0.5490841,-2.9614754,0.2592757,1.3886495,1.1465175,0.03999635,0.039999936,-4.9046745,-4.02079439163208,-7.506938,0.013648151,0.0176699198782444,-0.002046119
2890.883333342532,-0.11138117,-0.55380076,0.54928887,-2.961701,0.25937206,1.3885816,1.146652,0.03999634,0.039999932,-4.9006133,-4.023126125335693,-7.5079036,0.0130070485,0.01641688495874405,-0.0013301838
2890.9000000091987,-0.111419804,-0.55372095,0.5494808,-2.9619126,0.25946245,1.3885179,1.1467781,0.03999634,0.039999936,-4.896416,-4.02524471282959,-7.508794,0.012389583,0.015204540453851223,-0.000636796
2890.9166666758656,-0.11145593,-0.5536467,0.5496602,-2.96211,0.25954688,1.3884581,1.1468961,0.039996337,0.039999936,-4.8919673,-4.0271992683410645,-7.509552,0.011792446,0.014034644700586796,3.164819e-05
2890.9333333425325,-0.11148965,-0.5535767,0.54982775,-2.9622943,0.25962567,1.3884023,1.1470065,0.039996337,0.039999936,-4.888365,-4.02908182144165,-7.510305,0.011217491,0.012914491817355156,0.000674239
2890.9500000091994,-0.11152103,-0.5535122,0.5499839,-2.962466,0.2596991,1.3883504,1.1471095,0.039996333,0.039999936,-4.884687,-4.030823230743408,-7.511004,0.010665608,0.011835455894470215,0.0012916978
2890.9666666758662,-0.11155022,-0.5534518,0.55012906,-2.9626257,0.25976747,1.3883021,1.1472052,0.03999633,0.039999936,-4.881084,-4.032422065734863,-7.511609,0.010135989,0.01080683246254921,0.0018819873
2890.983333342533,-0.1115773,-0.55339545,0.55026376,-2.9627738,0.25983092,1.3882573,1.1472934,0.03999633,0.039999936,-4.877395,-4.033878803253174,-7.51217,0.009630454,0.009822255000472069,0.002446088
2891.0000000092,-0.11160235,-0.5533437,0.5503885,-2.9629114,0.25988966,1.3882158,1.1473756,0.039996326,0.039999936,-4.874454,-4.035284996032715,-7.5127263,0.009153557,0.008885061368346214,0.002981902
2891.016666675867,-0.11162553,-0.55329597,0.55050385,-2.9630373,0.25994396,1.3881775,1.147452,0.039996322,0.03999994,-4.871368,-4.036520004272461,-7.5132008,0.008698362,0.007997491396963596,0.0034896645
2891.0333333425338,-0.11164689,-0.55325186,0.55061036,-2.9631546,0.25999415,1.388142,1.1475211,0.03999632,0.03999994,-4.8682055,-4.037713527679443,-7.513587,0.008267701,0.007166318595409393,0.0039669727
2891.0500000092006,-0.11166658,-0.55321115,0.5507086,-2.9632635,0.26004043,1.3881093,1.147586,0.03999632,0.03999994,-4.8651986,-4.038717746734619,-7.513976,0.007869055,0.0063820467330515385,0.004416923
2891.0666666758675,-0.111684725,-0.5531738,0.55079913,-2.9633646,0.26008302,1.3880792,1.1476467,0.039996315,0.03999994,-4.8628297,-4.039691925048828,-7.5143676,0.007490634,0.0056445179507136345,0.004838631
2891.0833333425344,-0.1117014,-0.5531395,0.5508823,-2.9634578,0.26012203,1.3880514,1.1477004,0.039996315,0.03999994,-4.8601975,-4.040571689605713,-7.5146832,0.0071344017,0.004958803299814463,0.0052312454
2891.1000000092013,-0.11171675,-0.55310786,0.5509587,-2.9635434,0.26015812,1.388026,1.1477501,0.03999631,0.03999994,-4.8576493,-4.041365623474121,-7.514963,0.006814829,0.004326301161199808,0.005592785
2891.116666675868,-0.11173089,-0.553079,0.5510288,-2.9636214,0.2601912,1.3880026,1.147796,0.03999631,0.03999994,-4.8550406,-4.042095184326172,-7.5152025,0.0065201973,0.0037449991796165705,0.0059244893
2891.133333342535,-0.11174387,-0.55305237,0.5510933,-2.9636922,0.26022172,1.3879812,1.1478381,0.03999631,0.03999994,-4.8529344,-4.042796611785889,-7.515422,0.006248765,0.0032146023586392403,0.0062276395
2891.150000009202,-0.11175581,-0.5530278,0.5511532,-2.9637556,0.26024967,1.3879615,1.1478764,0.03999631,0.03999994,-4.8508286,-4.043446063995361,-7.5156107,0.0060009477,0.002730115782469511,0.0065050735
2891.166666675869,-0.11176679,-0.5530053,0.5512076,-2.963818,0.26027542,1.3879433,1.1479131,0.039996307,0.03999994,-4.8486595,-4.044062614440918,-7.515744,0.0057770167,0.0022928204853087664,0.0067605455
2891.1833333425357,-0.1117769,-0.5529846,0.55125797,-2.9638731,0.26029912,1.3879265,1.1479472,0.039996307,0.03999994,-4.8476,-4.044473171234131,-7.516042,0.00555907,0.0018716754857450724,0.0069988426
2891.2000000092025,-0.1117862,-0.5529656,0.55130446,-2.9639215,0.2603209,1.3879108,1.1479776,0.039996307,0.03999994,-4.845737,-4.045044898986816,-7.516129,0.0053598876,0.0014949983451515436,0.0072158943
2891.2166666758694,-0.11179475,-0.5529481,0.55134714,-2.963969,0.26034096,1.3878965,1.1480058,0.03999631,0.03999994,-4.844064,-4.045542240142822,-7.51621,0.0051836916,0.0011577593395486474,0.0074139284
2891.2333333425363,-0.11180262,-0.55293185,0.55138636,-2.9640095,0.26035935,1.3878834,1.1480323,0.039996307,0.03999994,-4.843005,-4.045875549316406,-7.5164156,0.0050167963,0.0008351782453246415,0.0075985487
2891.250000009203,-0.11180984,-0.5529171,0.5514224,-2.9640493,0.26037636,1.3878714,1.1480554,0.03999631,0.03999994,-4.8415422,-4.046334266662598,-7.5164704,0.0048649525,0.0005511700292117894,0.0077653453
2891.26666667587,-0.11181649,-0.55290353,0.5514558,-2.9640877,0.26039195,1.3878602,1.1480781,0.039996307,0.03999994,-4.8407464,-4.046613693237305,-7.5166492,0.0047276733,0.000280082254903391,0.007920457
2891.283333342537,-0.11182263,-0.55289096,0.5514863,-2.96412,0.26040626,1.3878499,1.148098,0.03999631,0.03999994,-4.839926,-4.046900749206543,-7.516792,0.0045929737,2.2938371330383234e-05,0.0080683855
2891.300000009204,-0.11182825,-0.5528795,0.5515145,-2.9641519,0.26041952,1.3878405,1.1481168,0.03999631,0.03999994,-4.838517,-4.047267913818359,-7.5168114,0.0044770213,-0.00020056896028108895,0.00819838
2891.3166666758707,-0.11183343,-0.55286884,0.5515405,-2.9641802,0.2604318,1.3878322,1.1481341,0.03999631,0.03999994,-4.8380103,-4.0474958419799805,-7.5169563,0.004365192,-0.0004155997303314507,0.008321411
2891.3333333425376,-0.11183816,-0.5528592,0.5515644,-2.9642048,0.26044306,1.3878243,1.1481493,0.03999631,0.03999994,-4.837075,-4.047784328460693,-7.517022,0.00426389,-0.0006082909530960023,0.008432942
2891.3500000092045,-0.11184256,-0.55285025,0.55158633,-2.964229,0.2604534,1.3878169,1.1481643,0.03999631,0.03999994,-4.836173,-4.048038482666016,-7.5170503,0.004175899,-0.0007791055249981582,0.008533547
2891.3666666758713,-0.111846544,-0.55284196,0.55160654,-2.9642532,0.26046288,1.38781,1.1481777,0.03999631,0.03999994,-4.8356643,-4.048196792602539,-7.5171556,0.004087788,-0.0009446288459002972,0.00862848
2891.383333342538,-0.11185025,-0.55283445,0.55162513,-2.9642725,0.26047152,1.3878038,1.1481898,0.03999631,0.03999994,-4.8352904,-4.048364162445068,-7.517266,0.004006556,-0.001104671973735094,0.0087189805
2891.400000009205,-0.111853674,-0.55282754,0.5516422,-2.9642894,0.2604795,1.3877981,1.148201,0.03999631,0.03999994,-4.834355,-4.048610687255859,-7.517259,0.00393646,-0.0012385392328724265,0.008798161
2891.416666675872,-0.11185682,-0.5528211,0.55165803,-2.9643064,0.2604869,1.3877933,1.1482114,0.03999631,0.03999994,-4.8337154,-4.048788070678711,-7.5172825,0.0038723822,-0.001358484965749085,0.008869526
2891.433333342539,-0.11185971,-0.5528152,0.5516725,-2.964323,0.26049364,1.3877887,1.148221,0.03999631,0.03999994,-4.8334513,-4.048918724060059,-7.517379,0.003811635,-0.0014725944492965937,0.00893676
2891.4500000092057,-0.11186237,-0.5528098,0.5516858,-2.9643395,0.2604999,1.3877844,1.1482297,0.03999631,0.03999994,-4.833136,-4.049025058746338,-7.5174465,0.003753884,-0.0015833829529583454,0.009000449
2891.4666666758726,-0.111864805,-0.5528049,0.551698,-2.9643533,0.26050562,1.3877802,1.1482376,0.03999631,0.03999994,-4.832841,-4.049131870269775,-7.5175176,0.0037003588,-0.0016900892369449139,0.009060108
2891.4833333425395,-0.11186705,-0.5528003,0.55170923,-2.9643643,0.26051092,1.3877765,1.148245,0.03999631,0.03999994,-4.832253,-4.049280166625977,-7.5175166,0.0036530949,-0.0017832651501521468,0.009113589
2891.5000000092064,-0.111869134,-0.5527962,0.55171955,-2.9643736,0.26051572,1.3877729,1.148252,0.03999631,0.03999994,-4.7237453,-3.9713146686553955,-7.5268583,0.0,-0.0,0.0
2891.5166666758732,-0.111869134,-0.5527962,0.55171955,-2.9643736,0.26051572,1.3877729,1.148252,0.03999631,0.03999994,-4.829983,-4.049253940582275,-7.517374,0.0,-0.0,0.0
2891.53333334254,-0.111869134,-0.5527962,0.55171955,-2.9643736,0.26051572,1.3877729,1.148252,0.03999631,0.03999994,-4.829983,-4.049253940582275,-7.517374,0.0,-0.0,0.0
2891.550000009207,-0.111869134,-0.5527962,0.55171955,-2.9643736,0.26051572,1.3877729,1.148252,0.03999631,0.03999994,-4.829983,-4.049253940582275,-7.517374,0.0,-0.0,0.0
2891.566666675874,-0.111869134,-0.5527962,0.55171955,-2.9643736,0.26051572,1.3877729,1.148252,0.03999631,0.03999994,-4.829983,-4.049253940582275,-7.517374,0.0,-0.0,0.0
2891.5833333425408,-0.111869134,-0.5527962,0.55171955,-2.9643736,0.26051572,1.3877729,1.148252,0.03999631,0.03999994,-4.829983,-4.049253940582275,-7.517374,0.0,-0.0,0.0
2891.6000000092076,-0.111869134,-0.5527962,0.55171955,-2.9643736,0.26051572,1.3877729,1.148252,0.03999631,0.03999994,-4.829983,-4.049253940582275,-7.517374,0.0,-0.0,0.0
2891.6166666758745,-0.111869134,-0.5527962,0.55171955,-2.9643736,0.26051572,1.3877729,1.148252,0.03999631,0.03999994,-4.829983,-4.049253940582275,-7.517374,0.0,-0.0,0.0
2891.6333333425414,-0.111869134,-0.5527962,0.55171955,-2.9643736,0.26051572,1.3877729,1.148252,0.03999631,0.03999994,-4.829983,-4.049253940582275,-7.517374,0.0,-0.0,0.0
2891.6500000092083,-0.111869134,-0.5527962,0.55171955,-2.9643736,0.26051572,1.3877729,1.148252,0.03999631,0.03999994,-4.829983,-4.049253940582275,-7.517374,0.0,-0.0,0.0
2891.666666675875,-0.111869134,-0.5527962,0.55171955,-2.9643736,0.26051572,1.3877729,1.148252,0.03999631,0.03999994,-4.829983,-4.049253940582275,-7.517374,0.0,-0.0,0.0
2891.683333342542,-0.111869134,-0.5527962,0.55171955,-2.9643736,0.26051572,1.3877729,1.148252,0.03999631,0.03999994,-4.829983,-4.049253940582275,-7.517374,0.0,-0.0,0.0
2891.700000009209,-0.111869134,-0.5527962,0.55171955,-2.9643736,0.26051572,1.3877729,1.148252,0.03999631,0.03999994,-4.829983,-4.049253940582275,-7.517374,0.0,-0.0,0.0
2891.716666675876,-0.111869134,-0.5527962,0.55171955,-2.9643736,0.26051572,1.3877729,1.148252,0.03999631,0.03999994,-4.829983,-4.049253940582275,-7.517374,0.0,-0.0,0.0
2891.7333333425427,-0.111869134,-0.5527962,0.55171955,-2.9643736,0.26051572,1.3877729,1.148252,0.03999631,0.03999994,-4.829983,-4.049253940582275,-7.517374,0.0,-0.0,0.0
2891.7500000092095,-0.111869134,-0.5527962,0.55171955,-2.9643736,0.26051572,1.3877729,1.148252,0.03999631,0.03999994,-4.829983,-4.049253940582275,-7.517374,0.0,-0.0,0.0
2891.7666666758764,-0.111869134,-0.5527962,0.55171955,-2.9643736,0.26051572,1.3877729,1.148252,0.03999631,0.03999994,-4.829983,-4.049253940582275,-7.517374,0.0,-0.0,0.0
2891.7833333425433,-0.111869134,-0.5527962,0.55171955,-2.9643736,0.26051572,1.3877729,1.148252,0.03999631,0.03999994,-4.829983,-4.049253940582275,-7.517374,0.0,-0.0,0.0
2891.80000000921,-0.111869134,-0.5527962,0.55171955,-2.9643736,0.26051572,1.3877729,1.148252,0.03999631,0.03999994,-4.829983,-4.049253940582275,-7.517374,0.0,-0.0,0.0
2891.816666675877,-0.111869134,-0.5527962,0.55171955,-2.9643736,0.26051572,1.3877729,1.148252,0.03999631,0.03999994,-4.829983,-4.049253940582275,-7.517374,0.0,-0.0,0.0
2891.833333342544,-0.111869134,-0.5527962,0.55171955,-2.9643736,0.26051572,1.3877729,1.148252,0.03999631,0.03999994,-4.829983,-4.049253940582275,-7.517374,0.0,-0.0,0.0
2891.850000009211,-0.111869134,-0.5527962,0.55171955,-2.9643736,0.26051572,1.3877729,1.148252,0.03999631,0.03999994,-4.829983,-4.049253940582275,-7.517374,0.0,-0.0,0.0
2891.8666666758777,-0.111869134,-0.5527962,0.55171955,-2.9643736,0.26051572,1.3877729,1.148252,0.03999631,0.03999994,-4.829983,-4.049253940582275,-7.517374,0.0,-0.0,0.0
2891.8833333425446,-0.111869134,-0.5527962,0.55171955,-2.9643736,0.26051572,1.3877729,1.148252,0.03999631,0.03999994,-4.829983,-4.049253940582275,-7.517374,0.0,-0.0,0.0
2891.9000000092115,-0.111869134,-0.5527962,0.55171955,-2.9643736,0.26051572,1.3877729,1.148252,0.03999631,0.03999994,-4.829983,-4.049253940582275,-7.517374,0.0,-0.0,0.0
2891.9166666758783,-0.111869134,-0.5527962,0.55171955,-2.9643736,0.26051572,1.3877729,1.148252,0.03999631,0.03999994,-4.829983,-4.049253940582275,-7.517374,0.0,-0.0,0.0
2891.933333342545,-0.111869134,-0.5527962,0.55171955,-2.9643736,0.26051572,1.3877729,1.148252,0.03999631,0.03999994,-4.829983,-4.049253940582275,-7.517374,0.0,-0.0,0.0
2891.950000009212,-0.111869134,-0.5527962,0.55171955,-2.9643736,0.26051572,1.3877729,1.148252,0.03999631,0.03999994,-4.829983,-4.049253940582275,-7.517374,0.0,-0.0,0.0
2891.966666675879,-0.111869134,-0.5527962,0.55171955,-2.9643736,0.26051572,1.3877729,1.148252,0.03999631,0.03999994,-4.829983,-4.049253940582275,-7.517374,0.0,-0.0,0.0
2891.983333342546,-0.111869134,-0.5527962,0.55171955,-2.9643736,0.26051572,1.3877729,1.148252,0.03999631,0.03999994,-4.829983,-4.049253940582275,-7.517374,0.0,-0.0,0.0
2892.0000000092127,-0.111869134,-0.5527962,0.55171955,-2.9643736,0.26051572,1.3877729,1.148252,0.03999631,0.03999994,-4.829983,-4.049253940582275,-7.517374,0.0,-0.0,0.0
2892.0166666758796,-0.111869134,-0.5527962,0.55171955,-2.9643736,0.26051572,1.3877729,1.148252,0.03999631,0.03999994,-4.829983,-4.049253940582275,-7.517374,0.0,-0.0,0.0
2892.0333333425465,-0.111869134,-0.5527962,0.55171955,-2.9643736,0.26051572,1.3877729,1.148252,0.03999631,0.03999994,-4.829983,-4.049253940582275,-7.517374,0.0,-0.0,0.0
2892.0500000092134,-0.111869134,-0.5527962,0.55171955,-2.9643736,0.26051572,1.3877729,1.148252,0.03999631,0.03999994,-4.829983,-4.049253940582275,-7.517374,0.0,-0.0,0.0
2892.0666666758802,-0.111869134,-0.5527962,0.55171955,-2.9643736,0.26051572,1.3877729,1.148252,0.03999631,0.03999994,-4.829983,-4.049253940582275,-7.517374,0.0,-0.0,0.0
2892.083333342547,-0.111869134,-0.5527962,0.55171955,-2.9643736,0.26051572,1.3877729,1.148252,0.03999631,0.03999994,-4.829983,-4.049253940582275,-7.517374,0.0,-0.0,0.0
2892.100000009214,-0.111869134,-0.5527962,0.55171955,-2.9643736,0.26051572,1.3877729,1.148252,0.03999631,0.03999994,-4.829983,-4.049253940582275,-7.517374,0.0,-0.0,0.0
2892.116666675881,-0.111869134,-0.5527962,0.55171955,-2.9643736,0.26051572,1.3877729,1.148252,0.03999631,0.03999994,-4.829983,-4.049253940582275,-7.517374,0.0,-0.0,0.0
2892.1333333425478,-0.111869134,-0.5527962,0.55171955,-2.9643736,0.26051572,1.3877729,1.148252,0.03999631,0.03999994,-4.829983,-4.049253940582275,-7.517374,0.0,-0.0,0.0
2892.1500000092146,-0.111869134,-0.5527962,0.55171955,-2.9643736,0.26051572,1.3877729,1.148252,0.03999631,0.03999994,-4.829983,-4.049253940582275,-7.517374,0.0,-0.0,0.0
2892.1666666758815,-0.111869134,-0.5527962,0.55171955,-2.9643736,0.26051572,1.3877729,1.148252,0.03999631,0.03999994,-4.829983,-4.049253940582275,-7.517374,0.0,-0.0,0.0
2892.1833333425484,-0.111869134,-0.5527962,0.55171955,-2.9643736,0.26051572,1.3877729,1.148252,0.03999631,0.03999994,-4.829983,-4.049253940582275,-7.517374,0.0,-0.0,0.0
2892.2000000092153,-0.111869134,-0.5527962,0.55171955,-2.9643736,0.26051572,1.3877729,1.148252,0.03999631,0.03999994,-4.829983,-4.049253940582275,-7.517374,0.0,-0.0,0.0
2892.216666675882,-0.111869134,-0.5527962,0.55171955,-2.9643736,0.26051572,1.3877729,1.148252,0.03999631,0.03999994,-4.829983,-4.049253940582275,-7.517374,0.0,-0.0,0.0
2892.233333342549,-0.111869134,-0.5527962,0.55171955,-2.9643736,0.26051572,1.3877729,1.148252,0.03999631,0.03999994,-4.829983,-4.049253940582275,-7.517374,0.0,-0.0,0.0
2892.250000009216,-0.111869134,-0.5527962,0.55171955,-2.9643736,0.26051572,1.3877729,1.148252,0.03999631,0.03999994,-4.829983,-4.049253940582275,-7.517374,0.0,-0.0,0.0
2892.266666675883,-0.111869134,-0.5527962,0.55171955,-2.9643736,0.26051572,1.3877729,1.148252,0.03999631,0.03999994,-4.829983,-4.049253940582275,-7.517374,0.0,-0.0,0.0
2892.2833333425497,-0.111869134,-0.5527962,0.55171955,-2.9643736,0.26051572,1.3877729,1.148252,0.03999631,0.03999994,-4.829983,-4.049253940582275,-7.517374,0.0,-0.0,0.0
2892.3000000092165,-0.111869134,-0.5527962,0.55171955,-2.9643736,0.26051572,1.3877729,1.148252,0.03999631,0.03999994,-4.829983,-4.049253940582275,-7.517374,0.0,-0.0,0.0
2892.3166666758834,-0.111869134,-0.5527962,0.55171955,-2.9643736,0.26051572,1.3877729,1.148252,0.03999631,0.03999994,-4.829983,-4.049253940582275,-7.517374,0.0,-0.0,0.0
2892.3333333425503,-0.111869134,-0.5527962,0.55171955,-2.9643736,0.26051572,1.3877729,1.148252,0.03999631,0.03999994,-4.829983,-4.049253940582275,-7.517374,0.0,-0.0,0.0
2892.350000009217,-0.111869134,-0.5527962,0.55171955,-2.9643736,0.26051572,1.3877729,1.148252,0.03999631,0.03999994,-4.829983,-4.049253940582275,-7.517374,0.0,-0.0,0.0
2892.366666675884,-0.111869134,-0.5527962,0.55171955,-2.9643736,0.26051572,1.3877729,1.148252,0.03999631,0.03999994,-4.829983,-4.049253940582275,-7.517374,0.0,-0.0,0.0
2892.383333342551,-0.111869134,-0.5527962,0.55171955,-2.9643736,0.26051572,1.3877729,1.148252,0.03999631,0.03999994,-4.829983,-4.049253940582275,-7.517374,0.0,-0.0,0.0
2892.400000009218,-0.111869134,-0.5527962,0.55171955,-2.9643736,0.26051572,1.3877729,1.148252,0.03999631,0.03999994,-4.829983,-4.049253940582275,-7.517374,0.0,-0.0,0.0
2892.4166666758847,-0.111869134,-0.5527962,0.55171955,-2.9643736,0.26051572,1.3877729,1.148252,0.03999631,0.03999994,-4.829983,-4.049253940582275,-7.517374,0.0,-0.0,0.0
2892.4333333425516,-0.111869134,-0.5527962,0.55171955,-2.9643736,0.26051572,1.3877729,1.148252,0.03999631,0.03999994,-4.829983,-4.049253940582275,-7.517374,0.0,-0.0,0.0
2892.4500000092185,-0.111869134,-0.5527962,0.55171955,-2.9643736,0.26051572,1.3877729,1.148252,0.03999631,0.03999994,-4.829983,-4.049253940582275,-7.517374,0.0,-0.0,0.0
2892.4666666758853,-0.111869134,-0.5527962,0.55171955,-2.9643736,0.26051572,1.3877729,1.148252,0.03999631,0.03999994,-4.829983,-4.049253940582275,-7.517374,0.0,-0.0,0.0
2892.483333342552,-0.111869134,-0.5527962,0.55171955,-2.9643736,0.26051572,1.3877729,1.148252,0.03999631,0.03999994,-4.829983,-4.049253940582275,-7.517374,0.0,-0.0,0.0
2892.500000009219,-0.111869134,-0.5527962,0.55171955,-2.9643736,0.26051572,1.3877729,1.148252,0.03999631,0.03999994,-4.829983,-4.049253940582275,-7.517374,0.0,-0.0,0.0
2892.516666675886,-0.111869134,-0.5527962,0.55171955,-2.9643736,0.26051572,1.3877729,1.148252,0.03999631,0.03999994,-4.829983,-4.049253940582275,-7.517374,0.0,-0.0,0.0
2892.533333342553,-0.111869134,-0.5527962,0.55171955,-2.9643736,0.26051572,1.3877729,1.148252,0.03999631,0.03999994,-4.829983,-4.049253940582275,-7.517374,0.0,-0.0,0.0
2892.5500000092197,-0.111869134,-0.5527962,0.55171955,-2.9643736,0.26051572,1.3877729,1.148252,0.03999631,0.03999994,-4.829983,-4.049253940582275,-7.517374,0.0,-0.0,0.0
2892.5666666758866,-0.111869134,-0.5527962,0.55171955,-2.9643736,0.26051572,1.3877729,1.148252,0.03999631,0.03999994,-4.829983,-4.049253940582275,-7.517374,0.0,-0.0,0.0
2892.5833333425535,-0.111869134,-0.5527962,0.55171955,-2.9643736,0.26051572,1.3877729,1.148252,0.03999631,0.03999994,-4.829983,-4.049253940582275,-7.517374,0.0,-0.0,0.0
2892.6000000092204,-0.111869134,-0.5527962,0.55171955,-2.9643736,0.26051572,1.3877729,1.148252,0.03999631,0.03999994,-4.829983,-4.049253940582275,-7.517374,0.0,-0.0,0.0
2892.6166666758872,-0.111869134,-0.5527962,0.55171955,-2.9643736,0.26051572,1.3877729,1.148252,0.03999631,0.03999994,-4.829983,-4.049253940582275,-7.517374,0.0,-0.0,0.0
2892.633333342554,-0.111869134,-0.5527962,0.55171955,-2.9643736,0.26051572,1.3877729,1.148252,0.03999631,0.03999994,-4.829983,-4.049253940582275,-7.517374,0.0,-0.0,0.0
2892.650000009221,-0.111869134,-0.5527962,0.55171955,-2.9643736,0.26051572,1.3877729,1.148252,0.03999631,0.03999994,-4.829983,-4.049253940582275,-7.517374,0.0,-0.0,0.0
2892.666666675888,-0.111869134,-0.5527962,0.55171955,-2.9643736,0.26051572,1.3877729,1.148252,0.03999631,0.03999994,-4.829983,-4.049253940582275,-7.517374,0.0,-0.0,0.0
2892.6833333425548,-0.111869134,-0.5527962,0.55171955,-2.9643736,0.26051572,1.3877729,1.148252,0.03999631,0.03999994,-4.829983,-4.049253940582275,-7.517374,0.0,-0.0,0.0
2892.7000000092216,-0.111869134,-0.5527962,0.55171955,-2.9643736,0.26051572,1.3877729,1.148252,0.03999631,0.03999994,-4.829983,-4.049253940582275,-7.517374,0.0,-0.0,0.0
2892.7166666758885,-0.111869134,-0.5527962,0.55171955,-2.9643736,0.26051572,1.3877729,1.148252,0.03999631,0.03999994,-4.829983,-4.049253940582275,-7.517374,0.0,-0.0,0.0
2892.7333333425554,-0.111869134,-0.5527962,0.55171955,-2.9643736,0.26051572,1.3877729,1.148252,0.03999631,0.03999994,-4.829983,-4.049253940582275,-7.517374,0.0,-0.0,0.0
2892.7500000092223,-0.111869134,-0.5527962,0.55171955,-2.9643736,0.26051572,1.3877729,1.148252,0.03999631,0.03999994,-4.829983,-4.049253940582275,-7.517374,0.0,-0.0,0.0
2892.766666675889,-0.111869134,-0.5527962,0.55171955,-2.9643736,0.26051572,1.3877729,1.148252,0.03999631,0.03999994,-4.829983,-4.049253940582275,-7.517374,0.0,-0.0,0.0
2892.783333342556,-0.111869134,-0.5527962,0.55171955,-2.9643736,0.26051572,1.3877729,1.148252,0.03999631,0.03999994,-4.829983,-4.049253940582275,-7.517374,0.0,-0.0,0.0
2892.800000009223,-0.111869134,-0.5527962,0.55171955,-2.9643736,0.26051572,1.3877729,1.148252,0.03999631,0.03999994,-4.829983,-4.049253940582275,-7.517374,0.0,-0.0,0.0
2892.81666667589,-0.111869134,-0.5527962,0.55171955,-2.9643736,0.26051572,1.3877729,1.148252,0.03999631,0.03999994,-4.829983,-4.049253940582275,-7.517374,0.0,-0.0,0.0
2892.8333333425567,-0.111869134,-0.5527962,0.55171955,-2.9643736,0.26051572,1.3877729,1.148252,0.03999631,0.03999994,-4.829983,-4.049253940582275,-7.517374,0.0,-0.0,0.0
2892.8500000092235,-0.111869134,-0.5527962,0.55171955,-2.9643736,0.26051572,1.3877729,1.148252,0.03999631,0.03999994,-4.829983,-4.049253940582275,-7.517374,0.0,-0.0,0.0
2892.8666666758904,-0.111869134,-0.5527962,0.55171955,-2.9643736,0.26051572,1.3877729,1.148252,0.03999631,0.03999994,-4.829983,-4.049253940582275,-7.517374,0.0,-0.0,0.0
2892.8833333425573,-0.111869134,-0.5527962,0.55171955,-2.9643736,0.26051572,1.3877729,1.148252,0.03999631,0.03999994,-4.829983,-4.049253940582275,-7.517374,0.0,-0.0,0.0
2892.900000009224,-0.111869134,-0.5527962,0.55171955,-2.9643736,0.26051572,1.3877729,1.148252,0.03999631,0.03999994,-4.829983,-4.049253940582275,-7.517374,0.0,-0.0,0.0
2892.916666675891,-0.111869134,-0.5527962,0.55171955,-2.9643736,0.26051572,1.3877729,1.148252,0.03999631,0.03999994,-4.829983,-4.049253940582275,-7.517374,0.0,-0.0,0.0
2892.933333342558,-0.111869134,-0.5527962,0.55171955,-2.9643736,0.26051572,1.3877729,1.148252,0.03999631,0.03999994,-4.829983,-4.049253940582275,-7.517374,0.0,-0.0,0.0
2892.950000009225,-0.111869134,-0.5527962,0.55171955,-2.9643736,0.26051572,1.3877729,1.148252,0.03999631,0.03999994,-4.829983,-4.049253940582275,-7.517374,0.0,-0.0,0.0
2892.9666666758917,-0.111869134,-0.5527962,0.55171955,-2.9643736,0.26051572,1.3877729,1.148252,0.03999631,0.03999994,-4.829983,-4.049253940582275,-7.517374,0.0,-0.0,0.0
2892.9833333425586,-0.111869134,-0.5527962,0.55171955,-2.9643736,0.26051572,1.3877729,1.148252,0.03999631,0.03999994,-4.829983,-4.049253940582275,-7.517374,0.0,-0.0,0.0
2893.0000000092255,-0.111869134,-0.5527962,0.55171955,-2.9643736,0.26051572,1.3877729,1.148252,0.03999631,0.03999994,-4.829983,-4.049253940582275,-7.517374,0.0,-0.0,0.0
2893.0166666758923,-0.111869134,-0.5527962,0.55171955,-2.9643736,0.26051572,1.3877729,1.148252,0.03999631,0.03999994,-4.829983,-4.049253940582275,-7.517374,0.0,-0.0,0.0
2893.033333342559,-0.111869134,-0.5527962,0.55171955,-2.9643736,0.26051572,1.3877729,1.148252,0.03999631,0.03999994,-4.829983,-4.049253940582275,-7.517374,0.0,-0.0,0.0
2893.050000009226,-0.111869134,-0.5527962,0.55171955,-2.9643736,0.26051572,1.3877729,1.148252,0.03999631,0.03999994,-4.829983,-4.049253940582275,-7.517374,0.0,-0.0,0.0
2893.066666675893,-0.111869134,-0.5527962,0.55171955,-2.9643736,0.26051572,1.3877729,1.148252,0.03999631,0.03999994,-4.829983,-4.049253940582275,-7.517374,0.0,-0.0,0.0
2893.08333334256,-0.111869134,-0.5527962,0.55171955,-2.9643736,0.26051572,1.3877729,1.148252,0.03999631,0.03999994,-4.829983,-4.049253940582275,-7.517374,0.0,-0.0,0.0
2893.1000000092267,-0.111869134,-0.5527962,0.55171955,-2.9643736,0.26051572,1.3877729,1.148252,0.03999631,0.03999994,-4.829983,-4.049253940582275,-7.517374,0.0,-0.0,0.0
