rsonawane2002/My_IMU/logs_test/traj_253/imu_253.csv
time,j1,j2,j3,j4,j5,j6,j7,gripper1,gripper2,imu_ax,imu_ay,imu_az,imu_gx,imu_gy,imu_gz
23.1333333333333,0.00016700293,-0.785875,4.0107683e-05,-2.3551247,9.29385e-05,1.570997,0.786,0.04,0.04,-9.479158,0.027937229722738266,0.08447151,-1.6065465e-08,-0.0011641274904832244,3.7593594e-07
23.149999999999967,0.00016701316,-0.78576016,4.0124178e-05,-2.3552213,9.297884e-05,1.5709941,0.786,0.04,0.04,-9.834407,0.0006609404808841646,0.009095108,-4.2560688e-07,-0.002238714136183262,8.7886593e-07
23.166666666666632,0.00016707515,-0.78565425,4.0206247e-05,-2.35531,9.304925e-05,1.5709913,0.786,0.04,0.04,-9.8323765,0.000800813315436244,0.007595594,-2.708427e-06,-0.0032279568258672953,5.3093015e-07
23.183333333333298,0.00016727782,-0.7855569,4.046313e-05,-2.355391,9.320646e-05,1.5709884,0.786,0.04,0.04,-9.830428,0.001073602237738669,0.0062678456,-8.101963e-06,-0.004138513468205929,-1.1524401e-06
23.199999999999964,0.00016775126,-0.78546727,4.1051844e-05,-2.3554654,9.352963e-05,1.5709856,0.786,0.04,0.04,-9.82853,0.001463928958401084,0.0050919103,-1.7615794e-05,-0.004975117277354002,-4.7333297e-06
23.21666666666663,0.00016866234,-0.78538483,4.2171996e-05,-2.3555334,9.4138486e-05,1.570986,0.7860019,0.04,0.03999999,-9.826721,0.0019694447983056307,0.0040119183,-3.2101914e-05,-0.00574418855831027,-9.194875e-06
23.233333333333295,0.00017021144,-0.78530884,4.4062614e-05,-2.3555987,9.5113704e-05,1.5709866,0.7860038,0.04,0.04,-9.824847,0.0025439225137233734,0.0029814485,-6.0786013e-05,-0.006433865521103144,-1.9643194e-05
23.24999999999996,0.00017262813,-0.78523874,4.6996407e-05,-2.3556578,9.6609496e-05,1.5709875,0.78600764,0.04,0.04,-9.82355,0.003223353298380971,0.0021139127,-9.443159e-05,-0.007080419920384884,-3.2380092e-05
23.266666666666627,0.0001761685,-0.7851744,5.12772e-05,-2.3557155,9.878704e-05,1.5709884,0.78601146,0.04,0.04,-9.821768,0.003979193512350321,0.0013211886,-0.00014184052,-0.007668681442737579,-4.7433397e-05
23.283333333333292,0.00018111241,-0.7851154,5.723622e-05,-2.3557694,0.00010180139,1.5709931,0.7860172,0.04,0.04,-9.820576,0.0047829365357756615,0.00062681385,-0.00019340693,-0.008221990428864956,-6.789942e-05
23.299999999999958,0.00018776022,-0.7850612,6.522895e-05,-2.3558207,0.000105845524,1.5709978,0.7860248,0.039999995,0.039999995,-9.818978,0.005661543924361467,-7.208879e-05,-0.0002576124,-0.008716295473277569,-9.0978014e-05
23.316666666666624,0.00019643089,-0.78501135,7.563248e-05,-2.3558712,0.00011109019,1.5710063,0.78603554,0.03999999,0.04,-9.817562,0.006565156392753124,-0.0006159169,-0.00033308688,-0.009173238649964333,-0.00012098564
23.33333333333329,0.00020745929,-0.7849656,8.884235e-05,-2.3559215,0.00011774417,1.5710151,0.7860489,0.039999988,0.039999995,-9.816309,0.007536933291703463,-0.0011749452,-0.00042397913,-0.009588709101080894,-0.0001540031
23.349999999999955,0.00022119441,-0.78492343,0.000105270876,-2.3559716,0.00012601323,1.5710275,0.78606576,0.039999984,0.03999999,-9.815187,0.008523683995008469,-0.0016110244,-0.0005273516,-0.009981227107346058,-0.000192759
23.36666666666662,0.00023799726,-0.78488463,0.00012534403,-2.3560221,0.00013611192,1.5710437,0.78608614,0.03999998,0.03999999,-9.813936,0.009550360031425953,-0.002078152,-0.0006452947,-0.01033718604594469,-0.00023569794
23.383333333333287,0.00025823904,-0.78484887,0.00014950032,-2.3560727,0.00014825967,1.5710638,0.7861106,0.039999977,0.039999988,-9.81275,0.010597795248031616,-0.0025005399,-0.0007766839,-0.010660512372851372,-0.00028382838
23.399999999999952,0.0002823002,-0.784816,0.0001781884,-2.356124,0.00016268094,1.5710876,0.7861398,0.039999966,0.03999998,-9.811481,0.011650612577795982,-0.0028666838,-0.0009218734,-0.010950293391942978,-0.00033811107
23.416666666666618,0.00031056794,-0.78478587,0.00021186525,-2.3561795,0.00017960566,1.5711153,0.7861738,0.039999954,0.03999997,-9.810265,0.012732488103210926,-0.003171464,-0.0010824425,-0.011210271157324314,-0.00039692697
23.433333333333284,0.00034343553,-0.78475815,0.0002509948,-2.3562376,0.00019926563,1.571147,0.7862134,0.03999995,0.03999997,-9.809479,0.013805428519845009,-0.0034266615,-0.001256788,-0.011458305642008781,-0.00046206993
23.44999999999995,0.00038130107,-0.78473276,0.0002960469,-2.3562968,0.00022189721,1.5711845,0.78625906,0.03999995,0.03999997,-9.808468,0.014893436804413795,-0.0036813999,-0.0014462172,-0.011686372570693493,-0.00053188705
23.466666666666615,0.0004245659,-0.7847094,0.00034749496,-2.3563626,0.00024773736,1.5712274,0.7863111,0.039999947,0.039999966,-9.807096,0.015968143939971924,-0.0039162673,-0.0016508094,-0.011878350749611855,-0.00060726755
23.48333333333328,0.0004736344,-0.784688,0.00040581584,-2.3564315,0.00027702458,1.5712761,0.78637016,0.03999995,0.039999973,-9.806517,0.017038753256201744,-0.0041214162,-0.0018705286,-0.01206502877175808,-0.00068911444
23.499999999999947,0.0005289119,-0.78466827,0.0004714879,-2.3565054,0.00030999922,1.5713308,0.7864367,0.03999995,0.039999977,-9.805385,0.01810014247894287,-0.004298763,-0.002105518,-0.012227656319737434,-0.00077657326
23.516666666666612,0.0005908049,-0.78465015,0.0005449909,-2.3565865,0.0003469015,1.571392,0.78651106,0.039999954,0.039999984,-9.804502,0.0191515926271677,-0.0044735447,-0.0023555574,-0.012375380843877792,-0.000869655
23.533333333333278,0.00065971963,-0.78463364,0.0006268038,-2.3566747,0.00038797184,1.5714604,0.78659385,0.03999996,0.039999995,-9.803794,0.02018221840262413,-0.0046144053,-0.0026205995,-0.012514801695942879,-0.0009683471
23.549999999999944,0.0007360617,-0.7846185,0.0007174052,-2.356766,0.00043345502,1.5715361,0.7866855,0.03999997,0.04,-9.803105,0.021201733499765396,-0.0047600134,-0.0029008097,-0.012646147981286049,-0.0010718075
23.56666666666661,0.00082023465,-0.7846047,0.0008172714,-2.3568642,0.00048359338,1.5716197,0.78678656,0.03999997,0.04,-9.80179,0.022195253521203995,-0.0048908116,-0.003196009,-0.012747307308018208,-0.001180853
23.583333333333275,0.0009126412,-0.78459203,0.0009268771,-2.35697,0.00053861557,1.5717114,0.7868975,0.03999996,0.04,-9.800956,0.023153597488999367,-0.004997786,-0.00350567,-0.012834671884775162,-0.0012963173
23.59999999999994,0.0010136798,-0.78458047,0.0010466932,-2.3570848,0.00059877377,1.5718118,0.7870186,0.039999958,0.03999999,-9.800184,0.02409856952726841,-0.005087487,-0.0038305682,-0.012912916019558907,-0.0014157193
23.616666666666607,0.0011237474,-0.78456986,0.0011771874,-2.3572116,0.0006642855,1.5719213,0.78715056,0.039999954,0.03999999,-9.799518,0.024998227134346962,-0.0051765046,-0.004169519,-0.012983339838683605,-0.001542193
23.633333333333272,0.0012432361,-0.78456014,0.0013188237,-2.3573463,0.00073535705,1.57204,0.7872938,0.039999947,0.04,-9.799236,0.025857165455818176,-0.005284574,-0.0045229066,-0.013060181401669979,-0.001676455
23.649999999999938,0.0013725347,-0.7845514,0.0014720601,-2.3574896,0.00081224716,1.5721684,0.7874487,0.039999947,0.04,-9.798343,0.02671339176595211,-0.005395954,-0.004890573,-0.013122753240168095,-0.0018135504
23.666666666666604,0.0015120273,-0.7845432,0.0016373497,-2.3576415,0.00089519133,1.5723071,0.7876159,0.039999947,0.04,-9.797512,0.02751748263835907,-0.005487862,-0.005272273,-0.013172943145036697,-0.0019550843
23.68333333333327,0.0016620932,-0.7845361,0.0018151413,-2.3578057,0.0009844142,1.5724561,0.7877957,0.03999994,0.039999995,-9.796658,0.028279783204197884,-0.0056088064,-0.0056680087,-0.013208335265517235,-0.002101926
23.699999999999935,0.0018231078,-0.7845295,0.0020058765,-2.35798,0.0010801031,1.5726159,0.78798854,0.039999932,0.04,-9.796249,0.02898053452372551,-0.0056645903,-0.0060772053,-0.013246370479464531,-0.0022571723
23.7166666666666,0.0019954399,-0.7845235,0.0022099921,-2.3581655,0.0011824917,1.5727868,0.7881949,0.03999992,0.039999995,-9.795483,0.029672343283891678,-0.0057761082,-0.0064992206,-0.013274574652314186,-0.0024148675
23.733333333333267,0.0021794534,-0.78451824,0.002427917,-2.358363,0.0012918452,1.5729697,0.78841525,0.03999992,0.039999988,-9.794853,0.030324677005410194,-0.0058811503,-0.0069345967,-0.013296501711010933,-0.00257519
23.749999999999932,0.0023755056,-0.78451335,0.0026600733,-2.358573,0.0014083029,1.5731643,0.7886499,0.03999992,0.04,-9.794224,0.03088032267987728,-0.0059746457,-0.007382847,-0.013311034068465233,-0.0027462116
23.766666666666598,0.0025839484,-0.78450894,0.0029068775,-2.358795,0.0015321402,1.5733713,0.7888995,0.03999992,0.039999995,-9.793741,0.031459830701351166,-0.006097983,-0.007843312,-0.0133248595520854,-0.0029154653
23.783333333333264,0.0028051278,-0.7845051,0.0031687366,-2.35903,0.0016635451,1.573591,0.7891641,0.03999992,0.03999999,-9.793045,0.03194047138094902,-0.0062210457,-0.0083160885,-0.013329741545021534,-0.0030913132
23.79999999999993,0.0030393833,-0.7845018,0.0034460516,-2.3592782,0.0018027001,1.5738236,0.78944445,0.039999917,0.03999999,-9.792502,0.0323665589094162,-0.006334817,-0.008800475,-0.013330789282917976,-0.0032734154
23.816666666666595,0.0032870488,-0.78449875,0.0037392161,-2.3595407,0.0019497944,1.5740694,0.78974086,0.03999991,0.03999999,-9.791931,0.03275558352470398,-0.0064616157,-0.009296802,-0.013326497748494148,-0.0034608615
23.83333333333326,0.0035484487,-0.78449625,0.004048618,-2.359817,0.0021050053,1.5743287,0.7900536,0.039999902,0.04,-9.791466,0.03308366984128952,-0.0066064373,-0.009804566,-0.013321617618203163,-0.0036542856
23.849999999999927,0.0038239043,-0.784494,0.0043746317,-2.3601077,0.0022685474,1.574602,0.79038304,0.0399999,0.04,-9.790925,0.03337443247437477,-0.006749453,-0.010322963,-0.013312454335391521,-0.0038496535
23.866666666666593,0.0041137272,-0.78449184,0.0047176275,-2.3604126,0.0024405993,1.5748897,0.7907297,0.039999895,0.04,-9.790421,0.03360161930322647,-0.0069210418,-0.010851523,-0.013300009071826935,-0.0040500965
23.88333333333326,0.004418225,-0.78449017,0.005077968,-2.360733,0.002621344,1.5751916,0.791094,0.039999887,0.04,-9.789866,0.033774521201848984,-0.0071107666,-0.011390509,-0.013282502070069313,-0.004254735
23.899999999999924,0.0047376947,-0.78448874,0.0054560043,-2.3610687,0.0028109648,1.5755087,0.791476,0.03999988,0.04,-9.789408,0.03388937935233116,-0.00727499,-0.011940152,-0.013262913562357426,-0.0044626505
23.91666666666659,0.0050724293,-0.7844878,0.005852083,-2.3614204,0.00300961,1.5758407,0.7918763,0.03999987,0.04,-9.788922,0.03393176943063736,-0.0074818553,-0.012498625,-0.013239745981991291,-0.0046770116
23.933333333333255,0.005422713,-0.78448707,0.006266541,-2.361788,0.0032174934,1.5761882,0.7922952,0.039999865,0.039999995,-9.788496,0.033951058983802795,-0.0076639866,-0.0130666625,-0.013215240091085434,-0.0048912293
23.94999999999992,0.0057888245,-0.78448653,0.006699705,-2.3621714,0.0034347433,1.5765513,0.792733,0.03999986,0.04,-9.788041,0.03386805206537247,-0.007895529,-0.013644006,-0.013187984935939312,-0.005112503
23.966666666666587,0.0061710337,-0.78448623,0.0071518933,-2.3625717,0.0036615373,1.5769303,0.7931899,0.039999854,0.04,-9.787502,0.03374369442462921,-0.0081382515,-0.014229488,-0.013154442422091961,-0.005335946
23.983333333333253,0.0065696035,-0.7844861,0.0076234196,-2.3629894,0.0038980239,1.5773257,0.7936663,0.039999846,0.04,-9.787135,0.03355596959590912,-0.008379619,-0.014822577,-0.013121928088366985,-0.005563786
23.99999999999992,0.0069847894,-0.7844861,0.008114584,-2.363424,0.0041443612,1.5777373,0.7941626,0.039999846,0.04,-9.786799,0.0333113856613636,-0.008648408,-0.015423503,-0.013089018873870373,-0.005794426
24.016666666666584,0.0074168416,-0.7844863,0.0086256815,-2.3638759,0.00440069,1.578166,0.794679,0.03999984,0.04,-9.786347,0.03299005702137947,-0.008934397,-0.016032198,-0.013053570874035358,-0.00602933
24.03333333333325,0.007865999,-0.7844866,0.009156998,-2.3643458,0.0046671694,1.5786111,0.7952158,0.03999984,0.04,-9.785938,0.03262066841125488,-0.009234918,-0.016647844,-0.013014300726354122,-0.0062660337
24.049999999999915,0.008332496,-0.7844871,0.009708811,-2.3648334,0.004943923,1.5790738,0.7957733,0.039999828,0.04,-9.785577,0.03216981142759323,-0.009546649,-0.017270025,-0.012976392172276974,-0.006507677
24.06666666666658,0.008816561,-0.7844878,0.010281384,-2.3653393,0.005231072,1.5795538,0.79635185,0.039999824,0.04,-9.785188,0.031656764447689056,-0.00988118,-0.017898822,-0.012934627942740917,-0.0067531643
24.083333333333247,0.009318414,-0.7844887,0.010874983,-2.3658636,0.005528771,1.5800513,0.79695165,0.039999813,0.04,-9.7848425,0.03108830749988556,-0.010227281,-0.018533614,-0.01289220992475748,-0.0070002265
24.099999999999913,0.009838268,-0.78448975,0.011489853,-2.3664064,0.0058371304,1.5805668,0.7975728,0.039999805,0.04,-9.784492,0.030434807762503624,-0.010576232,-0.019174248,-0.012848896905779839,-0.0072510927
24.11666666666658,0.010376327,-0.78449094,0.0121262465,-2.3669684,0.006156268,1.5811002,0.79821575,0.039999798,0.04,-9.7841215,0.029730305075645447,-0.010961623,-0.019819371,-0.012802532874047756,-0.0075056823
24.133333333333244,0.010932789,-0.7844924,0.012784387,-2.36755,0.006486321,1.5816519,0.79888064,0.03999979,0.04,-9.783799,0.028960540890693665,-0.011352085,-0.020469496,-0.012755898758769035,-0.0077614514
24.14999999999991,0.0115078455,-0.784494,0.013464504,-2.36815,0.0068273777,1.582222,0.7995677,0.039999783,0.04,-9.78355,0.02810126356780529,-0.011768717,-0.02112424,-0.012710398994386196,-0.008021611
24.166666666666575,0.012101679,-0.7844957,0.014166813,-2.3687701,0.007179571,1.5828106,0.80027705,0.039999776,0.04,-9.783124,0.027197957038879395,-0.012200616,-0.021783141,-0.012660146690905094,-0.008282836
24.18333333333324,0.012714467,-0.7844976,0.014891524,-2.3694098,0.0075430046,1.583418,0.80100876,0.039999776,0.04,-9.7829075,0.02620922029018402,-0.012648927,-0.022444887,-0.012611817568540573,-0.008546642
24.199999999999907,0.013346372,-0.7844997,0.015638834,-2.3700688,0.007917783,1.5840442,0.80176365,0.03999977,0.039999995,-9.782559,0.025161094963550568,-0.013124739,-0.023108723,-0.012561040930449963,-0.008812366
24.216666666666573,0.013997568,-0.7845019,0.016408939,-2.3707488,0.008303962,1.5846897,0.80254173,0.03999976,0.04,-9.782245,0.0240024384111166,-0.0136045925,-0.023777373,-0.012508148327469826,-0.009084345
24.23333333333324,0.014668201,-0.7845041,0.017202018,-2.3714485,0.008701657,1.5853547,0.80334294,0.039999753,0.04,-9.782042,0.022828523069620132,-0.0141228605,-0.02444935,-0.012456892989575863,-0.009356256
24.249999999999904,0.015358418,-0.78450644,0.018018248,-2.3721688,0.009110968,1.5860388,0.8041675,0.03999975,0.04,-9.781756,0.021563056856393814,-0.014659854,-0.025123259,-0.012403959408402443,-0.009629594
24.26666666666657,0.016068364,-0.7845089,0.018857792,-2.3729093,0.009531987,1.5867424,0.8050156,0.039999742,0.04,-9.781502,0.020228516310453415,-0.015205702,-0.025799163,-0.01235104724764824,-0.009904463
24.283333333333236,0.016798172,-0.78451145,0.01972081,-2.3736706,0.009964762,1.5874661,0.8058874,0.039999735,0.04,-9.781231,0.018805786967277527,-0.015770197,-0.026476385,-0.012297403998672962,-0.010183876
24.2999999999999,0.01754797,-0.784514,0.020607458,-2.3744528,0.010409384,1.5882092,0.806783,0.039999727,0.04,-9.780977,0.017323501408100128,-0.016363997,-0.027154444,-0.012241017073392868,-0.010464497
24.316666666666567,0.018317878,-0.78451663,0.021517877,-2.3752556,0.010865921,1.5889721,0.8077027,0.039999723,0.04,-9.780785,0.015766628086566925,-0.01696498,-0.027833179,-0.012188036926090717,-0.010747034
24.333333333333233,0.019108003,-0.78451943,0.022452192,-2.3760798,0.011334452,1.5897553,0.8086465,0.039999716,0.04,-9.780514,0.01413881778717041,-0.017607609,-0.028512677,-0.01213281974196434,-0.011030759
24.3499999999999,0.01991846,-0.7845224,0.023410536,-2.3769255,0.01181501,1.5905583,0.8096144,0.039999712,0.04,-9.780343,0.012417607009410858,-0.018249847,-0.029192189,-0.012078124098479748,-0.011318675
24.366666666666564,0.02074935,-0.78452545,0.024393024,-2.3777914,0.0123077,1.5913819,0.8106069,0.03999971,0.04,-9.780148,0.010669790208339691,-0.018909093,-0.029870441,-0.012024463154375553,-0.011604381
24.38333333333323,0.021600759,-0.7845286,0.025399763,-2.3786788,0.012812557,1.5922256,0.8116238,0.039999705,0.04,-9.779849,0.008807800710201263,-0.019607238,-0.030549213,-0.011966072022914886,-0.0118934885
24.399999999999896,0.022472776,-0.78453183,0.026430866,-2.3795881,0.013329638,1.5930898,0.81266534,0.0399997,0.04,-9.779655,0.006884165108203888,-0.02030268,-0.031226251,-0.011908981949090958,-0.012184268
24.41666666666656,0.023365485,-0.7845352,0.027486421,-2.3805192,0.013858973,1.5939747,0.8137315,0.039999694,0.04,-9.779504,0.004877891391515732,-0.021030914,-0.03190235,-0.011852067895233631,-0.012477472
24.433333333333227,0.02427895,-0.7845387,0.028566511,-2.3814714,0.014400619,1.5948799,0.8148227,0.039999686,0.04,-9.779347,0.002808447927236557,-0.021776566,-0.03257604,-0.011795072816312313,-0.01277135
24.449999999999893,0.025213249,-0.7845422,0.029671222,-2.3824458,0.014954607,1.5958056,0.81593865,0.039999675,0.04,-9.77915,0.0006573833525180817,-0.02254361,-0.03324909,-0.011738640256226063,-0.013067494
24.46666666666656,0.026168438,-0.78454596,0.030800616,-2.383442,0.015520957,1.596752,0.81707937,0.039999675,0.04,-9.779066,-0.0015780292451381683,-0.023332162,-0.03391923,-0.011684400029480457,-0.01336579
24.483333333333224,0.027144564,-0.7845498,0.03195476,-2.38446,0.016099723,1.5977193,0.81824505,0.03999967,0.04,-9.778857,-0.003862079232931137,-0.024128605,-0.034585766,-0.011629126034677029,-0.013663893
24.49999999999989,0.028141677,-0.7845537,0.033133715,-2.3854992,0.016690938,1.5987072,0.8194357,0.03999966,0.04,-9.778754,-0.006239771842956543,-0.02495802,-0.035248976,-0.011575253680348396,-0.013964028
24.516666666666556,0.029159825,-0.7845579,0.03433752,-2.3865607,0.017294612,1.5997161,0.82065165,0.039999656,0.04,-9.7785,-0.008693546056747437,-0.025799757,-0.03590846,-0.011518307961523533,-0.014265389
24.53333333333322,0.030199043,-0.784562,0.035566222,-2.387644,0.017910762,1.6007458,0.82189274,0.03999965,0.04,-9.778406,-0.01121724396944046,-0.026658133,-0.036565147,-0.011461793445050716,-0.014567921
24.549999999999887,0.031259354,-0.78456604,0.036819864,-2.388749,0.018539412,1.6017964,0.82315886,0.03999964,0.04,-9.778276,-0.013824257999658585,-0.027546145,-0.03721743,-0.0114064309746027,-0.01487158
24.566666666666553,0.03234078,-0.7845703,0.038098454,-2.3898766,0.01918058,1.6028678,0.8244502,0.039999627,0.04,-9.778077,-0.016503777354955673,-0.02846113,-0.037864875,-0.01134859025478363,-0.015177191
24.58333333333322,0.033443335,-0.78457457,0.039402027,-2.3910258,0.01983426,1.6039602,0.8257668,0.039999627,0.04,-9.778117,-0.019252751022577286,-0.029368425,-0.03850759,-0.011297314427793026,-0.015482917
24.599999999999884,0.03456704,-0.78457904,0.0407306,-2.3921967,0.020500477,1.6050735,0.8271087,0.039999615,0.04,-9.777931,-0.0220944844186306,-0.030322531,-0.039145384,-0.011243194341659546,-0.015789697
24.61666666666655,0.035711896,-0.78458357,0.042084157,-2.39339,0.02117923,1.6062077,0.8284757,0.039999615,0.04,-9.777761,-0.024987872689962387,-0.031268965,-0.03977767,-0.011187323369085789,-0.016096503
24.633333333333216,0.03687789,-0.7845882,0.043462712,-2.3946052,0.021870514,1.607363,0.8298681,0.03999961,0.04,-9.777729,-0.027974050492048264,-0.03224272,-0.040404174,-0.011134490370750427,-0.016405031
24.64999999999988,0.03806503,-0.784593,0.044866253,-2.3958428,0.022574326,1.6085392,0.8312856,0.039999597,0.04,-9.777592,-0.031041011214256287,-0.03323954,-0.04102515,-0.011079908348619938,-0.016715312
24.666666666666547,0.039273296,-0.7845979,0.046294756,-2.3971026,0.02329066,1.6097362,0.83272815,0.039999586,0.04,-9.777599,-0.03416147455573082,-0.034237288,-0.041639317,-0.011028802953660488,-0.017024666
24.683333333333213,0.04050267,-0.7846029,0.047748204,-2.3983843,0.024019515,1.610954,0.83419603,0.03999958,0.04,-9.777527,-0.037379659712314606,-0.03526164,-0.042246293,-0.010979484766721725,-0.017335631
24.69999999999988,0.04175313,-0.7846079,0.04922658,-2.3996875,0.02476085,1.612193,0.83568895,0.03999958,0.04,-9.777448,-0.04067165032029152,-0.036310047,-0.042846803,-0.01093098521232605,-0.017647333
24.716666666666544,0.043024648,-0.784613,0.05072982,-2.401013,0.025514657,1.6134529,0.837207,0.03999957,0.04,-9.777297,-0.044046800583601,-0.0373854,-0.043439697,-0.01087881252169609,-0.01796058
24.73333333333321,0.04431718,-0.7846182,0.052257895,-2.4023604,0.026280936,1.6147333,0.8387502,0.03999956,0.04,-9.777296,-0.04747398942708969,-0.038460802,-0.04402499,-0.010829527862370014,-0.018272895
24.749999999999876,0.045630675,-0.78462356,0.053810764,-2.4037297,0.027059639,1.6160345,0.84031856,0.039999556,0.04,-9.777304,-0.05099346116185188,-0.039548427,-0.04460293,-0.010784048587083817,-0.01858641
24.76666666666654,0.04696511,-0.78462887,0.055388357,-2.4051201,0.02785075,1.6173565,0.84191185,0.03999954,0.04,-9.777198,-0.05458729341626167,-0.040659696,-0.045173578,-0.010737565346062183,-0.018900959
24.783333333333207,0.048320416,-0.78463435,0.056990627,-2.406532,0.02865423,1.6186993,0.84353,0.039999533,0.04,-9.77708,-0.05825892835855484,-0.041792907,-0.045735955,-0.010689424350857735,-0.019215666
24.799999999999873,0.049696535,-0.78463984,0.05861748,-2.407966,0.029470047,1.6200626,0.845173,0.03999953,0.04,-9.777023,-0.06201095134019852,-0.042919144,-0.046289306,-0.010640503838658333,-0.019531067
24.81666666666654,0.05109342,-0.78464556,0.060268868,-2.4094217,0.030298166,1.6214465,0.84684074,0.03999953,0.04,-9.777023,-0.06583504378795624,-0.044075157,-0.046834096,-0.010594715364277363,-0.019847117
24.833333333333204,0.052510988,-0.78465134,0.061944705,-2.410899,0.03113857,1.6228508,0.8485331,0.03999951,0.04,-9.777058,-0.0697333961725235,-0.04521888,-0.047369696,-0.010552061721682549,-0.020163426
24.84999999999987,0.05394917,-0.7846573,0.06364489,-2.412398,0.03199117,1.6242754,0.85025007,0.039999515,0.04,-9.777012,-0.07370959967374802,-0.046402425,-0.047895506,-0.010509222745895386,-0.020479392
24.866666666666536,0.055407878,-0.7846633,0.06536935,-2.413918,0.032855958,1.6257203,0.85199165,0.039999507,0.04,-9.777037,-0.07775969803333282,-0.047584694,-0.048412245,-0.010469119995832443,-0.020796675
24.8833333333332,0.056887034,-0.78466934,0.067117974,-2.4154594,0.033732865,1.6271846,0.8537575,0.039999504,0.04,-9.776958,-0.08188532292842865,-0.04878751,-0.04891972,-0.010428582318127155,-0.021114223
24.899999999999867,0.058386553,-0.78467536,0.06889065,-2.417022,0.034621835,1.6286714,0.85554767,0.039999496,0.04,-9.777015,-0.08608986437320709,-0.0499963,-0.049416605,-0.010394226759672165,-0.021432223
24.916666666666533,0.05990636,-0.7846816,0.07068726,-2.4186053,0.03552282,1.6301774,0.857362,0.039999478,0.04,-9.776966,-0.09037472307682037,-0.051275536,-0.049903452,-0.010351303964853287,-0.021750756
24.9333333333332,0.0614463,-0.78468794,0.07250771,-2.420209,0.036435734,1.6317028,0.85920036,0.039999478,0.04,-9.776935,-0.09473323076963425,-0.05247167,-0.050379552,-0.010311707854270935,-0.022071037
24.949999999999864,0.06300632,-0.78469425,0.074351855,-2.421835,0.03736057,1.6332482,0.8610627,0.039999474,0.04,-9.776881,-0.09914299845695496,-0.05369898,-0.050845433,-0.010272692888975143,-0.022387618
24.96666666666653,0.0645863,-0.78470063,0.07621959,-2.4234812,0.038297243,1.6348134,0.86294883,0.039999463,0.04,-9.777097,-0.10366085171699524,-0.05494315,-0.0513005,-0.010242288000881672,-0.022706795
24.983333333333196,0.0661861,-0.7847071,0.07811076,-2.4251482,0.039245684,1.6363982,0.8648586,0.039999455,0.04,-9.777018,-0.10824522376060486,-0.056221608,-0.05174461,-0.010209828615188599,-0.023026358
24.99999999999986,0.06780565,-0.7847137,0.080025226,-2.4268358,0.040205806,1.6380022,0.86679196,0.03999945,0.04,-9.777092,-0.11289413273334503,-0.05748293,-0.052177407,-0.010180781595408916,-0.023346126
25.016666666666527,0.0694448,-0.78472024,0.08196286,-2.428544,0.04117756,1.6396259,0.8687488,0.03999944,0.04,-9.777144,-0.11762971431016922,-0.05874823,-0.05259905,-0.01015567872673273,-0.023665825
25.033333333333193,0.07110343,-0.784727,0.0839235,-2.4302726,0.042160846,1.6412688,0.8707288,0.039999433,0.04,-9.777187,-0.12244173884391785,-0.060062535,-0.053009648,-0.01013096421957016,-0.023986692
25.04999999999986,0.07278141,-0.7847338,0.085907005,-2.432021,0.043155577,1.6429309,0.87273186,0.039999418,0.04,-9.777241,-0.12731899321079254,-0.0613385,-0.05340836,-0.010109199211001396,-0.024307627
25.066666666666524,0.07447857,-0.78474087,0.08791319,-2.4337897,0.044161677,1.6446117,0.87475795,0.03999941,0.04,-9.777247,-0.13228216767311096,-0.06264472,-0.053794973,-0.010088111273944378,-0.024629258
25.08333333333319,0.0761948,-0.78474796,0.08994188,-2.4355779,0.045179088,1.6463118,0.87680656,0.039999403,0.04,-9.777359,-0.13729409873485565,-0.06392515,-0.05417035,-0.010071603581309319,-0.024949037
25.099999999999856,0.077929914,-0.7847551,0.09199293,-2.437386,0.046207685,1.6480302,0.8788779,0.03999939,0.04,-9.777326,-0.14241494238376617,-0.06525215,-0.054532334,-0.010052178986370564,-0.025271865
25.11666666666652,0.079683825,-0.7847623,0.09406615,-2.439214,0.047247443,1.6497672,0.8809716,0.039999377,0.04,-9.777452,-0.14756031334400177,-0.06655178,-0.054883204,-0.010039271786808968,-0.025590349
25.133333333333187,0.08145636,-0.78476954,0.096161395,-2.4410603,0.04829822,1.6515228,0.8830875,0.039999373,0.04,-9.77754,-0.15283161401748657,-0.06786878,-0.05522153,-0.010029268451035023,-0.025911953
25.149999999999853,0.08324736,-0.7847769,0.09827841,-2.4429264,0.049359944,1.6532965,0.8852256,0.039999362,0.04,-9.777495,-0.15816548466682434,-0.069196776,-0.055547077,-0.010017355903983116,-0.026233885
25.16666666666652,0.085056655,-0.78478444,0.100417055,-2.4448116,0.050432485,1.6550885,0.88738513,0.03999935,0.04,-9.777635,-0.16355575621128082,-0.07049261,-0.05586088,-0.01001032069325447,-0.026555656
25.183333333333184,0.086884096,-0.78479207,0.10257713,-2.446715,0.051515803,1.6568986,0.8895666,0.03999934,0.04,-9.777702,-0.1690123826265335,-0.071828336,-0.05616006,-0.010003965348005295,-0.026873996
25.19999999999985,0.0887295,-0.7847998,0.1047584,-2.448638,0.05260978,1.6587265,0.89176923,0.039999336,0.04,-9.777736,-0.17456142604351044,-0.073128596,-0.05644765,-0.009998750872910023,-0.02719365
25.216666666666516,0.090592675,-0.7848076,0.106960684,-2.4505792,0.0537143,1.6605716,0.893993,0.039999332,0.04,-9.777865,-0.18017160892486572,-0.074434415,-0.056721114,-0.009996971115469933,-0.02751303
25.23333333333318,0.09247346,-0.78481555,0.10918376,-2.452539,0.05482928,1.6624345,0.8962379,0.039999325,0.04,-9.777978,-0.18585005402565002,-0.075738475,-0.056981564,-0.01000012457370758,-0.027831394
25.249999999999847,0.094371684,-0.7848235,0.111427404,-2.454517,0.055954594,1.6643145,0.8985039,0.039999325,0.04,-9.778058,-0.19161230325698853,-0.07705641,-0.0572292,-0.010004006326198578,-0.028150937
25.266666666666513,0.09628715,-0.7848316,0.11369144,-2.4565125,0.05709017,1.6662115,0.90079015,0.039999314,0.04,-9.77819,-0.19742408394813538,-0.07836212,-0.05746531,-0.010012837126851082,-0.02846946
25.28333333333318,0.09821966,-0.78483987,0.115975596,-2.4585257,0.05823585,1.6681256,0.9030968,0.039999314,0.04,-9.7782135,-0.20333832502365112,-0.07965597,-0.05768644,-0.010021465830504894,-0.028788008
25.299999999999844,0.10016905,-0.7848482,0.11827965,-2.4605565,0.059391536,1.6700561,0.9054235,0.039999306,0.04,-9.778308,-0.20929327607154846,-0.08094769,-0.057894714,-0.010031703859567642,-0.029106138
25.31666666666651,0.10213506,-0.7848565,0.12060338,-2.4626048,0.060557105,1.6720031,0.90777016,0.039999302,0.04,-9.77845,-0.2153341919183731,-0.08222395,-0.058089487,-0.010047554038465023,-0.029424218
25.333333333333176,0.10411757,-0.7848649,0.12294655,-2.4646702,0.06173244,1.6739664,0.91013634,0.039999302,0.04,-9.778559,-0.22142936289310455,-0.08351859,-0.058271132,-0.010066035203635693,-0.029741785
25.34999999999984,0.10611634,-0.7848734,0.12530895,-2.4667523,0.06291745,1.6759462,0.91252196,0.0399993,0.04,-9.778676,-0.2276192307472229,-0.084780954,-0.058438852,-0.010088241659104824,-0.030058948
25.366666666666507,0.10813117,-0.78488183,0.1276903,-2.4688518,0.06411198,1.6779417,0.9149268,0.03999929,0.04,-9.778762,-0.23385779559612274,-0.086057186,-0.058593158,-0.010110571049153805,-0.030375894
25.383333333333173,0.11016185,-0.7848904,0.13009043,-2.4709675,0.0653159,1.6799526,0.9173506,0.03999929,0.04,-9.778989,-0.24017146229743958,-0.08730739,-0.05873445,-0.010141298174858093,-0.030691795
25.39999999999984,0.11220814,-0.78489906,0.13250893,-2.473099,0.06652911,1.6819792,0.91979307,0.039999284,0.04,-9.779082,-0.2465539127588272,-0.08854812,-0.058862258,-0.01017427071928978,-0.031007359
25.416666666666504,0.11426984,-0.78490764,0.1349456,-2.4752464,0.06775147,1.6840209,0.9222538,0.039999284,0.04,-9.779113,-0.2530060410499573,-0.089787744,-0.05897668,-0.01020736712962389,-0.031323686
25.43333333333317,0.11634673,-0.7849164,0.13740022,-2.4774096,0.06898284,1.6860777,0.92473274,0.039999276,0.04,-9.779252,-0.2595095634460449,-0.091009736,-0.059077207,-0.01024472527205944,-0.031638682
25.449999999999836,0.11843862,-0.7849252,0.13987254,-2.4795885,0.07022306,1.6881492,0.92722946,0.039999265,0.04,-9.779371,-0.26610493659973145,-0.09220745,-0.059164673,-0.010284874588251114,-0.031955615
25.4666666666665,0.12054524,-0.78493434,0.14236222,-2.4817832,0.07147204,1.6902355,0.92974365,0.039999258,0.04,-9.779524,-0.27274656295776367,-0.09338309,-0.059237946,-0.01032918319106102,-0.03226965
25.483333333333167,0.12266639,-0.7849434,0.14486903,-2.4839933,0.072729595,1.6923358,0.93227535,0.03999925,0.04,-9.779676,-0.2794625163078308,-0.09454498,-0.059297513,-0.01037715282291174,-0.03258475
25.499999999999833,0.12480184,-0.7849527,0.14739272,-2.4862182,0.07399564,1.6944504,0.93482393,0.03999924,0.04,-9.779908,-0.2862241566181183,-0.09570042,-0.05934469,-0.01043370459228754,-0.03289698
25.5166666666665,0.12695129,-0.78496206,0.14993297,-2.4884574,0.07527001,1.6965791,0.9373894,0.03999923,0.04,-9.780002,-0.2930625081062317,-0.096840456,-0.05937739,-0.010491249151527882,-0.033207677
25.533333333333164,0.12911458,-0.7849714,0.15248951,-2.4907105,0.07655256,1.6987214,0.9399713,0.039999224,0.04,-9.780069,-0.2999776303768158,-0.097975865,-0.059397455,-0.010549211874604225,-0.033519752
25.54999999999983,0.1312914,-0.78498083,0.15506206,-2.4929776,0.07784317,1.700877,0.9425693,0.039999217,0.04,-9.780188,-0.3069521486759186,-0.09907832,-0.059404034,-0.010610799305140972,-0.03383067
25.566666666666496,0.13348155,-0.7849904,0.15765037,-2.4952588,0.07914168,1.7030458,0.9451833,0.03999921,0.04,-9.780317,-0.3139694035053253,-0.10015084,-0.059396785,-0.010676156729459763,-0.034138978
25.58333333333316,0.13568476,-0.7850001,0.16025405,-2.4975538,0.08044794,1.7052277,0.94781286,0.03999921,0.04,-9.780474,-0.32107794284820557,-0.101208046,-0.059376802,-0.010744833387434483,-0.034447894
25.599999999999827,0.13790081,-0.78500974,0.1628729,-2.4998624,0.08176183,1.7074224,0.95045745,0.039999206,0.04,-9.780657,-0.3281974494457245,-0.10223334,-0.05934399,-0.01081883255392313,-0.034752924
25.616666666666493,0.14012948,-0.7850195,0.16550662,-2.5021834,0.08308323,1.709629,0.9531174,0.039999202,0.04,-9.780813,-0.3354252576828003,-0.10325266,-0.05929634,-0.010896675288677216,-0.035057694
25.63333333333316,0.14237046,-0.78502923,0.16815488,-2.5045176,0.084411904,1.7118485,0.95579183,0.039999194,0.04,-9.780909,-0.34271061420440674,-0.10423198,-0.059236918,-0.01097874529659748,-0.035361327
25.649999999999824,0.14462352,-0.78503895,0.17081732,-2.5068645,0.08574771,1.7140796,0.9584808,0.039999194,0.04,-9.781081,-0.3500436544418335,-0.10521078,-0.059163958,-0.01106337271630764,-0.035663225
25.66666666666649,0.14688836,-0.78504866,0.17349365,-2.5092242,0.08709057,1.7163223,0.96118367,0.03999919,0.04,-9.781265,-0.3574269711971283,-0.10613992,-0.059078414,-0.01115463487803936,-0.035963953
25.683333333333156,0.14916472,-0.78505856,0.17618364,-2.5115948,0.088440254,1.7185767,0.9639003,0.039999187,0.04,-9.781471,-0.36486387252807617,-0.1070508,-0.058980066,-0.011252536438405514,-0.03626291
25.69999999999982,0.15145235,-0.78506863,0.17888688,-2.5139785,0.08979663,1.720842,0.9666304,0.039999183,0.04,-9.781477,-0.3723847270011902,-0.107942834,-0.058868825,-0.011348818428814411,-0.036560666
25.716666666666487,0.15375105,-0.7850788,0.18160315,-2.5163722,0.091159575,1.7231182,0.96937364,0.039999176,0.04,-9.781813,-0.3799278140068054,-0.10875439,-0.05874566,-0.011455872096121311,-0.036856193
25.733333333333153,0.15606044,-0.78508925,0.18433209,-2.5187783,0.0925289,1.7254049,0.97212976,0.039999172,0.04,-9.781752,-0.38755908608436584,-0.109596714,-0.058609128,-0.011560121551156044,-0.037149865
25.74999999999982,0.15838033,-0.7850996,0.1870734,-2.521194,0.09390445,1.727702,0.97489834,0.039999172,0.04,-9.782057,-0.3952315151691437,-0.110358484,-0.05846088,-0.011674446985125542,-0.03744294
25.766666666666485,0.16071042,-0.78511,0.18982674,-2.523621,0.095286064,1.7300096,0.97767913,0.039999165,0.04,-9.782021,-0.402975857257843,-0.11114957,-0.05830005,-0.011786241084337234,-0.037733864
25.78333333333315,0.16305044,-0.7851205,0.19259177,-2.5260582,0.09667356,1.7323266,0.98047173,0.039999157,0.04,-9.78226,-0.41075122356414795,-0.11186491,-0.05812742,-0.011905113235116005,-0.03802339
25.799999999999816,0.16540012,-0.78513086,0.1953682,-2.5285056,0.09806678,1.7346531,0.9832758,0.039999157,0.04,-9.782403,-0.41857680678367615,-0.11253565,-0.0579426,-0.012028818018734455,-0.038310688
25.81666666666648,0.16775914,-0.7851415,0.19815564,-2.5309627,0.09946558,1.7369891,0.98609096,0.039999153,0.04,-9.782561,-0.4264645576477051,-0.11319666,-0.05774589,-0.012158350087702274,-0.038593758
25.833333333333147,0.17012727,-0.785152,0.20095381,-2.533429,0.10086978,1.739334,0.988917,0.03999915,0.04,-9.782696,-0.4343991279602051,-0.11380408,-0.05753747,-0.012290477752685547,-0.03887668
25.849999999999813,0.17250423,-0.7851627,0.20376232,-2.5359046,0.10227923,1.7416877,0.9917536,0.039999146,0.04,-9.782815,-0.44239211082458496,-0.11440007,-0.057317525,-0.012427055276930332,-0.039156437
25.86666666666648,0.17488973,-0.7851732,0.20658092,-2.538389,0.10369376,1.7440498,0.9946005,0.03999913,0.04,-9.782962,-0.45042458176612854,-0.11493454,-0.057086397,-0.012567942030727863,-0.039433956
25.883333333333145,0.17728347,-0.7851838,0.2094092,-2.5408819,0.105113156,1.7464198,0.9974571,0.039999135,0.04,-9.783094,-0.45851564407348633,-0.11545726,-0.056844227,-0.012713253498077393,-0.039708536
25.89999999999981,0.17968519,-0.7851945,0.21224692,-2.5433834,0.10653728,1.7487979,1.0003229,0.03999913,0.04,-9.783242,-0.46663519740104675,-0.11590265,-0.056590877,-0.012864373624324799,-0.03997949
25.916666666666476,0.18209456,-0.7852054,0.21509363,-2.5458927,0.107966006,1.7511836,1.0031979,0.03999913,0.04,-9.783402,-0.47482556104660034,-0.11632219,-0.05632559,-0.013019878417253494,-0.04024826
25.93333333333314,0.18451126,-0.78521645,0.21794906,-2.54841,0.10939909,1.7535766,1.006082,0.03999912,0.04,-9.783495,-0.48305538296699524,-0.116707936,-0.05604917,-0.013177971355617046,-0.040515687
25.949999999999807,0.18693508,-0.78522754,0.22081281,-2.5509346,0.11083641,1.7559767,1.0089744,0.039999124,0.04,-9.783653,-0.49130114912986755,-0.11703871,-0.055763904,-0.013341031968593597,-0.040776588
25.966666666666473,0.18936573,-0.78523874,0.22368455,-2.5534658,0.11227775,1.7583835,1.0118747,0.03999912,0.04,-9.783772,-0.499625563621521,-0.117332004,-0.055467952,-0.013508365489542484,-0.041037694
25.98333333333314,0.19180286,-0.7852498,0.22656396,-2.5560036,0.113722935,1.7607968,1.0147825,0.03999912,0.04,-9.783834,-0.5079978108406067,-0.11758658,-0.055159748,-0.013677844777703285,-0.04129475
25.999999999999805,0.19424629,-0.78526086,0.22945069,-2.558548,0.115171835,1.7632163,1.0176978,0.03999912,0.04,-9.783918,-0.5163778066635132,-0.11780861,-0.054841623,-0.01384984701871872,-0.04154675
26.01666666666647,0.19669558,-0.785272,0.2323443,-2.5610986,0.11662426,1.7656415,1.0206203,0.039999116,0.04,-9.784063,-0.5248329043388367,-0.1179591,-0.054512683,-0.014028175733983517,-0.041797325
26.033333333333136,0.19915044,-0.7852829,0.23524453,-2.5636554,0.11808003,1.7680722,1.0235498,0.039999116,0.04,-9.784199,-0.5332928895950317,-0.11806189,-0.054176174,-0.014211282134056091,-0.042043168
26.0499999999998,0.20161058,-0.7852941,0.238151,-2.566218,0.119538985,1.7705083,1.0264862,0.03999912,0.04,-9.784344,-0.5418005585670471,-0.11814397,-0.053831223,-0.014400185085833073,-0.042284086
26.066666666666467,0.20407581,-0.7853053,0.24106336,-2.568785,0.12100092,1.7729492,1.0294275,0.039999116,0.04,-9.784481,-0.5503684282302856,-0.11814321,-0.05347989,-0.014594458974897861,-0.0425238
26.083333333333133,0.20654571,-0.7853167,0.24398129,-2.5713573,0.12246566,1.7753946,1.0323759,0.039999112,0.04,-9.784504,-0.5589569211006165,-0.11811119,-0.053115096,-0.01479029469192028,-0.042759083
26.0999999999998,0.20902005,-0.7853282,0.24690434,-2.573934,0.12393301,1.7778444,1.0353286,0.039999105,0.04,-9.784608,-0.567593514919281,-0.11802394,-0.052747957,-0.01499114464968443,-0.042990033
26.116666666666465,0.21149848,-0.7853398,0.24983226,-2.5765152,0.1254028,1.7802985,1.0382856,0.039999105,0.04,-9.784666,-0.5762414932250977,-0.11788942,-0.052367613,-0.015194299630820751,-0.043216903
26.13333333333313,0.21398075,-0.78535134,0.2527646,-2.5791008,0.12687488,1.7827562,1.0412474,0.039999105,0.04,-9.784757,-0.5849294662475586,-0.11769939,-0.051976237,-0.015401146374642849,-0.04343846
26.149999999999796,0.21646652,-0.78536284,0.2557011,-2.5816896,0.12834905,1.7852176,1.0442134,0.039999105,0.04,-9.784912,-0.5936562418937683,-0.1174609,-0.05157798,-0.015614432282745838,-0.043656264
26.166666666666462,0.21895552,-0.78537446,0.2586413,-2.5842814,0.12982515,1.7876819,1.0471832,0.039999105,0.04,-9.784946,-0.6024070978164673,-0.117190525,-0.05117205,-0.015830043703317642,-0.04386784
26.183333333333128,0.22144736,-0.78538597,0.2615849,-2.5868766,0.13130298,1.7901492,1.0501561,0.039999098,0.04,-9.784948,-0.6112056970596313,-0.11684471,-0.05075794,-0.016047855839133263,-0.044076078
26.199999999999793,0.22394179,-0.7853976,0.26453155,-2.589474,0.13278234,1.7926189,1.0531325,0.039999098,0.04,-9.785061,-0.6200160980224609,-0.11644998,-0.05033546,-0.016270926222205162,-0.0442801
26.21666666666646,0.2264385,-0.78540933,0.2674808,-2.5920742,0.13426304,1.7950909,1.056112,0.039999094,0.04,-9.785064,-0.6288617849349976,-0.11600442,-0.04990711,-0.01649627275764942,-0.04447933
26.233333333333125,0.22893724,-0.785421,0.2704324,-2.5946763,0.13574496,1.797565,1.0590936,0.03999909,0.04,-9.78516,-0.6377055644989014,-0.1154948,-0.04947407,-0.016725724563002586,-0.04467223
26.24999999999979,0.23143765,-0.7854328,0.27338588,-2.5972798,0.13722788,1.8000406,1.0620774,0.03999909,0.04,-9.785161,-0.6466231346130371,-0.1149445,-0.049032234,-0.016957541927695274,-0.04486038
26.266666666666456,0.2339394,-0.7854447,0.276341,-2.5998843,0.13871162,1.8025175,1.0650623,0.039999098,0.04,-9.785186,-0.6555221676826477,-0.114320785,-0.048584852,-0.017191961407661438,-0.045042437
26.283333333333122,0.23644218,-0.78545654,0.27929732,-2.60249,0.14019598,1.8049954,1.0680492,0.039999098,0.04,-9.785133,-0.6644760370254517,-0.11365582,-0.048128996,-0.01742735132575035,-0.04522049
26.299999999999788,0.23894572,-0.78546846,0.28225458,-2.6050968,0.14168084,1.8074741,1.0710367,0.039999094,0.04,-9.785152,-0.6734396815299988,-0.11293024,-0.04766983,-0.01766570657491684,-0.045393005
26.316666666666453,0.24144968,-0.78548014,0.28521228,-2.6077049,0.14316596,1.8099535,1.0740246,0.0399991,0.04,-9.785234,-0.6824035048484802,-0.112119295,-0.04720416,-0.017909331247210503,-0.04555884
26.33333333333312,0.24395382,-0.78549194,0.28817016,-2.610313,0.14465117,1.8124328,1.0770125,0.039999105,0.04,-9.785355,-0.691378653049469,-0.111279756,-0.046732333,-0.018158938735723495,-0.045717314
26.349999999999785,0.24645777,-0.78550386,0.2911277,-2.6129205,0.14613631,1.8149121,1.0800003,0.039999105,0.04,-9.785322,-0.7004120945930481,-0.110375695,-0.046254355,-0.018410610035061836,-0.045870725
26.36666666666645,0.24896124,-0.78551584,0.29408467,-2.615527,0.14762121,1.8173906,1.0829877,0.03999911,0.04,-9.785272,-0.7094391584396362,-0.1094208,-0.045771196,-0.0186629556119442,-0.04601885
26.383333333333116,0.25146392,-0.7855278,0.29704076,-2.618132,0.14910567,1.8198686,1.0859746,0.03999911,0.04,-9.785168,-0.7184925079345703,-0.10840751,-0.045283932,-0.018915409222245216,-0.04615947
26.399999999999782,0.2539655,-0.78553975,0.29999542,-2.6207368,0.15058948,1.8223454,1.0889591,0.039999112,0.04,-9.785074,-0.7275708317756653,-0.10734065,-0.044793393,-0.019167352467775345,-0.04629645
26.416666666666448,0.25646567,-0.7855516,0.30294847,-2.6233401,0.15207249,1.8248209,1.0919427,0.03999911,0.04,-9.7851095,-0.7366119623184204,-0.106187314,-0.04429443,-0.01942421868443489,-0.046425577
26.433333333333113,0.25896412,-0.7855635,0.30589935,-2.6259418,0.15355444,1.8272945,1.0949234,0.03999911,0.04,-9.785115,-0.7457015514373779,-0.10498429,-0.043794494,-0.019684849306941032,-0.04654936
26.44999999999978,0.26146054,-0.78557545,0.30884776,-2.6285417,0.15503523,1.8297662,1.0979027,0.039999116,0.04,-9.785073,-0.7547630071640015,-0.103714906,-0.043286994,-0.019948473200201988,-0.046664372
26.466666666666445,0.2639547,-0.78558743,0.31179348,-2.6311383,0.15651466,1.8322355,1.1008787,0.039999124,0.04,-9.785034,-0.7638537883758545,-0.10241104,-0.042780656,-0.020213985815644264,-0.046772704
26.48333333333311,0.2664462,-0.7855996,0.314736,-2.633733,0.15799254,1.8347021,1.1038513,0.039999124,0.04,-9.784846,-0.7729876637458801,-0.10103968,-0.042267438,-0.02047714777290821,-0.046875216
26.499999999999776,0.26893476,-0.78561157,0.31767505,-2.636324,0.1594687,1.8371661,1.1068203,0.039999127,0.04,-9.784885,-0.7820610404014587,-0.09958044,-0.041750424,-0.020745988935232162,-0.046970308
26.516666666666442,0.27142006,-0.78562355,0.32061028,-2.6389117,0.16094296,1.8396266,1.1097857,0.039999124,0.04,-9.784691,-0.7911887168884277,-0.098111875,-0.04122991,-0.021012144163250923,-0.04705843
26.533333333333108,0.27390185,-0.78563565,0.32354134,-2.6414957,0.16241512,1.8420836,1.1127467,0.03999913,0.04,-9.784637,-0.8003081679344177,-0.09654953,-0.040706784,-0.021281389519572258,-0.04713877
26.549999999999773,0.27637982,-0.7856475,0.32646775,-2.6440756,0.16388501,1.8445365,1.115703,0.03999913,0.04,-9.784495,-0.8094325661659241,-0.09492478,-0.04018061,-0.021550392732024193,-0.047212835
26.56666666666644,0.2788536,-0.78565955,0.32938918,-2.6466513,0.16535242,1.8469856,1.1186551,0.03999913,0.04,-9.784387,-0.8185400366783142,-0.093263164,-0.03965161,-0.021822260692715645,-0.047278527
26.583333333333105,0.2813229,-0.78567153,0.33230528,-2.6492221,0.16681722,1.8494307,1.1216017,0.039999135,0.04,-9.784271,-0.8276334404945374,-0.091528386,-0.039124407,-0.022093506529927254,-0.047336686
26.59999999999977,0.28378743,-0.7856837,0.33521578,-2.6517878,0.16827925,1.8518708,1.1245424,0.03999914,0.04,-9.784081,-0.8367555141448975,-0.08976197,-0.03859415,-0.022362228482961655,-0.04738846
26.616666666666436,0.28624696,-0.7856958,0.33812022,-2.6543486,0.1697383,1.854306,1.1274769,0.03999914,0.04,-9.783884,-0.8458669185638428,-0.087889396,-0.038061034,-0.02263006381690502,-0.047432575
26.633333333333102,0.28870112,-0.78570795,0.3410184,-2.656904,0.17119417,1.856736,1.1304061,0.039999146,0.04,-9.7838,-0.8549363017082214,-0.08596174,-0.037526473,-0.02290073037147522,-0.04746843
26.649999999999768,0.29114953,-0.78572,0.34390977,-2.6594532,0.1726467,1.85916,1.1333278,0.03999915,0.04,-9.783611,-0.8640488982200623,-0.083993666,-0.036995023,-0.023169782012701035,-0.04749637
26.666666666666433,0.29359198,-0.7857319,0.3467941,-2.6619956,0.1740957,1.8615781,1.1362422,0.03999915,0.04,-9.783433,-0.8731006383895874,-0.081955984,-0.036459748,-0.023440619930624962,-0.0475163
26.6833333333331,0.2960282,-0.7857439,0.349671,-2.664532,0.17554103,1.8639901,1.1391491,0.03999915,0.04,-9.783171,-0.8821969628334045,-0.07988463,-0.035921384,-0.023708363994956017,-0.047529932
26.699999999999765,0.2984579,-0.78575593,0.35254008,-2.6670616,0.17698248,1.8663957,1.1420484,0.039999157,0.04,-9.782995,-0.8912404775619507,-0.07772638,-0.035383083,-0.023976368829607964,-0.047534354
26.71666666666643,0.3008808,-0.785768,0.35540113,-2.669584,0.17841992,1.8687944,1.1449397,0.039999157,0.04,-9.782792,-0.9002604484558105,-0.07552334,-0.034846053,-0.024243557825684547,-0.047530696
26.733333333333096,0.30329654,-0.78577995,0.3582537,-2.672099,0.17985308,1.8711863,1.1478226,0.03999916,0.04,-9.78254,-0.9093156456947327,-0.0732627,-0.03430891,-0.024508584290742874,-0.047519147
26.749999999999762,0.30570486,-0.78579193,0.36109748,-2.6746068,0.18128185,1.8735706,1.150696,0.039999176,0.04,-9.78233,-0.9183139204978943,-0.070937574,-0.033772137,-0.024772735312581062,-0.047498498
26.766666666666428,0.30810544,-0.7858038,0.3639321,-2.677106,0.1827061,1.8759475,1.1535606,0.03999918,0.04,-9.782121,-0.9272879958152771,-0.06854421,-0.03323291,-0.025037262588739395,-0.047467206
26.783333333333093,0.31049803,-0.7858157,0.3667573,-2.679597,0.1841256,1.8783163,1.1564152,0.039999183,0.04,-9.781804,-0.9362852573394775,-0.06614204,-0.032696124,-0.025297528132796288,-0.04743034
26.79999999999976,0.31288233,-0.7858277,0.3695727,-2.6820793,0.18554023,1.880677,1.1592605,0.03999919,0.04,-9.781542,-0.9452316761016846,-0.0636459,-0.032157153,-0.025556694716215134,-0.047383975
26.816666666666425,0.315258,-0.78583974,0.3723779,-2.6845524,0.18694977,1.8830289,1.1620953,0.0399992,0.04,-9.781255,-0.9541719555854797,-0.061102007,-0.031621616,-0.025813717395067215,-0.04733078
26.83333333333309,0.31762484,-0.78585166,0.37517264,-2.687017,0.18835406,1.8853724,1.1649195,0.039999202,0.04,-9.780916,-0.9630644917488098,-0.058514457,-0.031086667,-0.026067284867167473,-0.047267877
26.849999999999756,0.31998256,-0.7858635,0.37795648,-2.6894717,0.18975295,1.8877064,1.1677327,0.039999202,0.04,-9.780685,-0.971944272518158,-0.055857647,-0.030552216,-0.026319965720176697,-0.04719642
26.866666666666422,0.32233092,-0.7858753,0.3807292,-2.6919158,0.19114634,1.8900313,1.1705347,0.03999921,0.04,-9.780335,-0.9807958006858826,-0.05316265,-0.030019196,-0.02657032571732998,-0.047115654
26.883333333333088,0.32466945,-0.7858871,0.38349044,-2.6943507,0.19253391,1.8923467,1.1733252,0.039999213,0.04,-9.7799015,-0.989665687084198,-0.05042899,-0.029487165,-0.02681359462440014,-0.047028054
26.899999999999753,0.32699814,-0.7858989,0.38623998,-2.6967752,0.19391555,1.8946526,1.1761037,0.03999922,0.04,-9.77968,-0.9984275102615356,-0.047617666,-0.028957846,-0.02705737017095089,-0.04693122
26.91666666666642,0.3293166,-0.78591084,0.3889773,-2.6991885,0.19529115,1.896948,1.17887,0.03999922,0.04,-9.779285,-1.0072177648544312,-0.044765573,-0.028429072,-0.027295280247926712,-0.046825167
26.933333333333085,0.3316244,-0.78592265,0.39170218,-2.7015915,0.1966605,1.8992327,1.1816239,0.039999228,0.04,-9.778879,-1.015960931777954,-0.041860987,-0.02790256,-0.0275291595607996,-0.04671288
26.94999999999975,0.33392134,-0.7859344,0.39441422,-2.7039826,0.1980235,1.9015071,1.1843648,0.03999923,0.04,-9.778596,-1.024627447128296,-0.0389038,-0.027380193,-0.027762673795223236,-0.046587393
26.966666666666416,0.33620736,-0.78594595,0.39711332,-2.706363,0.19937994,1.9037702,1.1870928,0.03999924,0.04,-9.778104,-1.033303141593933,-0.035936464,-0.026858954,-0.02798834629356861,-0.04645627
26.983333333333082,0.3384821,-0.78595763,0.399799,-2.708731,0.2007297,1.9060223,1.1898069,0.03999925,0.04,-9.777808,-1.0419559478759766,-0.032866728,-0.026341494,-0.028214914724230766,-0.046315417
26.999999999999748,0.3407451,-0.7859693,0.40247086,-2.7110865,0.20207258,1.9082633,1.1925071,0.039999254,0.04,-9.777327,-1.0505529642105103,-0.029788509,-0.025824627,-0.02843306213617325,-0.04616517
27.016666666666413,0.34299648,-0.785981,0.40512872,-2.7134304,0.20340848,1.9104924,1.1951933,0.039999265,0.04,-9.776857,-1.0591139793395996,-0.026686564,-0.025311472,-0.028644733130931854,-0.04601083
27.03333333333308,0.34523562,-0.7859925,0.4077723,-2.7157617,0.20473719,1.9127091,1.1978649,0.039999265,0.04,-9.776475,-1.0676214694976807,-0.023472568,-0.024800507,-0.028853023424744606,-0.045843825
27.049999999999745,0.34746233,-0.78600395,0.4104012,-2.7180798,0.20605858,1.9149139,1.2005221,0.039999273,0.04,-9.77609,-1.0760834217071533,-0.02024247,-0.02429317,-0.02906014397740364,-0.045667388
27.06666666666641,0.3496764,-0.78601533,0.41301516,-2.7203848,0.20737246,1.9171058,1.203164,0.03999928,0.04,-9.775559,-1.0845307111740112,-0.017023986,-0.02379051,-0.02925894409418106,-0.045484588
27.083333333333076,0.3518776,-0.78602684,0.41561386,-2.7226768,0.20867871,1.919285,1.2057905,0.039999284,0.04,-9.775103,-1.0929144620895386,-0.0137148,-0.023290332,-0.029454199597239494,-0.04529333
27.099999999999742,0.3540657,-0.7860382,0.41819718,-2.7249546,0.20997721,1.9214514,1.2084016,0.03999929,0.04,-9.774685,-1.1012275218963623,-0.010361424,-0.022794351,-0.029645182192325592,-0.045091387
27.116666666666408,0.35624045,-0.7860496,0.42076465,-2.7272186,0.21126778,1.9236045,1.2109965,0.039999295,0.04,-9.774127,-1.1095637083053589,-0.007002949,-0.02230191,-0.029827821999788284,-0.044882502
27.133333333333074,0.35840157,-0.78606105,0.42331588,-2.729468,0.2125503,1.9257442,1.2135752,0.039999306,0.04,-9.773612,-1.1178239583969116,-0.003590051,-0.021812426,-0.03000451996922493,-0.04466583
27.14999999999974,0.36054882,-0.7860724,0.42585084,-2.7317035,0.21382463,1.9278703,1.2161375,0.03999931,0.04,-9.77308,-1.1260058879852295,-0.00014894363,-0.0213276,-0.030173949897289276,-0.04444003
27.166666666666405,0.36268193,-0.7860836,0.42836908,-2.733924,0.21509054,1.9299822,1.2186831,0.039999317,0.04,-9.772595,-1.1341644525527954,0.0033411402,-0.020847457,-0.030338294804096222,-0.044207163
27.18333333333307,0.36480072,-0.7860947,0.4308704,-2.7361298,0.216348,1.9320799,1.2212117,0.039999325,0.04,-9.772012,-1.1422666311264038,0.0068439255,-0.020371536,-0.030495015904307365,-0.043964498
27.199999999999736,0.366905,-0.7861059,0.43335444,-2.7383206,0.21759681,1.9341636,1.2237225,0.039999332,0.04,-9.771534,-1.1503082513809204,0.010401025,-0.01990053,-0.030648214742541313,-0.043714605
27.216666666666402,0.3689944,-0.78611696,0.4358211,-2.7404954,0.21883684,1.9362326,1.2262155,0.039999343,0.04,-9.770986,-1.158281922340393,0.013966938,-0.019432839,-0.03079316020011902,-0.043456096
27.233333333333068,0.3710689,-0.78612804,0.43827006,-2.7426548,0.22006801,1.9382864,1.2286907,0.03999935,0.04,-9.77032,-1.1662648916244507,0.01755199,-0.018967941,-0.030927374958992004,-0.04319014
27.249999999999734,0.37312806,-0.78613895,0.44070092,-2.7447984,0.22129017,1.9403253,1.2311481,0.039999355,0.04,-9.769804,-1.1741398572921753,0.021210663,-0.018507788,-0.03105798549950123,-0.04291542
27.2666666666664,0.37517178,-0.78614974,0.4431136,-2.746926,0.22250311,1.9423487,1.2335871,0.039999362,0.04,-9.769225,-1.181957483291626,0.024850216,-0.018054664,-0.031181534752249718,-0.04263334
27.283333333333065,0.3771998,-0.7861605,0.44550768,-2.7490377,0.22370674,1.9443566,1.2360073,0.039999373,0.04,-9.768679,-1.1897269487380981,0.028538622,-0.017606692,-0.03129914775490761,-0.04234147
27.29999999999973,0.37921187,-0.7861713,0.44788292,-2.7511322,0.22490099,1.9463489,1.2384083,0.03999938,0.04,-9.768109,-1.1974173784255981,0.032241553,-0.017163403,-0.03141094744205475,-0.042041976
27.316666666666396,0.3812079,-0.78618205,0.4502392,-2.7532103,0.22608568,1.9483252,1.2407902,0.039999392,0.04,-9.767408,-1.2050915956497192,0.035947572,-0.016723957,-0.031511783599853516,-0.04173701
27.333333333333062,0.3831876,-0.7861927,0.45257616,-2.755271,0.2272607,1.9502853,1.2431526,0.039999403,0.04,-9.766844,-1.2126630544662476,0.03970734,-0.016289385,-0.03160712495446205,-0.041421764
27.349999999999728,0.38515073,-0.78620327,0.45489365,-2.7573147,0.22842598,1.9522293,1.2454954,0.039999403,0.04,-9.766151,-1.2202173471450806,0.043445446,-0.015860075,-0.031692299991846085,-0.041101914
27.366666666666394,0.38709718,-0.78621364,0.45719135,-2.7593415,0.22958133,1.9541565,1.247818,0.03999941,0.04,-9.765544,-1.2276732921600342,0.047227927,-0.0154367825,-0.03177107125520706,-0.04077518
27.38333333333306,0.3890267,-0.7862241,0.45946908,-2.7613502,0.23072661,1.9560672,1.2501208,0.039999418,0.04,-9.764951,-1.2350612878799438,0.0510296,-0.015017279,-0.03184405341744423,-0.040439207
27.399999999999725,0.39093915,-0.78623444,0.46172652,-2.7633407,0.2318618,1.957961,1.2524029,0.039999425,0.04,-9.764257,-1.2423980236053467,0.054829042,-0.014604943,-0.03190595656633377,-0.040095817
27.41666666666639,0.39283416,-0.7862447,0.46396354,-2.7653136,0.2329867,1.9598373,1.2546644,0.039999437,0.04,-9.7635355,-1.2496988773345947,0.058624033,-0.014195978,-0.03195854648947716,-0.03974701
27.433333333333056,0.39471185,-0.78625494,0.46617997,-2.7672684,0.23410124,1.9616966,1.2569053,0.039999444,0.04,-9.762918,-1.2568641901016235,0.062466808,-0.013793828,-0.03200565651059151,-0.039390776
27.449999999999722,0.3965719,-0.786265,0.4683755,-2.7692049,0.2352053,1.9635383,1.259125,0.039999448,0.04,-9.762235,-1.2640191316604614,0.06631021,-0.013396824,-0.032043322920799255,-0.039029133
27.466666666666388,0.3984141,-0.78627497,0.47054994,-2.7711225,0.23629878,1.9653623,1.2613235,0.039999455,0.04,-9.7616,-1.2710654735565186,0.07016024,-0.013005178,-0.03207510709762573,-0.038658485
27.483333333333054,0.40023828,-0.78628504,0.47270316,-2.7730217,0.23738153,1.9671686,1.2635003,0.039999463,0.04,-9.760832,-1.2780892848968506,0.073994055,-0.012618745,-0.03209608793258667,-0.038282912
27.49999999999972,0.4020442,-0.7862951,0.47483495,-2.7749012,0.2384535,1.9689566,1.2656554,0.039999474,0.04,-9.760206,-1.2849922180175781,0.07786243,-0.012238076,-0.03210975229740143,-0.03789944
27.516666666666385,0.40383178,-0.78630495,0.47694495,-2.7767625,0.23951463,1.9707267,1.2677884,0.039999485,0.04,-9.759375,-1.2918816804885864,0.08170341,-0.011861227,-0.032111573964357376,-0.037510782
27.53333333333305,0.40560085,-0.7863147,0.4790331,-2.778604,0.24056481,1.9724785,1.2698997,0.039999492,0.04,-9.758794,-1.2986284494400024,0.08557468,-0.011491086,-0.03210895135998726,-0.037115376
27.549999999999716,0.40735132,-0.7863242,0.4810992,-2.780426,0.24160388,1.9742117,1.2719886,0.0399995,0.04,-9.758021,-1.3053593635559082,0.089422844,-0.011127542,-0.03209542855620384,-0.036714792
27.566666666666382,0.40908292,-0.7863337,0.48314312,-2.7822287,0.2426318,1.9759263,1.2740549,0.039999507,0.04,-9.75731,-1.3120027780532837,0.093275435,-0.010768497,-0.03207530081272125,-0.036308117
27.583333333333048,0.41079548,-0.7863433,0.48516452,-2.7840114,0.24364832,1.977622,1.2760988,0.03999951,0.04,-9.75659,-1.318565845489502,0.09712454,-0.010414134,-0.03204590454697609,-0.035895552
27.599999999999714,0.41248897,-0.78635275,0.4871633,-2.7857747,0.24465355,1.979299,1.2781199,0.039999522,0.04,-9.755818,-1.3250521421432495,0.10096206,-0.010067238,-0.03200671076774597,-0.035477553
27.61666666666638,0.41416317,-0.78636223,0.48913935,-2.787517,0.24564746,1.9809568,1.2801178,0.03999953,0.04,-9.755146,-1.331437349319458,0.10480571,-0.009726333,-0.031960368156433105,-0.035052862
27.633333333333045,0.41581798,-0.78637147,0.4910925,-2.7892396,0.2466298,1.9825956,1.2820923,0.03999954,0.04,-9.754288,-1.3378195762634277,0.108621,-0.009390032,-0.03190271556377411,-0.03462587
27.64999999999971,0.41745326,-0.7863805,0.4930226,-2.7909422,0.24760059,1.9842148,1.284044,0.03999955,0.04,-9.753611,-1.344070553779602,0.11243998,-0.009057897,-0.03183797374367714,-0.034192886
27.666666666666377,0.41906884,-0.7863896,0.4949294,-2.7926238,0.24855973,1.9858145,1.2859722,0.039999556,0.04,-9.752895,-1.3502461910247803,0.11626565,-0.008734098,-0.031767163425683975,-0.033753466
27.683333333333042,0.4206647,-0.7863987,0.496813,-2.7942846,0.24950716,1.9873949,1.2878767,0.039999567,0.04,-9.752081,-1.3563616275787354,0.120030425,-0.008415389,-0.03168511018157005,-0.033308934
27.699999999999708,0.4222407,-0.7864076,0.4986731,-2.7959259,0.25044274,1.9889559,1.2897574,0.039999574,0.04,-9.751249,-1.3624366521835327,0.12380701,-0.008101519,-0.03159162029623985,-0.032864407
27.716666666666374,0.4237966,-0.78641635,0.5005095,-2.7975454,0.2513665,1.9904966,1.291614,0.039999574,0.04,-9.75067,-1.3683209419250488,0.1275979,-0.0077928677,-0.031495168805122375,-0.032410678
27.73333333333304,0.4253323,-0.78642493,0.5023223,-2.7991443,0.2522783,1.9920175,1.2934469,0.039999586,0.04,-9.749798,-1.3742343187332153,0.1313126,-0.0074899117,-0.03138858452439308,-0.031955585
27.749999999999705,0.42684793,-0.78643334,0.50411135,-2.8007228,0.2531781,1.9935178,1.2952557,0.0399996,0.04,-9.74907,-1.3800060749053955,0.13503109,-0.007193187,-0.03127298131585121,-0.03149259
27.76666666666637,0.4283432,-0.78644174,0.50587624,-2.8022788,0.25406584,1.9949977,1.2970401,0.039999604,0.04,-9.748401,-1.385722041130066,0.13877517,-0.006901319,-0.031155820935964584,-0.03102374
27.783333333333037,0.42981806,-0.78645015,0.50761706,-2.803814,0.25494146,1.9964583,1.2988001,0.039999615,0.04,-9.747431,-1.3914153575897217,0.14240111,-0.006614511,-0.031025370582938194,-0.03055492
27.799999999999702,0.43127236,-0.7864585,0.5093335,-2.8053272,0.25580484,1.9978987,1.3005356,0.039999623,0.04,-9.746721,-1.3969395160675049,0.14604981,-0.006333429,-0.03088540956377983,-0.030082596
27.816666666666368,0.43270618,-0.7864667,0.5110256,-2.8068194,0.25665605,1.9993185,1.3022468,0.039999627,0.04,-9.745821,-1.4024461507797241,0.14964071,-0.0060563595,-0.030732853338122368,-0.029608995
27.833333333333034,0.43411916,-0.7864748,0.51269335,-2.808291,0.25749502,2.0007174,1.3039331,0.039999634,0.04,-9.745122,-1.4078015089035034,0.15326403,-0.005787301,-0.030576389282941818,-0.029130774
27.8499999999997,0.43551147,-0.78648275,0.5143366,-2.8097405,0.25832155,2.0020962,1.3055948,0.03999964,0.04,-9.744442,-1.4130710363388062,0.15684979,-0.0055238204,-0.030416501685976982,-0.028647833
27.866666666666365,0.436883,-0.7864906,0.51595527,-2.8111682,0.25913572,2.0034547,1.3072317,0.03999965,0.04,-9.743631,-1.4183226823806763,0.16037065,-0.005265012,-0.030246546491980553,-0.028162891
27.88333333333303,0.43823367,-0.7864985,0.51754946,-2.8125741,0.25993758,2.0047922,1.3088435,0.039999653,0.04,-9.742792,-1.4234895706176758,0.1638595,-0.0050111357,-0.03006686270236969,-0.027676482
27.899999999999697,0.43956336,-0.78650624,0.5191186,-2.8139584,0.26072708,2.006109,1.3104306,0.03999966,0.04,-9.742004,-1.4285526275634766,0.16734594,-0.0047616977,-0.02987869828939438,-0.02718404
27.916666666666362,0.44087207,-0.7865139,0.52066284,-2.8153207,0.26150402,2.0074048,1.3119924,0.039999664,0.04,-9.7412405,-1.4335137605667114,0.1707708,-0.004520513,-0.029685545712709427,-0.026692921
27.933333333333028,0.44215968,-0.78652143,0.5221824,-2.816661,0.2622686,2.00868,1.3135293,0.039999675,0.04,-9.74044,-1.4383940696716309,0.17417133,-0.004282868,-0.029485253617167473,-0.026197279
27.949999999999694,0.4434263,-0.78652877,0.52367705,-2.8179789,0.2630206,2.0099342,1.3150414,0.03999968,0.04,-9.739611,-1.443244218826294,0.17751591,-0.0040505542,-0.02927589602768421,-0.025703272
27.96666666666636,0.44467175,-0.7865359,0.525147,-2.8192754,0.26376006,2.0111675,1.3165272,0.039999686,0.04,-9.738804,-1.4479809999465942,0.180846,-0.0038248613,-0.02906055375933647,-0.025206525
27.983333333333025,0.44589606,-0.7865431,0.5265922,-2.8205497,0.264487,2.01238,1.3179892,0.039999697,0.04,-9.738105,-1.4526052474975586,0.18414631,-0.0035989168,-0.028839655220508575,-0.024704142
27.99999999999969,0.4470991,-0.78655016,0.528012,-2.8218021,0.2652014,2.0135708,1.3194247,0.039999705,0.04,-9.737294,-1.4571987390518188,0.18738964,-0.0033838323,-0.028611188754439354,-0.024202611
28.016666666666357,0.4482812,-0.7865572,0.52940714,-2.8230324,0.26590317,2.0147417,1.3208354,0.039999712,0.04,-9.736513,-1.4616316556930542,0.19057643,-0.003169762,-0.02837849222123623,-0.023697637
28.033333333333022,0.44944194,-0.7865641,0.53077704,-2.8242407,0.26659244,2.0158913,1.3222212,0.03999972,0.04,-9.735714,-1.466078519821167,0.1937438,-0.002959913,-0.028135135769844055,-0.023193486
28.049999999999688,0.45058146,-0.78657097,0.53212196,-2.825427,0.2672691,2.0170195,1.3235812,0.03999973,0.04,-9.73492,-1.470374584197998,0.19683553,-0.00275859,-0.027886226773262024,-0.022689227
28.066666666666354,0.45169982,-0.7865775,0.53344166,-2.8265915,0.2679332,2.018127,1.3249159,0.039999735,0.04,-9.734171,-1.4745901823043823,0.19991735,-0.0025602505,-0.027634043246507645,-0.022182452
28.08333333333302,0.45279694,-0.78658396,0.53473645,-2.8277335,0.26858467,2.0192137,1.3262253,0.039999735,0.04,-9.733433,-1.4787105321884155,0.2029222,-0.00236635,-0.027377694845199585,-0.021674706
28.099999999999685,0.4538729,-0.78659046,0.5360064,-2.8288538,0.26922357,2.0202794,1.3275094,0.039999742,0.04,-9.732607,-1.4828118085861206,0.20587668,-0.0021767013,-0.02711338736116886,-0.02116884
28.11666666666635,0.45492765,-0.78659683,0.5372512,-2.8299515,0.26984987,2.021324,1.3287681,0.039999742,0.04,-9.73185,-1.4867863655090332,0.20881212,-0.0019915618,-0.026843588799238205,-0.020661643
28.133333333333017,0.4559613,-0.7866031,0.53847116,-2.8310275,0.27046368,2.022348,1.3300017,0.03999975,0.04,-9.731023,-1.4906877279281616,0.21166386,-0.001809936,-0.026567846536636353,-0.020154536
28.149999999999682,0.45697376,-0.7866093,0.5396661,-2.832081,0.2710649,2.0233514,1.3312099,0.03999976,0.04,-9.730261,-1.4945099353790283,0.21448539,-0.0016326691,-0.026286078616976738,-0.019648029
28.166666666666348,0.45796522,-0.7866153,0.5408361,-2.8331127,0.27165368,2.0243328,1.332393,0.03999976,0.04,-9.729435,-1.4982541799545288,0.21721964,-0.0014592919,-0.025995956733822823,-0.019144204
28.183333333333014,0.45893565,-0.7866213,0.5419814,-2.834123,0.2722299,2.0252936,1.3335513,0.03999977,0.04,-9.728719,-1.5018699169158936,0.21996981,-0.0012904566,-0.02570873498916626,-0.018638283
28.19999999999968,0.45988503,-0.786627,0.5431017,-2.8351111,0.27279368,2.026234,1.3346844,0.039999772,0.039999995,-9.727977,-1.5054295063018799,0.22262603,-0.0011264312,-0.02541486732661724,-0.018130908
28.216666666666345,0.4608135,-0.7866326,0.5441973,-2.8360775,0.2733451,2.027153,1.3357923,0.03999978,0.04,-9.72719,-1.5089153051376343,0.22520661,-0.00096698786,-0.025116756558418274,-0.017626867
28.23333333333301,0.46172103,-0.78663814,0.54526854,-2.837022,0.27388406,2.0280516,1.3368756,0.03999978,0.039999995,-9.726447,-1.512308120727539,0.2277633,-0.00081059994,-0.024818167090415955,-0.017123828
28.249999999999677,0.4626077,-0.7866436,0.5463151,-2.8379447,0.27441067,2.0289295,1.3379339,0.039999787,0.04,-9.725708,-1.5156296491622925,0.23025535,-0.00065849675,-0.024514423683285713,-0.016620666
28.266666666666342,0.46347374,-0.786649,0.5473371,-2.838846,0.274925,2.029787,1.3389676,0.03999979,0.04,-9.724883,-1.5188812017440796,0.2326639,-0.00051017577,-0.024205857887864113,-0.016121322
28.283333333333008,0.46431908,-0.7866542,0.54833466,-2.8397262,0.275427,2.0306242,1.3399767,0.039999794,0.04,-9.724143,-1.5220288038253784,0.23503971,-0.00036590887,-0.023894278332591057,-0.015623032
28.299999999999674,0.4651438,-0.78665936,0.54930794,-2.840585,0.27591684,2.0314405,1.3409609,0.039999805,0.04,-9.72347,-1.525052547454834,0.23735298,-0.0002269917,-0.02358148619532585,-0.0151245445
28.31666666666634,0.465948,-0.78666437,0.550257,-2.8414223,0.27639446,2.0322368,1.3419206,0.03999981,0.04,-9.722734,-1.5280379056930542,0.23961061,-8.983677e-05,-0.02326846495270729,-0.014627903
28.333333333333005,0.46673182,-0.7866692,0.5511821,-2.8422382,0.27686,2.0330133,1.3428564,0.039999813,0.04,-9.721968,-1.5309520959854126,0.24178423,4.3515785e-05,-0.022951427847146988,-0.0141341025
28.34999999999967,0.4674955,-0.78667396,0.5520834,-2.8430326,0.27731362,2.03377,1.3437675,0.039999817,0.04,-9.721194,-1.5338046550750732,0.24389495,0.00017187952,-0.022630559280514717,-0.013644366
28.366666666666337,0.46823898,-0.7866786,0.5529607,-2.8438065,0.27775496,2.034506,1.344655,0.039999817,0.04,-9.720395,-1.5365911722183228,0.24597493,0.0003004615,-0.022304918617010117,-0.013159059
28.383333333333002,0.46896243,-0.7866832,0.5538145,-2.8445597,0.27818465,2.0352225,1.3455185,0.039999824,0.04,-9.719714,-1.539209246635437,0.2479915,0.00042335238,-0.021981237456202507,-0.0126733
28.399999999999668,0.469666,-0.78668773,0.5546446,-2.8452919,0.27860248,2.0359192,1.3463582,0.03999983,0.04,-9.719012,-1.5417908430099487,0.24994487,0.0005429109,-0.02165629342198372,-0.012189902
28.416666666666334,0.47034982,-0.78669214,0.5554513,-2.8460033,0.27900866,2.0365965,1.3471744,0.039999835,0.04,-9.718226,-1.5443135499954224,0.25182015,0.00065944245,-0.021329037845134735,-0.011711802
28.433333333333,0.47101393,-0.7866964,0.55623496,-2.846694,0.27940312,2.0372546,1.347967,0.039999843,0.04,-9.717492,-1.5467382669448853,0.2536384,0.0007721401,-0.02100074291229248,-0.011238065
28.449999999999665,0.4716586,-0.78670055,0.55699575,-2.8473654,0.2797861,2.0378928,1.3487365,0.039999846,0.04,-9.7167425,-1.5490998029708862,0.25538328,0.0008824391,-0.02067076601088047,-0.010768419
28.46666666666633,0.47228393,-0.7867046,0.55773383,-2.8480165,0.2801576,2.0385122,1.3494828,0.039999846,0.04,-9.71611,-1.5513359308242798,0.2571211,0.0009889532,-0.020343853160738945,-0.010299636
28.483333333332997,0.4728902,-0.78670835,0.5584494,-2.8486474,0.2805177,2.039113,1.3502069,0.03999985,0.04,-9.715423,-1.5535235404968262,0.25874898,0.001093829,-0.02001737244427204,-0.009833923
28.499999999999662,0.4734775,-0.78671217,0.5591424,-2.8492587,0.28086647,2.0396948,1.350908,0.039999858,0.04,-9.714634,-1.555703043937683,0.26031077,0.001194379,-0.01968773454427719,-0.009374566
28.516666666666328,0.47404596,-0.786716,0.55981326,-2.8498504,0.2812042,2.040258,1.3515867,0.039999858,0.04,-9.71396,-1.5577069520950317,0.2618214,0.0012917899,-0.019360128790140152,-0.008918591
28.533333333332994,0.47459581,-0.78671956,0.5604622,-2.8504224,0.2815309,2.0408027,1.3522431,0.039999865,0.04,-9.7132225,-1.559674859046936,0.26326683,0.0013865544,-0.019033333286643028,-0.008467164
28.54999999999966,0.47512725,-0.786723,0.5610893,-2.8509753,0.2818466,2.0413291,1.3528774,0.03999987,0.04,-9.7124815,-1.5615897178649902,0.26463214,0.0014798195,-0.01870601624250412,-0.008021152
28.566666666666325,0.47564042,-0.7867264,0.56169486,-2.851509,0.28215146,2.0418375,1.3534899,0.039999872,0.04,-9.711778,-1.5634078979492188,0.26595795,0.0015709086,-0.018381280824542046,-0.0075813876
28.58333333333299,0.47613564,-0.7867298,0.5622792,-2.8520246,0.28244564,2.042328,1.3540812,0.039999876,0.04,-9.711059,-1.5651414394378662,0.26719964,0.0016593112,-0.018058234825730324,-0.0071455524
28.599999999999657,0.4766131,-0.786733,0.5628427,-2.8525214,0.28272927,2.0428004,1.3546509,0.03999988,0.04,-9.710435,-1.5667774677276611,0.2684169,0.0017435371,-0.01773862913250923,-0.006713299
28.616666666666323,0.47707295,-0.7867361,0.5633854,-2.8530002,0.28300253,2.0432556,1.3551997,0.03999988,0.04,-9.709708,-1.5684130191802979,0.269546,0.0018279653,-0.01742125302553177,-0.0062861014
28.63333333333299,0.47751555,-0.7867392,0.56390774,-2.8534606,0.28326547,2.043694,1.355728,0.039999887,0.04,-9.709017,-1.5699219703674316,0.27059776,0.0019085868,-0.017107052728533745,-0.005865024
28.649999999999654,0.47794098,-0.7867421,0.5644098,-2.853903,0.28351828,2.0441153,1.3562361,0.039999884,0.04,-9.70828,-1.5714077949523926,0.2715965,0.0019868882,-0.016792984679341316,-0.005451884
28.66666666666632,0.47834972,-0.78674483,0.56489205,-2.8543284,0.28376108,2.04452,1.3567238,0.039999887,0.04,-9.707557,-1.5727992057800293,0.2725253,0.0020619286,-0.01648208685219288,-0.00504442
28.683333333332985,0.47874177,-0.78674746,0.5653547,-2.8547366,0.28399405,2.044908,1.3571919,0.039999895,0.04,-9.706958,-1.5740817785263062,0.2734283,0.0021361867,-0.01617763191461563,-0.0046405564
28.69999999999965,0.47911748,-0.78675,0.5657982,-2.8551276,0.28421733,2.04528,1.3576404,0.039999895,0.04,-9.706218,-1.5753475427627563,0.27422047,0.0022074713,-0.015875456854701042,-0.0042430162
28.716666666666317,0.47947723,-0.7867526,0.5662227,-2.8555017,0.2844311,2.0456362,1.3580697,0.0399999,0.04,-9.705547,-1.576532244682312,0.27498558,0.0022764793,-0.01557829324156046,-0.003854268
28.733333333332983,0.47982115,-0.786755,0.5666287,-2.8558598,0.2846355,2.0459769,1.3584802,0.039999906,0.04,-9.704765,-1.5776774883270264,0.2756563,0.0023448872,-0.015281233005225658,-0.0034723077
28.74999999999965,0.48014972,-0.78675747,0.56701636,-2.8562016,0.28483078,2.0463023,1.3588723,0.039999906,0.04,-9.704159,-1.5786914825439453,0.27630344,0.0024095962,-0.014991129748523235,-0.0030960727
28.766666666666314,0.4804631,-0.7867598,0.56738615,-2.856528,0.28501695,2.046613,1.3592463,0.03999991,0.04,-9.70343,-1.5796983242034912,0.27688134,0.0024733425,-0.014704476110637188,-0.0027292701
28.78333333333298,0.4807616,-0.786762,0.56773853,-2.8568387,0.28519446,2.0469089,1.3596027,0.039999913,0.04,-9.702759,-1.5806050300598145,0.27739835,0.0025347138,-0.014423052780330181,-0.002368034
28.799999999999645,0.48104554,-0.7867642,0.56807363,-2.8571343,0.2853633,2.0471904,1.3599417,0.039999917,0.04,-9.702011,-1.581505298614502,0.27784848,0.002593692,-0.014144924469292164,-0.002016039
28.81666666666631,0.4813153,-0.78676623,0.5683919,-2.8574152,0.28552368,2.0474577,1.3602636,0.03999992,0.04,-9.701352,-1.5822629928588867,0.27825442,0.0026496393,-0.01387342531234026,-0.0016712704
28.833333333332977,0.48157108,-0.78676814,0.5686939,-2.8576813,0.28567582,2.047711,1.3605691,0.039999925,0.04,-9.700631,-1.583020567893982,0.27858388,0.0027049265,-0.013607090339064598,-0.0013351648
28.849999999999643,0.48181337,-0.78677,0.56897986,-2.8579333,0.28581995,2.0479512,1.3608586,0.039999925,0.04,-9.699943,-1.5836964845657349,0.2788893,0.0027575565,-0.01334962248802185,-0.0010064214
28.86666666666631,0.48204258,-0.7867718,0.56925035,-2.858172,0.2859562,2.0481784,1.361132,0.039999925,0.04,-9.699188,-1.5843439102172852,0.27910167,0.0028081466,-0.01309407502412796,-0.00068785105
28.883333333332974,0.48225895,-0.7867735,0.5695057,-2.8583972,0.28608483,2.0483925,1.36139,0.03999993,0.04,-9.698529,-1.584893822669983,0.27930254,0.0028583454,-0.012846405617892742,-0.000377261
28.89999999999964,0.48246282,-0.78677505,0.5697463,-2.8586085,0.28620607,2.048594,1.3616332,0.03999993,0.04,-9.697835,-1.5853943824768066,0.2794354,0.0029075707,-0.012607177719473839,-7.453471e-05
28.916666666666305,0.48265463,-0.7867764,0.56997263,-2.858808,0.28632012,2.0487843,1.3618622,0.039999936,0.04,-9.696997,-1.5859086513519287,0.27948177,0.0029551391,-0.01237158477306366,0.00021718147
28.93333333333297,0.48283476,-0.7867778,0.5701851,-2.8589952,0.28642726,2.0489626,1.3620772,0.039999936,0.04,-9.696365,-1.586272954940796,0.2795079,0.00299949,-0.012144251726567745,0.0005002462
28.949999999999637,0.48300356,-0.78677905,0.5703844,-2.8591712,0.28652772,2.0491302,1.3622789,0.039999936,0.04,-9.695659,-1.5866076946258545,0.2794854,0.0030413498,-0.01192545611411333,0.00077494443
28.966666666666303,0.48316148,-0.7867803,0.57057077,-2.859335,0.28662166,2.0492864,1.3624676,0.039999936,0.04,-9.694954,-1.586919903755188,0.27940288,0.0030806388,-0.0117128761485219,0.001038206
28.98333333333297,0.48330888,-0.78678155,0.5707447,-2.8594892,0.28670937,2.0494328,1.3626437,0.039999936,0.04,-9.69413,-1.5871992111206055,0.27927336,0.0031195467,-0.011507931165397167,0.0012908464
28.999999999999634,0.4834462,-0.78678274,0.5709068,-2.8596313,0.28679115,2.049569,1.3628076,0.03999994,0.04,-9.69356,-1.5873199701309204,0.27910748,0.0031547137,-0.011312877759337425,0.0015366538
29.0166666666663,0.48357388,-0.7867839,0.5710576,-2.8597631,0.28686708,2.0496953,1.3629602,0.03999994,0.04,-9.692629,-1.5875663757324219,0.27886453,0.0031902846,-0.011122439056634903,0.0017671194
29.033333333332966,0.48369238,-0.786785,0.5711975,-2.8598866,0.2869374,2.0498126,1.3631018,0.039999947,0.04,-9.691825,-1.5877021551132202,0.27860257,0.003224814,-0.010939206928014755,0.001986878
29.04999999999963,0.4838022,-0.7867861,0.57132703,-2.8600023,0.2870027,2.0499215,1.3632326,0.039999947,0.04,-9.691238,-1.587685227394104,0.27832326,0.0032559743,-0.010768385604023933,0.002199789
29.066666666666297,0.48390368,-0.7867871,0.57144684,-2.8601103,0.28706318,2.0500221,1.363354,0.03999995,0.04,-9.690608,-1.5876505374908447,0.27799043,0.0032855119,-0.010609690099954605,0.002404555
29.083333333332963,0.48399737,-0.78678805,0.5715574,-2.8602087,0.28711897,2.050115,1.3634659,0.03999995,0.04,-9.689985,-1.5875736474990845,0.27761152,0.0033090785,-0.01046435721218586,0.0026023975
29.09999999999963,0.48408365,-0.78678906,0.5716593,-2.860299,0.28717047,2.050201,1.3635691,0.039999958,0.04,-9.688991,-1.5876450538635254,0.27714032,0.0033340335,-0.01032224390655756,0.002781472
29.116666666666294,0.4841631,-0.78679,0.5717531,-2.8603835,0.28721786,2.05028,1.3636642,0.039999958,0.04,-9.688156,-1.5875768661499023,0.2766509,0.0033561743,-0.010188085027039051,0.0029471703
29.13333333333296,0.48423606,-0.7867909,0.57183933,-2.8604605,0.2872615,2.0503538,1.3637515,0.039999958,0.04,-9.687478,-1.5873929262161255,0.27615812,0.0033755517,-0.010065685026347637,0.003104186
29.149999999999626,0.48430318,-0.7867918,0.5719189,-2.8605304,0.28730163,2.05042,1.3638319,0.03999996,0.04,-9.686588,-1.5872955322265625,0.27558905,0.0033933693,-0.009948327206075191,0.003245179
29.16666666666629,0.48436517,-0.78679264,0.5719924,-2.8605928,0.28733858,2.0504801,1.363906,0.03999996,0.04,-9.68575,-1.587205171585083,0.2751181,0.0034116756,-0.009842315688729286,0.003375427
29.183333333332957,0.4844223,-0.7867935,0.5720602,-2.8606522,0.28737262,2.050538,1.3639737,0.039999966,0.04,-9.684874,-1.5871964693069458,0.2746737,0.0034315577,-0.009741068817675114,0.0034939684
29.199999999999623,0.48447472,-0.78679425,0.5721224,-2.8607068,0.28740394,2.050589,1.3640366,0.039999966,0.04,-9.684434,-1.5870023965835571,0.27426317,0.0034509085,-0.009643951430916786,0.0036014724
29.21666666666629,0.4845229,-0.78679496,0.5721789,-2.860755,0.28743273,2.0506377,1.3640944,0.039999966,0.04,-9.6839075,-1.586840271949768,0.27390546,0.0034648627,-0.009563608095049858,0.0037052769
29.233333333332954,0.48456722,-0.7867957,0.5722315,-2.8608012,0.28745928,2.050681,1.3641473,0.03999997,0.04,-9.683067,-1.5868421792984009,0.27343962,0.003477735,-0.009477169252932072,0.0037885767
29.24999999999962,0.48460793,-0.7867962,0.5722801,-2.860842,0.28748372,2.050723,1.3641962,0.03999997,0.04,-9.682883,-1.586627721786499,0.27322596,0.0034900398,-0.009408398531377316,0.0038755948
29.266666666666286,0.48464543,-0.78679675,0.5723246,-2.8608813,0.28750616,2.0507588,1.3642411,0.039999966,0.04,-9.6821785,-1.58669114112854,0.27286115,0.003503311,-0.00933141727000475,0.003946321
29.28333333333295,0.4846799,-0.78679717,0.57236564,-2.860917,0.28752682,2.0507944,1.3642826,0.03999997,0.04,-9.682074,-1.5864276885986328,0.2726796,0.003512769,-0.009277932345867157,0.004023303
29.299999999999617,0.48471162,-0.7867976,0.57240295,-2.8609488,0.28754586,2.0508246,1.3643208,0.03999997,0.04,-9.681577,-1.5864373445510864,0.27236483,0.0035218573,-0.00921704899519682,0.004086583
29.316666666666283,0.48474076,-0.786798,0.57243735,-2.8609798,0.2875633,2.0508528,1.3643554,0.039999966,0.04,-9.681132,-1.5863769054412842,0.27213868,0.0035300022,-0.009166987612843513,0.0041458346
29.33333333333295,0.48476762,-0.78679836,0.57246906,-2.8610077,0.28757936,2.0508807,1.3643875,0.03999996,0.04,-9.681042,-1.5862057209014893,0.2719521,0.0035374435,-0.009125671349465847,0.0042054867
29.349999999999614,0.48479235,-0.7867987,0.5724982,-2.8610322,0.28759417,2.0509064,1.3644178,0.039999966,0.04,-9.680618,-1.5862318277359009,0.2717033,0.0035447043,-0.009077873080968857,0.004253635
29.36666666666628,0.48481503,-0.786799,0.572525,-2.8610556,0.2876078,2.050927,1.3644445,0.03999997,0.04,-9.680206,-1.5862321853637695,0.2715141,0.0035490352,-0.009029318578541279,0.0042951438
29.383333333332946,0.48483592,-0.7867993,0.5725497,-2.8610783,0.2876204,2.0509474,1.36447,0.03999997,0.04,-9.680146,-1.5860906839370728,0.27143314,0.0035572152,-0.009000406600534916,0.00434196
29.39999999999961,0.48485518,-0.7867996,0.57257235,-2.861098,0.287632,2.0509675,1.3644929,0.03999997,0.04,-9.680022,-1.5859971046447754,0.27125832,0.003558897,-0.008970904164016247,0.0043858304
29.416666666666277,0.48487285,-0.78679985,0.57259315,-2.8611157,0.28764266,2.0509872,1.3645145,0.03999997,0.04,-9.679633,-1.5860494375228882,0.2710656,0.0035643703,-0.00893575418740511,0.0044190222
29.433333333332943,0.48488912,-0.7868001,0.57261235,-2.8611321,0.28765246,2.0510004,1.3645335,0.039999966,0.04,-9.679349,-1.5860449075698853,0.27090824,0.0035673326,-0.008896544575691223,0.0044443635
29.44999999999961,0.48490402,-0.7868003,0.57263,-2.8611479,0.2876614,2.0510132,1.3645525,0.039999973,0.04,-9.679332,-1.585925817489624,0.27090904,0.0035736414,-0.008880720473825932,0.0044814134
29.466666666666274,0.48491782,-0.7868005,0.57264626,-2.861163,0.28766966,2.051026,1.3645682,0.03999997,0.04,-9.679219,-1.585878610610962,0.27076367,0.003572096,-0.008864814415574074,0.0045153843
29.48333333333294,0.48493055,-0.7868007,0.5726613,-2.8611763,0.2876773,2.051039,1.3645834,0.039999966,0.04,-9.679107,-1.5858486890792847,0.27064577,0.003578345,-0.008848175406455994,0.004545747
29.499999999999606,0.48494226,-0.78680086,0.572675,-2.861188,0.28768432,2.0510514,1.3645984,0.03999997,0.04,-9.678876,-1.5858778953552246,0.2705167,0.0035817912,-0.008827286772429943,0.004569751
29.51666666666627,0.48495302,-0.786801,0.5726877,-2.8611987,0.28769073,2.0510638,1.3646104,0.03999997,0.04,-9.678658,-1.5858891010284424,0.27041423,0.0035802522,-0.0088040791451931,0.0045882817
29.533333333332937,0.4849629,-0.7868011,0.5726992,-2.8612084,0.28769663,2.051076,1.3646218,0.03999997,0.04,-9.678523,-1.5858756303787231,0.2703232,0.0035874639,-0.008778713643550873,0.0046032383
29.549999999999603,0.48497197,-0.7868012,0.57271,-2.8612173,0.28770205,2.051086,1.3646331,0.039999966,0.04,-9.455689,-1.5697349309921265,0.16677393,0.0,-0.0,0.0
29.56666666666627,0.48497197,-0.7868012,0.57271,-2.8612173,0.28770205,2.051086,1.3646331,0.039999966,0.04,-9.677353,-1.5850930213928223,0.26912156,0.0,-0.0,0.0
29.583333333332934,0.48497197,-0.7868012,0.57271,-2.8612173,0.28770205,2.051086,1.3646331,0.039999966,0.04,-9.677353,-1.5850930213928223,0.26912156,0.0,-0.0,0.0
29.5999999999996,0.48497197,-0.7868012,0.57271,-2.8612173,0.28770205,2.051086,1.3646331,0.039999966,0.04,-9.677353,-1.5850930213928223,0.26912156,0.0,-0.0,0.0
29.616666666666266,0.48497197,-0.7868012,0.57271,-2.8612173,0.28770205,2.051086,1.3646331,0.039999966,0.04,-9.677353,-1.5850930213928223,0.26912156,0.0,-0.0,0.0
29.63333333333293,0.48497197,-0.7868012,0.57271,-2.8612173,0.28770205,2.051086,1.3646331,0.039999966,0.04,-9.677353,-1.5850930213928223,0.26912156,0.0,-0.0,0.0
29.649999999999597,0.48497197,-0.7868012,0.57271,-2.8612173,0.28770205,2.051086,1.3646331,0.039999966,0.04,-9.677353,-1.5850930213928223,0.26912156,0.0,-0.0,0.0
29.666666666666263,0.48497197,-0.7868012,0.57271,-2.8612173,0.28770205,2.051086,1.3646331,0.039999966,0.04,-9.677353,-1.5850930213928223,0.26912156,0.0,-0.0,0.0
29.68333333333293,0.48497197,-0.7868012,0.57271,-2.8612173,0.28770205,2.051086,1.3646331,0.039999966,0.04,-9.677353,-1.5850930213928223,0.26912156,0.0,-0.0,0.0
29.699999999999594,0.48497197,-0.7868012,0.57271,-2.8612173,0.28770205,2.051086,1.3646331,0.039999966,0.04,-9.677353,-1.5850930213928223,0.26912156,0.0,-0.0,0.0
29.71666666666626,0.48497197,-0.7868012,0.57271,-2.8612173,0.28770205,2.051086,1.3646331,0.039999966,0.04,-9.677353,-1.5850930213928223,0.26912156,0.0,-0.0,0.0
29.733333333332926,0.48497197,-0.7868012,0.57271,-2.8612173,0.28770205,2.051086,1.3646331,0.039999966,0.04,-9.677353,-1.5850930213928223,0.26912156,0.0,-0.0,0.0
29.74999999999959,0.48497197,-0.7868012,0.57271,-2.8612173,0.28770205,2.051086,1.3646331,0.039999966,0.04,-9.677353,-1.5850930213928223,0.26912156,0.0,-0.0,0.0
29.766666666666257,0.48497197,-0.7868012,0.57271,-2.8612173,0.28770205,2.051086,1.3646331,0.039999966,0.04,-9.677353,-1.5850930213928223,0.26912156,0.0,-0.0,0.0
29.783333333332923,0.48497197,-0.7868012,0.57271,-2.8612173,0.28770205,2.051086,1.3646331,0.039999966,0.04,-9.677353,-1.5850930213928223,0.26912156,0.0,-0.0,0.0
29.79999999999959,0.48497197,-0.7868012,0.57271,-2.8612173,0.28770205,2.051086,1.3646331,0.039999966,0.04,-9.677353,-1.5850930213928223,0.26912156,0.0,-0.0,0.0
29.816666666666254,0.48497197,-0.7868012,0.57271,-2.8612173,0.28770205,2.051086,1.3646331,0.039999966,0.04,-9.677353,-1.5850930213928223,0.26912156,0.0,-0.0,0.0
29.83333333333292,0.48497197,-0.7868012,0.57271,-2.8612173,0.28770205,2.051086,1.3646331,0.039999966,0.04,-9.677353,-1.5850930213928223,0.26912156,0.0,-0.0,0.0
29.849999999999586,0.48497197,-0.7868012,0.57271,-2.8612173,0.28770205,2.051086,1.3646331,0.039999966,0.04,-9.677353,-1.5850930213928223,0.26912156,0.0,-0.0,0.0
29.86666666666625,0.48497197,-0.7868012,0.57271,-2.8612173,0.28770205,2.051086,1.3646331,0.039999966,0.04,-9.677353,-1.5850930213928223,0.26912156,0.0,-0.0,0.0
29.883333333332917,0.48497197,-0.7868012,0.57271,-2.8612173,0.28770205,2.051086,1.3646331,0.039999966,0.04,-9.677353,-1.5850930213928223,0.26912156,0.0,-0.0,0.0
29.899999999999583,0.48497197,-0.7868012,0.57271,-2.8612173,0.28770205,2.051086,1.3646331,0.039999966,0.04,-9.677353,-1.5850930213928223,0.26912156,0.0,-0.0,0.0
29.91666666666625,0.48497197,-0.7868012,0.57271,-2.8612173,0.28770205,2.051086,1.3646331,0.039999966,0.04,-9.677353,-1.5850930213928223,0.26912156,0.0,-0.0,0.0
29.933333333332914,0.48497197,-0.7868012,0.57271,-2.8612173,0.28770205,2.051086,1.3646331,0.039999966,0.04,-9.677353,-1.5850930213928223,0.26912156,0.0,-0.0,0.0
29.94999999999958,0.48497197,-0.7868012,0.57271,-2.8612173,0.28770205,2.051086,1.3646331,0.039999966,0.04,-9.677353,-1.5850930213928223,0.26912156,0.0,-0.0,0.0
29.966666666666246,0.48497197,-0.7868012,0.57271,-2.8612173,0.28770205,2.051086,1.3646331,0.039999966,0.04,-9.677353,-1.5850930213928223,0.26912156,0.0,-0.0,0.0
29.98333333333291,0.48497197,-0.7868012,0.57271,-2.8612173,0.28770205,2.051086,1.3646331,0.039999966,0.04,-9.677353,-1.5850930213928223,0.26912156,0.0,-0.0,0.0
29.999999999999577,0.48497197,-0.7868012,0.57271,-2.8612173,0.28770205,2.051086,1.3646331,0.039999966,0.04,-9.677353,-1.5850930213928223,0.26912156,0.0,-0.0,0.0
30.016666666666243,0.48497197,-0.7868012,0.57271,-2.8612173,0.28770205,2.051086,1.3646331,0.039999966,0.04,-9.677353,-1.5850930213928223,0.26912156,0.0,-0.0,0.0
30.03333333333291,0.48497197,-0.7868012,0.57271,-2.8612173,0.28770205,2.051086,1.3646331,0.039999966,0.04,-9.677353,-1.5850930213928223,0.26912156,0.0,-0.0,0.0
30.049999999999574,0.48497197,-0.7868012,0.57271,-2.8612173,0.28770205,2.051086,1.3646331,0.039999966,0.04,-9.677353,-1.5850930213928223,0.26912156,0.0,-0.0,0.0
30.06666666666624,0.48497197,-0.7868012,0.57271,-2.8612173,0.28770205,2.051086,1.3646331,0.039999966,0.04,-9.677353,-1.5850930213928223,0.26912156,0.0,-0.0,0.0
30.083333333332906,0.48497197,-0.7868012,0.57271,-2.8612173,0.28770205,2.051086,1.3646331,0.039999966,0.04,-9.677353,-1.5850930213928223,0.26912156,0.0,-0.0,0.0
30.09999999999957,0.48497197,-0.7868012,0.57271,-2.8612173,0.28770205,2.051086,1.3646331,0.039999966,0.04,-9.677353,-1.5850930213928223,0.26912156,0.0,-0.0,0.0
30.116666666666237,0.48497197,-0.7868012,0.57271,-2.8612173,0.28770205,2.051086,1.3646331,0.039999966,0.04,-9.677353,-1.5850930213928223,0.26912156,0.0,-0.0,0.0
30.133333333332903,0.48497197,-0.7868012,0.57271,-2.8612173,0.28770205,2.051086,1.3646331,0.039999966,0.04,-9.677353,-1.5850930213928223,0.26912156,0.0,-0.0,0.0
30.14999999999957,0.48497197,-0.7868012,0.57271,-2.8612173,0.28770205,2.051086,1.3646331,0.039999966,0.04,-9.677353,-1.5850930213928223,0.26912156,0.0,-0.0,0.0
30.166666666666234,0.48497197,-0.7868012,0.57271,-2.8612173,0.28770205,2.051086,1.3646331,0.039999966,0.04,-9.677353,-1.5850930213928223,0.26912156,0.0,-0.0,0.0
30.1833333333329,0.48497197,-0.7868012,0.57271,-2.8612173,0.28770205,2.051086,1.3646331,0.039999966,0.04,-9.677353,-1.5850930213928223,0.26912156,0.0,-0.0,0.0
30.199999999999566,0.48497197,-0.7868012,0.57271,-2.8612173,0.28770205,2.051086,1.3646331,0.039999966,0.04,-9.677353,-1.5850930213928223,0.26912156,0.0,-0.0,0.0
30.21666666666623,0.48497197,-0.7868012,0.57271,-2.8612173,0.28770205,2.051086,1.3646331,0.039999966,0.04,-9.677353,-1.5850930213928223,0.26912156,0.0,-0.0,0.0
30.233333333332897,0.48497197,-0.7868012,0.57271,-2.8612173,0.28770205,2.051086,1.3646331,0.039999966,0.04,-9.677353,-1.5850930213928223,0.26912156,0.0,-0.0,0.0
30.249999999999563,0.48497197,-0.7868012,0.57271,-2.8612173,0.28770205,2.051086,1.3646331,0.039999966,0.04,-9.677353,-1.5850930213928223,0.26912156,0.0,-0.0,0.0
30.26666666666623,0.48497197,-0.7868012,0.57271,-2.8612173,0.28770205,2.051086,1.3646331,0.039999966,0.04,-9.677353,-1.5850930213928223,0.26912156,0.0,-0.0,0.0
30.283333333332894,0.48497197,-0.7868012,0.57271,-2.8612173,0.28770205,2.051086,1.3646331,0.039999966,0.04,-9.677353,-1.5850930213928223,0.26912156,0.0,-0.0,0.0
30.29999999999956,0.48497197,-0.7868012,0.57271,-2.8612173,0.28770205,2.051086,1.3646331,0.039999966,0.04,-9.677353,-1.5850930213928223,0.26912156,0.0,-0.0,0.0
30.316666666666226,0.48497197,-0.7868012,0.57271,-2.8612173,0.28770205,2.051086,1.3646331,0.039999966,0.04,-9.677353,-1.5850930213928223,0.26912156,0.0,-0.0,0.0
30.33333333333289,0.48497197,-0.7868012,0.57271,-2.8612173,0.28770205,2.051086,1.3646331,0.039999966,0.04,-9.677353,-1.5850930213928223,0.26912156,0.0,-0.0,0.0
30.349999999999557,0.48497197,-0.7868012,0.57271,-2.8612173,0.28770205,2.051086,1.3646331,0.039999966,0.04,-9.677353,-1.5850930213928223,0.26912156,0.0,-0.0,0.0
30.366666666666223,0.48497197,-0.7868012,0.57271,-2.8612173,0.28770205,2.051086,1.3646331,0.039999966,0.04,-9.677353,-1.5850930213928223,0.26912156,0.0,-0.0,0.0
30.38333333333289,0.48497197,-0.7868012,0.57271,-2.8612173,0.28770205,2.051086,1.3646331,0.039999966,0.04,-9.677353,-1.5850930213928223,0.26912156,0.0,-0.0,0.0
30.399999999999554,0.48497197,-0.7868012,0.57271,-2.8612173,0.28770205,2.051086,1.3646331,0.039999966,0.04,-9.677353,-1.5850930213928223,0.26912156,0.0,-0.0,0.0
30.41666666666622,0.48497197,-0.7868012,0.57271,-2.8612173,0.28770205,2.051086,1.3646331,0.039999966,0.04,-9.677353,-1.5850930213928223,0.26912156,0.0,-0.0,0.0
30.433333333332886,0.48497197,-0.7868012,0.57271,-2.8612173,0.28770205,2.051086,1.3646331,0.039999966,0.04,-9.677353,-1.5850930213928223,0.26912156,0.0,-0.0,0.0
30.44999999999955,0.48497197,-0.7868012,0.57271,-2.8612173,0.28770205,2.051086,1.3646331,0.039999966,0.04,-9.677353,-1.5850930213928223,0.26912156,0.0,-0.0,0.0
30.466666666666217,0.48497197,-0.7868012,0.57271,-2.8612173,0.28770205,2.051086,1.3646331,0.039999966,0.04,-9.677353,-1.5850930213928223,0.26912156,0.0,-0.0,0.0
30.483333333332883,0.48497197,-0.7868012,0.57271,-2.8612173,0.28770205,2.051086,1.3646331,0.039999966,0.04,-9.677353,-1.5850930213928223,0.26912156,0.0,-0.0,0.0
30.49999999999955,0.48497197,-0.7868012,0.57271,-2.8612173,0.28770205,2.051086,1.3646331,0.039999966,0.04,-9.677353,-1.5850930213928223,0.26912156,0.0,-0.0,0.0
30.516666666666215,0.48497197,-0.7868012,0.57271,-2.8612173,0.28770205,2.051086,1.3646331,0.039999966,0.04,-9.677353,-1.5850930213928223,0.26912156,0.0,-0.0,0.0
30.53333333333288,0.48497197,-0.7868012,0.57271,-2.8612173,0.28770205,2.051086,1.3646331,0.039999966,0.04,-9.677353,-1.5850930213928223,0.26912156,0.0,-0.0,0.0
30.549999999999546,0.48497197,-0.7868012,0.57271,-2.8612173,0.28770205,2.051086,1.3646331,0.039999966,0.04,-9.677353,-1.5850930213928223,0.26912156,0.0,-0.0,0.0
30.56666666666621,0.48497197,-0.7868012,0.57271,-2.8612173,0.28770205,2.051086,1.3646331,0.039999966,0.04,-9.677353,-1.5850930213928223,0.26912156,0.0,-0.0,0.0
30.583333333332877,0.48497197,-0.7868012,0.57271,-2.8612173,0.28770205,2.051086,1.3646331,0.039999966,0.04,-9.677353,-1.5850930213928223,0.26912156,0.0,-0.0,0.0
30.599999999999543,0.48497197,-0.7868012,0.57271,-2.8612173,0.28770205,2.051086,1.3646331,0.039999966,0.04,-9.677353,-1.5850930213928223,0.26912156,0.0,-0.0,0.0
30.61666666666621,0.48497197,-0.7868012,0.57271,-2.8612173,0.28770205,2.051086,1.3646331,0.039999966,0.04,-9.677353,-1.5850930213928223,0.26912156,0.0,-0.0,0.0
30.633333333332875,0.48497197,-0.7868012,0.57271,-2.8612173,0.28770205,2.051086,1.3646331,0.039999966,0.04,-9.677353,-1.5850930213928223,0.26912156,0.0,-0.0,0.0
30.64999999999954,0.48497197,-0.7868012,0.57271,-2.8612173,0.28770205,2.051086,1.3646331,0.039999966,0.04,-9.677353,-1.5850930213928223,0.26912156,0.0,-0.0,0.0
30.666666666666206,0.48497197,-0.7868012,0.57271,-2.8612173,0.28770205,2.051086,1.3646331,0.039999966,0.04,-9.677353,-1.5850930213928223,0.26912156,0.0,-0.0,0.0
30.68333333333287,0.48497197,-0.7868012,0.57271,-2.8612173,0.28770205,2.051086,1.3646331,0.039999966,0.04,-9.677353,-1.5850930213928223,0.26912156,0.0,-0.0,0.0
30.699999999999537,0.48497197,-0.7868012,0.57271,-2.8612173,0.28770205,2.051086,1.3646331,0.039999966,0.04,-9.677353,-1.5850930213928223,0.26912156,0.0,-0.0,0.0
30.716666666666203,0.48497197,-0.7868012,0.57271,-2.8612173,0.28770205,2.051086,1.3646331,0.039999966,0.04,-9.677353,-1.5850930213928223,0.26912156,0.0,-0.0,0.0
30.73333333333287,0.48497197,-0.7868012,0.57271,-2.8612173,0.28770205,2.051086,1.3646331,0.039999966,0.04,-9.677353,-1.5850930213928223,0.26912156,0.0,-0.0,0.0
30.749999999999535,0.48497197,-0.7868012,0.57271,-2.8612173,0.28770205,2.051086,1.3646331,0.039999966,0.04,-9.677353,-1.5850930213928223,0.26912156,0.0,-0.0,0.0
30.7666666666662,0.48497197,-0.7868012,0.57271,-2.8612173,0.28770205,2.051086,1.3646331,0.039999966,0.04,-9.677353,-1.5850930213928223,0.26912156,0.0,-0.0,0.0
30.783333333332866,0.48497197,-0.7868012,0.57271,-2.8612173,0.28770205,2.051086,1.3646331,0.039999966,0.04,-9.677353,-1.5850930213928223,0.26912156,0.0,-0.0,0.0
30.79999999999953,0.48497197,-0.7868012,0.57271,-2.8612173,0.28770205,2.051086,1.3646331,0.039999966,0.04,-9.677353,-1.5850930213928223,0.26912156,0.0,-0.0,0.0
30.816666666666197,0.48497197,-0.7868012,0.57271,-2.8612173,0.28770205,2.051086,1.3646331,0.039999966,0.04,-9.677353,-1.5850930213928223,0.26912156,0.0,-0.0,0.0
30.833333333332863,0.48497197,-0.7868012,0.57271,-2.8612173,0.28770205,2.051086,1.3646331,0.039999966,0.04,-9.677353,-1.5850930213928223,0.26912156,0.0,-0.0,0.0
30.84999999999953,0.48497197,-0.7868012,0.57271,-2.8612173,0.28770205,2.051086,1.3646331,0.039999966,0.04,-9.677353,-1.5850930213928223,0.26912156,0.0,-0.0,0.0
30.866666666666195,0.48497197,-0.7868012,0.57271,-2.8612173,0.28770205,2.051086,1.3646331,0.039999966,0.04,-9.677353,-1.5850930213928223,0.26912156,0.0,-0.0,0.0
30.88333333333286,0.48497197,-0.7868012,0.57271,-2.8612173,0.28770205,2.051086,1.3646331,0.039999966,0.04,-9.677353,-1.5850930213928223,0.26912156,0.0,-0.0,0.0
30.899999999999526,0.48497197,-0.7868012,0.57271,-2.8612173,0.28770205,2.051086,1.3646331,0.039999966,0.04,-9.677353,-1.5850930213928223,0.26912156,0.0,-0.0,0.0
30.916666666666192,0.48497197,-0.7868012,0.57271,-2.8612173,0.28770205,2.051086,1.3646331,0.039999966,0.04,-9.677353,-1.5850930213928223,0.26912156,0.0,-0.0,0.0
30.933333333332858,0.48497197,-0.7868012,0.57271,-2.8612173,0.28770205,2.051086,1.3646331,0.039999966,0.04,-9.677353,-1.5850930213928223,0.26912156,0.0,-0.0,0.0
30.949999999999523,0.48497197,-0.7868012,0.57271,-2.8612173,0.28770205,2.051086,1.3646331,0.039999966,0.04,-9.677353,-1.5850930213928223,0.26912156,0.0,-0.0,0.0
30.96666666666619,0.48497197,-0.7868012,0.57271,-2.8612173,0.28770205,2.051086,1.3646331,0.039999966,0.04,-9.677353,-1.5850930213928223,0.26912156,0.0,-0.0,0.0
30.983333333332855,0.48497197,-0.7868012,0.57271,-2.8612173,0.28770205,2.051086,1.3646331,0.039999966,0.04,-9.677353,-1.5850930213928223,0.26912156,0.0,-0.0,0.0
30.99999999999952,0.48497197,-0.7868012,0.57271,-2.8612173,0.28770205,2.051086,1.3646331,0.039999966,0.04,-9.677353,-1.5850930213928223,0.26912156,0.0,-0.0,0.0
31.016666666666186,0.48497197,-0.7868012,0.57271,-2.8612173,0.28770205,2.051086,1.3646331,0.039999966,0.04,-9.677353,-1.5850930213928223,0.26912156,0.0,-0.0,0.0
31.033333333332852,0.48497197,-0.7868012,0.57271,-2.8612173,0.28770205,2.051086,1.3646331,0.039999966,0.04,-9.677353,-1.5850930213928223,0.26912156,0.0,-0.0,0.0
31.049999999999518,0.48497197,-0.7868012,0.57271,-2.8612173,0.28770205,2.051086,1.3646331,0.039999966,0.04,-9.677353,-1.5850930213928223,0.26912156,0.0,-0.0,0.0
31.066666666666183,0.48497197,-0.7868012,0.57271,-2.8612173,0.28770205,2.051086,1.3646331,0.039999966,0.04,-9.677353,-1.5850930213928223,0.26912156,0.0,-0.0,0.0
31.08333333333285,0.48497197,-0.7868012,0.57271,-2.8612173,0.28770205,2.051086,1.3646331,0.039999966,0.04,-9.677353,-1.5850930213928223,0.26912156,0.0,-0.0,0.0
31.099999999999515,0.48497197,-0.7868012,0.57271,-2.8612173,0.28770205,2.051086,1.3646331,0.039999966,0.04,-9.677353,-1.5850930213928223,0.26912156,0.0,-0.0,0.0
31.11666666666618,0.48497197,-0.7868012,0.57271,-2.8612173,0.28770205,2.051086,1.3646331,0.039999966,0.04,-9.677353,-1.5850930213928223,0.26912156,0.0,-0.0,0.0
31.133333333332846,0.48497197,-0.7868012,0.57271,-2.8612173,0.28770205,2.051086,1.3646331,0.039999966,0.04,-9.677353,-1.5850930213928223,0.26912156,0.0,-0.0,0.0
31.149999999999512,0.48497197,-0.7868012,0.57271,-2.8612173,0.28770205,2.051086,1.3646331,0.039999966,0.04,-9.677353,-1.5850930213928223,0.26912156,0.0,-0.0,0.0
