rsonawane2002/My_IMU/logs_2/traj_317/clean_317.csv
time,j1,j2,j3,j4,j5,j6,j7,gripper1,gripper2,imu_ax,imu_ay,imu_az,imu_gx,imu_gy,imu_gz,quat_x,quat_y,quat_z,quat_w
730.3333333329978,0.00016700293,-0.785875,4.0107683e-05,-2.3551247,9.29385e-05,1.570997,0.786,0.04,0.04,0.0,-0.0,0.0,2.875329272945135e-08,-0.0011641195053377316,4.421952117202833e-08,0.9999995971961153,0.00020320632366974898,0.0008736418299892524,3.263050917662294e-05
730.3499999996644,0.00016701265,-0.78576016,4.0117204e-05,-2.3552213,9.297819e-05,1.5709941,0.786,0.04,0.04,-0.29199846003775676,-4.9065061212034836e-05,0.02012840495440038,6.621030123119678e-08,-0.0022384544833900103,2.1607270643247999e-07,0.9999996850596252,0.0002032028400743415,0.0007665025181553559,3.260591871945172e-05
730.3666666663311,0.00016707026,-0.7856543,4.014425e-05,-2.35531,9.304336e-05,1.5709913,0.786,0.04,0.04,0.023328725108084924,-9.284483932358732e-05,-0.0016704581074389324,2.3466359164115504e-07,-0.00323271208254551,1.1615228640157037e-06,0.9999997558535115,0.0002031688231591218,0.0006677972485046344,3.259112392329283e-05
730.3833333329977,0.00016725635,-0.78555703,4.0218805e-05,-2.355391,9.318128e-05,1.5709884,0.786,0.04,0.04,0.02246074613538873,-0.00025261723230185756,-0.001524956190923632,6.519841840341364e-07,-0.004153488644281975,3.586417816125583e-06,0.9999998122744197,0.00020305338013024105,0.0005771981911742817,3.2599055211168195e-05
730.3999999996644,0.00016768734,-0.7854676,4.0383915e-05,-2.3554652,9.348162e-05,1.5709856,0.786,0.04,0.03999999,0.02045307729381385,-0.0004989679890303564,-0.0014253052378343511,1.9952700315557608e-06,-0.005010199909011476,9.65378125834938e-06,0.9999998568930893,0.00020278310749400025,0.0004939900780302047,3.265907138830626e-05
730.416666666331,0.00016851266,-0.78538567,4.069484e-05,-2.355532,9.4007235e-05,1.5709827,0.7860019,0.04,0.03999999,0.020801190600594488,-0.0007764382928499892,-0.000964365807809564,4.934270553525429e-06,-0.005812576189684889,1.6804225217024192e-05,0.9999998913672195,0.0002032174103093568,0.00041820267320524476,3.278349812076663e-05
730.4333333329977,0.00016991068,-0.78531075,4.1217532e-05,-2.3555925,9.485111e-05,1.5709798,0.7860038,0.04,0.039999995,0.018312805528797327,-0.0011207033437423623,-0.0012507772897407676,1.603331349129129e-06,-0.00656145694394428,2.640902523546332e-05,0.9999999178807915,0.00020329016527385134,0.0003490313322821811,3.2994665829565815e-05
730.4499999996643,0.0001720857,-0.78524244,4.2027255e-05,-2.3556497,9.6132666e-05,1.570977,0.7860065,0.04,0.04,0.012988431242932919,-0.0015241219268049557,-0.0022863143978035794,1.908017788685573e-06,-0.007267354527303318,3.973723118078722e-05,0.999999938221344,0.0002032601415430821,0.0002848368964112378,3.3325149014332866e-05
730.466666666331,0.00017526529,-0.78518057,4.3207914e-05,-2.3557003,9.798813e-05,1.5709741,0.7860103,0.04,0.04,0.018462973739064026,-0.001976826717934368,-0.0006852111080535295,3.3425277712624394e-06,-0.0079499958920298,5.7323738165366566e-05,0.9999999529811215,0.00020316260932126104,0.00022719885953637297,3.381400716427684e-05
730.4833333329976,0.0001796976,-0.7851248,4.485079e-05,-2.3557441,0.00010056349,1.5709713,0.78601605,0.04,0.04,0.01806683992471303,-0.002467821002213221,-0.0004758514248637269,5.780946203991937e-06,-0.008597795104696894,7.98356930074293e-05,0.9999999632767074,0.0002032286755437473,0.00017593836762173,3.450188577379805e-05
730.4999999996643,0.0001856491,-0.7850748,4.7053923e-05,-2.355786,0.00010402624,1.5709684,0.7860237,0.04,0.039999995,0.00963346200930637,-0.0030023663907176963,-0.0024374926241410577,7.351453503419989e-06,-0.009213302512086411,0.00010889084702125284,0.9999999704496051,0.00020329062105483976,0.00012852218847901622,3.543669301165873e-05
730.5166666663309,0.0001934029,-0.7850304,4.9921753e-05,-2.3558214,0.00010850579,1.5709655,0.78603333,0.04,0.04,0.0176046002164032,-0.003535871826475305,-0.00023018947108432997,9.354285337367929e-06,-0.00982396775320978,0.00013981439719801912,0.9999999748689424,0.00020322943514497257,8.72748692913767e-05,3.664707845621624e-05
730.5333333329976,0.00020325568,-0.78499156,5.3563424e-05,-2.355851,0.00011418915,1.5709627,0.78604656,0.04,0.04,0.01578574056511073,-0.004132066579476016,-0.0005521158516375024,1.2961730488041394e-05,-0.010411818531522753,0.0001777149668630664,0.9999999772047979,0.00020363309297297236,5.163008629641719e-05,3.818770892399011e-05
730.5499999996642,0.0002155166,-0.784958,5.809269e-05,-2.3558776,0.00012125388,1.5709597,0.78606236,0.039999995,0.04,0.01068822116452317,-0.004740053594231886,-0.0018192726591204078,1.2894267125705835e-05,-0.010983106808221127,0.00022116507292984942,0.9999999782282986,0.00020380027962885498,2.0008275928207833e-05,4.0106325582616245e-05
730.5666666663309,0.0002305056,-0.7849299,6.362734e-05,-2.3558977,0.00012987807,1.5709567,0.7860817,0.03999999,0.04,0.017339674794802917,-0.005366327037269035,-8.555495232265287e-05,1.551107994841026e-05,-0.011556497386860008,0.00026953164540130916,0.9999999782742286,0.0002040060667045219,-5.564094330722749e-06,4.245124265518887e-05
730.5833333329975,0.00024855154,-0.78490704,7.028838e-05,-2.3559127,0.00014025296,1.5709535,0.7861051,0.039999984,0.03999999,0.014296087772991406,-0.006015096439058977,-0.0009421556990574231,1.850978797465221e-05,-0.012114877992837465,0.0003246868644497633,0.9999999777567931,0.00020434130215890025,-2.6100407932175287e-05,4.527487633326525e-05
730.5999999996642,0.0002699911,-0.7848895,7.819982e-05,-2.3559241,0.0001525696,1.5709493,0.7861328,0.03999998,0.039999988,0.01163857550234848,-0.006675755242553432,-0.002115848607719961,2.10784967351232e-05,-0.012671289064366051,0.00038584202959539857,0.9999999769595043,0.00020468322816203968,-4.2673665360617435e-05,4.8628441142756015e-05
730.6166666663308,0.0002951674,-0.7848775,8.748781e-05,-2.3559284,0.0001670243,1.5709426,0.7861654,0.039999977,0.039999988,0.017422091781638116,-0.007350892296412799,-0.0017675542069994776,2.433876022680712e-05,-0.013237147224419238,0.0004525152863203252,0.9999999761148318,0.00020511341885755672,-5.418133483801903e-05,5.256618917918342e-05
730.6333333329975,0.0003244287,-0.7848706,9.828064e-05,-2.3559282,0.00018381554,1.5709358,0.78620315,0.03999997,0.03999998,0.013391310175148163,-0.00803539961849103,-0.0009988184561438018,2.7427590392035614e-05,-0.013804909133740894,0.0005262930514320257,0.9999999753918409,0.00020553169656349317,-6.089181475765734e-05,5.7142156878697407e-05
730.6499999996641,0.00035812726,-0.7848692,0.000110707966,-2.3559234,0.0002031445,1.5709289,0.78624666,0.03999996,0.039999973,0.013654678159569222,-0.00872804050639158,-0.0011349902401924794,3.139030783588185e-05,-0.014379535783902643,0.0006064893347331058,0.9999999748606095,0.00020604376332836153,-6.268612311954943e-05,6.24115185113485e-05
730.6666666663308,0.00039661888,-0.78487325,0.00012490067,-2.355912,0.00022521336,1.5709213,0.7862963,0.039999958,0.039999973,0.017177705014015388,-0.009427373368641108,-0.0006523668973024144,3.545046540313684e-05,-0.014963057886351527,0.0006923316397083645,0.999999974589703,0.00020660392577498123,-5.8759861645191094e-05,6.843018194660511e-05
730.6833333329974,0.00044026098,-0.78488284,0.00014099035,-2.3558948,0.00025022705,1.5709108,0.7863526,0.03999995,0.039999966,0.014943399255806789,-0.010129933608404602,-0.002716022225923709,3.9996228501171585e-05,-0.015548442834620842,0.0007855911544530827,0.9999999744154486,0.00020722509951787366,-5.0633268838361005e-05,7.525378588458406e-05
730.6999999996641,0.00048941287,-0.7848982,0.0001591093,-2.3558724,0.00027838963,1.5709002,0.786416,0.03999995,0.03999997,0.015264940289605455,-0.01083642686903617,-0.0010255693606353589,4.4923738624274255e-05,-0.01615498537530913,0.0008846225204997371,0.9999999742526259,0.00020794888927354717,-3.7055030025308964e-05,8.293932585041101e-05
730.7166666663308,0.0005444341,-0.78491944,0.00017938975,-2.355844,0.00030990771,1.5708894,0.786487,0.03999995,0.039999966,0.0165083633689056,-0.011544794082528282,-0.0008324766396228256,4.963133448429406e-05,-0.016769452877407227,0.000992040520408513,0.9999999738634365,0.00020875694004924913,-1.769776750549636e-05,9.154482711517044e-05
730.7333333329974,0.0006056844,-0.78494674,0.00020196442,-2.3558097,0.00034498447,1.5708759,0.78656596,0.039999947,0.039999966,0.016016549234487698,-0.012249908086863957,-0.0027505737477673264,5.466910146147575e-05,-0.017393552227008953,0.001104435620688476,0.9999999728940869,0.0002096305363754687,6.365112871583043e-06,0.00010112541173587322
730.749999999664,0.0006735229,-0.7849801,0.00022696516,-2.3557684,0.00038382577,1.5708615,0.78665334,0.039999947,0.03999997,0.018165612588161295,-0.012957924759145582,-0.0010871078119700783,6.0352507733819893e-05,-0.018039338036763566,0.001223573466141192,0.9999999709269954,0.00021055150055702707,3.644430301859628e-05,0.00011174026383359054
730.7666666663307,0.0007483069,-0.78501976,0.00025452385,-2.3557208,0.00042663637,1.5708463,0.78674966,0.039999954,0.039999977,0.01762852184088448,-0.013661908557993738,-0.0012338283788659865,6.62238761907994e-05,-0.018695656561916872,0.0013503262721060228,0.9999999673723259,0.00021156213779790703,7.25092884436045e-05,0.00012344720370950778
730.7833333329974,0.0008303923,-0.7850657,0.00028477143,-2.3556666,0.00047361787,1.5708282,0.78685534,0.039999954,0.03999998,0.01697649260687939,-0.014359379279210377,-0.0029661362684008097,7.240145418193657e-05,-0.019365157526628606,0.0014829778680540268,0.9999999616655546,0.00021264598267402884,0.00011345657280056984,0.00013630180357901547
730.799999999664,0.0009201329,-0.7851182,0.00031783813,-2.3556054,0.0005249733,1.5708097,0.78697085,0.039999947,0.039999973,0.019286513536420635,-0.015058705237829418,-0.0008392492121256367,7.90426501316938e-05,-0.020060277481048657,0.001623287911279033,0.9999999528639777,0.00021381760611506996,0.00016107336076062737,0.00015036437791780713
730.8166666663307,0.001017879,-0.7851775,0.00035385284,-2.355537,0.00058090145,1.5707898,0.78709674,0.039999943,0.039999973,0.019209968244116027,-0.015746486254071546,-0.0017885235738424043,8.607068164021795e-05,-0.020765977082471014,0.0017695281432652536,0.99999994003423,0.00021512342192124507,0.00021494135436063162,0.00016569147230770573
730.8333333329973,0.0011239784,-0.78524375,0.00039294377,-2.3554614,0.00064160203,1.5707678,0.7872333,0.039999943,0.039999973,0.019114779974049867,-0.01643172198930584,-0.0024056439176689537,9.286842054307375e-05,-0.021489015959142814,0.0019234208960524101,0.9999999221946337,0.00021649195066528298,0.0002747613422786786,0.00018234079785212935
730.849999999664,0.001238775,-0.785317,0.0004352375,-2.3553784,0.00070727005,1.5707445,0.7873811,0.03999995,0.039999984,0.01995405549672924,-0.017108887310973406,-0.001674824741693115,9.994683576243849e-05,-0.022232747548173715,0.002083259348686181,0.9999998979586825,0.00021800323940286023,0.000341187611753942,0.00020037022175165833
730.8666666663306,0.0013626091,-0.7853976,0.00048085942,-2.3552873,0.0007781001,1.5707186,0.7875405,0.039999954,0.03999999,0.021044986784035657,-0.01777885370536558,-0.002611210502023731,0.00010702734482633848,-0.022993261954203672,0.0022498989291998197,0.9999998660238172,0.00021958993029847618,0.00041401004559342224,0.00021983696730180428
730.8833333329973,0.0014958163,-0.7854856,0.00052993296,-2.3551884,0.0008542852,1.5706916,0.7877119,0.039999954,0.039999995,0.02122539371842702,-0.018442108359561348,-0.0017437017074239947,0.00011439164512681323,-0.023773895651439787,0.0024233407237290133,0.9999998245656936,0.00022127753979484175,0.0004938825987890526,0.0002408003552942239
730.8999999996639,0.0016387287,-0.78558135,0.0005825807,-2.355081,0.00093601254,1.5706618,0.7878958,0.039999958,0.04,0.021807128284945243,-0.019093839212425134,-0.002847210112877363,0.00012178911506921519,-0.02457173878495161,0.0026044490942767487,0.9999997720298014,0.00022306305394486115,0.0005803861651933195,0.0002633156251930351
730.9166666663306,0.0017916731,-0.78568465,0.0006389227,-2.3549657,0.0010234747,1.5706306,0.78809255,0.039999954,0.04,0.021686418165645094,-0.01974383445652518,-0.0019384797117494301,0.00012954772023364772,-0.025389571223656655,0.002791484453268165,0.999999706252274,0.0002249473539636171,0.0006739954949041904,0.00028744412814789305
730.9333333329972,0.0019549718,-0.78579617,0.00069907785,-2.3548415,0.0011168477,1.5705967,0.78830266,0.039999947,0.039999995,0.023247726485275955,-0.02037240010127988,-0.0029126591552630643,0.00013744621787749496,-0.026226398422866545,0.002985334088343509,0.9999996250287424,0.0002269629418631439,0.0007747977006431661,0.00031323907928520686
730.9499999996639,0.0021289412,-0.7859157,0.0007631627,-2.354709,0.0012163137,1.5705609,0.7885265,0.039999943,0.039999995,0.022400776148412405,-0.020998166512679987,-0.0024924653133417962,0.00014501448754890983,-0.027083881510474375,0.0031860010536300803,0.9999995260420502,0.0002290869716755907,0.0008827902661060459,0.0003407582435980528
730.9666666663305,0.002313893,-0.78604376,0.00083129207,-2.3545673,0.0013220508,1.5705228,0.78876424,0.039999936,0.039999988,0.024123307481183076,-0.0216134194866365,-0.002907402896235034,0.00015259694204843716,-0.02796007191084801,0.0033943514906449594,0.9999994064030271,0.00023123896195634757,0.0009983876891476867,0.00037005966801357767
730.9833333329972,0.0025101327,-0.7861803,0.0009035787,-2.3544157,0.0014342361,1.570482,0.78901654,0.039999932,0.039999988,0.025536602870501746,-0.022220523753453854,-0.0026364563796121843,0.0001608500144209546,-0.028856144684295818,0.0036086703139494307,0.9999992629390957,0.00023352078063960604,0.0011218849362045456,0.0004012025678422394
730.9999999996638,0.0027179613,-0.7863256,0.0009801335,-2.3542542,0.0015530399,1.5704395,0.7892838,0.03999993,0.039999988,0.025660289372941847,-0.022815310192687496,-0.0023044139488614945,0.0001690332370299641,-0.029769499637686374,0.0038298199757721097,0.9999990920027815,0.00023594813370425436,0.0012536959426869717,0.00043424483202376377
731.0166666663305,0.0029376745,-0.78647983,0.0010610649,-2.354084,0.001678632,1.5703938,0.7895663,0.039999925,0.039999984,0.02394993341547913,-0.023393601447467636,-0.003924040294500664,0.0001764446641719479,-0.030697279397712003,0.004058634708110157,0.9999988914838422,0.00023845067139442752,0.0013928336959867092,0.00046924051347275574
731.0333333329971,0.0031695594,-0.78664297,0.0011464796,-2.3539038,0.0018111755,1.570346,0.78986436,0.039999925,0.039999988,0.0261484610833973,-0.023967361683808423,-0.0026720416467451713,0.00018431701721564192,-0.03165013577872963,0.004293467624350218,0.9999986565283441,0.00024105134789971,0.0015403075969167733,0.0005062492088118799
731.0499999996638,0.0034139005,-0.7868154,0.0012364818,-2.3537133,0.0019508329,1.5702959,0.7901785,0.03999993,0.039999995,0.02697658395007796,-0.02452928040041106,-0.00295299695716178,0.0001919331886455107,-0.03261963614764612,0.004535179224617278,0.9999983827379126,0.00024377520344695194,0.001696381670291696,0.0005453296600693017
731.0666666663304,0.0036709744,-0.7869973,0.0013311733,-2.3535128,0.002097768,1.5702426,0.7905089,0.03999993,0.04,0.026463594927617073,-0.025077091505767146,-0.003933980344283938,0.0001991215267302983,-0.033603549104289046,0.004782842028337718,0.9999980667665541,0.00024659222584645125,0.001860544781699093,0.0005865394650975874
731.0833333329971,0.003941052,-0.78718895,0.0014306542,-2.353301,0.0022521296,1.5701871,0.7908561,0.039999925,0.04,0.02905832275301723,-0.025616025592449347,-0.0029035964940415937,0.00020631502159511664,-0.03461096714810053,0.005038330481570083,0.999997701906582,0.00024953454247739437,0.0020339841587495196,0.0006299384961578675
731.0999999996637,0.0042243977,-0.78739053,0.0015350216,-2.353079,0.002414077,1.5701289,0.7912204,0.039999917,0.039999995,0.027584947397296666,-0.026140400189701013,-0.003800557371214097,0.00021282512980348375,-0.035628278974489475,0.005301529514296087,0.9999972842038828,0.000252609864723595,0.0022161581398064726,0.0006755858307312955
731.1166666663304,0.0045212703,-0.78760195,0.0016443711,-2.3528464,0.0025837338,1.5700678,0.7916021,0.039999917,0.04,0.02814894770135634,-0.026636556336537276,-0.0038662303346814753,0.00021881933018945768,-0.03666417001118502,0.005570911115779953,0.999996808568956,0.00025576801060845966,0.0024070612595237105,0.0007235265859887229
731.133333332997,0.0048319213,-0.7878234,0.0017587952,-2.3526022,0.0027612788,1.5700036,0.79200137,0.039999913,0.04,0.029562255961779194,-0.027164286249276894,-0.0037384430982889683,0.0002243688503591676,-0.037718959452637826,0.00584729766899939,0.9999962684662467,0.00025899274306262347,0.002607134510149959,0.0007738384763876833
731.1499999996637,0.005156596,-0.78805536,0.001878385,-2.3523471,0.002946825,1.5699369,0.79241866,0.03999991,0.04,0.029457265723475956,-0.027629408244525533,-0.004079099393061725,0.0002296631640831548,-0.03878831132051045,0.006129678504756526,0.99999565742104,0.0002623020560499838,0.0028165802335138744,0.0008265666829907318
731.1666666663303,0.005495536,-0.78829753,0.0020032283,-2.3520806,0.003140511,1.5698673,0.7928542,0.039999902,0.04,0.02979614270495201,-0.02811031636275798,-0.003936418767547245,0.0002345593310664161,-0.03987242441043448,0.006419242078885866,0.9999949693209775,0.00026565622597688046,0.0030353321040141154,0.0008817701089531351
731.183333332997,0.005848973,-0.78855026,0.0021334114,-2.3518026,0.003342486,1.5697944,0.7933084,0.039999895,0.039999995,0.030075014049968374,-0.028581741381155344,-0.0045081171881511395,0.0002392008707384867,-0.04097173087233194,0.00671757527754114,0.9999941975951513,0.0002691099365360307,0.0032633828465920365,0.000939514911033206
731.1999999996636,0.0062171333,-0.78881395,0.0022690182,-2.351513,0.003552857,1.5697187,0.79378146,0.039999884,0.039999984,0.031055014748759824,-0.02901744356186165,-0.00448488944022607,0.0002429228587928628,-0.04209022997841262,0.007023149042290942,0.9999933336506882,0.0002726316416607506,0.003501231584019553,0.0009998517721027716
731.2166666663303,0.006600237,-0.7890885,0.0024101306,-2.3512108,0.0037717705,1.5696398,0.7942737,0.039999884,0.039999995,0.032024294628119065,-0.02947456637569148,-0.004483674271660298,0.0002460805951014951,-0.04322016408078084,0.007333252888234283,0.9999923695429943,0.0002761923521423994,0.003748989403086907,0.001062850896278251
731.233333332997,0.0069984985,-0.7893742,0.0025568248,-2.3508978,0.0039993343,1.5695578,0.79478544,0.039999884,0.03999999,0.02995509978225286,-0.029877292734257696,-0.005306009184224969,0.0002489461779078585,-0.044361853206837255,0.007653977372005593,0.9999912993929108,0.00027985998177379576,0.004006141143782648,0.0011285610327318313
731.2499999996636,0.007412126,-0.789671,0.002709179,-2.3505712,0.0042356867,1.5694726,0.79531693,0.039999884,0.04,0.03437937060914997,-0.030324896591829922,-0.004383575032762543,0.0002503569401434945,-0.04552351840589271,0.007978722076893738,0.9999901100271085,0.00028357945837905016,0.004273929388560956,0.0011970623392127257
731.2666666663303,0.007841318,-0.78997916,0.0028672668,-2.3502326,0.004480928,1.5693842,0.7958684,0.03999988,0.04,0.031772392792328574,-0.030700714898209726,-0.0052525273015024965,0.00025093340440388717,-0.04669091821037461,0.00831235474237279,0.9999887954333165,0.00028733743056858505,0.004551659297396566,0.0012684016185625345
731.2833333329969,0.008286271,-0.7902987,0.0030311595,-2.3498821,0.0047351727,1.5692928,0.7964401,0.039999872,0.04,0.03183597551221773,-0.031091752447102647,-0.005423168636564668,0.0002506723626556767,-0.04787381345520456,0.008653376491487069,0.9999873465360458,0.0002911496704012989,0.004839350623296058,0.0013426411332086417
731.2999999996636,0.008747173,-0.7906297,0.0032009277,-2.3495185,0.004998522,1.5691983,0.7970323,0.039999865,0.04,0.033929706472823895,-0.03147192791856275,-0.005088986464829581,0.00024926241234556057,-0.049070300255540364,0.009001065375090128,0.9999857508505592,0.0002949749211628671,0.005137618724111899,0.0014198448806058497
731.3166666663302,0.009224203,-0.7909724,0.0033766371,-2.3491418,0.005271074,1.5691003,0.7976453,0.039999858,0.03999999,0.03414051189234435,-0.03182542259262955,-0.0056801784747761985,0.0002470893187914436,-0.05027724051108227,0.009357084407738983,0.9999839983431875,0.00029886658346747123,0.005446422685816912,0.001500072086482601
731.3333333329969,0.009717538,-0.7913268,0.0035583535,-2.3487525,0.0055529433,1.5689988,0.79827917,0.03999985,0.039999984,0.03325975863062158,-0.03218258746597209,-0.006007402292218522,0.00024336309836408415,-0.05149446311907954,0.00972250919631892,0.9999820800522394,0.0003027633850307523,0.005765482705947253,0.001583388106749976
731.3499999996635,0.010227348,-0.79169357,0.003746138,-2.3483505,0.0058442205,1.5688938,0.79893416,0.039999846,0.039999984,0.033941004432991306,-0.032511324822474125,-0.006642918059029945,0.0002383518873587051,-0.0527235834285085,0.010093760548644495,0.9999799837323929,0.0003066351272399187,0.00609505490050647,0.0016698548504819049
731.3666666663302,0.010753793,-0.79207206,0.0039400514,-2.3479347,0.0061449986,1.5687853,0.7996104,0.039999843,0.039999984,0.035350116782395524,-0.03285118909012799,-0.005871316892269718,0.00023238221026849332,-0.05396447122076657,0.010472681831696765,0.9999776958498646,0.0003104253911384063,0.006435484207375548,0.0017595402493155276
731.3833333329968,0.011297028,-0.7924629,0.004140151,-2.347505,0.0064553698,1.5686735,0.8003082,0.03999984,0.039999995,0.0360436376361406,-0.03316192830047221,-0.006314054305400774,0.00022558699210523808,-0.05521441645194755,0.010856068047343227,0.9999752019532049,0.0003142317362479156,0.006787114699484839,0.0018525148094169115
731.3999999996635,0.011857208,-0.7928658,0.0043464927,-2.3470628,0.0067754206,1.5685583,0.80102825,0.03999983,0.03999998,0.033745362181791805,-0.03345747124128308,-0.006864247269589008,0.00021726544825069471,-0.05646982076973693,0.011253203836558756,0.999972494361688,0.0003182145738795414,0.007149216942931157,0.0019488346906805438
731.4166666663301,0.012434472,-0.7932812,0.0045591267,-2.3466072,0.0071052313,1.5684397,0.8017695,0.039999828,0.039999984,0.035315814060532524,-0.033739112158908194,-0.007053565144965468,0.00020535948845373103,-0.05773643789395956,0.011655679029448161,0.999969557293449,0.0003217938181638141,0.007522254317826646,0.0020485665867083667
731.4333333329968,0.01302896,-0.793709,0.004778105,-2.346138,0.0074448795,1.5683174,0.80253345,0.03999982,0.039999984,0.03557392880251253,-0.03401653088197995,-0.007295859652822756,0.00019545833255459055,-0.05901305512968418,0.012064468014301008,0.9999663775001145,0.000325611610485799,0.007906180595247479,0.0021517794434031366
731.4499999996634,0.013640803,-0.7941493,0.0050034793,-2.3456547,0.0077944403,1.5681915,0.8033195,0.039999813,0.03999998,0.03655291146704709,-0.03429186603698363,-0.007288101862812368,0.00018081628498466118,-0.06029715419514933,0.012482996128110177,0.9999629384916852,0.0003292685417614681,0.008301338359714677,0.0022585408429076546
731.4666666663301,0.014270122,-0.7946024,0.0052352906,-2.3451574,0.008153987,1.5680621,0.80412793,0.039999813,0.039999984,0.03687672454200097,-0.0345281341363312,-0.007682447460388708,0.00016568017467982754,-0.06158715376959788,0.012909682530358707,0.9999592244806953,0.0003327938582309306,0.008707860084706958,0.0023689231644985083
731.4833333329967,0.014917036,-0.7950681,0.005473585,-2.344646,0.008523585,1.5679289,0.804959,0.039999805,0.03999999,0.03656935291005414,-0.034767242439835006,-0.007854172521759573,0.00014876079641762407,-0.06288289051909166,0.013341960859128057,0.9999552220191295,0.00033624459199627934,0.009125549785365504,0.002482989601824301
731.4999999996634,0.015581659,-0.79554653,0.005718403,-2.344121,0.0089032985,1.567792,0.8058127,0.039999805,0.039999988,0.03594693607777977,-0.034985265085728245,-0.008388430644301614,0.00012986565265086375,-0.06418446412650068,0.013786756417311365,0.9999509173035076,0.0003395331379400276,0.009554240954094672,0.002600803897455447
731.51666666633,0.016264101,-0.79603785,0.0059697856,-2.3435817,0.009293203,1.5676515,0.8066893,0.0399998,0.04,0.03729243859798004,-0.035222159427034105,-0.008403921183952612,0.00010969821996305307,-0.06549367330984288,0.014235726998621814,0.9999462906355236,0.00034269018063203774,0.009994332047989909,0.0027224501118589665
731.5333333329967,0.01696446,-0.7965422,0.006227769,-2.3430283,0.0096933255,1.5675074,0.80758893,0.039999794,0.04,0.03711537971042844,-0.035389745687496726,-0.008767495572947759,8.72556716037115e-05,-0.06680819672564178,0.014694694111559433,0.9999413252982159,0.0003456971542237504,0.010445834119120164,0.0028479824228806396
731.5499999996633,0.017682826,-0.7970595,0.006492387,-2.3424604,0.01010375,1.5673596,0.8085118,0.03999979,0.04,0.037686002569992105,-0.03560430920776028,-0.008809241280238744,6.258122529167326e-05,-0.06812599220083357,0.01516311411388566,0.9999360033351636,0.00034859498966612404,0.010908816251212084,0.0029774894844671776
731.56666666633,0.018419292,-0.79758996,0.0067636725,-2.3418787,0.010524501,1.567208,0.80945784,0.039999783,0.039999995,0.036850936071242124,-0.03574650863951492,-0.009576496359509079,3.5582247777395104e-05,-0.06944705701187535,0.01563994001342686,0.999930309388471,0.00035128015590747886,0.011383079764883968,0.003111022917800152
731.5833333329966,0.019173931,-0.7981335,0.007041655,-2.3412826,0.010955643,1.5670528,0.8104272,0.03999978,0.03999999,0.03746001475373184,-0.03592145550013817,-0.00954450467560708,6.2611601862536115e-06,-0.07077345064958812,0.016126371858756823,0.9999242240059685,0.000353743479048067,0.011868752228166593,0.0032486662123187094
731.5999999996633,0.019946832,-0.79869026,0.007326367,-2.3406718,0.011397223,1.5668939,0.81142,0.039999772,0.04,0.038462871399058685,-0.036097541096698216,-0.009739418924148424,-2.504281016008081e-05,-0.07210306529343308,0.016618137222034556,0.9999177248037812,0.00035599700497689025,0.012366139251227209,0.0033904998719475094
731.6166666663299,0.020738056,-0.7992602,0.0076178294,-2.3400464,0.011849265,1.5667312,0.8124364,0.039999776,0.04,0.037941011064912544,-0.03620095964286252,-0.010172525324891879,-5.898385088891345e-05,-0.07343222873603854,0.017122723927236717,0.9999107952802341,0.0003580126010211098,0.012875009894574045,0.003536584403339477
731.6333333329966,0.021547671,-0.79984325,0.00791607,-2.339406,0.01231183,1.5665647,0.8134765,0.03999977,0.04,0.03868070076600283,-0.03636342832608816,-0.010240927232629815,-9.558080473962005e-05,-0.07476458962279926,0.017632864559054856,0.9999034132149103,0.00035981229107272353,0.013395548780078282,0.003687010871745348
731.6499999996632,0.02237574,-0.8004397,0.00822111,-2.3387516,0.012784937,1.5663946,0.81454,0.03999976,0.04,0.03744863895502881,-0.03644911874506121,-0.010925492358015987,-0.00013523254071205748,-0.07609765756873492,0.018153436046100212,0.9998955615010924,0.00036119089334640353,0.013927524192274457,0.0038418356845874714
731.6666666663299,0.023222316,-0.80104965,0.008532962,-2.3380826,0.0132686,1.5662205,0.8156274,0.039999753,0.04,0.03819738218884261,-0.036527995817053904,-0.01134287680162327,-0.0001758766435466519,-0.07743234704446819,0.018681370586602547,0.9998872185553771,0.00036230158637618826,0.014471000164367174,0.004001132514048474
731.6833333329965,0.024087448,-0.80167323,0.008851655,-2.337399,0.013762864,1.5660427,0.8167386,0.039999746,0.04,0.03842206011870353,-0.03664513457686466,-0.011681402136787256,-0.00021980247161845767,-0.07876754147399607,0.01922003106976004,0.9998783613000264,0.00036308628925105365,0.015026099942393489,0.004164984134601425
731.6999999996632,0.024971168,-0.8023101,0.009177197,-2.336701,0.0142677445,1.565861,0.81787366,0.039999753,0.04,0.03801620272620987,-0.036699363434431614,-0.01178350382269322,-0.0002667694955481581,-0.08010215852146428,0.019769374504957096,0.9998689710360597,0.00036350315606606024,0.015592618600043536,0.004333459350272852
731.7166666663298,0.02587352,-0.8029602,0.009509603,-2.335988,0.014783308,1.5656756,0.8190328,0.039999746,0.04,0.038386280848357046,-0.036812772649475606,-0.011897238334301896,-0.0003164572825632289,-0.08143792166927553,0.020326110555930574,0.9998590235550988,0.0003636205351990805,0.016170676695942066,0.004506662927930809
731.7333333329965,0.026794532,-0.80362374,0.009848885,-2.3352602,0.015309526,1.5654862,0.8202159,0.039999742,0.04,0.038854881567385036,-0.03682738765792906,-0.012515196380236127,-0.00036950974084086485,-0.08277319316596252,0.02089111360253188,0.9998484961159672,0.0003633321425442418,0.016760277140520117,0.0046846466852962
731.7499999996631,0.02773423,-0.80430084,0.010195051,-2.3345175,0.015846414,1.5652928,0.8214229,0.039999727,0.04,0.03866908095209176,-0.03685443554112475,-0.01297538329481096,-0.00042555565652036,-0.08410609317624554,0.02146535680267886,0.9998373653472069,0.0003625709002078437,0.01736142118021649,0.004867489342715639
731.7666666663298,0.028692633,-0.8049914,0.010548112,-2.33376,0.016393974,1.5650957,0.8226539,0.039999727,0.04,0.03856309012557624,-0.03688386888026571,-0.013166054174695851,-0.0004844743807088242,-0.08543777147151276,0.022048930557241504,0.9998256079010717,0.00036135655199924564,0.017974079310202475,0.005055262569364975
731.7833333329964,0.029669752,-0.8056954,0.010908072,-2.3329875,0.016952239,1.5648947,0.8239089,0.03999972,0.04,0.03888983970177229,-0.036917695305782594,-0.013398359348992805,-0.0005463227703203649,-0.08676637742765152,0.02264251815055488,0.9998131982369379,0.0003596553207983544,0.018598310134105882,0.005248060540012257
731.7999999996631,0.0306656,-0.806413,0.011274932,-2.3322003,0.01752119,1.5646899,0.82518804,0.039999723,0.04,0.038660675672019806,-0.03689333172522957,-0.01396579123007502,-0.0006115161905644872,-0.08809054038832316,0.02324473057445068,0.9998001125497934,0.0003574650770359888,0.019234053082210878,0.0054459495195797285
731.8166666663298,0.03168019,-0.8071441,0.011648694,-2.3313982,0.018100869,1.5644813,0.8264911,0.039999712,0.04,0.03857734876664409,-0.03692254859641447,-0.014302807460198075,-0.0006800433854940585,-0.08941225716348994,0.023857026281914318,0.9997863265471285,0.0003546927682167459,0.01988124598903142,0.005649026496852707
731.8333333329964,0.032713503,-0.8078887,0.012029358,-2.3305814,0.018691236,1.564269,0.82781833,0.039999716,0.04,0.038534014767455105,-0.036859881140739736,-0.0145551771731256,-0.000751431288374127,-0.09072897496342498,0.0244787185384999,0.9997718144625546,0.0003514088860657348,0.020539886242655604,0.005857353599087729
731.849999999663,0.03376555,-0.8086466,0.012416921,-2.3297498,0.019292338,1.5640527,0.8291696,0.039999705,0.04,0.03830099849677637,-0.03687443823698067,-0.015041721867259383,-0.0008270297401330728,-0.09204090086725876,0.025110418610223277,0.9997565543122772,0.00034752177266430845,0.021209760890704275,0.006071028019997862
731.8666666663297,0.034836303,-0.8094181,0.0128113795,-2.3289032,0.019904103,1.5638326,0.83054495,0.039999705,0.04,0.03892573283543754,-0.03676959536851876,-0.015369998965963916,-0.000905651832706772,-0.09334865040820668,0.02574990893675419,0.9997405145194525,0.0003430773050591962,0.02189110458229377,0.006290108624684741
731.8833333329964,0.035925742,-0.810203,0.013212727,-2.3280416,0.02052656,1.5636085,0.83194435,0.039999694,0.04,0.038755390991207506,-0.036729528995511906,-0.01590727242029022,-0.0009883511211098844,-0.09465164745703479,0.026398988312765916,0.9997236716278853,0.0003379979506676114,0.02258373281925102,0.006514687728063326
731.899999999663,0.037033852,-0.8110014,0.013620957,-2.3271658,0.02115968,1.5633806,0.8333678,0.039999694,0.04,0.037179398035069866,-0.036630207039714535,-0.016479152278159326,-0.0010749757366011609,-0.09594712903347458,0.027058087428695372,0.9997060071905269,0.0003323025024599345,0.0232872526370911,0.006744822224282266
731.9166666663297,0.038160615,-0.81181335,0.014036057,-2.326275,0.021803476,1.563149,0.8348151,0.039999682,0.04,0.03889841255140247,-0.03660696874476371,-0.01649963915615338,-0.0011658425882647427,-0.09723929974776281,0.027726703021877137,0.9996874808613194,0.0003258182718597836,0.02400219298357664,0.006980629168055244
731.9333333329963,0.039305992,-0.81263876,0.014458014,-2.3253691,0.02245789,1.5629135,0.836286,0.039999682,0.04,0.0391752751854213,-0.03648228990975749,-0.016881837921389753,-0.0012597343462005806,-0.09852343059523078,0.02840481635734747,0.9996680637823443,0.0003184771613145616,0.02472854726259987,0.007222172542802495
731.949999999663,0.040469952,-0.81347764,0.014886818,-2.3244486,0.023122929,1.5626743,0.83778095,0.039999682,0.04,0.03792153393740172,-0.036377022263058,-0.01755849737745674,-0.0013560825368955087,-0.09979659455652287,0.029092094726162067,0.9996477363102577,0.00031045312680972286,0.02546591804391895,0.007469533239376837
731.9666666663296,0.04165244,-0.8143298,0.015322456,-2.3235135,0.023798589,1.5624313,0.8393,0.03999968,0.04,0.03774054909748692,-0.036271394469421236,-0.017782015846790067,-0.001457542374574003,-0.10106354821130104,0.029790855166955253,0.9996264707959255,0.00030177650335954314,0.02621423545731578,0.007722802238380056
731.9833333329963,0.042853408,-0.81519544,0.015764903,-2.3225636,0.024484793,1.5621845,0.84084266,0.03999967,0.04,0.0382316425605822,-0.036081537711631084,-0.01841823013404298,-0.001563898295597152,-0.10232142571425695,0.03049381694945599,0.9996042362825643,0.0002922399589408165,0.026973551446781097,0.007982037591086488
731.9999999996629,0.04407282,-0.81607425,0.016214147,-2.3215992,0.02518153,1.5619339,0.8424089,0.03999966,0.04,0.037551118559431274,-0.03598979582343231,-0.01857299872798368,-0.0016739622161972834,-0.10357067067939221,0.03120911483561881,0.9995810075909614,0.00028177507020187107,0.027743676313403697,0.008247320223294623
732.0166666663296,0.045310616,-0.81696624,0.016670164,-2.3206203,0.02588876,1.5616794,0.84399873,0.03999966,0.04,0.03743448523843007,-0.03580141966688377,-0.01918498721686923,-0.0017874420285473869,-0.10481074131276405,0.03193375342142389,0.9995567587816155,0.00027042123155787863,0.028524449413285743,0.008518722440451796
732.0333333329962,0.046566717,-0.8178715,0.01713293,-2.3196275,0.026606465,1.561421,0.845612,0.039999656,0.04,0.0363451068021714,-0.03560229920786251,-0.01985948374430002,-0.0019052641971044615,-0.10604343271798779,0.03266753535910602,0.9995314674000647,0.0002581085762360976,0.02931559075768676,0.00879631715914242
732.0499999996629,0.047841076,-0.8187899,0.017602427,-2.3186202,0.02733461,1.561159,0.84724873,0.039999653,0.04,0.037387759622253824,-0.03548354905866108,-0.019866654458922106,-0.002026926099424897,-0.1072685628448187,0.033410730605673775,0.9995050940795766,0.0002448601323332099,0.030117383723611654,0.009080206503001542
732.0666666663295,0.04913361,-0.81972146,0.018078618,-2.3175986,0.028073149,1.5608933,0.8489089,0.03999964,0.04,0.03700802957644633,-0.03524903088747838,-0.020436976488724667,-0.0021529030535020616,-0.10848379430546931,0.03416295510384454,0.9994776111091686,0.00023066898760244954,0.030929695350027098,0.009370465777236785
732.0833333329962,0.05044426,-0.8206661,0.018561486,-2.316563,0.028822027,1.5606238,0.85059226,0.039999645,0.04,0.03638726359942446,-0.03505289234022463,-0.020980109287460635,-0.0022836958387263268,-0.10968726441290934,0.03492473103178073,0.9994489955921625,0.00021542140333376895,0.03175224444617446,0.009667149324741765
732.0999999996628,0.051772945,-0.8216236,0.019050995,-2.3155131,0.029581225,1.5603507,0.85229874,0.03999964,0.04,0.036306279222619864,-0.03485402969265056,-0.02118759629663458,-0.002418155112615783,-0.1108806890127241,0.03569381025115931,0.9994192149632454,0.00019910936191558511,0.0325850441746455,0.009970356756344537
732.1166666663295,0.053119577,-0.8225942,0.01954712,-2.3144488,0.030350668,1.5600736,0.8540283,0.03999964,0.04,0.03708613552575457,-0.03461350777675398,-0.021838068725554827,-0.002557306120333225,-0.11206437151764989,0.03647367992993017,0.9993882342997272,0.00018171426657228644,0.03342816819534758,0.010280160227463888
732.1333333329961,0.05448407,-0.8235777,0.020049827,-2.3133702,0.031130329,1.5597929,0.8557808,0.039999627,0.04,0.03652740813140376,-0.03439027745642531,-0.022092983795207743,-0.0027009228437586963,-0.1132350158126349,0.03726179358142022,0.9993560249535145,0.00016320276541562825,0.03428147994055475,0.010596645084798026
732.1499999996628,0.055866327,-0.824574,0.020559086,-2.3122773,0.031920142,1.5595084,0.85755605,0.039999627,0.04,0.036420121081759405,-0.03413351628036715,-0.022525378610360747,-0.002848685015310201,-0.11439232246695547,0.03805813801986875,0.9993225562275327,0.0001435094173007637,0.035144903006113316,0.01091988152901184
732.1666666663294,0.057266258,-0.82558304,0.021074854,-2.3111703,0.032720055,1.5592206,0.8593541,0.039999623,0.04,0.03598948760368259,-0.03386859489307725,-0.022862379637444974,-0.003001171660986554,-0.11553567332399438,0.03886399906009524,0.9992877970726781,0.00012266477373835768,0.03601835875687955,0.011249951442026156
732.1833333329961,0.058683746,-0.8266047,0.021597104,-2.3100495,0.033530015,1.5589291,0.86117476,0.039999623,0.04,0.03535995896886135,-0.03357890200785946,-0.023415179464558733,-0.003158298494740183,-0.1166643131711177,0.039677295372539445,0.999251724075715,0.00010064512030191202,0.03690156073455461,0.011586915794322616
732.1999999996627,0.060118705,-0.8276389,0.022125786,-2.3089151,0.034349967,1.5586339,0.8630178,0.03999962,0.04,0.03472883952135852,-0.03328646899052046,-0.023967790372392273,-0.003320631510006486,-0.11778132493512243,0.04050000595660979,0.9992143142896046,7.733043705436425e-05,0.03779422245181784,0.011930837691522549
732.2166666663294,0.06157101,-0.8286857,0.022660865,-2.3077672,0.035179842,1.5583352,0.864883,0.039999615,0.04,0.03478908556751037,-0.03297179509660353,-0.02439840713923669,-0.003487275196175643,-0.11888578389004767,0.041330614220964346,0.999175532455806,5.267287963443225e-05,0.03869638371000438,0.012281793639052154
732.233333332996,0.063040584,-0.82974494,0.023202302,-2.3066056,0.036019556,1.5580331,0.8667705,0.03999962,0.04,0.034698708771463416,-0.03270773815471639,-0.024629562804046046,-0.0036581279695980795,-0.11997563936297694,0.04216931712384177,0.9991353439131524,2.6749782744283375e-05,0.03960805225103108,0.01263985857813468
732.2499999996627,0.06452726,-0.8308165,0.023750048,-2.3054302,0.03686907,1.5577273,0.86868,0.03999961,0.04,0.03479569144975159,-0.03233802209487435,-0.02521139122688698,-0.003834094647329006,-0.12105079061229869,0.04301611660378856,0.999093720591351,-5.244890666715342e-07,0.04052905788630793,0.01300511212963788
732.2666666663293,0.06603093,-0.83190036,0.024304057,-2.3042412,0.03772831,1.5574182,0.8706113,0.0399996,0.04,0.03440190229726525,-0.032020732323143064,-0.025468859341515326,-0.0040149869708996505,-0.122110555708447,0.04387023689700052,0.999050628415109,-2.9200599813119063e-05,0.04145937874891115,0.013377627758882248
732.283333332996,0.0675515,-0.8329963,0.024864288,-2.303039,0.038597185,1.5571055,0.87256426,0.039999604,0.04,0.0332405327195584,-0.03167974047905697,-0.026135846874320023,-0.004200823654751593,-0.12315349192143518,0.04473232097227456,0.9990060536238163,-5.9337757589455095e-05,0.04239851798476559,0.013757433434130037
732.2999999996626,0.06908883,-0.8341046,0.025430692,-2.301824,0.039475642,1.5567893,0.87453884,0.039999604,0.04,0.033030777757758756,-0.031283261519118866,-0.026848001949630884,-0.0043907667957036045,-0.12418328811979282,0.04560261603730967,0.9989599639127845,-9.087719496411938e-05,0.043346421150627444,0.014144610780642759
732.3166666663293,0.07064274,-0.8352248,0.026003227,-2.3005958,0.0403636,1.5564697,0.87653464,0.039999593,0.04,0.03343430494502364,-0.030925912803725364,-0.026730664438723295,-0.004586153053663722,-0.12519762090207864,0.04647949844510985,0.9989123199989136,-0.00012396129081337,0.044303185169021236,0.014539235601159948
732.333333332996,0.07221316,-0.8363568,0.026581837,-2.299354,0.041260984,1.5561467,0.8785516,0.039999597,0.04,0.03324712917933681,-0.03062709336578151,-0.027141547998299487,-0.004785872654011328,-0.1261949163178863,0.04736445316501768,0.9988630913105973,-0.00015860227084551215,0.045268694905714474,0.014941382944369237
732.3499999996626,0.073799916,-0.8375006,0.027166469,-2.2980993,0.04216771,1.5558205,0.8805896,0.03999959,0.04,0.03271080473368215,-0.03018146297119606,-0.027642366375268956,-0.0049906962780191105,-0.12717370318403912,0.048256443564618036,0.9988122515686058,-0.00019478626462030252,0.04624274773371888,0.015351106044805617
732.3666666663293,0.07540287,-0.8386562,0.027757067,-2.2968323,0.0430837,1.5554907,0.88264835,0.03999959,0.04,0.031084075507159525,-0.029714788547516302,-0.028541457011810323,-0.00520035261403419,-0.12813618939290133,0.049154685904466804,0.9987597906060526,-0.0002325936932010921,0.04722481512663151,0.015768430644280535
732.3833333329959,0.077021874,-0.83982337,0.028353587,-2.295552,0.044008877,1.5551578,0.8847278,0.03999959,0.04,0.03284878006004632,-0.029410172580640603,-0.028333412776970768,-0.005414525417232252,-0.12908402933599428,0.05005983550544679,0.9987056483989144,-0.0002720149728013435,0.04821540357690327,0.01619347775726427
732.3999999996626,0.07865678,-0.84100187,0.028955963,-2.2942593,0.044943146,1.5548216,0.8868276,0.039999582,0.04,0.030879493973445804,-0.028928998064833844,-0.02888301165357987,-0.005633640102079687,-0.13000946206590788,0.05097079517090374,0.9986498209889018,-0.00031311985707526893,0.04921386546375733,0.016626257573626547
732.4166666663292,0.08030742,-0.8421918,0.02956415,-2.2929544,0.04588642,1.5544822,0.8889476,0.03999958,0.04,0.030528171779709012,-0.028475016092718852,-0.02950203547338326,-0.005857676997192113,-0.13092030545312378,0.051888080871575225,0.9985922791101393,-0.00035593148090881383,0.05022008600504039,0.017066820912083565
732.4333333329959,0.081973664,-0.843393,0.03017808,-2.2916374,0.046838585,1.5541397,0.8910878,0.039999574,0.04,0.030313481457788782,-0.028048960738297213,-0.029761397699878955,-0.006086717071955808,-0.13181265593276306,0.05281219097500997,0.9985329919350548,-0.00040042406920873263,0.05123397842526812,0.017515225733958483
732.4499999996625,0.08365533,-0.84460527,0.030797692,-2.2903078,0.047799572,1.5537939,0.8932476,0.039999574,0.04,0.030717668020407984,-0.027600985524323107,-0.030110164266705652,-0.006320974301302157,-0.13268739938655422,0.05374148256575834,0.9984719266459932,-0.00044676153916784546,0.05225548718716025,0.01797153757467854
732.4666666663292,0.08535225,-0.8458287,0.03142294,-2.2889662,0.048769288,1.5534452,0.8954271,0.039999563,0.04,0.029789005278502145,-0.02713313092808367,-0.03054872665810837,-0.006559391391981334,-0.1335427227701109,0.05467627116188122,0.9984090521265699,-0.0004948691603850383,0.053284524221572635,0.01843581337285958
732.4833333329958,0.087064266,-0.8470631,0.03205374,-2.287612,0.049747616,1.5530932,0.8976259,0.039999574,0.04,0.030508300714915393,-0.026647339809676707,-0.031009267948611807,-0.006802988111857686,-0.13437750651791147,0.05561626600972236,0.998344335349875,-0.0005448628493085597,0.05432103358836639,0.018908106969855044
732.4999999996625,0.08879122,-0.84830815,0.03269004,-2.286246,0.050734513,1.5527381,0.8998438,0.039999567,0.04,0.028494391619826587,-0.02620658641199758,-0.031267744463003844,-0.007051039111715424,-0.13519090902611325,0.05656162308903777,0.9982777734011526,-0.0005967807795816252,0.055364422606915244,0.019388442313417506
732.5166666663291,0.09053291,-0.849564,0.03333179,-2.2848682,0.051729817,1.5523798,0.9020809,0.039999567,0.04,0.029084239085896968,-0.025636304848725144,-0.03184131705642468,-0.007303191645078436,-0.135986254622228,0.057511258805369225,0.9982093213139299,-0.0006504775109042117,0.056414871017002016,0.01987687221688375
732.5333333329958,0.092289194,-0.8508302,0.03397891,-2.2834792,0.052733462,1.5520188,0.90433675,0.03999956,0.04,0.027290207035379765,-0.025199988120552796,-0.03189349172900702,-0.007561677029855038,-0.13676045084336666,0.05846501771479024,0.9981389761134793,-0.0007060876618087948,0.05747181706975094,0.020373415178852987
732.5499999996624,0.09405987,-0.852107,0.03463132,-2.2820795,0.05374531,1.5516547,0.90661097,0.039999563,0.04,0.02665676268800432,-0.024534689527311304,-0.03273252083080269,-0.007824732995792533,-0.13751558217300175,0.05942329549174867,0.9980667158353895,-0.0007637079510841504,0.05853505974329279,0.020878081151633046
732.5666666663291,0.09584474,-0.8533939,0.035288986,-2.280669,0.05476532,1.5512877,0.9089034,0.039999556,0.04,0.026063754215677193,-0.02411745599226467,-0.03281949605422607,-0.00809209166530371,-0.1382537336707783,0.060386174761285646,0.997992524110163,-0.0008233206922585075,0.05960430050487922,0.02139091687112705
732.5833333329957,0.09764361,-0.8546909,0.03595181,-2.2792475,0.05579333,1.550918,0.9112139,0.03999956,0.04,0.026476421345744683,-0.023541667164497793,-0.03289887579440709,-0.008363945300255943,-0.13897449266635759,0.06135267615342093,0.9979163541435483,-0.0008849459881656562,0.060679749829755526,0.02191198220254509
732.5999999996624,0.09945631,-0.8559978,0.036619723,-2.2778153,0.056829263,1.5505455,0.91354203,0.039999552,0.04,0.025693434248985625,-0.023018000228283708,-0.03341387157902442,-0.008640948181267302,-0.13967441721607382,0.062322754246810996,0.9978381953584188,-0.000948653373122281,0.061761023044920996,0.022441300610180237
732.616666666329,0.10128266,-0.85731477,0.03729267,-2.2763712,0.057872996,1.5501698,0.9158879,0.039999556,0.04,0.027763666770797002,-0.022538890597614825,-0.03392376302868705,-0.00892212690045642,-0.14035436793183811,0.06329582022153628,0.9977579809296284,-0.0010143930431854632,0.06284862123730399,0.022978975315600916
732.6333333329957,0.103122436,-0.8586415,0.03797058,-2.2749166,0.058924403,1.5497915,0.918251,0.039999556,0.04,0.025027347155903712,-0.02186863175526188,-0.034138155715290885,-0.009208693881873758,-0.14100975316250208,0.06427154457190189,0.9976757239002723,-0.001082257589966389,0.06394181159619798,0.023524952462720603
732.6499999996623,0.104975455,-0.8599777,0.038653377,-2.2734513,0.059983402,1.5494103,0.92063105,0.039999545,0.04,0.025035837495934743,-0.021383773055122512,-0.034288337483912024,-0.009499347699495453,-0.14164311574681906,0.06524901564969933,0.9975913958218727,-0.0011522895703541584,0.0650405037655477,0.02407928738225987
732.666666666329,0.10684157,-0.8613231,0.039340977,-2.2719755,0.061049853,1.5490266,0.9230279,0.03999955,0.04,0.024266765657321443,-0.02083679672521821,-0.03443323218734751,-0.009794535551941819,-0.14225409826360008,0.06622933517388543,0.9975049808901225,-0.001224524525974118,0.06614443388966657,0.02464198661831391
732.6833333329956,0.1087205,-0.862678,0.040033314,-2.2704904,0.062123653,1.5486404,0.92544115,0.03999955,0.04,0.022476758539990982,-0.02007551027151666,-0.0351726864929347,-0.01009383574764372,-0.1428452193228937,0.06721080212929229,0.9974164766902958,-0.0012989492691837603,0.06725316345666377,0.025213027636206666
732.6999999996623,0.11061205,-0.8640425,0.040730312,-2.2689943,0.063204676,1.5482514,0.9278707,0.03999954,0.04,0.025366315637986858,-0.019581592592085584,-0.035597323640779166,-0.010397777851834517,-0.14341622628706435,0.06819479876718115,0.9973257977312617,-0.0013756076703783046,0.06836742931983551,0.025792547207227665
732.7166666663289,0.11251602,-0.8654154,0.041431896,-2.2674892,0.06429278,1.5478598,0.9303162,0.039999545,0.04,0.020625927052320137,-0.018937686486700245,-0.03518212618716099,-0.01070564540391028,-0.14395984058754352,0.06917844016293762,0.9972330248413752,-0.0014544893424806352,0.06948564414237116,0.026380369303585244
732.7333333329956,0.11443222,-0.8667973,0.042137977,-2.2659743,0.06538789,1.5474656,0.93277746,0.03999954,0.04,0.022531300638028995,-0.01834717812831399,-0.03600968085595291,-0.011018349892011309,-0.14448867568479357,0.07016451697873827,0.9971380792638316,-0.0015356390406552748,0.07060845506946747,0.026976633731372622
732.7499999996622,0.11636042,-0.868188,0.04284848,-2.2644494,0.06648985,1.547069,0.93525416,0.03999954,0.04,0.02263325893983037,-0.01775629152254432,-0.03594346464244058,-0.011334821864416755,-0.14499239632545932,0.07115063166387472,0.9970409259207075,-0.0016190925716278795,0.0717358958187762,0.027581367433477423
732.7666666663289,0.118300416,-0.86958694,0.043563314,-2.2629151,0.06759856,1.5466698,0.93774587,0.03999955,0.04,0.020681176198777962,-0.017126899046582267,-0.036071628649447796,-0.011655929374560392,-0.1454726419568835,0.07213634848160155,0.9969415876354291,-0.001704936851505833,0.07286723403137453,0.028194507229237907
732.7833333329955,0.12025196,-0.87099427,0.04428243,-2.261372,0.0687139,1.5462686,0.94025254,0.039999537,0.04,0.020097205978997223,-0.016482374440895953,-0.03638794333888917,-0.011980160337222462,-0.14593224497489465,0.07312207901835738,0.9968400358367938,-0.0017930716866760477,0.07400244129061541,0.028816081098151928
732.7999999996622,0.12221486,-0.87240994,0.04500572,-2.25982,0.06983574,1.5458648,0.9427738,0.039999537,0.04,0.020197931644805323,-0.015807126611294686,-0.036891169775010724,-0.012309435103928568,-0.14636970476348793,0.07410756610991295,0.9967362508009252,-0.0018835759936671297,0.07514137624974741,0.029446087279727223
732.8166666663288,0.124188885,-0.8738337,0.045733113,-2.2582588,0.07096389,1.5454588,0.9453094,0.039999537,0.04,0.01994759631713805,-0.015168370621793104,-0.036867617969305044,-0.012642197418665485,-0.1467834365489589,0.0750918270583854,0.9966302064268763,-0.0019764765420722495,0.0762839880896222,0.03008451992542199
732.8333333329955,0.1261738,-0.8752653,0.04646452,-2.256689,0.072098285,1.5450507,0.9478591,0.039999537,0.04,0.01881238795022888,-0.014547061641628778,-0.036853047963503194,-0.012978857204517719,-0.14717405774348596,0.0760749447541269,0.9965218975145588,-0.0020717241349427085,0.07742995260054615,0.03073138742994268
732.8499999996621,0.12816939,-0.87670475,0.047199868,-2.255111,0.07323881,1.5446404,0.9504223,0.03999954,0.04,0.018258042871988067,-0.013878830915475815,-0.037415469438495386,-0.013319688252372203,-0.14754149077667356,0.0770555251898159,0.9964113151896092,-0.002169539689697608,0.07857901581086241,0.03138665853263536
732.8666666663288,0.13017541,-0.87815166,0.047939066,-2.2535245,0.07438527,1.5442282,0.952999,0.039999545,0.04,0.01787283390726202,-0.01320847503761824,-0.0371202524682257,-0.01366330722304085,-0.14788704926727958,0.07803394130968658,0.9962984379585129,-0.002269749807798458,0.07973109563740942,0.03205032208411359
732.8833333329954,0.13219164,-0.87960577,0.048682034,-2.25193,0.07553756,1.5438138,0.9555889,0.039999537,0.04,0.017005339170417244,-0.012551834287044539,-0.03741085879842565,-0.014010534760944604,-0.14820710185388813,0.07900963675020055,0.9961832710446531,-0.0023724107462812626,0.08088578667906501,0.03272234208205606
732.8999999996621,0.13421784,-0.8810673,0.049428664,-2.250327,0.07669558,1.543397,0.95819145,0.039999537,0.04,0.017348177664811004,-0.011812916896819514,-0.038054881937643614,-0.014361838531229743,-0.14850666971591173,0.07998316593215535,0.9960657878945779,-0.002477639489318595,0.0820430684647885,0.03340273050810198
732.9166666663288,0.13625386,-0.8825359,0.050178904,-2.248717,0.077859156,1.5429782,0.96080655,0.039999537,0.04,0.015122922164145791,-0.01123534820834382,-0.03782544278077005,-0.014715672826184273,-0.14878156858297448,0.08095355308782466,0.9959460044686975,-0.002585410456528236,0.08320245161970326,0.03409140478301653
732.9333333329954,0.13829929,-0.88401115,0.050932646,-2.2470994,0.07902819,1.5425575,0.96343386,0.039999533,0.04,0.015414337807762024,-0.01043723051455947,-0.03763741043207869,-0.015072132064583105,-0.14903551630629158,0.08192022842953181,0.995823895878656,-0.0026956576608483996,0.08436391533628256,0.03478838334794508
732.949999999662,0.140354,-0.8854934,0.051689796,-2.2454746,0.08020249,1.5421349,0.9660733,0.03999953,0.04,0.014793093810316904,-0.009742471436241518,-0.03820080792653613,-0.015432163754329514,-0.14926850198397068,0.08288248673677825,0.995699448773894,-0.0028083552516837383,0.08552732397094506,0.03549362909752479
732.9666666663287,0.1424177,-0.88698226,0.05245028,-2.2438428,0.08138194,1.5417105,0.96872395,0.039999526,0.04,0.013954832582685484,-0.009062610751242595,-0.03806931325318619,-0.015795980915003616,-0.1494761477848776,0.08384060454960376,0.9955726623819052,-0.002923759611010133,0.08669240497377648,0.03620707758718824
732.9833333329954,0.14449023,-0.8884774,0.053214006,-2.2422044,0.08256641,1.5412844,0.971386,0.039999522,0.04,0.013119922604332146,-0.008460197199849917,-0.037944256908706286,-0.01616166885886844,-0.14966277407409456,0.08479468540044904,0.9954435382441843,-0.003041696229200829,0.08785886800270198,0.03692870922781222
732.999999999662,0.1465713,-0.88997847,0.053980872,-2.2405589,0.08375577,1.5408564,0.97405916,0.039999522,0.04,0.013374281865186077,-0.007737960302262037,-0.03809167376762623,-0.016529927298529895,-0.14982764701858794,0.08574466433514187,0.995312064714687,-0.0031621702759526676,0.08902657918448342,0.03765850118155927
733.0166666663287,0.14866064,-0.8914856,0.0547508,-2.2389066,0.08494988,1.5404267,0.97674286,0.039999522,0.04,0.01271824165343105,-0.0070437391502975455,-0.038062606799993404,-0.01690169886148979,-0.14996908758081476,0.08668807845585541,0.9951782190387122,-0.0032852941425271366,0.09019552826246878,0.03839643049540122
733.0333333329953,0.150758,-0.8929987,0.05552369,-2.2372477,0.08614859,1.5399952,0.97943693,0.039999522,0.04,0.012451599897156385,-0.006224797402681892,-0.038474999435833546,-0.017275490503618596,-0.15008658589453633,0.08762611646611478,0.9950419992106161,-0.003411000055330861,0.0913654970495179,0.03914244287799714
733.049999999662,0.15286316,-0.89451754,0.05629945,-2.2355833,0.087351754,1.5395623,0.98214096,0.039999526,0.04,0.010242185400999304,-0.005567988905091914,-0.03807991774686936,-0.017650921291539723,-0.15017978957466582,0.08855605715643947,0.9949034297867475,-0.0035393350880077797,0.09253600759614618,0.03989643848599726
733.0666666663286,0.15497586,-0.89604187,0.05707799,-2.233912,0.088559225,1.5391281,0.98485476,0.039999522,0.04,0.012318777842201811,-0.004958219875972336,-0.0380371662279444,-0.018028774930048674,-0.15025283046162696,0.08947787657341294,0.9947624402025936,-0.0036702799175098886,0.09370753991485037,0.04065849936501833
733.0833333329953,0.15709588,-0.89757115,0.05785921,-2.2322357,0.089770846,1.5386922,0.9875779,0.039999522,0.04,0.008301939913923917,-0.004145212964229428,-0.03788742534904799,-0.01840918969228736,-0.15029661795979238,0.09039655047584153,0.9946191403029171,-0.0038038426106723326,0.09487880620580733,0.041428355717314236
733.0999999996619,0.15922289,-0.8991059,0.05864302,-2.2305534,0.09098654,1.5382547,0.99031013,0.03999952,0.04,0.010348794085679458,-0.0033940762543482883,-0.038517382527070154,-0.01879143909320427,-0.150324968487851,0.09130596494798984,0.9944734453290952,-0.003940034425185231,0.09605043389368628,0.04220612293070981
733.1166666663286,0.16135669,-0.90064526,0.059429336,-2.2288666,0.092206076,1.5378158,0.9930509,0.03999952,0.04,0.006954381475487992,-0.0026914924507126514,-0.03774528472417771,-0.019174846005695828,-0.1503263962369143,0.09220324366781815,0.9943254466633452,-0.004078937004006247,0.09722138075196053,0.04299152841361538
733.1333333329952,0.16349703,-0.9021896,0.06021806,-2.227173,0.09342932,1.5373758,0.9958002,0.039999515,0.04,0.011164321512868725,-0.002147271958041763,-0.03793731554362356,-0.01956022040476127,-0.1503119155158846,0.09309998688879886,0.9941749786071196,-0.004220448884524374,0.09839302434592996,0.04378484307163426
733.1499999996619,0.16564357,-0.90373856,0.061009083,-2.2254753,0.094656125,1.5369343,0.99855745,0.03999952,0.04,0.006282464630125162,-0.0011083404391265539,-0.03800086114460477,-0.01994757029390898,-0.15026444393749336,0.09398463969575092,0.9940221964309648,-0.004364616141842208,0.09956374460245507,0.04458569153026665
733.1666666663285,0.16779621,-0.90529174,0.06180234,-2.2237732,0.095886394,1.5364915,1.0013224,0.03999952,0.04,0.005981308465319302,-0.0006942434092604977,-0.037584040442650846,-0.020336158136159577,-0.15019988626947606,0.09486148026753255,0.9938670874264536,-0.004511483526768295,0.10073349966874323,0.04539406449452423
733.1833333329952,0.16995452,-0.9068491,0.0625977,-2.222066,0.09711996,1.5360477,1.0040951,0.03999952,0.04,0.007531057224641202,0.00014244661870055353,-0.03744652942327953,-0.020725041946816625,-0.15011560643930047,0.09572978460090635,0.9937095853682658,-0.004660808385916669,0.10190274667761526,0.046210031724471946
733.1999999996618,0.1721183,-0.90841055,0.063395076,-2.2203553,0.09835666,1.5356028,1.0068748,0.039999526,0.04,0.004066277002712226,0.000979509841936288,-0.03746666945532162,-0.021117087921389416,-0.15000420579309467,0.09658648098393757,0.9935497842568103,-0.00481274755902095,0.10307051189011562,0.04703332055987997
733.2166666663285,0.17428735,-0.90997577,0.0641944,-2.2186394,0.099596314,1.5351566,1.009661,0.03999953,0.04,0.006788064577234465,0.0014489798603967152,-0.03736244031120606,-0.02151013936285337,-0.1498763604735523,0.09743500248730202,0.9933876002934798,-0.0049675431733115115,0.10423741277195808,0.04786398308322438
733.2333333329951,0.17646132,-0.91154444,0.06499556,-2.2169201,0.10083884,1.5347096,1.0124533,0.039999533,0.04,0.003317694543492067,0.002294864460011814,-0.03677615190498251,-0.021902154635810522,-0.14972128437497512,0.09827148924253236,0.993223118003162,-0.005125035526556273,0.10540257698189821,0.04870183405687448
733.2499999996618,0.17864001,-0.91311663,0.06579844,-2.2151966,0.102084026,1.5342615,1.015252,0.03999954,0.04,0.004816584241051913,0.0029880270340509885,-0.0370064576232787,-0.022293932730371224,-0.14954770657129435,0.09909810601146919,0.9930562855723565,-0.005285060010611946,0.10656635162934346,0.049546892196479626
733.2666666663284,0.1808231,-0.91469204,0.06660294,-2.21347,0.1033318,1.5338126,1.018056,0.03999954,0.04,0.0025321609021577984,0.003720333261358899,-0.03647530865427129,-0.022687206661174575,-0.14935042755726555,0.0999134586102837,0.9928871553474949,-0.005447858000895623,0.10772817261799149,0.05039899218783635
733.2833333329951,0.18301035,-0.9162705,0.067408994,-2.21174,0.10458193,1.5333627,1.0208658,0.039999537,0.04,0.002491009353189355,0.004439104690334705,-0.03652449691753379,-0.023079818932567053,-0.1491317335226039,0.10071600707948646,0.9927157395548183,-0.005613112584982254,0.1088878688071054,0.051258027994501756
733.2999999996617,0.18520153,-0.91785187,0.06821647,-2.2100072,0.10583429,1.5329121,1.0236801,0.039999545,0.04,0.0016302593327299775,0.005146083046791983,-0.036135075284593476,-0.023473264795649845,-0.14889318777909932,0.1015072943274744,0.9925420415587586,-0.005781227864906164,0.11004532427092734,0.05212388846634513
733.3166666663284,0.18739635,-0.9194358,0.0690253,-2.2082713,0.1070887,1.5324609,1.0264994,0.03999954,0.04,0.001645883112599833,0.005760886965616718,-0.03569043206854694,-0.023865081959130563,-0.1486337745484145,0.10228702872935294,0.9923660568259445,-0.005951808405051419,0.11120050480692716,0.05299653731255066
733.333333332995,0.18959454,-0.9210222,0.06983537,-2.2065327,0.108345054,1.5320089,1.0293232,0.039999552,0.04,0.000499080245530692,0.006524484297532052,-0.03564730777760872,-0.02425717268860028,-0.1483520557927079,0.10305297937008853,0.9921878280284961,-0.006124898910648377,0.11235299183899872,0.05387582714219208
733.3499999996617,0.19179581,-0.92261094,0.07064658,-2.2047918,0.10960319,1.5315561,1.0321513,0.039999545,0.04,-2.370019380748545e-06,0.007276966156155584,-0.0354113513268306,-0.024650299947199833,-0.148051498814355,0.10380627267304465,0.992007361153723,-0.006300423345054354,0.11350268553140898,0.05476166962080296
733.3666666663283,0.19399987,-0.9242017,0.07145881,-2.2030482,0.11086294,1.531103,1.034983,0.039999552,0.04,0.00014106191335017115,0.007898426968716565,-0.03475838862532221,-0.025043676641043677,-0.14772949490125908,0.1045454336473858,0.9918246350888724,-0.006478548263855254,0.1146497001522892,0.05565400163697293
733.383333332995,0.19620652,-0.9257944,0.07227199,-2.2013023,0.11212416,1.5306491,1.0378175,0.039999552,0.04,-0.0007112170404610652,0.008582960185127275,-0.03486251431719101,-0.02543655525514041,-0.14738536020626813,0.10527062807984258,0.9916396951206521,-0.006659553876952785,0.11579363880910906,0.05655261810496237
733.3999999996616,0.19841546,-0.92738867,0.07308602,-2.1995552,0.11338665,1.5301948,1.0406548,0.039999563,0.04,-0.0029764377023067112,0.00931320306394312,-0.03399876710843408,-0.02582491659088093,-0.14701970174672968,0.1059812809853338,0.9914526077993255,-0.006843123868914185,0.11693397301795942,0.057457324144679016
733.4166666663283,0.20062636,-0.9289845,0.073900804,-2.1978068,0.1146503,1.5297401,1.0434947,0.039999563,0.04,-0.002993719324040356,0.010058675369478687,-0.03389325352736172,-0.02621257262255411,-0.1466368169696888,0.10667906930179866,0.9912633677670746,-0.007029179251801203,0.1180707226378283,0.0583680633386489
733.433333332995,0.20283897,-0.9305815,0.07471622,-2.1960568,0.11591494,1.5292851,1.046337,0.039999567,0.04,-0.0027197041582827097,0.010632741244015476,-0.03332195785379355,-0.02659858424821887,-0.14623686423085733,0.10736202943128699,0.9910719733943651,-0.0072176781318906156,0.11920388040533261,0.05928476676933627
733.4499999996616,0.20505309,-0.93217975,0.075532176,-2.1943054,0.117180414,1.5288298,1.049181,0.03999957,0.04,-0.0030323554651268125,0.011283388677196804,-0.033205353172283125,-0.026983857855212567,-0.1458150120663379,0.10802895261579347,0.9908784217693363,-0.00740882241272871,0.1203334581126545,0.06020732082576007
733.4666666663283,0.20726842,-0.9337788,0.076348595,-2.192553,0.11844659,1.5283742,1.0520266,0.039999574,0.04,-0.0044023300736828475,0.011936596096401297,-0.03265683101139061,-0.02736623027105456,-0.14537242586681248,0.10868115072201132,0.9906827796936634,-0.007602401970553222,0.12145896030785232,0.061135541738421686
733.4833333329949,0.2094847,-0.93537855,0.077165335,-2.1908,0.119713284,1.5279185,1.0548736,0.039999574,0.04,-0.00493566570773929,0.012623859958671435,-0.03210172901761954,-0.027746750168923,-0.14491206609824842,0.10931776749781705,0.9904850593310618,-0.007798389815411733,0.12258030618413666,0.06206932329285658
733.4999999996616,0.21170159,-0.9369789,0.07798232,-2.1890464,0.12098034,1.5274627,1.0577213,0.039999582,0.04,-0.005418240373966654,0.0133297044457803,-0.0317141597155679,-0.02812600261793069,-0.14443290149930427,0.10993754061343639,0.99028527343946,-0.007996859727589862,0.12369743052403134,0.0630085162909226
733.5166666663282,0.21391883,-0.93857956,0.07879945,-2.1872926,0.122247614,1.5270069,1.0605694,0.039999586,0.04,-0.006187954922864947,0.01396546873619342,-0.03131341243340913,-0.02850213733277568,-0.1439342695956377,0.11054136694405556,0.9900834640588331,-0.008197743856762578,0.12481005074991913,0.06395297041359999
733.5333333329949,0.21613617,-0.9401803,0.07961661,-2.1855383,0.12351498,1.526551,1.0634177,0.039999582,0.04,-0.0060711762725151885,0.014518032258581393,-0.030744014232619854,-0.028875417770447775,-0.14341810100212682,0.11112814562503015,0.9898796289262373,-0.008401042773010056,0.12591820241853544,0.06490261178770503
733.5499999996615,0.21835338,-0.9417811,0.08043372,-2.1837845,0.12478225,1.5260952,1.0662658,0.039999586,0.04,-0.00777616899632072,0.015230798195803308,-0.030388709962814175,-0.029246082621474684,-0.1428810761772683,0.11169799001968081,0.9896738380063831,-0.008606668495565217,0.1270214458594953,0.06585720852637314
733.5666666663282,0.22057015,-0.9433814,0.08125065,-2.182031,0.12604925,1.5256393,1.0691136,0.039999593,0.04,-0.007944858365993568,0.01579929506383415,-0.029601696881509376,-0.02961412675358832,-0.14232902621927224,0.11225022108801486,0.9894661170074056,-0.008814536740444533,0.12811965118936208,0.0668166312788553
733.5833333329948,0.22278622,-0.94498134,0.08206735,-2.1802778,0.1273158,1.5251834,1.0719606,0.039999593,0.04,-0.008359748710473625,0.01644755707505552,-0.029355708058498298,-0.029979560449184456,-0.14175960344529293,0.11278399116427584,0.9892564840018078,-0.009024698372754523,0.1292127635212051,0.06778071571527503
733.5999999996615,0.2250013,-0.94658065,0.08288367,-2.1785252,0.12858182,1.5247278,1.074806,0.039999597,0.04,-0.008455936772788775,0.01701615758513131,-0.028738010197537633,-0.03034252020083525,-0.14117282910529336,0.11330190001446588,0.9890449368870741,-0.009237302523823735,0.13030083275287394,0.06874938577205231
733.6166666663281,0.22721511,-0.94817907,0.08369953,-2.1767738,0.12984715,1.5242727,1.07765,0.039999597,0.04,-0.009900597689282975,0.017601496470193156,-0.02788171099469272,-0.030699563971782112,-0.14056794652059657,0.11380077232077959,0.9888315393131137,-0.009452049985590532,0.13138349759532972,0.06972246532033868
733.6333333329948,0.22942741,-0.9497764,0.08451485,-2.1750236,0.13111155,1.5238177,1.0804919,0.039999593,0.04,-0.010311404874352448,0.018247075163646542,-0.027597146343949497,-0.031054492386178134,-0.13994647557888099,0.1142815380103526,0.9886163377305122,-0.009669068841452145,0.13246055238553506,0.0706997025578487
733.6499999996614,0.23163791,-0.95137244,0.08532949,-2.1732755,0.13237493,1.523363,1.0833317,0.039999593,0.04,-0.012087318221531973,0.018850819575011446,-0.02671523826678346,-0.03140420064904534,-0.1393093535937759,0.11474174956764381,0.9883994102283097,-0.009888155292194114,0.13353155244922962,0.07168092316471526
733.6666666663281,0.23384632,-0.952967,0.08614335,-2.1715286,0.1336371,1.5229086,1.0861686,0.039999593,0.04,-0.01072687925405269,0.019396193914900106,-0.026393723439721573,-0.03175074724708049,-0.13866070727479388,0.1151856746972802,0.9881807162352191,-0.01010950929280732,0.1345968581620424,0.07266605573178601
733.6833333329947,0.23605242,-0.95456,0.08695637,-2.1697834,0.13489795,1.5224549,1.0890025,0.039999593,0.04,-0.011393307297202782,0.019834439403348947,-0.02565287181767184,-0.03209303797328969,-0.13799468443852242,0.11561168443497297,0.9879602686836466,-0.010333061119271457,0.13565646501941958,0.0736549988044053
733.6999999996614,0.2382559,-0.95615125,0.08776841,-2.16804,0.13615727,1.5220017,1.0918331,0.039999597,0.04,-0.01206717529660395,0.02051077737008078,-0.025092574072371754,-0.03242951394643878,-0.13730968987469777,0.11601715694633541,0.9877381186208392,-0.010558632285224422,0.13671015242915274,0.07464756211979161
733.716666666328,0.24045652,-0.95774037,0.0885794,-2.1662993,0.13741499,1.5215492,1.09466,0.039999597,0.04,-0.013718219847680402,0.0209535435983621,-0.02418528042276158,-0.03276245411895917,-0.1366094249918528,0.11640360474358322,0.9875143607760009,-0.010786245926170415,0.13775741633808086,0.07564349544966319
733.7333333329947,0.24265394,-0.9593272,0.08938924,-2.1645606,0.13867088,1.5210972,1.097483,0.039999593,0.04,-0.012701556763161648,0.021562092630228458,-0.0238204404434339,-0.0330892902852864,-0.13589637571002697,0.11676961010918438,0.9872889720701225,-0.011015823325421467,0.1387985319817702,0.07664270862182197
733.7499999996613,0.24484794,-0.96091163,0.09019784,-2.1628249,0.13992482,1.5206459,1.1003015,0.039999593,0.04,-0.014806413800627638,0.022031161298585733,-0.02289742870789091,-0.033413033749680826,-0.135167272914486,0.1171165967065509,0.9870620495409193,-0.011247430839981915,0.1398330086657203,0.07764493121300536
733.766666666328,0.24703829,-0.9624936,0.09100506,-2.161092,0.14117664,1.5201952,1.1031154,0.039999593,0.04,-0.01441345264461269,0.022614707474166718,-0.0225031291169131,-0.03372987836353883,-0.1344257993810607,0.11744288707053735,0.9868335893886854,-0.011480884800582361,0.14086099448731823,0.07865008817848185
733.7833333329946,0.24922465,-0.9640726,0.09181084,-2.1593623,0.14242618,1.5197457,1.1059242,0.039999597,0.04,-0.01515835594005921,0.022978051893618456,-0.021244264405340108,-0.0340417960639591,-0.1336694266453493,0.11774937585836912,0.9866036363391022,-0.011716231875299911,0.14188235091135293,0.07965797620434914
733.7999999996613,0.25140682,-0.9656486,0.09261505,-2.1576362,0.1436733,1.519297,1.1087275,0.039999597,0.04,-0.016104882370493456,0.023544271464448485,-0.02085704063379268,-0.03434898880711282,-0.13289886767845507,0.11803599815386592,0.9863722594310598,-0.011953517874388163,0.14289679237224504,0.08066837028858445
733.8166666663279,0.2535846,-0.9672213,0.09341763,-2.155913,0.14491785,1.518849,1.1115252,0.039999604,0.04,-0.015648309409455052,0.023902477771364783,-0.02029645076097042,-0.03464871851936002,-0.13211661474924008,0.11830225759742166,0.98613947114917,-0.012192545037020743,0.1439043803172574,0.0816811766116375
733.8333333329946,0.25575754,-0.9687907,0.094218455,-2.154194,0.1461597,1.518402,1.1143167,0.0399996,0.04,-0.017204067830345338,0.02455206717533187,-0.01934013087748765,-0.03494338292205443,-0.13131986175820262,0.11854771537391529,0.9859053474407543,-0.01243332919090397,0.144904823123829,0.08269613321315529
733.8499999996612,0.25792542,-0.9703566,0.09501743,-2.152479,0.14739867,1.5179563,1.1171018,0.0399996,0.04,-0.01677291862840491,0.024914633590622515,-0.018525059111307307,-0.03523183037538111,-0.13051281949573085,0.11877245877938195,0.9856698706035862,-0.012675805094977082,0.14589837068525707,0.08371317447625129
733.8666666663279,0.26008806,-0.9719186,0.09581445,-2.1507678,0.14863463,1.5175116,1.1198797,0.039999604,0.04,-0.01763343188785349,0.025298566545250978,-0.017780867032546332,-0.03551427052460221,-0.12969155902550114,0.11897648506486834,0.9854331212949083,-0.012920149795891846,0.14688469919856437,0.08473203836550398
733.8833333329945,0.26224524,-0.97347665,0.09660944,-2.1490614,0.14986743,1.517068,1.1226509,0.039999604,0.04,-0.01890534680124567,0.025716916322171546,-0.01708453241078267,-0.035787926973384135,-0.12885730208301938,0.11915870766494924,0.9851951856153014,-0.013165985306813947,0.14786348092277576,0.08575251646880346
733.8999999996612,0.2643965,-0.9750307,0.0974023,-2.1473587,0.1510969,1.5166258,1.1254144,0.03999961,0.04,-0.016790794433640954,0.026263790066660686,-0.016550712887897223,-0.036056155950060176,-0.128012754111975,0.11932083852545247,0.9849559641926562,-0.013413473973772997,0.14883545176366325,0.08677462541305564
733.9166666663278,0.26654163,-0.9765803,0.098192915,-2.145662,0.15232289,1.5161846,1.1281703,0.039999615,0.04,-0.021804799334113056,0.026708722769741566,-0.015047473436280434,-0.03631672487954071,-0.1271531052311512,0.11945909624544128,0.9847157575794168,-0.013662302980680465,0.1497991024861374,0.08779776276424646
733.9333333329945,0.26868054,-0.97812545,0.098981194,-2.1439698,0.15354526,1.5157447,1.130918,0.03999962,0.04,-0.018410744703167836,0.026882614991863285,-0.014923939777378159,-0.03657209623071837,-0.1262897657543387,0.11957978688971999,0.9844744013547062,-0.013912681327663127,0.15075549942455485,0.0888221243205818
733.9499999996611,0.27081293,-0.979666,0.09976706,-2.1422822,0.15476389,1.5153062,1.1336575,0.039999623,0.04,-0.019247206877093248,0.027269286840203577,-0.014076591602352195,-0.036819432327376195,-0.1254119112317906,0.11967708989549214,0.9842319548240418,-0.014164488185726505,0.15170448509057752,0.08984751293766892
733.9666666663278,0.27293846,-0.9812015,0.100550406,-2.1406007,0.15597862,1.5148692,1.136388,0.03999962,0.04,-0.021623431837092255,0.027713409595275795,-0.01272201270400286,-0.03705944286828737,-0.12452141083872849,0.11975284401517966,0.9839885747799293,-0.014417699888855284,0.15264540030498147,0.09087351868509493
733.9833333329944,0.2750569,-0.9827319,0.101331145,-2.1389244,0.15718926,1.5144335,1.1391095,0.039999623,0.04,-0.02060999537234487,0.02804650769338002,-0.012233176631382126,-0.03729093434923664,-0.12362422094258049,0.11980641056445418,0.9837442485134582,-0.014672165421171699,0.15357850389110442,0.0919000773727376
733.9999999996611,0.277168,-0.98425704,0.10210918,-2.137254,0.15839571,1.5139991,1.1418215,0.03999963,0.04,-0.021786810587620664,0.028450695143489302,-0.011484122449001433,-0.037515793028057576,-0.12271599398518523,0.11983911584510903,0.983499057175216,-0.01492794811809567,0.1545035512312131,0.09292692590088447
734.0166666663278,0.27927142,-0.98577666,0.10288439,-2.1355891,0.15959781,1.5135665,1.1445239,0.03999963,0.04,-0.020993488010789818,0.0287117344903276,-0.01033644006507295,-0.03773235459992742,-0.12180093828985529,0.11985126429027104,0.9832529704029975,-0.015184862982233016,0.1554208834839996,0.0939540584910823
734.0333333329944,0.281367,-0.98729074,0.10365671,-2.133931,0.16079544,1.5131356,1.1472162,0.039999634,0.04,-0.023040101375570998,0.029051121028500493,-0.009543398091282906,-0.037941532368710035,-0.12087395252395247,0.11984019590178754,0.9830061258211545,-0.015442877597344523,0.15632997899754567,0.09498111283947501
734.049999999661,0.28345457,-0.98879904,0.10442607,-2.1322794,0.16198839,1.5127062,1.1498979,0.039999638,0.04,-0.023281227663307646,0.029288592112697298,-0.008798122527919894,-0.038142427900683354,-0.11993956063964316,0.11980576793116846,0.982758576477258,-0.015702123598184882,0.15723077421780482,0.09600785027158222
734.0666666663277,0.2855338,-0.9903014,0.10519233,-2.1306345,0.16317657,1.5122784,1.152569,0.039999634,0.04,-0.023311576275331092,0.029662416061393415,-0.007880954036565413,-0.03833362475047719,-0.11899810726972844,0.11975126564458269,0.9825103526509453,-0.01596234468668386,0.15812330702753216,0.09703417058178714
734.0833333329944,0.28760436,-0.99179745,0.10595545,-2.1289964,0.16435985,1.5118525,1.1552292,0.039999638,0.04,-0.023465292892765888,0.029823511056537022,-0.006901595517383452,-0.03851806407719027,-0.11805011903247913,0.1196776686765468,0.9822614936685308,-0.016223506813363285,0.15900758140478358,0.09805990484670483
734.099999999661,0.2896661,-0.9932872,0.106715344,-2.1273646,0.16553806,1.5114285,1.157878,0.039999638,0.04,-0.022995328336294918,0.03008182325626718,-0.006251211931296297,-0.03869351663126622,-0.11709392448637078,0.11957955048439581,0.9820119956877966,-0.016485616551889425,0.15988383417168167,0.09908493499385874
734.1166666663277,0.2917188,-0.99477047,0.107471846,-2.1257403,0.16671106,1.5110064,1.1605151,0.03999964,0.04,-0.024681986090557828,0.030383023992219815,-0.00516092062675666,-0.03886030486597049,-0.11612756061737756,0.11945968627329728,0.9817619826918134,-0.016748672335786866,0.16075162997531922,0.10010896451520224
734.1333333329943,0.29376218,-0.99624705,0.10822491,-2.1241233,0.16787878,1.510586,1.1631403,0.03999965,0.04,-0.02484930209520897,0.030633884570729908,-0.0043892040479165395,-0.03901832712175607,-0.11515540121852509,0.11931950272588342,0.9815115102639471,-0.01701244167480028,0.1616109103378764,0.10113182341582733
734.149999999661,0.295796,-0.9977167,0.108974494,-2.122514,0.16904098,1.5101677,1.1657534,0.039999653,0.04,-0.025267997676614584,0.03075722328667041,-0.003323388937448435,-0.03916729997338468,-0.11417695535608799,0.11915615553118847,0.9812606266377693,-0.01727691299771287,0.1624616769334037,0.10215328881493897
734.1666666663276,0.29781994,-0.9991794,0.10972046,-2.1209123,0.17019765,1.5097518,1.1683537,0.039999656,0.04,-0.02502633071816973,0.030985124090299188,-0.002392119949823357,-0.03930752745579508,-0.11319266066871038,0.1189713774359793,0.9810093243076887,-0.017542120984336225,0.1633041566103417,0.10317331072776455
734.1833333329943,0.29983386,-1.0006351,0.110462725,-2.1193185,0.17134859,1.5093375,1.170941,0.039999653,0.04,-0.025761414089542356,0.0313598577657892,-0.002103036654421686,-0.0394389542683148,-0.11219912446190068,0.11876423650577003,0.9807577196314293,-0.017808034847172367,0.16413802163197508,0.10419155019953327
734.1999999996609,0.30183756,-1.0020838,0.11120119,-2.1177328,0.17249356,1.5089256,1.1735152,0.039999656,0.04,-0.025846899305648208,0.0315025596938634,-0.0009167164230716729,-0.039560224430106664,-0.11120064328706974,0.11853631048697555,0.9805058181929832,-0.018074490317264203,0.1649634833784075,0.1052079010395211
734.2166666663276,0.30383074,-1.003525,0.111935794,-2.1161556,0.17363252,1.5085156,1.176076,0.03999966,0.04,-0.02696242625006562,0.031657782166139015,8.869961255486558e-05,-0.03967209815955475,-0.11019575898120862,0.11828593446204197,0.9802537431664239,-0.018341364458060012,0.16578016923068076,0.10622207326106024
734.2333333329942,0.30581316,-1.0049584,0.11266646,-2.1145864,0.17476532,1.5081079,1.178623,0.03999966,0.04,-0.02595281361656987,0.031633247516027474,0.0011378083468405187,-0.039775308293600334,-0.1091863528343693,0.11801428158581961,0.9800014715930908,-0.018608786988276622,0.16658840919063087,0.10723399948494
734.2499999996609,0.3077847,-1.0063827,0.11339308,-2.1130257,0.1758919,1.5077026,1.1811559,0.039999668,0.04,-0.02801385653570243,0.0312974077777084,0.0033519856284636163,-0.03986839948973575,-0.10816975432867555,0.11772143258980011,0.97974920251108,-0.018876546390757847,0.16738744185573262,0.1082433392142628
734.2666666663275,0.30974504,-1.0077991,0.11411559,-2.1114748,0.17701207,1.5072991,1.1836746,0.039999668,0.04,-0.029223381247289737,0.03219132648026868,0.0028809083169045735,-0.03995117735355393,-0.10715320811617216,0.11740808320363032,0.9794970275677478,-0.01914453135553956,0.16817715345760448,0.10924973665881627
734.2833333329942,0.3116941,-1.0092077,0.114833884,-2.1099327,0.17812574,1.5068984,1.1861786,0.039999668,0.04,-0.02690069007829088,0.03198319845925113,0.0036609302939139,-0.04002565481110057,-0.10613886927956342,0.11707536749594133,0.9792447721926325,-0.019412845085468023,0.16895855164495222,0.11025345983290859
734.2999999996608,0.31363147,-1.0106084,0.11554792,-2.1083996,0.17923278,1.5065,1.1886675,0.039999675,0.04,-0.02755191141514679,0.03234769644784308,0.004143874050899221,-0.04008942069955648,-0.10511622993893355,0.1167215559665981,0.9789925466821021,-0.019681414016618912,0.16973138706434962,0.11125417622907711
734.3166666663275,0.3155569,-1.0120003,0.11625757,-2.1068754,0.180333,1.5061036,1.1911412,0.039999682,0.04,-0.027998741235490954,0.03234159271032766,0.0057365821420130025,-0.04014298043871481,-0.10408694738645638,0.11634425912681626,0.9787404734551758,-0.019950106811804574,0.17049533487713772,0.11225159083090357
734.3333333329941,0.31747043,-1.0133832,0.116962776,-2.1053615,0.18142642,1.5057102,1.1935995,0.039999675,0.04,-0.029915622542375786,0.03194002558687403,0.007515946706804222,-0.04018641231114159,-0.1030559250221797,0.11594771146708877,0.9784886484686632,-0.02021887609130206,0.17125013749977985,0.11324553975269744
734.3499999996608,0.3193716,-1.0147578,0.11766348,-2.103857,0.18251273,1.5053192,1.1960421,0.039999682,0.04,-0.02825905564192155,0.03271111079845568,0.006806328467934275,-0.04021936750146829,-0.10202483987566675,0.11553026520212256,0.9782370132344703,-0.020487566765670005,0.17199639645634252,0.114235918835354
734.3666666663274,0.3212602,-1.0161226,0.11835958,-2.1023626,0.18359192,1.5049309,1.1984683,0.039999682,0.04,-0.03010072214522097,0.032183641461946966,0.00951954115895326,-0.04024270016244759,-0.10098778246109447,0.11509147645024223,0.9779857680744375,-0.02075626023909516,0.17273339715555605,0.11522234423860948
734.3833333329941,0.32313615,-1.0174788,0.11905102,-2.1008778,0.18466383,1.5045452,1.2008785,0.03999968,0.04,-0.02810982269312312,0.03260501548362216,0.008628844550984116,-0.04025581737739074,-0.09995284888280213,0.11463516444823714,0.9777347667239082,-0.02102478481774425,0.1734620516791044,0.11620499554661112
734.3999999996607,0.32499918,-1.0188255,0.11973769,-2.0994031,0.18572843,1.5041617,1.2032722,0.039999686,0.04,-0.030325702477185246,0.03247735796106932,0.010351510240980133,-0.040258855658821494,-0.09891056097160485,0.11415472587180507,0.9774842658215768,-0.02129305926363402,0.17418143636725417,0.11718337306754968
734.4166666663274,0.32684913,-1.020163,0.120419525,-2.0979385,0.1867855,1.5037812,1.205649,0.039999686,0.04,-0.0290107839495235,0.03255618779303138,0.010949631121803804,-0.0402520851021637,-0.09786935050564383,0.11365653024016716,0.9772341469411071,-0.021561149308721595,0.17489234155527286,0.1181575548075006
734.433333332994,0.32868582,-1.0214909,0.12109647,-2.0964856,0.18783496,1.5034034,1.2080088,0.039999686,0.04,-0.0321977865665346,0.032440995265214934,0.012673874357593817,-0.040234317438128095,-0.09682343256811568,0.11313679727241033,0.9769846871273086,-0.02182883454926479,0.1755937992740611,0.11912699424344084
734.4499999996607,0.330509,-1.0228093,0.121768445,-2.0950425,0.18887669,1.5030286,1.2103511,0.039999686,0.04,-0.028655449713088643,0.03249991337960223,0.012554375875084567,-0.04020705757623104,-0.09578224080173203,0.11260041611642885,0.9767356794066069,-0.022096228082128803,0.17628695183483703,0.12009196430835241
734.4666666663273,0.33231848,-1.0241174,0.122435376,-2.09361,0.18991059,1.5026565,1.2126757,0.03999968,0.04,-0.030908737633739136,0.03234862156742402,0.01423877450965616,-0.040168983254094154,-0.09473390534844132,0.11204217245451545,0.9764873619488462,-0.022363247121489797,0.1769710044591475,0.12105197525479115
734.483333332994,0.3341141,-1.0254159,0.123097196,-2.0921884,0.1909366,1.502287,1.2149827,0.03999969,0.04,-0.030103940749404146,0.03257388374223735,0.014086377991151533,-0.04011993898773729,-0.09368635195879103,0.11146550649223654,0.9762396824145445,-0.0226296512364897,0.17764642408465275,0.12200708739249451
734.4999999996606,0.3358957,-1.0267041,0.123753816,-2.090778,0.19195454,1.5019208,1.2172716,0.039999686,0.04,-0.03155050606493681,0.03221531512324072,0.01626131265661801,-0.040060553352182796,-0.09263733558140778,0.11086837548420404,0.9759927773357102,-0.022895527936943893,0.1783128718964283,0.12295695631017936
734.5166666663273,0.33766302,-1.027982,0.1244052,-2.0893793,0.1929643,1.5015574,1.2195425,0.03999969,0.04,-0.031599737654541826,0.03235292138552559,0.01653233020681988,-0.039990808426776256,-0.09158872663611692,0.11025243090513188,0.975746723309913,-0.023160546651421646,0.17897028638083787,0.12390140282311787
734.533333332994,0.33941582,-1.0292494,0.12505123,-2.087992,0.19396582,1.5011969,1.2217942,0.039999686,0.04,-0.03149114109959328,0.03229977423444552,0.017648990704088874,-0.039912276222273876,-0.09054186569684897,0.10961780831880596,0.9755015372964115,-0.023425106964460297,0.1796188435080051,0.1248402425217461
734.5499999996606,0.34115407,-1.0305066,0.12569189,-2.0866163,0.19495898,1.5008394,1.2240273,0.039999686,0.04,-0.03155291797840576,0.03221219357552041,0.017988904635490854,-0.0398210200794758,-0.08949443519247086,0.10896563256591804,0.9752572569616896,-0.0236889040069876,0.18025862314279,0.12577339684199512
734.5666666663273,0.34287757,-1.0317531,0.12632711,-2.0852523,0.1959437,1.5004848,1.226242,0.039999686,0.04,-0.03179156696018204,0.032004536353902324,0.01919063008434252,-0.03971926712755208,-0.08844816552907828,0.10829561640351607,0.9750139698136592,-0.023951575250761532,0.1808894887522934,0.12670072442630342
734.5833333329939,0.34458604,-1.0329887,0.1269568,-2.0838997,0.1969198,1.5001334,1.228437,0.039999686,0.04,-0.0312665208627827,0.03202757044044047,0.020005518332422145,-0.03960934551296151,-0.08740219073068596,0.10760628111907097,0.9747716684793952,-0.024213550534258978,0.18151175089327673,0.12762203018318635
734.5999999996606,0.34627935,-1.0342133,0.12758091,-2.082559,0.1978872,1.4997854,1.2306124,0.03999969,0.04,-0.031776930649218826,0.03182198238566025,0.021140701491195735,-0.039487832888901814,-0.08635661332673927,0.10689994813295518,0.9745304117578167,-0.024474582805087266,0.18212539735308755,0.1285371969300602
734.6166666663272,0.34795734,-1.0354271,0.12819938,-2.0812309,0.19884594,1.4994404,1.2327683,0.039999697,0.04,-0.032593055415386374,0.031790510977181,0.021536081195072665,-0.03935582881661018,-0.08530960359553649,0.10617494580408063,0.9742903212934348,-0.024734529806755192,0.1827301442557401,0.12944600128799125
734.6333333329939,0.34961984,-1.0366293,0.12881218,-2.0799148,0.1997958,1.4990984,1.2349043,0.039999694,0.04,-0.03263057311873041,0.03149331922597254,0.02292647811756865,-0.039213931531587976,-0.08426612008705688,0.10543496849617914,0.9740514796717248,-0.024993390643436694,0.1833259293066832,0.1303481837898365
734.6499999996605,0.35126677,-1.0378201,0.1294192,-2.0786114,0.2007367,1.4987594,1.2370203,0.039999694,0.04,-0.03313981687669276,0.031442287904204225,0.0235885715169748,-0.03906177425023684,-0.08322670982790514,0.10467747218319302,0.9738139561430016,-0.025251077621477734,0.18391270009949626,0.13124359276621125
734.6666666663272,0.3528979,-1.0389998,0.13002037,-2.0773203,0.20166856,1.4984235,1.2391158,0.03999969,0.04,-0.03222545110919128,0.03153387738170643,0.023774581685942486,-0.038899436681569075,-0.08219241841706375,0.1039056148013521,0.9735777012434313,-0.025507604736032745,0.1844909161715783,0.13213222011439096
734.6833333329938,0.354513,-1.0401677,0.13061568,-2.076042,0.20259129,1.4980911,1.2411909,0.039999694,0.04,-0.0327469045983797,0.031031834292505334,0.025596093185875635,-0.03872585795561924,-0.0811575298607755,0.10311594237297718,0.9733427993093515,-0.025762795172845236,0.18506047757023725,0.13301388295585242
734.6999999996605,0.3561121,-1.0413243,0.131205,-2.0747762,0.20350486,1.4977621,1.2432454,0.039999697,0.04,-0.032317686123217726,0.031091573058639188,0.02539855048148132,-0.038543516182323434,-0.08012679336636329,0.10231085990304109,0.9731092490991133,-0.026016684317589613,0.1856215778842674,0.13388857784976843
734.7166666663271,0.35769486,-1.0424691,0.13178839,-2.0735238,0.20440914,1.4974365,1.2452791,0.03999969,0.04,-0.03356595523129613,0.03082564121029696,0.02689491788336884,-0.03835014029514179,-0.07909598638161418,0.10148933028203697,0.972877193517305,-0.026269043554798786,0.18617394455219569,0.1347559499780421
734.7333333329938,0.3592612,-1.0436022,0.13236569,-2.072284,0.20530403,1.4971144,1.2472918,0.039999686,0.04,-0.0322979831032022,0.030735714987928375,0.02729802273796489,-0.03814867191212909,-0.07806910734130648,0.10065237483709671,0.9726465914327362,-0.026519901407646224,0.18671795009827738,0.13561603929737034
734.7499999996604,0.3608111,-1.044723,0.13293692,-2.071057,0.20618942,1.4967957,1.2492831,0.039999682,0.04,-0.032990269321153676,0.030274791589679495,0.02839058197304789,-0.037936682928414345,-0.07704514762994807,0.09979811835097313,0.972417561936062,-0.02676939704113106,0.18725336429338468,0.13646853916265259
734.7666666663271,0.36234432,-1.0458324,0.133502,-2.0698435,0.20706534,1.4964802,1.251253,0.039999686,0.04,-0.03292371063698951,0.030549390986001068,0.028263304378384202,-0.03771405471603276,-0.07602309712734688,0.09893136063522973,0.972190098113228,-0.027017279666383134,0.18778044384800663,0.13731345395942152
734.7833333329937,0.36386076,-1.0469295,0.13406096,-2.0686433,0.20793167,1.4961684,1.2532014,0.039999686,0.04,-0.0332903006025731,0.02986895485985741,0.029859321753045176,-0.03748236855856438,-0.07500387309535403,0.0980495768018522,0.9719642958973704,-0.02726354699896566,0.18829904561600447,0.13815055528612977
734.7999999996604,0.3653602,-1.0480143,0.13461365,-2.0674565,0.2087883,1.4958597,1.2551278,0.03999969,0.04,-0.033307724936149086,0.02998676012020418,0.030373606015521304,-0.03724009935414599,-0.07398772118492375,0.09715279113144057,0.9717402222547511,-0.027508177476896337,0.1888091465247125,0.1389796633065284
734.816666666327,0.36684266,-1.0490867,0.13516004,-2.066283,0.20963517,1.4955547,1.2570323,0.039999697,0.04,-0.03301828277870733,0.029577444430362032,0.031137493712118935,-0.036988326557472806,-0.07297661045181861,0.09624321701521457,0.9715178795825209,-0.027751105553413744,0.18931094943341392,0.13980075184585075
734.8333333329937,0.36830792,-1.0501466,0.13570012,-2.0651226,0.21047224,1.495253,1.258915,0.03999969,0.04,-0.032701109939115014,0.02940950735721426,0.03160609399869285,-0.03672681678134944,-0.07196917914111964,0.09532161181854142,0.9712973139073124,-0.027992143610136803,0.18980449354239526,0.14061373376617314
734.8499999996603,0.36975586,-1.0511942,0.13623385,-2.0639765,0.21129939,1.494955,1.2607753,0.039999694,0.04,-0.034065752103185076,0.02924926566619801,0.03264707312828907,-0.03645659847815347,-0.07096531604200323,0.09438455572299224,0.971078620766018,-0.028231303590760624,0.19028967666882837,0.1414183324113507
734.866666666327,0.37118638,-1.052229,0.13676119,-2.0628443,0.21211661,1.4946606,1.2626135,0.039999694,0.04,-0.03348256288946416,0.028817943561265658,0.03347507432739372,-0.03617744603748653,-0.06996623679901182,0.09343609391621292,0.9708618296805376,-0.028468441865204374,0.19076656841016215,0.14221452761281891
734.8833333329936,0.37259948,-1.0532514,0.13728206,-2.061726,0.21292382,1.49437,1.2644291,0.039999694,0.04,-0.033500992000901064,0.028707029324470668,0.03377770630667021,-0.03588912821757667,-0.06897243655099612,0.09247380502396271,0.9706469623392151,-0.028703717902923476,0.19123530355988022,0.1430022019150895
734.8999999996603,0.37399492,-1.0542611,0.13779643,-2.0606213,0.21372093,1.4940832,1.2662219,0.039999694,0.04,-0.03219127712554837,0.02854795299286339,0.03421218038738294,-0.03559238089907511,-0.06798269983837227,0.09150040356526437,0.9704339646195381,-0.028937052346822336,0.1916963174998045,0.14378139368950524
734.9166666663269,0.37537262,-1.055258,0.13830425,-2.059531,0.2145079,1.4937999,1.267992,0.03999969,0.04,-0.03418216280266506,0.02829970904136836,0.035349722809641104,-0.03528492801383348,-0.06699355993613693,0.09051348091658123,0.9702230486179871,-0.02916819985685723,0.19214902210366114,0.14455173936046664
734.9333333329936,0.3767325,-1.0562419,0.13880548,-2.0584545,0.21528469,1.4935203,1.2697393,0.0399997,0.04,-0.03312509874677794,0.027901920723483187,0.035864461306966966,-0.03497075637506546,-0.0660127885685805,0.08951699086873137,0.9700141960072123,-0.029397232591801662,0.19259367146225706,0.14531324775502547
734.9499999996602,0.37807447,-1.0572131,0.13930015,-2.057392,0.2160513,1.4932442,1.2714635,0.039999697,0.04,-0.03260957764896766,0.027807369010623972,0.03571098113869242,-0.03464750890612629,-0.06503620851496097,0.0885082224119986,0.9698073788102367,-0.02962415172861069,0.19303059148427065,0.14606590427204794
734.9666666663269,0.37939852,-1.0581712,0.13978815,-2.0563436,0.21680763,1.4929718,1.2731645,0.039999694,0.04,-0.03347160664195492,0.027390431578844243,0.037073440087154186,-0.03431538650576911,-0.06406217467151676,0.08748847325163622,0.9696027171297842,-0.029848929807100504,0.19345951343480375,0.1468094989620211
734.9833333329935,0.38070443,-1.0591164,0.14026953,-2.0553093,0.21755362,1.4927032,1.2748424,0.039999697,0.04,-0.03269176199509616,0.02724850373826415,0.03721913826257861,-0.03397428327893172,-0.06309515264361407,0.08645855561098402,0.9694001748162694,-0.030071391075199076,0.1938808171882042,0.14754403150050843
734.9999999996602,0.38199216,-1.0600481,0.14074418,-2.0542896,0.21828924,1.4924384,1.2764971,0.039999694,0.04,-0.03371068400745969,0.026766856828808194,0.0386549678879744,-0.033626409688105874,-0.06212983252031621,0.0854183631812283,0.9691999030155002,-0.030291388291290425,0.19429409622165905,0.14826929541729167
735.0166666663268,0.38326165,-1.060967,0.14121214,-2.0532846,0.21901445,1.4921774,1.2781284,0.03999969,0.04,-0.03357351232904371,0.026735556376877856,0.03839834510565021,-0.03327036739003492,-0.06117349161721185,0.08436728281384479,0.9690018984692738,-0.030509040254281482,0.1946996001341567,0.1489851836032878
735.0333333329935,0.3845128,-1.0618724,0.14167336,-2.052294,0.21972914,1.49192,1.2797358,0.039999694,0.04,-0.03308384270459541,0.026296461188768383,0.03933598535579286,-0.032907556949580474,-0.06022203236779741,0.08330831769348146,0.9688061964844455,-0.030724432793187127,0.1950973963410152,0.14969157900107677
735.0499999996601,0.38574564,-1.0627648,0.14212778,-2.0513182,0.22043338,1.4916664,1.2813199,0.039999697,0.04,-0.03323349451394009,0.026163989669514276,0.039430368493698076,-0.03253539313419274,-0.059276428459490244,0.08224197077953901,0.9686128136279893,-0.030937267418669083,0.1954875667014692,0.15038854353132863
735.0666666663268,0.38696006,-1.0636437,0.1425754,-2.050357,0.22112712,1.4914167,1.2828803,0.03999969,0.04,-0.03342885533546003,0.02569493252758681,0.040434970253977465,-0.032156336605660044,-0.058337489618102124,0.08116618339217757,0.9684218300552788,-0.031147554100702413,0.19587001009176758,0.15107590175994018
735.0833333329934,0.38815603,-1.064509,0.14301619,-2.0494106,0.22181022,1.4911708,1.2844167,0.03999969,0.04,-0.03297608089312121,0.025427972373004426,0.040863765211418546,-0.03177123214004419,-0.05740504983522245,0.08008261379503773,0.9682332510133517,-0.031355467332343866,0.1962449212248443,0.1517535409601406
735.0999999996601,0.38933343,-1.0653614,0.14345023,-2.048479,0.22248277,1.4909285,1.2859298,0.03999969,0.04,-0.03323610576995151,0.02529853612238675,0.04066427209938883,-0.03137807266612678,-0.056479460628639684,0.07899357911684032,0.9680471171433098,-0.03156053547972721,0.19661232660886355,0.15242147032557274
735.1166666663268,0.3904922,-1.0662004,0.14387739,-2.0475614,0.22314471,1.4906905,1.2874196,0.03999969,0.04,-0.031090406966116646,0.02498033413972367,0.04111852547880046,-0.030979093865758214,-0.055560439662592054,0.0778939664952378,0.9678632871595962,-0.03176278215669096,0.19697286115109766,0.1530799627914699
735.1333333329934,0.39163256,-1.0670258,0.14429767,-2.046659,0.223796,1.4904561,1.2888838,0.039999694,0.04,-0.033716011846429694,0.024468654768450282,0.042184696705105384,-0.030576088569382216,-0.05464308731980581,0.07678662257797887,0.9676820113013193,-0.03196319395240142,0.1973258417348638,0.15372830389951647
735.14999999966,0.39275405,-1.067838,0.14471108,-2.0457716,0.2244366,1.4902257,1.2903244,0.039999697,0.04,-0.03275934621851384,0.02454969065075474,0.04234208109602511,-0.030161106162403598,-0.05373273754688554,0.07567814125305038,0.9675032486826984,-0.03216061910357767,0.19767160045228718,0.1543667604827231
735.1666666663267,0.3938569,-1.0686363,0.14511761,-2.0448985,0.22506654,1.489999,1.2917415,0.0399997,0.04,-0.031981975216544,0.02382721795288756,0.042729246392547715,-0.029741668641242086,-0.05282906453458694,0.07456169236995358,0.9673270159765222,-0.03235519746584687,0.19801017190824458,0.1549953456713165
735.1833333329934,0.394941,-1.0694209,0.14551729,-2.04404,0.22568582,1.4897761,1.2931341,0.039999697,0.04,-0.03220692820038451,0.023649848553919384,0.04305173735378309,-0.029316859547438644,-0.05193186585209291,0.07343783286077675,0.9671533549192248,-0.03254722046884149,0.19834161231482908,0.1556138532798246
735.19999999966,0.39600635,-1.0701923,0.14591001,-2.0431967,0.22629437,1.489557,1.294503,0.039999694,0.04,-0.03274212405681709,0.023661566181887306,0.043307318370533476,-0.028884112595220196,-0.0510409333289057,0.0723099313236768,0.9669823139452951,-0.03273623514523106,0.19866589841643137,0.1562222910852061
735.2166666663267,0.39705303,-1.0709502,0.14629588,-2.042368,0.22689225,1.4893417,1.2958475,0.039999694,0.04,-0.03174841069921719,0.02298633982475984,0.04345118933027914,-0.028448143115978757,-0.050158622139482245,0.07117648022131673,0.9668138585965556,-0.03292263992553035,0.19898327979132874,0.15682065224153083
735.2333333329933,0.3980809,-1.0716944,0.14667478,-2.0415542,0.22747932,1.4891303,1.2971681,0.0399997,0.04,-0.032334538954348346,0.02296328240428691,0.044254459922521416,-0.02800454673417376,-0.049280908640410966,0.07003747931823867,0.9666480789527748,-0.033106049423578726,0.19929362943127965,0.1574087996796278
735.24999999966,0.39908993,-1.0724248,0.14704676,-2.0407553,0.22805569,1.4889226,1.2984645,0.0399997,0.04,-0.03199011844503552,0.02243683306356603,0.04459747736477171,-0.027558376765273944,-0.048410978074953266,0.06889764875336066,0.9664849895083035,-0.033286603730245994,0.19959700701443714,0.15798671418229648
735.2666666663266,0.4000802,-1.073142,0.14741181,-2.0399709,0.22862132,1.4887186,1.2997369,0.0399997,0.04,-0.031025770649417694,0.02254179824541236,0.04378546177790099,-0.027105706387262396,-0.04755016827218771,0.06775297322537324,0.9663245095473103,-0.03346427838466138,0.19989384624193923,0.15855451603454232
735.2833333329933,0.40105173,-1.0738456,0.14776994,-2.0392015,0.22917622,1.4885186,1.300985,0.0399997,0.04,-0.031933072234480164,0.021814316453905302,0.045119339865384855,-0.026648654387517984,-0.04669219787018825,0.06660379919344132,0.9661667598758703,-0.03363905795592951,0.20018384809736572,0.15911201353678736
735.2999999996599,0.40200445,-1.0745349,0.14812118,-2.0384467,0.22972038,1.4883225,1.3022093,0.0399997,0.04,-0.03147251130188877,0.021263003898597255,0.04585347494421299,-0.026187893467578688,-0.045843438576543945,0.06545366644604844,0.9660117810004183,-0.033810739436669346,0.2004669918237268,0.15965919345997964
735.3166666663266,0.4029385,-1.0752112,0.14846548,-2.0377069,0.23025382,1.4881302,1.3034092,0.039999697,0.04,-0.031212695066962226,0.021621814506322945,0.04466508713885098,-0.025722937487688217,-0.045003433246118066,0.06430100006792686,0.9658594946492748,-0.03397958364735419,0.20074370244443507,0.16019609988979164
735.3333333329932,0.40385374,-1.0758739,0.1488029,-2.0369816,0.23077661,1.4879419,1.3045853,0.039999705,0.04,-0.030688299750591952,0.02096336962740253,0.045386550847625884,-0.025253734199642185,-0.044168931594225594,0.06314661530635712,0.9657099259537919,-0.034145342035364505,0.2010139758322733,0.16072279257066174
735.3499999996599,0.40475026,-1.0765228,0.14913341,-2.0362713,0.23128869,1.4877574,1.3057371,0.0399997,0.04,-0.03139390181816637,0.020660836861163823,0.04608386357058958,-0.02478191511819367,-0.04334072532784925,0.061990689327834476,0.9655631608155599,-0.03430816684015716,0.20127766785821696,0.16123905415714376
735.3666666663265,0.40562811,-1.0771588,0.14945705,-2.0355759,0.2317901,1.4875768,1.3068651,0.0399997,0.04,-0.03046389386351933,0.020677760286125224,0.04513100955559901,-0.024305672249627673,-0.04252043671853706,0.06083353870625303,0.9654191196424714,-0.034467918362588536,0.20153516060073923,0.16174506197760638
735.3833333329932,0.40648732,-1.0777812,0.14977384,-2.0348954,0.23228088,1.4873999,1.3079691,0.039999705,0.04,-0.03122502807597627,0.020062904475159904,0.04614304157628535,-0.023827171808426112,-0.04170660228853128,0.059676048852907275,0.965277936958297,-0.03462460463671001,0.20178609429420935,0.16224060319406483
735.3999999996598,0.407328,-1.07839,0.15008375,-2.0342293,0.23276101,1.4872268,1.309049,0.03999971,0.04,-0.0298860094060327,0.0197878731241663,0.04590762696597972,-0.023345482752287476,-0.04090205143762852,0.058518944357435605,0.9651395186995597,-0.03477838402645644,0.20203087992120675,0.16272583386528838
735.4166666663265,0.40815008,-1.0789855,0.15038683,-2.0335782,0.2332306,1.4870576,1.3101054,0.03999971,0.04,-0.030734552120126324,0.01954973038014174,0.046256093865215675,-0.022859790179740082,-0.04010318302932062,0.05736281311692277,0.9650039538616414,-0.03492886449880879,0.2022693133752366,0.16320069951729188
735.4333333329931,0.40895367,-1.0795676,0.1506831,-2.0329416,0.23368959,1.4868923,1.3111378,0.039999705,0.04,-0.029726234880422808,0.019189859789814356,0.04617292967308284,-0.022373962753315636,-0.03931418895529522,0.05620646612818815,0.9648711562922079,-0.03507642479396148,0.20250180741546372,0.1636652503510801
735.4499999996598,0.40973878,-1.0801364,0.15097255,-2.0323198,0.23413807,1.4867309,1.3121468,0.0399997,0.04,-0.03003670053240981,0.01904295238087661,0.04625602205146073,-0.021884966506483118,-0.038532256658192744,0.05505237713657242,0.9647411972265357,-0.03522068934948927,0.20272818069671042,0.1641194996551566
735.4666666663264,0.41050568,-1.080692,0.1512553,-2.0317128,0.23457606,1.4865732,1.3131324,0.039999705,0.04,-0.030054244298449717,0.018497854292709448,0.04609822777781325,-0.02139549023137572,-0.03775792394643648,0.053899760396262056,0.9646141057356868,-0.03536182283187517,0.20294842750561218,0.16456337464559806
735.4833333329931,0.4112542,-1.0812343,0.15153125,-2.0311198,0.23500365,1.4864192,1.3140941,0.0399997,0.04,-0.028855436304375814,0.018425283796796865,0.046155464805131,-0.020905190653586696,-0.03699287900053022,0.05274977509614613,0.9644898076011644,-0.03550004692086746,0.20316287449586576,0.16499698218046938
