rsonawane2002/My_IMU/logs_2/traj_317/imu_317.csv
time,j1,j2,j3,j4,j5,j6,j7,gripper1,gripper2,imu_ax,imu_ay,imu_az,imu_gx,imu_gy,imu_gz
730.3333333329978,0.00016700293,-0.785875,4.0107683e-05,-2.3551247,9.29385e-05,1.570997,0.786,0.04,0.04,-9.568857,0.010537560097873211,0.08349815,-1.1493286e-07,-0.0011641274904832244,5.978101e-07
730.3499999996644,0.00016701265,-0.78576016,4.0117204e-05,-2.3552213,9.297819e-05,1.5709941,0.786,0.04,0.04,-9.83441,0.0006492797983810306,0.009067509,-7.86176e-08,-0.0022385013289749622,1.124751e-06
730.3666666663311,0.00016707026,-0.7856543,4.014425e-05,-2.35531,9.304336e-05,1.5709913,0.786,0.04,0.04,-9.832589,0.000724329031072557,0.007545089,2.6794787e-08,-0.0032327037770301104,2.4742615e-06
730.3833333329977,0.00016725635,-0.78555703,4.0218805e-05,-2.355391,9.318128e-05,1.5709884,0.786,0.04,0.04,-9.830912,0.0008717529708519578,0.006140107,3.877862e-07,-0.004153519868850708,5.2736364e-06
730.3999999996644,0.00016768734,-0.7854676,4.0383915e-05,-2.3554652,9.348162e-05,1.5709856,0.786,0.04,0.03999999,-9.829469,0.0010924878297373652,0.004832078,1.6810939e-06,-0.005010139662772417,1.1688032e-05
730.416666666331,0.00016851266,-0.78538567,4.069484e-05,-2.355532,9.4007235e-05,1.5709827,0.7860019,0.04,0.03999999,-9.828268,0.0013560238294303417,0.0036120596,4.570367e-06,-0.005812642630189657,1.91634e-05
730.4333333329977,0.00016991068,-0.78531075,4.1217532e-05,-2.3555925,9.485111e-05,1.5709798,0.7860038,0.04,0.039999995,-9.827062,0.0016799153527244925,0.0024660388,1.1893346e-06,-0.006561467424035072,2.9087427e-05
730.4499999996643,0.0001720857,-0.78524244,4.2027255e-05,-2.3556497,9.6132666e-05,1.570977,0.7860065,0.04,0.04,-9.826145,0.002045460743829608,0.0013985173,1.4496484e-06,-0.007267373148351908,4.2711003e-05
730.466666666331,0.00017526529,-0.78518057,4.3207914e-05,-2.3557003,9.798813e-05,1.5709741,0.7860103,0.04,0.04,-9.825668,0.0024545188061892986,0.00042456435,2.8348159e-06,-0.007949989289045334,6.0583163e-05
730.4833333329976,0.0001796976,-0.7851248,4.485079e-05,-2.3557441,0.00010056349,1.5709713,0.78601605,0.04,0.04,-9.825002,0.00292153749614954,-0.0005351524,5.2197147e-06,-0.008597803302109241,8.336724e-05
730.4999999996643,0.0001856491,-0.7850748,4.7053923e-05,-2.355786,0.00010402624,1.5709684,0.7860237,0.04,0.039999995,-9.824313,0.0034245974384248257,-0.0013941587,6.7297583e-06,-0.009213265031576157,0.000112690024
730.5166666663309,0.0001934029,-0.7850304,4.9921753e-05,-2.3558214,0.00010850579,1.5709655,0.78603333,0.04,0.04,-9.824384,0.003930580336600542,-0.002186039,8.661179e-06,-0.009823868051171303,0.00014388433
730.5333333329976,0.00020325568,-0.78499156,5.3563424e-05,-2.355851,0.00011418915,1.5709627,0.78604656,0.04,0.04,-9.823933,0.00449245423078537,-0.0029284626,1.2189204e-05,-0.010411698371171951,0.0001820384
730.5499999996642,0.0002155166,-0.784958,5.809269e-05,-2.3558776,0.00012125388,1.5709597,0.78606236,0.039999995,0.04,-9.823645,0.005075340159237385,-0.0035798769,1.202787e-05,-0.010983004234731197,0.00022576092
730.5666666663309,0.0002305056,-0.7849299,6.362734e-05,-2.3558977,0.00012987807,1.5709567,0.7860817,0.03999999,0.04,-9.823874,0.00568230589851737,-0.004178984,1.453222e-05,-0.011556345969438553,0.00027439132
730.5833333329975,0.00024855154,-0.78490704,7.028838e-05,-2.3559127,0.00014025296,1.5709535,0.7861051,0.039999984,0.03999999,-9.823608,0.006323555484414101,-0.0046935356,1.7398734e-05,-0.01211467757821083,0.0003298132
730.5999999996642,0.0002699911,-0.7848895,7.819982e-05,-2.3559241,0.0001525696,1.5709493,0.7861328,0.03999998,0.039999988,-9.8237,0.006979465018957853,-0.0051283133,1.9815541e-05,-0.012671124190092087,0.00039124012
730.6166666663308,0.0002951674,-0.7848775,8.748781e-05,-2.3559284,0.0001670243,1.5709426,0.7861654,0.039999977,0.039999988,-9.824015,0.007656890898942947,-0.0054718475,2.2901484e-05,-0.01323682814836502,0.0004581946
730.6333333329975,0.0003244287,-0.7848706,9.828064e-05,-2.3559282,0.00018381554,1.5709358,0.78620315,0.03999997,0.03999998,-9.823972,0.008356001228094101,-0.005708049,2.5792891e-05,-0.013804702088236809,0.0005322586
730.6499999996641,0.00035812726,-0.7848692,0.000110707966,-2.3559234,0.0002031445,1.5709289,0.78624666,0.03999996,0.039999973,-9.824292,0.009078829549252987,-0.0059441784,2.9526305e-05,-0.014379335567355156,0.0006127507
730.6666666663308,0.00039661888,-0.78487325,0.00012490067,-2.355912,0.00022521336,1.5709213,0.7862963,0.039999958,0.039999973,-9.824682,0.00981226097792387,-0.006081094,3.33264e-05,-0.014962822198867798,0.00069889444
730.6833333329974,0.00044026098,-0.78488284,0.00014099035,-2.3558948,0.00025022705,1.5709108,0.7863526,0.03999995,0.039999966,-9.824807,0.01057457271963358,-0.0061258976,3.758553e-05,-0.01554824411869049,0.000792472
730.6999999996641,0.00048941287,-0.7848982,0.0001591093,-2.3558724,0.00027838963,1.5709002,0.786416,0.03999995,0.03999997,-9.825237,0.011344841681420803,-0.0060314056,4.2186584e-05,-0.016154615208506584,0.0008918255
730.7166666663308,0.0005444341,-0.78491944,0.00017938975,-2.355844,0.00030990771,1.5708894,0.786487,0.03999995,0.039999966,-9.8255625,0.012112167663872242,-0.0058934405,4.6534045e-05,-0.01676904410123825,0.0009995778
730.7333333329974,0.0006056844,-0.78494674,0.00020196442,-2.3558097,0.00034498447,1.5708759,0.78656596,0.039999947,0.039999966,-9.826019,0.012950831092894077,-0.005694003,5.1176477e-05,-0.01739315129816532,0.0011123258
730.749999999664,0.0006735229,-0.7849801,0.00022696516,-2.3557684,0.00038382577,1.5708615,0.78665334,0.039999947,0.03999997,-9.826519,0.01377817615866661,-0.005320518,5.6427114e-05,-0.01803886517882347,0.0012318228
730.7666666663307,0.0007483069,-0.78501976,0.00025452385,-2.3557208,0.00042663637,1.5708463,0.78674966,0.039999954,0.039999977,-9.826862,0.0146266994997859,-0.004898283,6.183082e-05,-0.018695145845413208,0.0013589393
730.7833333329974,0.0008303923,-0.7850657,0.00028477143,-2.3556666,0.00047361787,1.5708282,0.78685534,0.039999954,0.03999998,-9.827328,0.015493562445044518,-0.004360347,6.747961e-05,-0.0193646140396595,0.00149199
730.799999999664,0.0009201329,-0.7851182,0.00031783813,-2.3556054,0.0005249733,1.5708097,0.78697085,0.039999947,0.039999973,-9.827903,0.01637726090848446,-0.0036948477,7.3566436e-05,-0.020059658214449883,0.0016326838
730.8166666663307,0.001017879,-0.7851775,0.00035385284,-2.355537,0.00058090145,1.5707898,0.78709674,0.039999943,0.039999973,-9.828331,0.017271988093852997,-0.0029588975,7.9990416e-05,-0.020765341818332672,0.001779339
730.8333333329973,0.0011239784,-0.78524375,0.00039294377,-2.3554614,0.00064160203,1.5707678,0.7872333,0.039999943,0.039999973,-9.828836,0.01820334792137146,-0.0020785923,8.6125125e-05,-0.02148830145597458,0.0019336704
730.849999999664,0.001238775,-0.785317,0.0004352375,-2.3553784,0.00070727005,1.5707445,0.7873811,0.03999995,0.039999984,-9.829378,0.01913628540933132,-0.0010623862,9.2506896e-05,-0.022231964394450188,0.0020939487
730.8666666663306,0.0013626091,-0.7853976,0.00048085942,-2.3552873,0.0007781001,1.5707186,0.7875405,0.039999954,0.03999999,-9.829912,0.020094718784093857,3.3119693e-05,9.884653e-05,-0.022992411628365517,0.002261045
730.8833333329973,0.0014958163,-0.7854856,0.00052993296,-2.3551884,0.0008542852,1.5706916,0.7877119,0.039999954,0.039999995,-9.830401,0.021076418459415436,0.0013030339,0.000105417246,-0.02377304807305336,0.00243496
730.8999999996639,0.0016387287,-0.78558135,0.0005825807,-2.355081,0.00093601254,1.5706618,0.7878958,0.039999958,0.04,-9.830937,0.02208731137216091,0.00266302,0.00011195445,-0.02457081340253353,0.0026165594
730.9166666663306,0.0017916731,-0.78568465,0.0006389227,-2.3549657,0.0010234747,1.5706306,0.78809255,0.039999954,0.04,-9.831429,0.02310551516711712,0.0041954415,0.000118806674,-0.02538861520588398,0.0028040993
730.9333333329972,0.0019549718,-0.78579617,0.00069907785,-2.3548415,0.0011168477,1.5705967,0.78830266,0.039999947,0.039999995,-9.83201,0.02415185607969761,0.005807612,0.00012575966,-0.02622542530298233,0.0029984647
730.9499999996639,0.0021289412,-0.7859157,0.0007631627,-2.354709,0.0012163137,1.5705609,0.7885265,0.039999943,0.039999995,-9.832524,0.02522878907620907,0.0076195826,0.00013229746,-0.02708270400762558,0.0031996712
730.9666666663305,0.002313893,-0.78604376,0.00083129207,-2.3545673,0.0013220508,1.5705228,0.78876424,0.039999936,0.039999988,-9.83299,0.02625160478055477,0.009549428,0.00013883176,-0.027958881109952927,0.003408581
730.9833333329972,0.0025101327,-0.7861803,0.0009035787,-2.3544157,0.0014342361,1.570482,0.78901654,0.039999932,0.039999988,-9.833606,0.027441421523690224,0.011614021,0.00014595526,-0.02885489910840988,0.0036234523
730.9999999996638,0.0027179613,-0.7863256,0.0009801335,-2.3542542,0.0015530399,1.5704395,0.7892838,0.03999993,0.039999988,-9.834038,0.02858828194439411,0.013839676,0.00015296321,-0.02976813353598118,0.0038451771
731.0166666663305,0.0029376745,-0.78647983,0.0010610649,-2.354084,0.001678632,1.5703938,0.7895663,0.039999925,0.039999984,-9.834497,0.02976141683757305,0.016204076,0.00015916573,-0.03069590963423252,0.004074616
731.0333333329971,0.0031695594,-0.78664297,0.0011464796,-2.3539038,0.0018111755,1.570346,0.78986436,0.039999925,0.039999988,-9.8351145,0.03096020594239235,0.018766433,0.00016572868,-0.031648632138967514,0.0043100654
731.0499999996638,0.0034139005,-0.7868154,0.0012364818,-2.3537133,0.0019508329,1.5702959,0.7901785,0.03999993,0.039999995,-9.835588,0.03219461813569069,0.02143652,0.00017199504,-0.03261802718043327,0.0045524007
731.0666666663304,0.0036709744,-0.7869973,0.0013311733,-2.3535128,0.002097768,1.5702426,0.7905089,0.03999993,0.04,-9.836012,0.03344839811325073,0.024287727,0.00017778542,-0.03360176831483841,0.0048007355
731.0833333329971,0.003941052,-0.78718895,0.0014306542,-2.353301,0.0022521296,1.5701871,0.7908561,0.039999925,0.04,-9.836584,0.03474415838718414,0.027335674,0.00018353459,-0.034609198570251465,0.005056868
731.0999999996637,0.0042243977,-0.78739053,0.0015350216,-2.353079,0.002414077,1.5701289,0.7912204,0.039999917,0.039999995,-9.836896,0.03606858476996422,0.03052697,0.00018854889,-0.03562641516327858,0.0053207735
731.1166666663304,0.0045212703,-0.78760195,0.0016443711,-2.3528464,0.0025837338,1.5700678,0.7916021,0.039999917,0.04,-9.837402,0.03742419183254242,0.03390456,0.00019296707,-0.03666215389966965,0.00559087
731.133333332997,0.0048319213,-0.7878234,0.0017587952,-2.3526022,0.0027612788,1.5700036,0.79200137,0.039999913,0.04,-9.837891,0.03881251439452171,0.037457023,0.00019690605,-0.037716809660196304,0.005868005
731.1499999996637,0.005156596,-0.78805536,0.001878385,-2.3523471,0.002946825,1.5699369,0.79241866,0.03999991,0.04,-9.838251,0.040230754762887955,0.04117774,0.00020053635,-0.038786064833402634,0.0061511328
731.1666666663303,0.005495536,-0.78829753,0.0020032283,-2.3520806,0.003140511,1.5698673,0.7928542,0.039999902,0.04,-9.838689,0.04169083386659622,0.04509692,0.00020370987,-0.03987007960677147,0.0064414707
731.183333332997,0.005848973,-0.78855026,0.0021334114,-2.3518026,0.003342486,1.5697944,0.7933084,0.039999895,0.039999995,-9.839074,0.04319612681865692,0.0491739,0.00020661902,-0.040969301015138626,0.0067406204
731.1999999996636,0.0062171333,-0.78881395,0.0022690182,-2.351513,0.003552857,1.5697187,0.79378146,0.039999884,0.039999984,-9.839543,0.04473339766263962,0.053447768,0.00020853464,-0.04208758845925331,0.007046992
731.2166666663303,0.006600237,-0.7890885,0.0024101306,-2.3512108,0.0037717705,1.5696398,0.7942737,0.039999884,0.039999995,-9.83976,0.04619438946247101,0.057965957,0.00020985049,-0.04321742057800293,0.0073579564
731.233333332997,0.0069984985,-0.7893742,0.0025568248,-2.3508978,0.0039993343,1.5695578,0.79478544,0.039999884,0.03999999,-9.840151,0.04792727157473564,0.062585436,0.00021085121,-0.04435901343822479,0.0076795835
731.2499999996636,0.007412126,-0.789671,0.002709179,-2.3505712,0.0042356867,1.5694726,0.79531693,0.039999884,0.04,-9.840676,0.04956354573369026,0.06744542,0.00021034862,-0.045520491898059845,0.008005176
731.2666666663303,0.007841318,-0.78997916,0.0028672668,-2.3502326,0.004480928,1.5693842,0.7958684,0.03999988,0.04,-9.840784,0.0512775219976902,0.07249157,0.00020896758,-0.04668766260147095,0.008339773
731.2833333329969,0.008286271,-0.7902987,0.0030311595,-2.3498821,0.0047351727,1.5692928,0.7964401,0.039999872,0.04,-9.841195,0.053016580641269684,0.07774187,0.00020676605,-0.04787040874361992,0.008681768
731.2999999996636,0.008747173,-0.7906297,0.0032009277,-2.3495185,0.004998522,1.5691983,0.7970323,0.039999865,0.04,-9.841534,0.05480010062456131,0.08318435,0.0002033677,-0.04906678944826126,0.009030435
731.3166666663302,0.009224203,-0.7909724,0.0033766371,-2.3491418,0.005271074,1.5691003,0.7976453,0.039999858,0.03999999,-9.84178,0.05663882941007614,0.08881972,0.0001991903,-0.05027350038290024,0.009387491
731.3333333329969,0.009717538,-0.7913268,0.0035583535,-2.3487525,0.0055529433,1.5689988,0.79827917,0.03999985,0.039999984,-9.842007,0.05853796377778053,0.094691075,0.00019349137,-0.05149051547050476,0.009753992
731.3499999996635,0.010227348,-0.79169357,0.003746138,-2.3483505,0.0058442205,1.5688938,0.79893416,0.039999846,0.039999984,-9.842272,0.06045927852392197,0.100732476,0.00018646577,-0.05271941050887108,0.010126359
731.3666666663302,0.010753793,-0.79207206,0.0039400514,-2.3479347,0.0061449986,1.5687853,0.7996104,0.039999843,0.039999984,-9.842531,0.06244058161973953,0.10703856,0.0001785096,-0.05396011471748352,0.010506416
731.3833333329968,0.011297028,-0.7924629,0.004140151,-2.347505,0.0064553698,1.5686735,0.8003082,0.03999984,0.039999995,-9.8426895,0.06445662677288055,0.113492824,0.00016971589,-0.05520976334810257,0.010890952
731.3999999996635,0.011857208,-0.7928658,0.0043464927,-2.3470628,0.0067754206,1.5685583,0.80102825,0.03999983,0.03999998,-9.842792,0.06657445430755615,0.12019679,0.00015948615,-0.05646496266126633,0.011289322
731.4166666663301,0.012434472,-0.7932812,0.0045591267,-2.3466072,0.0071052313,1.5684397,0.8017695,0.039999828,0.039999984,-9.843028,0.06870503723621368,0.12708881,0.00014564133,-0.057731274515390396,0.011693134
731.4333333329968,0.01302896,-0.793709,0.004778105,-2.346138,0.0074448795,1.5683174,0.80253345,0.03999982,0.039999984,-9.843236,0.07089181989431381,0.13422158,0.00013384048,-0.05900765210390091,0.012103236
731.4499999996634,0.013640803,-0.7941493,0.0050034793,-2.3456547,0.0077944403,1.5681915,0.8033195,0.039999813,0.03999998,-9.843321,0.07315167784690857,0.14154771,0.00011739516,-0.06029137223958969,0.012523148
731.4666666663301,0.014270122,-0.7946024,0.0052352906,-2.3451574,0.008153987,1.5680621,0.80412793,0.039999813,0.039999984,-9.843257,0.0753459632396698,0.14914757,0.00010053921,-0.0615810751914978,0.012951265
731.4833333329967,0.014917036,-0.7950681,0.005473585,-2.344646,0.008523585,1.5679289,0.804959,0.039999805,0.03999999,-9.843447,0.07781708985567093,0.1568776,8.190788e-05,-0.06287651509046555,0.013385034
731.4999999996634,0.015581659,-0.79554653,0.005718403,-2.344121,0.0089032985,1.567792,0.8058127,0.039999805,0.039999988,-9.843465,0.0802755057811737,0.16486786,6.148927e-05,-0.06417767703533173,0.013831446
731.51666666633,0.016264101,-0.79603785,0.0059697856,-2.3435817,0.009293203,1.5676515,0.8066893,0.0399998,0.04,-9.843541,0.08274466544389725,0.17307937,3.9779e-05,-0.06548652797937393,0.014282032
731.5333333329967,0.01696446,-0.7965422,0.006227769,-2.3430283,0.0096933255,1.5675074,0.80758893,0.039999794,0.04,-9.843544,0.08531078696250916,0.18150641,1.5976175e-05,-0.06680058687925339,0.01474272
731.5499999996633,0.017682826,-0.7970595,0.006492387,-2.3424604,0.01010375,1.5673596,0.8085118,0.03999979,0.04,-9.843507,0.08793625235557556,0.19017567,-9.875735e-06,-0.06811803579330444,0.015212922
731.56666666633,0.018419292,-0.79758996,0.0067636725,-2.3418787,0.010524501,1.567208,0.80945784,0.039999783,0.039999995,-9.843425,0.09062355756759644,0.19904009,-3.791076e-05,-0.06943858414888382,0.015691653
731.5833333329966,0.019173931,-0.7981335,0.007041655,-2.3412826,0.010955643,1.5670528,0.8104272,0.03999978,0.03999999,-9.84341,0.09338852018117905,0.2081609,-6.811463e-05,-0.07076437771320343,0.016180063
731.5999999996633,0.019946832,-0.79869026,0.007326367,-2.3406718,0.011397223,1.5668939,0.81142,0.039999772,0.04,-9.84331,0.096197709441185,0.2174743,-0.000100148085,-0.07209349423646927,0.016673855
731.6166666663299,0.020738056,-0.7992602,0.0076178294,-2.3400464,0.011849265,1.5667312,0.8124364,0.039999776,0.04,-9.843108,0.09911268949508667,0.22702885,-0.00013448631,-0.0734221413731575,0.017180594
731.6333333329966,0.021547671,-0.79984325,0.00791607,-2.339406,0.01231183,1.5665647,0.8134765,0.03999977,0.04,-9.842968,0.10206665098667145,0.23680797,-0.00017138207,-0.0747537687420845,0.017693006
731.6499999996632,0.02237574,-0.8004397,0.00822111,-2.3387516,0.012784937,1.5663946,0.81454,0.03999976,0.04,-9.842751,0.10511559247970581,0.2467947,-0.00021096607,-0.07608623057603836,0.018215964
731.6666666663299,0.023222316,-0.80104965,0.008532962,-2.3380826,0.0132686,1.5662205,0.8156274,0.039999753,0.04,-9.842572,0.10822753608226776,0.25703797,-0.00025137636,-0.07742015272378922,0.018746372
731.6833333329965,0.024087448,-0.80167323,0.008851655,-2.337399,0.013762864,1.5660427,0.8167386,0.039999746,0.04,-9.842319,0.11143115907907486,0.26749894,-0.00029467588,-0.0787547156214714,0.01928762
731.6999999996632,0.024971168,-0.8023101,0.009177197,-2.336701,0.0142677445,1.565861,0.81787366,0.039999753,0.04,-9.842019,0.11471059173345566,0.27821216,-0.0003406637,-0.08008851855993271,0.019839723
731.7166666663298,0.02587352,-0.8029602,0.009509603,-2.335988,0.014783308,1.5656756,0.8190328,0.039999746,0.04,-9.841629,0.11793756484985352,0.2891636,-0.00038907104,-0.08142346143722534,0.020399334
731.7333333329965,0.026794532,-0.80362374,0.009848885,-2.3352602,0.015309526,1.5654862,0.8202159,0.039999742,0.04,-9.841425,0.12148594111204147,0.30022478,-0.00044056855,-0.08275781571865082,0.020967409
731.7499999996631,0.02773423,-0.80430084,0.010195051,-2.3345175,0.015846414,1.5652928,0.8214229,0.039999727,0.04,-9.840995,0.12499687075614929,0.31157884,-0.0004945354,-0.08408978581428528,0.021544818
731.7666666663298,0.028692633,-0.8049914,0.010548112,-2.33376,0.016393974,1.5650957,0.8226539,0.039999727,0.04,-9.840601,0.12859779596328735,0.32317847,-0.00055101194,-0.08542043715715408,0.022131762
731.7833333329964,0.029669752,-0.8056954,0.010908072,-2.3329875,0.016952239,1.5648947,0.8239089,0.03999972,0.04,-9.840137,0.13229040801525116,0.33499166,-0.0006098699,-0.08674800395965576,0.022728883
731.7999999996631,0.0306656,-0.806413,0.011274932,-2.3322003,0.01752119,1.5646899,0.82518804,0.039999723,0.04,-9.839609,0.13606059551239014,0.34702238,-0.00067162013,-0.08807115256786346,0.02333478
731.8166666663298,0.03168019,-0.8071441,0.011648694,-2.3313982,0.018100869,1.5644813,0.8264911,0.039999712,0.04,-9.839109,0.1399291455745697,0.359288,-0.00073616294,-0.08939160406589508,0.023950916
731.8333333329964,0.032713503,-0.8078887,0.012029358,-2.3305814,0.018691236,1.564269,0.82781833,0.039999716,0.04,-9.838542,0.1438804566860199,0.37177378,-0.0008030322,-0.0907072126865387,0.024576645
731.849999999663,0.03376555,-0.8086466,0.012416921,-2.3297498,0.019292338,1.5640527,0.8291696,0.039999705,0.04,-9.837922,0.14792919158935547,0.38447937,-0.0008734101,-0.0920177549123764,0.025212703
731.8666666663297,0.034836303,-0.8094181,0.0128113795,-2.3289032,0.019904103,1.5638326,0.83054495,0.039999705,0.04,-9.8373,0.15205880999565125,0.39740834,-0.0009462868,-0.09332410246133804,0.025856674
731.8833333329964,0.035925742,-0.810203,0.013212727,-2.3280416,0.02052656,1.5636085,0.83194435,0.039999694,0.04,-9.83662,0.15629956126213074,0.4105609,-0.001022586,-0.09462551027536392,0.02651048
731.899999999663,0.037033852,-0.8110014,0.013620957,-2.3271658,0.02115968,1.5633806,0.8333678,0.039999694,0.04,-9.835855,0.16063140332698822,0.4239456,-0.0011020818,-0.09591950476169586,0.027174652
731.9166666663297,0.038160615,-0.81181335,0.014036057,-2.326275,0.021803476,1.563149,0.8348151,0.039999682,0.04,-9.835161,0.16506251692771912,0.4375367,-0.0011850847,-0.09721004962921143,0.027848512
731.9333333329963,0.039305992,-0.81263876,0.014458014,-2.3253691,0.02245789,1.5629135,0.836286,0.039999682,0.04,-9.834322,0.16959244012832642,0.45135665,-0.0012703651,-0.09849237650632858,0.028532075
731.949999999663,0.040469952,-0.81347764,0.014886818,-2.3244486,0.023122929,1.5626743,0.83778095,0.039999682,0.04,-9.833383,0.17422209680080414,0.46539983,-0.0013571734,-0.09976374357938766,0.02922504
731.9666666663296,0.04165244,-0.8143298,0.015322456,-2.3235135,0.023798589,1.5624313,0.8393,0.03999968,0.04,-9.832373,0.17884619534015656,0.4797314,-0.0014481256,-0.101028673350811,0.029929832
731.9833333329963,0.042853408,-0.81519544,0.015764903,-2.3225636,0.024484793,1.5621845,0.84084266,0.03999967,0.04,-9.831552,0.18377405405044556,0.49411827,-0.0015433356,-0.10228453576564789,0.03063914
731.9999999996629,0.04407282,-0.81607425,0.016214147,-2.3215992,0.02518153,1.5619339,0.8424089,0.03999966,0.04,-9.830555,0.1887354850769043,0.5088176,-0.0016411723,-0.10353175550699234,0.031361125
732.0166666663296,0.045310616,-0.81696624,0.016670164,-2.3206203,0.02588876,1.5616794,0.84399873,0.03999966,0.04,-9.829504,0.19378980994224548,0.52370656,-0.0017414553,-0.10476953536272049,0.032092758
732.0333333329962,0.046566717,-0.8178715,0.01713293,-2.3196275,0.026606465,1.561421,0.845612,0.039999656,0.04,-9.828439,0.19894681870937347,0.5388167,-0.0018450605,-0.10599984228610992,0.03283388
732.0499999996629,0.047841076,-0.8187899,0.017602427,-2.3186202,0.02733461,1.561159,0.84724873,0.039999653,0.04,-9.8273735,0.20421981811523438,0.5541401,-0.0019514642,-0.10722240805625916,0.03358469
732.0666666663295,0.04913361,-0.81972146,0.018078618,-2.3175986,0.028073149,1.5608933,0.8489089,0.03999964,0.04,-9.8261795,0.20961058139801025,0.56965786,-0.0020611228,-0.10843505710363388,0.0343449
732.0833333329962,0.05044426,-0.8206661,0.018561486,-2.316563,0.028822027,1.5606238,0.85059226,0.039999645,0.04,-9.82493,0.21510493755340576,0.5853828,-0.0021744082,-0.10963588953018188,0.035115063
732.0999999996628,0.051772945,-0.8216236,0.019050995,-2.3155131,0.029581225,1.5603507,0.85229874,0.03999964,0.04,-9.823643,0.22070355713367462,0.6013178,-0.0022901702,-0.11082649230957031,0.03589289
732.1166666663295,0.053119577,-0.8225942,0.01954712,-2.3144488,0.030350668,1.5600736,0.8540283,0.03999964,0.04,-9.822342,0.22644750773906708,0.6174404,-0.0024094242,-0.11200719326734543,0.03668194
732.1333333329961,0.05448407,-0.8235777,0.020049827,-2.3133702,0.031130329,1.5597929,0.8557808,0.039999627,0.04,-9.820884,0.23229029774665833,0.6337929,-0.0025317576,-0.1131746768951416,0.03747954
732.1499999996628,0.055866327,-0.824574,0.020559086,-2.3122773,0.031920142,1.5595084,0.85755605,0.039999627,0.04,-9.819385,0.2382497638463974,0.65032065,-0.002656939,-0.11432871967554092,0.03828582
732.1666666663294,0.057266258,-0.82558304,0.021074854,-2.3111703,0.032720055,1.5592206,0.8593541,0.039999623,0.04,-9.817828,0.2443419098854065,0.6670616,-0.0027853127,-0.11546866595745087,0.039102107
732.1833333329961,0.058683746,-0.8266047,0.021597104,-2.3100495,0.033530015,1.5589291,0.86117476,0.039999623,0.04,-9.816219,0.25054052472114563,0.68397915,-0.0029169533,-0.11659383028745651,0.039926257
732.1999999996627,0.060118705,-0.8276389,0.022125786,-2.3089151,0.034349967,1.5586339,0.8630178,0.03999962,0.04,-9.814622,0.2568829357624054,0.70110804,-0.003052305,-0.11770695447921753,0.040760376
732.2166666663294,0.06157101,-0.8286857,0.022660865,-2.3077672,0.035179842,1.5583352,0.864883,0.039999615,0.04,-9.812821,0.2632298171520233,0.7184948,-0.0031904415,-0.11880748718976974,0.041602854
732.233333332996,0.063040584,-0.82974494,0.023202302,-2.3066056,0.036019556,1.5580331,0.8667705,0.03999962,0.04,-9.81117,0.2699177861213684,0.735917,-0.003331164,-0.1198933944106102,0.042453825
732.2499999996627,0.06452726,-0.8308165,0.023750048,-2.3054302,0.03686907,1.5577273,0.86868,0.03999961,0.04,-9.80936,0.2766273021697998,0.7536002,-0.0034753745,-0.12096432596445084,0.04331345
732.2666666663293,0.06603093,-0.83190036,0.024304057,-2.3042412,0.03772831,1.5574182,0.8706113,0.0399996,0.04,-9.8074465,0.2834634780883789,0.77146035,-0.003622803,-0.1220197007060051,0.044180963
732.283333332996,0.0675515,-0.8329963,0.024864288,-2.303039,0.038597185,1.5571055,0.87256426,0.039999604,0.04,-9.805458,0.2904405891895294,0.7895155,-0.0037734576,-0.12305793166160583,0.045057036
732.2999999996626,0.06908883,-0.8341046,0.025430692,-2.301824,0.039475642,1.5567893,0.87453884,0.039999604,0.04,-9.803493,0.29753947257995605,0.8077517,-0.003926428,-0.12408297508955002,0.045941874
732.3166666663293,0.07064274,-0.8352248,0.026003227,-2.3005958,0.0403636,1.5564697,0.87653464,0.039999593,0.04,-9.801405,0.304766982793808,0.8261672,-0.004083014,-0.12509244680404663,0.046833847
732.333333332996,0.07221316,-0.8363568,0.026581837,-2.299354,0.041260984,1.5561467,0.8785516,0.039999597,0.04,-9.799244,0.31214025616645813,0.84473455,-0.004241929,-0.126084566116333,0.0477344
732.3499999996626,0.073799916,-0.8375006,0.027166469,-2.2980993,0.04216771,1.5558205,0.8805896,0.03999959,0.04,-9.796981,0.31964629888534546,0.8634703,-0.004404089,-0.12705786526203156,0.048642687
732.3666666663293,0.07540287,-0.8386562,0.027757067,-2.2968323,0.0430837,1.5554907,0.88264835,0.03999959,0.04,-9.794694,0.32727450132369995,0.8823919,-0.004569048,-0.12801481783390045,0.04955784
732.3833333329959,0.077021874,-0.83982337,0.028353587,-2.295552,0.044008877,1.5551578,0.8847278,0.03999959,0.04,-9.792386,0.33505940437316895,0.9014817,-0.0047364915,-0.12895677983760834,0.05048045
732.3999999996626,0.07865678,-0.84100187,0.028955963,-2.2942593,0.044943146,1.5548216,0.8868276,0.039999582,0.04,-9.78983,0.3429623544216156,0.92072725,-0.004906839,-0.1298763006925583,0.051409584
732.4166666663292,0.08030742,-0.8421918,0.02956415,-2.2929544,0.04588642,1.5544822,0.8889476,0.03999958,0.04,-9.787411,0.35101860761642456,0.94011,-0.005080033,-0.1307809054851532,0.052345734
732.4333333329959,0.081973664,-0.843393,0.03017808,-2.2916374,0.046838585,1.5541397,0.8910878,0.039999574,0.04,-9.78481,0.35921207070350647,0.9596792,-0.005255916,-0.1316668540239334,0.05328937
732.4499999996625,0.08365533,-0.84460527,0.030797692,-2.2903078,0.047799572,1.5537939,0.8932476,0.039999574,0.04,-9.782197,0.3675473928451538,0.9793829,-0.0054348623,-0.13253478705883026,0.054238897
732.4666666663292,0.08535225,-0.8458287,0.03142294,-2.2889662,0.048769288,1.5534452,0.8954271,0.039999563,0.04,-9.779312,0.3759264051914215,0.9993257,-0.0056156474,-0.1333833634853363,0.055194553
732.4833333329958,0.087064266,-0.8470631,0.03205374,-2.287612,0.049747616,1.5530932,0.8976259,0.039999574,0.04,-9.776608,0.38463467359542847,1.0192561,-0.005799328,-0.13421094417572021,0.05615619
732.4999999996625,0.08879122,-0.84830815,0.03269004,-2.286246,0.050734513,1.5527381,0.8998438,0.039999567,0.04,-9.773636,0.3933844566345215,1.0394235,-0.0059848265,-0.13501706719398499,0.057123896
732.5166666663291,0.09053291,-0.849564,0.03333179,-2.2848682,0.051729817,1.5523798,0.9020809,0.039999567,0.04,-9.770695,0.40229111909866333,1.0596983,-0.0061722547,-0.13580472767353058,0.058096465
732.5333333329958,0.092289194,-0.8508302,0.03397891,-2.2834792,0.052733462,1.5520188,0.90433675,0.03999956,0.04,-9.767615,0.4113404452800751,1.0801579,-0.0063635376,-0.13657107949256897,0.05907434
732.5499999996624,0.09405987,-0.852107,0.03463132,-2.2820795,0.05374531,1.5516547,0.90661097,0.039999563,0.04,-9.764522,0.42053133249282837,1.1007059,-0.0065569347,-0.13731807470321655,0.060057353
732.5666666663291,0.09584474,-0.8533939,0.035288986,-2.280669,0.05476532,1.5512877,0.9089034,0.039999556,0.04,-9.761408,0.42988890409469604,1.1214156,-0.006752238,-0.1380477398633957,0.06104585
732.5833333329957,0.09764361,-0.8546909,0.03595181,-2.2792475,0.05579333,1.550918,0.9112139,0.03999956,0.04,-9.758195,0.4393693804740906,1.1422257,-0.0069496045,-0.13875992596149445,0.062038552
732.5999999996624,0.09945631,-0.8559978,0.036619723,-2.2778153,0.056829263,1.5505455,0.91354203,0.039999552,0.04,-9.75485,0.44901254773139954,1.1631408,-0.007149573,-0.13945068418979645,0.06303592
732.616666666329,0.10128266,-0.85731477,0.03729267,-2.2763712,0.057872996,1.5501698,0.9158879,0.039999556,0.04,-9.751416,0.4587920010089874,1.184192,-0.007351049,-0.1401216685771942,0.06403666
732.6333333329957,0.103122436,-0.8586415,0.03797058,-2.2749166,0.058924403,1.5497915,0.918251,0.039999556,0.04,-9.7477455,0.468711256980896,1.2053909,-0.0075549716,-0.140767440199852,0.065041274
732.6499999996623,0.104975455,-0.8599777,0.038653377,-2.2734513,0.059983402,1.5494103,0.92063105,0.039999545,0.04,-9.744128,0.47879064083099365,1.2266905,-0.0077604465,-0.14139099419116974,0.066048495
732.666666666329,0.10684157,-0.8613231,0.039340977,-2.2719755,0.061049853,1.5490266,0.9230279,0.03999955,0.04,-9.740383,0.48901644349098206,1.2480831,-0.007967624,-0.1419920027256012,0.06705941
732.6833333329956,0.1087205,-0.862678,0.040033314,-2.2704904,0.062123653,1.5486404,0.92544115,0.03999955,0.04,-9.73663,0.49938857555389404,1.269574,-0.008176393,-0.14257273077964783,0.068072304
732.6999999996623,0.11061205,-0.8640425,0.040730312,-2.2689943,0.063204676,1.5482514,0.9278707,0.03999954,0.04,-9.732812,0.509922444820404,1.2911994,-0.008386879,-0.14313319325447083,0.069088444
732.7166666663289,0.11251602,-0.8654154,0.041431896,-2.2674892,0.06429278,1.5478598,0.9303162,0.039999545,0.04,-9.728619,0.5205203890800476,1.3130444,-0.008598512,-0.14366590976715088,0.0701055
732.7333333329956,0.11443222,-0.8667973,0.042137977,-2.2659743,0.06538789,1.5474656,0.93277746,0.03999954,0.04,-9.724823,0.5314235687255859,1.33472,-0.00881219,-0.14418338239192963,0.07112573
732.7499999996622,0.11636042,-0.868188,0.04284848,-2.2644494,0.06648985,1.547069,0.93525416,0.03999954,0.04,-9.7206,0.5423933267593384,1.3566233,-0.009026877,-0.1446755826473236,0.0721468
732.7666666663289,0.118300416,-0.86958694,0.043563314,-2.2629151,0.06759856,1.5466698,0.93774587,0.03999955,0.04,-9.716337,0.5535093545913696,1.378613,-0.009243173,-0.1451440304517746,0.07316849
732.7833333329955,0.12025196,-0.87099427,0.04428243,-2.261372,0.0687139,1.5462686,0.94025254,0.039999537,0.04,-9.71205,0.564785361289978,1.4006532,-0.0094600385,-0.14559146761894226,0.07419115
732.7999999996622,0.12221486,-0.87240994,0.04500572,-2.25982,0.06983574,1.5458648,0.9427738,0.039999537,0.04,-9.707675,0.576213538646698,1.4228064,-0.009678769,-0.146016463637352,0.07521455
732.8166666663288,0.124188885,-0.8738337,0.045733113,-2.2582588,0.07096389,1.5454588,0.9453094,0.039999537,0.04,-9.703141,0.5877737998962402,1.4450458,-0.009898206,-0.14641745388507843,0.07623763
732.8333333329955,0.1261738,-0.8752653,0.04646452,-2.256689,0.072098285,1.5450507,0.9478591,0.039999537,0.04,-9.698527,0.5994986891746521,1.4673499,-0.010118599,-0.14679500460624695,0.07726057
732.8499999996621,0.12816939,-0.87670475,0.047199868,-2.255111,0.07323881,1.5446404,0.9504223,0.03999954,0.04,-9.693863,0.6113603711128235,1.4897048,-0.010340413,-0.14714904129505157,0.07828198
732.8666666663288,0.13017541,-0.87815166,0.047939066,-2.2535245,0.07438527,1.5442282,0.952999,0.039999545,0.04,-9.689102,0.6233773827552795,1.5121533,-0.010562069,-0.14748090505599976,0.07930197
732.8833333329954,0.13219164,-0.87960577,0.048682034,-2.25193,0.07553756,1.5438138,0.9555889,0.039999537,0.04,-9.684197,0.6355346441268921,1.5346421,-0.01078431,-0.14778700470924377,0.08032045
732.8999999996621,0.13421784,-0.8810673,0.049428664,-2.250327,0.07669558,1.543397,0.95819145,0.039999537,0.04,-9.679289,0.6478471159934998,1.5571672,-0.0110078,-0.14807230234146118,0.08133757
732.9166666663288,0.13625386,-0.8825359,0.050178904,-2.248717,0.077859156,1.5429782,0.96080655,0.039999537,0.04,-9.674154,0.660309374332428,1.5798088,-0.011230864,-0.14833243191242218,0.08235263
732.9333333329954,0.13829929,-0.88401115,0.050932646,-2.2470994,0.07902819,1.5425575,0.96343386,0.039999533,0.04,-9.669081,0.6729025840759277,1.602463,-0.011453822,-0.14857150614261627,0.08336474
732.949999999662,0.140354,-0.8854934,0.051689796,-2.2454746,0.08020249,1.5421349,0.9660733,0.03999953,0.04,-9.663892,0.6856582164764404,1.6251439,-0.011677768,-0.148789182305336,0.08437343
732.9666666663287,0.1424177,-0.88698226,0.05245028,-2.2438428,0.08138194,1.5417105,0.96872395,0.039999526,0.04,-9.658449,0.6985123753547668,1.6479893,-0.011902442,-0.14898118376731873,0.08537914
732.9833333329954,0.14449023,-0.8884774,0.053214006,-2.2422044,0.08256641,1.5412844,0.971386,0.039999522,0.04,-9.653163,0.7115998268127441,1.6706872,-0.012126207,-0.14915190637111664,0.08638172
732.999999999662,0.1465713,-0.88997847,0.053980872,-2.2405589,0.08375577,1.5408564,0.97405916,0.039999522,0.04,-9.647691,0.7247719168663025,1.6934786,-0.012349575,-0.14930063486099243,0.08738092
733.0166666663287,0.14866064,-0.8914856,0.0547508,-2.2389066,0.08494988,1.5404267,0.97674286,0.039999522,0.04,-9.642051,0.7380860447883606,1.7163104,-0.012573909,-0.14942550659179688,0.08837481
733.0333333329953,0.150758,-0.8929987,0.05552369,-2.2372477,0.08614859,1.5399952,0.97943693,0.039999522,0.04,-9.636339,0.7515475749969482,1.7391682,-0.01279718,-0.14952614903450012,0.08936416
733.049999999662,0.15286316,-0.89451754,0.05629945,-2.2355833,0.087351754,1.5395623,0.98214096,0.039999526,0.04,-9.630482,0.7651398181915283,1.7620924,-0.013019688,-0.1496022343635559,0.090346366
733.0666666663286,0.15497586,-0.89604187,0.05707799,-2.233912,0.088559225,1.5391281,0.98485476,0.039999522,0.04,-9.624697,0.7788735628128052,1.7849959,-0.013242291,-0.149657741189003,0.09132108
733.0833333329953,0.15709588,-0.89757115,0.05785921,-2.2322357,0.089770846,1.5386922,0.9875779,0.039999522,0.04,-9.618574,0.7927667498588562,1.8079178,-0.013463728,-0.14968369901180267,0.092294104
733.0999999996619,0.15922289,-0.8991059,0.05864302,-2.2305534,0.09098654,1.5382547,0.99031013,0.03999952,0.04,-9.612659,0.806778073310852,1.8308278,-0.013685195,-0.14969390630722046,0.0932585
733.1166666663286,0.16135669,-0.90064526,0.059429336,-2.2288666,0.092206076,1.5378158,0.9930509,0.03999952,0.04,-9.606383,0.8209007382392883,1.8538033,-0.013905772,-0.1496768295764923,0.0942119
733.1333333329952,0.16349703,-0.9021896,0.06021806,-2.227173,0.09342932,1.5373758,0.9958002,0.039999515,0.04,-9.600313,0.8352311253547668,1.8767252,-0.014124779,-0.1496437042951584,0.09516521
733.1499999996619,0.16564357,-0.90373856,0.061009083,-2.2254753,0.094656125,1.5369343,0.99855745,0.03999952,0.04,-9.593704,0.8496128916740417,1.8996834,-0.014343006,-0.14957712590694427,0.096107796
733.1666666663285,0.16779621,-0.90529174,0.06180234,-2.2237732,0.095886394,1.5364915,1.0013224,0.03999952,0.04,-9.587392,0.8641810417175293,1.9226373,-0.014560252,-0.14949345588684082,0.09704331
733.1833333329952,0.16995452,-0.9068491,0.0625977,-2.222066,0.09711996,1.5360477,1.0040951,0.03999952,0.04,-9.580938,0.878841757774353,1.9455463,-0.014775616,-0.1493896096944809,0.09797079
733.1999999996618,0.1721183,-0.90841055,0.063395076,-2.2203553,0.09835666,1.5356028,1.0068748,0.039999526,0.04,-9.574184,0.8936419486999512,1.9684666,-0.01499166,-0.14925800263881683,0.098888434
733.2166666663285,0.17428735,-0.90997577,0.0641944,-2.2186394,0.099596314,1.5351566,1.009661,0.03999953,0.04,-9.567614,0.9085777401924133,1.9914597,-0.015206531,-0.14911006391048431,0.099798255
733.2333333329951,0.17646132,-0.91154444,0.06499556,-2.2169201,0.10083884,1.5347096,1.0124533,0.039999533,0.04,-9.560672,0.9236103892326355,2.0142698,-0.015417835,-0.1489342600107193,0.100696966
733.2499999996618,0.17864001,-0.91311663,0.06579844,-2.2151966,0.102084026,1.5342615,1.015252,0.03999954,0.04,-9.55388,0.9387955069541931,2.037119,-0.015627006,-0.14874009788036346,0.10158613
733.2666666663284,0.1808231,-0.91469204,0.06660294,-2.21347,0.1033318,1.5338126,1.018056,0.03999954,0.04,-9.5468445,0.9540842771530151,2.059959,-0.015835363,-0.1485217809677124,0.10246523
733.2833333329951,0.18301035,-0.9162705,0.067408994,-2.21174,0.10458193,1.5333627,1.0208658,0.039999537,0.04,-9.539799,0.9694989919662476,2.0827632,-0.01604127,-0.14828185737133026,0.10333195
733.2999999996617,0.18520153,-0.91785187,0.06821647,-2.2100072,0.10583429,1.5329121,1.0236801,0.039999545,0.04,-9.532655,0.9850247502326965,2.1055393,-0.01624612,-0.14802157878875732,0.10418858
733.3166666663284,0.18739635,-0.9194358,0.0690253,-2.2082713,0.1070887,1.5324609,1.0264994,0.03999954,0.04,-9.52544,1.0006707906723022,2.128279,-0.016447319,-0.14774061739444733,0.105033815
733.333333332995,0.18959454,-0.9210222,0.06983537,-2.2065327,0.108345054,1.5320089,1.0293232,0.039999552,0.04,-9.51809,1.0164121389389038,2.1509583,-0.016647069,-0.14743688702583313,0.10586624
733.3499999996617,0.19179581,-0.92261094,0.07064658,-2.2047918,0.10960319,1.5315561,1.0321513,0.039999545,0.04,-9.510689,1.0322800874710083,2.1736093,-0.016846316,-0.1471138596534729,0.10668707
733.3666666663283,0.19399987,-0.9242017,0.07145881,-2.2030482,0.11086294,1.531103,1.034983,0.039999552,0.04,-9.503184,1.048250675201416,2.1962185,-0.017044064,-0.1467689722776413,0.10749457
733.383333332995,0.19620652,-0.9257944,0.07227199,-2.2013023,0.11212416,1.5306491,1.0378175,0.039999552,0.04,-9.495555,1.064327359199524,2.218758,-0.017239766,-0.14640185236930847,0.10828886
733.3999999996616,0.19841546,-0.92738867,0.07308602,-2.1995552,0.11338665,1.5301948,1.0406548,0.039999563,0.04,-9.487831,1.0805010795593262,2.2412639,-0.017429594,-0.14601324498653412,0.109068565
733.4166666663283,0.20062636,-0.9289845,0.073900804,-2.1978068,0.1146503,1.5297401,1.0434947,0.039999563,0.04,-9.48016,1.0967955589294434,2.2636962,-0.017617244,-0.14560724794864655,0.109835945
733.433333332995,0.20283897,-0.9305815,0.07471622,-2.1960568,0.11591494,1.5292851,1.046337,0.039999567,0.04,-9.472429,1.1131770610809326,2.2860625,-0.017802414,-0.1451839655637741,0.110588886
733.4499999996616,0.20505309,-0.93217975,0.075532176,-2.1943054,0.117180414,1.5288298,1.049181,0.03999957,0.04,-9.464439,1.1296448707580566,2.3083658,-0.017985517,-0.14473861455917358,0.111326605
733.4666666663283,0.20726842,-0.9337788,0.076348595,-2.192553,0.11844659,1.5283742,1.0520266,0.039999574,0.04,-9.456416,1.146238923072815,2.3306744,-0.018164521,-0.14427244663238525,0.11204972
733.4833333329949,0.2094847,-0.93537855,0.077165335,-2.1908,0.119713284,1.5279185,1.0548736,0.039999574,0.04,-9.448373,1.1628706455230713,2.3527818,-0.018340688,-0.143788143992424,0.11275781
733.4999999996616,0.21170159,-0.9369789,0.07798232,-2.1890464,0.12098034,1.5274627,1.0577213,0.039999582,0.04,-9.440239,1.1796112060546875,2.3748672,-0.018514944,-0.14328482747077942,0.11344972
733.5166666663282,0.21391883,-0.93857956,0.07879945,-2.1872926,0.122247614,1.5270069,1.0605694,0.039999586,0.04,-9.431991,1.1964503526687622,2.3968909,-0.018685302,-0.14276190102100372,0.11412594
733.5333333329949,0.21613617,-0.9401803,0.07961661,-2.1855383,0.12351498,1.526551,1.0634177,0.039999582,0.04,-9.423727,1.2133729457855225,2.4188287,-0.018852316,-0.14222151041030884,0.11478518
733.5499999996615,0.21835338,-0.9417811,0.08043372,-2.1837845,0.12478225,1.5260952,1.0662658,0.039999586,0.04,-9.4152775,1.230359673500061,2.4406788,-0.019015834,-0.14166007936000824,0.11542808
733.5666666663282,0.22057015,-0.9433814,0.08125065,-2.182031,0.12604925,1.5256393,1.0691136,0.039999593,0.04,-9.406903,1.2474414110183716,2.4624553,-0.019176776,-0.14108328521251678,0.11605361
733.5833333329948,0.22278622,-0.94498134,0.08206735,-2.1802778,0.1273158,1.5251834,1.0719606,0.039999593,0.04,-9.398383,1.2645812034606934,2.484117,-0.01933505,-0.14048893749713898,0.11666119
733.5999999996615,0.2250013,-0.94658065,0.08288367,-2.1785252,0.12858182,1.5247278,1.074806,0.039999597,0.04,-9.389782,1.28180992603302,2.5057013,-0.019490313,-0.13987718522548676,0.11725304
733.6166666663281,0.22721511,-0.94817907,0.08369953,-2.1767738,0.12984715,1.5242727,1.07765,0.039999597,0.04,-9.3811035,1.2990933656692505,2.5271914,-0.019639827,-0.13924746215343475,0.11782555
733.6333333329948,0.22942741,-0.9497764,0.08451485,-2.1750236,0.13111155,1.5238177,1.0804919,0.039999593,0.04,-9.3724,1.316452980041504,2.5485735,-0.019787114,-0.13860072195529938,0.11838064
733.6499999996614,0.23163791,-0.95137244,0.08532949,-2.1732755,0.13237493,1.523363,1.0833317,0.039999593,0.04,-9.363615,1.3338584899902344,2.569864,-0.019930355,-0.13793852925300598,0.1189149
733.6666666663281,0.23384632,-0.952967,0.08614335,-2.1715286,0.1336371,1.5229086,1.0861686,0.039999593,0.04,-9.354891,1.351360559463501,2.5910277,-0.020070573,-0.13726457953453064,0.11943311
733.6833333329947,0.23605242,-0.95456,0.08695637,-2.1697834,0.13489795,1.5224549,1.0890025,0.039999593,0.04,-9.345927,1.3688993453979492,2.6121023,-0.020206422,-0.13657328486442566,0.119933255
733.6999999996614,0.2382559,-0.95615125,0.08776841,-2.16804,0.13615727,1.5220017,1.0918331,0.039999597,0.04,-9.336889,1.3864768743515015,2.633063,-0.0203371,-0.1358633190393448,0.120412484
733.716666666328,0.24045652,-0.95774037,0.0885794,-2.1662993,0.13741499,1.5215492,1.09466,0.039999597,0.04,-9.327882,1.4041744470596313,2.6539733,-0.020464676,-0.13513769209384918,0.12087306
733.7333333329947,0.24265394,-0.9593272,0.08938924,-2.1645606,0.13867088,1.5210972,1.097483,0.039999593,0.04,-9.318814,1.4218112230300903,2.6746705,-0.020587688,-0.13439947366714478,0.12131262
733.7499999996613,0.24484794,-0.96091163,0.09019784,-2.1628249,0.13992482,1.5206459,1.1003015,0.039999593,0.04,-9.309624,1.4395424127578735,2.6952891,-0.020708045,-0.1336452215909958,0.12173358
733.766666666328,0.24703829,-0.9624936,0.09100506,-2.161092,0.14117664,1.5201952,1.1031154,0.039999593,0.04,-9.300454,1.4573190212249756,2.7157946,-0.020823201,-0.13287845253944397,0.12213314
733.7833333329946,0.24922465,-0.9640726,0.09181084,-2.1593623,0.14242618,1.5197457,1.1059242,0.039999597,0.04,-9.291198,1.475138783454895,2.736186,-0.020934474,-0.1320970207452774,0.12251285
733.7999999996613,0.25140682,-0.9656486,0.09261505,-2.1576362,0.1436733,1.519297,1.1087275,0.039999597,0.04,-9.281874,1.4929877519607544,2.7564216,-0.021042103,-0.1313011646270752,0.12287238
733.8166666663279,0.2535846,-0.9672213,0.09341763,-2.155913,0.14491785,1.518849,1.1115252,0.039999604,0.04,-9.272588,1.5108717679977417,2.7765486,-0.021144046,-0.13049399852752686,0.12321072
733.8333333329946,0.25575754,-0.9687907,0.094218455,-2.154194,0.1461597,1.518402,1.1143167,0.0399996,0.04,-9.263108,1.5287672281265259,2.796554,-0.021242421,-0.12967239320278168,0.123528205
733.8499999996612,0.25792542,-0.9703566,0.09501743,-2.152479,0.14739867,1.5179563,1.1171018,0.0399996,0.04,-9.253716,1.5467110872268677,2.8164318,-0.021336697,-0.12884049117565155,0.12382447
733.8666666663279,0.26008806,-0.9719186,0.09581445,-2.1507678,0.14863463,1.5175116,1.1198797,0.039999604,0.04,-9.244224,1.5646668672561646,2.8361619,-0.021426287,-0.12799467146396637,0.12409957
733.8833333329945,0.26224524,-0.97347665,0.09660944,-2.1490614,0.14986743,1.517068,1.1226509,0.039999604,0.04,-9.234657,1.5826380252838135,2.8557663,-0.021509532,-0.1271362602710724,0.12435167
733.8999999996612,0.2643965,-0.9750307,0.0974023,-2.1473587,0.1510969,1.5166258,1.1254144,0.03999961,0.04,-9.225113,1.6006313562393188,2.875236,-0.02158939,-0.1262674778699875,0.12458323
733.9166666663278,0.26654163,-0.9765803,0.098192915,-2.145662,0.15232289,1.5161846,1.1281703,0.039999615,0.04,-9.21539,1.6186232566833496,2.8945832,-0.021664016,-0.12538368999958038,0.1247905
733.9333333329945,0.26868054,-0.97812545,0.098981194,-2.1439698,0.15354526,1.5157447,1.130918,0.03999962,0.04,-9.20594,1.6366817951202393,2.9137557,-0.021736052,-0.12449632585048676,0.12497953
733.9499999996611,0.27081293,-0.979666,0.09976706,-2.1422822,0.15476389,1.5153062,1.1336575,0.039999623,0.04,-9.196153,1.6546669006347656,2.9328046,-0.021802373,-0.12359479069709778,0.12514432
733.9666666663278,0.27293846,-0.9812015,0.100550406,-2.1406007,0.15597862,1.5148692,1.136388,0.03999962,0.04,-9.186432,1.672766923904419,2.9517446,-0.021863788,-0.12268083542585373,0.12528686
733.9833333329944,0.2750569,-0.9827319,0.101331145,-2.1389244,0.15718926,1.5144335,1.1391095,0.039999623,0.04,-9.176726,1.6907142400741577,2.9704702,-0.021920398,-0.12176034599542618,0.1254059
733.9999999996611,0.277168,-0.98425704,0.10210918,-2.137254,0.15839571,1.5139991,1.1418215,0.03999963,0.04,-9.1669,1.708728313446045,2.9890773,-0.02197285,-0.12082930654287338,0.12550358
734.0166666663278,0.27927142,-0.98577666,0.10288439,-2.1355891,0.15959781,1.5135665,1.1445239,0.03999963,0.04,-9.157148,1.7267460823059082,3.00755,-0.022020157,-0.11989155411720276,0.12557945
734.0333333329944,0.281367,-0.98729074,0.10365671,-2.133931,0.16079544,1.5131356,1.1472162,0.039999634,0.04,-9.147247,1.7447404861450195,3.0258508,-0.02206334,-0.11894220113754272,0.1256313
734.049999999661,0.28345457,-0.98879904,0.10442607,-2.1322794,0.16198839,1.5127062,1.1498979,0.039999638,0.04,-9.137454,1.7627239227294922,3.0440135,-0.022102268,-0.11798549443483353,0.12565897
734.0666666663277,0.2855338,-0.9903014,0.10519233,-2.1306345,0.16317657,1.5122784,1.152569,0.039999634,0.04,-9.127609,1.7806892395019531,3.062028,-0.022134788,-0.1170225664973259,0.12566465
734.0833333329944,0.28760436,-0.99179745,0.10595545,-2.1289964,0.16435985,1.5118525,1.1552292,0.039999638,0.04,-9.117771,1.7986578941345215,3.079872,-0.022163495,-0.11605315655469894,0.12565057
734.099999999661,0.2896661,-0.9932872,0.106715344,-2.1273646,0.16553806,1.5114285,1.157878,0.039999638,0.04,-9.107849,1.816559910774231,3.0975502,-0.022187693,-0.11507588624954224,0.12561065
734.1166666663277,0.2917188,-0.99477047,0.107471846,-2.1257403,0.16671106,1.5110064,1.1605151,0.03999964,0.04,-9.097856,1.834443211555481,3.115107,-0.022206567,-0.11408884823322296,0.12554775
734.1333333329943,0.29376218,-0.99624705,0.10822491,-2.1241233,0.16787878,1.510586,1.1631403,0.03999965,0.04,-9.087984,1.8523328304290771,3.1324744,-0.022220522,-0.11309652775526047,0.12546311
734.149999999661,0.295796,-0.9977167,0.108974494,-2.122514,0.16904098,1.5101677,1.1657534,0.039999653,0.04,-9.078043,1.8701485395431519,3.1497083,-0.022230089,-0.11209824681282043,0.1253541
734.1666666663276,0.29781994,-0.9991794,0.10972046,-2.1209123,0.17019765,1.5097518,1.1683537,0.039999656,0.04,-9.068111,1.8879348039627075,3.166756,-0.022235023,-0.11109454184770584,0.12522231
734.1833333329943,0.29983386,-1.0006351,0.110462725,-2.1193185,0.17134859,1.5093375,1.170941,0.039999653,0.04,-9.058113,1.9056864976882935,3.1836624,-0.02223486,-0.1100819855928421,0.12506676
734.1999999996609,0.30183756,-1.0020838,0.11120119,-2.1177328,0.17249356,1.5089256,1.1735152,0.039999656,0.04,-9.048161,1.923414707183838,3.2004323,-0.02222919,-0.10906501114368439,0.12488868
734.2166666663276,0.30383074,-1.003525,0.111935794,-2.1161556,0.17363252,1.5085156,1.176076,0.03999966,0.04,-9.038263,1.9411611557006836,3.2169948,-0.022218652,-0.10804220288991928,0.12468657
734.2333333329942,0.30581316,-1.0049584,0.11266646,-2.1145864,0.17476532,1.5081079,1.178623,0.03999966,0.04,-9.028256,1.9586902856826782,3.2334638,-0.022203913,-0.107015460729599,0.12446189
734.2499999996609,0.3077847,-1.0063827,0.11339308,-2.1130257,0.1758919,1.5077026,1.1811559,0.039999668,0.04,-9.018245,1.9762465953826904,3.2496994,-0.022183418,-0.10598193854093552,0.12421409
734.2666666663275,0.30974504,-1.0077991,0.11411559,-2.1114748,0.17701207,1.5072991,1.1836746,0.039999668,0.04,-9.008403,1.9937257766723633,3.2656689,-0.022158451,-0.10494905710220337,0.12394407
734.2833333329942,0.3116941,-1.0092077,0.114833884,-2.1099327,0.17812574,1.5068984,1.1861786,0.039999668,0.04,-8.998598,2.0111851692199707,3.2815905,-0.022130573,-0.10391875356435776,0.12365304
734.2999999996608,0.31363147,-1.0106084,0.11554792,-2.1083996,0.17923278,1.5065,1.1886675,0.039999675,0.04,-8.988625,2.028569459915161,3.297352,-0.02209624,-0.1028810366988182,0.12333888
734.3166666663275,0.3155569,-1.0120003,0.11625757,-2.1068754,0.180333,1.5061036,1.1911412,0.039999682,0.04,-8.97862,2.0458717346191406,3.3129842,-0.02205694,-0.10183712095022202,0.12299962
734.3333333329941,0.31747043,-1.0133832,0.116962776,-2.1053615,0.18142642,1.5057102,1.1935995,0.039999675,0.04,-8.968724,2.063117742538452,3.328368,-0.022012658,-0.10079234838485718,0.122638986
734.3499999996608,0.3193716,-1.0147578,0.11766348,-2.103857,0.18251273,1.5053192,1.1960421,0.039999682,0.04,-8.95896,2.080284357070923,3.3435588,-0.021963947,-0.09974802285432816,0.122255385
734.3666666663274,0.3212602,-1.0161226,0.11835958,-2.1023626,0.18359192,1.5049309,1.1984683,0.039999682,0.04,-8.949027,2.0973925590515137,3.3586836,-0.021910513,-0.09869823604822159,0.12184889
734.3833333329941,0.32313615,-1.0174788,0.11905102,-2.1008778,0.18466383,1.5045452,1.2008785,0.03999968,0.04,-8.939306,2.114408493041992,3.3734965,-0.021852404,-0.09765161573886871,0.12142246
734.3999999996607,0.32499918,-1.0188255,0.11973769,-2.0994031,0.18572843,1.5041617,1.2032722,0.039999686,0.04,-8.92935,2.131334066390991,3.3882885,-0.021789715,-0.09659776836633682,0.12097034
734.4166666663274,0.32684913,-1.020163,0.120419525,-2.0979385,0.1867855,1.5037812,1.205649,0.039999686,0.04,-8.919595,2.1481945514678955,3.4028285,-0.021722844,-0.09554596990346909,0.12049838
734.433333332994,0.32868582,-1.0214909,0.12109647,-2.0964856,0.18783496,1.5034034,1.2080088,0.039999686,0.04,-8.909783,2.164956569671631,3.4172323,-0.021650461,-0.09449007362127304,0.12000272
734.4499999996607,0.330509,-1.0228093,0.121768445,-2.0950425,0.18887669,1.5030286,1.2103511,0.039999686,0.04,-8.9002285,2.1816565990448,3.4314196,-0.021574648,-0.09343978017568588,0.119488165
734.4666666663273,0.33231848,-1.0241174,0.122435376,-2.09361,0.18991059,1.5026565,1.2126757,0.03999968,0.04,-8.89048,2.1983251571655273,3.4454389,-0.021493228,-0.09238294512033463,0.11894996
734.483333332994,0.3341141,-1.0254159,0.123097196,-2.0921884,0.1909366,1.502287,1.2149827,0.03999969,0.04,-8.880733,2.2147114276885986,3.459346,-0.021406721,-0.09132787585258484,0.1183906
734.4999999996606,0.3358957,-1.0267041,0.123753816,-2.090778,0.19195454,1.5019208,1.2172716,0.039999686,0.04,-8.871066,2.2310993671417236,3.4730892,-0.02131611,-0.09027190506458282,0.11780884
734.5166666663273,0.33766302,-1.027982,0.1244052,-2.0893793,0.1929643,1.5015574,1.2195425,0.03999969,0.04,-8.861517,2.2473933696746826,3.4865954,-0.021221193,-0.08921720832586288,0.117206015
734.533333332994,0.33941582,-1.0292494,0.12505123,-2.087992,0.19396582,1.5011969,1.2217942,0.039999686,0.04,-8.851992,2.26358962059021,3.4999478,-0.021123778,-0.08816447854042053,0.11658285
734.5499999996606,0.34115407,-1.0305066,0.12569189,-2.0866163,0.19495898,1.5008394,1.2240273,0.039999686,0.04,-8.842496,2.2796790599823,3.5131304,-0.021019537,-0.08711271733045578,0.11593882
734.5666666663273,0.34287757,-1.0317531,0.12632711,-2.0852523,0.1959437,1.5004848,1.226242,0.039999686,0.04,-8.833051,2.2956461906433105,3.526158,-0.020910615,-0.08606301993131638,0.11527479
734.5833333329939,0.34458604,-1.0329887,0.1269568,-2.0838997,0.1969198,1.5001334,1.228437,0.039999686,0.04,-8.823608,2.3115079402923584,3.539012,-0.020800095,-0.08501367270946503,0.11458992
734.5999999996606,0.34627935,-1.0342133,0.12758091,-2.082559,0.1978872,1.4997854,1.2306124,0.03999969,0.04,-8.814232,2.3272523880004883,3.551678,-0.020683672,-0.08396610617637634,0.11388518
734.6166666663272,0.34795734,-1.0354271,0.12819938,-2.0812309,0.19884594,1.4994404,1.2327683,0.039999697,0.04,-8.804883,2.342879056930542,3.5641675,-0.020562658,-0.08291783928871155,0.113159575
734.6333333329939,0.34961984,-1.0366293,0.12881218,-2.0799148,0.1997958,1.4990984,1.2349043,0.039999694,0.04,-8.795671,2.358412742614746,3.5765128,-0.020437686,-0.08187399059534073,0.11241656
734.6499999996605,0.35126677,-1.0378201,0.1294192,-2.0786114,0.2007367,1.4987594,1.2370203,0.039999694,0.04,-8.78651,2.3737900257110596,3.5886295,-0.020309642,-0.08083487302064896,0.111653686
734.6666666663272,0.3528979,-1.0389998,0.13002037,-2.0773203,0.20166856,1.4984235,1.2391158,0.03999969,0.04,-8.777435,2.389071464538574,3.6006026,-0.020177647,-0.0798017829656601,0.11087387
734.6833333329938,0.354513,-1.0401677,0.13061568,-2.076042,0.20259129,1.4980911,1.2411909,0.039999694,0.04,-8.768277,2.404205799102783,3.6124434,-0.0200405,-0.07876931130886078,0.110073574
734.6999999996605,0.3561121,-1.0413243,0.131205,-2.0747762,0.20350486,1.4977621,1.2432454,0.039999697,0.04,-8.75932,2.4192278385162354,3.6240418,-0.01990094,-0.07774147391319275,0.10925586
734.7166666663271,0.35769486,-1.0424691,0.13178839,-2.0735238,0.20440914,1.4974365,1.2452791,0.03999969,0.04,-8.750423,2.434213399887085,3.6354504,-0.01975625,-0.07671470940113068,0.10841892
734.7333333329938,0.3592612,-1.0436022,0.13236569,-2.072284,0.20530403,1.4971144,1.2472918,0.039999686,0.04,-8.741465,2.448876142501831,3.6468358,-0.019609837,-0.07569239288568497,0.107564986
734.7499999996604,0.3608111,-1.044723,0.13293692,-2.071057,0.20618942,1.4967957,1.2492831,0.039999682,0.04,-8.732612,2.4634838104248047,3.6579561,-0.019459873,-0.07467351853847504,0.10669108
734.7666666663271,0.36234432,-1.0458324,0.133502,-2.0698435,0.20706534,1.4964802,1.251253,0.039999686,0.04,-8.723848,2.4779577255249023,3.6688993,-0.019304335,-0.07365819066762924,0.1058018
734.7833333329937,0.36386076,-1.0469295,0.13406096,-2.0686433,0.20793167,1.4961684,1.2532014,0.039999686,0.04,-8.715149,2.492328643798828,3.6797435,-0.019145958,-0.07264624536037445,0.10489547
734.7999999996604,0.3653602,-1.0480143,0.13461365,-2.0674565,0.2087883,1.4958597,1.2551278,0.03999969,0.04,-8.706534,2.5065035820007324,3.6903613,-0.018983338,-0.07163841277360916,0.10397135
734.816666666327,0.36684266,-1.0490867,0.13516004,-2.066283,0.20963517,1.4955547,1.2570323,0.039999697,0.04,-8.698014,2.520576238632202,3.7008193,-0.018817399,-0.07063674181699753,0.10303195
734.8333333329937,0.36830792,-1.0501466,0.13570012,-2.0651226,0.21047224,1.495253,1.258915,0.03999969,0.04,-8.689571,2.5344974994659424,3.7110906,-0.018647138,-0.06963982433080673,0.1020779
734.8499999996603,0.36975586,-1.0511942,0.13623385,-2.0639765,0.21129939,1.494955,1.2607753,0.039999694,0.04,-8.6811285,2.548255443572998,3.721226,-0.018474998,-0.06864692270755768,0.10110635
734.866666666327,0.37118638,-1.052229,0.13676119,-2.0628443,0.21211661,1.4946606,1.2626135,0.039999694,0.04,-8.672895,2.5618886947631836,3.731177,-0.018299451,-0.06765991449356079,0.10012103
734.8833333329936,0.37259948,-1.0532514,0.13728206,-2.061726,0.21292382,1.49437,1.2644291,0.039999694,0.04,-8.664671,2.575350761413574,3.7409618,-0.018121388,-0.06667861342430115,0.099119596
734.8999999996603,0.37399492,-1.0542611,0.13779643,-2.0606213,0.21372093,1.4940832,1.2662219,0.039999694,0.04,-8.656561,2.588688611984253,3.750577,-0.017940283,-0.06570255756378174,0.09810478
734.9166666663269,0.37537262,-1.055258,0.13830425,-2.059531,0.2145079,1.4937999,1.267992,0.03999969,0.04,-8.648409,2.601846694946289,3.7600734,-0.01775398,-0.06472822278738022,0.09707355
734.9333333329936,0.3767325,-1.0562419,0.13880548,-2.0584545,0.21528469,1.4935203,1.2697393,0.0399997,0.04,-8.64054,2.614884376525879,3.7693455,-0.017566876,-0.06376282870769501,0.09603096
734.9499999996602,0.37807447,-1.0572131,0.13930015,-2.057392,0.2160513,1.4932442,1.2714635,0.039999697,0.04,-8.632635,2.6277403831481934,3.7784786,-0.01737663,-0.06280249357223511,0.09497366
734.9666666663269,0.37939852,-1.0581712,0.13978815,-2.0563436,0.21680763,1.4929718,1.2731645,0.039999694,0.04,-8.624891,2.6405317783355713,3.7873797,-0.017182672,-0.06184582784771919,0.093903035
734.9833333329935,0.38070443,-1.0591164,0.14026953,-2.0553093,0.21755362,1.4927032,1.2748424,0.039999697,0.04,-8.617113,2.6529898643493652,3.7962933,-0.016985705,-0.060897096991539,0.09281955
734.9999999996602,0.38199216,-1.0600481,0.14074418,-2.0542896,0.21828924,1.4924384,1.2764971,0.039999694,0.04,-8.609427,2.665377140045166,3.804974,-0.016786419,-0.05995075777173042,0.09172412
735.0166666663268,0.38326165,-1.060967,0.14121214,-2.0532846,0.21901445,1.4921774,1.2781284,0.03999969,0.04,-8.601993,2.677597761154175,3.813417,-0.01658601,-0.059014059603214264,0.09061571
735.0333333329935,0.3845128,-1.0618724,0.14167336,-2.052294,0.21972914,1.49192,1.2797358,0.039999694,0.04,-8.594564,2.6896841526031494,3.821791,-0.016383275,-0.05808281898498535,0.08949743
735.0499999996601,0.38574564,-1.0627648,0.14212778,-2.0513182,0.22043338,1.4916664,1.2813199,0.039999697,0.04,-8.587258,2.701582431793213,3.8299432,-0.016176242,-0.05715911462903023,0.08836873
735.0666666663268,0.38696006,-1.0636437,0.1425754,-2.050357,0.22112712,1.4914167,1.2828803,0.03999969,0.04,-8.580056,2.713326930999756,3.8379765,-0.015967991,-0.056242380291223526,0.08722887
735.0833333329934,0.38815603,-1.064509,0.14301619,-2.0494106,0.22181022,1.4911708,1.2844167,0.03999969,0.04,-8.572955,2.7249081134796143,3.8458195,-0.01575868,-0.05533274635672569,0.08607955
735.0999999996601,0.38933343,-1.0653614,0.14345023,-2.048479,0.22248277,1.4909285,1.2859298,0.03999969,0.04,-8.565964,2.7363176345825195,3.8534973,-0.0155458525,-0.05443135276436806,0.084922135
735.1166666663268,0.3904922,-1.0662004,0.14387739,-2.0475614,0.22314471,1.4906905,1.2874196,0.03999969,0.04,-8.559031,2.7475428581237793,3.8610868,-0.015333217,-0.053536564111709595,0.083752684
735.1333333329934,0.39163256,-1.0670258,0.14429767,-2.046659,0.223796,1.4904561,1.2888838,0.039999694,0.04,-8.552101,2.758622646331787,3.868494,-0.015119914,-0.05264345556497574,0.08257488
735.14999999966,0.39275405,-1.067838,0.14471108,-2.0457716,0.2244366,1.4902257,1.2903244,0.039999697,0.04,-8.545468,2.7695484161376953,3.875728,-0.0148982955,-0.05176052078604698,0.08139115
735.1666666663267,0.3938569,-1.0686363,0.14511761,-2.0448985,0.22506654,1.489999,1.2917415,0.0399997,0.04,-8.538854,2.780282497406006,3.8828259,-0.014677196,-0.0508841909468174,0.080198586
735.1833333329934,0.394941,-1.0694209,0.14551729,-2.04404,0.22568582,1.4897761,1.2931341,0.039999697,0.04,-8.532307,2.790830612182617,3.889754,-0.014455692,-0.050014570355415344,0.07899705
735.19999999966,0.39600635,-1.0701923,0.14591001,-2.0431967,0.22629437,1.489557,1.294503,0.039999694,0.04,-8.525908,2.8012146949768066,3.896532,-0.014230254,-0.04915277659893036,0.07778876
735.2166666663267,0.39705303,-1.0709502,0.14629588,-2.042368,0.22689225,1.4893417,1.2958475,0.039999694,0.04,-8.519796,2.811549663543701,3.9030669,-0.014006216,-0.04829946160316467,0.07657423
735.2333333329933,0.3980809,-1.0716944,0.14667478,-2.0415542,0.22747932,1.4891303,1.2971681,0.0399997,0.04,-8.513406,2.8214893341064453,3.9096997,-0.013778713,-0.0474519357085228,0.07535159
735.24999999966,0.39908993,-1.0724248,0.14704676,-2.0407553,0.22805569,1.4889226,1.2984645,0.0399997,0.04,-8.507379,2.8314030170440674,3.916029,-0.013551286,-0.04661260545253754,0.07412726
735.2666666663266,0.4000802,-1.073142,0.14741181,-2.0399709,0.22862132,1.4887186,1.2997369,0.0399997,0.04,-8.501446,2.841092586517334,3.9222002,-0.013322429,-0.0457831546664238,0.07289596
735.2833333329933,0.40105173,-1.0738456,0.14776994,-2.0392015,0.22917622,1.4885186,1.300985,0.0399997,0.04,-8.495476,2.850637912750244,3.9283085,-0.013091943,-0.044957078993320465,0.07165891
735.2999999996599,0.40200445,-1.0745349,0.14812118,-2.0384467,0.22972038,1.4883225,1.3022093,0.0399997,0.04,-8.4898,2.8600194454193115,3.9341896,-0.01286115,-0.044140711426734924,0.07041943
735.3166666663266,0.4029385,-1.0752112,0.14846548,-2.0377069,0.23025382,1.4881302,1.3034092,0.039999697,0.04,-8.484199,2.86918044090271,3.9398952,-0.012630072,-0.043333593755960464,0.069176145
735.3333333329932,0.40385374,-1.0758739,0.1488029,-2.0369816,0.23077661,1.4879419,1.3045853,0.039999705,0.04,-8.47865,2.8782196044921875,3.9455733,-0.012397327,-0.04253290966153145,0.067929514
735.3499999996599,0.40475026,-1.0765228,0.14913341,-2.0362713,0.23128869,1.4877574,1.3057371,0.0399997,0.04,-8.473228,2.887066125869751,3.9510345,-0.012164597,-0.041738539934158325,0.06668061
735.3666666663265,0.40562811,-1.0771588,0.14945705,-2.0355759,0.2317901,1.4875768,1.3068651,0.0399997,0.04,-8.467942,2.895737648010254,3.9563675,-0.01193067,-0.04095292463898659,0.06542871
735.3833333329932,0.40648732,-1.0777812,0.14977384,-2.0348954,0.23228088,1.4873999,1.3079691,0.039999705,0.04,-8.462764,2.9042623043060303,3.9616086,-0.011696612,-0.04017409682273865,0.064175814
735.3999999996598,0.407328,-1.07839,0.15008375,-2.0342293,0.23276101,1.4872268,1.309049,0.03999971,0.04,-8.457726,2.9125900268554688,3.966655,-0.011462416,-0.039404939860105515,0.062921904
735.4166666663265,0.40815008,-1.0789855,0.15038683,-2.0335782,0.2332306,1.4870576,1.3101054,0.03999971,0.04,-8.452753,2.9207491874694824,3.971587,-0.011225856,-0.03864259645342827,0.061667416
735.4333333329931,0.40895367,-1.0795676,0.1506831,-2.0329416,0.23368959,1.4868923,1.3111378,0.039999705,0.04,-8.44795,2.9287397861480713,3.9763646,-0.010992233,-0.037889715284109116,0.06041268
735.4499999996598,0.40973878,-1.0801364,0.15097255,-2.0323198,0.23413807,1.4867309,1.3121468,0.0399997,0.04,-8.443248,2.9365599155426025,3.9810193,-0.010756966,-0.03714454546570778,0.059158754
735.4666666663264,0.41050568,-1.080692,0.1512553,-2.0317128,0.23457606,1.4865732,1.3131324,0.039999705,0.04,-8.438785,2.944298505783081,3.985403,-0.010523003,-0.036407049745321274,0.05790607
735.4833333329931,0.4112542,-1.0812343,0.15153125,-2.0311198,0.23500365,1.4864192,1.3140941,0.0399997,0.04,-8.4341955,2.9516913890838623,3.9899278,-0.010290087,-0.0356789268553257,0.056655448
735.4999999996597,0.4119845,-1.0817634,0.15180051,-2.0305414,0.23542072,1.4862691,1.3150326,0.039999705,0.04,-8.429799,2.9589977264404297,3.9941795,-0.010055195,-0.0349586196243763,0.055405814
735.5166666663264,0.41269663,-1.0822792,0.15206309,-2.0299776,0.2358275,1.4861228,1.3159477,0.039999705,0.04,-8.42557,2.9661431312561035,3.9983013,-0.009822515,-0.03424651175737381,0.054160077
735.533333332993,0.4133908,-1.0827821,0.15231903,-2.029428,0.236224,1.4859804,1.3168393,0.03999971,0.04,-8.421463,2.973111152648926,4.0022645,-0.009589838,-0.033543311059474945,0.052917346
735.5499999996597,0.41406697,-1.0832721,0.15256834,-2.0288932,0.23661019,1.4858414,1.3177083,0.039999705,0.04,-8.417451,2.9799153804779053,4.0061507,-0.009356188,-0.03284841775894165,0.051677547
735.5666666663263,0.41472536,-1.0837488,0.15281107,-2.028372,0.23698618,1.4857061,1.3185542,0.039999712,0.04,-8.413611,2.9865663051605225,4.0098867,-0.00912601,-0.03216490149497986,0.050443303
735.583333332993,0.41536593,-1.084213,0.15304726,-2.027865,0.23735207,1.4855744,1.3193774,0.03999971,0.04,-8.409793,2.9930217266082764,4.0134687,-0.008894732,-0.031488485634326935,0.04921479
735.5999999996596,0.41598892,-1.0846641,0.153277,-2.0273714,0.2377079,1.4854463,1.3201779,0.039999716,0.04,-8.406101,2.999333381652832,4.016996,-0.008665692,-0.030819974839687347,0.047990147
735.6166666663263,0.41659433,-1.085103,0.15350029,-2.0268917,0.23805374,1.4853218,1.3209558,0.039999716,0.04,-8.402549,3.0054736137390137,4.020335,-0.00843721,-0.03016052208840847,0.046772182
735.633333332993,0.41718245,-1.0855292,0.15371723,-2.0264263,0.23838961,1.4852008,1.3217113,0.039999723,0.04,-8.399068,3.0114519596099854,4.023613,-0.008208012,-0.029507800936698914,0.04555945
735.6499999996596,0.41775325,-1.085943,0.15392768,-2.0259745,0.23871565,1.4850832,1.3224446,0.039999716,0.04,-8.395845,3.0172817707061768,4.026717,-0.007981385,-0.028867019340395927,0.044356875
735.6666666663263,0.418307,-1.0863445,0.15413184,-2.0255358,0.23903193,1.4849694,1.3231561,0.03999972,0.04,-8.392635,3.0229504108428955,4.029722,-0.007755782,-0.02823576144874096,0.04316008
735.6833333329929,0.41884378,-1.0867333,0.1543298,-2.0251102,0.23933853,1.4848591,1.323846,0.039999727,0.04,-8.389423,3.028439998626709,4.0326343,-0.0075319246,-0.027608146890997887,0.04197
735.6999999996596,0.41936374,-1.0871104,0.1545216,-2.0246983,0.23963553,1.4847522,1.3245142,0.03999972,0.04,-8.386477,3.033771514892578,4.0353694,-0.0073096356,-0.02699146419763565,0.040788744
735.7166666663262,0.41986704,-1.0874753,0.15470721,-2.0243,0.23992302,1.4846486,1.325161,0.039999723,0.04,-8.383751,3.0390474796295166,4.037931,-0.0070893303,-0.026384325698018074,0.039618302
735.7333333329929,0.4203539,-1.0878283,0.15488675,-2.0239146,0.24020107,1.4845483,1.3257865,0.039999727,0.04,-8.38097,3.0440332889556885,4.0405664,-0.006871704,-0.025789065286517143,0.03845863
735.7499999996595,0.42082444,-1.0881693,0.15506029,-2.0235415,0.24046986,1.4844513,1.3263911,0.039999727,0.04,-8.378279,3.0489022731781006,4.0429935,-0.006654899,-0.02520172856748104,0.037309274
735.7666666663262,0.42127883,-1.0884984,0.15522785,-2.0231814,0.2407294,1.4843576,1.3269751,0.039999727,0.04,-8.375685,3.0536139011383057,4.0453243,-0.006439706,-0.024622857570648193,0.036168937
735.7833333329928,0.42171726,-1.088816,0.1553896,-2.0228348,0.24097988,1.4842674,1.3275385,0.03999973,0.04,-8.373374,3.058218240737915,4.0474668,-0.006228386,-0.02405637875199318,0.03504331
735.7999999996595,0.4221399,-1.0891224,0.1555455,-2.0224993,0.24122137,1.4841803,1.3280818,0.03999973,0.04,-8.371128,3.0626614093780518,4.049565,-0.006018726,-0.023500099778175354,0.033930533
735.8166666663261,0.42254707,-1.0894176,0.15569568,-2.0221767,0.24145384,1.4840965,1.3286052,0.03999973,0.04,-8.368733,3.066923141479492,4.051592,-0.00581165,-0.02294791117310524,0.032826804
735.8333333329928,0.4229388,-1.0897015,0.1558402,-2.0218663,0.24167769,1.4840158,1.3291085,0.039999735,0.04,-8.366738,3.071098804473877,4.0534587,-0.0056067365,-0.02240774780511856,0.031739138
735.8499999996594,0.42331558,-1.0899748,0.15597914,-2.0215676,0.24189287,1.4839382,1.3295925,0.03999974,0.04,-8.364761,3.0750904083251953,4.055229,-0.0054035964,-0.02187797985970974,0.030663984
735.8666666663261,0.42367744,-1.090237,0.15611261,-2.021282,0.24209958,1.483864,1.3300574,0.03999974,0.04,-8.362828,3.078967332839966,4.056935,-0.0052030147,-0.02135627530515194,0.029604267
735.8833333329927,0.42402458,-1.090489,0.15624067,-2.0210066,0.24229786,1.4837927,1.3305036,0.039999746,0.04,-8.361249,3.082711696624756,4.058444,-0.005006982,-0.020850008353590965,0.028561994
735.8999999996594,0.42435735,-1.0907305,0.15636338,-2.0207436,0.24248795,1.483724,1.3309312,0.039999746,0.04,-8.359349,3.0862841606140137,4.0599966,-0.0048125316,-0.020346159115433693,0.027531078
735.916666666326,0.42467585,-1.0909617,0.1564809,-2.0204911,0.24266988,1.4836583,1.3313406,0.039999746,0.04,-8.357934,3.089785575866699,4.061349,-0.004622217,-0.019858308136463165,0.026520016
735.9333333329927,0.42498043,-1.0911828,0.15659325,-2.0202506,0.24284388,1.4835957,1.3317319,0.039999746,0.04,-8.35636,3.093087911605835,4.0626287,-0.0044346154,-0.019377393648028374,0.025524452
735.9499999996593,0.42527127,-1.0913941,0.15670055,-2.0200198,0.24301007,1.483536,1.3321059,0.039999746,0.04,-8.3551035,3.0963175296783447,4.063795,-0.0042506536,-0.018909407779574394,0.02454707
735.966666666326,0.42554867,-1.0915952,0.15680292,-2.0198,0.2431686,1.4834784,1.3324625,0.03999975,0.04,-8.353798,3.0994322299957275,4.064819,-0.0040696096,-0.01844796910881996,0.02358561
735.9833333329926,0.42581293,-1.0917869,0.15690044,-2.0195906,0.24331963,1.4834241,1.3328022,0.03999975,0.04,-8.352615,3.102350950241089,4.065873,-0.0038930983,-0.018001724034547806,0.022646815
735.9999999996593,0.42606434,-1.0919691,0.15699321,-2.0193908,0.24346323,1.4833724,1.3331254,0.03999975,0.04,-8.351558,3.105182409286499,4.0667696,-0.0037197962,-0.017565712332725525,0.021724757
736.0166666663259,0.4263032,-1.0921426,0.15708132,-2.0192022,0.2435997,1.4833232,1.3334323,0.039999753,0.04,-8.350453,3.1078858375549316,4.067606,-0.0035490275,-0.017136093229055405,0.020821208
736.0333333329926,0.42652968,-1.0923071,0.15716495,-2.019023,0.24372916,1.4832767,1.3337234,0.039999753,0.04,-8.3497505,3.110551595687866,4.0683327,-0.0033836223,-0.01672392152249813,0.019942319
736.0499999996592,0.42674422,-1.0924629,0.15724412,-2.0188525,0.24385178,1.4832326,1.3339992,0.03999975,0.04,-8.3488655,3.1130270957946777,4.068984,-0.003221503,-0.016319390386343002,0.019082822
736.0666666663259,0.42694715,-1.0926105,0.15731901,-2.0186913,0.24396771,1.4831908,1.33426,0.039999753,0.04,-8.348078,3.115400552749634,4.069564,-0.0030627712,-0.015924878418445587,0.018242637
736.0833333329925,0.42713872,-1.0927496,0.15738972,-2.0185397,0.24407716,1.4831514,1.3345062,0.039999753,0.04,-8.347422,3.1176962852478027,4.0700827,-0.002908706,-0.01554055418819189,0.017425746
736.0999999996592,0.42731914,-1.0928807,0.15745634,-2.0183978,0.2441803,1.483114,1.3347383,0.039999753,0.04,-8.347007,3.1198933124542236,4.0704436,-0.0027589707,-0.015171888284385204,0.016633265
736.1166666663258,0.42748892,-1.0930041,0.15751903,-2.0182636,0.24427734,1.4830794,1.3349566,0.039999757,0.04,-8.346662,3.122001886367798,4.0707417,-0.0026156355,-0.014818897470831871,0.015866907
736.1333333329925,0.42764837,-1.0931199,0.1575779,-2.0181372,0.24436848,1.4830464,1.3351617,0.03999976,0.04,-8.346207,3.12398099899292,4.070991,-0.0024766363,-0.01447351835668087,0.015122852
736.1499999996591,0.4277978,-1.0932283,0.15763307,-2.0180187,0.24445392,1.4830157,1.3353537,0.039999764,0.04,-8.345867,3.1258704662323,4.0711813,-0.0023411217,-0.014141199178993702,0.014403103
736.1666666663258,0.42793748,-1.0933299,0.15768468,-2.0179079,0.24453387,1.4829868,1.3355334,0.039999764,0.04,-8.345674,3.1276867389678955,4.0712714,-0.0022105167,-0.013820767402648926,0.013709053
736.1833333329924,0.428068,-1.0934247,0.15773286,-2.0178044,0.24460848,1.4829602,1.3357012,0.03999977,0.04,-8.345505,3.129411458969116,4.0713162,-0.0020843307,-0.013512599281966686,0.013041296
736.1999999996591,0.42818955,-1.0935129,0.15777777,-2.017708,0.24467799,1.4829348,1.3358577,0.039999772,0.04,-8.345441,3.131052017211914,4.07127,-0.0019637619,-0.013216168619692326,0.012398518
736.2166666663258,0.4283025,-1.093595,0.1578195,-2.0176187,0.24474265,1.4829118,1.3360034,0.039999772,0.04,-8.345574,3.132678747177124,4.0710998,-0.0018492788,-0.012936471961438656,0.011787025
736.2333333329924,0.4284075,-1.0936713,0.15785825,-2.017536,0.2448027,1.4828894,1.3361382,0.039999776,0.04,-8.345548,3.1341300010681152,4.0709963,-0.0017406169,-0.012667452916502953,0.011199749
736.249999999659,0.42850462,-1.093742,0.1578942,-2.0174584,0.24485826,1.4828701,1.3362632,0.039999776,0.04,-8.345765,3.1355791091918945,4.0707855,-0.0016357908,-0.012416884303092957,0.010645731
736.2666666663257,0.42859444,-1.0938072,0.15792738,-2.0173867,0.24490975,1.4828514,1.3363789,0.039999776,0.04,-8.345806,3.136889696121216,4.0704956,-0.0015355522,-0.012170130386948586,0.01011438
736.2833333329924,0.42867732,-1.0938673,0.15795808,-2.0173209,0.24495707,1.4828342,1.3364853,0.039999783,0.04,-8.346105,3.1382040977478027,4.070165,-0.0014423167,-0.011941815726459026,0.009614814
736.299999999659,0.42875373,-1.093923,0.15798634,-2.0172608,0.24500088,1.482819,1.3365836,0.03999978,0.04,-8.346518,3.139453411102295,4.069732,-0.0013527296,-0.011729272082448006,0.009148412
736.3166666663257,0.42882404,-1.0939744,0.15801229,-2.0172045,0.24504122,1.4828042,1.3366741,0.03999978,0.04,-8.346916,3.1406519412994385,4.06929,-0.0012711583,-0.011529858224093914,0.008711501
736.3333333329923,0.42888874,-1.0940217,0.15803623,-2.0171533,0.2450783,1.4827904,1.3367573,0.039999783,0.04,-8.347219,3.141789197921753,4.068843,-0.0011944347,-0.011343627236783504,0.008304222
736.349999999659,0.4289483,-1.0940652,0.15805827,-2.0171058,0.2451124,1.4827787,1.3368337,0.039999787,0.04,-8.347788,3.1428873538970947,4.068298,-0.0011239126,-0.011175028048455715,0.007931652
736.3666666663256,0.42900306,-1.0941052,0.15807852,-2.0170624,0.24514383,1.4827675,1.3369044,0.039999783,0.04,-8.348181,3.143872022628784,4.0677767,-0.0010578193,-0.011014827527105808,0.0075862915
736.3833333329923,0.42905346,-1.0941421,0.15809718,-2.0170221,0.2451727,1.4827566,1.3369694,0.039999783,0.04,-8.348639,3.144808769226074,4.0673175,-0.0009994042,-0.010870477184653282,0.0072688465
736.3999999996589,0.4290999,-1.0941756,0.15811436,-2.016986,0.24519928,1.4827462,1.3370292,0.039999783,0.04,-8.348998,3.1456661224365234,4.066907,-0.00094477105,-0.010738092474639416,0.0069786925
736.4166666663256,0.42914256,-1.094206,0.1581302,-2.0169513,0.24522375,1.4827384,1.3370839,0.039999783,0.04,-8.349507,3.1464600563049316,4.066457,-0.0008957113,-0.01062287949025631,0.0067150407
736.4333333329922,0.4291817,-1.0942348,0.15814471,-2.0169206,0.24524628,1.482731,1.3371342,0.039999783,0.04,-8.3496685,3.1471095085144043,4.0660467,-0.0008479607,-0.010507551953196526,0.0064659575
736.4499999996589,0.42921776,-1.0942608,0.1581581,-2.0168922,0.24526697,1.4827236,1.3371807,0.039999783,0.04,-8.350014,3.1478304862976074,4.0657773,-0.0008051404,-0.010402264073491096,0.006237228
736.4666666663255,0.42925096,-1.094285,0.15817039,-2.0168648,0.24528605,1.4827164,1.3372234,0.039999783,0.04,-8.350375,3.148447036743164,4.065413,-0.00076668564,-0.010309794917702675,0.0060298354
736.4833333329922,0.42928135,-1.0943071,0.1581817,-2.016841,0.24530357,1.4827094,1.3372623,0.039999783,0.04,-8.3504095,3.148969888687134,4.065214,-0.0007291349,-0.01022015605121851,0.0058346963
736.4999999996588,0.42930952,-1.0943277,0.1581921,-2.0168195,0.24531971,1.4827026,1.3372983,0.039999787,0.04,-8.350869,3.1495378017425537,4.064908,-0.00069504016,-0.010144856758415699,0.0056627803
736.5166666663255,0.42933533,-1.094346,0.15820168,-2.0167992,0.24533457,1.482698,1.3373322,0.03999979,0.04,-8.351113,3.150021553039551,4.064694,-0.000664338,-0.010077746585011482,0.005504768
736.5333333329921,0.42935896,-1.0943637,0.15821052,-2.0167792,0.24534823,1.4826939,1.3373632,0.03999979,0.04,-8.351262,3.150404930114746,4.064377,-0.0006402457,-0.010010527446866035,0.0053551947
736.5499999996588,0.42938074,-1.0943791,0.15821864,-2.0167615,0.24536087,1.48269,1.3373908,0.039999787,0.04,-8.351174,3.150801181793213,4.064282,-0.0006150567,-0.009938767179846764,0.0052133794
736.5666666663254,0.42940092,-1.0943935,0.15822612,-2.0167456,0.24537247,1.4826864,1.3374176,0.039999783,0.04,-8.351537,3.151165246963501,4.064011,-0.00058877986,-0.009880619123578072,0.00508496
736.5833333329921,0.42941946,-1.0944074,0.158233,-2.0167317,0.24538316,1.4826828,1.337441,0.039999783,0.04,-8.351693,3.1515309810638428,4.0638647,-0.00057100086,-0.009826834313571453,0.0049680774
736.5999999996587,0.4294364,-1.0944198,0.15823929,-2.0167189,0.24539296,1.4826794,1.3374639,0.039999783,0.04,-8.351885,3.151872158050537,4.0637636,-0.0005491426,-0.009779157117009163,0.0048606866
736.6166666663254,0.42945203,-1.0944306,0.15824509,-2.0167062,0.24540196,1.482676,1.3374834,0.039999787,0.04,-8.352041,3.152165174484253,4.063567,-0.00053624396,-0.00973688904196024,0.0047635986
736.633333332992,0.42946652,-1.0944412,0.15825042,-2.0166938,0.24541032,1.4826727,1.3375026,0.03999979,0.04,-8.352126,3.152395009994507,4.0633907,-0.000516782,-0.009698251262307167,0.00467463
736.6499999996587,0.42947993,-1.0944514,0.15825535,-2.0166824,0.24541792,1.4826695,1.3375189,0.03999979,0.04,-8.352062,3.1526315212249756,4.0633736,-0.00050256506,-0.00965829472988844,0.0045886273
736.6666666663253,0.4294921,-1.0944605,0.15825993,-2.0166726,0.24542497,1.4826664,1.3375347,0.03999979,0.04,-8.352126,3.1528713703155518,4.0633135,-0.0004826594,-0.009619565680623055,0.00450969
736.683333332992,0.42950326,-1.0944681,0.1582641,-2.0166638,0.24543145,1.4826634,1.3375499,0.03999979,0.04,-8.352367,3.1530821323394775,4.063151,-0.00046920995,-0.009589011780917645,0.0044394103
736.6999999996586,0.4295137,-1.094475,0.15826792,-2.016656,0.24543741,1.4826604,1.3375624,0.03999979,0.04,-8.3525505,3.1532747745513916,4.062978,-0.00046135392,-0.009564928710460663,0.0043779523
736.7166666663253,0.42952326,-1.0944818,0.15827145,-2.0166488,0.24544288,1.4826574,1.3375744,0.03999979,0.04,-8.352682,3.153439521789551,4.062868,-0.00044700707,-0.0095454016700387,0.004321034
736.733333332992,0.42953202,-1.0944884,0.1582747,-2.016643,0.24544792,1.4826546,1.3375859,0.03999979,0.04,-8.352726,3.1536059379577637,4.0628295,-0.00043546574,-0.009526818990707397,0.004269541
736.7499999996586,0.42953986,-1.0944948,0.15827766,-2.0166376,0.24545257,1.4826539,1.3375974,0.03999979,0.04,-8.088797,3.177128314971924,4.1373863,0.0,-0.0,0.0
736.7666666663252,0.42953986,-1.0944948,0.15827766,-2.0166376,0.24545257,1.4826539,1.3375974,0.03999979,0.04,-8.354109,3.1544647216796875,4.0613203,0.0,-0.0,0.0
736.7833333329919,0.42953986,-1.0944948,0.15827766,-2.0166376,0.24545257,1.4826539,1.3375974,0.03999979,0.04,-8.354109,3.1544647216796875,4.0613203,0.0,-0.0,0.0
736.7999999996586,0.42953986,-1.0944948,0.15827766,-2.0166376,0.24545257,1.4826539,1.3375974,0.03999979,0.04,-8.354109,3.1544647216796875,4.0613203,0.0,-0.0,0.0
736.8166666663252,0.42953986,-1.0944948,0.15827766,-2.0166376,0.24545257,1.4826539,1.3375974,0.03999979,0.04,-8.354109,3.1544647216796875,4.0613203,0.0,-0.0,0.0
736.8333333329919,0.42953986,-1.0944948,0.15827766,-2.0166376,0.24545257,1.4826539,1.3375974,0.03999979,0.04,-8.354109,3.1544647216796875,4.0613203,0.0,-0.0,0.0
736.8499999996585,0.42953986,-1.0944948,0.15827766,-2.0166376,0.24545257,1.4826539,1.3375974,0.03999979,0.04,-8.354109,3.1544647216796875,4.0613203,0.0,-0.0,0.0
736.8666666663252,0.42953986,-1.0944948,0.15827766,-2.0166376,0.24545257,1.4826539,1.3375974,0.03999979,0.04,-8.354109,3.1544647216796875,4.0613203,0.0,-0.0,0.0
736.8833333329918,0.42953986,-1.0944948,0.15827766,-2.0166376,0.24545257,1.4826539,1.3375974,0.03999979,0.04,-8.354109,3.1544647216796875,4.0613203,0.0,-0.0,0.0
736.8999999996585,0.42953986,-1.0944948,0.15827766,-2.0166376,0.24545257,1.4826539,1.3375974,0.03999979,0.04,-8.354109,3.1544647216796875,4.0613203,0.0,-0.0,0.0
736.9166666663251,0.42953986,-1.0944948,0.15827766,-2.0166376,0.24545257,1.4826539,1.3375974,0.03999979,0.04,-8.354109,3.1544647216796875,4.0613203,0.0,-0.0,0.0
736.9333333329918,0.42953986,-1.0944948,0.15827766,-2.0166376,0.24545257,1.4826539,1.3375974,0.03999979,0.04,-8.354109,3.1544647216796875,4.0613203,0.0,-0.0,0.0
736.9499999996584,0.42953986,-1.0944948,0.15827766,-2.0166376,0.24545257,1.4826539,1.3375974,0.03999979,0.04,-8.354109,3.1544647216796875,4.0613203,0.0,-0.0,0.0
736.9666666663251,0.42953986,-1.0944948,0.15827766,-2.0166376,0.24545257,1.4826539,1.3375974,0.03999979,0.04,-8.354109,3.1544647216796875,4.0613203,0.0,-0.0,0.0
736.9833333329917,0.42953986,-1.0944948,0.15827766,-2.0166376,0.24545257,1.4826539,1.3375974,0.03999979,0.04,-8.354109,3.1544647216796875,4.0613203,0.0,-0.0,0.0
736.9999999996584,0.42953986,-1.0944948,0.15827766,-2.0166376,0.24545257,1.4826539,1.3375974,0.03999979,0.04,-8.354109,3.1544647216796875,4.0613203,0.0,-0.0,0.0
737.016666666325,0.42953986,-1.0944948,0.15827766,-2.0166376,0.24545257,1.4826539,1.3375974,0.03999979,0.04,-8.354109,3.1544647216796875,4.0613203,0.0,-0.0,0.0
737.0333333329917,0.42953986,-1.0944948,0.15827766,-2.0166376,0.24545257,1.4826539,1.3375974,0.03999979,0.04,-8.354109,3.1544647216796875,4.0613203,0.0,-0.0,0.0
737.0499999996583,0.42953986,-1.0944948,0.15827766,-2.0166376,0.24545257,1.4826539,1.3375974,0.03999979,0.04,-8.354109,3.1544647216796875,4.0613203,0.0,-0.0,0.0
737.066666666325,0.42953986,-1.0944948,0.15827766,-2.0166376,0.24545257,1.4826539,1.3375974,0.03999979,0.04,-8.354109,3.1544647216796875,4.0613203,0.0,-0.0,0.0
737.0833333329916,0.42953986,-1.0944948,0.15827766,-2.0166376,0.24545257,1.4826539,1.3375974,0.03999979,0.04,-8.354109,3.1544647216796875,4.0613203,0.0,-0.0,0.0
737.0999999996583,0.42953986,-1.0944948,0.15827766,-2.0166376,0.24545257,1.4826539,1.3375974,0.03999979,0.04,-8.354109,3.1544647216796875,4.0613203,0.0,-0.0,0.0
737.1166666663249,0.42953986,-1.0944948,0.15827766,-2.0166376,0.24545257,1.4826539,1.3375974,0.03999979,0.04,-8.354109,3.1544647216796875,4.0613203,0.0,-0.0,0.0
737.1333333329916,0.42953986,-1.0944948,0.15827766,-2.0166376,0.24545257,1.4826539,1.3375974,0.03999979,0.04,-8.354109,3.1544647216796875,4.0613203,0.0,-0.0,0.0
737.1499999996582,0.42953986,-1.0944948,0.15827766,-2.0166376,0.24545257,1.4826539,1.3375974,0.03999979,0.04,-8.354109,3.1544647216796875,4.0613203,0.0,-0.0,0.0
737.1666666663249,0.42953986,-1.0944948,0.15827766,-2.0166376,0.24545257,1.4826539,1.3375974,0.03999979,0.04,-8.354109,3.1544647216796875,4.0613203,0.0,-0.0,0.0
737.1833333329915,0.42953986,-1.0944948,0.15827766,-2.0166376,0.24545257,1.4826539,1.3375974,0.03999979,0.04,-8.354109,3.1544647216796875,4.0613203,0.0,-0.0,0.0
737.1999999996582,0.42953986,-1.0944948,0.15827766,-2.0166376,0.24545257,1.4826539,1.3375974,0.03999979,0.04,-8.354109,3.1544647216796875,4.0613203,0.0,-0.0,0.0
737.2166666663248,0.42953986,-1.0944948,0.15827766,-2.0166376,0.24545257,1.4826539,1.3375974,0.03999979,0.04,-8.354109,3.1544647216796875,4.0613203,0.0,-0.0,0.0
737.2333333329915,0.42953986,-1.0944948,0.15827766,-2.0166376,0.24545257,1.4826539,1.3375974,0.03999979,0.04,-8.354109,3.1544647216796875,4.0613203,0.0,-0.0,0.0
737.2499999996581,0.42953986,-1.0944948,0.15827766,-2.0166376,0.24545257,1.4826539,1.3375974,0.03999979,0.04,-8.354109,3.1544647216796875,4.0613203,0.0,-0.0,0.0
737.2666666663248,0.42953986,-1.0944948,0.15827766,-2.0166376,0.24545257,1.4826539,1.3375974,0.03999979,0.04,-8.354109,3.1544647216796875,4.0613203,0.0,-0.0,0.0
737.2833333329914,0.42953986,-1.0944948,0.15827766,-2.0166376,0.24545257,1.4826539,1.3375974,0.03999979,0.04,-8.354109,3.1544647216796875,4.0613203,0.0,-0.0,0.0
737.2999999996581,0.42953986,-1.0944948,0.15827766,-2.0166376,0.24545257,1.4826539,1.3375974,0.03999979,0.04,-8.354109,3.1544647216796875,4.0613203,0.0,-0.0,0.0
737.3166666663247,0.42953986,-1.0944948,0.15827766,-2.0166376,0.24545257,1.4826539,1.3375974,0.03999979,0.04,-8.354109,3.1544647216796875,4.0613203,0.0,-0.0,0.0
737.3333333329914,0.42953986,-1.0944948,0.15827766,-2.0166376,0.24545257,1.4826539,1.3375974,0.03999979,0.04,-8.354109,3.1544647216796875,4.0613203,0.0,-0.0,0.0
737.349999999658,0.42953986,-1.0944948,0.15827766,-2.0166376,0.24545257,1.4826539,1.3375974,0.03999979,0.04,-8.354109,3.1544647216796875,4.0613203,0.0,-0.0,0.0
737.3666666663247,0.42953986,-1.0944948,0.15827766,-2.0166376,0.24545257,1.4826539,1.3375974,0.03999979,0.04,-8.354109,3.1544647216796875,4.0613203,0.0,-0.0,0.0
737.3833333329914,0.42953986,-1.0944948,0.15827766,-2.0166376,0.24545257,1.4826539,1.3375974,0.03999979,0.04,-8.354109,3.1544647216796875,4.0613203,0.0,-0.0,0.0
737.399999999658,0.42953986,-1.0944948,0.15827766,-2.0166376,0.24545257,1.4826539,1.3375974,0.03999979,0.04,-8.354109,3.1544647216796875,4.0613203,0.0,-0.0,0.0
737.4166666663247,0.42953986,-1.0944948,0.15827766,-2.0166376,0.24545257,1.4826539,1.3375974,0.03999979,0.04,-8.354109,3.1544647216796875,4.0613203,0.0,-0.0,0.0
737.4333333329913,0.42953986,-1.0944948,0.15827766,-2.0166376,0.24545257,1.4826539,1.3375974,0.03999979,0.04,-8.354109,3.1544647216796875,4.0613203,0.0,-0.0,0.0
737.449999999658,0.42953986,-1.0944948,0.15827766,-2.0166376,0.24545257,1.4826539,1.3375974,0.03999979,0.04,-8.354109,3.1544647216796875,4.0613203,0.0,-0.0,0.0
737.4666666663246,0.42953986,-1.0944948,0.15827766,-2.0166376,0.24545257,1.4826539,1.3375974,0.03999979,0.04,-8.354109,3.1544647216796875,4.0613203,0.0,-0.0,0.0
737.4833333329913,0.42953986,-1.0944948,0.15827766,-2.0166376,0.24545257,1.4826539,1.3375974,0.03999979,0.04,-8.354109,3.1544647216796875,4.0613203,0.0,-0.0,0.0
737.4999999996579,0.42953986,-1.0944948,0.15827766,-2.0166376,0.24545257,1.4826539,1.3375974,0.03999979,0.04,-8.354109,3.1544647216796875,4.0613203,0.0,-0.0,0.0
737.5166666663246,0.42953986,-1.0944948,0.15827766,-2.0166376,0.24545257,1.4826539,1.3375974,0.03999979,0.04,-8.354109,3.1544647216796875,4.0613203,0.0,-0.0,0.0
737.5333333329912,0.42953986,-1.0944948,0.15827766,-2.0166376,0.24545257,1.4826539,1.3375974,0.03999979,0.04,-8.354109,3.1544647216796875,4.0613203,0.0,-0.0,0.0
737.5499999996579,0.42953986,-1.0944948,0.15827766,-2.0166376,0.24545257,1.4826539,1.3375974,0.03999979,0.04,-8.354109,3.1544647216796875,4.0613203,0.0,-0.0,0.0
737.5666666663245,0.42953986,-1.0944948,0.15827766,-2.0166376,0.24545257,1.4826539,1.3375974,0.03999979,0.04,-8.354109,3.1544647216796875,4.0613203,0.0,-0.0,0.0
737.5833333329912,0.42953986,-1.0944948,0.15827766,-2.0166376,0.24545257,1.4826539,1.3375974,0.03999979,0.04,-8.354109,3.1544647216796875,4.0613203,0.0,-0.0,0.0
737.5999999996578,0.42953986,-1.0944948,0.15827766,-2.0166376,0.24545257,1.4826539,1.3375974,0.03999979,0.04,-8.354109,3.1544647216796875,4.0613203,0.0,-0.0,0.0
737.6166666663245,0.42953986,-1.0944948,0.15827766,-2.0166376,0.24545257,1.4826539,1.3375974,0.03999979,0.04,-8.354109,3.1544647216796875,4.0613203,0.0,-0.0,0.0
737.6333333329911,0.42953986,-1.0944948,0.15827766,-2.0166376,0.24545257,1.4826539,1.3375974,0.03999979,0.04,-8.354109,3.1544647216796875,4.0613203,0.0,-0.0,0.0
737.6499999996578,0.42953986,-1.0944948,0.15827766,-2.0166376,0.24545257,1.4826539,1.3375974,0.03999979,0.04,-8.354109,3.1544647216796875,4.0613203,0.0,-0.0,0.0
737.6666666663244,0.42953986,-1.0944948,0.15827766,-2.0166376,0.24545257,1.4826539,1.3375974,0.03999979,0.04,-8.354109,3.1544647216796875,4.0613203,0.0,-0.0,0.0
737.6833333329911,0.42953986,-1.0944948,0.15827766,-2.0166376,0.24545257,1.4826539,1.3375974,0.03999979,0.04,-8.354109,3.1544647216796875,4.0613203,0.0,-0.0,0.0
737.6999999996577,0.42953986,-1.0944948,0.15827766,-2.0166376,0.24545257,1.4826539,1.3375974,0.03999979,0.04,-8.354109,3.1544647216796875,4.0613203,0.0,-0.0,0.0
737.7166666663244,0.42953986,-1.0944948,0.15827766,-2.0166376,0.24545257,1.4826539,1.3375974,0.03999979,0.04,-8.354109,3.1544647216796875,4.0613203,0.0,-0.0,0.0
737.733333332991,0.42953986,-1.0944948,0.15827766,-2.0166376,0.24545257,1.4826539,1.3375974,0.03999979,0.04,-8.354109,3.1544647216796875,4.0613203,0.0,-0.0,0.0
737.7499999996577,0.42953986,-1.0944948,0.15827766,-2.0166376,0.24545257,1.4826539,1.3375974,0.03999979,0.04,-8.354109,3.1544647216796875,4.0613203,0.0,-0.0,0.0
737.7666666663243,0.42953986,-1.0944948,0.15827766,-2.0166376,0.24545257,1.4826539,1.3375974,0.03999979,0.04,-8.354109,3.1544647216796875,4.0613203,0.0,-0.0,0.0
737.783333332991,0.42953986,-1.0944948,0.15827766,-2.0166376,0.24545257,1.4826539,1.3375974,0.03999979,0.04,-8.354109,3.1544647216796875,4.0613203,0.0,-0.0,0.0
737.7999999996576,0.42953986,-1.0944948,0.15827766,-2.0166376,0.24545257,1.4826539,1.3375974,0.03999979,0.04,-8.354109,3.1544647216796875,4.0613203,0.0,-0.0,0.0
737.8166666663243,0.42953986,-1.0944948,0.15827766,-2.0166376,0.24545257,1.4826539,1.3375974,0.03999979,0.04,-8.354109,3.1544647216796875,4.0613203,0.0,-0.0,0.0
737.833333332991,0.42953986,-1.0944948,0.15827766,-2.0166376,0.24545257,1.4826539,1.3375974,0.03999979,0.04,-8.354109,3.1544647216796875,4.0613203,0.0,-0.0,0.0
737.8499999996576,0.42953986,-1.0944948,0.15827766,-2.0166376,0.24545257,1.4826539,1.3375974,0.03999979,0.04,-8.354109,3.1544647216796875,4.0613203,0.0,-0.0,0.0
737.8666666663242,0.42953986,-1.0944948,0.15827766,-2.0166376,0.24545257,1.4826539,1.3375974,0.03999979,0.04,-8.354109,3.1544647216796875,4.0613203,0.0,-0.0,0.0
737.8833333329909,0.42953986,-1.0944948,0.15827766,-2.0166376,0.24545257,1.4826539,1.3375974,0.03999979,0.04,-8.354109,3.1544647216796875,4.0613203,0.0,-0.0,0.0
737.8999999996576,0.42953986,-1.0944948,0.15827766,-2.0166376,0.24545257,1.4826539,1.3375974,0.03999979,0.04,-8.354109,3.1544647216796875,4.0613203,0.0,-0.0,0.0
737.9166666663242,0.42953986,-1.0944948,0.15827766,-2.0166376,0.24545257,1.4826539,1.3375974,0.03999979,0.04,-8.354109,3.1544647216796875,4.0613203,0.0,-0.0,0.0
737.9333333329909,0.42953986,-1.0944948,0.15827766,-2.0166376,0.24545257,1.4826539,1.3375974,0.03999979,0.04,-8.354109,3.1544647216796875,4.0613203,0.0,-0.0,0.0
737.9499999996575,0.42953986,-1.0944948,0.15827766,-2.0166376,0.24545257,1.4826539,1.3375974,0.03999979,0.04,-8.354109,3.1544647216796875,4.0613203,0.0,-0.0,0.0
737.9666666663242,0.42953986,-1.0944948,0.15827766,-2.0166376,0.24545257,1.4826539,1.3375974,0.03999979,0.04,-8.354109,3.1544647216796875,4.0613203,0.0,-0.0,0.0
737.9833333329908,0.42953986,-1.0944948,0.15827766,-2.0166376,0.24545257,1.4826539,1.3375974,0.03999979,0.04,-8.354109,3.1544647216796875,4.0613203,0.0,-0.0,0.0
737.9999999996575,0.42953986,-1.0944948,0.15827766,-2.0166376,0.24545257,1.4826539,1.3375974,0.03999979,0.04,-8.354109,3.1544647216796875,4.0613203,0.0,-0.0,0.0
738.0166666663241,0.42953986,-1.0944948,0.15827766,-2.0166376,0.24545257,1.4826539,1.3375974,0.03999979,0.04,-8.354109,3.1544647216796875,4.0613203,0.0,-0.0,0.0
738.0333333329908,0.42953986,-1.0944948,0.15827766,-2.0166376,0.24545257,1.4826539,1.3375974,0.03999979,0.04,-8.354109,3.1544647216796875,4.0613203,0.0,-0.0,0.0
738.0499999996574,0.42953986,-1.0944948,0.15827766,-2.0166376,0.24545257,1.4826539,1.3375974,0.03999979,0.04,-8.354109,3.1544647216796875,4.0613203,0.0,-0.0,0.0
738.0666666663241,0.42953986,-1.0944948,0.15827766,-2.0166376,0.24545257,1.4826539,1.3375974,0.03999979,0.04,-8.354109,3.1544647216796875,4.0613203,0.0,-0.0,0.0
738.0833333329907,0.42953986,-1.0944948,0.15827766,-2.0166376,0.24545257,1.4826539,1.3375974,0.03999979,0.04,-8.354109,3.1544647216796875,4.0613203,0.0,-0.0,0.0
738.0999999996574,0.42953986,-1.0944948,0.15827766,-2.0166376,0.24545257,1.4826539,1.3375974,0.03999979,0.04,-8.354109,3.1544647216796875,4.0613203,0.0,-0.0,0.0
738.116666666324,0.42953986,-1.0944948,0.15827766,-2.0166376,0.24545257,1.4826539,1.3375974,0.03999979,0.04,-8.354109,3.1544647216796875,4.0613203,0.0,-0.0,0.0
738.1333333329907,0.42953986,-1.0944948,0.15827766,-2.0166376,0.24545257,1.4826539,1.3375974,0.03999979,0.04,-8.354109,3.1544647216796875,4.0613203,0.0,-0.0,0.0
738.1499999996573,0.42953986,-1.0944948,0.15827766,-2.0166376,0.24545257,1.4826539,1.3375974,0.03999979,0.04,-8.354109,3.1544647216796875,4.0613203,0.0,-0.0,0.0
738.166666666324,0.42953986,-1.0944948,0.15827766,-2.0166376,0.24545257,1.4826539,1.3375974,0.03999979,0.04,-8.354109,3.1544647216796875,4.0613203,0.0,-0.0,0.0
738.1833333329906,0.42953986,-1.0944948,0.15827766,-2.0166376,0.24545257,1.4826539,1.3375974,0.03999979,0.04,-8.354109,3.1544647216796875,4.0613203,0.0,-0.0,0.0
738.1999999996573,0.42953986,-1.0944948,0.15827766,-2.0166376,0.24545257,1.4826539,1.3375974,0.03999979,0.04,-8.354109,3.1544647216796875,4.0613203,0.0,-0.0,0.0
738.2166666663239,0.42953986,-1.0944948,0.15827766,-2.0166376,0.24545257,1.4826539,1.3375974,0.03999979,0.04,-8.354109,3.1544647216796875,4.0613203,0.0,-0.0,0.0
738.2333333329906,0.42953986,-1.0944948,0.15827766,-2.0166376,0.24545257,1.4826539,1.3375974,0.03999979,0.04,-8.354109,3.1544647216796875,4.0613203,0.0,-0.0,0.0
738.2499999996572,0.42953986,-1.0944948,0.15827766,-2.0166376,0.24545257,1.4826539,1.3375974,0.03999979,0.04,-8.354109,3.1544647216796875,4.0613203,0.0,-0.0,0.0
738.2666666663239,0.42953986,-1.0944948,0.15827766,-2.0166376,0.24545257,1.4826539,1.3375974,0.03999979,0.04,-8.354109,3.1544647216796875,4.0613203,0.0,-0.0,0.0
738.2833333329905,0.42953986,-1.0944948,0.15827766,-2.0166376,0.24545257,1.4826539,1.3375974,0.03999979,0.04,-8.354109,3.1544647216796875,4.0613203,0.0,-0.0,0.0
738.2999999996572,0.42953986,-1.0944948,0.15827766,-2.0166376,0.24545257,1.4826539,1.3375974,0.03999979,0.04,-8.354109,3.1544647216796875,4.0613203,0.0,-0.0,0.0
738.3166666663238,0.42953986,-1.0944948,0.15827766,-2.0166376,0.24545257,1.4826539,1.3375974,0.03999979,0.04,-8.354109,3.1544647216796875,4.0613203,0.0,-0.0,0.0
738.3333333329905,0.42953986,-1.0944948,0.15827766,-2.0166376,0.24545257,1.4826539,1.3375974,0.03999979,0.04,-8.354109,3.1544647216796875,4.0613203,0.0,-0.0,0.0
738.3499999996571,0.42953986,-1.0944948,0.15827766,-2.0166376,0.24545257,1.4826539,1.3375974,0.03999979,0.04,-8.354109,3.1544647216796875,4.0613203,0.0,-0.0,0.0
