rsonawane2002/My_IMU/logs_2/traj_317/imu_400hz_317.csv
time,j1,j2,j3,j4,j5,j6,j7,gripper1,gripper2,imu_ax,imu_ay,imu_az,imu_gx,imu_gy,imu_gz
0.0,0.00016700293,-0.785875,4.0107683e-05,-2.3551247,9.29385e-05,1.570997,0.786,0.04,0.04,-9.568857,0.0105375600978732,0.08349815,-1.1493286e-07,-0.0011641274904832,5.978101e-07
0.0025,0.000167004388,-0.785857774,4.010911115e-05,-2.35513919,9.294445350000001e-05,1.570996565,0.786,0.04,0.04,-9.608689950000036,0.009054318052948021,0.07233355384998984,-1.0948557099999505e-07,-0.0013252835662571016,6.768512350000718e-07
0.005,0.000167005846,-0.785840548,4.01105393e-05,-2.3551536800000004,9.295040700000001e-05,1.57099613,0.786,0.04,0.04,-9.648522900000073,0.007571076008022842,0.06116895769997968,-1.0403828199999009e-07,-0.0014864396420310032,7.558923700001438e-07
0.0075,0.000167007304,-0.7858233219999999,4.0111967450000004e-05,-2.3551681700000002,9.295636050000002e-05,1.570995695,0.786,0.04,0.04,-9.688355850000109,0.006087833963097662,0.05000436154996953,-9.859099299998514e-08,-0.0016475957178049047,8.349335050002156e-07
0.01,0.000167008762,-0.785806096,4.0113395600000004e-05,-2.35518266,9.296231400000003e-05,1.5709952600000001,0.786,0.04,0.04,-9.728188800000146,0.004604591918172483,0.038839765399959376,-9.314370399998018e-08,-0.0018087517935788063,9.139746400002875e-07
0.0125,0.00016701022,-0.78578887,4.0114823750000004e-05,-2.3551971500000004,9.296826750000002e-05,1.570994825,0.786,0.04,0.04,-9.76802175000018,0.0031213498732473033,0.027675169249949227,-8.769641499997523e-08,-0.001969907869352708,9.930157750003594e-07
0.015,0.000167011678,-0.785771644,4.011625190000001e-05,-2.3552116400000003,9.297422100000003e-05,1.57099439,0.786,0.04,0.04,-9.807854700000217,0.0016381078283221242,0.01651057309993907,-8.224912599997027e-08,-0.0021310639451266092,1.0720569100004312e-06
0.0175,0.00016701553050000006,-0.785754867,4.011855630000003e-05,-2.3552257350000003,9.298144850000006e-05,1.57099396,0.786,0.04,0.04,-9.834318949999998,0.0006530322600156467,0.008991387999998546,-7.334698064989933e-08,-0.0022882114513786095,1.1922265250012887e-06
0.02,0.00016702417200000006,-0.785738988,4.012261320000003e-05,-2.3552390400000003,9.299122400000007e-05,1.5709935400000001,0.786,0.04,0.04,-9.834045799999998,0.0006642896449193819,0.008763024999998339,-5.753512259988495e-08,-0.002437341818587025,1.3946531000014729e-06
0.0225,0.00016703281350000007,-0.7857231089999999,4.012667010000003e-05,-2.3552523450000002,9.300099950000008e-05,1.57099312,0.786,0.04,0.04,-9.833772649999998,0.0006755470298231171,0.00853466199999813,-4.1723264549870576e-08,-0.0025864721857954405,1.5970796750016568e-06
0.025,0.00016704145500000007,-0.7857072299999999,4.013072700000003e-05,-2.35526565,9.30107750000001e-05,1.5709927,0.786,0.04,0.04,-9.833499499999999,0.0006868044147268524,0.008306298999997923,-2.591140649985618e-08,-0.0027356025530038564,1.7995062500018411e-06
0.0275,0.0001670500965000001,-0.7856913509999999,4.013478390000004e-05,-2.355278955,9.302055050000009e-05,1.57099228,0.786,0.04,0.04,-9.833226349999997,0.0006980617996305877,0.008077935999997714,-1.0099548449841814e-08,-0.002884732920212272,2.001932825002025e-06
0.03,0.0001670587380000001,-0.7856754719999999,4.0138840800000046e-05,-2.35529226,9.30303260000001e-05,1.57099186,0.786,0.04,0.04,-9.832953199999997,0.0007093191845343229,0.007849572999997508,5.712309600172568e-09,-0.0030338632874206874,2.2043594000022088e-06
0.0325,0.0001670673795000001,-0.7856595929999999,4.0142897700000045e-05,-2.355305565,9.304010150000011e-05,1.57099144,0.786,0.04,0.04,-9.832680049999997,0.0007205765694380581,0.0076212099999973,2.1524167650186962e-08,-0.0031829936546291034,2.4067859750023933e-06
0.035,0.00016708886900000035,-0.7856445729999998,4.015170550000014e-05,-2.3553181,9.305715200000026e-05,1.57099101,0.786,0.04,0.04,-9.832421299999996,0.0007390714250507216,0.007404590799997316,6.289392830068955e-08,-0.0033247853862139187,2.754198990005347e-06
0.0375,0.00016711678250000037,-0.7856299824999998,4.0162888750000155e-05,-2.35533025,9.307784000000028e-05,1.570990575,0.786,0.04,0.04,-9.832169749999997,0.0007611850160176517,0.0071938434999971245,1.170426402507387e-07,-0.003462907799987134,3.174105225005728e-06
0.04,0.0001671446960000004,-0.7856153919999997,4.0174072000000165e-05,-2.3553424,9.30985280000003e-05,1.57099014,0.786,0.04,0.04,-9.831918199999997,0.0007832986069845818,0.0069830961999969325,1.71191352200788e-07,-0.00360103021376035,3.5940114600061104e-06
0.0425,0.00016717260950000043,-0.7856008014999998,4.0185255250000175e-05,-2.35535455,9.311921600000032e-05,1.5709897050000001,0.786,0.04,0.04,-9.831666649999995,0.000805412197951512,0.006772348899996741,2.2534006415083727e-07,-0.003739152627533566,4.013917695006493e-06
0.045,0.00016720052300000046,-0.7855862109999998,4.0196438500000185e-05,-2.3553667000000003,9.313990400000034e-05,1.57098927,0.786,0.04,0.04,-9.831415099999996,0.000827525788918442,0.006561601599996549,2.794887761008864e-07,-0.0038772750413067813,4.433823930006874e-06
0.0475,0.00016722843650000048,-0.7855716204999997,4.0207621750000195e-05,-2.35537885,9.316059200000035e-05,1.570988835,0.786,0.04,0.04,-9.831163549999996,0.0008496393798853722,0.006350854299996358,3.336374880509357e-07,-0.004015397455079997,4.8537301650072555e-06
0.05,0.00016725635000000116,-0.7855570299999998,4.021880500000045e-05,-2.355391,9.31812800000008e-05,1.5709884,0.786,0.04,0.04,-9.830911999999996,0.0008717529708525023,0.0061401069999964305,3.87786200003529e-07,-0.004153519868853038,5.273636400017502e-06
0.0525,0.00016732099850000123,-0.7855436154999997,4.0243571500000475e-05,-2.3554021300000003,9.322633100000085e-05,1.57098798,0.786,0.04,0.0399999985,-9.830695549999996,0.0009048631996853424,0.005943902649996252,5.817823550037051e-07,-0.004282012837941409,6.235795740018375e-06
0.055,0.0001673856470000013,-0.7855302009999997,4.0268338000000494e-05,-2.35541326,9.32713820000009e-05,1.57098756,0.786,0.04,0.039999997,-9.830479099999994,0.0009379734285181825,0.005747698299996074,7.757785100038817e-07,-0.004410505807029781,7.197955080019251e-06
0.0575,0.00016745029550000134,-0.7855167864999998,4.029310450000052e-05,-2.35542439,9.331643300000094e-05,1.57098714,0.786,0.04,0.0399999955,-9.830262649999995,0.0009710836573510227,0.0055514939499958955,9.697746650040583e-07,-0.004538998776118153,8.160114420020127e-06
0.06,0.00016751494400000141,-0.7855033719999998,4.031787100000054e-05,-2.3554355200000003,9.336148400000098e-05,1.57098672,0.786,0.04,0.039999994,-9.830046199999995,0.0010041938861838626,0.005355289599995717,1.1637708200042343e-06,-0.004667491745206524,9.122273760021002e-06
0.0625,0.00016757959250000146,-0.7854899574999997,4.0342637500000564e-05,-2.35544665,9.340653500000103e-05,1.5709863,0.786,0.04,0.0399999925,-9.829829749999995,0.001037304115016703,0.005159085249995539,1.357766975004411e-06,-0.004795984714294896,1.0084433100021877e-05
0.065,0.00016764424100000153,-0.7854765429999997,4.036740400000058e-05,-2.35545778,9.345158600000106e-05,1.57098588,0.786,0.04,0.039999991,-9.829613299999995,0.001070414343849543,0.004962880899995361,1.5517631300045877e-06,-0.004924477683383268,1.1046592440022752e-05
0.0675,0.00016772860600000304,-0.7854635034999997,4.039946125000114e-05,-2.35546854,9.350790075000193e-05,1.570985455,0.786000095,0.04,0.03999999,-9.829408949999996,0.0011056646297229209,0.004771077079995506,1.8255575550106432e-06,-0.005050264811146216,1.2061800400027537e-05
0.07,0.00016785240400000315,-0.7854512139999997,4.0446100000001185e-05,-2.3554785600000003,9.358674300000201e-05,1.57098502,0.78600038,0.04,0.03999999,-9.829228799999996,0.0011451950296769069,0.004588074319995339,2.258948520011038e-06,-0.005170640256258905,1.3183105600028558e-05
0.0725,0.00016797620200000325,-0.7854389244999997,4.049273875000123e-05,-2.3554885800000003,9.366558525000208e-05,1.570984585,0.786000665,0.04,0.03999999,-9.829048649999995,0.0011847254296308927,0.0044050715599951735,2.69233948501143e-06,-0.005291015701371594,1.4304410800029573e-05
0.075,0.00016810000000000338,-0.7854266349999997,4.053937750000127e-05,-2.3554986,9.374442750000216e-05,1.57098415,0.78600095,0.04,0.03999999,-9.828868499999995,0.0012242558295848785,0.004222068799995007,3.1257304500118243e-06,-0.0054113911464842845,1.5425716000030592e-05
0.0775,0.00016822379800000348,-0.7854143454999997,4.058601625000131e-05,-2.35550862,9.382326975000223e-05,1.5709837150000001,0.7860012350000001,0.04,0.03999999,-9.828688349999995,0.0012637862295388645,0.004039066039994841,3.559121415012219e-06,-0.005531766591596974,1.6547021200031615e-05
0.08,0.0001683475960000036,-0.7854020559999997,4.0632655000001354e-05,-2.3555186400000006,9.39021120000023e-05,1.57098328,0.78600152,0.04,0.03999999,-9.828508199999995,0.0013033166294928505,0.003856063279994674,3.992512380012614e-06,-0.005652142036709664,1.7668326400032634e-05
0.0825,0.00016847139400000372,-0.7853897664999997,4.0679293750001396e-05,-2.3555286600000005,9.398095425000237e-05,1.570982845,0.786001805,0.04,0.03999999,-9.828328049999994,0.0013428470294468366,0.003673060519994507,4.425903345013008e-06,-0.005772517481822353,1.8789631600033656e-05
0.085,0.00016865246200000649,-0.7853781779999996,4.074710920000242e-05,-2.3555380500000003,9.409162250000391e-05,1.57098241,0.78600209,0.04,0.0399999905,-9.828147399999994,0.0013884129817612126,0.003497457519994684,4.232263759984316e-06,-0.005887525109577614,2.0155802700046036e-05
0.08750000000000001,0.00016886216500000667,-0.7853669399999996,4.082551300000249e-05,-2.3555471250000006,9.421820375000404e-05,1.570981975,0.786002375,0.04,0.03999999125,-9.827966499999993,0.0014369967102553717,0.0033255543999945276,3.7251088999838545e-06,-0.0059998488286545255,2.1644406750047392e-05
0.09,0.00016907186800000685,-0.7853557019999996,4.0903916800002565e-05,-2.3555562000000005,9.434478500000414e-05,1.57098154,0.7860026600000001,0.04,0.039999992,-9.827785599999993,0.0014855804387495306,0.003153651279994372,3.2179540399833953e-06,-0.006112172547731437,2.313301080004874e-05
0.0925,0.00016928157100000706,-0.7853444639999996,4.0982320600002636e-05,-2.3555652750000005,9.447136625000427e-05,1.570981105,0.786002945,0.04,0.039999992750000005,-9.827604699999993,0.00153416416724369,0.002981748159994215,2.7107991799829335e-06,-0.00622449626680835,2.4621614850050092e-05
0.095,0.00016949127400000725,-0.7853332259999996,4.106072440000271e-05,-2.3555743500000004,9.459794750000438e-05,1.57098067,0.78600323,0.04,0.039999993500000004,-9.827423799999993,0.0015827478957378491,0.002809845039994059,2.203644319982472e-06,-0.006336819985885262,2.611021890005145e-05
0.0975,0.00016970097700000743,-0.7853219879999995,4.113912820000278e-05,-2.3555834250000007,9.472452875000448e-05,1.570980235,0.786003515,0.04,0.039999994250000004,-9.827242899999993,0.0016313316242320083,0.0026379419199939022,1.6964894599820104e-06,-0.006449143704962175,2.7598822950052805e-05
0.1,0.00016991068000001187,-0.7853107499999996,4.1217532000004415e-05,-2.3555925000000006,9.485111000000699e-05,1.5709798,0.7860038,0.04,0.039999995,-9.827061999999994,0.0016799153527263949,0.0024660387999941745,1.1893346000014206e-06,-0.006561467424038852,2.908742700007435e-05
0.10250000000000001,0.00017023693300001217,-0.7853005034999996,4.1338990450004527e-05,-2.3556010800000005,9.504334340000717e-05,1.57097938,0.786004205,0.04,0.03999999575,-9.826924449999995,0.0017347471613922247,0.0023059105749940285,1.228381670001456e-06,-0.006667353282686484,3.113096340007621e-05
0.105,0.00017056318600001247,-0.7852902569999995,4.146044890000464e-05,-2.3556096600000003,9.523557680000734e-05,1.57097896,0.7860046100000001,0.04,0.0399999965,-9.826786899999995,0.0017895789700580545,0.0021457823499938834,1.2674287400014914e-06,-0.006773239141334115,3.317449980007806e-05
0.1075,0.00017088943900001277,-0.7852800104999995,4.158190735000475e-05,-2.3556182400000005,9.542781020000751e-05,1.57097854,0.7860050150000001,0.04,0.03999999725,-9.826649349999995,0.0018444107787238843,0.001985654124993738,1.306475810001527e-06,-0.006879124999981746,3.5218036200079915e-05
0.11,0.00017121569200001307,-0.7852697639999996,4.170336580000486e-05,-2.3556268200000003,9.562004360000769e-05,1.57097812,0.7860054200000001,0.04,0.039999998,-9.826511799999995,0.0018992425873897143,0.001825525899993592,1.3455228800015626e-06,-0.0069850108586293775,3.726157260008178e-05
0.1125,0.00017154194500001337,-0.7852595174999996,4.182482425000497e-05,-2.3556354,9.581227700000788e-05,1.5709777,0.786005825,0.04,0.03999999875,-9.826374249999995,0.0019540743960555444,0.0016653976749934464,1.3845699500015982e-06,-0.007090896717277009,3.9305109000083635e-05
0.115,0.00017186819800001367,-0.7852492709999995,4.194628270000508e-05,-2.3556439800000004,9.600451040000805e-05,1.5709772800000001,0.78600623,0.04,0.0399999995,-9.826236699999994,0.0020089062047213744,0.0015052694499933005,1.4236170200016336e-06,-0.00719678257592464,4.13486454000855e-05
0.11750000000000001,0.0001722446795000204,-0.7852393464999996,4.208628795000757e-05,-2.35565223,9.62254392000119e-05,1.570976855,0.7860066900000001,0.04,0.04,-9.826121149999997,0.002065913646950203,0.0013498196524937547,1.5189067750088823e-06,-0.007301503955390947,4.36046110001146e-05
0.12,0.00017272161800002084,-0.7852300659999996,4.226338680000773e-05,-2.35565982,9.650375880001216e-05,1.57097642,0.7860072600000001,0.04,0.04,-9.826049599999997,0.0021272723563041987,0.0012037267099936225,1.7266819000090704e-06,-0.00740389637649505,4.628543500011703e-05
0.1225,0.00017319855650002125,-0.7852207854999995,4.2440485650007893e-05,-2.35566741,9.67820784000124e-05,1.570975985,0.7860078300000001,0.04,0.04,-9.825978049999998,0.0021886310656581945,0.0010576337674934894,1.9344570250092595e-06,-0.007506288797599152,4.8966259000119466e-05
0.125,0.0001736754950000217,-0.7852115049999996,4.2617584500008055e-05,-2.355675,9.706039800001266e-05,1.57097555,0.7860084,0.04,0.04,-9.825906499999997,0.0022499897750121903,0.0009115408249933565,2.1422321500094486e-06,-0.007608681218703256,5.164708300012191e-05
0.1275,0.00017415243350002213,-0.7852022244999995,4.2794683350008216e-05,-2.3556825900000002,9.733871760001291e-05,1.570975115,0.78600897,0.04,0.04,-9.825834949999997,0.0023113484843661864,0.0007654478824932235,2.3500072750096377e-06,-0.007711073639807359,5.432790700012435e-05
0.13,0.00017462937200002257,-0.7851929439999995,4.297178220000838e-05,-2.3556901800000003,9.761703720001317e-05,1.57097468,0.7860095400000001,0.04,0.04,-9.825763399999996,0.002372707193720182,0.0006193549399930904,2.557782400009827e-06,-0.007813466060911461,5.700873100012679e-05
0.1325,0.000175106310500023,-0.7851836634999996,4.314888105000854e-05,-2.3556977700000004,9.789535680001343e-05,1.570974245,0.7860101100000001,0.04,0.04,-9.825691849999997,0.002434065903074178,0.0004732619974929575,2.765557525010016e-06,-0.007915858482015566,5.968955500012923e-05
0.135,0.00017570852100003265,-0.7851749929999996,4.3372201600012106e-05,-2.3557046800000006,9.824566600001897e-05,1.5709738199999999,0.7860108750000001,0.04,0.04,-9.825601399999995,0.0025012206751886708,0.00032859267499292934,3.0733057800175705e-06,-0.008014770690356462,6.286157070016786e-05
0.1375,0.00017637336750003327,-0.7851666274999995,4.361863300001233e-05,-2.35571125,9.863197000001932e-05,1.5709734,0.7860117375000001,0.04,0.04,-9.825501499999994,0.00257127347868278,0.0001846351624927983,3.4310406000178963e-06,-0.008111942792316135,6.627918225017098e-05
0.14,0.00017703821400003386,-0.7851582619999995,4.386506440001255e-05,-2.35571782,9.901827400001969e-05,1.57097298,0.7860126000000001,0.04,0.04,-9.825401599999996,0.0026413262821768885,4.06776499926672e-05,3.7887754200182216e-06,-0.00820911489427581,6.969679380017409e-05
0.14250000000000002,0.00017770306050003448,-0.7851498964999996,4.411149580001278e-05,-2.3557243900000002,9.940457800002004e-05,1.57097256,0.7860134625,0.04,0.04,-9.825301699999995,0.002711379085670997,-0.00010327986250746385,4.146510240018547e-06,-0.008306286996235483,7.31144053501772e-05
0.145,0.00017836790700003508,-0.7851415309999995,4.4357927200013e-05,-2.3557309600000003,9.979088200002037e-05,1.57097214,0.786014325,0.04,0.04,-9.825201799999995,0.0027814318891651053,-0.0002472373750075933,4.504245060018869e-06,-0.008403459098195155,7.653201690018028e-05
0.1475,0.00017903275350003567,-0.7851331654999996,4.4604358600013225e-05,-2.3557375300000003,0.00010017718600002072,1.57097172,0.7860151875,0.04,0.04,-9.825101899999995,0.002851484692659214,-0.0003911948875077244,4.861979880019195e-06,-0.008500631200154828,7.994962845018339e-05
0.15,0.0001796976000000487,-0.7851247999999995,4.485079000001803e-05,-2.3557441000000003,0.00010056349000002834,1.5709713,0.7860160500000001,0.04,0.04,-9.825001999999994,0.002921537496153618,-0.0005351524000070311,5.21971470001236e-06,-0.008597803302114237,8.336724000024002e-05
0.1525,0.00018059032500004953,-0.7851172999999996,4.518125995001833e-05,-2.3557503850000003,0.00010108290250002882,1.570970865,0.7860171975,0.04,0.03999999925,-9.824898649999994,0.0029969964874949815,-0.0006640033450071484,5.446221240012566e-06,-0.008690122561534357,8.776565760024402e-05
0.155,0.00018148305000005035,-0.7851097999999995,4.551172990001864e-05,-2.3557566700000003,0.00010160231500002928,1.57097043,0.786018345,0.04,0.0399999985,-9.824795299999995,0.003072455478836345,-0.0007928542900072657,5.672727780012772e-06,-0.008782441820954475,9.216407520024803e-05
0.1575,0.00018237577500005114,-0.7851022999999995,4.584219985001894e-05,-2.3557629550000003,0.00010212172750002976,1.570969995,0.7860194925,0.04,0.03999999775,-9.824691949999995,0.0031479144701777088,-0.000921705235007383,5.899234320012978e-06,-0.008874761080374594,9.656249280025204e-05
0.16,0.00018326850000005196,-0.7850947999999995,4.617266980001924e-05,-2.3557692400000003,0.00010264114000003023,1.57096956,0.78602064,0.04,0.039999997,-9.824588599999993,0.0032233734615190724,-0.0010505561800075002,6.125740860013185e-06,-0.008967080339794714,0.00010096091040025603
0.1625,0.00018416122500005278,-0.7850872999999995,4.650313975001954e-05,-2.3557755250000003,0.0001031605525000307,1.570969125,0.7860217875000001,0.04,0.03999999625,-9.824485249999993,0.003298832452860436,-0.0011794071250076175,6.352247400013391e-06,-0.009059399599214831,0.00010535932800026004
0.165,0.0001850539500000536,-0.7850797999999996,4.683360970001984e-05,-2.3557818100000003,0.00010367996500003119,1.57096869,0.7860229350000001,0.04,0.0399999955,-9.824381899999993,0.0033742914442018,-0.001308258070007735,6.578753940013597e-06,-0.009151718858634951,0.00010975774560026404
0.1675,0.0001860367900000709,-0.7850725799999996,4.7197314500026217e-05,-2.3557877700000005,0.00010425021750004095,1.570968255,0.7860241815000001,0.04,0.03999999525,-9.82431655,0.0034498965833382102,-0.0014337527150072385,6.826329335017655e-06,-0.00924379518256144,0.00011424973930028516
0.17,0.00018719986000007195,-0.7850659199999995,4.762748900002661e-05,-2.3557930800000006,0.00010492215000004156,1.57096782,0.786025626,0.04,0.039999996,-9.8243272,0.0035257940180646345,-0.0015525347600073467,7.116042440017919e-06,-0.009335385635500805,0.00011892888520028941
0.17250000000000001,0.000188362930000073,-0.7850592599999996,4.8057663500027e-05,-2.3557983900000004,0.00010559408250004218,1.5709673849999999,0.7860270705000001,0.04,0.03999999675,-9.824337850000001,0.0036016914527910583,-0.0016713168050074547,7.405755545018183e-06,-0.009426976088440168,0.00012360803110029366
0.17500000000000002,0.00018952600000007405,-0.7850525999999995,4.8487838000027394e-05,-2.3558037000000005,0.00010626601500004278,1.5709669499999999,0.786028515,0.04,0.0399999975,-9.824348500000001,0.003677588887517482,-0.001790098850007563,7.695468650018447e-06,-0.00951856654137953,0.00012828717700029792
0.1775,0.0001906890700000751,-0.7850459399999996,4.8918012500027775e-05,-2.35580901,0.00010693794750004339,1.570966515,0.7860299595000001,0.04,0.03999999825,-9.824359150000001,0.0037534863222439055,-0.0019088808950076697,7.985181755018707e-06,-0.009610156994318893,0.00013296632290030213
0.18,0.00019185214000007615,-0.7850392799999996,4.934818700002817e-05,-2.3558143200000004,0.000107609880000044,1.57096608,0.786031404,0.04,0.039999999,-9.824369800000001,0.0038293837569703297,-0.0020276629400077777,8.274894860018972e-06,-0.009701747447258257,0.0001376454688003064
0.1825,0.00019301521000007722,-0.7850326199999996,4.977836150002856e-05,-2.3558196300000005,0.00010828181250004462,1.570965645,0.7860328485000001,0.04,0.03999999975,-9.824380450000001,0.0039052811916967536,-0.002146444985007886,8.564607965019235e-06,-0.00979333790019762,0.00014232461470031066
0.185,0.00019438817800009945,-0.7850265159999996,5.028592010003676e-05,-2.35582436,0.00010907412600005739,1.57096522,0.7860346530000001,0.04,0.04,-9.824338899999995,0.003986767726024651,-0.002260281360007495,9.013981500035616e-06,-0.009882651083177294,0.00014769973700038517
0.1875,0.0001958660950001008,-0.7850206899999996,5.083217075003726e-05,-2.3558288000000003,0.00010992663000005816,1.5709648,0.7860366375000001,0.04,0.04,-9.824271249999995,0.0040710488101524485,-0.0023716449000075962,9.543185250036099e-06,-0.009970825631177464,0.00015342284750039038
0.19,0.00019734401200010215,-0.7850148639999996,5.137842140003776e-05,-2.3558332400000004,0.00011077913400005892,1.57096438,0.7860386220000001,0.04,0.04,-9.824203599999995,0.0041553298942802455,-0.0024830084400076975,1.007238900003658e-05,-0.010059000179177635,0.00015914595800039561
0.1925,0.0001988219290001035,-0.7850090379999997,5.192467205003826e-05,-2.35583768,0.0001116316380000597,1.57096396,0.7860406065000001,0.04,0.04,-9.824135949999995,0.004239610978408042,-0.002594371980007799,1.0601592750037062e-05,-0.010147174727177804,0.00016486906850040082
0.195,0.00020029984600010485,-0.7850032119999996,5.2470922700038754e-05,-2.35584212,0.00011248414200006048,1.57096354,0.7860425910000001,0.04,0.04,-9.824068299999995,0.004323892062535839,-0.0027057355200079004,1.1130796500037543e-05,-0.010235349275177975,0.00017059217900040603
0.1975,0.0002017777630001062,-0.7849973859999996,5.301717335003925e-05,-2.3558465600000003,0.00011333664600006125,1.5709631199999998,0.7860445755000001,0.04,0.04,-9.824000649999995,0.004408173146663636,-0.002817099060008002,1.1660000250038024e-05,-0.010323523823178145,0.00017631528950041124
0.2,0.00020325568000013382,-0.7849915599999997,5.3563424000049435e-05,-2.3558510000000004,0.00011418915000007711,1.5709627,0.7860465600000002,0.04,0.04,-9.823932999999997,0.004492454230791662,-0.0029284626000071097,1.218920399999824e-05,-0.010411698371178136,0.00018203840000047722
0.2025,0.0002050948180001355,-0.7849865259999996,5.424281390005006e-05,-2.35585499,0.00011524885950007808,1.57096225,0.7860489300000001,0.03999999925,0.04,-9.823889799999996,0.004579887120059541,-0.0030261747450071987,1.2165003899998217e-05,-0.010497394250712094,0.00018859677800048318
0.20500000000000002,0.00020693395600013717,-0.7849814919999997,5.4922203800050675e-05,-2.3558589800000003,0.00011630856900007904,1.5709617999999999,0.7860513000000001,0.0399999985,0.04,-9.823846599999998,0.004667320009327421,-0.0031238868900072877,1.2140803799998194e-05,-0.010583090130246052,0.00019515515600048916
0.20750000000000002,0.00020877309400013885,-0.7849764579999997,5.560159370005129e-05,-2.35586297,0.00011736827850008,1.57096135,0.7860536700000001,0.03999999775,0.04,-9.823803399999997,0.004754752898595301,-0.0032215990350073767,1.2116603699998173e-05,-0.01066878600978001,0.00020171353400049512
0.21,0.0002106122320001405,-0.7849714239999996,5.62809836000519e-05,-2.35586696,0.00011842798800008095,1.5709609,0.7860560400000002,0.039999997,0.04,-9.823760199999997,0.004842185787863179,-0.003319311180007465,1.2092403599998151e-05,-0.010754481889313966,0.00020827191200050102
0.2125,0.00021245137000014218,-0.7849663899999997,5.696037350005252e-05,-2.3558709500000004,0.00011948769750008192,1.5709604499999998,0.7860584100000001,0.03999999625,0.04,-9.823716999999997,0.004929618677131059,-0.003417023325007554,1.2068203499998128e-05,-0.010840177768847924,0.00021483029000050698
0.215,0.00021429050800014386,-0.7849613559999996,5.763976340005314e-05,-2.35587494,0.0001205474070000829,1.57096,0.7860607800000001,0.0399999955,0.04,-9.823673799999998,0.005017051566398938,-0.0035147354700076428,1.2044003399998108e-05,-0.010925873648381882,0.00022138866800051297
0.2175,0.0002162660500001779,-0.7849565949999997,5.836942250006569e-05,-2.355878605,0.00012168508950010237,1.57095955,0.7860633270000001,0.039999994750000004,0.04,-9.823656450000003,0.005105688446208504,-0.003609832255007111,1.2153087500029724e-05,-0.011011671321473276,0.00022819244000057718
0.22,0.00021851440000017995,-0.7849523799999997,5.9199620000066444e-05,-2.3558816200000003,0.00012297871800010353,1.5709590999999998,0.7860662280000001,0.039999994000000004,0.04,-9.823690800000003,0.0051967333071005865,-0.0036996983200071926,1.2528740000030067e-05,-0.011097672581679463,0.0002354870000005838
0.2225,0.000220762750000182,-0.7849481649999996,6.0029817500067204e-05,-2.3558846350000002,0.0001242723465001047,1.57095865,0.7860691290000003,0.039999993250000004,0.04,-9.823725150000003,0.00528777816799267,-0.0037895643850072744,1.2904392500030408e-05,-0.011183673841885651,0.00024278156000059046
0.225,0.00022301110000018403,-0.7849439499999996,6.086001500006796e-05,-2.35588765,0.0001255659750001059,1.5709582,0.7860720300000003,0.0399999925,0.04,-9.823759500000003,0.005378823028884753,-0.003879430450007356,1.3280045000030749e-05,-0.01126967510209184,0.0002500761200005971
0.2275,0.0002252594500001861,-0.7849397349999997,6.169021250006872e-05,-2.355890665,0.0001268596035001071,1.57095775,0.7860749310000003,0.03999999175,0.04,-9.823793850000003,0.005469867889776835,-0.003969296515007438,1.3655697500031091e-05,-0.011355676362298029,0.0002573706800006037
0.23,0.00022750780000018814,-0.7849355199999997,6.252041000006948e-05,-2.3558936800000003,0.00012815323200010827,1.5709573,0.7860778320000003,0.039999991,0.04,-9.823828200000003,0.005560912750668918,-0.00405916258000752,1.4031350000031434e-05,-0.011441677622504217,0.0002646652400006104
0.2325,0.00022975615000019018,-0.7849313049999996,6.335060750007022e-05,-2.355896695,0.00012944686050010945,1.57095685,0.7860807330000003,0.03999999025,0.04,-9.823862550000003,0.0056519576115610015,-0.004149028645007602,1.4407002500031775e-05,-0.011527678882710406,0.000271959800000617
0.23500000000000001,0.00023231019400023144,-0.7849276139999997,6.429344400008543e-05,-2.3558992,0.00013091555900013308,1.57095638,0.7860840400000003,0.0399999894,0.039999999,-9.823847399999996,0.005746430857115204,-0.004230439160006599,1.4818871400036761e-05,-0.011612179130322892,0.0002799335080007108
0.23750000000000002,0.00023501708500023392,-0.7849241849999997,6.529260000008634e-05,-2.35590145,0.00013247179250013447,1.5709559,0.7860875500000003,0.0399999885,0.0399999975,-9.823807499999997,0.005842618294999811,-0.004307621900006669,1.5248848500037152e-05,-0.011695928871638813,0.00028824679000071836
0.24,0.00023772397600023635,-0.7849207559999997,6.629175600008723e-05,-2.3559037000000003,0.0001340280260001359,1.57095542,0.7860910600000003,0.0399999876,0.039999996,-9.823767599999996,0.005938805732884418,-0.0043848046400067385,1.5678825600037538e-05,-0.011779678612954732,0.0002965600720007258
0.2425,0.0002404308670002388,-0.7849173269999997,6.729091200008815e-05,-2.3559059500000004,0.0001355842595001373,1.5709549399999998,0.7860945700000003,0.039999986700000004,0.0399999945,-9.823727699999997,0.0060349931707690254,-0.004461987380006809,1.610880270003793e-05,-0.011863428354270653,0.0003048733540007334
0.245,0.00024313775800024128,-0.7849138979999997,6.829006800008905e-05,-2.3559082000000005,0.0001371404930001387,1.5709544599999998,0.7860980800000004,0.0399999858,0.039999993,-9.823687799999997,0.006131180608653633,-0.004539170120006879,1.6538779800038324e-05,-0.011947178095586574,0.00031318663600074097
0.2475,0.00024584464900024374,-0.7849104689999997,6.928922400008997e-05,-2.3559104500000005,0.00013869672650014013,1.5709539799999999,0.7861015900000003,0.0399999849,0.0399999915,-9.823647899999996,0.006227368046538241,-0.004616352860006949,1.6968756900038713e-05,-0.012030927836902496,0.0003214999180007485
0.25,0.0002485515400002925,-0.7849070399999998,7.028838000010793e-05,-2.3559127,0.00014025296000016804,1.5709535,0.7861051000000003,0.039999984,0.03999999,-9.823608000000002,0.006323555484423048,-0.004693535600005931,1.739873400003297e-05,-0.01211467757821839,0.00032981320000083803
0.2525,0.0002517674740002954,-0.7849044089999998,7.147509600010902e-05,-2.3559144100000005,0.0001421004560001697,1.57095287,0.7861092550000004,0.0399999834,0.0399999897,-9.823621800000002,0.006421941914604693,-0.004758752255005991,1.77612550500333e-05,-0.012198144570000647,0.0003390272380008464
0.255,0.00025498340800029834,-0.7849017779999997,7.26618120001101e-05,-2.3559161200000003,0.0001439479520001714,1.57095224,0.7861134100000003,0.0399999828,0.0399999894,-9.823635600000001,0.006520328344786337,-0.00482396891000605,1.812377610003363e-05,-0.012281611561782903,0.00034824127600085477
0.2575,0.00025819934200030126,-0.7848991469999997,7.384852800011118e-05,-2.3559178300000005,0.0001457954480001731,1.5709516099999998,0.7861175650000004,0.0399999822,0.0399999891,-9.8236494,0.006618714774967982,-0.0048891855650061095,1.848629715003396e-05,-0.012365078553565159,0.0003574553140008632
0.26,0.0002614152760003042,-0.7848965159999998,7.503524400011226e-05,-2.3559195400000004,0.00014764294400017476,1.5709509799999999,0.7861217200000004,0.0399999816,0.0399999888,-9.823663200000002,0.006717101205149627,-0.004954402220006169,1.8848818200034292e-05,-0.012448545545347415,0.00036666935200087156
0.2625,0.0002646312100003071,-0.7848938849999998,7.622196000011334e-05,-2.35592125,0.00014949044000017644,1.57095035,0.7861258750000004,0.039999981,0.0399999885,-9.823677000000002,0.006815487635331271,-0.005019618875006228,1.921133925003462e-05,-0.012532012537129671,0.00037588339000087993
0.265,0.00026784714400031003,-0.7848912539999998,7.740867600011442e-05,-2.3559229600000005,0.00015133793600017814,1.57094972,0.7861300300000004,0.039999980399999996,0.0399999882,-9.823690800000001,0.006913874065512916,-0.005084835530006288,1.957386030003495e-05,-0.012615479528911927,0.00038509742800088835
0.2675,0.0002712499150003675,-0.7848888999999999,7.866421950013559e-05,-2.355924315,0.00015329233500021102,1.570948965,0.7861344300000005,0.03999997985,0.039999988,-9.823715750000005,0.007013336312966944,-0.005145490010005015,1.996983815004505e-05,-0.01269940938801391,0.00039458784400097746
0.27,0.000275026360000371,-0.7848870999999998,8.005741800013686e-05,-2.3559249600000003,0.000155460540000213,1.57094796,0.7861393200000004,0.039999979399999996,0.039999988,-9.823763000000005,0.007114950194964802,-0.005197020140005062,2.043272960004547e-05,-0.012784264981754936,0.0004046310160009866
0.2725,0.0002788028050003744,-0.7848852999999998,8.145061650013813e-05,-2.355925605,0.00015762874500021496,1.570946955,0.7861442100000005,0.03999997895,0.039999988,-9.823810250000005,0.007216564076962659,-0.005248550270005109,2.0895621050045892e-05,-0.012869120575495963,0.0004146741880009957
0.275,0.00028257925000037785,-0.7848834999999998,8.28438150001394e-05,-2.35592625,0.00015979695000021695,1.57094595,0.7861491000000005,0.0399999785,0.039999988,-9.823857500000004,0.007318177958960517,-0.005300080400005156,2.1358512500046312e-05,-0.01295397616923699,0.0004247173600010049
0.2775,0.0002863556950003813,-0.7848816999999998,8.423701350014066e-05,-2.355926895,0.00016196515500021893,1.570944945,0.7861539900000005,0.039999978049999996,0.039999988,-9.823904750000004,0.007419791840958374,-0.005351610530005203,2.1821403950046735e-05,-0.013038831762978017,0.000434760532001014
0.28,0.00029013214000038473,-0.7848798999999999,8.563021200014193e-05,-2.35592754,0.00016413336000022089,1.5709439399999998,0.7861588800000004,0.0399999776,0.039999988,-9.823952000000004,0.0075214057229562314,-0.00540314066000525,2.2284295400047158e-05,-0.013123687356719045,0.0004448037040010232
0.28250000000000003,0.0002939085850003882,-0.7848780999999998,8.702341050014319e-05,-2.355928185,0.00016630156500022287,1.570942935,0.7861637700000005,0.03999997715,0.039999988,-9.823999250000004,0.0076230196049540885,-0.005454670790005296,2.2747186850047578e-05,-0.013208542950460072,0.0004548468760010323
0.28500000000000003,0.0002980935300004551,-0.7848768099999999,8.856709300016788e-05,-2.35592838,0.0001687034240002612,1.5709419199999999,0.7861691750000006,0.0399999763,0.039999987199999996,-9.824010699999999,0.007726801931868894,-0.005495467650003674,2.3190624700044976e-05,-0.013293615542361012,0.000465601000001152
0.28750000000000003,0.00030248272500045916,-0.7848757749999999,9.018601750016934e-05,-2.3559283499999997,0.00017122211000026346,1.5709408999999999,0.7861748375000006,0.03999997525,0.039999986,-9.824004249999998,0.00783166848124167,-0.005530897875003706,2.362433575004537e-05,-0.01337879663334186,0.0004767106000011621
0.29,0.00030687192000046303,-0.7848747399999999,9.180494200017078e-05,-2.35592832,0.0001737407960002657,1.5709398799999998,0.7861805000000006,0.0399999742,0.0399999848,-9.823997799999999,0.007936535030614443,-0.005566328100003738,2.4058046800045754e-05,-0.013463977724322706,0.000487820200001172
0.2925,0.000311261115000467,-0.7848737049999999,9.342386650017226e-05,-2.35592829,0.000176259482000268,1.5709388599999998,0.7861861625000006,0.03999997315,0.0399999836,-9.823991349999998,0.008041401579987218,-0.00560175832500377,2.449175785004615e-05,-0.013549158815303554,0.0004989298000011821
0.295,0.00031565031000047104,-0.7848726699999998,9.504279100017374e-05,-2.35592826,0.00017877816800027029,1.5709378399999998,0.7861918250000006,0.0399999721,0.039999982399999995,-9.8239849,0.008146268129359993,-0.005637188550003802,2.4925468900046544e-05,-0.0136343399062844,0.0005100394000011922
0.2975,0.000320039505000475,-0.7848716349999999,9.666171550017521e-05,-2.35592823,0.00018129685400027258,1.5709368199999998,0.7861974875000006,0.03999997105,0.0399999812,-9.823978449999998,0.008251134678732768,-0.0056726187750038345,2.5359179950046938e-05,-0.013719520997265248,0.0005211490000012023
0.3,0.00032442870000055164,-0.7848706,9.828064000020344e-05,-2.3559282,0.00018381554000031642,1.5709357999999998,0.7862031500000006,0.03999997,0.03999998,-9.823972000000005,0.008356001228105932,-0.005708049000003866,2.579289100006112e-05,-0.013804702088246208,0.0005322586000013176
0.3025,0.00032948348400055626,-0.7848703899999999,0.00010014473890020514,-2.35592748,0.00018671488400031906,1.5709347649999998,0.7862096765000007,0.039999968500000004,0.03999997895,-9.824020000000004,0.008464425476279852,-0.005743468410003898,2.6352903100061626e-05,-0.01389089711011403,0.0005443324150013287
0.305,0.00033453826800056087,-0.78487018,0.00010200883780020683,-2.35592676,0.0001896142280003217,1.57093373,0.7862162030000007,0.039999967000000004,0.0399999779,-9.824068000000004,0.00857284972445377,-0.00577888782000393,2.6912915200062137e-05,-0.013977092131981854,0.0005564062300013397
0.3075,0.0003395930520005655,-0.78486997,0.00010387293670020853,-2.35592604,0.00019251357200032434,1.5709326949999998,0.7862227295000007,0.039999965500000005,0.03999997685,-9.824116000000005,0.008681273972627688,-0.005814307230003962,2.7472927300062648e-05,-0.014063287153849677,0.0005684800450013506
0.31,0.00034464783600057005,-0.78486976,0.00010573703560021023,-2.35592532,0.00019541291600032697,1.5709316599999998,0.7862292560000007,0.039999964,0.0399999758,-9.824164000000005,0.008789698220801608,-0.005849726640003995,2.8032939400063155e-05,-0.014149482175717501,0.0005805538600013616
0.3125,0.00034970262000057466,-0.78486955,0.00010760113450021193,-2.3559246,0.0001983122600003296,1.570930625,0.7862357825000007,0.0399999625,0.03999997475,-9.824212000000005,0.008898122468975526,-0.005885146050004026,2.8592951500063666e-05,-0.014235677197585325,0.0005926276750013727
0.315,0.0003547574040005793,-0.78486934,0.00010946523340021362,-2.3559238799999997,0.00020121160400033225,1.5709295899999998,0.7862423090000007,0.039999961,0.039999973700000004,-9.824260000000006,0.009006546717149445,-0.005920565460004058,2.9152963600064177e-05,-0.014321872219453148,0.0006047014900013837
0.3175,0.0003600518410006669,-0.7848694025000001,0.0001114176012002459,-2.35592283,0.00020424794300038238,1.5709285199999998,0.7862491420000008,0.0399999599,0.039999973,-9.824311500000007,0.009115501120699152,-0.005951024180002372,2.971630975006584e-05,-0.01440850989894084,0.0006170578870014926
0.32,0.00036582558400067216,-0.7848700100000001,0.00011354650680024785,-2.3559211199999996,0.00020755827200038537,1.5709273799999999,0.7862565880000009,0.0399999596,0.039999973,-9.824370000000007,0.009225515834999889,-0.005971561520002391,3.028632400006636e-05,-0.01449603289366781,0.0006299794480015043
0.3225,0.0003715993270006774,-0.7848706175000001,0.00011567541240024978,-2.35591941,0.00021086860100038841,1.57092624,0.7862640340000009,0.0399999593,0.039999973,-9.824428500000007,0.009335530549300624,-0.00599209886000241,3.0856338250066876e-05,-0.01458355588839478,0.0006429010090015161
0.325,0.0003773730700006827,-0.7848712250000001,0.00011780431800025173,-2.3559177,0.0002141789300003914,1.5709250999999997,0.7862714800000008,0.039999959,0.039999973,-9.824487000000007,0.009445545263601359,-0.006012636200002429,3.14263525000674e-05,-0.01467107888312175,0.0006558225700015279
0.3275,0.00038314681300068794,-0.7848718325,0.00011993322360025366,-2.3559159899999997,0.00021748925900039442,1.5709239599999998,0.7862789260000008,0.039999958700000005,0.039999973,-9.824545500000006,0.009555559977902094,-0.0060331735400024475,3.199636675006791e-05,-0.014758601877848719,0.0006687441310015396
0.33,0.0003889205560006932,-0.78487244,0.0001220621292002556,-2.35591428,0.00022079958800039743,1.5709228199999998,0.7862863720000008,0.0399999584,0.039999973,-9.824604000000006,0.00966557469220283,-0.006053710880002466,3.2566381000068435e-05,-0.01484612487257569,0.0006816656920015514
0.3325,0.00039469429900069845,-0.7848730475000001,0.00012419103480025754,-2.3559125699999997,0.00022410991700040045,1.5709216799999999,0.7862938180000009,0.0399999581,0.039999973,-9.824662500000006,0.009775589406503565,-0.006074248220002485,3.313639525006896e-05,-0.014933647867302658,0.0006945872530015631
0.335,0.0004009830900007979,-0.7848742090000002,0.00012650963800029416,-2.35591028,0.0002277147290004573,1.5709202499999997,0.7863019300000009,0.0399999572,0.0399999723,-9.824694500000001,0.009888492152108708,-0.00608557436000082,3.375231300007787e-05,-0.015021364390860673,0.0007082521960017108
0.3375,0.00040752940500080384,-0.7848756475000002,0.00012892309000029636,-2.3559077,0.00023146678250046072,1.5709186749999997,0.786310375000001,0.039999956,0.03999997125,-9.824713250000002,0.010002838913365265,-0.0060922949000008254,3.439118250007845e-05,-0.015109177678834159,0.0007222888300017236
0.34,0.0004140757200008098,-0.7848770860000002,0.00013133654200029856,-2.3559051199999996,0.00023521883600046415,1.5709170999999997,0.786318820000001,0.0399999548,0.0399999702,-9.824732000000003,0.010117185674621824,-0.006099015440000832,3.503005200007903e-05,-0.015196990966807643,0.0007363254640017364
0.3425,0.0004206220350008157,-0.7848785245000002,0.00013374999400030075,-2.3559025399999998,0.00023897088950046756,1.5709155249999998,0.786327265000001,0.0399999536,0.03999996915,-9.824750750000002,0.010231532435878384,-0.006105735980000838,3.566892150007961e-05,-0.015284804254781128,0.0007503620980017492
0.34500000000000003,0.0004271683500008217,-0.7848799630000002,0.00013616344600030295,-2.35589996,0.000242722943000471,1.5709139499999998,0.786335710000001,0.0399999524,0.0399999681,-9.824769500000002,0.010345879197134943,-0.006112456520000844,3.63077910000802e-05,-0.015372617542754614,0.000764398732001762
0.34750000000000003,0.00043371466500082765,-0.7848814015000002,0.00013857689800030515,-2.35589738,0.0002464749965004744,1.5709123749999998,0.786344155000001,0.0399999512,0.03999996705,-9.824788250000003,0.010460225958391502,-0.00611917706000085,3.694666050008078e-05,-0.015460430830728098,0.0007784353660017747
0.35000000000000003,0.00044026098000093884,-0.7848828400000003,0.0001409903500003461,-2.3558947999999997,0.00025022705000053795,1.5709107999999998,0.7863526000000012,0.03999995,0.039999966,-9.824807000000009,0.010574572719648213,-0.006125897599998195,3.758553000008789e-05,-0.015548244118701983,0.0007924720000018978
0.3525,0.0004476337635009454,-0.7848851440000003,0.00014370819250034852,-2.3558914399999997,0.0002544514370005417,1.57090921,0.7863621100000012,0.03999995,0.0399999666,-9.824871500000008,0.01069011306391641,-0.006111723799998183,3.82756881000885e-05,-0.015639199782174477,0.0008073750250019111
0.355,0.0004550065470009521,-0.7848874480000003,0.000146426035000351,-2.3558880799999997,0.00025867582400054557,1.5709076199999998,0.7863716200000012,0.03999995,0.0399999672,-9.824936000000008,0.010805653408184611,-0.00609754999999817,3.896584620008913e-05,-0.015730155445646977,0.0008222780500019247
0.3575,0.00046237933050095886,-0.7848897520000003,0.00014914387750035346,-2.3558847199999997,0.0002629002110005494,1.57090603,0.7863811300000012,0.03999995,0.0399999678,-9.825000500000009,0.010921193752452811,-0.006083376199998157,3.965600430008976e-05,-0.015821111109119476,0.0008371810750019381
0.36,0.00046975211400096555,-0.7848920560000003,0.00015186172000035593,-2.3558813599999997,0.00026712459800055325,1.5709044399999998,0.7863906400000013,0.03999995,0.0399999684,-9.825065000000007,0.01103673409672101,-0.006069202399998144,4.034616240009039e-05,-0.015912066772591972,0.0008520841000019517
0.3625,0.0004771248975009723,-0.7848943600000002,0.0001545795625003584,-2.3558779999999997,0.0002713489850005571,1.57090285,0.7864001500000013,0.03999995,0.039999969,-9.825129500000008,0.01115227444098921,-0.0060550285999981315,4.103632050009102e-05,-0.01600302243606447,0.0008669871250019653
0.365,0.000484497681000979,-0.7848966640000002,0.00015729740500036087,-2.3558746399999997,0.00027557337200056093,1.5709012599999999,0.7864096600000012,0.03999995,0.039999969600000004,-9.825194000000009,0.011267814785257412,-0.006040854799998118,4.1726478600091646e-05,-0.016093978099536967,0.0008818901500019789
0.3675,0.0004921639315011035,-0.7848992620000004,0.0001601233225004067,-2.3558709799999993,0.0002799655340006321,1.5708996599999998,0.7864195500000014,0.03999995,0.0399999698,-9.825253275000007,0.011383207980558757,-0.006024507344997233,4.2403957050087184e-05,-0.016185336653155406,0.0008972131150021609
0.37,0.0005004171160011109,-0.7849024480000004,0.00016316539000040946,-2.3558667199999994,0.00028469324600063634,1.5708980399999999,0.7864302000000014,0.03999995,0.0399999692,-9.825302100000005,0.011498306877926573,-0.006003812579997215,4.305607620008778e-05,-0.016277500987065246,0.0009133759600021756
0.3725,0.0005086703005011185,-0.7849056340000005,0.00016620745750041223,-2.3558624599999995,0.00028942095800064065,1.5708964199999997,0.7864408500000014,0.03999995,0.0399999686,-9.825350925000006,0.011613405775294388,-0.005983117814997196,4.3708195350088376e-05,-0.016369665320975085,0.0009295388050021903
0.375,0.0005169234850011259,-0.7849088200000004,0.000169249525000415,-2.3558581999999992,0.00029414867000064496,1.5708947999999998,0.7864515000000015,0.03999995,0.039999968,-9.825399750000006,0.011728504672662203,-0.005962423049997177,4.4360314500088965e-05,-0.016461829654884925,0.000945701650002205
0.3775,0.0005251766695011335,-0.7849120060000004,0.00017229159250041777,-2.3558539399999994,0.00029887638200064927,1.57089318,0.7864621500000015,0.03999995,0.0399999674,-9.825448575000006,0.011843603570030017,-0.005941728284997158,4.501243365008956e-05,-0.01655399398879476,0.0009618644950022198
0.38,0.000533429854001141,-0.7849151920000005,0.00017533366000042054,-2.355849679999999,0.0003036040940006536,1.5708915599999997,0.7864728000000015,0.03999995,0.0399999668,-9.825497400000007,0.011958702467397832,-0.005921033519997139,4.5664552800090156e-05,-0.0166461583227046,0.0009780273400022345
0.3825,0.0005416830385011485,-0.7849183780000004,0.00017837572750042333,-2.355845419999999,0.0003083318060006579,1.5708899399999998,0.7864834500000015,0.03999995,0.0399999662,-9.825546225000007,0.012073801364765647,-0.005900338754997121,4.6316671950090745e-05,-0.01673832265661444,0.0009941901850022492
0.385,0.0005505591300012869,-0.7849221700000006,0.0001816472170004743,-2.355840569999999,0.00031341538600073696,1.5708880499999998,0.7864948960000017,0.0399999497,0.039999966,-9.82560815000001,0.012196034006792,-0.00587349674999581,4.6998288200097535e-05,-0.01683145482094402,0.0010108526000023688
0.3875,0.0005597466750012953,-0.7849262650000006,0.00018503341750047736,-2.355835424999999,0.00031867690000074173,1.5708860249999996,0.7865067400000018,0.03999994925,0.039999966,-9.82567662500001,0.012321833521145385,-0.005843581124995783,4.769465300009817e-05,-0.01692507090048317,0.0010277648000023842
0.39,0.0005689342200013036,-0.7849303600000006,0.00018841961800048046,-2.3558302799999993,0.0003239384140007465,1.5708839999999997,0.7865185840000017,0.0399999488,0.039999966,-9.82574510000001,0.012447633035498768,-0.005813665499995756,4.83910178000988e-05,-0.017018686980022322,0.0010446770000023997
0.3925,0.000578121765001312,-0.7849344550000006,0.00019180581850048353,-2.355825134999999,0.00032919992800075135,1.5708819749999998,0.7865304280000017,0.03999994835,0.039999966,-9.82581357500001,0.012573432549852154,-0.005783749874995728,4.9087382600099436e-05,-0.017112303059561473,0.001061589200002415
0.395,0.0005873093100013203,-0.7849385500000006,0.00019519201900048663,-2.355819989999999,0.0003344614420007561,1.5708799499999997,0.7865422720000017,0.0399999479,0.039999966,-9.82588205000001,0.012699232064205538,-0.005753834249995701,4.978374740010007e-05,-0.017205919139100623,0.0010785014000024304
0.3975,0.0005964968550013287,-0.7849426450000005,0.0001985782195004897,-2.3558148449999994,0.0003397229560007609,1.5708779249999998,0.7865541160000017,0.039999947450000004,0.039999966,-9.82595052500001,0.012825031578558922,-0.005723918624995674,5.04801122001007e-05,-0.017299535218639774,0.0010954136000024459
0.4,0.0006056844000014809,-0.7849467400000008,0.00020196442000054574,-2.355809699999999,0.0003449844700008479,1.5708758999999999,0.7865659600000019,0.039999947,0.039999966,-9.826019000000011,0.01295083109291206,-0.005694002999991847,5.117647700011462e-05,-0.017393151298179397,0.0011123258000026086
0.4025,0.0006158601750014902,-0.7849517440000007,0.00020571453100054916,-2.355803504999999,0.00035081066500085317,1.5708737399999997,0.7865790670000019,0.039999947,0.0399999666,-9.826094000000012,0.013074932852778063,-0.005637980249991796,5.196407255011533e-05,-0.0174900083802782,0.001130250350002625
0.405,0.0006260359500014994,-0.7849567480000007,0.00020946464200055257,-2.355797309999999,0.00035663686000085847,1.5708715799999997,0.7865921740000019,0.039999947,0.0399999672,-9.82616900000001,0.013199034612644066,-0.005581957499991745,5.2751668100116046e-05,-0.017586865462377,0.0011481749000026413
0.40750000000000003,0.0006362117250015086,-0.7849617520000007,0.000213214753000556,-2.3557911149999993,0.00036246305500086377,1.5708694199999997,0.7866052810000019,0.039999947,0.0399999678,-9.826244000000012,0.013323136372510069,-0.005525934749991694,5.3539263650116764e-05,-0.017683722544475807,0.0011660994500026576
0.41000000000000003,0.0006463875000015178,-0.7849667560000008,0.0002169648640005594,-2.355784919999999,0.00036828925000086907,1.5708672599999998,0.786618388000002,0.039999947,0.0399999684,-9.82631900000001,0.013447238132376072,-0.005469911999991643,5.432685920011748e-05,-0.01778057962657461,0.0011840240000026737
0.41250000000000003,0.0006565632750015272,-0.7849717600000007,0.00022071497500056282,-2.355778724999999,0.00037411544500087437,1.5708650999999996,0.786631495000002,0.039999947,0.039999969,-9.826394000000011,0.013571339892242075,-0.005413889249991592,5.51144547501182e-05,-0.01787743670867341,0.00120194855000269
0.41500000000000004,0.0006667390500015364,-0.7849767640000007,0.00022446508600056623,-2.355772529999999,0.00037994164000087967,1.5708629399999996,0.786644602000002,0.039999947,0.039999969600000004,-9.82646900000001,0.013695441652108079,-0.0053578664999915405,5.5902050300118916e-05,-0.017974293790772217,0.0012198731000027064
0.4175,0.0006772621000017036,-0.7849820830000008,0.00022834309450062783,-2.355766019999999,0.0003859663000009753,1.5708607399999996,0.7866581560000022,0.03999994735,0.039999970350000004,-9.826536150000008,0.013820602325741897,-0.00529940624999038,5.6697299300123107e-05,-0.018071679212167843,0.001238178625002896
0.42,0.0006884797000017139,-0.7849880320000009,0.0002324768980006316,-2.355758879999999,0.0003923878900009811,1.5708584599999995,0.7866726040000022,0.0399999484,0.0399999714,-9.826587600000007,0.013947880826909906,-0.005236070999990323,5.750785520012384e-05,-0.018170121312156402,0.0012572461000029133
0.4225,0.0006996973000017241,-0.7849939810000008,0.00023661070150063536,-2.3557517399999988,0.000398809480000987,1.5708561799999996,0.7866870520000022,0.03999994945,0.039999972450000004,-9.826639050000008,0.014075159328077918,-0.0051727357499902656,5.8318411100124584e-05,-0.018268563412144962,0.0012763135750029307
0.425,0.0007109149000017344,-0.7849999300000009,0.00024074450500063914,-2.355744599999999,0.00040523107000099283,1.5708538999999995,0.7867015000000023,0.0399999505,0.0399999735,-9.826690500000007,0.014202437829245929,-0.005109400499990207,5.912896700012532e-05,-0.018367005512133522,0.0012953810500029481
0.4275,0.0007221325000017445,-0.7850058790000009,0.0002448783085006429,-2.355737459999999,0.0004116526600009987,1.5708516199999996,0.7867159480000022,0.039999951549999996,0.03999997455,-9.826741950000008,0.01432971633041394,-0.00504606524999015,5.9939522900126054e-05,-0.01846544761212208,0.0013144485250029655
0.43,0.0007333501000017547,-0.7850118280000009,0.00024901211200064667,-2.355730319999999,0.00041807425000100454,1.5708493399999996,0.7867303960000023,0.0399999526,0.0399999756,-9.826793400000009,0.01445699483158195,-0.0049827299999900924,6.0750078800126796e-05,-0.01856388971211064,0.0013335160000029827
0.4325,0.000744567700001765,-0.7850177770000009,0.0002531459155006504,-2.3557231799999987,0.0004244958400010104,1.5708470599999995,0.7867448440000023,0.039999953649999996,0.03999997665,-9.826844850000008,0.014584273332749961,-0.004919394749990034,6.156063470012754e-05,-0.0186623318120992,0.0013525834750030001
0.435,0.0007565154400019485,-0.785024354000001,0.000257548608000718,-2.3557153799999986,0.00043133452000111526,1.5708444899999996,0.7867602280000026,0.039999954,0.039999977299999996,-9.826908600000012,0.014713385794332337,-0.00484448939998723,6.239569900013409e-05,-0.018762092664853722,0.0013722443700031584
0.4375,0.0007688282500019597,-0.7850312450000011,0.00026208574500072215,-2.3557072499999987,0.00043838174500112167,1.5708417749999994,0.7867760800000025,0.039999954,0.03999997775,-9.826978500000012,0.014843415236121246,-0.004763798999987157,6.324301750013486e-05,-0.018862512893990758,0.0013922019750031765
0.44,0.0007811410600019709,-0.785038136000001,0.00026662288200072625,-2.355699119999999,0.0004454289700011281,1.5708390599999995,0.7867919320000025,0.039999954,0.0399999782,-9.827048400000011,0.014973444677910154,-0.0046831085999870835,6.409033600013562e-05,-0.018962933123127794,0.0014121595800031946
0.4425,0.0007934538700019821,-0.7850450270000011,0.0002711600190007304,-2.355690989999999,0.0004524761950011345,1.5708363449999996,0.7868077840000026,0.039999954,0.03999997865,-9.827118300000011,0.015103474119699062,-0.00460241819998701,6.49376545001364e-05,-0.01906335335226483,0.0014321171850032127
0.445,0.0008057666800019934,-0.7850519180000011,0.0002756971560007345,-2.3556828599999986,0.0004595234200011409,1.5708336299999996,0.7868236360000026,0.039999954,0.0399999791,-9.82718820000001,0.015233503561487971,-0.004521727799986937,6.578497300013717e-05,-0.019163773581401866,0.001452074790003231
0.4475,0.0008180794900020046,-0.7850588090000011,0.00028023429300073866,-2.3556747299999987,0.0004665706450011473,1.5708309149999995,0.7868394880000026,0.039999954,0.039999979549999995,-9.82725810000001,0.01536353300327688,-0.004441037399986863,6.663229150013795e-05,-0.019264193810538906,0.0014720323950032491
0.45,0.0008303923000022037,-0.7850657000000013,0.000284771430000812,-2.355666599999999,0.00047361787000126115,1.5708281999999996,0.7868553400000029,0.039999954,0.03999998,-9.827328000000014,0.015493562445066202,-0.004360346999983657,6.747961000014947e-05,-0.01936461403967657,0.0014919900000034548
0.4525,0.0008438533900022161,-0.7850735750000013,0.0002897314350008165,-2.3556574199999987,0.00048132118450126815,1.5708254249999996,0.7868726665000029,0.03999995295,0.03999997895,-9.827414250000015,0.015626117214582305,-0.004260522104983566,6.83926339001503e-05,-0.01946887066589521,0.0015130940700034741
0.455,0.0008573144800022283,-0.7850814500000013,0.000294691440000821,-2.3556482399999985,0.0004890244990012752,1.5708226499999995,0.7868899930000028,0.0399999519,0.0399999779,-9.827500500000014,0.015758671984098412,-0.004160697209983476,6.930565780015113e-05,-0.019573127292113846,0.0015341981400034935
0.4575,0.0008707755700022406,-0.7850893250000013,0.00029965144500082553,-2.3556390599999983,0.0004967278135012822,1.5708198749999995,0.7869073195000029,0.03999995085,0.03999997685,-9.827586750000014,0.01589122675361452,-0.004060872314983385,7.021868170015196e-05,-0.019677383918332486,0.0015553022100035126
0.46,0.0008842366600022528,-0.7850972000000013,0.0003046114500008301,-2.3556298799999986,0.0005044311280012892,1.5708170999999995,0.7869246460000029,0.0399999498,0.0399999758,-9.827673000000013,0.016023781523130623,-0.0039610474199832935,7.11317056001528e-05,-0.019781640544551126,0.001576406280003532
0.4625,0.0008976977500022651,-0.7851050750000013,0.0003095714550008346,-2.3556206999999985,0.0005121344425012962,1.5708143249999995,0.786941972500003,0.03999994875,0.03999997475,-9.827759250000014,0.01615633629264673,-0.003861222524983203,7.204472950015363e-05,-0.019885897170769766,0.0015975103500035512
0.465,0.0009111588400022773,-0.7851129500000014,0.0003145314600008391,-2.3556115199999983,0.0005198377570013032,1.5708115499999995,0.7869592990000029,0.0399999477,0.039999973700000004,-9.827845500000015,0.016288891062162834,-0.003761397629983112,7.295775340015446e-05,-0.019990153796988406,0.0016186144200035703
0.4675,0.0009250202050024939,-0.7851211650000015,0.00031963886550091884,-2.355601979999998,0.0005277697075014269,1.5708087049999995,0.7869771445000032,0.0399999468,0.039999973,-9.82792440000001,0.016421997267775653,-0.003658050189981224,7.38876350001639e-05,-0.020094942394661943,0.0016400165600037417
0.47000000000000003,0.0009396821200025071,-0.7851300600000015,0.00032504107200092376,-2.3555917199999983,0.0005361589300014345,1.5708057199999996,0.7869960280000032,0.039999946200000004,0.039999973,-9.82798860000001,0.01655620634558105,-0.003547657659981123,7.485123200016477e-05,-0.02020079493524446,0.0016620148400037617
0.47250000000000003,0.0009543440350025205,-0.7851389550000015,0.0003304432785009287,-2.355581459999998,0.0005445481525014422,1.5708027349999996,0.7870149115000032,0.0399999456,0.039999973,-9.82805280000001,0.016690415423386448,-0.0034372651299810226,7.581482900016565e-05,-0.020306647475826976,0.0016840131200037817
0.47500000000000003,0.0009690059500025339,-0.7851478500000015,0.0003358454850009336,-2.355571199999998,0.0005529373750014498,1.5707997499999995,0.7870337950000033,0.039999945,0.039999973,-9.828117000000011,0.016824624501191845,-0.0033268725999809224,7.677842600016653e-05,-0.020412500016409492,0.0017060114000038017
0.47750000000000004,0.0009836678650025472,-0.7851567450000015,0.0003412476915009385,-2.3555609399999984,0.0005613265975014574,1.5707967649999994,0.7870526785000033,0.0399999444,0.039999973,-9.828181200000012,0.016958833578997242,-0.0032164800699808218,7.77420230001674e-05,-0.020518352556992008,0.0017280096800038217
0.48,0.0009983297800025602,-0.7851656400000016,0.0003466498980009433,-2.355550679999998,0.0005697158200014649,1.5707937799999996,0.7870715620000033,0.0399999438,0.039999973,-9.82824540000001,0.017093042656802636,-0.0031060875399807238,7.870562000016826e-05,-0.020624205097574524,0.0017500079600038412
0.4825,0.0010129916950025735,-0.7851745350000016,0.0003520521045009482,-2.3555404199999983,0.0005781050425014726,1.5707907949999995,0.7870904455000033,0.039999943200000006,0.039999973,-9.828309600000011,0.017227251734608033,-0.002995695009980623,7.966921700016913e-05,-0.02073005763815704,0.0017720062400038612
0.485,0.001028488940002808,-0.7851841250000017,0.00035776193300103456,-2.355529439999998,0.0005869715080016065,1.5707875999999994,0.7871103960000035,0.039999943,0.039999973,-9.828381500000013,0.0173651240766294,-0.0028708669799767023,8.060388690016236e-05,-0.020837637782115923,0.0017947721400040845
0.4875,0.0010444038500028224,-0.7851940625000018,0.00036362557250103986,-2.355518099999998,0.0005960765950016148,1.5707842999999995,0.7871308800000036,0.039999943,0.039999973,-9.828457250000014,0.0175048280507573,-0.002738821199976582,8.15240932501632e-05,-0.020946081727762307,0.0018179218500041056
0.49,0.001060318760002837,-0.7852040000000018,0.0003694892120010452,-2.3555067599999977,0.000605181682001623,1.5707809999999995,0.7871513640000036,0.039999943,0.039999973,-9.828533000000014,0.017644532024885203,-0.002606775419976462,8.244429960016404e-05,-0.02105452567340869,0.0018410715600041267
0.4925,0.0010762336700028514,-0.7852139375000018,0.00037535285150105057,-2.355495419999998,0.0006142867690016314,1.5707776999999994,0.7871718480000036,0.039999943,0.039999973,-9.828608750000015,0.017784235999013107,-0.0024747296399763416,8.336450595016487e-05,-0.021162969619055075,0.0018642212700041478
0.495,0.0010921485800028659,-0.7852238750000018,0.0003812164910010559,-2.355484079999998,0.0006233918560016396,1.5707743999999995,0.7871923320000037,0.039999943,0.039999973,-9.828684500000014,0.01792393997314101,-0.0023426838599762212,8.42847123001657e-05,-0.02127141356470146,0.0018873709800041687
0.4975,0.0011080634900028803,-0.7852338125000018,0.0003870801305010612,-2.355472739999998,0.0006324969430016479,1.5707710999999995,0.7872128160000037,0.039999943,0.039999973,-9.828760250000014,0.01806364394726891,-0.0022106380799761013,8.520491865016654e-05,-0.021379857510347842,0.0019105206900041898
0.5,0.0011239784000031323,-0.785243750000002,0.00039294377000115397,-2.3554613999999976,0.0006416020300017918,1.5707677999999994,0.787233300000004,0.039999943,0.039999973,-9.828836000000015,0.018203347921396856,-0.002078592299972273,8.612512500017412e-05,-0.02148830145599479,0.0019336704000043733
0.5025000000000001,0.0011411978900031483,-0.7852547375000021,0.0003992878295011599,-2.3554489499999978,0.000651452233001801,1.5707643049999993,0.7872554700000041,0.03999994405,0.03999997465,-9.828917300000015,0.018343288544590972,-0.0019261613849721308,8.708239065017501e-05,-0.021599850896766234,0.0019577121450043956
0.505,0.0011584173800031636,-0.785265725000002,0.00040563188900116554,-2.3554364999999975,0.0006613024360018096,1.5707608099999995,0.7872776400000041,0.0399999451,0.039999976300000004,-9.828998600000016,0.01848322916778508,-0.0017737304699719954,8.803965630017587e-05,-0.021711400337537674,0.001981753890004417
0.5075000000000001,0.0011756368700031796,-0.7852767125000021,0.00041197594850117146,-2.3554240499999977,0.0006711526390018189,1.5707573149999994,0.787299810000004,0.03999994615,0.03999997795,-9.829079900000016,0.018623169790979197,-0.0016212995549718533,8.899692195017675e-05,-0.021822949778309116,0.002005795635004439
0.51,0.0011928563600031947,-0.785287700000002,0.0004183200080011771,-2.355411599999998,0.0006810028420018276,1.5707538199999993,0.7873219800000041,0.039999947200000004,0.0399999796,-9.829161200000016,0.018763110414173306,-0.0014688686399717179,8.99541876001776e-05,-0.021934499219080555,0.0020298373800044607
0.5125,0.00121007585000321,-0.7852986875000021,0.0004246640675011827,-2.355399149999998,0.0006908530450018363,1.5707503249999994,0.7873441500000041,0.03999994825,0.039999981250000004,-9.829242500000015,0.018903051037367415,-0.0013164377249715825,9.091145325017846e-05,-0.022046048659851998,0.002053879125004482
0.515,0.001227295340003226,-0.7853096750000021,0.0004310081270011886,-2.3553866999999977,0.0007007032480018455,1.5707468299999994,0.7873663200000041,0.0399999493,0.0399999829,-9.829323800000015,0.01904299166056153,-0.0011640068099714404,9.186871890017934e-05,-0.02215759810062344,0.0020779208700045042
0.5175,0.0012449667050034967,-0.7853210300000023,0.0004375185960012882,-2.3553738449999977,0.0007108115525020001,1.5707432049999992,0.7873890700000045,0.0399999502,0.0399999843,-9.829404700000016,0.01918420707809649,-0.0010076109053190657,9.282387770017902e-05,-0.022269986756167343,0.0021023035150047184
0.52,0.001263541820003514,-0.7853331200000023,0.00044436188400129463,-2.3553601799999977,0.00072143606000201,1.5707393199999993,0.7874129800000045,0.039999950799999996,0.039999985200000004,-9.829484800000015,0.019327972084310998,-0.0008432850213689125,9.37748228001799e-05,-0.02238405384125476,0.0021273679600047417
0.5225,0.0012821169350035306,-0.7853452100000023,0.0004512051720013007,-2.3553465149999977,0.0007320605675020194,1.5707354349999993,0.7874368900000045,0.0399999514,0.0399999861,-9.829564900000015,0.019471737090525503,-0.0006789591374187666,9.472576790018075e-05,-0.02249812092634217,0.002152432405004764
0.525,0.0013006920500035477,-0.7853573000000024,0.0004580484600013071,-2.3553328499999977,0.0007426850750020293,1.5707315499999992,0.7874608000000045,0.039999952,0.039999987,-9.829645000000015,0.019615502096740012,-0.0005146332534686134,9.567671300018164e-05,-0.022612188011429588,0.002177496850004787
0.5275,0.0013192671650035642,-0.7853693900000024,0.00046489174800131317,-2.3553191849999977,0.0007533095825020388,1.5707276649999993,0.7874847100000045,0.0399999526,0.0399999879,-9.829725100000015,0.019759267102954513,-0.00035030736951846737,9.662765810018248e-05,-0.022726255096516997,0.0022025612950048097
0.53,0.0013378422800035816,-0.7853814800000024,0.00047173503600131953,-2.3553055199999973,0.0007639340900020486,1.5707237799999991,0.7875086200000045,0.0399999532,0.0399999888,-9.829805200000015,0.019903032109169022,-0.00018598148556831417,9.757860320018337e-05,-0.022840322181604415,0.002227625740004833
0.5325,0.0013564173950035981,-0.7853935700000023,0.0004785783240013256,-2.3552918549999973,0.0007745585975020581,1.5707198949999992,0.7875325300000046,0.039999953799999995,0.0399999897,-9.829885300000015,0.020046797115383524,-2.1655601618168242e-05,9.852954830018422e-05,-0.022954389266691827,0.0022526901850048555
0.535,0.0013759298200038891,-0.7854064000000026,0.00048576677400143277,-2.355277409999997,0.0007857186100022244,1.5707158999999993,0.7875576400000049,0.039999954,0.0399999905,-9.829960900000014,0.020192888751654623,0.00016011111373707726,9.950360160019185e-05,-0.02307047527285707,0.0022784365000050777
0.5375,0.001395910900003907,-0.7854196000000025,0.0004931278050014393,-2.355262574999997,0.0007971463750022345,1.5707118499999992,0.787583350000005,0.039999954,0.03999999125,-9.830034250000015,0.020340143702952996,0.00035059824478724644,0.00010048920900019273,-0.023187570739560345,0.002304523750005101
0.54,0.0014158919800039255,-0.7854328000000026,0.0005004888360014461,-2.355247739999997,0.0008085741400022452,1.5707077999999992,0.7876090600000051,0.039999954,0.039999992,-9.830107600000014,0.020487398654251372,0.0005410853758374242,0.00010147481640019365,-0.023304666206263626,0.0023306110000051255
0.5425,0.0014358730600039433,-0.7854460000000026,0.0005078498670014527,-2.355232904999997,0.0008200019050022553,1.5707037499999992,0.787634770000005,0.039999954,0.039999992750000005,-9.830180950000015,0.02063465360554974,0.0007315725068875933,0.00010246042380019451,-0.0234217616729669,0.0023566982500051485
0.545,0.001455854140003962,-0.7854592000000026,0.0005152108980014595,-2.355218069999997,0.000831429670002266,1.5706996999999991,0.7876604800000051,0.039999954,0.039999993500000004,-9.830254300000014,0.020781908556848118,0.000922059637937771,0.00010344603120019543,-0.023538857139670178,0.002382785500005173
0.5475,0.0014758352200039797,-0.7854724000000026,0.0005225719290014661,-2.3552032349999967,0.0008428574350022762,1.570695649999999,0.7876861900000052,0.039999954,0.039999994250000004,-9.830327650000015,0.02092916350814649,0.00111254676898794,0.00010443163860019631,-0.023655952606373452,0.002408872750005196
0.55,0.0014958163000042897,-0.7854856000000029,0.0005299329600015802,-2.3551883999999967,0.0008542852000024532,1.570691599999999,0.7877119000000056,0.039999954,0.039999995,-9.830401000000016,0.021076418459445745,0.0013030339000408213,0.00010541724600019623,-0.023773048073077247,0.002434960000005451
0.5525,0.0015172531600043087,-0.7854999625000029,0.0005378301210015872,-2.3551722899999965,0.0008665443010024641,1.5706871299999992,0.7877394850000056,0.0399999546,0.03999999575,-9.830481400000016,0.021228052396357704,0.0015070318150410024,0.0001063978266001971,-0.023892712872499382,0.002462199910005475
0.555,0.0015386900200043286,-0.7855143250000028,0.0005457272820015946,-2.3551561799999967,0.0008788034020024755,1.570682659999999,0.7877670700000056,0.0399999552,0.0399999965,-9.830561800000016,0.02137968633326967,0.0017110297300411926,0.00010737840720019801,-0.024012377671921523,0.0024894398200055005
0.5575,0.0015601268800043476,-0.7855286875000029,0.0005536244430016016,-2.355140069999997,0.0008910625030024863,1.570678189999999,0.7877946550000057,0.0399999558,0.03999999725,-9.830642200000016,0.02153132027018163,0.0019150276450413737,0.00010835898780019888,-0.02413204247134366,0.0025166797300055247
0.56,0.0015815637400043677,-0.7855430500000029,0.000561521604001609,-2.3551239599999967,0.0009033216040024978,1.5706737199999992,0.7878222400000057,0.0399999564,0.039999998,-9.830722600000017,0.021682954207093597,0.002119025560041564,0.0001093395684001998,-0.024251707270765803,0.0025439196400055502
0.5625,0.0016030006000043867,-0.7855574125000029,0.000569418765001616,-2.355107849999997,0.0009155807050025087,1.5706692499999992,0.7878498250000057,0.039999957,0.03999999875,-9.830803000000017,0.021834588144005556,0.002323023475041745,0.00011032014900020066,-0.024371372070187938,0.0025711595500055744
0.5650000000000001,0.0016244374600044066,-0.7855717750000029,0.0005773159260016234,-2.3550917399999967,0.0009278398060025201,1.570664779999999,0.7878774100000057,0.039999957600000004,0.0399999995,-9.830883400000017,0.021986222080917522,0.0025270213900419353,0.00011130072960020158,-0.02449103686961008,0.0025983994600056
0.5675,0.0016463759200047363,-0.7855865150000032,0.0005853978000017448,-2.3550752349999966,0.0009403856480027085,1.5706602399999992,0.7879056375000061,0.0399999578,0.04,-9.830961600000016,0.022138221561940244,0.0027396410750474567,0.0001122970612002122,-0.024611703492726344,0.002625936395005808
0.5700000000000001,0.0016693175800047578,-0.7856020100000032,0.0005938491000017527,-2.3550579399999965,0.0009535049720027208,1.5706555599999992,0.7879351500000061,0.0399999572,0.04,-9.831035400000015,0.022290952131183817,0.002969504300047671,0.00011332489480021316,-0.024734373763229022,0.002654067380005834
0.5725,0.0016922592400047782,-0.7856175050000032,0.0006023004000017602,-2.3550406449999968,0.0009666242960027324,1.5706508799999992,0.7879646625000062,0.0399999566,0.04,-9.831109200000016,0.022443682700427382,0.0031993675250478752,0.00011435272840021408,-0.02485704403373169,0.002682198365005859
0.5750000000000001,0.0017152009000047995,-0.7856330000000032,0.0006107517000017681,-2.3550233499999966,0.0009797436200027446,1.5706461999999992,0.7879941750000062,0.039999955999999996,0.04,-9.831183000000015,0.022596413269670955,0.0034292307500480897,0.00011538056200021504,-0.024979714304234363,0.0027103293500058854
0.5775,0.0017381425600048199,-0.7856484950000032,0.0006192030000017756,-2.3550060549999965,0.0009928629440027563,1.570641519999999,0.7880236875000062,0.0399999554,0.04,-9.831256800000016,0.02274914383891452,0.003659093975048294,0.00011640839560021594,-0.025102384574737034,0.0027384603350059105
0.58,0.0017610842200048403,-0.7856639900000032,0.0006276543000017831,-2.3549887599999964,0.0010059822680027679,1.570636839999999,0.7880532000000062,0.0399999548,0.04,-9.831330600000015,0.022901874408158086,0.003888957200048498,0.00011743622920021686,-0.0252250548452397,0.0027665913200059355
0.5825,0.0017840258800048618,-0.7856794850000033,0.000636105600001791,-2.3549714649999967,0.0010191015920027803,1.570632159999999,0.7880827125000063,0.0399999542,0.04,-9.831404400000016,0.02305460497740166,0.004118820425048712,0.00011846406280021782,-0.025347725115742376,0.002794722305005962
0.585,0.0018080029700052126,-0.7856958020000036,0.0006449382150019202,-2.354953279999996,0.0010328120000029806,1.570627209999999,0.7881135610000067,0.039999953299999995,0.0399999995,-9.831487100000018,0.02321014925840855,0.004356658550051462,0.00011950197260022195,-0.02547229621562045,0.0028235358400062046
0.5875,0.0018324977750052355,-0.7857125300000035,0.0006539614875019287,-2.354934649999996,0.0010468179500029936,1.570622124999999,0.7881450775000067,0.03999995225,0.03999999875,-9.831574250000019,0.023367100395295774,0.004598484125051688,0.00012054492050022292,-0.025597817730185327,0.0028526906500062317
0.59,0.0018569925800052574,-0.7857292580000036,0.0006629847600019366,-2.354916019999996,0.001060823900003006,1.570617039999999,0.7881765940000068,0.0399999512,0.039999998,-9.83166140000002,0.023524051532182986,0.004840309700051903,0.00012158786840022384,-0.0257233392447502,0.0028818454600062575
0.5925,0.00188148738500528,-0.7857459860000036,0.000672008032501945,-2.354897389999996,0.0010748298500030192,1.570611954999999,0.7882081105000068,0.03999995015,0.03999999725,-9.831748550000018,0.02368100266907021,0.005082135275052128,0.00012263081630022483,-0.025848860759315077,0.0029110002700062847
0.595,0.001905982190005302,-0.7857627140000036,0.0006810313050019531,-2.354878759999996,0.0010888358000030315,1.5706068699999989,0.7882396270000068,0.0399999491,0.0399999965,-9.831835700000019,0.02383795380595742,0.005323960850052343,0.00012367376420022573,-0.025974382273879947,0.0029401550800063105
0.5975,0.0019304769950053246,-0.7857794420000036,0.0006900545775019615,-2.354860129999996,0.0011028417500030447,1.570601784999999,0.7882711435000069,0.03999994805,0.03999999575,-9.83192285000002,0.023994904942844644,0.005565786425052568,0.00012471671210022672,-0.026099903788444824,0.0029693098900063376
0.6,0.001954971800005696,-0.7857961700000039,0.0006990778500020981,-2.3548414999999956,0.0011168477000032566,1.570596699999999,0.7883026600000074,0.039999947,0.039999995,-9.832010000000016,0.02415185607973286,0.005807612000059325,0.00012575966000021404,-0.026225425303010367,0.0029984647000065876
0.6025,0.0019810672100057203,-0.7858140995000039,0.0007086905775021071,-2.3548216249999956,0.0011317676000032705,1.570591329999999,0.7883362360000074,0.0399999464,0.039999995,-9.832087100000017,0.02431339602920972,0.006079407590059579,0.00012674033000021495,-0.026354017108706967,0.0030286456750066157
0.605,0.0020071626200057436,-0.7858320290000039,0.0007183033050021157,-2.3548017499999956,0.0011466875000032838,1.570585959999999,0.7883698120000074,0.0399999458,0.039999995,-9.832164200000017,0.024474935978686573,0.00635120318005982,0.00012772100000021583,-0.02648260891440356,0.0030588266500066424
0.6075,0.002033258030005768,-0.7858499585000039,0.0007279160325021246,-2.3547818749999956,0.0011616074000032977,1.570580589999999,0.7884033880000074,0.039999945200000005,0.039999995,-9.832241300000018,0.024636475928163433,0.006622998770060073,0.00012870167000021674,-0.02661120072010016,0.0030890076250066705
0.61,0.002059353440005791,-0.785867888000004,0.0007375287600021332,-2.3547619999999956,0.001176527300003311,1.570575219999999,0.7884369640000075,0.039999944600000004,0.039999995,-9.832318400000016,0.024798015877640286,0.006894794360060314,0.00012968234000021762,-0.026739792525796755,0.0031191886000066973
0.6125,0.0020854488500058155,-0.785885817500004,0.0007471414875021422,-2.3547421249999956,0.0011914472000033247,1.570569849999999,0.7884705400000075,0.039999944,0.039999995,-9.832395500000016,0.024959555827117147,0.007166589950060568,0.00013066301000021853,-0.026868384331493356,0.0031493695750067253
0.615,0.0021115442600058384,-0.785903747000004,0.0007567542150021506,-2.3547222499999956,0.001206367100003338,1.570564479999999,0.7885041160000076,0.0399999434,0.039999995,-9.832472600000017,0.025121095776594,0.007438385540060809,0.0001316436800002194,-0.02699697613718995,0.0031795505500067526
0.6175,0.002138188790006233,-0.7859221030000043,0.0007665691685022959,-2.3547019149999953,0.0012216005550035633,1.5705589949999987,0.788538387000008,0.03999994265,0.03999999465,-9.832547300000016,0.025279929861460753,0.0077160748700650355,0.0001326241750002202,-0.027126512862771398,0.00321011669000704
0.62,0.002165931560006258,-0.7859413120000043,0.000776788574002305,-2.354680659999995,0.0012374611200035774,1.5705532799999988,0.7885740480000081,0.039999941600000005,0.039999993600000006,-9.832617200000016,0.025433352217112744,0.008005551680065292,0.00013360432000022107,-0.027257939428120624,0.003241453160007068
0.6225,0.0021936743300062836,-0.7859605210000044,0.0007870079795023145,-2.354659404999995,0.0012533216850035922,1.5705475649999987,0.788609709000008,0.03999994055,0.03999999255,-9.832687100000015,0.02558677457276474,0.008295028490065562,0.000134584465000222,-0.027389365993469857,0.003272789630007097
0.625,0.002221417100006308,-0.7859797300000043,0.0007972273850023236,-2.354638149999995,0.0012691822500036061,1.5705418499999988,0.7886453700000081,0.0399999395,0.0399999915,-9.832757000000015,0.025740196928416732,0.00858450530006582,0.00013556461000022288,-0.027520792558819084,0.003304126100007125
0.6275000000000001,0.002249159870006334,-0.7859989390000044,0.0008074467905023332,-2.354616894999995,0.0012850428150036211,1.5705361349999987,0.7886810310000082,0.03999993845,0.03999999045,-9.832826900000017,0.02589361928406873,0.008873982110066089,0.00013654475500022377,-0.027652219124168313,0.0033354625700071543
0.63,0.0022769026400063586,-0.7860181480000044,0.0008176661960023423,-2.354595639999995,0.001300903380003635,1.5705304199999988,0.7887166920000082,0.0399999374,0.0399999894,-9.832896800000016,0.02604704163972072,0.009163458920066347,0.00013752490000022466,-0.027783645689517543,0.003366799040007182
0.6325000000000001,0.0023046454100063844,-0.7860373570000044,0.0008278856015023518,-2.354574384999995,0.0013167639450036499,1.5705247049999986,0.7887523530000082,0.03999993635,0.03999998835,-9.832966700000016,0.026200463995372722,0.009452935730066617,0.00013850504500022558,-0.027915072254866773,0.0033981355100072114
0.635,0.0023335169700068,-0.7860574140000047,0.0008385207330025049,-2.3545521399999947,0.0013332693300038875,1.5705187199999986,0.7887894700000088,0.0399999356,0.039999988,-9.833051600000022,0.02637058645490948,0.009755887300071544,0.00013954411000024686,-0.02804848290982964,0.003430068130007446
0.6375000000000001,0.0023629529250068274,-0.7860778950000048,0.000849363727502515,-2.3545293999999948,0.0013500971250039033,1.5705125999999985,0.7888273150000088,0.039999935,0.039999988,-9.833144000000022,0.02654905896637997,0.010065576250071833,0.00014061263500024786,-0.028182885609598297,0.003462298825007476
0.64,0.0023923888800068535,-0.7860983760000048,0.0008602067220025246,-2.3545066599999944,0.0013669249200039181,1.5705064799999986,0.7888651600000088,0.0399999344,0.039999988,-9.833236400000022,0.026727531477850452,0.010375265200072106,0.0001416811600002488,-0.02831728830936695,0.0034945295200075046
0.6425,0.00242182483500688,-0.7861188570000048,0.0008710497165025342,-2.3544839199999945,0.001383752715003933,1.5705003599999985,0.7889030050000089,0.0399999338,0.039999988,-9.833328800000022,0.02690600398932094,0.010684954150072382,0.00014274968500024976,-0.028451691009135607,0.0035267602150075334
0.645,0.0024512607900069074,-0.7861393380000048,0.0008818927110025444,-2.3544611799999946,0.0014005805100039488,1.5704942399999986,0.7889408500000089,0.039999933200000004,0.039999988,-9.833421200000021,0.02708447650079143,0.01099464310007267,0.00014381821000025076,-0.02858609370890427,0.0035589909100075634
0.6475,0.0024806967450069334,-0.7861598190000049,0.0008927357055025539,-2.3544384399999947,0.0014174083050039637,1.5704881199999985,0.788978695000009,0.0399999326,0.039999988,-9.833513600000021,0.027262949012261912,0.011304332050072946,0.0001448867350002517,-0.02872049640867292,0.003591221605007592
0.65,0.002510132700007372,-0.7861803000000052,0.0009035787000027154,-2.3544156999999943,0.001434236100004214,1.5704819999999984,0.7890165400000094,0.039999932,0.039999988,-9.833606000000016,0.027441421523730882,0.011614021000078948,0.0001459552600002486,-0.028854899108442193,0.003623452300007865
0.6525,0.0025413069900073995,-0.7862020950000053,0.0009150619200027257,-2.3543914749999946,0.00145205667000423,1.5704756249999985,0.7890566290000095,0.039999931700000005,0.039999988,-9.833670800000014,0.02761345058683662,0.011947869250079245,0.00014700645250024952,-0.028991884272578008,0.0036567110200078946
0.655,0.002572481280007429,-0.7862238900000053,0.0009265451400027364,-2.3543672499999944,0.0014698772400042466,1.5704692499999984,0.7890967180000096,0.0399999314,0.039999988,-9.833735600000015,0.027785479649942366,0.012281717500079555,0.0001480576450002505,-0.029128869436713833,0.0036899697400079256
0.6575,0.0026036555700074565,-0.7862456850000052,0.0009380283600027466,-2.354343024999994,0.0014876978100042625,1.5704628749999985,0.7891368070000095,0.039999931100000004,0.039999988,-9.833800400000015,0.027957508713048102,0.012615565750079853,0.00014910883750025142,-0.02926585460084965,0.003723228460007955
0.66,0.0026348298600074854,-0.7862674800000052,0.0009495115800027573,-2.3543187999999944,0.001505518380004279,1.5704564999999984,0.7891768960000096,0.0399999308,0.039999988,-9.833865200000016,0.02812953777615385,0.012949414000080164,0.0001501600300002524,-0.02940283976498547,0.003756487180007986
0.6625,0.0026660041500075134,-0.7862892750000052,0.0009609948000027675,-2.354294574999994,0.001523338950004295,1.5704501249999985,0.7892169850000097,0.0399999305,0.039999988,-9.833930000000015,0.028301566839259586,0.01328326225008046,0.00015121122250025336,-0.029539824929121286,0.0037897459000080158
0.665,0.0026971784400075423,-0.7863110700000052,0.0009724780200027782,-2.3542703499999944,0.0015411595200043116,1.5704437499999984,0.7892570740000097,0.039999930200000006,0.039999988,-9.833994800000015,0.028473595902365333,0.013617110500080772,0.0001522624150002543,-0.029676810093257112,0.0038230046200080467
0.6675,0.002728946960008003,-0.7863333115000056,0.0009841800700029477,-2.354245689999994,0.0015593195050045746,1.5704372149999983,0.7892979250000103,0.03999992975,0.0399999878,-9.834060950000016,0.028646938689095777,0.013957896000086121,0.00015327333600022593,-0.029814522340927463,0.003856649045008357
0.67,0.0027619039400080337,-0.7863564460000056,0.0009963197800029592,-2.354220159999994,0.0015781583200045921,1.5704303599999982,0.7893403000000103,0.039999929000000004,0.0399999872,-9.834129800000017,0.028822908923072776,0.014312556000086452,0.00015420371400022678,-0.029953688755665304,0.003891064880008389
0.6725,0.002794860920008063,-0.7863795805000057,0.00100845949000297,-2.3541946299999936,0.001596997135004609,1.5704235049999984,0.7893826750000104,0.039999928250000004,0.0399999866,-9.834198650000017,0.028998879157049767,0.014667216000086768,0.0001551340920002276,-0.030092855170403138,0.00392548071500842
0.675,0.002827817900008094,-0.7864027150000057,0.0010205992000029813,-2.354169099999994,0.0016158359500046265,1.5704166499999983,0.7894250500000104,0.0399999275,0.039999986,-9.834267500000017,0.029174849391026766,0.015021876000087099,0.0001560644700002285,-0.030232021585140975,0.003959896550008452
0.6775,0.002860774880008123,-0.7864258495000057,0.001032738910002992,-2.3541435699999935,0.0016346747650046432,1.5704097949999982,0.7894674250000104,0.03999992675,0.0399999854,-9.834336350000017,0.029350819625003757,0.015376536000087414,0.00015699484800022932,-0.03037118799987881,0.003994312385008482
0.68,0.0028937318600081537,-0.7864489840000057,0.0010448786200030035,-2.3541180399999937,0.0016535135800046607,1.5704029399999984,0.7895098000000105,0.039999926,0.0399999848,-9.834405200000017,0.029526789858980756,0.015731196000087745,0.00015792522600023017,-0.03051035441461665,0.0040287282200085145
0.6825,0.002926688840008183,-0.7864721185000058,0.0010570183300030143,-2.3540925099999934,0.0016723523950046774,1.5703960849999983,0.7895521750000106,0.03999992525,0.039999984200000005,-9.834474050000019,0.029702760092957747,0.01608585600008806,0.000158855604000231,-0.030649520829354484,0.004063144055008545
0.685,0.0029608629900086687,-0.7864961440000061,0.001069606370003193,-2.354065979999993,0.001691886350004955,1.5703890199999981,0.7895961060000112,0.039999925,0.0399999844,-9.834558750000024,0.029881295748099744,0.016460311700095792,0.00015982202500024534,-0.030791181884741618,0.004098160940008802
0.6875,0.0029956457250086997,-0.7865206150000061,0.0010824185750032045,-2.354038949999993,0.0017117678750049727,1.5703818499999982,0.7896408150000113,0.039999925,0.039999985,-9.834651375000023,0.0300611141138228,0.016844665250096133,0.00016080646750024622,-0.030934090260451994,0.004133478350008833
0.6900000000000001,0.003030428460008732,-0.7865450860000062,0.0010952307800032165,-2.354011919999993,0.0017316494000049912,1.5703746799999982,0.7896855240000112,0.039999925,0.0399999856,-9.834744000000024,0.030240932479545863,0.01722901880009649,0.00016179091000024712,-0.031076998636162378,0.004168795760008866
0.6925,0.003065211195008763,-0.7865695570000062,0.001108042985003228,-2.353984889999993,0.0017515309250050088,1.570367509999998,0.7897302330000113,0.039999925,0.039999986200000004,-9.834836625000023,0.030420750845268917,0.017613372350096832,0.000162775352500248,-0.031219907011872754,0.004204113170008897
0.6950000000000001,0.0030999939300087953,-0.7865940280000062,0.0011208551900032397,-2.353957859999993,0.0017714124500050274,1.5703603399999981,0.7897749420000113,0.039999925,0.0399999868,-9.834929250000023,0.03060056921099198,0.01799772590009719,0.00016375979500024893,-0.031362815387583134,0.00423943058000893
0.6975,0.003134776665008826,-0.7866184990000062,0.0011336673950032511,-2.353930829999993,0.001791293975005045,1.5703531699999982,0.7898196510000114,0.039999925,0.0399999874,-9.835021875000024,0.030780387576715036,0.01838207945009753,0.0001647442375002498,-0.03150572376329351,0.004274747990008962
0.7000000000000001,0.0031695594000093344,-0.7866429700000066,0.0011464796000034384,-2.3539037999999928,0.0018111755000053355,1.570345999999998,0.789864360000012,0.039999925,0.039999988,-9.835114500000017,0.030960205942439457,0.018766433000102004,0.00016572868000023938,-0.03164863213900453,0.004310065400009258
0.7025,0.003206210565009367,-0.7866688345000067,0.0011599799300034503,-2.353875224999993,0.001832124110005354,1.5703384849999982,0.7899114810000121,0.03999992575,0.039999989050000004,-9.835185525000018,0.031145367771434368,0.01916694605010236,0.00016666863400024022,-0.031794041395224515,0.00434641569500929
0.705,0.0032428617300093994,-0.7866946990000067,0.0011734802600034623,-2.3538466499999924,0.0018530727200053727,1.570330969999998,0.7899586020000121,0.0399999265,0.0399999901,-9.835256550000018,0.03133052960042928,0.019567459100102717,0.00016760858800024105,-0.031939450651444504,0.004382765990009322
0.7075,0.003279512895009434,-0.7867205635000067,0.001186980590003475,-2.3538180749999924,0.0018740213300053922,1.570323454999998,0.7900057230000121,0.03999992725,0.039999991150000004,-9.835327575000019,0.031515691429424196,0.01996797215010309,0.00016854854200024194,-0.03208485990766449,0.004419116285009356
0.71,0.003316164060009466,-0.7867464280000067,0.0012004809200034869,-2.3537894999999924,0.0018949699400054108,1.5703159399999982,0.7900528440000122,0.039999928000000004,0.0399999922,-9.835398600000017,0.03170085325841911,0.020368485200103446,0.00016948849600024278,-0.032230269163884474,0.0044554665800093885
0.7125,0.0033528152250095005,-0.7867722925000068,0.0012139812500034995,-2.3537609249999925,0.0019159185500054303,1.5703084249999981,0.7900999650000122,0.039999928750000004,0.039999993250000004,-9.835469625000018,0.031886015087414024,0.02076899825010382,0.00017042845000024367,-0.03237567842010446,0.004491816875009423
0.715,0.0033894663900095327,-0.7867981570000068,0.0012274815800035115,-2.3537323499999925,0.0019368671600054489,1.570300909999998,0.7901470860000123,0.0399999295,0.0399999943,-9.835540650000018,0.03207117691640893,0.021169511300104176,0.0001713684040002445,-0.03252108767632445,0.004528167170009455
0.7175,0.0034267541950100656,-0.7868244950000072,0.0012412163750037076,-2.353703274999992,0.001958179655005753,1.570293234999998,0.790195020000013,0.03999993,0.03999999525,-9.835609200000016,0.0322573071346177,0.02157908035011164,0.00017228455900022673,-0.032667214237191974,0.004564817440009724
0.72,0.0034653152800101,-0.7868517800000072,0.0012554201000037203,-2.353673199999992,0.001980219920005773,1.570285239999998,0.790244580000013,0.03999993,0.039999996,-9.835672800000017,0.032445374131251876,0.02200676140011202,0.00017315311600022752,-0.032814775407352885,0.0046020676600097565
0.7225,0.003503876365010136,-0.7868790650000073,0.0012696238250037336,-2.353643124999992,0.0020022601850057933,1.570277244999998,0.790294140000013,0.03999993,0.03999999675,-9.835736400000016,0.03263344112788607,0.02243444245011242,0.0001740216730002283,-0.03296233657751381,0.004639317880009791
0.725,0.0035424374500101705,-0.7869063500000072,0.0012838275500037463,-2.353613049999992,0.002024300450005813,1.570269249999998,0.7903437000000131,0.03999993,0.0399999975,-9.835800000000017,0.03282150812452025,0.022862123500112796,0.00017489023000022907,-0.03310989774767472,0.004676568100009824
0.7275,0.0035809985350102064,-0.7869336350000072,0.0012980312750037594,-2.3535829749999917,0.0020463407150058334,1.570261254999998,0.7903932600000131,0.03999993,0.03999999825,-9.835863600000017,0.03300957512115444,0.023289804550113195,0.00017575878700022988,-0.03325745891783564,0.00471381832000986
0.73,0.0036195596200102407,-0.7869609200000073,0.001312235000003772,-2.353552899999992,0.0020683809800058532,1.5702532599999979,0.7904428200000131,0.03999993,0.039999999,-9.835927200000016,0.033197642117788626,0.023717485600113577,0.00017662734400023065,-0.03340502008799655,0.0047510685400098925
0.7325,0.0036581207050102767,-0.7869882050000073,0.0013264387250037854,-2.3535228249999918,0.0020904212450058735,1.5702452649999978,0.7904923800000132,0.03999993,0.03999999975,-9.835990800000017,0.03338570911442281,0.024145166650113976,0.00017749590100023146,-0.033552581258157466,0.004788318760009927
0.735,0.0036979821600108325,-0.7870164650000077,0.00134112139000399,-2.3534916199999913,0.002113204160006191,1.5702370499999978,0.7905436200000139,0.0399999295,0.04,-9.836069200000024,0.03357797414069601,0.024592521700122244,0.00017836033700023058,-0.033702511340420106,0.004826348750010273
0.7375,0.00373849380001087,-0.7870452125000077,0.001356043525004004,-2.3534598499999912,0.0021363584000062127,1.5702287249999978,0.7905957000000139,0.039999928750000004,0.04,-9.836155000000023,0.0337723381817862,0.025049713750122674,0.00017922271250023138,-0.033853625878732196,0.0048647686250103085
0.74,0.003779005440010906,-0.7870739600000077,0.0013709656600040172,-2.3534280799999916,0.002159512640006233,1.5702203999999977,0.790647780000014,0.039999928000000004,0.04,-9.836240800000024,0.033966702222876385,0.02550690580012308,0.00018008508800023215,-0.03400474041704429,0.004903188500010343
0.7425,0.0038195170800109438,-0.7871027075000078,0.001385887795004031,-2.3533963099999915,0.0021826668800062547,1.5702120749999977,0.790699860000014,0.03999992725,0.04,-9.836326600000023,0.034161066263966575,0.025964097850123505,0.00018094746350023297,-0.03415585495535638,0.004941608375010379
0.745,0.0038600287200109794,-0.7871314550000078,0.0014008099300040443,-2.3533645399999914,0.0022058211200062755,1.570203749999998,0.790751940000014,0.0399999265,0.04,-9.836412400000023,0.03435543030505676,0.026421289900123913,0.00018180983900023374,-0.03430696949366846,0.004980028250010413
0.7475,0.003900540360011017,-0.7871602025000078,0.0014157320650040582,-2.3533327699999913,0.002228975360006297,1.5701954249999979,0.7908040200000142,0.03999992575,0.04,-9.836498200000024,0.03454979434614695,0.02687848195012434,0.00018267221450023454,-0.03445808403198055,0.005018448125010449
0.75,0.003941052000011596,-0.7871889500000082,0.0014306542000042716,-2.353300999999991,0.002252129600006628,1.5701870999999976,0.7908561000000148,0.039999925,0.04,-9.836584000000013,0.03474415838723831,0.02733567400013061,0.00018353459000020522,-0.034609198570293036,0.005056868000010801
0.7525000000000001,0.003983553855011636,-0.7872191870000083,0.0014463093100042861,-2.353267699999991,0.002276421710006651,1.5701783699999976,0.7909107450000149,0.0399999238,0.03999999925,-9.836630800000012,0.034942822344655504,0.02781436840013106,0.00018428673500020594,-0.034761781059247245,0.005096453825010837
0.755,0.004026055710011673,-0.7872494240000083,0.0014619644200043,-2.353234399999991,0.002300713820006672,1.5701696399999976,0.790965390000015,0.0399999226,0.0399999985,-9.836677600000012,0.0351414863020727,0.028293062800131483,0.0001850388800002066,-0.03491436354820144,0.005136039650010873
0.7575000000000001,0.004068557565011713,-0.7872796610000083,0.0014776195300043146,-2.353201099999991,0.002325005930006695,1.5701609099999976,0.791020035000015,0.0399999214,0.03999999775,-9.836724400000012,0.035340150259489896,0.02877175720013193,0.0001857910250002073,-0.03506694603715565,0.00517562547501091
0.76,0.004111059420011751,-0.7873098980000084,0.0014932746400043283,-2.3531677999999907,0.002349298040006717,1.5701521799999976,0.7910746800000151,0.039999920200000004,0.039999997,-9.836771200000012,0.035538814216907084,0.029250451600132354,0.00018654317000020795,-0.03521952852610985,0.005215211300010945
0.7625000000000001,0.004153561275011791,-0.7873401350000084,0.001508929750004343,-2.353134499999991,0.0023735901500067393,1.5701434499999976,0.7911293250000152,0.039999919,0.03999999625,-9.836818000000013,0.03573747817432429,0.0297291460001328,0.00018729531500020867,-0.03537211101506406,0.005254797125010982
0.765,0.004196063130011829,-0.7873703720000085,0.0015245848600043568,-2.353101199999991,0.002397882260006761,1.5701347199999975,0.7911839700000153,0.0399999178,0.0399999955,-9.836864800000013,0.035936142131741476,0.030207840400133225,0.00018804746000020933,-0.03552469350401826,0.005294382950011017
0.7675000000000001,0.004239241330012435,-0.7874011010000089,0.0015404890750045802,-2.3530673699999904,0.0024225598400071063,1.5701258449999975,0.7912394850000161,0.039999917,0.03999999525,-9.836921300000022,0.03613636512314989,0.030695849500141478,0.00018876979900018506,-0.03567820210014144,0.0053342783250113135
0.77,0.004283772220012474,-0.7874328140000089,0.0015568915000045947,-2.35303247999999,0.002448008360007129,1.5701166799999975,0.791296740000016,0.039999917,0.039999996,-9.83699720000002,0.0363397061825368,0.031202488000141925,0.00018943252600018564,-0.03583356291060025,0.0053747928000113495
0.7725,0.004328303110012514,-0.7874645270000089,0.0015732939250046093,-2.3529975899999904,0.0024734568800071515,1.5701075149999975,0.7913539950000161,0.039999917,0.03999999675,-9.83707310000002,0.03654304724192371,0.031709126500142376,0.00019009525300018622,-0.035988923721059045,0.0054153072750113855
0.775,0.004372834000012556,-0.787496240000009,0.0015896963500046247,-2.35296269999999,0.0024989054000071754,1.5700983499999974,0.7914112500000161,0.039999917,0.0399999975,-9.837149000000021,0.03674638830131063,0.03221576500014285,0.00019075798000018685,-0.036144284531517856,0.005455821750011423
0.7775,0.004417364890012595,-0.787527953000009,0.0016060987750046393,-2.35292780999999,0.0025243539200071976,1.5700891849999974,0.7914685050000162,0.039999917,0.03999999825,-9.837224900000022,0.03694972936069754,0.0327224035001433,0.00019142070700018743,-0.03629964534197666,0.005496336225011459
0.78,0.0044618957800126365,-0.787559666000009,0.0016225012000046545,-2.35289291999999,0.0025498024400072215,1.5700800199999974,0.7915257600000163,0.039999917,0.039999999,-9.837300800000023,0.037153070420084464,0.033229042000143774,0.00019208343400018807,-0.036455006152435465,0.005536850700011497
0.7825,0.0045064266700126756,-0.787591379000009,0.001638903625004669,-2.35285802999999,0.002575250960007244,1.5700708549999973,0.7915830150000163,0.039999917,0.03999999975,-9.837376700000023,0.03735641147947137,0.03373568050014422,0.00019274616100018865,-0.03661036696289427,0.005577365175011533
0.785,0.0045523354000133074,-0.7876240950000095,0.0016558135100049017,-2.352821979999989,0.002601488300007606,1.5700613799999972,0.7916420270000171,0.039999916600000004,0.04,-9.837450900000022,0.0375630240887998,0.034259806300152185,0.00019336096800016874,-0.03676761947576745,0.005618583500011873
0.7875,0.004598933050013349,-0.7876573125000095,0.001672977125004917,-2.3527853499999893,0.0026281200500076294,1.570051749999997,0.7917019175000172,0.039999916,0.04,-9.837524250000023,0.03777127247309688,0.03479267575015266,0.00019395181500016925,-0.036925817839846595,0.00566015375001191
0.79,0.004645530700013393,-0.7876905300000095,0.0016901407400049331,-2.3527487199999895,0.002654751800007654,1.5700421199999972,0.7917618080000172,0.0399999154,0.04,-9.837597600000022,0.03797952085739397,0.03532554520015315,0.00019454266200016982,-0.03708401620392575,0.005701724000011948
0.7925,0.004692128350013434,-0.7877237475000095,0.0017073043550049482,-2.3527120899999896,0.002681383550007678,1.5700324899999971,0.7918216985000173,0.0399999148,0.04,-9.837670950000023,0.03818776924169105,0.03585841465015363,0.00019513350900017033,-0.03724221456800489,0.0057432942500119846
0.795,0.0047387260000134775,-0.7877569650000096,0.0017244679700049643,-2.3526754599999893,0.002708015300007703,1.5700228599999972,0.7918815890000174,0.0399999142,0.04,-9.837744300000022,0.03839601762598814,0.036391284100154124,0.0001957243560001709,-0.03740041293208404,0.005784864500012024
0.7975,0.004785323650013519,-0.7877901825000097,0.0017416315850049796,-2.3526388299999894,0.0027346470500077265,1.5700132299999972,0.7919414795000174,0.0399999136,0.04,-9.837817650000023,0.03860426601028522,0.0369241535501546,0.0001963152030001714,-0.03755861129616319,0.00582643475001206
0.8,0.004831921300014174,-0.78782340000001,0.001758795200005221,-2.352602199999989,0.002761278800008101,1.570003599999997,0.7920013700000182,0.039999913,0.04,-9.837891000000017,0.038812514394583615,0.03745702300016244,0.00019690605000015847,-0.03771680966024298,0.005868005000012361
0.8025,0.004880622505014218,-0.7878581940000101,0.001776733670005237,-2.352563934999989,0.0027891107300081256,1.569993594999997,0.7920639635000183,0.039999912549999996,0.04,-9.837945000000017,0.03902525044983873,0.03801513055016294,0.00019745059500015898,-0.037877197936224065,0.005910474170012399
0.805,0.004929323710014264,-0.7878929880000102,0.0017946721400052537,-2.352525669999989,0.0028169426600081512,1.569983589999997,0.7921265570000183,0.0399999121,0.04,-9.837999000000016,0.039237986505093865,0.03857323810016346,0.0001979951400001595,-0.03803758621220516,0.005952943340012438
0.8075,0.004978024915014307,-0.7879277820000102,0.0018126106100052697,-2.3524874049999887,0.002844774590008176,1.5699735849999972,0.7921891505000185,0.03999991165,0.04,-9.838053000000016,0.03945072256034898,0.03913134565016395,0.00019853968500015997,-0.03819797448818625,0.005995412510012476
0.81,0.005026726120014352,-0.7879625760000102,0.0018305490800052864,-2.3524491399999885,0.002872606520008202,1.5699635799999971,0.7922517440000185,0.0399999112,0.04,-9.838107000000017,0.039663458615604115,0.03968945320016447,0.00019908423000016047,-0.03835836276416735,0.006037881680012516
0.8125,0.005075427325014396,-0.7879973700000102,0.0018484875500053024,-2.352410874999989,0.002900438450008227,1.569953574999997,0.7923143375000186,0.03999991075,0.04,-9.838161000000015,0.03987619467085923,0.04024756075016497,0.00019962877500016095,-0.03851875104014843,0.006080350850012553
0.8150000000000001,0.005124128530014441,-0.7880321640000103,0.001866426020005319,-2.3523726099999887,0.002928270380008253,1.569943569999997,0.7923769310000186,0.0399999103,0.04,-9.838215000000016,0.04008893072611436,0.040805668300165486,0.00020017332000016146,-0.03867913931612953,0.006122820020012593
0.8175,0.005173543000015121,-0.7880674685000107,0.0018846271650055694,-2.352333774999988,0.0029565093000086407,1.569933419999997,0.7924404370000194,0.0399999096,0.04,-9.83827290000002,0.04030375871813845,0.04137369900017484,0.00020069502600014158,-0.0388402655721194,0.006165649695012953
0.8200000000000001,0.005224384000015168,-0.7881037940000108,0.0019033536600055868,-2.352293799999988,0.002985562200008668,1.569922979999997,0.7925057680000195,0.0399999084,0.04,-9.83833860000002,0.0405227705836949,0.04196157600017538,0.00020117105400014202,-0.03900286778812487,0.006209200380012993
0.8225,0.005275225000015213,-0.7881401195000108,0.0019220801550056035,-2.352253824999988,0.0030146151000086936,1.569912539999997,0.7925710990000195,0.0399999072,0.04,-9.83840430000002,0.04074178244925134,0.04254945300017591,0.00020164708200014244,-0.039165470004130336,0.006252751065013032
0.8250000000000001,0.00532606600001526,-0.7881764450000109,0.0019408066500056207,-2.3522138499999876,0.0030436680000087207,1.5699020999999969,0.7926364300000196,0.039999905999999995,0.04,-9.83847000000002,0.040960794314807786,0.04313733000017646,0.00020212311000014288,-0.039328072220135804,0.006296301750013072
0.8275,0.005376907000015306,-0.7882127705000109,0.0019595331450056376,-2.3521738749999876,0.0030727209000087465,1.569891659999997,0.7927017610000197,0.0399999048,0.04,-9.838535700000019,0.04117980618036423,0.04372520700017698,0.0002025991380001433,-0.03949067443614127,0.0063398524350131115
0.8300000000000001,0.005427748000015353,-0.788249096000011,0.001978259640005655,-2.3521338999999877,0.003101773800008773,1.569881219999997,0.7927670920000197,0.0399999036,0.04,-9.83860140000002,0.04139881804592068,0.04431308400017753,0.00020307516600014374,-0.03965327665214674,0.0063834031200131515
0.8325,0.005478589000015398,-0.788285421500011,0.0019969861350056716,-2.3520939249999877,0.003130826700008799,1.569870779999997,0.7928324230000198,0.039999902399999995,0.04,-9.83866710000002,0.04161782991147712,0.04490096100017805,0.00020355119400014416,-0.03981587886815221,0.006426953805013191
0.835,0.005530879700016104,-0.7883228030000116,0.0020162466100059314,-2.352052799999987,0.003160708500009203,1.5698600099999966,0.7928996200000207,0.039999901299999994,0.0399999995,-9.838727500000019,0.041841363161870856,0.04550461800018576,0.00020400078500013255,-0.03998000174765821,0.00647138567001363
0.8375,0.005583895250016153,-0.7883607125000116,0.0020357740750059495,-2.352011099999987,0.003191004750009231,1.5698490749999967,0.7929677500000207,0.03999990025,0.03999999875,-9.838785250000019,0.042067157104680175,0.04611616500018633,0.00020443715750013297,-0.04014488495891344,0.006516258125013673
0.84,0.0056369108000162,-0.7883986220000115,0.0020553015400059673,-2.3519693999999873,0.003221301000009258,1.5698381399999968,0.7930358800000208,0.0399998992,0.039999998,-9.838843000000018,0.04229295104748948,0.046727712000186876,0.00020487353000013336,-0.04030976817016867,0.0065611305800137125
