rsonawane2002/My_IMU/logs_2/traj_259/imu_259.csv
time,j1,j2,j3,j4,j5,j6,j7,gripper1,gripper2,imu_ax,imu_ay,imu_az,imu_gx,imu_gy,imu_gz
89.43333333332954,0.00016700293,-0.785875,4.0107683e-05,-2.3551247,9.29385e-05,1.570997,0.786,0.04,0.04,-9.444833,0.028792548924684525,0.08656426,-1.3100662e-07,-0.0011641273740679026,7.34464e-07
89.44999999999621,0.00016699765,-0.78576016,4.010516e-05,-2.3552213,9.29714e-05,1.5709941,0.786,0.04,0.04,-9.83439,0.000612859963439405,0.009112924,8.2650024e-07,-0.002237086184322834,1.2232724e-06
89.46666666666287,0.00016693572,-0.7856542,4.0036695e-05,-2.35531,9.2992996e-05,1.5709913,0.786,0.04,0.039999995,-9.832418,0.00047320654266513884,0.007596888,7.650621e-06,-0.0032208184711635113,4.0162204e-06
89.48333333332954,0.00016672067,-0.7855566,3.9794537e-05,-2.355391,9.2950824e-05,1.5709884,0.786,0.04,0.04,-9.830558,0.00019441323820501566,0.006268996,2.5378402e-05,-0.004117085598409176,7.833888e-06
89.4999999999962,0.00016621174,-0.78546655,3.9223738e-05,-2.3554652,9.28091e-05,1.5709856,0.786,0.04,0.04,-9.828735,-0.00019175984198227525,0.0050842445,5.9024354e-05,-0.004924551583826542,1.5588275e-05
89.51666666666287,0.00016522812,-0.78538316,3.8126636e-05,-2.355532,9.2518974e-05,1.5709826,0.786,0.04,0.04,-9.827033,-0.00067519472213462,0.0039936216,0.000113150556,-0.005645099561661482,2.9284494e-05
89.53333333332954,0.0001635537,-0.78530586,3.6267735e-05,-2.3555944,9.200952e-05,1.5709794,0.786,0.04,0.04,-9.825326,-0.0012620099587365985,0.002994672,0.00019135617,-0.006277005188167095,4.8033566e-05
89.5499999999962,0.00016093996,-0.78523386,3.3377313e-05,-2.355652,9.12044e-05,1.5709755,0.786,0.04,0.04,-9.824016,-0.0019252910278737545,0.002094559,0.0002974146,-0.006832473911345005,7.327323e-05
89.56666666666287,0.00015711022,-0.78516674,2.9155412e-05,-2.3557034,9.000313e-05,1.5709689,0.786,0.03999999,0.03999999,-9.822729,-0.0026618181727826595,0.0012511509,0.0004344801,-0.007311149034649134,0.000106019026
89.58333333332953,0.000151762,-0.7851035,2.327458e-05,-2.3557513,8.832387e-05,1.5709618,0.786,0.039999988,0.039999988,-9.821248,-0.00345492921769619,0.0005293039,0.000605359,-0.007712604012340307,0.00014625842
89.5999999999962,0.0001445706,-0.78504354,1.538369e-05,-2.3557942,8.606665e-05,1.5709513,0.7860019,0.03999998,0.039999977,-9.820187,-0.004305032081902027,-0.00023008534,0.00081261207,-0.008040199056267738,0.00019604476
89.61666666666287,0.00013519148,-0.7849862,5.1102948e-06,-2.3558323,8.3123545e-05,1.5709399,0.7860038,0.039999973,0.03999997,-9.818977,-0.0052032470703125,-0.00090176193,0.0010499932,-0.008298572152853012,0.00025399632
89.63333333332953,0.0001232626,-0.7849309,-7.936804e-06,-2.3558671,7.938386e-05,1.5709252,0.78600574,0.039999966,0.039999958,-9.817761,-0.006128596141934395,-0.0016103328,0.0013282916,-0.008475525304675102,0.00032225563
89.6499999999962,0.00010840699,-0.7848769,-2.4164541e-05,-2.355897,7.472973e-05,1.5709069,0.78600764,0.03999997,0.03999996,-9.816827,-0.00708963954821229,-0.002247639,0.0016493045,-0.008587638847529888,0.000399511
89.66666666666286,9.0234455e-05,-0.78482366,-4.399404e-05,-2.3559241,6.904097e-05,1.5708847,0.78600955,0.03999997,0.03999996,-9.815732,-0.008069110102951527,-0.0029012403,0.0020143378,-0.00862950086593628,0.00048696654
89.68333333332953,6.834378e-05,-0.78477067,-6.785862e-05,-2.3559468,6.219403e-05,1.5708586,0.78601146,0.039999973,0.03999996,-9.814929,-0.009054634720087051,-0.0035713846,0.0024253344,-0.008609031327068806,0.00058578455
89.6999999999962,4.2324195e-05,-0.7847174,-9.620137e-05,-2.3559663,5.406124e-05,1.5708278,0.7860153,0.039999977,0.039999966,-9.813897,-0.010058698244392872,-0.0042562378,0.00288296,-0.008517480455338955,0.0006944849
89.71666666666286,1.1757151e-05,-0.7846632,-0.00012947396,-2.3559825,4.451361e-05,1.5707912,0.7860191,0.039999973,0.039999958,-9.813087,-0.011066118255257607,-0.0049680783,0.00337979,-0.008362796157598495,0.0008150311
89.73333333332953,-2.3782273e-05,-0.78460765,-0.0001681351,-2.355995,3.3419954e-05,1.5707493,0.7860229,0.039999977,0.03999996,-9.812342,-0.012067664414644241,-0.005691479,0.003925744,-0.008149976842105389,0.00094585755
89.74999999999619,-6.472411e-05,-0.78455013,-0.00021264852,-2.3560052,2.064759e-05,1.5707009,0.7860286,0.039999977,0.039999958,-9.811494,-0.013059906661510468,-0.006500626,0.0045210915,-0.00787203200161457,0.0010888303
89.76666666666286,-0.00011150215,-0.7844899,-0.00026348242,-2.3560104,6.06148e-06,1.570646,0.78603435,0.03999998,0.03999996,-9.810914,-0.014036273583769798,-0.0073606353,0.005158253,-0.007539952639490366,0.0012423608
89.78333333332952,-0.00016455306,-0.7844268,-0.0003211077,-2.356014,-1.04714845e-05,1.5705839,0.7860402,0.039999984,0.03999996,-9.81002,-0.014995577745139599,-0.008310026,0.005846248,-0.007142475340515375,0.0014081538
89.79999999999619,-0.00022431498,-0.7843602,-0.00038599732,-2.356013,-2.9089484e-05,1.5705141,0.7860478,0.039999984,0.03999997,-9.809524,-0.015940386801958084,-0.009312884,0.006584688,-0.006693379022181034,0.0015820676
89.81666666666285,-0.00029122716,-0.78428954,-0.00045862515,-2.3560092,-4.9923998e-05,1.5704359,0.78605545,0.039999984,0.039999966,-9.808769,-0.016835857182741165,-0.010408381,0.007366499,-0.006184864789247513,0.0017711056
89.83333333332952,-0.0003657284,-0.7842147,-0.00053946447,-2.3560014,-7.3113006e-05,1.5703491,0.786065,0.039999988,0.03999997,-9.808212,-0.01771242544054985,-0.0116033275,0.008200158,-0.005623755510896444,0.0019700474
89.84999999999619,-0.00044825693,-0.7841347,-0.0006289881,-2.3559902,-9.879048e-05,1.570253,0.7860745,0.03999999,0.039999966,-9.807482,-0.018545780330896378,-0.012893657,0.0090768505,-0.005002874881029129,0.0021831887
89.86666666666285,-0.0005392488,-0.7840494,-0.0007276672,-2.3559754,-0.00012709259,1.5701473,0.78608596,0.039999995,0.039999984,-9.80697,-0.019360844045877457,-0.0143070165,0.010005593,-0.00433215731754899,0.002402875
89.88333333332952,-0.0006391389,-0.7839583,-0.0008359704,-2.355957,-0.00015815214,1.5700309,0.7860979,0.04,0.039999966,-9.806406,-0.020078469067811966,-0.015838431,0.010977664,-0.0036086917389184237,0.002643427
89.89999999999618,-0.000748358,-0.7838612,-0.0009543631,-2.3559356,-0.00019210442,1.5699041,0.78611124,0.04,0.039999988,-9.805841,-0.020840870216488838,-0.017487202,0.011999222,-0.002834975253790617,0.0028837484
89.91666666666285,-0.0008673345,-0.78375745,-0.0010833072,-2.35591,-0.00022907974,1.5697659,0.7861258,0.03999999,0.039999954,-9.805407,-0.021442627534270287,-0.019279318,0.01306627,-0.0020129552576690912,0.0031472
89.93333333332951,-0.0009964926,-0.78364676,-0.001223261,-2.3558815,-0.00026920554,1.5696161,0.7861412,0.03999998,0.03999993,-9.8048315,-0.02203710749745369,-0.021231884,0.014179077,-0.0011403997195884585,0.0034216403
89.94999999999618,-0.0011362518,-0.7835285,-0.0013746775,-2.3558486,-0.00031261746,1.5694541,0.7861584,0.039999984,0.03999993,-9.804437,-0.022611675783991814,-0.023322036,0.015339324,-0.00022313088993541896,0.0037029968
89.96666666666285,-0.0012870276,-0.7834023,-0.0015380048,-2.3558125,-0.00035944258,1.5692792,0.78617674,0.03999999,0.039999932,-9.80394,-0.023123279213905334,-0.025605096,0.016542692,0.0007420869660563767,0.0039947988
89.98333333332951,-0.0014492295,-0.7832682,-0.0017136858,-2.355772,-0.00040980757,1.569091,0.7861964,0.04,0.039999943,-9.803562,-0.02354326844215393,-0.028047185,0.017791111,0.0017493001651018858,0.004296817
89.99999999999618,-0.0016232628,-0.7831254,-0.0019021573,-2.355728,-0.00046383703,1.5688895,0.78621745,0.04,0.039999943,-9.803063,-0.023926090449094772,-0.03062888,0.019083977,0.0028025340288877487,0.004609177
90.01666666666284,-0.0018095264,-0.7829737,-0.00210385,-2.3556798,-0.00052165065,1.5686737,0.7862401,0.039999995,0.03999993,-9.802695,-0.024159129709005356,-0.033453394,0.020420728,0.0038986937142908573,0.0049394583
90.03333333332951,-0.0020084118,-0.7828126,-0.0023191883,-2.3556278,-0.00058337476,1.5684434,0.78626424,0.04,0.039999932,-9.802263,-0.024436647072434425,-0.036435667,0.021799358,0.005037319380789995,0.0052749896
90.04999999999617,-0.0022203075,-0.7826419,-0.0025485905,-2.3555715,-0.0006491275,1.5681981,0.78628993,0.04,0.03999994,-9.801957,-0.024583514779806137,-0.03964541,0.023220098,0.006214024964720011,0.0056202505
90.06666666666284,-0.0024455935,-0.78246135,-0.0027924664,-2.355511,-0.00071902224,1.5679375,0.7863173,0.04,0.039999917,-9.801503,-0.024633023887872696,-0.043037515,0.02468229,0.007433196995407343,0.005984119
90.0833333333295,-0.0026846423,-0.78227043,-0.003051219,-2.355446,-0.0007931803,1.5676609,0.78634644,0.04,0.039999913,-9.80116,-0.024641601368784904,-0.046649486,0.026185201,0.008691765367984772,0.006354682
90.09999999999617,-0.0029378207,-0.78206915,-0.0033252458,-2.3553767,-0.0008717113,1.5673683,0.7863772,0.04,0.0399999,-9.800811,-0.024582378566265106,-0.050489534,0.027727088,0.009987734258174896,0.0067363637
90.11666666666284,-0.0032054882,-0.78185683,-0.0036149346,-2.3553035,-0.00095472834,1.5670587,0.7864097,0.04,0.0399999,-9.800414,-0.024422645568847656,-0.05452555,0.02930859,0.011323150247335434,0.007127007
90.1333333333295,-0.0034879998,-0.7816333,-0.003920666,-2.3552248,-0.0010423379,1.566732,0.7864439,0.04,0.039999895,-9.800172,-0.024198247119784355,-0.058825836,0.030928668,0.01269067358225584,0.0075287013
90.14999999999617,-0.003785698,-0.7813983,-0.0042428137,-2.3551416,-0.0011346496,1.566388,0.7864799,0.04,0.0399999,-9.799717,-0.023869559168815613,-0.063357644,0.0325864,0.014098205603659153,0.007939668
90.16666666666283,-0.004098921,-0.7811514,-0.004581743,-2.355054,-0.0012317672,1.566026,0.7865178,0.04,0.039999902,-9.799385,-0.023479199036955833,-0.0681234,0.03428125,0.015540297143161297,0.008361337
90.1833333333295,-0.0044279997,-0.7808925,-0.0049378113,-2.3549612,-0.0013337921,1.5656457,0.7865576,0.04,0.039999906,-9.799105,-0.022969519719481468,-0.07314707,0.03601161,0.01701410487294197,0.008792849
90.19999999999617,-0.004773258,-0.78062135,-0.005311366,-2.3548648,-0.0014408254,1.5652466,0.78659946,0.04,0.03999991,-9.798759,-0.0224250927567482,-0.07843032,0.03777731,0.01852184720337391,0.009229372
90.21666666666283,-0.0051350123,-0.7803376,-0.0057027508,-2.3547626,-0.0015529573,1.5648286,0.78664327,0.04,0.039999884,-9.798626,-0.021703170612454414,-0.08395409,0.039577,0.020054573193192482,0.0096875625
90.2333333333295,-0.005513567,-0.78004104,-0.0061122957,-2.354655,-0.0016702947,1.5643915,0.78668916,0.04,0.03999989,-9.79814,-0.020974380895495415,-0.089770265,0.041410185,0.021624699234962463,0.01014764
90.24999999999616,-0.005909223,-0.7797313,-0.0065403264,-2.3545437,-0.0017929213,1.5639343,0.7867371,0.04,0.039999876,-9.797827,-0.020128801465034485,-0.09584583,0.043275792,0.023225687444210052,0.01061987
90.26666666666283,-0.006322274,-0.77940816,-0.006987156,-2.3544261,-0.001920931,1.5634573,0.7867871,0.04,0.03999987,-9.797683,-0.019172323867678642,-0.10220679,0.045173284,0.02484891749918461,0.011100886
90.2833333333295,-0.0067530014,-0.77907145,-0.007453096,-2.3543026,-0.00205441,1.5629598,0.7868392,0.04,0.039999858,-9.797253,-0.018156476318836212,-0.10885189,0.047101907,0.02650522254407406,0.011591606
90.29999999999616,-0.007201686,-0.778721,-0.007938443,-2.3541753,-0.0021934458,1.5624413,0.7868936,0.04,0.039999854,-9.796851,-0.017001302912831306,-0.115782715,0.049060605,0.028192389756441116,0.012091765
90.31666666666283,-0.007668591,-0.7783564,-0.008443487,-2.354042,-0.0023381207,1.5619022,0.78695023,0.04,0.03999986,-9.796746,-0.01579837128520012,-0.1229873,0.051047996,0.029898108914494514,0.012600875
90.33333333332949,-0.008153981,-0.7779779,-0.008968511,-2.353903,-0.0024885153,1.5613414,0.78700906,0.04,0.039999858,-9.796373,-0.014450259506702423,-0.13052638,0.05306355,0.0316329300403595,0.013119842
90.34999999999616,-0.008658105,-0.7775848,-0.009513789,-2.3537593,-0.0026447072,1.5607591,0.7870701,0.04,0.039999854,-9.796001,-0.01305491104722023,-0.13830681,0.055106774,0.03339388966560364,0.013647628
90.36666666666282,-0.009181213,-0.77717686,-0.010079582,-2.35361,-0.0028067708,1.5601549,0.78713334,0.04,0.03999987,-9.795795,-0.011503264307975769,-0.14644703,0.057176903,0.0351751446723938,0.014186332
90.38333333332949,-0.009723542,-0.776754,-0.010666155,-2.353454,-0.0029747833,1.5595285,0.78719896,0.04,0.03999987,-9.795489,-0.009921777993440628,-0.15490186,0.059273392,0.036978840827941895,0.014732227
90.39999999999615,-0.010285321,-0.77631617,-0.011273751,-2.3532934,-0.003148814,1.5588795,0.787267,0.04,0.039999872,-9.795052,-0.008183084428310394,-0.16366005,0.061394468,0.03880853205919266,0.015287021
90.41666666666282,-0.0108667705,-0.7758633,-0.011902609,-2.3531275,-0.0033289287,1.5582081,0.7873374,0.04,0.039999854,-9.79485,-0.00638304278254509,-0.17272261,0.063539125,0.04065448418259621,0.015851665
90.43333333332949,-0.011468102,-0.77539504,-0.012552962,-2.3529556,-0.0035151972,1.557514,0.7874103,0.04,0.039999846,-9.794571,-0.004444792866706848,-0.18211353,0.06570726,0.04252057895064354,0.016424775
90.44999999999615,-0.012089526,-0.7749111,-0.013225031,-2.352777,-0.0037076813,1.5567963,0.78748554,0.04,0.039999846,-9.794188,-0.002433888614177704,-0.19183768,0.067897424,0.04440891742706299,0.017006693
90.46666666666282,-0.012731236,-0.77441144,-0.013919033,-2.3525922,-0.003906443,1.5560551,0.7875632,0.04,0.039999846,-9.793714,-0.000336572527885437,-0.20189114,0.070109405,0.04631864279508591,0.017597292
90.48333333332948,-0.013393428,-0.7738961,-0.014635175,-2.352402,-0.00411154,1.5552906,0.78764343,0.04,0.03999985,-9.793374,0.0019006691873073578,-0.21226321,0.072342336,0.048244889825582504,0.018195976
90.49999999999615,-0.0140762795,-0.7733647,-0.015373655,-2.3522067,-0.0043230294,1.5545021,0.7877261,0.04,0.03999985,-9.792982,0.004192683845758438,-0.22297488,0.07459441,0.05019088461995125,0.01880388
90.51666666666281,-0.014779967,-0.77281713,-0.01613465,-2.3520048,-0.0045409678,1.5536898,0.7878112,0.04,0.03999985,-9.79278,0.006638884544372559,-0.23402627,0.07686592,0.05214608460664749,0.019420594
90.53333333332948,-0.015504657,-0.7722533,-0.016918357,-2.3517964,-0.004765404,1.5528532,0.7878989,0.04,0.039999854,-9.7922325,0.009132742881774902,-0.24544075,0.079156145,0.054122984409332275,0.02004597
90.54999999999615,-0.016250513,-0.77167326,-0.017724946,-2.3515816,-0.004996388,1.5519924,0.78798914,0.04,0.03999985,-9.791818,0.011777173727750778,-0.25718734,0.08146337,0.056114256381988525,0.020679645
90.56666666666281,-0.017017683,-0.7710765,-0.01855458,-2.3513603,-0.005233968,1.5511068,0.78808194,0.04,0.039999854,-9.791278,0.014468368142843246,-0.26925164,0.0837872,0.058124132454395294,0.021321785
90.58333333332948,-0.017806312,-0.77046305,-0.019407405,-2.3511338,-0.0054781865,1.5501963,0.7881774,0.04,0.039999843,-9.790815,0.017315499484539032,-0.2816998,0.086126745,0.06014690920710564,0.02197208
90.59999999999614,-0.01861654,-0.7698329,-0.02028358,-2.3509011,-0.0057290876,1.5492612,0.7882754,0.04,0.03999984,-9.790465,0.02021656185388565,-0.29449466,0.08848104,0.06217676401138306,0.022631656
90.61666666666281,-0.0194485,-0.769186,-0.021183256,-2.3506618,-0.0059867105,1.5483009,0.78837615,0.04,0.03999987,-9.789959,0.023257669061422348,-0.30765918,0.09084937,0.06422052532434464,0.023299359
90.63333333332947,-0.020302307,-0.76852214,-0.02210655,-2.350416,-0.0062510944,1.5473155,0.7884795,0.04,0.039999872,-9.789368,0.026358619332313538,-0.3211534,0.093230516,0.06627687811851501,0.023975475
90.64999999999614,-0.02117808,-0.76784116,-0.023053586,-2.3501637,-0.006522274,1.5463046,0.7885854,0.04,0.039999876,-9.7887945,0.029593124985694885,-0.33503592,0.09562449,0.06834553927183151,0.024658859
90.6666666666628,-0.02207593,-0.7671432,-0.024024505,-2.3499053,-0.0068002827,1.5452682,0.7886941,0.04,0.039999884,-9.788205,0.03288593888282776,-0.3492596,0.09803038,0.07042257487773895,0.025350925
90.68333333332947,-0.022995954,-0.7664279,-0.025019389,-2.3496413,-0.0070851515,1.5442061,0.78880537,0.04,0.03999987,-9.787634,0.036331918090581894,-0.3638488,0.10044653,0.0725080743432045,0.02605125
90.69999999999614,-0.023938237,-0.76569533,-0.026038343,-2.3493707,-0.0073769093,1.5431185,0.7889194,0.04,0.039999872,-9.787091,0.03983797878026962,-0.37883064,0.102873094,0.0745975524187088,0.026760159
90.7166666666628,-0.024902876,-0.7649454,-0.02708147,-2.3490932,-0.007675582,1.5420052,0.78903615,0.04,0.039999865,-9.786352,0.04341314360499382,-0.39416197,0.105308704,0.07669706642627716,0.02747641
90.73333333332947,-0.025889954,-0.76417816,-0.028148843,-2.348809,-0.007981196,1.540866,0.78915554,0.04,0.039999872,-9.785616,0.04714233800768852,-0.40988353,0.1077526,0.0788050964474678,0.02820073
90.74999999999613,-0.026899535,-0.76339334,-0.02924056,-2.3485181,-0.00829377,1.5397009,0.78927773,0.04,0.03999987,-9.784816,0.05091310665011406,-0.4259546,0.110204674,0.0809212476015091,0.02893324
90.7666666666628,-0.027931679,-0.76259106,-0.030356674,-2.3482208,-0.008613328,1.5385097,0.78940266,0.04,0.039999876,-9.783973,0.05483366549015045,-0.44240037,0.11266319,0.08304513990879059,0.02967397
90.78333333332947,-0.028986454,-0.76177114,-0.031497248,-2.3479176,-0.008939882,1.5372926,0.7895302,0.04,0.039999913,-9.783168,0.05878986045718193,-0.4592217,0.11512776,0.08517222106456757,0.030423878
90.79999999999613,-0.030063905,-0.76093334,-0.032662343,-2.347608,-0.009273455,1.5360494,0.7896606,0.04,0.039999913,-9.782372,0.06288552284240723,-0.47643688,0.11759812,0.08730173110961914,0.031180505
90.8166666666628,-0.03116408,-0.7600779,-0.03385201,-2.3472917,-0.009614061,1.5347797,0.78979367,0.04,0.039999913,-9.781473,0.06702326983213425,-0.4940418,0.120072745,0.08943350613117218,0.03194525
90.83333333332946,-0.032287013,-0.75920504,-0.035066288,-2.3469684,-0.009961707,1.5334837,0.7899295,0.04,0.039999925,-9.780501,0.07130403816699982,-0.5119945,0.12255153,0.0915670394897461,0.032717545
90.84999999999613,-0.033432737,-0.7583143,-0.03630522,-2.3466387,-0.0103164045,1.5321614,0.79006815,0.04,0.039999925,-9.779361,0.07561967521905899,-0.53031087,0.12503329,0.09370769560337067,0.03349861
90.8666666666628,-0.034601282,-0.757406,-0.03756882,-2.3463025,-0.010678162,1.5308127,0.79020953,0.04,0.039999932,-9.778366,0.08007726073265076,-0.54904497,0.12751707,0.09584686905145645,0.034286853
90.88333333332946,-0.035792667,-0.75647986,-0.03885712,-2.3459594,-0.01104698,1.5294378,0.79035366,0.04,0.039999936,-9.777208,0.08456486463546753,-0.5681327,0.13000263,0.09798765927553177,0.035083003
90.89999999999613,-0.03700689,-0.75553626,-0.04017012,-2.3456097,-0.011422863,1.5280364,0.7905006,0.04,0.039999936,-9.775988,0.08918589353561401,-0.5876184,0.13248901,0.1001301184296608,0.035885595
90.91666666666279,-0.03824397,-0.7545748,-0.04150782,-2.3452532,-0.011805818,1.5266088,0.7906503,0.04,0.039999958,-9.774686,0.09384855628013611,-0.6074476,0.13497534,0.10227420926094055,0.036697853
90.93333333332946,-0.039503902,-0.7535957,-0.04287024,-2.344891,-0.012195842,1.5251546,0.7908027,0.04,0.039999966,-9.773377,0.0986587256193161,-0.62769866,0.13746086,0.10441834479570389,0.03752081
90.94999999999612,-0.040786672,-0.7525988,-0.044257354,-2.3445227,-0.012592929,1.5236737,0.79095787,0.04,0.039999977,-9.772096,0.10350348800420761,-0.6483104,0.13994554,0.10655643790960312,0.038351342
90.96666666666279,-0.042092253,-0.75158423,-0.04566915,-2.3441472,-0.012997072,1.5221679,0.7911159,0.04,0.03999998,-9.770687,0.10831984132528305,-0.6693277,0.14242795,0.10868945717811584,0.039178897
90.98333333332945,-0.043420658,-0.7505519,-0.04710561,-2.343765,-0.013408275,1.5206355,0.7912766,0.04,0.039999984,-9.769084,0.11338164657354355,-0.6907459,0.14490765,0.11082880944013596,0.04002005
90.99999999999612,-0.044771843,-0.74950176,-0.048566706,-2.3433762,-0.013826523,1.5190763,0.79144007,0.04,0.039999984,-9.767441,0.11845561861991882,-0.71249497,0.14738366,0.11296514421701431,0.040872198
91.01666666666279,-0.046145782,-0.7484342,-0.05005242,-2.3429809,-0.014251803,1.5174913,0.7916063,0.04,0.039999988,-9.765821,0.12360581755638123,-0.73464036,0.14985579,0.11509448289871216,0.041729733
91.03333333332945,-0.04754241,-0.7473487,-0.051562678,-2.3425791,-0.014684084,1.51588,0.79177535,0.04,0.039999977,-9.764024,0.1288597285747528,-0.757158,0.15232281,0.11722265928983688,0.042605665
91.04999999999612,-0.04896171,-0.7462457,-0.053097446,-2.3421707,-0.015123372,1.5142423,0.791947,0.04,0.039999977,-9.762246,0.13409259915351868,-0.7800834,0.15478382,0.11934320628643036,0.04347567
91.06666666666278,-0.05040363,-0.74512523,-0.05465667,-2.3417559,-0.015569654,1.5125786,0.7921214,0.04,0.039999977,-9.760316,0.1394263207912445,-0.80337113,0.15723933,0.12145838141441345,0.04435518
91.08333333332945,-0.051868092,-0.74398726,-0.056240294,-2.3413343,-0.01602291,1.5108889,0.7922985,0.04,0.039999977,-9.758305,0.14487308263778687,-0.8270224,0.15968764,0.12356861680746078,0.045241646
91.09999999999611,-0.05335506,-0.74283165,-0.05784824,-2.3409061,-0.016483134,1.5091734,0.7924784,0.04,0.03999998,-9.756172,0.15031130611896515,-0.85107565,0.1621287,0.1256735920906067,0.046133056
91.11666666666278,-0.05486445,-0.7416587,-0.059480444,-2.3404715,-0.016950289,1.507432,0.792661,0.04,0.039999977,-9.75397,0.15590259432792664,-0.8755108,0.16456094,0.12777239084243774,0.047034852
91.13333333332945,-0.056396186,-0.7404683,-0.061136827,-2.3400311,-0.017424338,1.5056648,0.7928462,0.04,0.039999977,-9.75168,0.16149544715881348,-0.900306,0.16698417,0.12986432015895844,0.047947817
91.14999999999611,-0.0579502,-0.7392608,-0.06281728,-2.3395839,-0.017905274,1.503872,0.79303414,0.04,0.03999998,-9.749406,0.16715878248214722,-0.92548,0.16939831,0.13194404542446136,0.04886425
91.16666666666278,-0.0595264,-0.73803604,-0.06452176,-2.3391304,-0.018393066,1.5020536,0.7932248,0.04,0.03999998,-9.746823,0.17283959686756134,-0.95102465,0.1718019,0.13401928544044495,0.049786743
91.18333333332944,-0.061124686,-0.7367941,-0.06625012,-2.3386705,-0.018887691,1.5002098,0.79341817,0.04,0.03999998,-9.74425,0.17862749099731445,-0.9769387,0.17419428,0.1360848993062973,0.050714154
91.19999999999611,-0.06274499,-0.7355352,-0.06800228,-2.3382041,-0.019389126,1.4983405,0.7936142,0.04,0.039999984,-9.741563,0.184444397687912,-1.00324,0.17657538,0.1381414234638214,0.051650047
91.21666666666277,-0.06438719,-0.7342591,-0.06977813,-2.3377314,-0.01989733,1.496446,0.7938129,0.04,0.039999977,-9.738739,0.1902836561203003,-1.0298771,0.17894365,0.1401871144771576,0.052592408
91.23333333332944,-0.06605118,-0.73296607,-0.07157756,-2.3372526,-0.020412263,1.4945264,0.79401416,0.04,0.039999984,-9.735783,0.19622808694839478,-1.0569215,0.1812993,0.14222452044487,0.05354366
91.2499999999961,-0.06773682,-0.7316562,-0.07340043,-2.3367672,-0.020933894,1.4925816,0.79421806,0.04,0.039999984,-9.732798,0.20214112102985382,-1.0843217,0.18364136,0.14424850046634674,0.054498915
91.26666666666277,-0.06944406,-0.7303296,-0.07524661,-2.3362753,-0.021462187,1.4906123,0.7944246,0.04,0.03999998,-9.729574,0.2081664651632309,-1.1120695,0.18596968,0.14626318216323853,0.055461433
91.28333333332944,-0.07117274,-0.7289862,-0.07711599,-2.335777,-0.021997118,1.488618,0.7946337,0.04,0.03999998,-9.726277,0.2141551971435547,-1.1401862,0.18828303,0.1482672244310379,0.056428067
91.2999999999961,-0.07292271,-0.72762626,-0.07900842,-2.3352735,-0.022538647,1.4865993,0.7948454,0.04,0.03999998,-9.72282,0.22025418281555176,-1.1686617,0.19058083,0.15026026964187622,0.057401523
91.31666666666277,-0.074693866,-0.72625005,-0.080923796,-2.334764,-0.0230867,1.4845562,0.7950596,0.04,0.039999977,-9.719399,0.22635340690612793,-1.1975175,0.19286273,0.1522364467382431,0.058385428
91.33333333332943,-0.076486096,-0.72485745,-0.082861915,-2.3342478,-0.023641266,1.4824889,0.79527634,0.04,0.03999998,-9.715727,0.23248766362667084,-1.2266845,0.19512805,0.1541995406150818,0.05937098
91.3499999999961,-0.0782992,-0.72344863,-0.08482266,-2.3337262,-0.024202289,1.4803972,0.7954956,0.04,0.039999984,-9.711852,0.23862147331237793,-1.2562324,0.19737662,0.15615226328372955,0.060361654
91.36666666666277,-0.08013306,-0.72202367,-0.08680587,-2.333198,-0.024769729,1.4782817,0.79571754,0.04,0.039999973,-9.707958,0.24484209716320038,-1.2861238,0.19960704,0.1580878645181656,0.061359957
91.38333333332943,-0.08198753,-0.72058266,-0.08881135,-2.3326645,-0.025343558,1.4761424,0.7959418,0.04,0.039999984,-9.703812,0.25100746750831604,-1.3163655,0.20181888,0.16001157462596893,0.062360544
91.3999999999961,-0.08386245,-0.71912587,-0.09083895,-2.332125,-0.025923684,1.4739796,0.79616857,0.04,0.03999998,-9.699664,0.25730177760124207,-1.3469566,0.20401198,0.16191700100898743,0.063372076
91.41666666666276,-0.08575767,-0.7176532,-0.092888504,-2.331579,-0.026510064,1.4717934,0.7963978,0.04,0.03999998,-9.69525,0.2635045051574707,-1.3778753,0.20618573,0.16380861401557922,0.064386785
91.43333333332943,-0.08767299,-0.71616507,-0.094959825,-2.3310275,-0.027102662,1.4695839,0.7966295,0.04,0.039999973,-9.690629,0.26979461312294006,-1.4091561,0.20833918,0.16568781435489655,0.065405995
91.4499999999961,-0.089608274,-0.7146613,-0.0970527,-2.3304708,-0.02770144,1.4673511,0.79686344,0.04,0.03999998,-9.685985,0.2760574519634247,-1.4407353,0.21047196,0.16754920780658722,0.06642756
91.46666666666276,-0.091563314,-0.7131423,-0.099166974,-2.3299081,-0.028306345,1.4650961,0.7970998,0.04,0.039999984,-9.681238,0.2823176681995392,-1.472686,0.21258424,0.169389009475708,0.06745543
91.48333333332943,-0.09353795,-0.711608,-0.10130247,-2.3293395,-0.02891729,1.4628184,0.7973387,0.04,0.039999977,-9.676173,0.28864768147468567,-1.5049595,0.21467453,0.1712171584367752,0.06849042
91.49999999999609,-0.09553202,-0.71005875,-0.10345897,-2.3287652,-0.029534234,1.4605182,0.79757994,0.04,0.039999977,-9.670942,0.29491376876831055,-1.5375392,0.21674173,0.17302995920181274,0.06952737
91.51666666666276,-0.0975453,-0.7084943,-0.10563627,-2.3281865,-0.030157115,1.4581958,0.79782337,0.04,0.039999977,-9.665608,0.3012365400791168,-1.5704324,0.21878622,0.17482517659664154,0.07056842
91.53333333332942,-0.099577636,-0.7069154,-0.107834175,-2.3276017,-0.030785887,1.4558517,0.7980692,0.04,0.03999998,-9.660281,0.3075106739997864,-1.6036937,0.22080839,0.17659471929073334,0.07161434
91.54999999999609,-0.10162879,-0.7053216,-0.11005247,-2.3270109,-0.031420477,1.4534856,0.7983175,0.04,0.039999977,-9.654515,0.31382429599761963,-1.6372178,0.22280566,0.17835155129432678,0.07266348
91.56666666666275,-0.10369858,-0.70371366,-0.11229092,-2.326415,-0.03206082,1.4510983,0.7985678,0.04,0.03999998,-9.648568,0.3200985789299011,-1.6710756,0.22477771,0.1800919622182846,0.07371745
91.58333333332942,-0.10578679,-0.70209104,-0.114549294,-2.325814,-0.03270687,1.4486898,0.79882044,0.04,0.03999998,-9.642615,0.3263767957687378,-1.7052183,0.2267265,0.18181253969669342,0.07477278
91.59999999999609,-0.10789324,-0.70045424,-0.11682739,-2.3252075,-0.033358548,1.4462599,0.7990751,0.04,0.039999988,-9.636412,0.3326294720172882,-1.7397202,0.22864886,0.18351294100284576,0.075833604
91.61666666666275,-0.1100177,-0.6988033,-0.119125,-2.3245957,-0.034015786,1.4438096,0.799332,0.04,0.03999998,-9.63002,0.33889004588127136,-1.7744673,0.23054606,0.18519216775894165,0.076896004
91.63333333332942,-0.11215995,-0.69713867,-0.12144186,-2.323979,-0.034678534,1.4413389,0.7995911,0.04,0.039999988,-9.623413,0.34510666131973267,-1.809548,0.2324167,0.18685391545295715,0.07796202
91.64999999999608,-0.1143198,-0.69546074,-0.12377778,-2.3233569,-0.035346705,1.4388478,0.7998524,0.04,0.039999984,-9.61666,0.35133156180381775,-1.8448846,0.2342603,0.1884961724281311,0.0790299
91.66666666666275,-0.116496995,-0.6937693,-0.12613243,-2.32273,-0.036020227,1.4363368,0.80011576,0.04,0.03999997,-9.609693,0.3575196862220764,-1.8804793,0.23607664,0.19011813402175903,0.08010249
91.68333333332941,-0.118691325,-0.6920644,-0.12850562,-2.3220985,-0.03669904,1.4338062,0.8003811,0.04,0.039999977,-9.602537,0.36367395520210266,-1.9164002,0.23786494,0.19172021746635437,0.08117494
91.69999999999608,-0.12090257,-0.69034654,-0.13089712,-2.3214617,-0.037383076,1.4312558,0.8006485,0.04,0.039999973,-9.59525,0.36981910467147827,-1.952609,0.2396251,0.19329924881458282,0.08225085
91.71666666666275,-0.123130426,-0.6886156,-0.13330665,-2.3208203,-0.03807226,1.428686,0.80091786,0.04,0.039999977,-9.587629,0.375884473323822,-1.9890382,0.24135686,0.19485831260681152,0.08332662
91.73333333332941,-0.12537473,-0.686872,-0.13573393,-2.3201745,-0.03876651,1.4260974,0.8011891,0.04,0.03999997,-9.579955,0.3819727301597595,-2.0257847,0.24305983,0.1963927447795868,0.08440579
91.74999999999608,-0.12763521,-0.685116,-0.13817877,-2.3195236,-0.03946579,1.4234903,0.8014625,0.04,0.039999977,-9.572011,0.3879614770412445,-2.0627732,0.24473362,0.19790539145469666,0.08548407
91.76666666666274,-0.12991166,-0.6833474,-0.14064088,-2.3188682,-0.04016996,1.4208648,0.8017377,0.04,0.039999966,-9.563815,0.3939836621284485,-2.100014,0.24637663,0.1993981897830963,0.086565256
91.78333333332941,-0.1322038,-0.6815668,-0.14311992,-2.3182085,-0.040878974,1.4182211,0.802015,0.04,0.039999966,-9.5554905,0.3999148905277252,-2.1375258,0.24798909,0.20086674392223358,0.08764702
91.79999999999607,-0.13451143,-0.6797742,-0.14561571,-2.3175442,-0.04159277,1.4155599,0.8022941,0.04,0.03999997,-9.546904,0.4058065712451935,-2.1752687,0.24957046,0.20231308043003082,0.0887282
91.81666666666274,-0.13683417,-0.67796993,-0.14812797,-2.316875,-0.042311247,1.4128814,0.802575,0.04,0.03999997,-9.538107,0.4116479456424713,-2.213249,0.25112072,0.2037375271320343,0.08980935
91.8333333333294,-0.13917184,-0.6761539,-0.15065637,-2.316202,-0.04303435,1.4101853,0.8028577,0.04,0.039999966,-9.529012,0.4174518883228302,-2.2514691,0.2526393,0.20514355599880219,0.09088986
91.84999999999607,-0.14152418,-0.6743266,-0.15320066,-2.3155246,-0.043761995,1.4074725,0.80314225,0.04,0.03999997,-9.519905,0.42317312955856323,-2.2899294,0.25412637,0.20652002096176147,0.09197081
91.86666666666274,-0.14389096,-0.67248803,-0.1557605,-2.3148434,-0.0444941,1.404743,0.8034285,0.04,0.039999973,-9.510432,0.42887991666793823,-2.3286014,0.25558028,0.20787526667118073,0.093051076
91.8833333333294,-0.14627185,-0.6706383,-0.15833573,-2.3141575,-0.04523056,1.4019973,0.80371636,0.04,0.03999997,-9.500815,0.4344797432422638,-2.3675194,0.25700194,0.20920446515083313,0.09413098
91.89999999999607,-0.14866662,-0.66877794,-0.16092591,-2.313468,-0.045971308,1.3992357,0.804006,0.04,0.03999997,-9.490896,0.44005829095840454,-2.4066362,0.2583907,0.2105110138654709,0.095208846
91.91666666666273,-0.15107498,-0.666907,-0.1635309,-2.3127744,-0.046716247,1.3964581,0.80429727,0.04,0.03999996,-9.480829,0.4455294907093048,-2.4459636,0.25974613,0.21179261803627014,0.09628551
91.9333333333294,-0.15349668,-0.66502583,-0.16615026,-2.3120775,-0.04746532,1.3936653,0.80459017,0.04,0.039999973,-9.470479,0.4509735703468323,-2.4854667,0.26106706,0.21304889023303986,0.09735805
91.94999999999607,-0.15593147,-0.66313446,-0.16878377,-2.311376,-0.048218407,1.3908575,0.80488455,0.04,0.03999996,-9.459996,0.45633813738822937,-2.5252047,0.2623541,0.2142786830663681,0.098430745
91.96666666666273,-0.15837903,-0.66123325,-0.17143114,-2.310672,-0.04897545,1.3880348,0.8051805,0.04,0.03999997,-9.449096,0.46161168813705444,-2.5650907,0.26360703,0.21548718214035034,0.09950019
91.9833333333294,-0.16083905,-0.6593222,-0.17409196,-2.3099637,-0.049736355,1.3851981,0.80547804,0.04,0.03999997,-9.438248,0.46682652831077576,-2.6052215,0.26482522,0.21666450798511505,0.100567155
91.99999999999606,-0.16331133,-0.65740174,-0.17676608,-2.3092523,-0.050501026,1.3823475,0.8057769,0.04,0.03999996,-9.426901,0.4719485342502594,-2.645509,0.2660081,0.21782100200653076,0.10163116
92.01666666666273,-0.16579549,-0.65547216,-0.17945305,-2.3085368,-0.051269382,1.3794829,0.80607724,0.04,0.039999966,-9.415488,0.4770067036151886,-2.6859717,0.26715595,0.21894988417625427,0.102689594
92.0333333333294,-0.16829126,-0.6535336,-0.18215263,-2.3078182,-0.052041315,1.376605,0.80637896,0.04,0.039999966,-9.403671,0.4819789230823517,-2.7265577,0.26826847,0.2200564593076706,0.10374646
92.04999999999606,-0.17079839,-0.6515861,-0.1848645,-2.3070967,-0.052816756,1.3737141,0.80668217,0.04,0.039999966,-9.391775,0.4868602752685547,-2.7673397,0.26934507,0.2211354523897171,0.104797564
92.06666666666273,-0.17331655,-0.6496302,-0.18758835,-2.3063712,-0.05359563,1.370811,0.80698663,0.04,0.03999997,-9.379664,0.49163883924484253,-2.8082948,0.27038488,0.2221858948469162,0.10584339
92.08333333332939,-0.17584547,-0.6476659,-0.19032383,-2.3056433,-0.05437783,1.3678943,0.80729234,0.04,0.03999998,-9.367106,0.4963656961917877,-2.8493574,0.27138904,0.2232172191143036,0.10688434
92.09999999999606,-0.17838484,-0.64569354,-0.19307065,-2.304912,-0.055163242,1.364966,0.80759937,0.04,0.039999977,-9.354565,0.50098717212677,-2.8905618,0.27235642,0.22421295940876007,0.10792301
92.11666666666272,-0.18093435,-0.6437133,-0.19582845,-2.3041778,-0.05595178,1.3620263,0.8079077,0.04,0.039999966,-9.34162,0.505510687828064,-2.9319305,0.27328664,0.22518616914749146,0.10895462
92.13333333332939,-0.18349373,-0.6417254,-0.19859691,-2.303442,-0.05674337,1.3590751,0.80821717,0.04,0.03999997,-9.328508,0.5099090933799744,-2.9734204,0.2741796,0.22613242268562317,0.1099784
92.14999999999606,-0.18606263,-0.6397302,-0.20137572,-2.3027022,-0.057537902,1.3561124,0.80852795,0.04,0.039999966,-9.315283,0.5142509341239929,-3.0150554,0.27503544,0.22704556584358215,0.11099746
92.16666666666272,-0.18864079,-0.63772774,-0.20416456,-2.30196,-0.05833529,1.3531404,0.8088397,0.04,0.039999973,-9.301523,0.5184687376022339,-3.056751,0.27585307,0.22793586552143097,0.11200843
92.18333333332939,-0.19122788,-0.63571846,-0.2069631,-2.3012154,-0.05913543,1.3501577,0.8091525,0.04,0.039999973,-9.287715,0.522603452205658,-3.09863,0.27663392,0.2288013994693756,0.113013305
92.19999999999605,-0.19382356,-0.63370246,-0.20977098,-2.300468,-0.05993825,1.3471644,0.80946624,0.04,0.039999977,-9.273617,0.52662193775177,-3.140547,0.27737677,0.2296396791934967,0.11400925
92.21666666666272,-0.1964276,-0.6316801,-0.21258786,-2.2997181,-0.06074361,1.3441625,0.8097811,0.04,0.039999973,-9.25928,0.5305349826812744,-3.182554,0.27808207,0.2304476797580719,0.11499913
92.23333333332938,-0.19903961,-0.6296514,-0.2154135,-2.2989666,-0.061551463,1.3411516,0.81009686,0.04,0.039999984,-9.244724,0.5343395471572876,-3.2246916,0.27874896,0.23123131692409515,0.1159795
92.24999999999605,-0.20165928,-0.6276169,-0.21824738,-2.2982123,-0.062361673,1.3381308,0.8104136,0.04,0.039999977,-9.229972,0.5380393266677856,-3.2669282,0.27937746,0.23198580741882324,0.11695212
92.26666666666272,-0.20428635,-0.62557644,-0.2210893,-2.297456,-0.06317418,1.3351021,0.8107311,0.04,0.039999977,-9.214898,0.5416246056556702,-3.309153,0.27996743,0.23270949721336365,0.117915526
92.28333333332938,-0.20692047,-0.62353057,-0.22393882,-2.2966971,-0.063988835,1.3320655,0.8110496,0.04,0.039999984,-9.199639,0.5450871586799622,-3.3515408,0.28051925,0.23340585827827454,0.118869595
92.29999999999605,-0.20956136,-0.62147963,-0.22679567,-2.295937,-0.0648056,1.3290209,0.8113688,0.04,0.039999973,-9.184057,0.5484492778778076,-3.393936,0.28103203,0.2340778410434723,0.11981414
92.31666666666271,-0.21220869,-0.6194236,-0.22965951,-2.295175,-0.065624334,1.3259689,0.811689,0.04,0.039999988,-9.168361,0.5516718029975891,-3.4363894,0.28150603,0.2347181737422943,0.12074566
92.33333333332938,-0.21486206,-0.617363,-0.23253,-2.2944114,-0.06644495,1.3229102,0.81200975,0.04,0.039999984,-9.152399,0.5548152327537537,-3.4789205,0.28193998,0.2353293001651764,0.12166908
92.34999999999604,-0.21752118,-0.615298,-0.23540676,-2.2936456,-0.06726736,1.319845,0.81233114,0.04,0.03999998,-9.136174,0.5578109622001648,-3.5214765,0.28233632,0.23591239750385284,0.12258129
92.36666666666271,-0.22018583,-0.6132286,-0.23828942,-2.2928784,-0.06809142,1.3167729,0.8126533,0.04,0.03999998,-9.119648,0.560701310634613,-3.5640488,0.28269374,0.2364700436592102,0.12348242
92.38333333332938,-0.22285557,-0.6111554,-0.24117762,-2.29211,-0.06891708,1.3136958,0.81297594,0.04,0.03999998,-9.103002,0.5634573101997375,-3.6066656,0.28301102,0.23699502646923065,0.12437098
92.39999999999604,-0.22553015,-0.6090784,-0.24407104,-2.29134,-0.0697442,1.3106123,0.8132992,0.04,0.039999984,-9.086058,0.5660907626152039,-3.6493158,0.28329062,0.23749475181102753,0.12524801
92.4166666666627,-0.22820915,-0.6069979,-0.24696933,-2.2905684,-0.07057271,1.3075242,0.8136231,0.04,0.039999984,-9.068952,0.5685886740684509,-3.691958,0.28353035,0.2379608005285263,0.12611116
92.43333333332937,-0.23089235,-0.60491437,-0.24987212,-2.289796,-0.07140248,1.3044316,0.8139474,0.04,0.039999984,-9.051482,0.5709914565086365,-3.7346106,0.28373018,0.23840206861495972,0.12696262
92.44999999999604,-0.23357937,-0.60282785,-0.25277913,-2.2890224,-0.072233416,1.3013344,0.81427217,0.04,0.039999977,-9.03394,0.5732495188713074,-3.7772794,0.28389192,0.2388131469488144,0.12780158
92.4666666666627,-0.23626985,-0.6007387,-0.2556899,-2.2882476,-0.07306544,1.2982333,0.8145974,0.04,0.03999998,-9.016083,0.5753830671310425,-3.8199217,0.28401372,0.23919449746608734,0.1286254
92.48333333332937,-0.23896354,-0.59864706,-0.25860405,-2.287472,-0.073898435,1.2951286,0.8149231,0.04,0.039999984,-8.997993,0.577380359172821,-3.8625438,0.28409657,0.23954860866069794,0.12943554
92.49999999999604,-0.24166003,-0.59655327,-0.2615214,-2.286696,-0.07473233,1.2920208,0.8152491,0.04,0.039999984,-8.979715,0.579239547252655,-3.905164,0.28413963,0.23987282812595367,0.1302299
92.5166666666627,-0.24435902,-0.59445757,-0.26444155,-2.2859192,-0.07556698,1.2889098,0.81557524,0.04,0.039999984,-8.961296,0.5809861421585083,-3.9477758,0.28414416,0.24016492068767548,0.13101111
92.53333333332937,-0.24706018,-0.5923602,-0.267364,-2.2851412,-0.0764023,1.2857965,0.81590164,0.04,0.03999999,-8.942551,0.5826014876365662,-3.9903176,0.28410956,0.24042703211307526,0.13177644
92.54999999999603,-0.24976322,-0.5902614,-0.2702885,-2.2843633,-0.077238165,1.2826812,0.8162283,0.04,0.039999984,-8.923528,0.5840861201286316,-4.0328236,0.2840364,0.2406633198261261,0.13252662
92.5666666666627,-0.25246784,-0.5881614,-0.27321464,-2.283585,-0.07807451,1.2795643,0.81655514,0.04,0.039999984,-8.904464,0.5854237079620361,-4.075313,0.28392366,0.2408669888973236,0.13326013
92.58333333332936,-0.25517353,-0.58606064,-0.2761421,-2.2828069,-0.07891118,1.2764459,0.81688213,0.04,0.039999995,-8.885107,0.58663010597229,-4.117729,0.2837715,0.24104046821594238,0.13397625
92.59999999999603,-0.25788006,-0.5839591,-0.27907056,-2.282028,-0.0797481,1.2733262,0.81720924,0.04,0.039999995,-8.865587,0.5877162218093872,-4.1600947,0.28358144,0.2411816269159317,0.13467738
92.6166666666627,-0.2605871,-0.5818573,-0.28199944,-2.281249,-0.080585204,1.2702062,0.81753635,0.04,0.04,-8.845769,0.5886484980583191,-4.202382,0.283352,0.24129314720630646,0.13536006
92.63333333332936,-0.2632943,-0.5797554,-0.28492865,-2.28047,-0.08142235,1.2670861,0.8178635,0.04,0.03999999,-8.825762,0.5894501805305481,-4.2445903,0.28308514,0.24137717485427856,0.13602729
92.64999999999603,-0.26600143,-0.57765365,-0.28785768,-2.2796905,-0.08225945,1.2639663,0.8181907,0.04,0.039999984,-8.805589,0.5901294946670532,-4.2867284,0.28277925,0.24143068492412567,0.13667609
92.66666666666269,-0.26870814,-0.57555217,-0.2907863,-2.2789114,-0.083096385,1.2608473,0.8185178,0.04,0.04,-8.785157,0.5906652808189392,-4.328771,0.28243425,0.24145647883415222,0.1373046
92.68333333332936,-0.27141404,-0.5734515,-0.29371405,-2.2781327,-0.08393306,1.2577289,0.8188448,0.04,0.039999988,-8.764615,0.5910903215408325,-4.3707337,0.28205085,0.2414514124393463,0.13791697
92.69999999999602,-0.2741188,-0.57135177,-0.29664055,-2.2773535,-0.084769376,1.2546122,0.8191718,0.04,0.039999988,-8.74385,0.5913568139076233,-4.412563,0.28162947,0.24141566455364227,0.13850899
92.71666666666269,-0.27682212,-0.56925327,-0.2995656,-2.2765753,-0.085605204,1.251497,0.81949854,0.04,0.039999988,-8.722838,0.5915005803108215,-4.454294,0.28116938,0.24135315418243408,0.13908187
92.73333333332936,-0.27952355,-0.5671559,-0.30248874,-2.2757976,-0.086440496,1.2483842,0.81982493,0.04,0.03999999,-8.701738,0.5914943218231201,-4.495933,0.28067183,0.2412584125995636,0.13963382
92.74999999999602,-0.28222284,-0.5650604,-0.30540952,-2.2750206,-0.0872751,1.2452735,0.8201509,0.04,0.03999999,-8.680428,0.5913701057434082,-4.537472,0.28013712,0.2411343902349472,0.14016752
92.76666666666269,-0.28491968,-0.5629668,-0.30832765,-2.2742438,-0.088108934,1.2421659,0.8204768,0.04,0.03999999,-8.65894,0.5910861492156982,-4.5788336,0.27956596,0.24097749590873718,0.14067978
92.78333333332935,-0.2876137,-0.56087554,-0.3112428,-2.2734685,-0.08894192,1.2390618,0.8208023,0.04,0.03999999,-8.637228,0.5906771421432495,-4.6200986,0.2789569,0.24079397320747375,0.14117105
92.79999999999602,-0.2903046,-0.5587865,-0.31415457,-2.272694,-0.08977391,1.2359614,0.82112736,0.04,0.03999999,-8.615449,0.5901449918746948,-4.661214,0.27831104,0.2405788004398346,0.14164229
92.81666666666268,-0.292992,-0.55670035,-0.3170626,-2.2719204,-0.09060482,1.2328651,0.82145214,0.04,0.04,-8.593454,0.5894744396209717,-4.7022114,0.2776282,0.24033266305923462,0.14209235
92.83333333332935,-0.2956756,-0.55461735,-0.31996667,-2.2711484,-0.09143455,1.2297732,0.8217763,0.04,0.04,-8.571243,0.588657557964325,-4.743023,0.2769089,0.24005867540836334,0.14252096
92.84999999999602,-0.29835522,-0.5525375,-0.3228662,-2.2703774,-0.092263006,1.2266858,0.82210004,0.04,0.04,-8.548995,0.5877341628074646,-4.7836933,0.2761539,0.23975227773189545,0.14292714
92.86666666666268,-0.30103043,-0.55046093,-0.325761,-2.2696073,-0.09309011,1.2236035,0.8224233,0.04,0.03999999,-8.526473,0.5866604447364807,-4.824178,0.27536187,0.2394157350063324,0.14331105
92.88333333332935,-0.30370075,-0.54838836,-0.3286507,-2.2688391,-0.09391571,1.2205268,0.8227458,0.04,0.04,-8.503846,0.5854673385620117,-4.8645453,0.27453357,0.23904889822006226,0.14367238
92.89999999999601,-0.306366,-0.5463197,-0.33153486,-2.2680717,-0.0947397,1.2174559,0.82306784,0.04,0.04,-8.4810915,0.5841243267059326,-4.9047112,0.27367115,0.23865188658237457,0.14401126
92.91666666666268,-0.30902582,-0.5442552,-0.3344132,-2.267306,-0.09556201,1.2143916,0.8233891,0.04,0.04,-8.4580965,0.5826679468154907,-4.9446754,0.27277228,0.2382272630929947,0.14432673
92.93333333332934,-0.31167993,-0.54219526,-0.33728552,-2.2665424,-0.09638254,1.2113341,0.8237097,0.04,0.04,-8.435094,0.5810884833335876,-4.984518,0.27183923,0.2377711534500122,0.14462005
92.94999999999601,-0.31432804,-0.54014015,-0.34015128,-2.2657807,-0.09720121,1.2082828,0.8240295,0.04,0.04,-8.411957,0.5793704390525818,-5.0241365,0.27087155,0.2372846007347107,0.14488879
92.96666666666268,-0.31696972,-0.53808993,-0.34301007,-2.2650201,-0.09801788,1.2052392,0.82434875,0.04,0.04,-8.388655,0.5775545239448547,-5.063544,0.26986912,0.23676496744155884,0.14513375
92.98333333332934,-0.31960467,-0.5360452,-0.34586173,-2.2642615,-0.09883245,1.2022034,0.8246671,0.04,0.04,-8.365136,0.5755714774131775,-5.1027517,0.2688314,0.23621903359889984,0.14535561
92.999999999996,-0.32223263,-0.5340059,-0.3487058,-2.2635052,-0.099644855,1.1991756,0.82498443,0.04,0.04,-8.341569,0.5734780430793762,-5.1417527,0.267761,0.23564499616622925,0.14555009
93.01666666666267,-0.3248533,-0.53197217,-0.35154203,-2.2627513,-0.10045497,1.1961573,0.825301,0.04,0.04,-8.317961,0.5712674260139465,-5.180578,0.26665762,0.23503777384757996,0.1457227
93.03333333332934,-0.3274662,-0.52994436,-0.35436997,-2.2619994,-0.101262696,1.1931478,0.82561654,0.04,0.04,-8.294221,0.568946897983551,-5.219227,0.26552022,0.23440323770046234,0.14586945
93.049999999996,-0.3300712,-0.5279229,-0.3571893,-2.26125,-0.102067955,1.1901472,0.82593113,0.04,0.04,-8.270292,0.5664679408073425,-5.2575727,0.2643511,0.23374034464359283,0.14599264
93.06666666666267,-0.33266795,-0.52590793,-0.35999975,-2.260503,-0.10287064,1.1871567,0.8262448,0.04,0.04,-8.246368,0.5639022588729858,-5.295718,0.263149,0.23304559290409088,0.14608908
93.08333333332934,-0.33525604,-0.5238996,-0.3628009,-2.2597578,-0.103670664,1.1841754,0.82655734,0.04,0.04,-8.222311,0.5611991882324219,-5.333647,0.261915,0.23232248425483704,0.1461601
93.099999999996,-0.3378353,-0.52189827,-0.36559248,-2.259016,-0.10446793,1.1812053,0.82686883,0.04,0.04,-8.1980715,0.5584147572517395,-5.371281,0.2606488,0.231570765376091,0.14620589
93.11666666666267,-0.3404053,-0.5199041,-0.36837405,-2.2582767,-0.105262324,1.1782455,0.8271791,0.04,0.04,-8.1739235,0.5554791688919067,-5.4087906,0.2593515,0.23078949749469757,0.1462265
93.13333333332933,-0.34296572,-0.5179172,-0.37114534,-2.2575397,-0.106053755,1.1752958,0.8274882,0.04,0.04,-8.1495905,0.5524331331253052,-5.445967,0.2580242,0.22997832298278809,0.14622022
93.149999999996,-0.34551638,-0.5159381,-0.373906,-2.256806,-0.10684213,1.1723573,0.8277962,0.04,0.04,-8.125194,0.5492851138114929,-5.4828944,0.2566658,0.22913460433483124,0.14619033
93.16666666666266,-0.3480569,-0.51396686,-0.37665582,-2.2560744,-0.1076274,1.1694317,0.82810295,0.04,0.04,-8.100752,0.5460163950920105,-5.5195913,0.25527692,0.228260800242424,0.14613281
93.18333333332933,-0.3505872,-0.5120039,-0.37939438,-2.2553468,-0.10840941,1.1665184,0.82840836,0.04,0.04,-8.076176,0.5426837801933289,-5.55606,0.2538584,0.22736504673957825,0.14604901
93.199999999996,-0.35310656,-0.5100492,-0.3821213,-2.2546217,-0.10918809,1.1636174,0.8287126,0.04,0.04,-8.051688,0.5392276048660278,-5.59227,0.25241047,0.2264385223388672,0.14594011
93.21666666666266,-0.35561505,-0.50810313,-0.3848364,-2.2538998,-0.10996333,1.1607282,0.8290155,0.04,0.04,-8.027016,0.5356283783912659,-5.628157,0.25093344,0.2254844456911087,0.14580262
93.23333333332933,-0.3581121,-0.5061658,-0.38753918,-2.253182,-0.11073506,1.1578532,0.8293169,0.04,0.04,-8.002358,0.531968891620636,-5.663784,0.24942721,0.22449809312820435,0.1456385
93.24999999999599,-0.36059758,-0.50423765,-0.3902296,-2.252467,-0.11150321,1.154991,0.82961696,0.04,0.04,-7.97774,0.528171181678772,-5.699246,0.2478943,0.22348397970199585,0.14544933
93.26666666666266,-0.3630711,-0.5023186,-0.39290708,-2.2517557,-0.11226767,1.1521428,0.8299155,0.04,0.04,-7.9529486,0.5243209600448608,-5.734295,0.24633275,0.22244127094745636,0.14523186
93.28333333332932,-0.36553264,-0.5004092,-0.39557144,-2.2510474,-0.11302834,1.1493088,0.8302127,0.04,0.04,-7.928214,0.5203297734260559,-5.7691536,0.24474429,0.22136956453323364,0.14498848
93.29999999999599,-0.36798158,-0.49850947,-0.39822236,-2.2503433,-0.11378515,1.1464894,0.8305083,0.04,0.04,-7.9033504,0.5162951946258545,-5.8036747,0.2431277,0.2202736884355545,0.14471732
93.31666666666266,-0.37041777,-0.49661976,-0.40085956,-2.2496421,-0.11453799,1.1436847,0.8308024,0.04,0.04,-7.87863,0.5121417045593262,-5.837969,0.24148594,0.21914643049240112,0.14441928
93.33333333332932,-0.37284094,-0.49474022,-0.4034827,-2.2489455,-0.11528679,1.1408951,0.8310949,0.04,0.04,-7.853708,0.5078950524330139,-5.87189,0.23981762,0.2179967612028122,0.1440947
93.34999999999599,-0.37525076,-0.49287102,-0.4060914,-2.248252,-0.116031446,1.1381208,0.8313858,0.04,0.04,-7.828971,0.5035737752914429,-5.905603,0.23812379,0.21681590378284454,0.14374326
93.36666666666265,-0.37764695,-0.49101236,-0.40868554,-2.2475624,-0.1167719,1.1353619,0.83167493,0.04,0.04,-7.80408,0.4991381764411926,-5.9389524,0.23640513,0.21560969948768616,0.14336464
93.38333333332932,-0.38002938,-0.4891646,-0.41126466,-2.2468772,-0.11750806,1.1326194,0.8319625,0.04,0.04,-7.7792997,0.4946627616882324,-5.972057,0.23466231,0.21437369287014008,0.14295858
93.39999999999598,-0.38239762,-0.48732778,-0.4138285,-2.2461965,-0.11823982,1.1298931,0.8322484,0.04,0.04,-7.7544823,0.4900752305984497,-6.0048437,0.23289421,0.21311260759830475,0.14252503
93.41666666666265,-0.38475138,-0.48550218,-0.41637674,-2.2455204,-0.118967116,1.1271832,0.8325325,0.04,0.04,-7.7297716,0.4853883683681488,-6.037354,0.23110314,0.21182093024253845,0.14206499
93.43333333332932,-0.38709056,-0.483688,-0.41890916,-2.244847,-0.119689874,1.1244906,0.8328149,0.04,0.04,-7.7050304,0.48067742586135864,-6.069548,0.22928901,0.21050044894218445,0.14158033
93.44999999999598,-0.38941488,-0.48188543,-0.42142552,-2.2441785,-0.120408006,1.1218152,0.8330954,0.04,0.04,-7.6801505,0.47586438059806824,-6.1013784,0.22745144,0.20916062593460083,0.14106645
93.46666666666265,-0.39172396,-0.48009476,-0.42392546,-2.2435143,-0.121121414,1.1191571,0.833374,0.04,0.04,-7.655505,0.47101154923439026,-6.1329517,0.22559197,0.20779204368591309,0.14052565
93.48333333332931,-0.3940176,-0.4783161,-0.4264087,-2.2428546,-0.121830076,1.1165171,0.8336508,0.04,0.04,-7.6308084,0.46605315804481506,-6.164182,0.22371048,0.20639795064926147,0.13995884
93.49999999999598,-0.39629567,-0.47654969,-0.42887503,-2.2422004,-0.12253385,1.1138952,0.8339257,0.04,0.04,-7.6062045,0.4610538184642792,-6.195127,0.22180764,0.20497822761535645,0.13936453
93.51666666666264,-0.3985577,-0.47479564,-0.43132415,-2.2415497,-0.12323271,1.1112919,0.8341987,0.04,0.04,-7.581747,0.4559410512447357,-6.225793,0.21988422,0.20352856814861298,0.13874385
93.53333333332931,-0.40080354,-0.47305414,-0.43375576,-2.2409043,-0.1239265,1.1087072,0.83446974,0.04,0.04,-7.557101,0.45085853338241577,-6.2560463,0.21794024,0.20205992460250854,0.13809842
93.54999999999598,-0.40303287,-0.4713255,-0.43616965,-2.2402635,-0.124615215,1.1061413,0.8347387,0.04,0.04,-7.5327225,0.44561445713043213,-6.286054,0.21597686,0.2005624771118164,0.13742495
93.56666666666264,-0.40524572,-0.4696098,-0.4385657,-2.239627,-0.12529875,1.1035949,0.83500564,0.04,0.04,-7.5083275,0.44039344787597656,-6.3157096,0.21399453,0.19904035329818726,0.13672681
93.5833333333293,-0.40744162,-0.4679072,-0.44094336,-2.2389958,-0.12597704,1.1010681,0.8352705,0.04,0.04,-7.4839773,0.43511292338371277,-6.3450227,0.2119919,0.19749648869037628,0.13600014
93.59999999999597,-0.4096203,-0.46621805,-0.44330248,-2.2383697,-0.12665005,1.098561,0.8355332,0.04,0.04,-7.459779,0.42973724007606506,-6.3740582,0.20997165,0.19592715799808502,0.1352479
93.61666666666264,-0.41178173,-0.4645424,-0.44564286,-2.237748,-0.12731764,1.0960742,0.83579385,0.04,0.04,-7.435644,0.42431536316871643,-6.4027286,0.20793432,0.19433332979679108,0.13447037
93.6333333333293,-0.41392556,-0.46288037,-0.44796416,-2.2371316,-0.12797977,1.0936075,0.83605254,0.04,0.04,-7.4115195,0.4189242124557495,-6.4310718,0.2058789,0.1927194744348526,0.13366856
93.64999999999597,-0.4160515,-0.46123227,-0.4502663,-2.236521,-0.1286364,1.0911616,0.8363091,0.04,0.04,-7.387618,0.4133776128292084,-6.459108,0.2038062,0.19107887148857117,0.13284022
93.66666666666264,-0.41815946,-0.45959818,-0.45254886,-2.235915,-0.12928751,1.088736,0.8365631,0.04,0.04,-7.3637757,0.40783506631851196,-6.4868207,0.20171766,0.18941538035869598,0.13198663
93.6833333333293,-0.42024904,-0.45797828,-0.45481175,-2.2353141,-0.12993291,1.0863316,0.83681506,0.04,0.04,-7.3399854,0.4023084044456482,-6.514163,0.19961397,0.18772876262664795,0.13110943
93.69999999999597,-0.42232028,-0.45637274,-0.45705473,-2.234719,-0.1305726,1.0839486,0.83706486,0.04,0.04,-7.316339,0.396665096282959,-6.5412025,0.19749498,0.18602041900157928,0.13020632
93.71666666666263,-0.42437288,-0.45478174,-0.4592775,-2.2341297,-0.13120654,1.0815873,0.83731234,0.04,0.04,-7.292837,0.39106979966163635,-6.5679154,0.19536042,0.18428893387317657,0.1292811
93.7333333333293,-0.4264066,-0.4532054,-0.46147996,-2.233545,-0.13183457,1.0792477,0.8375577,0.04,0.04,-7.2694397,0.3853752911090851,-6.5943003,0.19321197,0.18253614008426666,0.12833068
93.74999999999596,-0.4284213,-0.4516439,-0.46366182,-2.2329657,-0.13245673,1.0769302,0.8378005,0.04,0.04,-7.246114,0.3797047436237335,-6.6203117,0.19104867,0.18076369166374207,0.12735473
93.76666666666263,-0.4304167,-0.4500973,-0.46582285,-2.2323923,-0.13307296,1.0746348,0.8380412,0.04,0.04,-7.2229595,0.3739578127861023,-6.6460085,0.18887313,0.1789705902338028,0.12635456
93.7833333333293,-0.43239263,-0.44856575,-0.4679629,-2.2318254,-0.1336831,1.072362,0.8382794,0.04,0.04,-7.1999717,0.36825668811798096,-6.6713943,0.18668357,0.17715561389923096,0.12533431
93.79999999999596,-0.4343489,-0.44704962,-0.47008175,-2.2312632,-0.13428721,1.0701115,0.8385152,0.04,0.04,-7.177173,0.36243218183517456,-6.6964726,0.18448299,0.17531712353229523,0.12428954
93.81666666666263,-0.43628544,-0.44554886,-0.47217917,-2.2307062,-0.1348851,1.0678841,0.8387487,0.04,0.04,-7.154356,0.3567003607749939,-6.721112,0.18227033,0.17346203327178955,0.12322141
93.83333333332929,-0.43820205,-0.44406363,-0.474255,-2.2301555,-0.13547684,1.0656798,0.8389798,0.04,0.04,-7.1317387,0.35089319944381714,-6.7454534,0.1800462,0.1715904325246811,0.12212995
93.84999999999596,-0.44009846,-0.4425941,-0.47630906,-2.229611,-0.13606237,1.0634985,0.8392084,0.04,0.04,-7.1093903,0.3451027572154999,-6.769504,0.17781086,0.1696968972682953,0.12101646
93.86666666666262,-0.44197455,-0.44114044,-0.47834116,-2.2290719,-0.13664164,1.0613408,0.8394346,0.04,0.04,-7.0871406,0.3392660617828369,-6.7932014,0.17556542,0.16778309643268585,0.11988154
93.88333333332929,-0.44383007,-0.43970263,-0.48035112,-2.228538,-0.13721448,1.0592068,0.8396583,0.04,0.04,-7.0650315,0.333489328622818,-6.816545,0.17331031,0.1658533215522766,0.11872784
93.89999999999596,-0.445665,-0.43828088,-0.48233876,-2.2280104,-0.13778093,1.0570966,0.8398796,0.04,0.04,-7.0430193,0.3276223838329315,-6.8395267,0.17104585,0.16390925645828247,0.117550164
93.91666666666262,-0.4474791,-0.4368752,-0.48430386,-2.2274892,-0.13834095,1.0550104,0.84009814,0.04,0.04,-7.021336,0.3217953145503998,-6.8622317,0.16877276,0.16194505989551544,0.116351515
93.93333333332929,-0.44927227,-0.4354859,-0.48624635,-2.2269747,-0.13889456,1.0529485,0.8403142,0.04,0.04,-6.999796,0.3159818947315216,-6.884604,0.16649184,0.159962996840477,0.115133144
93.94999999999595,-0.45104435,-0.43411288,-0.4881661,-2.2264662,-0.13944158,1.0509106,0.84052783,0.04,0.04,-6.9784765,0.3101217746734619,-6.9066486,0.16420355,0.15796183049678802,0.11389612
93.96666666666262,-0.45279515,-0.43275648,-0.49006274,-2.2259629,-0.13998206,1.0488971,0.84073883,0.04,0.04,-6.9572725,0.30434635281562805,-6.9283257,0.1619072,0.15594318509101868,0.11263892
93.98333333332928,-0.45452464,-0.4314167,-0.4919364,-2.2254658,-0.14051588,1.0469085,0.8409474,0.04,0.04,-6.9361715,0.298503041267395,-6.949636,0.15960494,0.1539137065410614,0.111363955
93.99999999999595,-0.45623255,-0.43009362,-0.4937868,-2.224975,-0.14104305,1.0449445,0.8411532,0.04,0.04,-6.915361,0.2927328944206238,-6.970656,0.15729548,0.15186959505081177,0.110068835
94.01666666666262,-0.4579189,-0.42878726,-0.49561378,-2.2244906,-0.14156355,1.0430058,0.84135646,0.04,0.04,-6.894773,0.28691473603248596,-6.991348,0.15498117,0.14980922639369965,0.10875554
94.03333333332928,-0.45958346,-0.4274977,-0.4974173,-2.224013,-0.14207731,1.041092,0.84155697,0.04,0.04,-6.87435,0.2811657786369324,-7.011715,0.15266149,0.14773699641227722,0.10742499
94.04999999999595,-0.46122605,-0.4262253,-0.49919719,-2.223542,-0.14258431,1.0392034,0.841755,0.04,0.04,-6.8542337,0.2753438353538513,-7.031788,0.15033792,0.14564600586891174,0.10607658
94.06666666666261,-0.46284676,-0.42496988,-0.50095326,-2.2230763,-0.14308448,1.03734,0.8419503,0.04,0.04,-6.834249,0.2696341574192047,-7.0514865,0.14801054,0.14354202151298523,0.10471181
94.08333333332928,-0.46444538,-0.42373157,-0.5026854,-2.222617,-0.14357783,1.0355022,0.842143,0.04,0.04,-6.8143687,0.2639070153236389,-7.070799,0.145679,0.14142943918704987,0.10333232
94.09999999999594,-0.4660219,-0.4225105,-0.5043938,-2.2221634,-0.14406434,1.03369,0.84233296,0.04,0.04,-6.794817,0.25820207595825195,-7.0898595,0.14334406,0.1393052041530609,0.101932764
94.11666666666261,-0.46757612,-0.42130673,-0.50607795,-2.2217166,-0.14454395,1.0319034,0.84252024,0.04,0.04,-6.775443,0.25256940722465515,-7.1085553,0.14100634,0.13717146217823029,0.10052001
94.13333333332928,-0.46910813,-0.42012018,-0.50773793,-2.2212768,-0.14501664,1.0301427,0.8427049,0.04,0.04,-6.7563415,0.24689866602420807,-7.126946,0.13866709,0.13502667844295502,0.09909112
94.14999999999594,-0.47061762,-0.4189512,-0.5093736,-2.2208438,-0.1454824,1.0284077,0.84288675,0.04,0.04,-6.737534,0.24130800366401672,-7.1450562,0.13632557,0.13286830484867096,0.09765263
94.1666666666626,-0.47210455,-0.41779974,-0.51098496,-2.2204175,-0.1459412,1.0266987,0.843066,0.04,0.04,-6.718892,0.23566250503063202,-7.1628017,0.13398452,0.13069920241832733,0.096197315
94.18333333332927,-0.47356892,-0.4166657,-0.512572,-2.2199974,-0.146393,1.0250156,0.8432424,0.04,0.04,-6.7005305,0.23021171987056732,-7.1802597,0.13164312,0.12851941585540771,0.094737165
94.19999999999594,-0.47501063,-0.4155493,-0.5141346,-2.219583,-0.14683783,1.0233586,0.8434161,0.04,0.03999999,-6.682287,0.22457696497440338,-7.1973457,0.12930126,0.12633168697357178,0.09325209
94.2166666666626,-0.4764296,-0.4144505,-0.51567286,-2.219175,-0.14727564,1.0217277,0.843587,0.04,0.039999977,-6.6642737,0.219211146235466,-7.214107,0.12696007,0.12414025515317917,0.09176224
94.23333333332927,-0.4778259,-0.41336936,-0.51718616,-2.2187734,-0.14770639,1.0201231,0.8437553,0.04,0.039999947,-6.646572,0.2137526124715805,-7.230575,0.12461945,0.12194068729877472,0.09025685
94.24999999999594,-0.47919938,-0.41230583,-0.5186749,-2.218379,-0.14813004,1.0185449,0.84392065,0.04,0.039999936,-6.629081,0.20836123824119568,-7.246715,0.12228012,0.11973707377910614,0.08874206
94.2666666666626,-0.4805499,-0.41126007,-0.520139,-2.2179914,-0.14854664,1.0169926,0.84408337,0.04,0.03999994,-6.611954,0.2029346227645874,-7.262611,0.11994434,0.11752340197563171,0.08721379
94.28333333332927,-0.48187762,-0.4102321,-0.52157813,-2.2176104,-0.14895618,1.0154669,0.8442433,0.04,0.039999936,-6.5950193,0.1976691484451294,-7.2781453,0.11761124,0.11530201137065887,0.08567951
94.29999999999593,-0.4831824,-0.40922183,-0.52299273,-2.217236,-0.14935866,1.0139681,0.8444005,0.04,0.03999992,-6.5783024,0.19239948689937592,-7.293373,0.1152816,0.11307720094919205,0.08413984
94.3166666666626,-0.48446432,-0.40822935,-0.5243825,-2.2168686,-0.14975405,1.0124952,0.84455496,0.04,0.0399999,-6.5618563,0.187146857380867,-7.3083234,0.11295503,0.11084917187690735,0.08258295
94.33333333332926,-0.48572323,-0.40725467,-0.52574724,-2.2165077,-0.15014234,1.011048,0.8447067,0.04,0.03999989,-6.5457134,0.1819762885570526,-7.32295,0.11063318,0.10861288011074066,0.08102246
94.34999999999593,-0.48695922,-0.40629783,-0.52708757,-2.2161531,-0.15052356,1.009628,0.8448554,0.04,0.03999987,-6.5297527,0.17688503861427307,-7.3372426,0.10831588,0.10637186467647552,0.079458386
94.3666666666626,-0.48817217,-0.40535876,-0.5284029,-2.215805,-0.15089764,1.0082346,0.84500164,0.04,0.039999858,-6.5140305,0.17181189358234406,-7.3512654,0.10600455,0.10413377732038498,0.07788224
94.38333333332926,-0.48936218,-0.4044375,-0.52969337,-2.215463,-0.15126467,1.0068674,0.84514487,0.04,0.03999985,-6.498609,0.16676059365272522,-7.3649797,0.10369846,0.10189387202262878,0.07629709
94.39999999999593,-0.49052912,-0.40353405,-0.530959,-2.2151277,-0.15162462,1.0055267,0.8452855,0.04,0.039999846,-6.483377,0.16180485486984253,-7.3783455,0.101399325,0.0996561050415039,0.07470969
94.41666666666259,-0.4916731,-0.4026483,-0.5321999,-2.2147992,-0.15197743,1.0042121,0.8454232,0.04,0.039999835,-6.4685245,0.15688562393188477,-7.391484,0.0991073,0.09741601347923279,0.0731179
94.43333333332926,-0.49279425,-0.4017803,-0.5334159,-2.2144775,-0.1523232,1.002924,0.84555835,0.04,0.03999983,-6.453922,0.15208925306797028,-7.4043226,0.09682319,0.09517515450716019,0.071525715
94.44999999999592,-0.49389258,-0.40093014,-0.53460735,-2.2141628,-0.15266192,1.001662,0.8456906,0.04,0.039999813,-6.4395633,0.14718106389045715,-7.4168515,0.09454655,0.0929345190525055,0.06992244
94.46666666666259,-0.49496806,-0.40009767,-0.5357739,-2.2138546,-0.15299354,1.0004265,0.8458202,0.04,0.039999787,-6.4255247,0.14254902303218842,-7.429126,0.092278816,0.09069325029850006,0.06832207
94.48333333332926,-0.49602067,-0.39928275,-0.5369158,-2.2135525,-0.15331818,0.9992172,0.84594685,0.04,0.039999783,-6.4116693,0.13776807487010956,-7.441075,0.090020224,0.08845619112253189,0.06671364
94.49999999999592,-0.49705046,-0.39848557,-0.53803307,-2.2132566,-0.15363573,0.998034,0.8460709,0.04,0.039999783,-6.3980985,0.13323569297790527,-7.4527574,0.08777216,0.08622283488512039,0.065110624
94.51666666666259,-0.49805763,-0.39770603,-0.53912574,-2.212967,-0.15394628,0.99687696,0.8461922,0.04,0.039999783,-6.3847604,0.12862831354141235,-7.4641156,0.085534304,0.0839955285191536,0.06350342
94.53333333332925,-0.49904212,-0.39694396,-0.540194,-2.2126837,-0.15424988,0.99574596,0.84631085,0.04,0.039999776,-6.3717246,0.12416322529315948,-7.475208,0.083307,0.08177462965250015,0.06189525
94.54999999999592,-0.50000405,-0.3961994,-0.54123795,-2.2124074,-0.15454654,0.994641,0.84642667,0.04,0.03999976,-6.3589478,0.11969876289367676,-7.486033,0.0810904,0.0795605257153511,0.060287442
94.56666666666258,-0.50094366,-0.39547223,-0.5422575,-2.212138,-0.15483625,0.9935618,0.8465398,0.04,0.039999764,-6.346545,0.11535736918449402,-7.496622,0.07888655,0.07735010981559753,0.05868063
94.58333333332925,-0.5018608,-0.3947624,-0.54325277,-2.2118754,-0.15511903,0.99250823,0.8466503,0.04,0.039999753,-6.334372,0.11097549647092819,-7.5069284,0.07669545,0.07514456659555435,0.057071757
94.59999999999592,-0.5027553,-0.39406985,-0.54422396,-2.2116187,-0.15539491,0.9914804,0.846758,0.04,0.039999746,-6.3225026,0.10681292414665222,-7.516975,0.07451757,0.07294348627328873,0.055474225
94.61666666666258,-0.50362784,-0.3933944,-0.54517114,-2.2113678,-0.15566394,0.99047804,0.84686315,0.04,0.03999974,-6.3107624,0.1025138720870018,-7.5267005,0.07235492,0.07075462490320206,0.053871937
94.63333333332925,-0.5044782,-0.39273608,-0.5460946,-2.2111237,-0.15592617,0.989501,0.8469656,0.04,0.03999973,-6.2993155,0.09852667897939682,-7.5361624,0.07020452,0.0685771107673645,0.05227874
94.64999999999591,-0.5053067,-0.39209482,-0.54699385,-2.2108855,-0.15618162,0.98854923,0.8470654,0.04,0.039999716,-6.2882404,0.09442887455224991,-7.5454144,0.06806967,0.066407211124897,0.0506885
94.66666666666258,-0.5061134,-0.39147046,-0.54786986,-2.2106538,-0.15643032,0.9876227,0.8471625,0.04,0.039999712,-6.277337,0.09037667512893677,-7.5543413,0.06595081,0.06425078958272934,0.04910043
94.68333333332924,-0.50689816,-0.3908629,-0.5487222,-2.2104282,-0.15667237,0.986721,0.847257,0.04,0.039999716,-6.2667904,0.08657488226890564,-7.563068,0.06384742,0.06210503727197647,0.047520004
94.69999999999591,-0.5076614,-0.39027217,-0.5495513,-2.2102094,-0.1569077,0.98584425,0.8473489,0.04,0.03999972,-6.2564564,0.0826907828450203,-7.5715218,0.061761472,0.05997200310230255,0.04595186
94.71666666666258,-0.5084033,-0.389698,-0.55035686,-2.2099962,-0.15713644,0.9849921,0.84743834,0.04,0.03999971,-6.2464705,0.07885947823524475,-7.579756,0.059693456,0.05785029008984566,0.04438302
94.73333333332924,-0.50912386,-0.38914016,-0.55113965,-2.2097893,-0.15735862,0.98416436,0.8475251,0.04,0.03999971,-6.236621,0.07513387501239777,-7.5876727,0.05764243,0.05574524775147438,0.042826675
94.74999999999591,-0.5098231,-0.3885989,-0.55189955,-2.2095883,-0.15757433,0.9833609,0.8476094,0.04,0.039999705,-6.22713,0.07156240940093994,-7.595406,0.055610433,0.053653791546821594,0.04128342
94.76666666666257,-0.51050144,-0.38807377,-0.5526368,-2.2093933,-0.15778355,0.9825815,0.8476912,0.04,0.03999971,-6.2178397,0.0678996741771698,-7.60285,0.05359803,0.05158006772398949,0.039746046
94.78333333332924,-0.511159,-0.38756457,-0.55335146,-2.209205,-0.15798637,0.9818262,0.84777033,0.04,0.03999971,-6.2088413,0.06437255442142487,-7.6100755,0.05160484,0.04952338710427284,0.03821466
94.7999999999959,-0.51179594,-0.3870714,-0.55404395,-2.2090223,-0.15818283,0.98109454,0.84784704,0.04,0.0399997,-6.2001853,0.060932520776987076,-7.6171317,0.04963332,0.04748016223311424,0.03670392
94.81666666666257,-0.5124122,-0.3865941,-0.5547143,-2.2088454,-0.158373,0.98038584,0.8479214,0.04,0.039999705,-6.1916943,0.057541947811841965,-7.623876,0.04768307,0.0454569086432457,0.03520028
94.83333333332924,-0.5130085,-0.38613233,-0.5553627,-2.208674,-0.15855701,0.9797006,0.84799314,0.04,0.039999697,-6.1834354,0.05416642874479294,-7.6303816,0.04575495,0.04345254972577095,0.033710465
94.8499999999959,-0.51358485,-0.38568613,-0.5559894,-2.2085087,-0.15873481,0.9790383,0.8480625,0.04,0.03999969,-6.1754594,0.050926290452480316,-7.636687,0.04384934,0.04146966710686684,0.032234363
94.86666666666257,-0.51414126,-0.38525507,-0.5565949,-2.2083488,-0.15890652,0.9783987,0.84812963,0.04,0.03999969,-6.167782,0.04770635813474655,-7.642772,0.041967,0.03950614109635353,0.030772097
94.88333333332923,-0.5146782,-0.38483918,-0.55717915,-2.2081945,-0.1590722,0.97778153,0.84819436,0.04,0.03999967,-6.1602635,0.044588785618543625,-7.648619,0.04010776,0.03756669908761978,0.02932288
94.8999999999959,-0.5151958,-0.38443825,-0.55774254,-2.2080457,-0.1592319,0.97718656,0.84825665,0.04,0.039999682,-6.153071,0.041489679366350174,-7.65427,0.03827358,0.03564880043268204,0.027890956
94.91666666666256,-0.51569426,-0.38405207,-0.55828536,-2.207903,-0.15938577,0.9766134,0.84831667,0.04,0.03999968,-6.146074,0.03847947344183922,-7.6596828,0.03646489,0.03375574201345444,0.026475536
94.93333333332923,-0.5161741,-0.38368043,-0.5588079,-2.207765,-0.1595338,0.9760618,0.84837455,0.04,0.039999682,-6.1393933,0.03555014356970787,-7.66493,0.034682576,0.031884923577308655,0.025078326
94.9499999999959,-0.5166352,-0.3833231,-0.55931026,-2.2076325,-0.15967613,0.9755315,0.8484302,0.04,0.039999686,-6.1328764,0.03265363723039627,-7.669921,0.032925867,0.030040297657251358,0.023696886
94.96666666666256,-0.5170781,-0.38298,-0.5597928,-2.2075052,-0.15981282,0.97502226,0.84848356,0.04,0.03999968,-6.126593,0.02982739359140396,-7.6747212,0.031196224,0.028223266825079918,0.022335818
94.98333333332923,-0.5175028,-0.3826508,-0.5602557,-2.2073827,-0.15994401,0.9745337,0.8485347,0.04,0.039999682,-6.120574,0.027027612552046776,-7.6793203,0.029495632,0.02643345482647419,0.020994063
94.9999999999959,-0.5179097,-0.3823351,-0.5606996,-2.2072654,-0.16006972,0.9740654,0.84858376,0.04,0.039999682,-6.1147285,0.024307942017912865,-7.683697,0.027824637,0.024675030261278152,0.019673958
95.01666666666256,-0.5182992,-0.38203302,-0.5611247,-2.2071533,-0.16019008,0.97361714,0.8486307,0.04,0.03999969,-6.1091967,0.021585408598184586,-7.687943,0.026182616,0.02294277399778366,0.018370759
95.03333333332922,-0.5186715,-0.38174418,-0.5615312,-2.2070456,-0.16030517,0.97318834,0.8486757,0.04,0.03999969,-6.1038785,0.019079985097050667,-7.691978,0.024571331,0.021239977329969406,0.01709749
95.04999999999589,-0.5190273,-0.3814683,-0.56191957,-2.2069433,-0.1604151,0.9727788,0.84871876,0.04,0.03999969,-6.09866,0.01646110787987709,-7.6957593,0.022990176,0.01957213133573532,0.015842902
95.06666666666256,-0.51936644,-0.3812051,-0.5622901,-2.206846,-0.16051994,0.9723882,0.8487598,0.04,0.03999969,-6.0938487,0.01399884931743145,-7.6994653,0.021440543,0.01793133281171322,0.014611761
95.08333333332922,-0.51968944,-0.38095436,-0.562643,-2.2067525,-0.16061978,0.97201616,0.8487989,0.04,0.03999969,-6.089159,0.011495040729641914,-7.702956,0.019924074,0.016322772949934006,0.013404608
95.09999999999589,-0.5199967,-0.3807158,-0.56297886,-2.2066646,-0.16071483,0.97166216,0.84883606,0.04,0.039999697,-6.0845604,0.00911400094628334,-7.706216,0.01844029,0.014752657152712345,0.012222826
95.11666666666255,-0.5202885,-0.38048923,-0.563298,-2.2065802,-0.1608051,0.97132593,0.84887135,0.04,0.0399997,-6.0803957,0.006727650761604309,-7.7094226,0.01699119,0.01321074552834034,0.011067418
95.13333333332922,-0.52056515,-0.38027442,-0.56360084,-2.2065005,-0.16089068,0.97100693,0.8489047,0.04,0.0399997,-6.0761647,0.00445939227938652,-7.7123194,0.01557673,0.011711619794368744,0.009937781
95.14999999999588,-0.5208272,-0.38007092,-0.5638879,-2.206425,-0.16097179,0.9707049,0.8489363,0.04,0.039999697,-6.072338,0.0021679140627384186,-7.7151556,0.014198998,0.010245054960250854,0.008836268
95.16666666666255,-0.5210748,-0.37987846,-0.5641592,-2.2063532,-0.16104843,0.97041917,0.8489662,0.04,0.039999705,-6.068606,-3.75695526599884e-05,-7.7178025,0.012857509,0.008817600086331367,0.0077616023
95.18333333332922,-0.52130824,-0.37969676,-0.56441545,-2.2062855,-0.1611208,0.9701495,0.84899443,0.04,0.039999705,-6.06503,-0.002211000770330429,-7.720271,0.011553187,0.007429984398186207,0.00671641
95.19999999999588,-0.5215282,-0.37952548,-0.5646569,-2.2062218,-0.161189,0.9698953,0.84902114,0.04,0.03999971,-6.061666,-0.00438632071018219,-7.722624,0.010287241,0.006082620471715927,0.005701705
95.21666666666255,-0.521735,-0.37936437,-0.5648844,-2.2061617,-0.16125323,0.9696563,0.8490463,0.039999995,0.03999971,-6.058529,-0.0064933449029922485,-7.7248473,0.009060375,0.0047736517153680325,0.004718112
95.23333333332921,-0.5219291,-0.37921318,-0.56509805,-2.2061055,-0.1613135,0.9694318,0.84906983,0.04,0.039999716,-6.0554833,-0.008534420281648636,-7.726892,0.007872149,0.0035080513916909695,0.0037643206
95.24999999999588,-0.5221109,-0.3790714,-0.5652984,-2.2060528,-0.16137002,0.96922135,0.8490918,0.04,0.03999972,-6.0526466,-0.010572124272584915,-7.7288113,0.0067257904,0.00228530983440578,0.0028429972
95.26666666666254,-0.5222808,-0.37893885,-0.5654858,-2.2060034,-0.16142285,0.96902454,0.8491125,0.04,0.039999723,-6.0499864,-0.012595664709806442,-7.7306247,0.005621182,0.0011037160875275731,0.0019548985
95.28333333332921,-0.5224393,-0.37881505,-0.5656607,-2.2059581,-0.16147219,0.96884084,0.84913176,0.04,0.039999723,-6.047391,-0.014556366950273514,-7.7322717,0.004558809,-3.0583167244913056e-05,0.001100734
95.29999999999588,-0.5225866,-0.37869984,-0.5658241,-2.2059152,-0.16151816,0.96866953,0.8491496,0.04,0.03999973,-6.045077,-0.016551770269870758,-7.733869,0.0035404202,-0.0011234410339966416,0.00028190567
95.31666666666254,-0.5227235,-0.37859252,-0.56597614,-2.2058754,-0.16156094,0.9685103,0.8491664,0.04,0.03999973,-6.0427523,-0.0184322502464056,-7.7352567,0.0025669057,-0.0021667417604476213,-0.00050294475
95.33333333332921,-0.5228503,-0.37849304,-0.566117,-2.2058384,-0.16160062,0.9683624,0.84918183,0.04,0.039999735,-6.0406427,-0.020340878516435623,-7.7366033,0.0016366154,-0.003163618966937065,-0.0012519342
95.34999999999587,-0.52296746,-0.3784009,-0.5662475,-2.2058039,-0.1616374,0.9682255,0.849196,0.04,0.03999974,-6.0386267,-0.02224983274936676,-7.737788,0.00075414305,-0.004111527465283871,-0.0019625078
95.36666666666254,-0.52307576,-0.3783157,-0.5663685,-2.2057722,-0.16167139,0.9680988,0.8492094,0.039999995,0.039999735,-6.0367055,-0.024119729176163673,-7.7388883,-8.112404e-05,-0.005007151048630476,-0.0026348073
95.3833333333292,-0.5231754,-0.37823695,-0.5664801,-2.2057428,-0.16170274,0.967982,0.84922147,0.04,0.039999742,-6.0349765,-0.025934210047125816,-7.7399206,-0.0008701817,-0.005854176357388496,-0.0032706882
95.39999999999587,-0.52326703,-0.37816456,-0.5665829,-2.2057157,-0.16173162,0.9678744,0.84923285,0.04,0.039999746,-6.0332885,-0.027802610769867897,-7.7408376,-0.0016085505,-0.00664835749194026,-0.003865734
95.41666666666254,-0.52335113,-0.37809786,-0.56667775,-2.2056909,-0.16175827,0.9677752,0.84924304,0.04,0.039999746,-6.0317245,-0.029632892459630966,-7.7416625,-0.0022979996,-0.007388469763100147,-0.0044212244
95.4333333333292,-0.52342826,-0.37803653,-0.56676507,-2.2056687,-0.16178276,0.96768403,0.84925264,0.039999995,0.039999746,-6.03028,-0.03143945336341858,-7.7424335,-0.0029357416,-0.008076365105807781,-0.004935797
95.44999999999587,-0.523499,-0.37798014,-0.5668456,-2.2056475,-0.1618053,0.96760017,0.8492615,0.039999995,0.039999746,-6.028959,-0.03324713557958603,-7.743155,-0.0035229959,-0.008712755516171455,-0.0054087527
95.46666666666253,-0.5235639,-0.37792823,-0.5669196,-2.2056274,-0.16182606,0.9675228,0.8492695,0.039999995,0.03999975,-6.0276036,-0.03488011658191681,-7.743744,-0.0040636812,-0.009294463321566582,-0.0058449786
95.4833333333292,-0.5236234,-0.3778805,-0.5669879,-2.2056096,-0.1618452,0.9674518,0.8492771,0.039999988,0.039999742,-6.0263886,-0.03641700744628906,-7.7442894,-0.0045600818,-0.009828382171690464,-0.0062453263
95.49999999999586,-0.52367795,-0.3778366,-0.56705064,-2.2055933,-0.16186279,0.9673865,0.8492842,0.03999999,0.039999753,-6.02537,-0.03783465176820755,-7.7448554,-0.005016988,-0.01032111793756485,-0.0066138343
95.51666666666253,-0.523728,-0.37779614,-0.5671085,-2.205579,-0.16187899,0.9673263,0.8492903,0.03999999,0.03999975,-6.0243974,-0.0391448438167572,-7.7453556,-0.005437106,-0.010775633156299591,-0.0069507547
95.5333333333292,-0.5237739,-0.377759,-0.56716174,-2.205565,-0.16189389,0.96727085,0.84929603,0.03999999,0.039999753,-6.0235486,-0.040340472012758255,-7.7458405,-0.005821506,-0.011197509244084358,-0.0072611403
95.54999999999586,-0.5238158,-0.37772477,-0.5672106,-2.2055514,-0.16190761,0.9672198,0.84930164,0.03999999,0.039999753,-6.022616,-0.0414227619767189,-7.7461987,-0.006175348,-0.0115813622251153,-0.007546401
95.56666666666253,-0.5238544,-0.37769333,-0.5672557,-2.205539,-0.16192017,0.9671729,0.8493067,0.039999988,0.03999975,-6.0217776,-0.042445749044418335,-7.746553,-0.006501946,-0.01193179190158844,-0.0078075863
95.5833333333292,-0.5238897,-0.37766442,-0.5672971,-2.205528,-0.16193174,0.96712977,0.849311,0.039999995,0.039999764,-6.0210943,-0.04337691888213158,-7.7468996,-0.0068018436,-0.012254443019628525,-0.008049483
95.59999999999586,-0.52392185,-0.37763774,-0.5673353,-2.205518,-0.16194238,0.96709025,0.849315,0.03999999,0.039999757,-6.020488,-0.04422471672296524,-7.747243,-0.007075288,-0.012553051114082336,-0.008269835
95.61666666666252,-0.5239516,-0.37761328,-0.5673707,-2.2055092,-0.16195218,0.9670536,0.84931874,0.039999995,0.039999764,-6.019891,-0.04504089057445526,-7.7475567,-0.007326211,-0.012827831320464611,-0.008472301
95.63333333332919,-0.5239787,-0.37759075,-0.567403,-2.2055013,-0.1619612,0.96702,0.84932244,0.039999995,0.03999976,-6.019389,-0.04569757357239723,-7.7478366,-0.007557974,-0.01308362651616335,-0.008659163
95.64999999999586,-0.52400345,-0.37757,-0.5674329,-2.2054946,-0.16196951,0.96698886,0.849326,0.039999995,0.03999976,-6.018887,-0.04642561078071594,-7.748105,-0.007771089,-0.013319436460733414,-0.008829366
95.66666666666252,-0.52402616,-0.37755078,-0.5674605,-2.2054882,-0.16197714,0.9669605,0.8493295,0.039999995,0.03999976,-6.018467,-0.04703972488641739,-7.748367,-0.007967291,-0.013539966195821762,-0.008985145
95.68333333332919,-0.524047,-0.37753332,-0.5674859,-2.2054818,-0.16198419,0.96693426,0.849332,0.039999995,0.039999764,-6.0179906,-0.04758306220173836,-7.7485833,-0.008148922,-0.013741081580519676,-0.009129439
95.69999999999585,-0.52406615,-0.37751713,-0.5675091,-2.2054758,-0.16199069,0.9669102,0.8493343,0.04,0.03999977,-6.017535,-0.04807082936167717,-7.74873,-0.008312943,-0.013923455029726028,-0.009262447
95.71666666666252,-0.5240838,-0.37750235,-0.5675306,-2.2054698,-0.16199668,0.966888,0.8493365,0.04,0.039999764,-6.0171633,-0.04855528473854065,-7.7489147,-0.008463727,-0.014091124758124352,-0.009383067
95.73333333332918,-0.52410007,-0.3774888,-0.5675504,-2.205464,-0.16200219,0.96686757,0.8493384,0.04,0.039999764,-6.0167823,-0.04895928502082825,-7.7490463,-0.008603165,-0.01424290519207716,-0.009495553
95.74999999999585,-0.5241149,-0.37747625,-0.56756866,-2.205458,-0.16200724,0.9668486,0.84934026,0.04,0.03999977,-6.016445,-0.049338631331920624,-7.74917,-0.008731413,-0.01438067201524973,-0.009600412
95.76666666666252,-0.5241285,-0.37746465,-0.56758535,-2.2054527,-0.1620119,0.9668313,0.8493421,0.04,0.039999772,-6.0161314,-0.04970062896609306,-7.749284,-0.008849717,-0.014506146311759949,-0.00969626
95.78333333332918,-0.52414095,-0.377454,-0.56760067,-2.205448,-0.16201617,0.9668156,0.8493439,0.04,0.03999977,-6.015904,-0.05005940422415733,-7.7494316,-0.008959018,-0.014622009359300137,-0.009783521
95.79999999999585,-0.5241522,-0.37744427,-0.567615,-2.2054439,-0.16202004,0.96680087,0.8493457,0.04,0.039999772,-6.0156784,-0.05037885159254074,-7.749553,-0.009059561,-0.01472809724509716,-0.009863632
95.81666666666251,-0.5241627,-0.37743533,-0.56762797,-2.2054403,-0.16202366,0.9667874,0.84934735,0.04,0.039999772,-6.015508,-0.05067073553800583,-7.7496696,-0.009152097,-0.014828325249254704,-0.0099374475
95.83333333332918,-0.52417225,-0.3774271,-0.56764,-2.2054372,-0.16202699,0.9667752,0.84934896,0.04,0.039999772,-6.015324,-0.05092991888523102,-7.7497725,-0.009237474,-0.014920578338205814,-0.010004934
95.84999999999584,-0.52418095,-0.37741944,-0.56765103,-2.2054343,-0.16203003,0.9667637,0.8493505,0.04,0.039999772,-5.829988,-0.311177134513855,-7.490101,0.0,-0.0,0.0
95.86666666666251,-0.52418095,-0.37741944,-0.56765103,-2.2054343,-0.16203003,0.9667637,0.8493505,0.04,0.039999772,-6.0146604,-0.05334595963358879,-7.7496533,0.0,-0.0,0.0
95.88333333332918,-0.52418095,-0.37741944,-0.56765103,-2.2054343,-0.16203003,0.9667637,0.8493505,0.04,0.039999772,-6.0146604,-0.05334595963358879,-7.7496533,0.0,-0.0,0.0
95.89999999999584,-0.52418095,-0.37741944,-0.56765103,-2.2054343,-0.16203003,0.9667637,0.8493505,0.04,0.039999772,-6.0146604,-0.05334595963358879,-7.7496533,0.0,-0.0,0.0
95.91666666666251,-0.52418095,-0.37741944,-0.56765103,-2.2054343,-0.16203003,0.9667637,0.8493505,0.04,0.039999772,-6.0146604,-0.05334595963358879,-7.7496533,0.0,-0.0,0.0
95.93333333332917,-0.52418095,-0.37741944,-0.56765103,-2.2054343,-0.16203003,0.9667637,0.8493505,0.04,0.039999772,-6.0146604,-0.05334595963358879,-7.7496533,0.0,-0.0,0.0
95.94999999999584,-0.52418095,-0.37741944,-0.56765103,-2.2054343,-0.16203003,0.9667637,0.8493505,0.04,0.039999772,-6.0146604,-0.05334595963358879,-7.7496533,0.0,-0.0,0.0
95.9666666666625,-0.52418095,-0.37741944,-0.56765103,-2.2054343,-0.16203003,0.9667637,0.8493505,0.04,0.039999772,-6.0146604,-0.05334595963358879,-7.7496533,0.0,-0.0,0.0
95.98333333332917,-0.52418095,-0.37741944,-0.56765103,-2.2054343,-0.16203003,0.9667637,0.8493505,0.04,0.039999772,-6.0146604,-0.05334595963358879,-7.7496533,0.0,-0.0,0.0
95.99999999999584,-0.52418095,-0.37741944,-0.56765103,-2.2054343,-0.16203003,0.9667637,0.8493505,0.04,0.039999772,-6.0146604,-0.05334595963358879,-7.7496533,0.0,-0.0,0.0
96.0166666666625,-0.52418095,-0.37741944,-0.56765103,-2.2054343,-0.16203003,0.9667637,0.8493505,0.04,0.039999772,-6.0146604,-0.05334595963358879,-7.7496533,0.0,-0.0,0.0
96.03333333332917,-0.52418095,-0.37741944,-0.56765103,-2.2054343,-0.16203003,0.9667637,0.8493505,0.04,0.039999772,-6.0146604,-0.05334595963358879,-7.7496533,0.0,-0.0,0.0
96.04999999999583,-0.52418095,-0.37741944,-0.56765103,-2.2054343,-0.16203003,0.9667637,0.8493505,0.04,0.039999772,-6.0146604,-0.05334595963358879,-7.7496533,0.0,-0.0,0.0
96.0666666666625,-0.52418095,-0.37741944,-0.56765103,-2.2054343,-0.16203003,0.9667637,0.8493505,0.04,0.039999772,-6.0146604,-0.05334595963358879,-7.7496533,0.0,-0.0,0.0
96.08333333332916,-0.52418095,-0.37741944,-0.56765103,-2.2054343,-0.16203003,0.9667637,0.8493505,0.04,0.039999772,-6.0146604,-0.05334595963358879,-7.7496533,0.0,-0.0,0.0
96.09999999999583,-0.52418095,-0.37741944,-0.56765103,-2.2054343,-0.16203003,0.9667637,0.8493505,0.04,0.039999772,-6.0146604,-0.05334595963358879,-7.7496533,0.0,-0.0,0.0
96.1166666666625,-0.52418095,-0.37741944,-0.56765103,-2.2054343,-0.16203003,0.9667637,0.8493505,0.04,0.039999772,-6.0146604,-0.05334595963358879,-7.7496533,0.0,-0.0,0.0
96.13333333332916,-0.52418095,-0.37741944,-0.56765103,-2.2054343,-0.16203003,0.9667637,0.8493505,0.04,0.039999772,-6.0146604,-0.05334595963358879,-7.7496533,0.0,-0.0,0.0
96.14999999999583,-0.52418095,-0.37741944,-0.56765103,-2.2054343,-0.16203003,0.9667637,0.8493505,0.04,0.039999772,-6.0146604,-0.05334595963358879,-7.7496533,0.0,-0.0,0.0
96.1666666666625,-0.52418095,-0.37741944,-0.56765103,-2.2054343,-0.16203003,0.9667637,0.8493505,0.04,0.039999772,-6.0146604,-0.05334595963358879,-7.7496533,0.0,-0.0,0.0
96.18333333332916,-0.52418095,-0.37741944,-0.56765103,-2.2054343,-0.16203003,0.9667637,0.8493505,0.04,0.039999772,-6.0146604,-0.05334595963358879,-7.7496533,0.0,-0.0,0.0
96.19999999999582,-0.52418095,-0.37741944,-0.56765103,-2.2054343,-0.16203003,0.9667637,0.8493505,0.04,0.039999772,-6.0146604,-0.05334595963358879,-7.7496533,0.0,-0.0,0.0
96.21666666666249,-0.52418095,-0.37741944,-0.56765103,-2.2054343,-0.16203003,0.9667637,0.8493505,0.04,0.039999772,-6.0146604,-0.05334595963358879,-7.7496533,0.0,-0.0,0.0
96.23333333332916,-0.52418095,-0.37741944,-0.56765103,-2.2054343,-0.16203003,0.9667637,0.8493505,0.04,0.039999772,-6.0146604,-0.05334595963358879,-7.7496533,0.0,-0.0,0.0
96.24999999999582,-0.52418095,-0.37741944,-0.56765103,-2.2054343,-0.16203003,0.9667637,0.8493505,0.04,0.039999772,-6.0146604,-0.05334595963358879,-7.7496533,0.0,-0.0,0.0
96.26666666666249,-0.52418095,-0.37741944,-0.56765103,-2.2054343,-0.16203003,0.9667637,0.8493505,0.04,0.039999772,-6.0146604,-0.05334595963358879,-7.7496533,0.0,-0.0,0.0
96.28333333332915,-0.52418095,-0.37741944,-0.56765103,-2.2054343,-0.16203003,0.9667637,0.8493505,0.04,0.039999772,-6.0146604,-0.05334595963358879,-7.7496533,0.0,-0.0,0.0
96.29999999999582,-0.52418095,-0.37741944,-0.56765103,-2.2054343,-0.16203003,0.9667637,0.8493505,0.04,0.039999772,-6.0146604,-0.05334595963358879,-7.7496533,0.0,-0.0,0.0
96.31666666666248,-0.52418095,-0.37741944,-0.56765103,-2.2054343,-0.16203003,0.9667637,0.8493505,0.04,0.039999772,-6.0146604,-0.05334595963358879,-7.7496533,0.0,-0.0,0.0
96.33333333332915,-0.52418095,-0.37741944,-0.56765103,-2.2054343,-0.16203003,0.9667637,0.8493505,0.04,0.039999772,-6.0146604,-0.05334595963358879,-7.7496533,0.0,-0.0,0.0
96.34999999999582,-0.52418095,-0.37741944,-0.56765103,-2.2054343,-0.16203003,0.9667637,0.8493505,0.04,0.039999772,-6.0146604,-0.05334595963358879,-7.7496533,0.0,-0.0,0.0
96.36666666666248,-0.52418095,-0.37741944,-0.56765103,-2.2054343,-0.16203003,0.9667637,0.8493505,0.04,0.039999772,-6.0146604,-0.05334595963358879,-7.7496533,0.0,-0.0,0.0
96.38333333332915,-0.52418095,-0.37741944,-0.56765103,-2.2054343,-0.16203003,0.9667637,0.8493505,0.04,0.039999772,-6.0146604,-0.05334595963358879,-7.7496533,0.0,-0.0,0.0
96.39999999999581,-0.52418095,-0.37741944,-0.56765103,-2.2054343,-0.16203003,0.9667637,0.8493505,0.04,0.039999772,-6.0146604,-0.05334595963358879,-7.7496533,0.0,-0.0,0.0
96.41666666666248,-0.52418095,-0.37741944,-0.56765103,-2.2054343,-0.16203003,0.9667637,0.8493505,0.04,0.039999772,-6.0146604,-0.05334595963358879,-7.7496533,0.0,-0.0,0.0
96.43333333332914,-0.52418095,-0.37741944,-0.56765103,-2.2054343,-0.16203003,0.9667637,0.8493505,0.04,0.039999772,-6.0146604,-0.05334595963358879,-7.7496533,0.0,-0.0,0.0
96.44999999999581,-0.52418095,-0.37741944,-0.56765103,-2.2054343,-0.16203003,0.9667637,0.8493505,0.04,0.039999772,-6.0146604,-0.05334595963358879,-7.7496533,0.0,-0.0,0.0
96.46666666666248,-0.52418095,-0.37741944,-0.56765103,-2.2054343,-0.16203003,0.9667637,0.8493505,0.04,0.039999772,-6.0146604,-0.05334595963358879,-7.7496533,0.0,-0.0,0.0
96.48333333332914,-0.52418095,-0.37741944,-0.56765103,-2.2054343,-0.16203003,0.9667637,0.8493505,0.04,0.039999772,-6.0146604,-0.05334595963358879,-7.7496533,0.0,-0.0,0.0
96.49999999999581,-0.52418095,-0.37741944,-0.56765103,-2.2054343,-0.16203003,0.9667637,0.8493505,0.04,0.039999772,-6.0146604,-0.05334595963358879,-7.7496533,0.0,-0.0,0.0
96.51666666666247,-0.52418095,-0.37741944,-0.56765103,-2.2054343,-0.16203003,0.9667637,0.8493505,0.04,0.039999772,-6.0146604,-0.05334595963358879,-7.7496533,0.0,-0.0,0.0
96.53333333332914,-0.52418095,-0.37741944,-0.56765103,-2.2054343,-0.16203003,0.9667637,0.8493505,0.04,0.039999772,-6.0146604,-0.05334595963358879,-7.7496533,0.0,-0.0,0.0
96.5499999999958,-0.52418095,-0.37741944,-0.56765103,-2.2054343,-0.16203003,0.9667637,0.8493505,0.04,0.039999772,-6.0146604,-0.05334595963358879,-7.7496533,0.0,-0.0,0.0
96.56666666666247,-0.52418095,-0.37741944,-0.56765103,-2.2054343,-0.16203003,0.9667637,0.8493505,0.04,0.039999772,-6.0146604,-0.05334595963358879,-7.7496533,0.0,-0.0,0.0
96.58333333332914,-0.52418095,-0.37741944,-0.56765103,-2.2054343,-0.16203003,0.9667637,0.8493505,0.04,0.039999772,-6.0146604,-0.05334595963358879,-7.7496533,0.0,-0.0,0.0
96.5999999999958,-0.52418095,-0.37741944,-0.56765103,-2.2054343,-0.16203003,0.9667637,0.8493505,0.04,0.039999772,-6.0146604,-0.05334595963358879,-7.7496533,0.0,-0.0,0.0
96.61666666666247,-0.52418095,-0.37741944,-0.56765103,-2.2054343,-0.16203003,0.9667637,0.8493505,0.04,0.039999772,-6.0146604,-0.05334595963358879,-7.7496533,0.0,-0.0,0.0
96.63333333332913,-0.52418095,-0.37741944,-0.56765103,-2.2054343,-0.16203003,0.9667637,0.8493505,0.04,0.039999772,-6.0146604,-0.05334595963358879,-7.7496533,0.0,-0.0,0.0
96.6499999999958,-0.52418095,-0.37741944,-0.56765103,-2.2054343,-0.16203003,0.9667637,0.8493505,0.04,0.039999772,-6.0146604,-0.05334595963358879,-7.7496533,0.0,-0.0,0.0
96.66666666666246,-0.52418095,-0.37741944,-0.56765103,-2.2054343,-0.16203003,0.9667637,0.8493505,0.04,0.039999772,-6.0146604,-0.05334595963358879,-7.7496533,0.0,-0.0,0.0
96.68333333332913,-0.52418095,-0.37741944,-0.56765103,-2.2054343,-0.16203003,0.9667637,0.8493505,0.04,0.039999772,-6.0146604,-0.05334595963358879,-7.7496533,0.0,-0.0,0.0
96.6999999999958,-0.52418095,-0.37741944,-0.56765103,-2.2054343,-0.16203003,0.9667637,0.8493505,0.04,0.039999772,-6.0146604,-0.05334595963358879,-7.7496533,0.0,-0.0,0.0
96.71666666666246,-0.52418095,-0.37741944,-0.56765103,-2.2054343,-0.16203003,0.9667637,0.8493505,0.04,0.039999772,-6.0146604,-0.05334595963358879,-7.7496533,0.0,-0.0,0.0
96.73333333332913,-0.52418095,-0.37741944,-0.56765103,-2.2054343,-0.16203003,0.9667637,0.8493505,0.04,0.039999772,-6.0146604,-0.05334595963358879,-7.7496533,0.0,-0.0,0.0
96.7499999999958,-0.52418095,-0.37741944,-0.56765103,-2.2054343,-0.16203003,0.9667637,0.8493505,0.04,0.039999772,-6.0146604,-0.05334595963358879,-7.7496533,0.0,-0.0,0.0
96.76666666666246,-0.52418095,-0.37741944,-0.56765103,-2.2054343,-0.16203003,0.9667637,0.8493505,0.04,0.039999772,-6.0146604,-0.05334595963358879,-7.7496533,0.0,-0.0,0.0
96.78333333332913,-0.52418095,-0.37741944,-0.56765103,-2.2054343,-0.16203003,0.9667637,0.8493505,0.04,0.039999772,-6.0146604,-0.05334595963358879,-7.7496533,0.0,-0.0,0.0
96.79999999999579,-0.52418095,-0.37741944,-0.56765103,-2.2054343,-0.16203003,0.9667637,0.8493505,0.04,0.039999772,-6.0146604,-0.05334595963358879,-7.7496533,0.0,-0.0,0.0
96.81666666666246,-0.52418095,-0.37741944,-0.56765103,-2.2054343,-0.16203003,0.9667637,0.8493505,0.04,0.039999772,-6.0146604,-0.05334595963358879,-7.7496533,0.0,-0.0,0.0
96.83333333332912,-0.52418095,-0.37741944,-0.56765103,-2.2054343,-0.16203003,0.9667637,0.8493505,0.04,0.039999772,-6.0146604,-0.05334595963358879,-7.7496533,0.0,-0.0,0.0
96.84999999999579,-0.52418095,-0.37741944,-0.56765103,-2.2054343,-0.16203003,0.9667637,0.8493505,0.04,0.039999772,-6.0146604,-0.05334595963358879,-7.7496533,0.0,-0.0,0.0
96.86666666666245,-0.52418095,-0.37741944,-0.56765103,-2.2054343,-0.16203003,0.9667637,0.8493505,0.04,0.039999772,-6.0146604,-0.05334595963358879,-7.7496533,0.0,-0.0,0.0
96.88333333332912,-0.52418095,-0.37741944,-0.56765103,-2.2054343,-0.16203003,0.9667637,0.8493505,0.04,0.039999772,-6.0146604,-0.05334595963358879,-7.7496533,0.0,-0.0,0.0
96.89999999999579,-0.52418095,-0.37741944,-0.56765103,-2.2054343,-0.16203003,0.9667637,0.8493505,0.04,0.039999772,-6.0146604,-0.05334595963358879,-7.7496533,0.0,-0.0,0.0
96.91666666666245,-0.52418095,-0.37741944,-0.56765103,-2.2054343,-0.16203003,0.9667637,0.8493505,0.04,0.039999772,-6.0146604,-0.05334595963358879,-7.7496533,0.0,-0.0,0.0
96.93333333332912,-0.52418095,-0.37741944,-0.56765103,-2.2054343,-0.16203003,0.9667637,0.8493505,0.04,0.039999772,-6.0146604,-0.05334595963358879,-7.7496533,0.0,-0.0,0.0
96.94999999999578,-0.52418095,-0.37741944,-0.56765103,-2.2054343,-0.16203003,0.9667637,0.8493505,0.04,0.039999772,-6.0146604,-0.05334595963358879,-7.7496533,0.0,-0.0,0.0
96.96666666666245,-0.52418095,-0.37741944,-0.56765103,-2.2054343,-0.16203003,0.9667637,0.8493505,0.04,0.039999772,-6.0146604,-0.05334595963358879,-7.7496533,0.0,-0.0,0.0
96.98333333332911,-0.52418095,-0.37741944,-0.56765103,-2.2054343,-0.16203003,0.9667637,0.8493505,0.04,0.039999772,-6.0146604,-0.05334595963358879,-7.7496533,0.0,-0.0,0.0
96.99999999999578,-0.52418095,-0.37741944,-0.56765103,-2.2054343,-0.16203003,0.9667637,0.8493505,0.04,0.039999772,-6.0146604,-0.05334595963358879,-7.7496533,0.0,-0.0,0.0
97.01666666666245,-0.52418095,-0.37741944,-0.56765103,-2.2054343,-0.16203003,0.9667637,0.8493505,0.04,0.039999772,-6.0146604,-0.05334595963358879,-7.7496533,0.0,-0.0,0.0
97.03333333332911,-0.52418095,-0.37741944,-0.56765103,-2.2054343,-0.16203003,0.9667637,0.8493505,0.04,0.039999772,-6.0146604,-0.05334595963358879,-7.7496533,0.0,-0.0,0.0
97.04999999999578,-0.52418095,-0.37741944,-0.56765103,-2.2054343,-0.16203003,0.9667637,0.8493505,0.04,0.039999772,-6.0146604,-0.05334595963358879,-7.7496533,0.0,-0.0,0.0
97.06666666666244,-0.52418095,-0.37741944,-0.56765103,-2.2054343,-0.16203003,0.9667637,0.8493505,0.04,0.039999772,-6.0146604,-0.05334595963358879,-7.7496533,0.0,-0.0,0.0
97.08333333332911,-0.52418095,-0.37741944,-0.56765103,-2.2054343,-0.16203003,0.9667637,0.8493505,0.04,0.039999772,-6.0146604,-0.05334595963358879,-7.7496533,0.0,-0.0,0.0
97.09999999999577,-0.52418095,-0.37741944,-0.56765103,-2.2054343,-0.16203003,0.9667637,0.8493505,0.04,0.039999772,-6.0146604,-0.05334595963358879,-7.7496533,0.0,-0.0,0.0
97.11666666666244,-0.52418095,-0.37741944,-0.56765103,-2.2054343,-0.16203003,0.9667637,0.8493505,0.04,0.039999772,-6.0146604,-0.05334595963358879,-7.7496533,0.0,-0.0,0.0
97.1333333333291,-0.52418095,-0.37741944,-0.56765103,-2.2054343,-0.16203003,0.9667637,0.8493505,0.04,0.039999772,-6.0146604,-0.05334595963358879,-7.7496533,0.0,-0.0,0.0
97.14999999999577,-0.52418095,-0.37741944,-0.56765103,-2.2054343,-0.16203003,0.9667637,0.8493505,0.04,0.039999772,-6.0146604,-0.05334595963358879,-7.7496533,0.0,-0.0,0.0
97.16666666666244,-0.52418095,-0.37741944,-0.56765103,-2.2054343,-0.16203003,0.9667637,0.8493505,0.04,0.039999772,-6.0146604,-0.05334595963358879,-7.7496533,0.0,-0.0,0.0
97.1833333333291,-0.52418095,-0.37741944,-0.56765103,-2.2054343,-0.16203003,0.9667637,0.8493505,0.04,0.039999772,-6.0146604,-0.05334595963358879,-7.7496533,0.0,-0.0,0.0
97.19999999999577,-0.52418095,-0.37741944,-0.56765103,-2.2054343,-0.16203003,0.9667637,0.8493505,0.04,0.039999772,-6.0146604,-0.05334595963358879,-7.7496533,0.0,-0.0,0.0
97.21666666666243,-0.52418095,-0.37741944,-0.56765103,-2.2054343,-0.16203003,0.9667637,0.8493505,0.04,0.039999772,-6.0146604,-0.05334595963358879,-7.7496533,0.0,-0.0,0.0
97.2333333333291,-0.52418095,-0.37741944,-0.56765103,-2.2054343,-0.16203003,0.9667637,0.8493505,0.04,0.039999772,-6.0146604,-0.05334595963358879,-7.7496533,0.0,-0.0,0.0
97.24999999999577,-0.52418095,-0.37741944,-0.56765103,-2.2054343,-0.16203003,0.9667637,0.8493505,0.04,0.039999772,-6.0146604,-0.05334595963358879,-7.7496533,0.0,-0.0,0.0
97.26666666666243,-0.52418095,-0.37741944,-0.56765103,-2.2054343,-0.16203003,0.9667637,0.8493505,0.04,0.039999772,-6.0146604,-0.05334595963358879,-7.7496533,0.0,-0.0,0.0
97.2833333333291,-0.52418095,-0.37741944,-0.56765103,-2.2054343,-0.16203003,0.9667637,0.8493505,0.04,0.039999772,-6.0146604,-0.05334595963358879,-7.7496533,0.0,-0.0,0.0
97.29999999999576,-0.52418095,-0.37741944,-0.56765103,-2.2054343,-0.16203003,0.9667637,0.8493505,0.04,0.039999772,-6.0146604,-0.05334595963358879,-7.7496533,0.0,-0.0,0.0
97.31666666666243,-0.52418095,-0.37741944,-0.56765103,-2.2054343,-0.16203003,0.9667637,0.8493505,0.04,0.039999772,-6.0146604,-0.05334595963358879,-7.7496533,0.0,-0.0,0.0
97.3333333333291,-0.52418095,-0.37741944,-0.56765103,-2.2054343,-0.16203003,0.9667637,0.8493505,0.04,0.039999772,-6.0146604,-0.05334595963358879,-7.7496533,0.0,-0.0,0.0
97.34999999999576,-0.52418095,-0.37741944,-0.56765103,-2.2054343,-0.16203003,0.9667637,0.8493505,0.04,0.039999772,-6.0146604,-0.05334595963358879,-7.7496533,0.0,-0.0,0.0
97.36666666666243,-0.52418095,-0.37741944,-0.56765103,-2.2054343,-0.16203003,0.9667637,0.8493505,0.04,0.039999772,-6.0146604,-0.05334595963358879,-7.7496533,0.0,-0.0,0.0
97.38333333332909,-0.52418095,-0.37741944,-0.56765103,-2.2054343,-0.16203003,0.9667637,0.8493505,0.04,0.039999772,-6.0146604,-0.05334595963358879,-7.7496533,0.0,-0.0,0.0
97.39999999999576,-0.52418095,-0.37741944,-0.56765103,-2.2054343,-0.16203003,0.9667637,0.8493505,0.04,0.039999772,-6.0146604,-0.05334595963358879,-7.7496533,0.0,-0.0,0.0
97.41666666666242,-0.52418095,-0.37741944,-0.56765103,-2.2054343,-0.16203003,0.9667637,0.8493505,0.04,0.039999772,-6.0146604,-0.05334595963358879,-7.7496533,0.0,-0.0,0.0
97.43333333332909,-0.52418095,-0.37741944,-0.56765103,-2.2054343,-0.16203003,0.9667637,0.8493505,0.04,0.039999772,-6.0146604,-0.05334595963358879,-7.7496533,0.0,-0.0,0.0
97.44999999999575,-0.52418095,-0.37741944,-0.56765103,-2.2054343,-0.16203003,0.9667637,0.8493505,0.04,0.039999772,-6.0146604,-0.05334595963358879,-7.7496533,0.0,-0.0,0.0
