rsonawane2002/My_IMU/logs_2/traj_374/imu_400hz_374.csv
time,j1,j2,j3,j4,j5,j6,j7,gripper1,gripper2,imu_ax,imu_ay,imu_az,imu_gx,imu_gy,imu_gz
0.0,0.00016700293,-0.785875,4.0107683e-05,-2.3551247,9.29385e-05,1.570997,0.786,0.04,0.04,-9.56001,0.0378773175179958,0.08799202,1.2886564e-07,-0.0011641274904832,5.6492297e-07
0.0025,0.0001670040145,-0.785857774,4.010811155e-05,-2.35513919,9.29433729e-05,1.570996565,0.786,0.04,0.04,-9.601155900000037,0.03229159801848653,0.07615911684998924,4.292446299992183e-08,-0.0013252449745779216,6.277155395000571e-07
0.005,0.000167005099,-0.785840548,4.0108540100000005e-05,-2.3551536800000004,9.294824580000002e-05,1.57099613,0.786,0.04,0.04,-9.642301800000075,0.02670587851897726,0.06432621369997849,-4.3016714000156346e-08,-0.0014863624586726432,6.905081090001142e-07
0.0075,0.0001670061835,-0.7858233219999999,4.010896865e-05,-2.3551681700000002,9.295311870000001e-05,1.570995695,0.786,0.04,0.04,-9.683447700000112,0.021120159019467993,0.05249331054996772,-1.2895789100023448e-07,-0.0016474799427673647,7.533006785001712e-07
0.01,0.000167007268,-0.785806096,4.01093972e-05,-2.35518266,9.295799160000003e-05,1.5709952600000001,0.786,0.04,0.04,-9.72459360000015,0.015534439519958722,0.04066040739995695,-2.148990680003127e-07,-0.0018085974268620864,8.160932480002285e-07
0.0125,0.0001670083525,-0.78578887,4.010982575e-05,-2.3551971500000004,9.296286450000002e-05,1.570994825,0.786,0.04,0.04,-9.765739500000187,0.009948720020449449,0.028827504249946186,-3.0084024500039083e-07,-0.001969714910956808,8.788858175002855e-07
0.015,0.00016700943700000002,-0.785771644,4.0110254300000004e-05,-2.3552116400000003,9.296773740000004e-05,1.57099439,0.786,0.04,0.04,-9.806885400000224,0.004363000520940186,0.016994601099935433,-3.8678142200046894e-07,-0.0021308323950515293,9.416783870003426e-07
0.0175,0.00016701201900000003,-0.785754867,4.010925449999997e-05,-2.3552257350000003,9.297142370000001e-05,1.57099396,0.786,0.04,0.04,-9.834227549999998,0.00063814361928959,0.009027598799998503,-5.5558303800213e-07,-0.0022877036826694248,1.0023069150003584e-06
0.02,0.00016701759600000005,-0.785738988,4.010539799999997e-05,-2.3552390400000003,9.297273680000002e-05,1.5709935400000001,0.786,0.04,0.04,-9.833962199999998,0.0006350119132548171,0.008792398199998289,-8.901055320024341e-07,-0.0024360825773338994,1.0586073600004097e-06
0.0225,0.00016702317300000004,-0.7857231089999999,4.0101541499999965e-05,-2.3552523450000002,9.297404990000002e-05,1.57099312,0.786,0.04,0.04,-9.833696849999997,0.0006318802072200443,0.008557197599998075,-1.224628026002738e-06,-0.0025844614719983745,1.1149078050004607e-06
0.025,0.00016702875000000004,-0.7857072299999999,4.0097684999999966e-05,-2.35526565,9.297536300000001e-05,1.5709927,0.786,0.04,0.04,-9.833431499999998,0.0006287485011852715,0.00832199699999786,-1.5591505200030425e-06,-0.0027328403666628497,1.171208250000512e-06
0.0275,0.00016703432700000006,-0.7856913509999999,4.009382849999996e-05,-2.355278955,9.297667610000001e-05,1.57099228,0.786,0.04,0.04,-9.833166149999997,0.0006256167951504987,0.008086796399997646,-1.8936730140033465e-06,-0.0028812192613273243,1.2275086950005633e-06
0.03,0.00016703990400000006,-0.7856754719999999,4.008997199999996e-05,-2.35529226,9.297798920000002e-05,1.57099186,0.786,0.04,0.04,-9.832900799999997,0.0006224850891157257,0.007851595799997432,-2.2281955080036506e-06,-0.0030295981559917994,1.2838091400006145e-06
0.0325,0.00016704548100000005,-0.7856595929999999,4.0086115499999954e-05,-2.355305565,9.297930230000002e-05,1.57099144,0.786,0.04,0.04,-9.832635449999996,0.0006193533830809529,0.007616395199997218,-2.562718002003955e-06,-0.0031779770506562745,1.3401095850006658e-06
0.035,0.00016705893600000023,-0.7856445699999999,4.007479599999981e-05,-2.3553181,9.29748189999999e-05,1.57099101,0.786,0.04,0.04,-9.832353399999997,0.0006157135067041004,0.007406188299997482,-3.2879796500117236e-06,-0.003318626224065012,1.3826396300004539e-06
0.0375,0.00016707633000000025,-0.7856299749999998,4.00597449999998e-05,-2.35533025,9.29674374999999e-05,1.570990575,0.786,0.04,0.04,-9.832062999999996,0.0006118195451562219,0.007208478249997302,-4.208610875012559e-06,-0.003455410536846091,1.4182844750004864e-06
0.04,0.00016709372400000025,-0.7856153799999998,4.004469399999978e-05,-2.3553424,9.296005599999989e-05,1.57099014,0.786,0.04,0.04,-9.831772599999995,0.0006079255836083433,0.007010768199997123,-5.129242100013397e-06,-0.0035921948496271706,1.4539293200005188e-06
0.0425,0.00016711111800000027,-0.7856007849999997,4.002964299999977e-05,-2.35535455,9.29526744999999e-05,1.5709897050000001,0.786,0.04,0.04,-9.831482199999995,0.0006040316220604648,0.006813058149996942,-6.049873325014235e-06,-0.0037289791624082504,1.4895741650005513e-06
0.045,0.0001671285120000003,-0.7855861899999997,4.0014591999999756e-05,-2.3553667000000003,9.294529299999988e-05,1.57098927,0.786,0.04,0.04,-9.831191799999996,0.0006001376605125863,0.006615348099996763,-6.970504550015071e-06,-0.003865763475189329,1.5252190100005836e-06
0.0475,0.0001671459060000003,-0.7855715949999997,3.9999540999999743e-05,-2.35537885,9.293791149999988e-05,1.570988835,0.786,0.04,0.04,-9.830901399999995,0.0005962436989647077,0.006417638049996583,-7.89113577501591e-06,-0.004002547787970409,1.560863855000616e-06
0.05,0.00016716330000000074,-0.7855569999999997,3.9984489999999345e-05,-2.355391,9.293052999999958e-05,1.5709884,0.786,0.04,0.04,-9.830610999999996,0.0005923497374168042,0.006219927999996442,-8.811767000031465e-06,-0.004139332100751284,1.5965087000001528e-06
0.0525,0.00016720298700000078,-0.7855435599999997,3.994833429999931e-05,-2.3554021300000003,9.290706639999955e-05,1.57098798,0.786,0.04,0.04,-9.830377149999995,0.0005870807857716794,0.006024346599996264,-1.0541406500033034e-05,-0.004264895734379588,1.6049052650001605e-06
0.055,0.00016724267400000079,-0.7855301199999997,3.991217859999928e-05,-2.35541326,9.288360279999953e-05,1.57098756,0.786,0.04,0.04,-9.830143299999994,0.0005818118341265546,0.005828765199996086,-1.2271046000034609e-05,-0.004390459368007893,1.613301830000168e-06
0.0575,0.00016728236100000082,-0.7855166799999997,3.987602289999924e-05,-2.35542439,9.286013919999951e-05,1.57098714,0.786,0.04,0.04,-9.829909449999995,0.0005765428824814298,0.005633183799995908,-1.4000685500036182e-05,-0.0045160230016361965,1.6216983950001756e-06
0.06,0.00016732204800000086,-0.7855032399999997,3.983986719999921e-05,-2.3554355200000003,9.283667559999949e-05,1.57098672,0.786,0.04,0.04,-9.829675599999995,0.000571273930836305,0.005437602399995731,-1.5730325000037753e-05,-0.0046415866352645,1.6300949600001834e-06
0.0625,0.0001673617350000009,-0.7854897999999997,3.9803711499999175e-05,-2.35544665,9.281321199999947e-05,1.5709863,0.786,0.04,0.04,-9.829441749999996,0.0005660049791911802,0.0052420209999955525,-1.7459964500039328e-05,-0.004767150268892805,1.638491525000191e-06
0.065,0.00016740142200000093,-0.7854763599999998,3.9767555799999144e-05,-2.35545778,9.278974839999944e-05,1.57098588,0.786,0.04,0.04,-9.829207899999995,0.0005607360275460554,0.005046439599995374,-1.9189604000040903e-05,-0.004892713902521109,1.6468880900001987e-06
0.0675,0.00016745296650000184,-0.7854632849999997,3.972017404999828e-05,-2.35546854,9.27578063999988e-05,1.570985455,0.786,0.04,0.04,-9.828967149999995,0.0005548043962332968,0.004860116734995879,-2.1274707650068663e-05,-0.005014881957325178,1.644164224999387e-06
0.07,0.00016752822600000193,-0.7854509399999997,3.965034019999822e-05,-2.3554785600000003,9.270890759999876e-05,1.57098502,0.786,0.04,0.04,-9.828712599999994,0.0005475474055854152,0.004692310939995726,-2.407073960007121e-05,-0.005130258854481518,1.6191994999993643e-06
0.0725,0.000167603485500002,-0.7854385949999997,3.9580506349998155e-05,-2.3554885800000003,9.26600087999987e-05,1.570984585,0.786,0.04,0.04,-9.828458049999995,0.0005402904149375337,0.004524505144995574,-2.6866771550073742e-05,-0.005245635751637858,1.5942347749993416e-06
0.075,0.00016767874500000205,-0.7854262499999997,3.951067249999809e-05,-2.3554986,9.261110999999866e-05,1.57098415,0.786,0.04,0.04,-9.828203499999994,0.0005330334242896521,0.004356699349995422,-2.9662803500076287e-05,-0.005361012648794198,1.569270049999319e-06
0.0775,0.00016775400450000214,-0.7854139049999996,3.944083864999803e-05,-2.35550862,9.256221119999862e-05,1.5709837150000001,0.786,0.04,0.04,-9.827948949999994,0.0005257764336417704,0.0041888935549952684,-3.2458835450078835e-05,-0.005476389545950538,1.5443053249992962e-06
0.08,0.0001678292640000022,-0.7854015599999996,3.9371004799997964e-05,-2.3555186400000006,9.251331239999857e-05,1.57098328,0.786,0.04,0.04,-9.827694399999993,0.0005185194429938888,0.004021087759995116,-3.525486740008138e-05,-0.005591766443106878,1.5193405999992736e-06
0.0825,0.00016790452350000227,-0.7853892149999996,3.930117094999791e-05,-2.3555286600000005,9.246441359999853e-05,1.570982845,0.786,0.04,0.04,-9.827439849999992,0.0005112624523460072,0.0038532819649949633,-3.8050899350083924e-05,-0.005707143340263218,1.4943758749992507e-06
0.085,0.00016801401600000391,-0.7853775199999996,3.919884039999633e-05,-2.3555383800000005,9.23920735999974e-05,1.57098241,0.786,0.04,0.0399999995,-9.827212199999995,0.0005035728914660255,0.0036855587499948143,-4.175408840012855e-05,-0.005815776437524196,1.5198035400015657e-06
0.08750000000000001,0.00016814062500000403,-0.7853661499999995,3.908026149999622e-05,-2.3555479500000005,9.230801299999733e-05,1.570981975,0.786,0.04,0.03999999875,-9.826997999999994,0.0004956670454700233,0.0035178768249946616,-4.5910856000132334e-05,-0.005921037634837951,1.5704274000016116e-06
0.09,0.00016826723400000415,-0.7853547799999996,3.896168259999612e-05,-2.3555575200000005,9.222395239999725e-05,1.57098154,0.786,0.04,0.039999998,-9.826783799999994,0.00048776119947402114,0.00335019489999451,-5.0067623600136095e-05,-0.006026298832151706,1.6210512600016575e-06
0.0925,0.00016839384300000427,-0.7853434099999996,3.884310369999601e-05,-2.3555670900000005,9.213989179999718e-05,1.570981105,0.786,0.04,0.03999999725,-9.826569599999994,0.00047985535347801894,0.003182512974994357,-5.422439120013988e-05,-0.0061315600294654625,1.6716751200017036e-06
0.095,0.00016852045200000437,-0.7853320399999996,3.8724524799995904e-05,-2.3555766600000005,9.20558311999971e-05,1.57098067,0.786,0.04,0.0399999965,-9.826355399999994,0.00047194950748201674,0.003014831049994205,-5.8381158800143664e-05,-0.006236821226779218,1.7222989800017497e-06
0.0975,0.00016864706100000449,-0.7853206699999996,3.8605945899995795e-05,-2.3555862300000006,9.197177059999703e-05,1.570980235,0.786,0.04,0.03999999575,-9.826141199999993,0.00046404366148601454,0.002847149124994052,-6.253792640014745e-05,-0.006342082424092974,1.7729228400017958e-06
0.1,0.00016877367000000713,-0.7853092999999997,3.8487366999993295e-05,-2.3555958000000006,9.188770999999514e-05,1.5709798,0.786,0.04,0.039999995,-9.825926999999995,0.0004561378154899625,0.0026794671999947122,-6.669469400020828e-05,-0.006447343621406495,1.8235466999959167e-06
0.10250000000000001,0.0001689697005000073,-0.7852989049999997,3.830288769999312e-05,-2.3556045300000004,9.175407499999501e-05,1.57097938,0.785999715,0.04,0.039999995,-9.825776549999995,0.0004468628292666341,0.00253412129499458,-7.241929940021348e-05,-0.006546168634671606,1.7113114049958144e-06
0.105,0.0001691657310000075,-0.7852885099999997,3.811840839999296e-05,-2.3556132600000006,9.16204399999949e-05,1.57097896,0.78599943,0.04,0.039999995,-9.825626099999994,0.0004375878430433057,0.0023887753899944483,-7.814390480021866e-05,-0.006644993647936715,1.599076109995713e-06
0.1075,0.00016936176150000767,-0.7852781149999996,3.793392909999279e-05,-2.3556219900000004,9.148680499999478e-05,1.57097854,0.785999145,0.04,0.039999995,-9.825475649999994,0.00042831285681997725,0.002243429484994316,-8.386851020022388e-05,-0.006743818661201825,1.4868408149956107e-06
0.11,0.00016955779200000784,-0.7852677199999996,3.774944979999262e-05,-2.35563072,9.135316999999465e-05,1.57097812,0.78599886,0.04,0.039999995,-9.825325199999993,0.0004190378705966488,0.0020980835799941835,-8.959311560022909e-05,-0.006842643674466935,1.3746055199955087e-06
0.1125,0.00016975382250000802,-0.7852573249999996,3.756497049999245e-05,-2.3556394500000004,9.121953499999452e-05,1.5709777,0.785998575,0.04,0.039999995,-9.825174749999993,0.0004097628843733204,0.0019527376749940513,-9.53177210002343e-05,-0.006941468687732045,1.2623702249954064e-06
0.115,0.00016994985300000821,-0.7852469299999996,3.738049119999228e-05,-2.35564818,9.108589999999441e-05,1.5709772800000001,0.78599829,0.04,0.039999995,-9.825024299999994,0.0004004878981499919,0.001807391769993919,-0.00010104232640023952,-0.007040293700997155,1.1501349299953041e-06
0.11750000000000001,0.00017017572050001222,-0.7852368229999996,3.716767274998848e-05,-2.3556565750000003,9.093099119999155e-05,1.570976855,0.785998005,0.04,0.039999995,-9.824866549999992,0.00039045595476579643,0.0016626466399938637,-0.00010691773950026406,-0.0071363374823742685,1.0214827231080966e-06
0.12,0.00017046126200001246,-0.7852272919999996,3.6898175999988236e-05,-2.3556643000000004,9.073353479999137e-05,1.57097642,0.78599772,0.04,0.039999995,-9.824694199999993,0.00037891009706015596,0.0015191030599937339,-0.00011309476800026966,-0.00722681879997645,8.599966924529504e-07
0.1225,0.00017074680350001272,-0.7852177609999996,3.662867924998799e-05,-2.3556720250000005,9.05360783999912e-05,1.570975985,0.785997435,0.04,0.039999995,-9.824521849999991,0.00036736423935451544,0.0013755594799936032,-0.00011927179650027528,-0.007317300117578632,6.985106617978034e-07
0.125,0.00017103234500001299,-0.7852082299999996,3.6359182499987746e-05,-2.35567975,9.033862199999101e-05,1.57097555,0.78599715,0.04,0.039999995,-9.824349499999991,0.0003558183816488749,0.0012320158999934725,-0.0001254488250002809,-0.0074077814351808146,5.370246311426564e-07
0.1275,0.00017131788650001325,-0.7851986989999995,3.60896857499875e-05,-2.3556874750000003,9.014116559999084e-05,1.570975115,0.785996865,0.04,0.039999995,-9.824177149999992,0.0003442725239432344,0.0010884723199933418,-0.00013162585350028652,-0.007498262752782997,3.755386004875095e-07
0.13,0.0001716034280000135,-0.7851891679999995,3.582018899998726e-05,-2.3556952000000004,8.994370919999066e-05,1.57097468,0.7859965800000001,0.04,0.039999995,-9.824004799999992,0.00033272666623759394,0.0009449287399932111,-0.00013780288200029216,-0.007588744070385179,2.1405256983236243e-07
0.1325,0.00017188896950001375,-0.7851796369999995,3.555069224998701e-05,-2.3557029250000006,8.974625279999047e-05,1.570974245,0.785996295,0.04,0.039999995,-9.82383244999999,0.0003211808085319534,0.0008013851599930804,-0.0001439799105002978,-0.0076792253879873614,5.256653917721538e-08
0.135,0.0001722487580000195,-0.7851706439999996,3.5210620499981566e-05,-2.35571051,8.949475359998632e-05,1.5709738199999999,0.78599601,0.04,0.0399999955,-9.823631799999989,0.0003099028894206526,0.0006698876744938372,-0.00015155126100040612,-0.00776395741850537,-2.1875733394602383e-07
0.1375,0.00017264567000001985,-0.7851619199999995,3.4835261249981224e-05,-2.3557180250000003,8.921623299998607e-05,1.5709734,0.785995725,0.04,0.03999999625,-9.823416999999989,0.0002987589396064925,0.0005444132362437229,-0.00015981977250041366,-0.00784581480548192,-5.450001282913208e-07
0.14,0.0001730425820000202,-0.7851531959999996,3.445990199998088e-05,-2.3557255400000003,8.893771239998581e-05,1.57097298,0.78599544,0.04,0.039999997,-9.823202199999988,0.00028761498979233235,0.0004189387979936087,-0.00016808828400042118,-0.00792767219245847,-8.712429226366178e-07
0.14250000000000002,0.00017343949400002058,-0.7851444719999996,3.408454274998054e-05,-2.3557330550000004,8.865919179998555e-05,1.57097256,0.7859951550000001,0.04,0.03999999775,-9.822987399999988,0.0002764710399781722,0.00029346435974349444,-0.0001763567955004287,-0.008009529579435019,-1.1974857169819147e-06
0.145,0.00017383640600002092,-0.7851357479999995,3.37091834999802e-05,-2.3557405700000005,8.838067119998531e-05,1.57097214,0.78599487,0.04,0.0399999985,-9.822772599999988,0.0002653270901640122,0.0001679899214933816,-0.00018462530700043614,-0.008091386966411568,-1.5237285113272083e-06
0.1475,0.0001742333180000213,-0.7851270239999996,3.3333824249979855e-05,-2.3557480850000005,8.810215059998506e-05,1.57097172,0.785994585,0.04,0.03999999925,-9.822557799999988,0.000254183140349852,4.2515483243267364e-05,-0.00019289381850044366,-0.008173244353388117,-1.8499713056725053e-06
0.15,0.000174630230000029,-0.7851182999999996,3.295846499997251e-05,-2.3557556000000006,8.782362999997966e-05,1.5709713,0.7859943,0.04,0.04,-9.822342999999996,0.00024303919053564045,-8.295895500679797e-05,-0.00020116233000057134,-0.008255101740364416,-2.176214100007849e-06
0.1525,0.0001751619380000295,-0.7851103049999996,3.245484719997206e-05,-2.3557621700000007,8.745080139997932e-05,1.570970865,0.7859937300000001,0.04,0.03999999925,-9.822268899999996,0.00023095220239992444,-0.00020753802675691136,-0.0002116330380005809,-0.008332379814241592,-2.3200518000079796e-06
0.155,0.00017569364600002999,-0.7851023099999996,3.19512293999716e-05,-2.3557687400000007,8.707797279997898e-05,1.57097043,0.78599316,0.04,0.0399999985,-9.822194799999997,0.00021886521426420843,-0.00033211709850702474,-0.00022210374600059043,-0.008409657888118767,-2.4638895000081106e-06
0.1575,0.00017622535400003048,-0.7850943149999996,3.144761159997114e-05,-2.3557753100000003,8.670514419997864e-05,1.570969995,0.78599259,0.04,0.03999999775,-9.822120699999996,0.00020677822612849244,-0.0004566961702571382,-0.00023257445400059996,-0.008486935961995942,-2.6077272000082417e-06
0.16,0.00017675706200003094,-0.7850863199999996,3.094399379997068e-05,-2.3557818800000003,8.633231559997829e-05,1.57096956,0.78599202,0.04,0.039999997,-9.822046599999997,0.00019469123799277643,-0.0005812752420072516,-0.0002430451620006095,-0.008564214035873118,-2.7515649000083723e-06
0.1625,0.00017728877000003143,-0.7850783249999995,3.0440375999970227e-05,-2.3557884500000004,8.595948699997796e-05,1.570969125,0.78599145,0.04,0.03999999625,-9.821972499999996,0.00018260424985706042,-0.000705854313757365,-0.000253515870000619,-0.008641492109750293,-2.8954026000085033e-06
0.165,0.00017782047800003192,-0.7850703299999995,2.9936758199969767e-05,-2.3557950200000004,8.558665839997762e-05,1.57096869,0.78599088,0.04,0.0399999955,-9.821898399999995,0.00017051726172134443,-0.0008304333855074784,-0.00026398657800062855,-0.008718770183627468,-3.0392403000086344e-06
0.1675,0.00017840541850004213,-0.7850625769999996,2.938249224996005e-05,-2.3558015250000004,8.517524119997022e-05,1.570968255,0.785990308,0.04,0.03999999525,-9.821784949999989,0.00015745314012650605,-0.0009506939950068023,-0.00027484383750070874,-0.008793446002532302,-3.3242876450345814e-06
0.17,0.00017909682400004277,-0.7850553079999996,2.872692999995945e-05,-2.3558079000000003,8.468664679996978e-05,1.57096782,0.785989732,0.04,0.039999996,-9.821592799999989,0.00014243475161395614,-0.001062317680006904,-0.0002864742000007194,-0.008862917311493877,-3.8917542800350976e-06
0.17250000000000001,0.00017978822950004338,-0.7850480389999995,2.8071367749958855e-05,-2.3558142750000006,8.419805239996933e-05,1.5709673849999999,0.785989156,0.04,0.03999999675,-9.821400649999989,0.00012741636310140624,-0.0011739413650070055,-0.00029810456250072996,-0.00893238862045545,-4.4592209150356145e-06
0.17500000000000002,0.00018047963500004402,-0.7850407699999995,2.741580549995826e-05,-2.3558206500000005,8.370945799996889e-05,1.5709669499999999,0.7859885799999999,0.04,0.0399999975,-9.821208499999988,0.00011239797458885633,-0.0012855650500071072,-0.00030973492500074054,-0.009001859929417023,-5.0266875500361315e-06
0.1775,0.00018117104050004466,-0.7850335009999996,2.676024324995767e-05,-2.3558270250000004,8.322086359996845e-05,1.570966515,0.7859880039999999,0.04,0.03999999825,-9.821016349999988,9.737958607630659e-05,-0.0013971887350072076,-0.00032136528750075096,-0.009071331238378597,-5.594154185036642e-06
0.18,0.00018186244600004527,-0.7850262319999995,2.6104680999957075e-05,-2.3558334000000007,8.2732269199968e-05,1.57096608,0.7859874279999999,0.04,0.039999999,-9.820824199999988,8.236119756375669e-05,-0.0015088124200073093,-0.00033299565000076154,-0.00914080254734017,-6.161620820037159e-06
0.1825,0.00018255385150004591,-0.7850189629999995,2.5449118749956476e-05,-2.3558397750000006,8.224367479996756e-05,1.570965645,0.785986852,0.04,0.03999999975,-9.820632049999986,6.734280905120679e-05,-0.0016204361050074108,-0.0003446260125007721,-0.009210273856301743,-6.729087455037675e-06
0.185,0.00018336907900005906,-0.7850121459999996,2.4675635399943974e-05,-2.3558456400000005,8.166725499995826e-05,1.57096522,0.7859860879999999,0.04,0.04,-9.820523499999995,5.4542627184796286e-05,-0.0017295700700072612,-0.0003580050730009593,-0.009277029149238681,-7.0837035000167035e-06
0.1875,0.00018424621750005984,-0.7850055549999996,2.3843191499943217e-05,-2.3558512500000006,8.104692249995769e-05,1.5709648,0.7859852299999999,0.04,0.04,-9.820456749999995,4.285154864112262e-05,-0.0018374591750073594,-0.00037225848250097227,-0.009342426434163711,-7.33189425001693e-06
0.19,0.00018512335600006063,-0.7849989639999996,2.301074759994246e-05,-2.3558568600000003,8.042658999995713e-05,1.57096438,0.7859843719999999,0.04,0.04,-9.820389999999996,3.1160470097448944e-05,-0.0019453482800074575,-0.0003865118920009852,-0.00940782371908874,-7.580085000017155e-06
0.1925,0.00018600049450006144,-0.7849923729999996,2.21783036999417e-05,-2.3558624700000004,7.980625749995657e-05,1.57096396,0.7859835139999999,0.04,0.04,-9.820323249999996,1.9469391553775276e-05,-0.0020532373850075556,-0.0004007653015009982,-0.00947322100401377,-7.82827575001738e-06
0.195,0.00018687763300006223,-0.7849857819999996,2.1345859799940944e-05,-2.3558680800000005,7.9185924999956e-05,1.57096354,0.785982656,0.04,0.04,-9.820256499999996,7.778313010101608e-06,-0.002161126490007654,-0.0004150187110010112,-0.009538618288938799,-8.076466500017608e-06
0.1975,0.00018775477150006302,-0.7849791909999996,2.0513415899940184e-05,-2.35587369,7.856559249995543e-05,1.5709631199999998,0.7859817979999999,0.04,0.04,-9.820189749999995,-3.912765533572066e-06,-0.002269015595007752,-0.00042927212050102416,-0.009604015573863828,-8.324657250017833e-06
0.2,0.0001886319100000793,-0.7849725999999996,1.9680971999924672e-05,-2.3558793000000002,7.79452599999438e-05,1.5709627,0.7859809399999999,0.04,0.04,-9.820122999999988,-1.5603844077495453e-05,-0.002376904700006781,-0.00044352553000115153,-0.009669412858788367,-8.572848000038469e-06
0.2025,0.0001897219675000803,-0.7849666299999996,1.8645749099923732e-05,-2.355884595,7.71729444999431e-05,1.570962265,0.7859797939999998,0.04,0.04,-9.819962199999988,-3.0726962723939966e-05,-0.002470098365006866,-0.000459351410501166,-0.009728065086532891,-9.10153905003895e-06
0.20500000000000002,0.0001908120250000813,-0.7849606599999995,1.761052619992279e-05,-2.3558898900000003,7.64006289999424e-05,1.57096183,0.7859786479999998,0.04,0.04,-9.819801399999989,-4.585008137038448e-05,-0.002563292030006951,-0.00047517729100118037,-0.009786717314277415,-9.630230100039433e-06
0.20750000000000002,0.0001919020825000823,-0.7849546899999995,1.6575303299921846e-05,-2.3558951850000005,7.562831349994169e-05,1.5709613949999999,0.7859775019999999,0.04,0.04,-9.819640599999989,-6.0973200016828994e-05,-0.0026564856950070355,-0.0004910031715011948,-0.009845369542021937,-1.0158921150039912e-05
0.21,0.00019299214000008326,-0.7849487199999995,1.5540080399920916e-05,-2.3559004800000003,7.4855997999941e-05,1.5709609599999999,0.7859763559999999,0.04,0.04,-9.819479799999987,-7.609631866327334e-05,-0.0027496793600071193,-0.000506829052001209,-0.009904021769766461,-1.0687612200040388e-05
0.2125,0.00019408219750008426,-0.7849427499999996,1.4504857499919973e-05,-2.3559057750000005,7.40836824999403e-05,1.570960525,0.7859752099999999,0.04,0.04,-9.819318999999988,-9.121943730971785e-05,-0.0028428730250072043,-0.0005226549325012234,-0.009962673997510984,-1.121630325004087e-05
0.215,0.00019517225500008525,-0.7849367799999996,1.346963459991903e-05,-2.3559110700000008,7.33113669999396e-05,1.57096009,0.7859740639999999,0.04,0.04,-9.819158199999988,-0.00010634255595616237,-0.0029360666900072893,-0.0005384808130012378,-0.010021326225255507,-1.174499430004135e-05
0.2175,0.00019634264200010532,-0.7849310024999996,1.2357880819899922e-05,-2.3559163200000004,7.248189249992532e-05,1.57095965,0.7859728534999999,0.04,0.04,-9.819025549999994,-0.00012180313933760673,-0.0030298644100075177,-0.0005548915700013911,-0.010078565776352385,-1.2281120750043597e-05
0.22,0.00019767368800010653,-0.7849256099999996,1.109306527989877e-05,-2.3559214800000006,7.153809999992447e-05,1.5709592,0.7859715139999999,0.04,0.04,-9.818949199999993,-0.0001379386521888114,-0.003124870240007604,-0.0005724720800014071,-0.010132979974154976,-1.28321180000441e-05
0.2225,0.00019900473400010773,-0.7849202174999995,9.828249739897617e-06,-2.3559266400000003,7.05943074999236e-05,1.57095875,0.7859701744999998,0.04,0.04,-9.818872849999995,-0.0001540741650400161,-0.0032198760700076906,-0.000590052590001423,-0.010187394171957565,-1.33831152500446e-05
0.225,0.00020033578000010896,-0.7849148249999995,8.563434199896465e-06,-2.3559318000000005,6.965051499992275e-05,1.5709583,0.7859688349999999,0.04,0.04,-9.818796499999994,-0.0001702096778912208,-0.003314881900007777,-0.0006076331000014391,-0.010241808369760155,-1.3934112500045103e-05
0.2275,0.00020166682600011016,-0.7849094324999996,7.298618659895315e-06,-2.35593696,6.870672249992189e-05,1.57095785,0.7859674954999999,0.04,0.04,-9.818720149999994,-0.0001863451907424255,-0.0034098877300078635,-0.0006252136100014551,-0.010296222567562744,-1.4485109750045604e-05
0.23,0.00020299787200011137,-0.7849040399999996,6.033803119894162e-06,-2.3559421200000004,6.776292999992102e-05,1.5709574,0.7859661559999999,0.04,0.04,-9.818643799999995,-0.0002024807035936302,-0.00350489356000795,-0.000642794120001471,-0.010350636765365333,-1.5036107000046105e-05
0.2325,0.0002043289180001126,-0.7848986474999995,4.76898757989301e-06,-2.35594728,6.681913749992017e-05,1.57095695,0.7859648164999998,0.04,0.04,-9.818567449999994,-0.00021861621644483486,-0.0035998993900080364,-0.0006603746300014871,-0.010405050963167923,-1.5587104250046606e-05
0.23500000000000001,0.00020583986000013687,-0.7848936249999996,3.3327098598698704e-06,-2.3559519000000004,6.574760369990293e-05,1.5709565,0.7859633329999999,0.04,0.04,-9.818500099999996,-0.0002328439615678149,-0.0036864524000070386,-0.0006794917900017002,-0.010457436367873711,-1.6069836500038353e-05
0.23750000000000002,0.00020744075000013834,-0.7848887874999996,1.8107010498684847e-06,-2.35595625,6.46121992499019e-05,1.57095605,0.7859617774999998,0.04,0.04,-9.818437249999995,-0.00024611782282704696,-0.0037687790000071135,-0.0006993772750017183,-0.01050880737603149,-1.6518436250038762e-05
0.24,0.00020904164000013978,-0.7848839499999996,2.886922398671159e-07,-2.3559606000000004,6.347679479990086e-05,1.5709556,0.7859602219999998,0.04,0.04,-9.818374399999994,-0.0002593916840862789,-0.0038511056000071877,-0.0007192627600017362,-0.010560178384189265,-1.6967036000039167e-05
0.2425,0.00021064253000014122,-0.7848791124999995,-1.2333165701342703e-06,-2.35596495,6.234139034989983e-05,1.57095515,0.7859586664999999,0.04,0.04,-9.818311549999995,-0.000272665545345511,-0.003933432200007262,-0.0007391482450017543,-0.010611549392347042,-1.7415635750039573e-05
0.245,0.0002122434200001427,-0.7848742749999996,-2.7553253801356556e-06,-2.3559693000000004,6.12059858998988e-05,1.5709547,0.7859571109999999,0.04,0.04,-9.818248699999994,-0.00028593940660474307,-0.004015758800007338,-0.0007590337300017724,-0.01066292040050482,-1.786423550003998e-05
0.2475,0.00021384431000014413,-0.7848694374999996,-4.277334190137041e-06,-2.35597365,6.007058144989777e-05,1.57095425,0.7859555554999998,0.04,0.04,-9.818185849999994,-0.00029921326786397514,-0.004098085400007412,-0.0007789192150017904,-0.010714291408662596,-1.831283525004039e-05
0.25,0.00021544520000017282,-0.7848645999999996,-5.799343000164383e-06,-2.3559780000000003,5.893517699987736e-05,1.5709538,0.7859539999999998,0.04,0.04,-9.818122999999987,-0.00031248712912354895,-0.004180412000007271,-0.0007988047000020268,-0.01076566241681982,-1.8761435000059003e-05
0.2525,0.00021734548400014863,-0.7848602994999997,-7.606750750141371e-06,-2.3559821550000004,5.7586703849894526e-05,1.570953335,0.7859521489999999,0.04,0.04,-9.81798589999999,-0.00032951819594149214,-0.004260354500006253,-0.000821089532501743,-0.01081096478738239,-1.941019160005074e-05
0.255,0.00021924576800012443,-0.7848559989999997,-9.41415850011836e-06,-2.35598631,5.6238230699911695e-05,1.57095287,0.7859502979999999,0.04,0.04,-9.817848799999991,-0.0003465492627594353,-0.004340297000005234,-0.0008433743650014593,-0.010856267157944957,-2.0058948200042484e-05
0.2575,0.00022114605200010024,-0.7848516984999998,-1.1221566250095346e-05,-2.355990465,5.488975754992886e-05,1.570952405,0.7859484469999999,0.04,0.04,-9.817711699999993,-0.0003635803295773785,-0.004420239500004217,-0.0008656591975011755,-0.010901569528507526,-2.0707704800034222e-05
0.26,0.00022304633600007606,-0.7848473979999998,-1.3028974000072336e-05,-2.35599462,5.354128439994603e-05,1.57095194,0.7859465959999999,0.04,0.04,-9.817574599999995,-0.0003806113963953216,-0.004500182000003199,-0.0008879440300008918,-0.010946871899070093,-2.1356461400025964e-05
0.2625,0.00022494662000005185,-0.7848430974999998,-1.4836381750049324e-05,-2.355998775,5.21928112499632e-05,1.570951475,0.785944745,0.04,0.04,-9.817437499999997,-0.00039764246321326475,-0.004580124500002181,-0.0009102288625006082,-0.010992174269632662,-2.2005218000017703e-05
0.265,0.00022684690400002767,-0.7848387969999999,-1.664378950002631e-05,-2.35600293,5.084433809998037e-05,1.57095101,0.785942894,0.04,0.04,-9.817300399999999,-0.00041467353003120795,-0.0046600670000011635,-0.0009325136950003244,-0.01103747664019523,-2.2653974600009445e-05
0.2675,0.00022885701550002434,-0.7848346605,-1.8555921600023168e-05,-2.3560070349999997,4.941823169998273e-05,1.570950535,0.78594093,0.04,0.03999999975,-9.81718955,-0.0004317026032369209,-0.004738799870000833,-0.0009555470775002679,-0.011081628827378528,-2.3287828650006596e-05
0.27,0.0002310867820000568,-0.7848308519999999,-2.0677502400054046e-05,-2.35601104,4.7836858799959716e-05,1.57095004,0.78593874,0.04,0.039999999,-9.817131199999999,-0.0004487276892181737,-0.004815113480001944,-0.0009800775600006249,-0.011123480647803347,-2.3891877600015386e-05
0.2725,0.00023331654850008925,-0.7848270434999998,-2.279908320008492e-05,-2.356015045,4.6255485899936704e-05,1.570949545,0.78593655,0.04,0.03999999825,-9.817072849999997,-0.00046575277519942646,-0.004891427090003054,-0.0010046080425009818,-0.011165332468228165,-2.4495926550024176e-05
0.275,0.0002355463150001217,-0.7848232349999997,-2.4920664000115794e-05,-2.35601905,4.467411299991369e-05,1.57094905,0.7859343599999998,0.04,0.0399999975,-9.817014499999997,-0.0004827778611806792,-0.004967740700004165,-0.0010291385250013388,-0.011207184288652984,-2.509997550003297e-05
0.2775,0.00023777608150015415,-0.7848194264999997,-2.704224480014667e-05,-2.3560230550000005,4.3092740099890674e-05,1.570948555,0.7859321699999998,0.04,0.03999999675,-9.816956149999996,-0.000499802947161932,-0.005044054310005276,-0.0010536690075016958,-0.011249036109077803,-2.570402445004176e-05
0.28,0.0002400058480001866,-0.7848156179999997,-2.9163825600177546e-05,-2.3560270600000006,4.151136719986766e-05,1.57094806,0.7859299799999998,0.04,0.039999996,-9.816897799999994,-0.0005168280331431848,-0.005120367920006386,-0.001078199490002053,-0.011290887929502622,-2.630807340005055e-05
0.28250000000000003,0.00024223561450021903,-0.7848118094999996,-3.128540640020842e-05,-2.3560310650000007,3.992999429984465e-05,1.570947565,0.7859277899999998,0.04,0.03999999525,-9.816839449999994,-0.0005338531191244376,-0.005196681530007497,-0.00110272997250241,-0.011332739749927441,-2.691212235005934e-05
0.28500000000000003,0.00024470540100026854,-0.7848083229999996,-3.36358787002556e-05,-2.3560347600000004,3.817604389980918e-05,1.57094697,0.7859253539999997,0.04,0.0399999955,-9.816785099999995,-0.0005511735682393514,-0.005266258500006865,-0.0011287359800027732,-0.01137286582962084,-2.7808150400108053e-05
0.28750000000000003,0.0002472951975002709,-0.7848049974999997,-3.610079675025785e-05,-2.3560383000000007,3.63358047498075e-05,1.570946325,0.7859227949999997,0.04,0.03999999625,-9.816732749999995,-0.0005686416989210273,-0.005332467150006926,-0.0011554797500027976,-0.011412129038948931,-2.8850168000109002e-05
0.29,0.0002498849940002732,-0.7848016719999996,-3.856571480026003e-05,-2.3560418400000005,3.449556559980587e-05,1.57094568,0.7859202359999997,0.04,0.039999997,-9.816680399999994,-0.0005861098296027029,-0.005398675800006985,-0.0011822235200028214,-0.011451392248277022,-2.9892185600109928e-05
0.2925,0.00025247479050027557,-0.7847983464999996,-4.103063285026228e-05,-2.3560453800000003,3.265532644980419e-05,1.570945035,0.7859176769999997,0.04,0.03999999775,-9.816628049999995,-0.0006035779602843787,-0.005464884450007045,-0.0012089672900028458,-0.011490655457605112,-3.093420320011088e-05
0.295,0.0002550645870002779,-0.7847950209999996,-4.3495550900264523e-05,-2.3560489200000005,3.0815087299802514e-05,1.57094439,0.7859151179999997,0.04,0.0399999985,-9.816575699999994,-0.0006210460909660546,-0.005531093100007105,-0.00123571106000287,-0.011529918666933203,-3.1976220800111823e-05
0.2975,0.00025765438350028026,-0.7847916954999996,-4.596046895026677e-05,-2.3560524600000003,2.8974848149800843e-05,1.570943745,0.7859125589999997,0.04,0.03999999925,-9.816523349999994,-0.0006385142216477305,-0.005597301750007166,-0.0012624548300028944,-0.011569181876261294,-3.3018238400112776e-05
0.3,0.0002602441800003253,-0.7847883699999997,-4.8425387000309706e-05,-2.3560560000000006,2.7134608999768872e-05,1.5709431,0.7859099999999997,0.04,0.04,-9.816470999999991,-0.0006559823523292747,-0.005663510400007207,-0.001289198600003161,-0.01160844508558898,-3.406025600008047e-05
0.3025,0.00026322489300032803,-0.7847855244999997,-5.126319995031229e-05,-2.3560591500000005,2.5016795299766946e-05,1.570942095,0.7859071139999997,0.04,0.04,-9.816391349999991,-0.0006722439866297496,-0.005729549490007268,-0.0013181618750031873,-0.011644006986174894,-3.479758685008114e-05
0.305,0.00026620560600033074,-0.7847826789999996,-5.410101290031487e-05,-2.3560623000000005,2.2898981599765016e-05,1.5709410899999998,0.7859042279999997,0.04,0.04,-9.816311699999991,-0.0006885056209302243,-0.005795588580007328,-0.0013471251500032136,-0.011679568886760805,-3.5534917700081815e-05
0.3075,0.00026918631900033345,-0.7847798334999997,-5.6938825850317456e-05,-2.3560654500000004,2.078116789976309e-05,1.570940085,0.7859013419999997,0.04,0.04,-9.816232049999991,-0.0007047672552306991,-0.005861627670007388,-0.00137608842500324,-0.011715130787346718,-3.627224855008249e-05
0.31,0.00027216703200033616,-0.7847769879999996,-5.977663880032003e-05,-2.3560686000000004,1.866335419976116e-05,1.5709390799999998,0.7858984559999996,0.04,0.04,-9.816152399999991,-0.000721028889531174,-0.0059276667600074474,-0.0014050517000032663,-0.011750692687932631,-3.700957940008315e-05
0.3125,0.00027514774500033887,-0.7847741424999997,-6.261445175032262e-05,-2.3560717500000004,1.6545540499759233e-05,1.5709380749999997,0.7858955699999997,0.04,0.04,-9.816072749999991,-0.0007372905238316487,-0.005993705850007508,-0.0014340149750032927,-0.011786254588518542,-3.7746910250083825e-05
0.315,0.0002781284580003416,-0.7847712969999996,-6.54522647003252e-05,-2.3560749000000003,1.4427726799757303e-05,1.5709370699999998,0.7858926839999997,0.04,0.04,-9.815993099999991,-0.0007535521581321235,-0.006059744940007568,-0.001462978250003319,-0.011821816489104455,-3.84842411000845e-05
0.3175,0.00028124987000039303,-0.7847686049999997,-6.84243057003743e-05,-2.356078,1.2209716529720656e-05,1.5709360699999997,0.7858896539999997,0.04,0.04,-9.81591384999999,-0.0007699938229071007,-0.006119512600005455,-0.0014927928150036405,-0.011856617685411163,-3.928908465010856e-05
0.32,0.00028465268000039615,-0.7847662199999996,-7.166480280037725e-05,-2.3560810000000005,9.791313119718454e-06,1.5709350799999997,0.7858863359999997,0.04,0.04,-9.81583539999999,-0.000786795548630896,-0.006166737400005498,-0.0015243099600036692,-0.011889897473160254,-4.0228953600109415e-05
0.3225,0.00028805549000039926,-0.7847638349999997,-7.49052999003802e-05,-2.3560840000000005,7.3729097097162525e-06,1.5709340899999997,0.7858830179999996,0.04,0.04,-9.81575694999999,-0.0008035972743546913,-0.006213962200005541,-0.0015558271050036979,-0.011923177260909345,-4.1168822550110276e-05
0.325,0.0002914583000004023,-0.7847614499999996,-7.814579700038315e-05,-2.3560870000000005,4.954506299714051e-06,1.5709330999999997,0.7858796999999996,0.04,0.04,-9.81567849999999,-0.0008203990000784866,-0.006261187000005584,-0.0015873442500037266,-0.011956457048658435,-4.210869150011113e-05
0.3275,0.0002948611100004054,-0.7847590649999997,-8.13862941003861e-05,-2.3560900000000005,2.536102889711849e-06,1.5709321099999998,0.7858763819999997,0.04,0.04,-9.81560004999999,-0.000837200725802282,-0.006308411800005627,-0.0016188613950037553,-0.011989736836407526,-4.3048560450111984e-05
0.33,0.00029826392000040854,-0.7847566799999997,-8.462679120038906e-05,-2.3560930000000004,1.1769947970964681e-07,1.5709311199999998,0.7858730639999996,0.04,0.04,-9.81552159999999,-0.0008540024515260772,-0.00635563660000567,-0.001650378540003784,-0.012023016624156616,-4.398842940011284e-05
0.3325,0.00030166673000041165,-0.7847542949999997,-8.7867288300392e-05,-2.3560960000000004,-2.3007039302925553e-06,1.5709301299999998,0.7858697459999996,0.04,0.04,-9.815443149999991,-0.0008708041772498725,-0.006402861400005713,-0.0016818956850038127,-0.012056296411905707,-4.492829835011369e-05
0.335,0.00030537187000047,-0.7847521899999997,-9.13962372004477e-05,-2.3560989300000004,-4.934390260334113e-06,1.57092912,0.7858661309999996,0.04,0.04,-9.815391699999996,-0.0008890798955712573,-0.0064584057000072765,-0.001714926930004118,-0.012087793834511161,-4.591805740012367e-05
0.3375,0.0003092281750004735,-0.7847502249999998,-9.506941200045103e-05,-2.3561018250000005,-7.67571805033661e-06,1.5709281,0.7858623674999995,0.04,0.04,-9.815353749999995,-0.0009080926101910346,-0.006518109750007331,-0.0017487152250041489,-0.012118400074545283,-4.693276150012459e-05
0.34,0.000313084480000477,-0.7847482599999998,-9.874258680045438e-05,-2.3561047200000003,-1.0417045840339105e-05,1.57092708,0.7858586039999995,0.04,0.04,-9.815315799999995,-0.0009271053248108119,-0.006577813800007385,-0.0017825035200041796,-0.012149006314579406,-4.794746560012552e-05
0.3425,0.00031694078500048056,-0.7847462949999997,-0.00010241576160045772,-2.3561076150000004,-1.31583736303416e-05,1.57092606,0.7858548404999995,0.04,0.04,-9.815277849999996,-0.0009461180394305892,-0.006637517850007439,-0.0018162918150042104,-0.01217961255461353,-4.8962169700126445e-05
0.34500000000000003,0.00032079709000048406,-0.7847443299999998,-0.00010608893640046106,-2.3561105100000006,-1.5899701420344097e-05,1.5709250399999999,0.7858510769999995,0.04,0.04,-9.815239899999995,-0.0009651307540503666,-0.006697221900007494,-0.0018500801100042412,-0.012210218794647652,-4.9976873800127365e-05
0.34750000000000003,0.00032465339500048756,-0.7847423649999997,-0.0001097621112004644,-2.3561134050000003,-1.864102921034659e-05,1.5709240199999999,0.7858473134999995,0.04,0.04,-9.815201949999995,-0.0009841434686701437,-0.006756925950007549,-0.001883868405004272,-0.012240825034681775,-5.099157790012829e-05
0.35000000000000003,0.00032850970000055285,-0.7847403999999998,-0.00011343528600052669,-2.3561163000000005,-2.138235700039307e-05,1.5709229999999998,0.7858435499999994,0.04,0.04,-9.815163999999994,-0.0010031561832895693,-0.00681663000000689,-0.0019176567000045973,-0.012271431274715604,-5.2006282000138854e-05
0.3525,0.00033285093550055667,-0.7847388609999998,-0.00011757126360053035,-2.3561191650000004,-2.446906645039581e-05,1.57092192,0.7858393424999994,0.04,0.04,-9.815123349999995,-0.0010194053582402137,-0.006870739800006938,-0.001953758190004629,-0.01229972955771146,-5.309667820013982e-05
0.355,0.00033719217100056066,-0.7847373219999998,-0.00012170724120053412,-2.3561220300000003,-2.755577590039862e-05,1.5709208399999999,0.7858351349999995,0.04,0.04,-9.815082699999994,-0.0010356545331908584,-0.006924849600006987,-0.001989859680004662,-0.012328027840707315,-5.4187074400140814e-05
0.3575,0.0003415334065005646,-0.7847357829999998,-0.00012584321880053788,-2.356124895,-3.064248535040143e-05,1.57091976,0.7858309274999994,0.04,0.04,-9.815042049999994,-0.0010519037081415032,-0.006978959400007037,-0.002025961170004695,-0.01235632612370317,-5.527747060014181e-05
0.36,0.00034587464200056857,-0.7847342439999998,-0.00012997919640054165,-2.35612776,-3.3729194800404243e-05,1.57091868,0.7858267199999994,0.04,0.04,-9.815001399999995,-0.001068152883092148,-0.007033069200007086,-0.002062062660004728,-0.012384624406699027,-5.63678668001428e-05
0.3625,0.0003502158775005725,-0.7847327049999998,-0.00013411517400054542,-2.3561306250000005,-3.681590425040705e-05,1.5709176,0.7858225124999995,0.04,0.04,-9.814960749999994,-0.0010844020580427927,-0.007087179000007136,-0.002098164150004761,-0.012412922689694883,-5.745826300014379e-05
0.365,0.0003545571130005764,-0.7847311659999998,-0.0001382511516005492,-2.3561334900000004,-3.9902613700409866e-05,1.57091652,0.7858183049999994,0.04,0.04,-9.814920099999995,-0.0011006512329934377,-0.007141288800007185,-0.0021342656400047933,-0.012441220972690738,-5.8548659200144783e-05
0.3675,0.00035907051550064945,-0.7847297629999999,-0.00014255144500061886,-2.3561362200000002,-4.3111948250461857e-05,1.570915305,0.7858139249999994,0.04,0.04,-9.814886249999997,-0.0011180477275072825,-0.00719449205000687,-0.002171193945005158,-0.012468943605202988,-5.9664041000155795e-05
0.37,0.00036392825200065387,-0.7847286319999999,-0.00014718037000062306,-2.3561386800000004,-4.6566533000465e-05,1.57091382,0.7858091999999993,0.04,0.04,-9.814865999999997,-0.0011377388611461506,-0.007245882200006917,-0.002209775880005193,-0.012495514936748716,-6.082939400015686e-05
0.3725,0.0003687859885006583,-0.7847275009999999,-0.0001518092950006273,-2.3561411400000005,-5.002111775046814e-05,1.5709123349999998,0.7858044749999994,0.04,0.04,-9.814845749999996,-0.0011574299947850184,-0.007297272350006964,-0.002248357815005228,-0.012522086268294446,-6.199474700015793e-05
0.375,0.0003736437250006627,-0.7847263699999999,-0.0001564382200006315,-2.3561436000000002,-5.3475702500471286e-05,1.57091085,0.7857997499999994,0.04,0.04,-9.814825499999996,-0.0011771211284238865,-0.00734866250000701,-0.002286939750005263,-0.012548657599840175,-6.316010000015899e-05
0.3775,0.00037850146150066716,-0.7847252389999999,-0.00016106714500063572,-2.3561460600000004,-5.693028725047443e-05,1.570909365,0.7857950249999994,0.04,0.04,-9.814805249999997,-0.0011968122620627543,-0.007400052650007058,-0.0023255216850052982,-0.012575228931385903,-6.432545300016005e-05
0.38,0.0003833591980006716,-0.7847241079999999,-0.00016569607000063992,-2.3561485200000005,-6.038487200047757e-05,1.5709078799999998,0.7857902999999994,0.04,0.04,-9.814784999999997,-0.0012165033957016224,-0.007451442800007105,-0.0023641036200053337,-0.012601800262931633,-6.549080600016112e-05
0.3825,0.000388216934500676,-0.7847229769999999,-0.00017032499500064412,-2.3561509800000007,-6.383945675048072e-05,1.570906395,0.7857855749999993,0.04,0.04,-9.814764749999997,-0.0012361945293404902,-0.007502832950007151,-0.002402685555005369,-0.012628371594477363,-6.665615900016216e-05
0.385,0.000393440020000708,-0.7847221139999999,-0.00017530264800067478,-2.3561532800000005,-6.755428750050357e-05,1.5709048499999998,0.7857804839999993,0.04,0.04,-9.814713999999992,-0.0012534445384537794,-0.007545446150005007,-0.0024428379800053614,-0.012653755303475466,-6.78722170001626e-05
0.3875,0.00039884578000063916,-0.784721385,-0.00018045466500060916,-2.3561555000000003,-7.139924125045462e-05,1.5709032749999998,0.7857752099999994,0.04,0.04,-9.814647999999991,-0.0012694739853050454,-0.00758367087500452,-0.0024837756500048404,-0.01267854520120013,-6.911362750014679e-05
0.39,0.00040425154000057036,-0.784720656,-0.00018560668200054358,-2.35615772,-7.524419500040566e-05,1.5709016999999998,0.7857699359999994,0.04,0.04,-9.814581999999993,-0.0012855034321563113,-0.0076218956000040335,-0.002524713320004319,-0.012703335098924795,-7.035503800013098e-05
0.3925,0.0004096573000005015,-0.7847199269999999,-0.000190758699000478,-2.3561599400000004,-7.908914875035672e-05,1.5709001249999999,0.7857646619999995,0.04,0.04,-9.814515999999994,-0.0013015328790075772,-0.007660120325003547,-0.0025656509900037977,-0.01272812499664946,-7.159644850011518e-05
0.395,0.0004150630600004327,-0.784719198,-0.00019591071600041237,-2.3561621600000002,-8.293410250030776e-05,1.57089855,0.7857593879999996,0.04,0.04,-9.814449999999995,-0.0013175623258588432,-0.0076983450500030595,-0.0026065886600032764,-0.012752914894374124,-7.283785900009937e-05
0.3975,0.00042046882000036385,-0.784718469,-0.0002010627330003468,-2.35616438,-8.677905625025881e-05,1.570896975,0.7857541139999996,0.04,0.04,-9.814383999999995,-0.001333591772710109,-0.007736569775002573,-0.0026475263300027555,-0.012777704792098788,-7.407926950008355e-05
0.4,0.00042587458000032665,-0.78471774,-0.0002062147500003114,-2.3561666,-9.062401000023239e-05,1.5708954,0.7857488399999997,0.04,0.04,-9.814317999999998,-0.0013496212195616144,-0.007774794500002634,-0.002688464000002356,-0.012802494689823333,-7.532068000007187e-05
0.4025,0.0004318598170004954,-0.7847174265,-0.00021191997750047225,-2.35616867,-9.488177200035244e-05,1.5708938099999998,0.7857429989999996,0.04,0.04,-9.814279149999997,-0.0013700399547832151,-0.007823049575003994,-0.002731633415003573,-0.012825100542979227,-7.663745200010899e-05
0.405,0.00043784505400066415,-0.784717113,-0.0002176252050006331,-2.35617074,-9.913953400047249e-05,1.5708922199999997,0.7857371579999993,0.04,0.04,-9.814240299999996,-0.0013904586900048159,-0.007871304650005356,-0.0027748028300047904,-0.012847706396135118,-7.795422400014612e-05
0.40750000000000003,0.0004438302910008329,-0.7847167995,-0.00022333043250079396,-2.3561728100000003,-0.00010339729600059253,1.5708906299999998,0.7857313169999992,0.04,0.04,-9.814201449999995,-0.0014108774252264166,-0.007919559725006716,-0.0028179722450060074,-0.012870312249291012,-7.927099600018324e-05
0.41000000000000003,0.0004498155280010017,-0.784716486,-0.0002290356600009548,-2.35617488,-0.00010765505800071259,1.5708890399999997,0.785725475999999,0.04,0.04,-9.814162599999994,-0.0014312961604480172,-0.007967814800008076,-0.002861141660007225,-0.012892918102446903,-8.058776800022036e-05
0.41250000000000003,0.00045580076500117045,-0.7847161724999999,-0.00023474088750111567,-2.3561769500000005,-0.00011191282000083262,1.5708874499999996,0.7857196349999989,0.04,0.04,-9.814123749999993,-0.001451714895669618,-0.008016069875009437,-0.002904311075008442,-0.012915523955602796,-8.190454000025749e-05
0.41500000000000004,0.0004617860020013392,-0.784715859,-0.00024044611500127652,-2.3561790200000003,-0.00011617058200095267,1.5708858599999995,0.7857137939999986,0.04,0.04,-9.814084899999992,-0.0014721336308912186,-0.008064324950010797,-0.0029474804900096593,-0.012938129808758688,-8.322131200029463e-05
0.4175,0.00046797485200157174,-0.7847156675,-0.00024634573900149837,-2.3561810300000006,-0.00012057340950111825,1.5708842299999997,0.7857077579999985,0.04,0.04,-9.81404319999999,-0.001491108059421263,-0.008109257950009123,-0.0029914207300108376,-0.012959836935629129,-8.456354550033195e-05
0.42,0.0004745709280014877,-0.78471572,-0.00025263415600141833,-2.3561829200000006,-0.0001252663680010585,1.5708825199999996,0.7857013319999985,0.04,0.04,-9.81399579999999,-0.001507193874571348,-0.008147546800008636,-0.0030369026200102586,-0.01297974660993063,-8.595670200031422e-05
0.4225,0.00048116700400140376,-0.7847157725,-0.00025892257300133824,-2.3561848100000002,-0.00012995932650099873,1.5708808099999996,0.7856949059999986,0.04,0.04,-9.81394839999999,-0.0015232796897214332,-0.008185835650008149,-0.0030823845100096795,-0.012999656284232133,-8.734985850029648e-05
0.425,0.0004877630800013198,-0.784715825,-0.0002652109900012582,-2.3561867000000003,-0.000134652285000939,1.5708790999999995,0.7856884799999987,0.04,0.04,-9.81390099999999,-0.0015393655048715185,-0.008224124500007661,-0.0031278664000091005,-0.013019565958533633,-8.874301500027874e-05
0.4275,0.0004943591560012358,-0.7847158774999999,-0.00027149940700117817,-2.3561885900000004,-0.00013934524350087924,1.5708773899999997,0.7856820539999988,0.04,0.04,-9.813853599999991,-0.0015554513200216036,-0.008262413350007174,-0.0031733482900085214,-0.013039475632835135,-9.0136171500261e-05
0.43,0.0005009552320011518,-0.78471593,-0.0002777878240010981,-2.3561904800000004,-0.00014403820200081948,1.5708756799999997,0.7856756279999988,0.04,0.04,-9.813806199999993,-0.001571537135171689,-0.008300702200006685,-0.0032188301800079424,-0.013059385307136637,-9.152932800024327e-05
0.4325,0.0005075513080010679,-0.7847159825,-0.00028407624100101805,-2.3561923700000005,-0.00014873116050075975,1.5708739699999996,0.7856692019999989,0.04,0.04,-9.813758799999993,-0.001587622950321774,-0.008338991050006198,-0.003264312070007363,-0.013079294981438137,-9.292248450022553e-05
0.435,0.0005145753960011455,-0.7847163,-0.00029077332200109216,-2.3561942500000006,-0.0001537300570008153,1.5708719699999996,0.7856623639999989,0.0399999995,0.0399999995,-9.813723199999997,-0.0016069801989975722,-0.008379002600006468,-0.0033113864900075757,-0.013098030537369711,-9.436852000023302e-05
0.4375,0.000521813490001152,-0.7847167500000001,-0.00029767473500109845,-2.3561961250000003,-0.00015888192250081997,1.5708698249999997,0.7856553199999988,0.03999999875,0.03999999875,-9.813693499999996,-0.0016279731644350663,-0.008419875500006505,-0.003359257175007619,-0.01311617903411674,-9.584099500023436e-05
0.44,0.0005290515840011586,-0.7847172000000001,-0.00030457614800110473,-2.3561980000000005,-0.00016403378800082467,1.5708676799999997,0.7856482759999989,0.039999998,0.039999998,-9.813663799999995,-0.0016489661298725604,-0.008460748400006542,-0.003407127860007663,-0.013134327530863766,-9.73134700002357e-05
0.4425,0.0005362896780011652,-0.78471765,-0.000311477561001111,-2.3561998750000006,-0.00016918565350082935,1.5708655349999996,0.7856412319999989,0.03999999725,0.03999999725,-9.813634099999994,-0.0016699590953100545,-0.00850162130000658,-0.0034549985450077064,-0.013152476027610792,-9.878594500023705e-05
0.445,0.0005435277720011718,-0.7847181000000001,-0.0003183789740011173,-2.3562017500000003,-0.00017433751900083403,1.5708633899999997,0.7856341879999988,0.0399999965,0.0399999965,-9.813604399999996,-0.0016909520607475486,-0.008542494200006617,-0.00350286923000775,-0.013170624524357818,-0.00010025842000023839
0.4475,0.0005507658660011784,-0.7847185500000001,-0.0003252803870011236,-2.3562036250000005,-0.00017948938450083874,1.5708612449999997,0.7856271439999989,0.03999999575,0.03999999575,-9.813574699999995,-0.0017119450261850427,-0.008583367100006654,-0.0035507399150077937,-0.013188773021104846,-0.00010173089500023974
0.45,0.0005580039600012952,-0.7847190000000002,-0.0003321818000012351,-2.3562055000000006,-0.00018464125000092188,1.5708590999999996,0.7856200999999988,0.039999995,0.039999995,-9.813544999999998,-0.0017329379916216723,-0.00862424000000411,-0.0035986106000082223,-0.013206921517851902,-0.00010320337000022819
0.4525,0.0005659150800013024,-0.7847198475000002,-0.000339725870001242,-2.3562072850000004,-0.000190272361000927,1.5708569399999996,0.7856124049999987,0.039999994250000004,0.03999999395,-9.813531349999998,-0.0017486505850709665,-0.008649345500004133,-0.003648834020008268,-0.013225253019484849,-0.00010459716700022946
0.455,0.0005738262000013096,-0.7847206950000002,-0.0003472699400012488,-2.3562090700000002,-0.00019590347200093214,1.5708547799999997,0.7856047099999988,0.039999993500000004,0.0399999929,-9.813517699999997,-0.001764363178520261,-0.008674451000004156,-0.003699057440008314,-0.013243584521117796,-0.00010599096400023072
0.4575,0.0005817373200013168,-0.7847215425000001,-0.0003548140100012557,-2.3562108550000005,-0.00020153458300093725,1.5708526199999997,0.7855970149999987,0.039999992750000005,0.03999999185,-9.813504049999997,-0.0017800757719695552,-0.00869955650000418,-0.0037492808600083595,-0.01326191602275074,-0.00010738476100023199
0.46,0.0005896484400013239,-0.7847223900000002,-0.0003623580800012626,-2.3562126400000003,-0.0002071656940009424,1.5708504599999997,0.7855893199999987,0.039999992,0.0399999908,-9.813490399999997,-0.0017957883654188497,-0.0087246620000042,-0.0037995042800084053,-0.013280247524383688,-0.00010877855800023325
0.4625,0.0005975595600013311,-0.7847232375000002,-0.0003699021500012694,-2.356214425,-0.00021279680500094753,1.5708482999999998,0.7855816249999987,0.03999999125,0.03999998975,-9.813476749999998,-0.001811500958868144,-0.008749767500004224,-0.003849727700008451,-0.013298579026016635,-0.00011017235500023453
0.465,0.0006054706800013383,-0.7847240850000001,-0.0003774462200012763,-2.35621621,-0.00021842791600095265,1.5708461399999998,0.7855739299999986,0.0399999905,0.0399999887,-9.813463099999998,-0.0018272135523174382,-0.008774873000004247,-0.0038999511200084967,-0.013316910527649582,-0.0001115661520002358
0.4675,0.0006136163940014652,-0.7847250495000002,-0.0003852143250013975,-2.3562179800000003,-0.0002242262140010431,1.5708439449999998,0.7855660119999985,0.0399999899,0.0399999878,-9.813447249999996,-0.0018450849631373241,-0.008804508700006581,-0.003950941100008934,-0.013334602210673441,-0.00011303150850027358
0.47000000000000003,0.0006222312960014731,-0.7847262480000002,-0.0003934305000014049,-2.35621972,-0.00023035888600104868,1.5708416799999996,0.7855576479999985,0.0399999896,0.0399999872,-9.813426999999997,-0.0018672740086950943,-0.008843204800006617,-0.004003464200008982,-0.013351014256480106,-0.00011463998400027504
0.47250000000000003,0.000630846198001481,-0.7847274465000003,-0.0004016466750014124,-2.35622146,-0.00023649155800105427,1.5708394149999996,0.7855492839999986,0.0399999893,0.0399999866,-9.813406749999997,-0.0018894630542528644,-0.008881900900006652,-0.004055987300009029,-0.013367426302286772,-0.00011624845950027651
0.47500000000000003,0.0006394611000014888,-0.7847286450000002,-0.0004098628500014199,-2.3562232,-0.00024262423000105985,1.5708371499999996,0.7855409199999985,0.039999989,0.039999986,-9.813386499999996,-0.0019116520998106346,-0.008920597000006688,-0.004108510400009077,-0.013383838348093436,-0.00011785693500027797
0.47750000000000004,0.0006480760020014967,-0.7847298435000002,-0.0004180790250014274,-2.35622494,-0.00024875690200106546,1.5708348849999996,0.7855325559999985,0.0399999887,0.0399999854,-9.813366249999996,-0.0019338411453684048,-0.008959293100006722,-0.004161033500009125,-0.0134002503939001,-0.00011946541050027943
0.48,0.0006566909040015043,-0.7847310420000002,-0.00042629520000143467,-2.3562266800000002,-0.00025488957400107086,1.5708326199999996,0.7855241919999986,0.0399999884,0.0399999848,-9.813345999999996,-0.0019560301909261743,-0.008997989200006757,-0.004213556600009172,-0.013416662439706765,-0.00012107388600028087
0.4825,0.0006653058060015122,-0.7847322405000002,-0.00043451137500144217,-2.3562284200000003,-0.00026102224600107647,1.5708303549999996,0.7855158279999985,0.0399999881,0.039999984200000005,-9.813325749999997,-0.0019782192364839447,-0.009036685300006791,-0.00426607970000922,-0.013433074485513431,-0.00012268236150028233
0.485,0.0006744102000016495,-0.7847337060000003,-0.0004431950200015734,-2.35623015,-0.00026750369300117434,1.5708278099999995,0.7855069729999984,0.0399999876,0.039999983600000004,-9.813303799999996,-0.0019964395323796647,-0.009071487000005795,-0.0043202166600096945,-0.0134485143236842,-0.00012434003800029683
0.4875,0.000683759340001658,-0.7847353050000003,-0.00045211240000158146,-2.356231875,-0.00027415952750118043,1.5708251249999994,0.7854978724999984,0.039999987,0.039999983,-9.813280999999996,-0.0020126754534459295,-0.009104341500005827,-0.004375160550009745,-0.013463468058037402,-0.00012602231500029835
0.49,0.0006931084800016666,-0.7847369040000003,-0.0004610297800015896,-2.3562336000000004,-0.0002808153620011865,1.5708224399999995,0.7854887719999983,0.0399999864,0.0399999824,-9.813258199999996,-0.0020289113745121943,-0.009137196000005857,-0.004430104440009795,-0.013478421792390605,-0.00012770459200029988
0.4925,0.0007024576200016751,-0.7847385030000003,-0.0004699471600015977,-2.3562353250000005,-0.0002874711965011925,1.5708197549999994,0.7854796714999984,0.0399999858,0.0399999818,-9.813235399999996,-0.002045147295578459,-0.009170050500005886,-0.004485048330009844,-0.013493375526743808,-0.0001293868690003014
0.495,0.0007118067600016836,-0.7847401020000003,-0.0004788645400016058,-2.3562370500000003,-0.0002941270310011986,1.5708170699999995,0.7854705709999984,0.039999985200000004,0.0399999812,-9.813212599999996,-0.002061383216644724,-0.009202905000005916,-0.0045399922200098945,-0.013508329261097013,-0.00013106914600030293
0.4975,0.000721155900001692,-0.7847417010000003,-0.0004877819200016139,-2.3562387750000005,-0.00030078286550120465,1.5708143849999994,0.7854614704999984,0.0399999846,0.0399999806,-9.813189799999996,-0.0020776191377109886,-0.009235759500005946,-0.004594936110009945,-0.013523282995450216,-0.00013275142300030445
0.5,0.0007305050400018396,-0.7847433000000004,-0.0004966993000017549,-2.3562405000000006,-0.0003074387000013098,1.5708116999999995,0.7854523699999982,0.039999984,0.03999998,-9.813167,-0.0020938550587775735,-0.009268614000003863,-0.004649880000010382,-0.013538236729803471,-0.00013443370000029562
0.5025000000000001,0.000740618583001849,-0.7847452860000004,-0.0005063468095017639,-2.3562422250000004,-0.0003146391425013165,1.5708089699999994,0.7854425254999982,0.0399999834,0.03999997895,-9.813163099999999,-0.00211185090011309,-0.009289850850003882,-0.004706950410010434,-0.01355347447097579,-0.00013605896800029715
0.505,0.000750732126001858,-0.7847472720000004,-0.0005159943190017725,-2.3562439500000005,-0.00032183958500132286,1.5708062399999994,0.7854326809999982,0.0399999828,0.0399999779,-9.8131592,-0.002129846741448606,-0.009311087700003901,-0.004764020820010486,-0.013568712212148108,-0.00013768423600029857
0.5075000000000001,0.0007608456690018675,-0.7847492580000004,-0.0005256418285017814,-2.3562456750000003,-0.0003290400275013296,1.5708035099999995,0.7854228364999982,0.0399999822,0.03999997685,-9.8131553,-0.002147842582784123,-0.009332324550003922,-0.004821091230010538,-0.01358394995332043,-0.0001393095040003001
0.51,0.0007709592120018764,-0.7847512440000004,-0.00053528933800179,-2.3562474000000004,-0.000336240470001336,1.5708007799999995,0.7854129919999981,0.0399999816,0.0399999758,-9.813151399999999,-0.002165838424119639,-0.009353561400003941,-0.0048781616400105894,-0.013599187694492747,-0.00014093477200030155
0.5125,0.0007810727550018854,-0.7847532300000003,-0.0005449368475017985,-2.356249125,-0.00034344091250134237,1.5707980499999994,0.7854031474999982,0.039999981,0.03999997475,-9.8131475,-0.0021838342654551548,-0.00937479825000396,-0.00493523205001064,-0.013614425435665066,-0.000142560040000303
0.515,0.0007911862980018949,-0.7847552160000003,-0.0005545843570018076,-2.3562508500000003,-0.0003506413550013491,1.5707953199999993,0.7853933029999981,0.039999980399999996,0.039999973700000004,-9.813143599999998,-0.0022018301067906715,-0.00939603510000398,-0.004992302460010693,-0.013629663176837385,-0.0001441853080003045
0.5175,0.0008015645820020038,-0.7847573280000004,-0.0005644847385019116,-2.3562525700000005,-0.00035803049250142675,1.5707925399999993,0.785383199499998,0.03999997985,0.03999997285,-9.813136949999997,-0.0022215916193132337,-0.00942184310000642,-0.005050107360010889,-0.013644409039991583,-0.00014587751600033546
0.52,0.0008124723480018651,-0.7847596920000004,-0.0005748908640017794,-2.3562542800000004,-0.000365797020001328,1.5707896599999995,0.7853725779999982,0.039999979399999996,0.0399999724,-9.813124799999997,-0.002244884474206903,-0.009456793400005976,-0.0051093812400101355,-0.013658171147110373,-0.00014770360400031225
0.5225,0.000823380114001726,-0.7847620560000004,-0.0005852969895016467,-2.35625599,-0.00037356354750122897,1.5707867799999995,0.7853619564999983,0.03999997895,0.039999971950000004,-9.813112649999997,-0.0022681773291005707,-0.009491743700005531,-0.0051686551200093795,-0.013671933254229163,-0.00014952969200028896
0.525,0.0008342878800015874,-0.7847644200000004,-0.0005957031150015143,-2.3562577000000005,-0.00038133007500113023,1.5707838999999997,0.7853513349999984,0.0399999785,0.0399999715,-9.8131005,-0.00229147018399424,-0.009526694000005087,-0.005227929000008626,-0.013685695361347953,-0.00015135578000026576
0.5275,0.0008451956460014483,-0.7847667840000003,-0.0006061092405013816,-2.3562594100000003,-0.0003890966025010312,1.5707810199999996,0.7853407134999986,0.039999978049999996,0.03999997105,-9.81308835,-0.0023147630388879077,-0.00956164430000464,-0.00528720288000787,-0.013699457468466743,-0.00015318186800024247
0.53,0.0008561034120013097,-0.7847691480000003,-0.0006165153660012494,-2.35626112,-0.0003968631300009325,1.5707781399999996,0.7853300919999987,0.0399999776,0.039999970600000004,-9.8130762,-0.002338055893781577,-0.009596594600004197,-0.0053464767600071164,-0.013713219575585533,-0.00015500795600021926
0.5325,0.0008670111780011705,-0.7847715120000003,-0.0006269214915011166,-2.3562628300000004,-0.00040462965750083345,1.5707752599999998,0.7853194704999988,0.03999997715,0.03999997015,-9.81306405,-0.0023613487486752447,-0.009631544900003751,-0.005405750640006361,-0.013726981682704321,-0.00015683404400019597
0.535,0.0008784680660014299,-0.7847741200000004,-0.0006378521400013642,-2.3562644600000002,-0.0004127875320010182,1.5707720999999997,0.7853083169999986,0.0399999766,0.039999969600000004,-9.813052599999999,-0.0023796338355187834,-0.009659529200002986,-0.005466489590007492,-0.013740179128946393,-0.0001587072840002312
0.5375,0.0008901995150017605,-0.7847768500000004,-0.0006490450500016796,-2.3562660500000003,-0.00042114108000125355,1.5707687999999995,0.7852968974999983,0.039999976,0.039999969,-9.813041499999999,-0.002395415038338418,-0.009684030500003677,-0.005527961075009224,-0.013753094244750238,-0.00016060410000028465
0.54,0.0009019309640020915,-0.7847795800000005,-0.0006602379600019954,-2.3562676400000004,-0.00042949462800148924,1.5707654999999996,0.7852854779999979,0.0399999754,0.0399999684,-9.813030399999999,-0.0024111962411580536,-0.009708531800004368,-0.005589432560010959,-0.013766009360554082,-0.00016250091600033815
0.5425,0.000913662413002422,-0.7847823100000005,-0.0006714308700023107,-2.35626923,-0.0004378481760017246,1.5707621999999994,0.7852740584999977,0.0399999748,0.0399999678,-9.813019299999999,-0.0024269774439776882,-0.009733033100005058,-0.005650904045012691,-0.013778924476357925,-0.0001643977320003916
0.545,0.000925393862002753,-0.7847850400000006,-0.0006826237800026265,-2.35627082,-0.0004462017240019603,1.5707588999999993,0.7852626389999974,0.0399999742,0.0399999672,-9.813008199999997,-0.0024427586467973233,-0.00975753440000575,-0.005712375530014425,-0.01379183959216177,-0.00016629454800044512
0.5475,0.0009371253110030834,-0.7847877700000007,-0.0006938166900029419,-2.3562724100000003,-0.00045455527200219566,1.5707555999999991,0.785251219499997,0.0399999736,0.0399999666,-9.812997099999997,-0.002458539849616958,-0.00978203570000644,-0.005773847015016157,-0.013804754707965614,-0.00016819136400049857
0.55,0.0009488567600036626,-0.7847905000000008,-0.0007050096000034948,-2.3562740000000004,-0.0004629088200026083,1.5707522999999992,0.7852397999999965,0.039999973,0.039999966,-9.812985999999995,-0.0024743210524386895,-0.009806537000007103,-0.00583531850001854,-0.013817669823769361,-0.00017008818000057222
0.5525,0.0009614409260035022,-0.7847936350000009,-0.0007170171450033417,-2.3562754100000003,-0.000471870123002494,1.5707489549999991,0.7852275539999967,0.03999997195,0.039999964799999996,-9.812969199999996,-0.0024973052088234663,-0.009830939600006791,-0.005899018925017728,-0.01383024938404905,-0.00017205418200054714
0.555,0.0009740250920033422,-0.7847967700000008,-0.0007290246900031891,-2.3562768200000006,-0.0004808314260023801,1.5707456099999992,0.7852153079999968,0.0399999709,0.0399999636,-9.812952399999997,-0.0025202893652082445,-0.009855342200006481,-0.005962719350016918,-0.01384282894432874,-0.00017402018400052217
0.5575,0.0009866092580031818,-0.7847999050000007,-0.000741032235003036,-2.3562782300000005,-0.0004897927290022657,1.5707422649999991,0.7852030619999969,0.03999996985,0.0399999624,-9.812935599999996,-0.0025432735215930214,-0.00987974480000617,-0.006026419775016106,-0.01385540850460843,-0.0001759861860004971
0.56,0.0009991934240030217,-0.7848030400000008,-0.0007530397800028834,-2.3562796400000003,-0.0004987540320021519,1.5707389199999993,0.7851908159999971,0.0399999688,0.0399999612,-9.812918799999997,-0.002566257677977799,-0.00990414740000586,-0.006090120200015296,-0.01386798806488812,-0.0001779521880004721
0.5625,0.0010117775900028614,-0.7848061750000007,-0.0007650473250027303,-2.35628105,-0.0005077153350020376,1.5707355749999992,0.7851785699999972,0.03999996775,0.03999996,-9.812901999999998,-0.002589241834362576,-0.009928550000005549,-0.006153820625014484,-0.01388056762516781,-0.000179918190000447
0.5650000000000001,0.0010243617560027013,-0.7848093100000008,-0.0007770548700025776,-2.3562824600000005,-0.0005166766380019237,1.5707322299999993,0.7851663239999974,0.0399999667,0.0399999588,-9.812885199999997,-0.0026122259907473537,-0.00995295260000524,-0.006217521050013674,-0.013893147185447501,-0.00018188419200042204
0.5675,0.00103723975000278,-0.7848125600000008,-0.0007893431000026529,-2.3562838550000005,-0.0005258473480019798,1.5707287849999991,0.7851537939999973,0.0399999657,0.0399999578,-9.812861549999994,-0.0026328226551445965,-0.009977122050004894,-0.0062819360650135945,-0.013904969207944583,-0.00018387284400041992
0.5700000000000001,0.0010507054000027927,-0.7848160400000008,-0.000802192700002665,-2.35628522,-0.0005354368720019888,1.5707251399999993,0.7851406959999974,0.039999964799999996,0.0399999572,-9.812824199999993,-0.002648644335571201,-0.010000825200004917,-0.0063477802600136555,-0.013915276154877858,-0.00018590679600042183
0.5725,0.0010641710500028047,-0.7848195200000008,-0.0008150423000026763,-2.3562865850000003,-0.0005450263960019974,1.5707214949999992,0.7851275979999973,0.0399999639,0.0399999566,-9.812786849999993,-0.0026644660159978054,-0.010024528350004938,-0.006413624455013714,-0.013925583101811132,-0.00018794074800042364
0.5750000000000001,0.001077636700002817,-0.7848230000000008,-0.0008278919000026882,-2.3562879500000005,-0.0005546159200020063,1.5707178499999992,0.7851144999999973,0.039999963,0.039999955999999996,-9.812749499999994,-0.00268028769642441,-0.010048231500004959,-0.006479468650013775,-0.013935890048744407,-0.00018997470000042552
0.5775,0.001091102350002829,-0.7848264800000008,-0.0008407415000026997,-2.356289315,-0.0005642054440020148,1.5707142049999991,0.7851014019999973,0.0399999621,0.0399999554,-9.812712149999992,-0.0026961093768510143,-0.01007193465000498,-0.006545312845013833,-0.01394619699567768,-0.00019200865200042733
0.58,0.001104568000002841,-0.7848299600000008,-0.0008535911000027111,-2.3562906800000003,-0.0005737949680020232,1.5707105599999993,0.7850883039999973,0.0399999612,0.0399999548,-9.812674799999993,-0.0027119310572776183,-0.010095637800005,-0.006611157040013892,-0.013956503942610955,-0.00019404260400042914
0.5825,0.0011180336500028537,-0.7848334400000008,-0.0008664407000027231,-2.356292045,-0.0005833844920020322,1.5707069149999993,0.7850752059999972,0.0399999603,0.0399999542,-9.812637449999993,-0.002727752737704223,-0.010119340950005024,-0.006677001235013954,-0.01396681088954423,-0.00019607655600043105
0.585,0.001132105730003059,-0.7848372100000008,-0.0008798696900029194,-2.35629335,-0.0005934062450021787,1.5707030799999993,0.7850615159999971,0.03999996,0.039999954,-9.812620299999999,-0.0027486225590158883,-0.01014296950000502,-0.006744266800014466,-0.013976925238969012,-0.00019815557400044723
0.5875,0.0011464810250030725,-0.7848411250000009,-0.0008935883750029322,-2.3562946250000003,-0.0006036441125021882,1.5706991499999992,0.785047529999997,0.03999996,0.039999954,-9.812613249999998,-0.0027720164507676753,-0.010166560750005042,-0.006812243050014529,-0.013986943289639642,-0.0002002571250004492
0.59,0.0011608563200030853,-0.7848450400000009,-0.0009073070600029444,-2.3562959,-0.0006138819800021973,1.570695219999999,0.785033543999997,0.03999996,0.039999954,-9.8126062,-0.002795410342519461,-0.010190152000005063,-0.0068802193000145895,-0.01399696134031027,-0.00020235867600045107
0.5925,0.0011752316150030987,-0.7848489550000008,-0.0009210257450029572,-2.3562971750000004,-0.0006241198475022069,1.5706912899999992,0.785019557999997,0.03999996,0.039999954,-9.812599149999999,-0.0028188042342712476,-0.010213743250005085,-0.006948195550014653,-0.0140069793909809,-0.00020446022700045303
0.595,0.0011896069100031114,-0.7848528700000008,-0.0009347444300029695,-2.3562984500000006,-0.000634357715002216,1.570687359999999,0.785005571999997,0.03999996,0.039999954,-9.812592099999998,-0.002842198126023034,-0.010237334500005106,-0.007016171800014713,-0.014016997441651528,-0.00020656177800045487
0.5975,0.0012039822050031249,-0.7848567850000008,-0.0009484631150029823,-2.3562997250000004,-0.0006445955825022256,1.5706834299999992,0.784991585999997,0.03999996,0.039999954,-9.81258505,-0.0028655920177748204,-0.010260925750005128,-0.007084148050014776,-0.014027015492322157,-0.00020866332900045686
0.6,0.0012183575000033423,-0.7848607000000009,-0.0009621818000031899,-2.3563010000000006,-0.0006548334500023805,1.5706794999999991,0.7849775999999968,0.03999996,0.039999954,-9.812577999999997,-0.0028889859095248423,-0.010284517000002947,-0.007152124300015292,-0.0140370335429926,-0.0002107648800004727
0.6025,0.0012336701300033565,-0.7848649750000009,-0.0009767961200032036,-2.3563022600000005,-0.0006657395015023907,1.5706754349999992,0.7849626974999968,0.03999996,0.039999954,-9.812560299999996,-0.0029042980750124165,-0.01029802060000296,-0.007222186255015358,-0.014046196220444583,-0.00021293045700047472
0.605,0.0012489827600033702,-0.7848692500000009,-0.0009914104400032164,-2.3563035200000004,-0.0006766455530024003,1.570671369999999,0.7849477949999968,0.03999996,0.039999954,-9.812542599999997,-0.00291961024049999,-0.010311524200002972,-0.00729224821001542,-0.014055358897896567,-0.00021509603400047663
0.6075,0.0012642953900033843,-0.784873525000001,-0.0010060247600032302,-2.3563047800000003,-0.0006875516045024105,1.570667304999999,0.7849328924999968,0.03999996,0.039999954,-9.812524899999996,-0.0029349224059875643,-0.010325027800002985,-0.007362310165015485,-0.01406452157534855,-0.00021726161100047865
0.61,0.001279608020003398,-0.784877800000001,-0.0010206390800032432,-2.3563060400000007,-0.0006984576560024202,1.5706632399999991,0.7849179899999967,0.03999996,0.039999954,-9.812507199999995,-0.002950234571475138,-0.010338531400002996,-0.0074323721200155474,-0.014073684252800533,-0.00021942718800048057
0.6125,0.0012949206500034122,-0.784882075000001,-0.0010352534000032567,-2.3563073000000005,-0.0007093637075024304,1.570659174999999,0.7849030874999967,0.03999996,0.039999954,-9.812489499999996,-0.002965546736962712,-0.010352035000003009,-0.007502434075015613,-0.014082846930252517,-0.0002215927650004826
0.615,0.0013102332800034259,-0.784886350000001,-0.0010498677200032698,-2.3563085600000004,-0.00072026975900244,1.570655109999999,0.7848881849999967,0.03999996,0.039999954,-9.812471799999996,-0.002980858902450286,-0.01036553860000302,-0.0075724960300156755,-0.014092009607704499,-0.00022375834200048453
0.6175,0.0013258675150036568,-0.784890750000001,-0.0010647893250034905,-2.3563098200000003,-0.0007314050445026048,1.570650909999999,0.7848729724999964,0.0399999603,0.0399999542,-9.812455649999997,-0.0029988802387431158,-0.010382341800005256,-0.007643222500016188,-0.014100789325313539,-0.00022594500900050075
0.62,0.0013421449600036714,-0.784895400000001,-0.0010803255000035043,-2.3563110800000002,-0.0007429987980026151,1.5706464399999989,0.7848571399999964,0.0399999612,0.0399999548,-9.812442599999997,-0.003022319916640987,-0.010405744200005278,-0.0077152780000162525,-0.014108803123237467,-0.00022817385600050274
0.6225,0.0013584224050036866,-0.784900050000001,-0.0010958616750035188,-2.3563123400000006,-0.0007545925515026258,1.570641969999999,0.7848413074999964,0.0399999621,0.0399999554,-9.812429549999997,-0.0030457595945388586,-0.0104291466000053,-0.00778733350001632,-0.014116816921161394,-0.0002304027030005048
0.625,0.001374699850003701,-0.784904700000001,-0.0011113978500035325,-2.3563136000000005,-0.0007661863050026361,1.570637499999999,0.7848254749999964,0.039999963,0.039999956,-9.812416499999996,-0.0030691992724367297,-0.01045254900000532,-0.007859389000016384,-0.014124830719085322,-0.00023263155000050677
0.6275000000000001,0.0013909772950037162,-0.7849093500000011,-0.001126934025003547,-2.3563148600000003,-0.0007777800585026469,1.570633029999999,0.7848096424999964,0.0399999639,0.0399999566,-9.812403449999996,-0.0030926389503346014,-0.010475951400005342,-0.007931444500016451,-0.01413284451700925,-0.00023486039700050887
0.63,0.0014072547400037305,-0.784914000000001,-0.0011424702000035608,-2.3563161200000002,-0.0007893738120026572,1.570628559999999,0.7847938099999964,0.039999964799999996,0.0399999572,-9.812390399999996,-0.0031160786282324725,-0.010499353800005364,-0.008003500000016515,-0.014140858314933178,-0.00023708924400051083
0.6325000000000001,0.0014235321850037458,-0.784918650000001,-0.0011580063750035753,-2.35631738,-0.000800967565502668,1.570624089999999,0.7847779774999963,0.0399999657,0.0399999578,-9.812377349999997,-0.003139518306130344,-0.010522756200005385,-0.008075555500016582,-0.014148872112857105,-0.00023931809100051293
0.635,0.0014404707200039893,-0.7849235800000012,-0.001174174180003808,-2.35631858,-0.0008130324920028416,1.570619519999999,0.7847614899999961,0.039999966,0.039999957600000004,-9.8123724,-0.0031579464674032684,-0.010538203800002649,-0.008149016950017133,-0.014157102257015197,-0.00024150370100049992
0.6375000000000001,0.0014577398000040055,-0.7849286500000011,-0.0011906578000038233,-2.35631975,-0.000825333005002853,1.570614899999999,0.7847446749999961,0.039999966,0.039999957,-9.8123715,-0.0031738688703663183,-0.01054967400000266,-0.008223181375017203,-0.014165440574290259,-0.00024366769250050194
0.64,0.001475008880004021,-0.7849337200000012,-0.001207141420003838,-2.35632092,-0.000837633518002864,1.570610279999999,0.7847278599999961,0.039999966,0.0399999564,-9.8123706,-0.0031897912733293674,-0.01056114420000267,-0.008297345800017269,-0.014173778891565321,-0.00024583168400050387
0.6425,0.001492277960004036,-0.7849387900000012,-0.0012236250400038525,-2.35632209,-0.0008499340310028749,1.570605659999999,0.7847110449999961,0.039999966,0.0399999558,-9.8123697,-0.0032057136762924164,-0.010572614400002681,-0.008371510225017335,-0.014182117208840384,-0.0002479956755005058
0.645,0.0015095470400040523,-0.7849438600000012,-0.001240108660003868,-2.3563232600000004,-0.0008622345440028864,1.570601039999999,0.784694229999996,0.039999966,0.0399999552,-9.8123688,-0.0032216360792554663,-0.010584084600002692,-0.008445674650017403,-0.014190455526115446,-0.0002501596670005078
0.6475,0.0015268161200040677,-0.7849489300000012,-0.0012565922800038824,-2.3563244300000004,-0.0008745350570028973,1.570596419999999,0.7846774149999961,0.039999966,0.0399999546,-9.8123679,-0.0032375584822185153,-0.010595554800002703,-0.00851983907501747,-0.014198793843390508,-0.00025232365850050975
0.65,0.0015440852000043245,-0.7849540000000014,-0.001273075900004128,-2.3563256000000004,-0.0008868355700030804,1.570591799999999,0.7846605999999958,0.039999966,0.039999954,-9.812366999999995,-0.0032534808851835016,-0.01060702500000466,-0.008594003500017978,-0.014207132160665208,-0.00025448765000055606
0.6525,0.0015623722250043407,-0.7849594600000013,-0.0012905323000041435,-2.3563267850000003,-0.000899861789003092,1.570586759999999,0.7846427949999958,0.039999966,0.039999954,-9.812347649999996,-0.0032775922678467684,-0.010626729825004677,-0.008670020725018044,-0.014213930163534097,-0.00025683895250055815
0.655,0.0015806592500043578,-0.7849649200000013,-0.0013079887000041598,-2.35632797,-0.0009128880080031041,1.570581719999999,0.7846249899999957,0.039999966,0.039999954,-9.812328299999995,-0.0033017036505100356,-0.010646434650004696,-0.008746037950018116,-0.014220728166402989,-0.00025919025500056034
0.6575,0.001598946275004374,-0.7849703800000013,-0.0013254451000041753,-2.356329155,-0.0009259142270031158,1.570576679999999,0.7846071849999958,0.039999966,0.039999954,-9.812308949999995,-0.003325815033173302,-0.010666139475004714,-0.008822055175018183,-0.01422752616927188,-0.00026154155750056243
0.66,0.001617233300004391,-0.7849758400000013,-0.0013429015000041916,-2.35633034,-0.0009389404460031279,1.570571639999999,0.7845893799999958,0.039999966,0.039999954,-9.812289599999996,-0.0033499264158365696,-0.010685844300004733,-0.008898072400018253,-0.014234324172140772,-0.00026389286000056463
0.6625,0.0016355203250044072,-0.7849813000000013,-0.001360357900004207,-2.3563315250000003,-0.0009519666650031394,1.570566599999999,0.7845715749999957,0.039999966,0.039999954,-9.812270249999996,-0.003374037798499836,-0.01070554912500475,-0.008974089625018321,-0.014241122175009663,-0.0002662441625005667
0.665,0.0016538073500044243,-0.7849867600000013,-0.0013778143000042233,-2.35633271,-0.0009649928840031516,1.570561559999999,0.7845537699999957,0.039999966,0.039999954,-9.812250899999995,-0.0033981491811631037,-0.010725253950004768,-0.009050106850018391,-0.014247920177878555,-0.0002685954650005689
0.6675,0.001672442295004782,-0.7849923625000015,-0.001395603195004565,-2.356333905,-0.0009782671385034066,1.5705564699999988,0.7845356329999954,0.039999966,0.039999954,-9.8122378,-0.0034192029037548957,-0.0107405462250016,-0.009126780550019292,-0.014254869241269194,-0.00027096707750059676
0.67,0.0016917730800050637,-0.7849982500000016,-0.001414057080004834,-2.3563351200000002,-0.000992037464003607,1.5705512799999986,0.7845168319999951,0.039999966,0.039999954,-9.8122372,-0.0034341413062104133,-0.010747013400001695,-0.009204767200020428,-0.014262120425702999,-0.0002733793100006319
0.6725,0.0017111038650053445,-0.7850041375000016,-0.0014325109650051022,-2.3563363350000004,-0.0010058077895038072,1.5705460899999986,0.7844980309999948,0.039999966,0.039999954,-9.8122366,-0.00344907970866593,-0.010753480575001789,-0.009282753850021561,-0.014269371610136805,-0.00027579154250066695
0.675,0.0017304346500056262,-0.7850100250000017,-0.0014509648500053711,-2.35633755,-0.001019578115004008,1.5705408999999986,0.7844792299999945,0.039999966,0.039999954,-9.812236,-0.003464018111121448,-0.010759947750001882,-0.009360740500022698,-0.01427662279457061,-0.0002782037750007021
0.6775,0.0017497654350059073,-0.7850159125000018,-0.0014694187350056391,-2.3563387650000003,-0.001033348440504208,1.5705357099999984,0.7844604289999942,0.039999966,0.039999954,-9.8122354,-0.003478956513576965,-0.010766414925001976,-0.009438727150023831,-0.014283873979004415,-0.00028061600750073714
0.68,0.001769096220006189,-0.7850218000000019,-0.0014878726200059083,-2.3563399800000004,-0.0010471187660044089,1.5705305199999984,0.7844416279999941,0.039999966,0.039999954,-9.8122348,-0.0034938949160324825,-0.01077288210000207,-0.009516713800024968,-0.014291125163438221,-0.0002830282400007723
0.6825,0.0017884270050064698,-0.785027687500002,-0.0015063265050061763,-2.356341195,-0.001060889091504609,1.5705253299999984,0.7844228269999938,0.039999966,0.039999954,-9.8122342,-0.0035088333184879997,-0.010779349275002164,-0.0095947004500261,-0.014298376347872026,-0.00028544047250080734
0.685,0.001808470600006754,-0.7850338400000021,-0.0015254615400064479,-2.35634244,-0.0010751675400048114,1.5705198699999983,0.7844033239999935,0.039999966,0.039999954,-9.812229599999998,-0.0035306618316181876,-0.010793456800005936,-0.009674018600026481,-0.014304870087655384,-0.0002878907750008175
0.6875,0.001828870600006494,-0.785040125000002,-0.0015449371500061994,-2.3563437000000005,-0.0010897000500046262,1.5705142749999983,0.7843834699999938,0.039999966,0.039999954,-9.812222999999998,-0.003555935400080445,-0.010811384500005707,-0.00975400250002546,-0.014310985105114096,-0.000290360112500786
0.6900000000000001,0.0018492706000062347,-0.785046410000002,-0.0015644127600059519,-2.3563449600000004,-0.0011042325600044414,1.5705086799999983,0.7843636159999939,0.039999966,0.039999954,-9.812216399999997,-0.0035812089685427037,-0.010829312200005478,-0.009833986400024444,-0.014317100122572809,-0.00029282945000075463
0.6925,0.0018696706000059745,-0.7850526950000019,-0.0015838883700057035,-2.3563462200000003,-0.0011187650700042562,1.5705030849999984,0.7843437619999942,0.039999966,0.039999954,-9.812209799999998,-0.0036064825370049616,-0.01084723990000525,-0.009913970300023424,-0.01432321514003152,-0.00029529878750072315
0.6950000000000001,0.001890070600005715,-0.7850589800000017,-0.0016033639800054561,-2.35634748,-0.0011332975800040714,1.5704974899999984,0.7843239079999944,0.039999966,0.039999954,-9.812203199999997,-0.0036317561054672203,-0.010865167600005022,-0.009993954200022408,-0.014329330157490232,-0.0002977681250006918
0.6975,0.0019104706000054549,-0.7850652650000016,-0.0016228395900052077,-2.3563487400000005,-0.001147830090003886,1.5704918949999984,0.7843040539999947,0.039999966,0.039999954,-9.812196599999998,-0.0036570296739294778,-0.010883095300004792,-0.010073938100021386,-0.014335445174948945,-0.00030023746250066024
0.7000000000000001,0.0019308706000054742,-0.7850715500000016,-0.0016423152000052265,-2.3563500000000004,-0.0011623626000039,1.5704862999999984,0.7842841999999947,0.039999966,0.039999954,-9.81219,-0.0036823032423890715,-0.0109010230000013,-0.010153922000020825,-0.014341560192407768,-0.00030270680000064307
0.7025,0.0019523645200054934,-0.7850782625000017,-0.0016628362650052445,-2.3563512450000004,-0.0011776750350039136,1.5704805249999985,0.7842632659999946,0.039999966,0.039999954,-9.81219315,-0.003697113157253685,-0.010906132300001306,-0.010235692400020898,-0.01434811512008469,-0.0003052318070006453
0.705,0.0019738584400055123,-0.7850849750000017,-0.0016833573300052628,-2.3563524900000004,-0.0011929874700039272,1.5704747499999985,0.7842423319999946,0.039999966,0.039999954,-9.8121963,-0.003711923072118298,-0.01091124160000131,-0.01031746280002097,-0.01435467004776161,-0.00030775681400064755
0.7075,0.0019953523600055325,-0.7850916875000017,-0.001703878395005282,-2.3563537350000003,-0.0012082999050039415,1.5704689749999985,0.7842213979999946,0.039999966,0.039999954,-9.81219945,-0.003726732986982912,-0.010916350900001315,-0.010399233200021046,-0.014361224975438533,-0.0003102818210006499
0.71,0.002016846280005552,-0.7850984000000018,-0.0017243994600053003,-2.3563549800000003,-0.001223612340003955,1.5704631999999985,0.7842004639999945,0.039999966,0.039999954,-9.8122026,-0.003741542901847525,-0.01092146020000132,-0.010481003600021119,-0.014367779903115453,-0.00031280682800065215
0.7125,0.0020383402000055716,-0.7851051125000017,-0.0017449205250053194,-2.3563562250000003,-0.0012389247750039692,1.5704574249999985,0.7841795299999945,0.039999966,0.039999954,-9.81220575,-0.003756352816712139,-0.010926569500001324,-0.010562774000021195,-0.014374334830792373,-0.0003153318350006545
0.715,0.002059834120005591,-0.7851118250000018,-0.0017654415900053375,-2.3563574700000003,-0.0012542372100039828,1.5704516499999985,0.7841585959999945,0.039999966,0.039999954,-9.8122089,-0.003771162731576752,-0.01093167880000133,-0.010644544400021268,-0.014380889758469295,-0.00031785684200065674
0.7175,0.0020817007700059025,-0.7851186750000019,-0.0017863188900056357,-2.3563587150000003,-0.0012698153500042052,1.5704457399999983,0.7841373054999942,0.039999966,0.039999953799999995,-9.812209799999998,-0.0037892258260462386,-0.010940126800003948,-0.010726905700021806,-0.014387172367425188,-0.0003203570735006397
0.72,0.002104312880005923,-0.7851258000000019,-0.001807908660005655,-2.3563599600000003,-0.0012859249000042195,1.5704395599999983,0.7841153019999942,0.039999966,0.0399999532,-9.812206199999999,-0.0038137952797178353,-0.010955252200003962,-0.01081044880002188,-0.014392910338939663,-0.00032280775400064186
0.7225,0.0021269249900059436,-0.7851329250000019,-0.001829498430005675,-2.3563612050000002,-0.0013020344500042345,1.5704333799999983,0.7840932984999942,0.039999966,0.0399999526,-9.812202599999999,-0.0038383647333894333,-0.010970377600003977,-0.010893991900021958,-0.014398648310454138,-0.00032525843450064416
0.725,0.002149537100005964,-0.7851400500000019,-0.0018510882000056942,-2.35636245,-0.0013181440000042488,1.5704271999999984,0.7840712949999942,0.039999966,0.039999952,-9.812198999999998,-0.00386293418706103,-0.01098550300000399,-0.010977535000022033,-0.014404386281968613,-0.00032770911500064635
0.7275,0.0021721492100059848,-0.7851471750000019,-0.0018726779700057143,-2.356363695,-0.0013342535500042638,1.5704210199999984,0.7840492914999941,0.039999966,0.0399999514,-9.812195399999998,-0.003887503640732628,-0.011000628400004004,-0.01106107810002211,-0.014410124253483089,-0.0003301597955006486
0.73,0.002194761320006005,-0.7851543000000019,-0.0018942677400057336,-2.35636494,-0.0013503631000042781,1.5704148399999984,0.7840272879999942,0.039999966,0.039999950799999996,-9.812191799999999,-0.003912073094404225,-0.011015753800004018,-0.011144621200022185,-0.014415862224997564,-0.0003326104760006508
0.7325,0.002217373430006026,-0.7851614250000019,-0.0019158575100057538,-2.356366185,-0.001366472650004293,1.5704086599999985,0.7840052844999942,0.039999966,0.0399999502,-9.8121882,-0.003936642548075823,-0.011030879200004031,-0.011228164300022263,-0.014421600196512039,-0.0003350611565006531
0.735,0.0022407469200063515,-0.785168820000002,-0.0019381749500060647,-2.35636744,-0.001383125040004525,1.5704023399999985,0.7839825349999938,0.039999966,0.03999995,-9.812182199999999,-0.003956220485274508,-0.011039107800001278,-0.011312967400022843,-0.014427318237723407,-0.00033763148500070325
0.7375,0.0022645011000063738,-0.785176350000002,-0.0019608562250060858,-2.3563687000000004,-0.001400048850004541,1.5703959499999984,0.7839594124999938,0.039999966,0.03999995,-9.812174999999998,-0.003973302664239734,-0.011043888000001284,-0.011398400500022922,-0.014433026313783232,-0.0003402616375007057
0.74,0.0022882552800063947,-0.7851838800000019,-0.001983537500006106,-2.3563699600000003,-0.001416972660004556,1.5703895599999984,0.7839362899999938,0.039999966,0.03999995,-9.812167799999997,-0.003990384843204959,-0.011048668200001287,-0.011483833600022999,-0.014438734389843057,-0.00034289179000070803
0.7425,0.002312009460006417,-0.785191410000002,-0.002006218775006127,-2.35637122,-0.0014338964700045718,1.5703831699999984,0.7839131674999937,0.039999966,0.03999995,-9.812160599999999,-0.004007467022170185,-0.011053448400001291,-0.011569266700023078,-0.014444442465902882,-0.0003455219425007105
0.745,0.0023357636400064383,-0.785198940000002,-0.0020289000500061474,-2.35637248,-0.0014508202800045868,1.5703767799999984,0.7838900449999937,0.039999966,0.03999995,-9.812153399999998,-0.00402454920113541,-0.011058228600001295,-0.011654699800023155,-0.014450150541962707,-0.00034815209500071287
0.7475,0.00235951782000646,-0.785206470000002,-0.0020515813250061685,-2.3563737400000004,-0.0014677440900046025,1.5703703899999983,0.7838669224999937,0.039999966,0.03999995,-9.812146199999997,-0.004041631380100636,-0.0110630088000013,-0.011740132900023233,-0.014455858618022533,-0.0003507822475007153
0.75,0.0023832720000067993,-0.7852140000000022,-0.0020742626000064923,-2.3563750000000003,-0.0014846679000048441,1.5703639999999983,0.7838437999999933,0.039999966,0.03999995,-9.812138999999998,-0.004058713559066571,-0.011067789000003426,-0.011825566000023777,-0.01446156669408214,-0.00035341240000073143
0.7525000000000001,0.0024081913200068223,-0.7852219650000022,-0.0020980575350065147,-2.3563763200000003,-0.0015024224400048609,1.5703571899999982,0.7838195449999934,0.0399999666,0.0399999506,-9.812131799999998,-0.0040783985285141496,-0.011080342800003437,-0.011912713750023859,-0.014466472761706829,-0.00035609300050073393
0.755,0.002433110640006845,-0.7852299300000022,-0.002121852470006536,-2.3563776400000003,-0.0015201769800048765,1.5703503799999983,0.7837952899999934,0.0399999672,0.0399999512,-9.812124599999999,-0.004098083497961727,-0.011092896600003448,-0.011999861500023936,-0.014471378829331518,-0.0003587736010007363
0.7575000000000001,0.002458029960006868,-0.7852378950000022,-0.002145647405006558,-2.3563789600000002,-0.001537931520004893,1.5703435699999981,0.7837710349999933,0.0399999678,0.039999951799999996,-9.812117399999998,-0.004117768467409306,-0.01110545040000346,-0.012087009250024018,-0.014476284896956208,-0.0003614542015007388
0.76,0.00248294928000689,-0.7852458600000022,-0.002169442340006579,-2.35638028,-0.001555686060004909,1.5703367599999982,0.7837467799999933,0.0399999684,0.0399999524,-9.812110199999998,-0.004137453436856882,-0.011118004200003471,-0.012174157000024095,-0.014481190964580897,-0.00036413480200074116
0.7625000000000001,0.0025078686000069134,-0.7852538250000022,-0.0021932372750066015,-2.3563816000000006,-0.0015734406000049255,1.570329949999998,0.7837225249999933,0.039999969,0.039999953,-9.812102999999999,-0.004157138406304461,-0.011130558000003482,-0.012261304750024177,-0.014486097032205587,-0.00036681540250074366
0.765,0.0025327879200069355,-0.7852617900000022,-0.0022170322100066226,-2.3563829200000006,-0.0015911951400049411,1.5703231399999982,0.7836982699999933,0.039999969600000004,0.0399999536,-9.812095799999998,-0.0041768233757520385,-0.011143111800003493,-0.012348452500024254,-0.014491003099830277,-0.00036949600300074606
0.7675000000000001,0.0025581032100072906,-0.7852699020000024,-0.0022412056300069616,-2.3563842400000006,-0.0016092320100051943,1.570316249999998,0.7836736299999929,0.03999997,0.039999954,-9.812094500000004,-0.0041981777641990755,-0.011154354850002407,-0.0124361547500248,-0.014496080204845939,-0.0003721931100007624
0.77,0.0025842104400073136,-0.7852783080000023,-0.002266136020006984,-2.3563855600000005,-0.0016278335400052109,1.570309199999998,0.7836482199999929,0.03999997,0.039999954,-9.812105000000003,-0.004222870990640838,-0.011162976400002415,-0.012524966000024878,-0.014501499384643119,-0.0003749232300007648
0.7725,0.002610317670007337,-0.7852867140000024,-0.0022910664100070062,-2.3563868800000005,-0.0016464350700052272,1.570302149999998,0.7836228099999929,0.03999997,0.039999954,-9.812115500000003,-0.004247564217082599,-0.011171597950002422,-0.012613777250024957,-0.014506918564440297,-0.00037765335000076723
0.775,0.0026364249000073612,-0.7852951200000023,-0.0023159968000070292,-2.3563882000000005,-0.0016650366000052447,1.570295099999998,0.7835973999999928,0.03999997,0.039999954,-9.812126000000003,-0.004272257443524363,-0.01118021950000243,-0.01270258850002504,-0.014512337744237477,-0.0003803834700007698
0.7775,0.002662532130007384,-0.7853035260000024,-0.0023409271900070514,-2.3563895200000005,-0.0016836381300052612,1.570288049999998,0.7835719899999928,0.03999997,0.039999954,-9.812136500000003,-0.004296950669966124,-0.011188841050002438,-0.012791399750025119,-0.014517756924034658,-0.00038311359000077217
0.78,0.002688639360007409,-0.7853119320000024,-0.0023658575800070748,-2.3563908400000004,-0.0017022396600052787,1.570280999999998,0.7835465799999928,0.03999997,0.039999954,-9.812147000000003,-0.004321643896407887,-0.011197462600002447,-0.012880211000025201,-0.014523176103831838,-0.0003858437100007747
0.7825,0.002714746590007432,-0.7853203380000024,-0.002390787970007097,-2.3563921600000004,-0.001720841190005295,1.570273949999998,0.7835211699999928,0.03999997,0.039999954,-9.812157500000003,-0.004346337122849649,-0.011206084150002455,-0.01296902225002528,-0.014528595283629018,-0.0003885738300007771
0.785,0.002741660510007802,-0.7853290290000026,-0.0024164894300074506,-2.35639351,-0.0017400178300055588,1.570266639999998,0.7834949749999923,0.03999997,0.039999954,-9.812153099999996,-0.004365276126195558,-0.011211789900001212,-0.013058963100025847,-0.014533448964358646,-0.00039133309600079217
0.7875,0.002768977775007826,-0.7853378625000026,-0.0024425764250074738,-2.3563948750000003,-0.001759482025005576,1.570259199999998,0.7834683874999924,0.03999997,0.039999954,-9.812141249999996,-0.004381338017997226,-0.011216037750001217,-0.013149468750025928,-0.014538019895554859,-0.00039410693500079464
0.79,0.0027962950400078515,-0.7853466960000025,-0.002468663420007498,-2.3563962400000005,-0.0017789462200055943,1.5702517599999979,0.7834417999999923,0.03999997,0.039999954,-9.812129399999996,-0.0043973999097988966,-0.01122028560000122,-0.013239974400026012,-0.014542590826751073,-0.0003968807740007972
0.7925,0.002823612305007876,-0.7853555295000025,-0.002494750415007521,-2.3563976050000006,-0.0017984104150056115,1.5702443199999978,0.7834152124999924,0.03999997,0.039999954,-9.812117549999996,-0.004413461801600566,-0.011224533450001226,-0.013330480050026093,-0.014547161757947288,-0.0003996546130007997
0.795,0.002850929570007901,-0.7853643630000026,-0.0025208374100075454,-2.3563989700000003,-0.0018178746100056297,1.570236879999998,0.7833886249999923,0.03999997,0.039999954,-9.812105699999996,-0.004429523693402235,-0.011228781300001229,-0.013420985700026178,-0.014551732689143502,-0.0004024284520008023
0.7975,0.0028782468350079253,-0.7853731965000025,-0.0025469244050075686,-2.3564003350000005,-0.001837338805005647,1.5702294399999979,0.7833620374999923,0.03999997,0.039999954,-9.812093849999997,-0.004445585585203905,-0.011233029150001232,-0.013511491350026257,-0.014556303620339717,-0.0004052022910008048
0.8,0.002905564100008309,-0.7853820300000026,-0.0025730114000079357,-2.3564017000000006,-0.0018568030000059208,1.5702219999999978,0.7833354499999919,0.03999997,0.039999954,-9.812082000000002,-0.0044616474770083755,-0.011237277000002854,-0.013601997000026808,-0.014560874551536002,-0.00040797613000082103
0.8025,0.0029341129850083345,-0.7853913105000027,-0.00260027553500796,-2.3564030950000006,-0.0018771452800059388,1.5702142749999977,0.783307662499992,0.03999997,0.039999954,-9.812089350000003,-0.004487333400182419,-0.011247082350002862,-0.01369410480002689,-0.014565687999130656,-0.00041079700300082357
0.805,0.002962661870008361,-0.7854005910000027,-0.002627539670007985,-2.3564044900000005,-0.0018974875600059578,1.5702065499999978,0.7832798749999919,0.03999997,0.039999954,-9.812096700000003,-0.004513019323356462,-0.011256887700002872,-0.013786212600026975,-0.01457050144672531,-0.0004136178760008262
0.8075,0.0029912107550083868,-0.7854098715000027,-0.0026548038050080093,-2.3564058850000005,-0.001917829840005976,1.5701988249999976,0.7832520874999919,0.03999997,0.039999954,-9.812104050000002,-0.004538705246530506,-0.01126669305000288,-0.013878320400027058,-0.014575314894319964,-0.0004164387490008287
0.81,0.0030197596400084134,-0.7854191520000027,-0.0026820679400080347,-2.3564072800000004,-0.0019381721200059949,1.5701910999999977,0.7832242999999919,0.03999997,0.039999954,-9.812111400000003,-0.004564391169704549,-0.01127649840000289,-0.013970428200027144,-0.01458012834191462,-0.0004192596220008313
0.8125,0.0030483085250084386,-0.7854284325000027,-0.002709332075008059,-2.3564086750000004,-0.001958514400006013,1.5701833749999976,0.7831965124999918,0.03999997,0.039999954,-9.812118750000003,-0.004590077092878592,-0.011286303750002898,-0.014062536000027225,-0.014584941789509273,-0.0004220804950008338
0.8150000000000001,0.0030768574100084652,-0.7854377130000028,-0.0027365962100080843,-2.3564100700000004,-0.001978856680006032,1.5701756499999977,0.7831687249999918,0.03999997,0.039999954,-9.812126100000002,-0.004615763016052636,-0.011296109100002907,-0.014154643800027311,-0.014589755237103928,-0.00042490136800083644
0.8175,0.0031058237750088633,-0.7854471400000028,-0.0027642594850084646,-2.3564115000000005,-0.0019994966600063156,1.5701678149999976,0.7831405299999914,0.03999997015,0.0399999542,-9.812127199999997,-0.004638298018840237,-0.011303567950000822,-0.014247295800027879,-0.014594345400111113,-0.00042773538250085065
0.8200000000000001,0.003135625100008891,-0.7854568600000029,-0.002792721040008491,-2.3564130000000003,-0.0020207320400063354,1.5701597599999975,0.7831115199999914,0.039999970600000004,0.0399999548,-9.812115799999997,-0.004654531180863382,-0.011306333800000824,-0.014341036200027966,-0.014598488993943956,-0.00043059568000085335
0.8225,0.003165426425008917,-0.7854665800000029,-0.0028211825950085166,-2.3564145000000005,-0.0020419674200063543,1.5701517049999976,0.7830825099999913,0.03999997105,0.0399999554,-9.812104399999997,-0.004670764342886527,-0.011309099650000827,-0.01443477660002805,-0.0146026325877768,-0.0004334559775008559
0.8250000000000001,0.0031952277500089453,-0.7854763000000029,-0.002849644150008543,-2.3564160000000007,-0.002063202800006374,1.5701436499999977,0.7830534999999913,0.0399999715,0.039999956,-9.812092999999997,-0.004686997504909672,-0.01131186550000083,-0.014528517000028137,-0.014606776181609644,-0.0004363162750008585
0.8275,0.0032250290750089716,-0.7854860200000029,-0.002878105705008568,-2.3564175000000005,-0.002084438180006393,1.5701355949999976,0.7830244899999913,0.039999971950000004,0.0399999566,-9.812081599999997,-0.004703230666932817,-0.011314631350000832,-0.01462225740002822,-0.014610919775442488,-0.0004391765725008611
0.8300000000000001,0.0032548304000089992,-0.7854957400000029,-0.0029065672600085946,-2.3564190000000007,-0.002105673560006413,1.5701275399999977,0.7829954799999912,0.0399999724,0.0399999572,-9.812070199999997,-0.004719463828955962,-0.011317397200000835,-0.014715997800028307,-0.014615063369275332,-0.00044203687000086376
0.8325,0.003284631725009026,-0.7855054600000029,-0.00293502881500862,-2.3564205000000005,-0.0021269089400064315,1.5701194849999975,0.7829664699999912,0.03999997285,0.0399999578,-9.812058799999997,-0.004735696990979106,-0.011320163050000838,-0.01480973820002839,-0.014619206963108176,-0.0004448971675008663
0.835,0.0033152817700091565,-0.785515490000003,-0.002964301600008745,-2.3564220200000006,-0.0021487494000065246,1.5701111699999977,0.7829366299999911,0.0399999734,0.039999958,-9.812067900000006,-0.004757413268096447,-0.011326329800002317,-0.014904452600028052,-0.01462368806824218,-0.00044770118500081794
0.8375,0.0033463561750087614,-0.7855256750000028,-0.0029939800000083677,-2.3564235500000006,-0.002170892400006243,1.5701027249999977,0.7829063749999915,0.039999974,0.039999958,-9.812087250000006,-0.004781871102757146,-0.011334197000002218,-0.01499965400002684,-0.014628337929026536,-0.00045047706250078267
0.84,0.003377430580008365,-0.7855358600000026,-0.0030236584000079892,-2.3564250800000006,-0.002193035400005961,1.5700942799999977,0.7828761199999918,0.0399999746,0.039999958,-9.812106600000005,-0.004806328937417844,-0.011342064200002118,-0.015094855400025628,-0.014632987789810892,-0.0004532529400007473
0.8425,0.0034085049850079703,-0.7855460450000026,-0.003053336800007612,-2.35642661,-0.0022151784000056796,1.570085834999998,0.7828458649999923,0.0399999752,0.039999958,-9.812125950000006,-0.004830786772078543,-0.011349931400002018,-0.015190056800024417,-0.014637637650595248,-0.000456028817500712
0.845,0.003439579390007574,-0.7855562300000024,-0.0030830152000072336,-2.3564281400000002,-0.002237321400005397,1.570077389999998,0.7828156099999927,0.0399999758,0.039999958,-9.812145300000005,-0.004855244606739241,-0.011357798600001917,-0.015285258200023204,-0.014642287511379602,-0.0004588046950006766
