rsonawane2002/My_IMU/trajectory.csv
time,pos_x,pos_y,pos_z,quat_w,quat_x,quat_y,quat_z,vel_x,vel_y,vel_z,acc_x,acc_y,acc_z,ang_vel_x,ang_vel_y,ang_vel_z,joint_pos_0,joint_pos_1,joint_pos_2,joint_pos_3,joint_pos_4,joint_pos_5,joint_pos_6,joint_vel_0,joint_vel_1,joint_vel_2,joint_vel_3,joint_vel_4,joint_vel_5,joint_vel_6,joint_acc_0,joint_acc_1,joint_acc_2,joint_acc_3,joint_acc_4,joint_acc_5,joint_acc_6
0.0,0.40789534536406974,-0.16147232287563718,0.31092173156834596,0.00042356675300449616,-0.9238161737551739,-0.38283608148849413,-0.00018002802872141933,0.0,0.0,0.0,0.0003397213285266139,0.0008200219415234939,-0.00024415007148286075,0.0,0.0,0.0,-0.30987624100000066,-0.30773173900000006,-0.06453369399999993,-2.449034868999992,-0.022190910999999945,2.141465840381012,-0.3597216600000006,0.0,0.0,0.0,0.0,0.0,0.0,0.0,0.0,0.0,0.0,0.0,0.0,0.0,0.0
0.0010002000400080016,0.4078953453867248,-0.16147232282095267,0.3109217315520644,0.0004235667449725336,-0.9238161737497941,-0.38283608150148657,-0.00018002802570596778,3.397213285266139e-07,8.20021941523494e-07,-2.4415007148286073e-07,0.0006791707965868699,0.0016393876689441542,-0.00048810476575677803,-2.571583662245162e-07,-8.866428398434146e-09,4.2173503417474496e-07,-0.3098762410929819,-0.3077317389772582,-0.06453369377739931,-2.449034869028846,-0.022190910937845247,2.1414658404358993,-0.3597216599420384,-1.394299731611384e-06,3.410255103070415e-07,3.338007615280166e-06,-4.3267809857192e-07,9.32040762284227e-07,8.230600063812996e-07,8.691721236384049e-07,-0.013937419559244327,0.003408890864564397,0.0333667227866032,-0.004325050100184417,0.009316679086827642,0.008227307494431726,0.008688244200081524
0.002000400080016003,0.4078953455452545,-0.16147232243829215,0.3109217314381325,0.00042356668876837247,-0.9238161737121479,-0.38283608159240234,-0.00018002800460482386,1.3583415931737398e-06,3.2787753378883085e-06,-9.76209531513556e-07,0.001357662057285345,0.0032771350992622313,-0.0009757211820782789,-1.0282218839841702e-06,-3.5451520211798284e-08,1.6862651572745666e-06,-0.30987624174362716,-0.3077317388181198,-0.06453369221972932,-2.4490348692307538,-0.02219091050291157,2.1414658408199774,-0.3597216595364422,-5.574967377432581e-06,1.3635562366757697e-06,1.334668804626521e-05,-1.7300199015890837e-06,3.7266713364183623e-06,3.290922734340813e-06,3.4752974018419022e-06,-0.027858107522379116,0.0068136894231689326,0.06669338948342657,-0.008644908063393823,0.018622173684955612,0.016444738269182264,0.017366058335096923
0.0030006001200240046,0.40789534597538446,-0.16147232140004067,0.3109217311290077,0.00042356653627270734,-0.9238161736100043,-0.3828360818390791,-0.0001800279473522759,3.055045443097304e-06,7.374292140047957e-06,-2.195592435639419e-06,0.0020353381145399984,0.004912914877092451,-0.0014627517837074156,-2.312573351577303e-06,-7.973398081998239e-08,3.7925782006545833e-06,-0.3098762435089868,-0.3077317383863384,-0.06453368799338985,-2.449034869778579,-0.022190909322830184,2.1414658418620753,-0.35972165843596043,-1.2538656618643563e-05,3.0667737180125066e-06,3.0018030075961283e-05,-3.8909869817812e-06,8.381654824931114e-06,7.4016128401795324e-06,7.81628982184779e-06,-0.04176207058606081,0.010214397313718733,0.09998001612252524,-0.012959575967729868,0.027916488270865278,0.024652296277311317,0.02603344657957694
0.004000800160032006,0.40789534681267725,-0.161472319378977,0.3109217305272642,0.0004235662394238621,-0.9238161734111714,-0.38283608231926064,-0.00018002783590456706,5.429017822253737e-06,1.310460509207321e-05,-3.901713098928387e-06,0.002712199255300123,0.006546727796860746,-0.0019491968363648576,-4.10959577968857e-06,-1.4169249985866933e-07,6.739662393315228e-06,-0.3098762469454419,-0.3077317375458313,-0.06453367976638305,-2.449034870844977,-0.022190907025679735,2.141465843890627,-0.3597216562937589,-2.2282022476023512e-05,5.449859820870128e-06,5.334402569442697e-05,-6.9145413275814484e-06,1.4894755225826558e-05,1.3153155770968547e-05,1.3890064205966528e-05,-0.05564931544694584,0.013611016174118928,0.13322661873595437,-0.017269055891294204,0.03719962732103801,0.0328499854718786,0.03469041310805233
0.005001000200040008,0.4078953481925321,-0.16147231604827306,0.3109217295355937,0.00042356575021848216,-0.9238161730834956,-0.3828360831105979,-0.00018002765223903503,8.47944395369755e-06,2.046774773376945e-05,-6.093986108369134e-06,0.003388245750845752,0.008178574655604828,-0.0024350566181452126,-6.418672374150628e-06,-2.2130573916020237e-07,1.0526506358152484e-05,-0.3098762526087046,-0.3077317361606793,-0.06453366620831265,-2.4490348726023967,-0.022190903239986074,2.1414658472336705,-0.3597216527634204,-3.4801721309950816e-05,8.511996739448067e-06,8.33166700987733e-05,-1.0799645343126481e-05,2.3263737432584144e-05,2.0543577764549043e-05,2.1694536211581744e-05,-0.06951984880169064,0.017003547642274644,0.1664332133557691,-0.021573349912188483,0.04647159531195517,0.04103780980594381,0.04333696209505382
0.006001200240048009,0.407895350250185,-0.16147231108149415,0.3109217280568044,0.00042356502071057956,-0.9238161725948623,-0.38283608429064775,-0.00018002737835517234,1.2205509323945242e-05,2.9461754403282866e-05,-8.771826335218812e-06,0.004063477856853918,0.009808456252963196,-0.002920331419464734,-9.239186518778586e-06,-3.185523207454335e-07,1.5152099108224042e-05,-0.30987626105381816,-0.3077317340951269,-0.06453364599038335,-2.4490348752230786,-0.022190897594722068,2.1414658522188508,-0.35972164749894453,-5.009441082040306e-05,1.2252366995592306e-05,0.00011992796169316373,-1.5545261848256417e-05,3.3486367234158675e-05,2.9570905849532293e-05,3.122762233115021e-05,-0.08337367734695166,0.020391993356091005,0.19959981601402457,-0.025872460108514354,0.05573239672009813,0.04921577323256667,0.051973097715112174
0.007001400280056011,0.40789535312070974,-0.16147230415259883,0.3109217259938224,0.000423564003012085,-0.9238161719131953,-0.3828360859368741,-0.00018002699627402515,1.6606399667405385e-05,4.008466023969584e-05,-1.1934648947298603e-05,0.004737895813464759,0.011436373391164092,-0.0034050215430090998,-1.257052175827714e-05,-4.3341081486629067e-07,2.061543004303107e-05,-0.3098762728351575,-0.307731731213582,-0.06453361778540015,-2.4490348788790555,-0.022190889719307428,2.1414658591734166,-0.3597216401547476,-6.815675004695705e-05,1.667015343879539e-05,0.0001631699020888142,-2.115035407851485e-05,4.556041131498035e-05,4.0233167845299683e-05,4.248723989220191e-05,-0.09721080777938533,0.023776354953473137,0.23272644274277593,-0.030166388558373468,0.06498203602194827,0.05738387970480688,0.06059882414275812
0.008001600320064013,0.40789535693901663,-0.16147229493593862,0.3109217232496902,0.0004235626492926889,-0.9238161710064572,-0.3828360881266472,-0.000180026488038169,2.168130095087476e-05,5.233450118561105e-05,-1.5581869421237012e-05,0.005411499845347483,0.013062326875014484,-0.0038891273036812915,-1.6412061781220085e-05,-5.658597280991693e-07,2.691548894481611e-05,-0.3098762885064294,-0.307731727380616,-0.06453358026776775,-2.4490348837421534,-0.02219087924360853,2.141465868424223,-0.3597216303856626,-8.89853993687888e-05,2.176453924619641e-05,0.000213034496103993,-2.761388568514884e-05,5.948363725495471e-05,5.252839236200267e-05,5.547130705733993e-05,-0.11103124679564809,0.027156634072326175,0.26581310957407833,-0.03445513733986748,0.07422051769398694,0.06554213317572415,0.06921414555252242
0.009001800360072015,0.40789536183985375,-0.1614722831062577,0.3109217197275675,0.0004235609117795802,-0.9238161698426492,-0.38283609093724413,-0.0001800258357122932,2.7429399358100352e-05,6.620931398972481e-05,-1.9712903554661186e-05,0.006084290161766208,0.014686317511889039,-0.004372649028549583,-2.0763190403102455e-05,-7.158774914889853e-07,3.405126597487628e-05,-0.3098763086206725,-0.3077317224609636,-0.06453353211348989,-2.4490348899839907,-0.02219086579793823,2.141465880297731,-0.3597216178469387,-0.00011257702050467354,2.7534707922581017e-05,0.00026951375176402097,-3.4934820735108925e-05,7.525381352946269e-05,6.645460880056284e-05,7.017774282424056e-05,-0.12483500109239638,0.030532832350555237,0.2988598325399869,-0.03873870853109803,0.08344784621269552,0.07369053759837818,0.07781906611893581
0.010002000400080016,0.40789536795780584,-0.16147226833869294,0.31092171533072965,0.0004235587427581915,-0.9238161683898115,-0.3828360944458486,-0.00018002502138197388,3.3849881274407176e-05,8.170713620938913e-05,-2.4327167478336178e-05,0.006756266956645782,0.01630834611171926,-0.004855587056795572,-2.5623291549464707e-05,-8.834424487434397e-07,4.202175166989242e-05,-0.30987633373025797,-0.30773171631952284,-0.06453347200016868,-2.4490348977759795,-0.022190849013055694,2.141465895120007,-0.3597216021942413,-0.00013892827651298568,3.3979843300381424e-05,0.00033259968030127136,-4.311212371104912e-05,9.286870950936057e-05,8.200984735267185e-05,8.660446702565324e-05,-0.13862207736628662,0.033904951426065456,0.3318666276725568,-0.04301710421016678,0.09266402605455538,0.0818290969258287,0.08641359001652903
0.011002200440088018,0.4078953754272952,-0.16147225030877388,0.31092170996257107,0.0004235560945711975,-0.9238161666160221,-0.38283609872955077,-0.0001800240271551206,4.0941933271391916e-05,9.882600621316333e-05,-2.942407766825233e-05,0.007427430408637332,0.01792841348698247,-0.005337941739662398,-3.0991749239089074e-05,-1.0685328444784577e-06,5.082593693827401e-05,-0.30987636438688965,-0.307731708821355,-0.06453339860700398,-2.4490349072893234,-0.02219082852016621,2.141465913216724,-0.35972158308365193,-0.0001680358317916988,4.109912953967636e-05,0.00040228429615516966,-5.2144759511326865e-05,0.00011232609546097998,9.919213900079144e-05,0.00010474940032940055,-0.15239248231397526,0.03727299293676195,0.36483351100384315,-0.04729032645517538,0.10186906169604787,0.08995781511113538,0.09499772141983281
0.012002400480096018,0.40789538438258127,-0.16147222869242212,0.3109217035266005,0.00042355291961947774,-0.9238161644893985,-0.3828361038653483,-0.00018002283516059832,4.870474209168184e-05,0.00011756396318335406,-3.500305095766097e-05,0.008097780681183765,0.019546520452690768,-0.00581971344040294,-3.686794756726807e-05,-1.2711268125129732e-06,6.0462813056519414e-05,-0.309876401141604,-0.3077316998316844,-0.06453331061479281,-2.44903491869502,-0.02219080395092101,2.1414659349131604,-0.35972156017166795,-0.00019989635207838584,4.889175112819119e-05,0.0004785596169721942,-6.203169345000315e-05,0.000133623742546128,0.00011799951551815348,0.00012461046423837833,-0.16614622263211878,0.04063695852054987,0.3977604985659012,-0.05155837734422548,0.1110629576136544,0.09807669610735797,0.10357146450337795
0.01300260052010402,0.4078953949577609,-0.16147220316595157,0.31092169592644464,0.0004235491703611008,-0.9238161619780961,-0.3828361099301449,-0.00018002142754956136,5.7137494633759446e-05,0.00013791904711854487,-4.106350454905821e-05,0.008767317922585158,0.021162667826380294,-0.006300902534228177,-4.325127068914438e-05,-1.4912023642150692e-06,7.093137166559239e-05,-0.3098764445447708,-0.3077316892158987,-0.0645332067059286,-2.44903493216386,-0.0221907749374171,2.1414659605342017,-0.3597215331152024,-0.00023450650445021881,5.735689288129776e-05,0.0005614176636058756,-7.277189125684239e-05,0.00015675942282208702,0.00013843000946875997,0.00014618558109055549,-0.17988330501737357,0.04399684981533432,0.4306476063907859,-0.05582125895541873,0.12024571828385631,0.10618574386755616,0.11213482344169516
0.014002800560112022,0.40789540728676865,-0.16147217340606812,0.31092168706584655,0.0004235447993122452,-0.9238161590503093,-0.3828361170007515,-0.00018001978649425905,6.623937793685216e-05,0.00015988929883611465,-4.760485602611733e-05,0.009436042266064081,0.022776856428100394,-0.006781509408255634,-5.0141102803123185e-05,-1.7287373768974104e-06,8.223060476731276e-05,-0.30987649514609333,-0.3077316768395485,-0.06453308556440064,-2.4490349478664264,-0.02219074111219706,2.141465990404339,-0.3597215015715838,-0.0002718629573239689,6.649373994201445e-05,0.0006508504601167962,-8.436431907731243e-05,0.00018173090924161474,0.00016048165420738282,0.00016947267405897402,-0.19360373616639603,0.04735266845902042,0.46349485051055256,-0.06007897336685677,0.12941734818313494,0.11428496234478966,0.12068780240931516
0.015003000600120024,0.4078954215033757,-0.16147213908986952,0.31092167684866556,0.00042353975904664494,-0.923816155674271,-0.38283612515388554,-0.0001800178941887926,7.600957916588761e-05,0.00018347275997474566,-5.462652336556948e-05,0.010103953829830543,0.024389087080402376,-0.007261534461457916,-5.753682813435555e-05,-1.983709582263117e-06,9.435950472076515e-05,-0.3098765534946084,-0.3077316625683472,-0.06453294587579339,-2.449034965973096,-0.022190702108248903,2.141466024847672,-0.3597214651985561,-0.0003119623804560066,7.630147778100629e-05,0.0007468500337725921,-9.680794347258464e-05,0.00020853597565294432,0.00018415248387956425,0.00019446966715174928,-0.20730752277584266,0.050704416089513316,0.4963022469572562,-0.06433152265664127,0.13857785178797172,0.12237435549211816,0.1292304055807687
0.016003200640128026,0.40789543774119147,-0.16147209989484507,0.31092166517887754,0.00042353400219605534,-0.9238161518182523,-0.38283613446617204,-0.00018001573284840986,8.644728559651324e-05,0.0002086674729969194,-6.212792494903316e-05,0.010771052717147097,0.025999360608328956,-0.007740978104611302,-6.54378309182936e-05,-2.256096554901837e-06,0.00010731706423871998,-0.30987662013868683,-0.30773164626817134,-0.06453278632728587,-2.449034986654039,-0.022190657559005848,2.141466064187904,-0.35972142365427845,-0.00035480144494230166,8.677929219658482e-05,0.0008494084150479511,-0.00011010173141953392,0.00023717239679978434,0.00020944053342161656,0.00022117448521206975,-0.2209946715423699,0.05405209434471814,0.5290698117629521,-0.06857890890287387,0.147727233574848,0.1304539272626014,0.1377626371305866
0.017003400680136026,0.4078954561336623,-0.16147205549887575,0.3109216519605745,0.0004235274814494311,-0.9238161474505632,-0.38283614501414204,-0.00018001328471053594,9.75516846001818e-05,0.00023547148119140357,-7.010847957479208e-05,0.011437339016393733,0.027607677839403093,-0.00821984076024436,-7.384349538431636e-05,-2.5458757008354777e-06,0.00012110227638407301,-0.3098766956260336,-0.30773162780506014,-0.06453260560765099,-2.4490350100792186,-0.02219060709834618,2.141466108748349,-0.359721376597325,-0.00040037682321842293,9.792636931470813e-05,0.0009585176376246135,-0.0001242446503107385,0.00026763794832131865,0.00023634383856062206,0.000249585053918197,-0.23466518916263415,0.05739570486254,0.5617975609596955,-0.07282113418365624,0.1568654980202451,0.1385236816092991,0.14628450123329953
0.01800360072014403,0.40789547681407196,-0.1614720055802338,0.3109216370979649,0.0004235201495538481,-0.923816142539552,-0.38283615687423433,-0.0001800105320337226,0.00010932196362930071,0.0002638828286757256,-7.856760646952188e-05,0.012102812801132592,0.02921403960361754,-0.008698122862586862,-8.27532057394278e-05,-2.853024246113507e-06,0.00013571413456629885,-0.3098767805036883,-0.30773160704521574,-0.06453240240725494,-2.4490350364183917,-0.022190550360593045,2.1414661588519253,-0.35972132368668486,-0.00044868518905953836,0.00010974189558898079,0.0010741697383913715,-0.00013923566795448017,0.00029993040675220636,0.00026486043581443305,0.0002796992997834656,-0.24831908233329186,0.06073524928088403,0.5944855105795411,-0.07705820057709,0.16599264960064444,0.1465836224852709,0.15479600206343824
0.01900380076015203,0.4078954999155418,-0.16147194981758248,0.31092162049537264,0.00042351195931433376,-0.9238161370536059,-0.38283617012279425,-0.000180007457097794,0.00012175731020244699,0.00029389956039863865,-8.75047252999658e-05,0.012767474130172712,0.03081844673342402,-0.00917582485751878,-9.216634615202623e-05,-3.177519225458351e-06,0.0001511516325379186,-0.3098768753180251,-0.3077315838550028,-0.06453217541805652,-2.4490350658411093,-0.02219048698051429,2.14146621482116,-0.3597212645817617,-0.0004997232175804153,0.00012222505780065405,0.0011963567574440708,-0.00015507375257474415,0.0003340475495225822,0.00029498836249167214,0.00031151515015628357,-0.26195635775099946,0.06407072923765535,0.6271336766545444,-0.0812901101612768,0.17510869279252736,0.15463375384357655,0.16329714379553348
0.020004000800160033,0.40789552557103104,-0.16147188788997624,0.31092160205723895,0.00042350286359321156,-0.9238161309611499,-0.3828361848360744,-0.000180004042204629,0.00013485691188964613,0.00032551972214257363,-9.691925618455944e-05,0.01343132304763427,0.032420900063721544,-0.009652947202518922,-0.00010208230073574184,-3.519337470961174e-06,0.00016741376439098686,-0.30987698061475344,-0.3077315581009489,-0.06453192333360647,-2.4490350985167146,-0.022190416593322274,2.1414662769781865,-0.35972119894237375,-0.0005534875852354204,0.0001353750430586257,0.0013250707380856091,-0.00017175787281121922,0.00036998715495805616,0.00032672565669173207,0.00034503053322013213,-0.27557702211241347,0.06740214637075911,0.6597420752167605,-0.08551686501431832,0.1842136320723753,0.1626740796372758,0.17178793060411604
0.021004200840168033,0.40789555391333565,-0.16147181947686035,0.31092158168811984,0.0004234928153110092,-0.9238161242306481,-0.38283620109023414,-0.00018000026967708222,0.00014861995629771553,0.00035874136052608174,-0.00010681061970500365,0.01409435958301323,0.03402140043184672,-0.010129490366614098,-0.00011250045353334995,-3.878455600824339e-06,0.0001844995245535888,-0.30987709693891785,-0.3077315296497439,-0.06453164484904694,-2.4490351346143466,-0.022190338834673685,2.1414663456447474,-0.3597211264287537,-0.0006099749698185192,0.00014919103879943997,0.001460303726825936,-0.0001892869977192975,0.0004077470022797135,0.0003600703573047754,0.0003802433779935654,-0.28918108211419025,0.07072950231810042,0.6923107222982446,-0.0897384672143162,0.19330747191666953,0.17070460381942829,0.18026836666371662
0.022004400880176037,0.40789558507508983,-0.1614717442580707,0.31092155929268783,0.0004234817674455281,-0.9238161168306026,-0.38283621896134007,-0.00017999612186004612,0.0001630456310556726,0.00039356252300626706,-0.00011717823691778764,0.014756583751245726,0.035619948677562664,-0.010605454830328528,-0.00012342018850074863,-4.25485000815802e-06,0.00020240790778635828,-0.3098772248348985,-0.30773149836824026,-0.06453133866111073,-2.449035174302936,-0.022190253340669368,2.141466421142192,-0.3597210467015483,-0.0006691820504632766,0.00016367223278728775,0.001602047773382054,-0.00020766009677007465,0.000447324871604115,0.00039502050401173485,0.00041715161433021066,-0.3027685444529861,0.0740527987175844,0.7248396339310517,-0.09395491883937208,0.20239021680189143,0.17872533034309374,0.18873845614886592
0.023004600920184037,0.4078956191887643,-0.16147166191383366,0.3109215347757308,0.00042346967303322436,-0.9238161087295544,-0.382836238525366,-0.00017999158111898912,0.00017813312380020698,0.00042998125788120707,-0.0001280215293656607,0.015417995552771681,0.037216545643047855,-0.011080841085632764,-0.00013484088949101538,-4.648496849820943e-06,0.00022113790917900578,-0.3098773648464113,-0.3077314641234531,-0.0645310034681207,-2.449035217751209,-0.022190159747854144,2.1414665037914773,-0.3597209594218184,-0.0007311055076428569,0.0001788178131140065,0.001750294930678019,-0.00022687613985034985,0.0004887185439432967,0.0004315741372843136,0.0004557531729187687,-0.31633941582545777,0.07737203720711619,0.757328826147237,-0.09816622196758763,0.21146187120452245,0.1867362631613319,0.1971982032340948
0.024004800960192037,0.40789565638666864,-0.1614715721247661,0.3109215080421528,0.000423456485167301,-0.9238160998960825,-0.3828362598581928,-0.0001799866298419063,0.00019388162216121596,0.00046799561429236277,-0.00013933991908905317,0.016078594973598943,0.038811192172885464,-0.011555649635893074,-0.00014676194023852373,-5.059372035315065e-06,0.00024068852414686585,-0.3098775175165084,-0.3077314267825596,-0.06453063796998912,-2.4490352651276845,-0.02219005769321664,2.1414665939131696,-0.3597208642510388,-0.0007957420231700232,0.00019462696819908012,0.001905037254844937,-0.0002469340972626256,0.0005319258012047701,0.0004697292983849844,0.0004960459852830131,-0.3298937029282615,0.08068721942460091,0.7897783149788556,-0.1023723786770645,0.2205224396010439,0.19473740622720245,0.20564761209393392
0.02500500100020004,0.40789569680094867,-0.1614714745718748,0.31092147899697303,0.0004234421569998891,-0.9238160902988044,-0.38283628303560846,-0.00017998125043710645,0.00021029031374740487,0.000507603642226978,-0.00015113282863744686,0.016738381985367815,0.04040388911405267,-0.012029880995820799,-0.0001591827243431407,-5.487451215725465e-06,0.00026105874842745705,-0.3098776833875782,-0.30773138621289947,-0.06453024086821704,-2.4490353166006766,-0.022189946814189083,2.141466691827442,-0.3597207608510978,-0.0008630882801971384,0.0002110988867896392,0.002066266805220969,-0.0002678329397251082,0.0005769444261915221,0.0005094840293669907,0.000538027983781791,-0.34343141245805375,0.0839983470079437,0.8221881164579629,-0.10657339104590433,0.22957192646793714,0.20272876349376512,0.21408668690291408
0.02600520104020804,0.4078957405635883,-0.1614713689365567,0.310921447545326,0.00042342664174024294,-0.9238160799063762,-0.3828363081333083,-0.00017997542533506987,0.0002273583861319516,0.0005488033925204681,-0.00016339968108069477,0.01739735654541431,0.04199463731591023,-0.01250353569142206,-0.00017210262525448603,-5.932709772713202e-06,0.00028224757807705943,-0.30987786300134584,-0.3077313422819746,-0.06452981086589363,-2.449035372338293,-0.022189826748647154,2.141466797854077,-0.35972064888429733,-0.0009331409632161638,0.0002282327579604608,0.002233975644351327,-0.00028957163837170686,0.0006237722026020148,0.0005508363730743453,0.0005816971016090222,-0.356952551111491,0.08730542159504968,0.8545582466166137,-0.11076926115220877,0.23861033628168357,0.21071033891407956,0.22251543183556596
0.027005401080216044,0.4078957878064086,-0.16147125490059855,0.31092141359246195,0.00042340989265592436,-0.9238160686874922,-0.38283633522689464,-0.00017996913698726724,0.0002450850268382335,0.0005915929168587985,-0.00017613990002029098,0.018055518596833717,0.043583437630191395,-0.012976614259947086,-0.00018552102625626725,-6.395122807553591e-06,0.0003042540094673029,-0.3098780568988732,-0.30773129485744904,-0.06452934666769557,-2.4490354325084356,-0.02218969713490979,2.1414669123124654,-0.3597205280133527,-0.0010058967580586604,0.0002460277711139685,0.0024081558379882746,-0.0003121491647520348,0.0006724069150301855,0.0005937843731418314,0.0006270512727936998,-0.37045712558522953,0.09060844482382396,0.8868887214868633,-0.11495999107407945,0.24763767351876453,0.21868213644120552,0.2309338510664203
0.028005601120224044,0.4078958386610688,-0.16147113214617684,0.3109213770437463,0.00042339186307213846,-0.9238160566108853,-0.3828363643918772,-0.00017996236786668463,0.00026346942332561903,0.0006359702677808509,-0.00018935290960058894,0.018712868068544258,0.04517029091099091,-0.013449117249839814,-0.00019943731045068123,-6.874665130225666e-06,0.00032707703928177797,-0.30987826562055953,-0.30773124380714906,-0.06452884697988634,-2.4490354972788,-0.022189557611739,2.1414670355216066,-0.3597203979013924,-0.0010813523518957886,0.0002644831159802325,0.0025887994550911303,-0.0003355644908314084,0.0007228463489654475,0.0006383260739950029,0.0006740884321998907,-0.383945142575926,0.09390741833217169,0.9191795571007668,-0.11914558288961806,0.25665394265566144,0.22664416002820273,0.23934194877000795
0.029005801160232048,0.40789589325906483,-0.16147100035585726,0.3109213378046596,0.0004233725063724786,-0.9238160436453264,-0.3828363957036729,-0.0001799551004673726,0.000282510762975322,0.0006819334986807803,-0.0002030381345199706,0.01936940487535008,0.046755198014755354,-0.01392104522068774,-0.00021385086074288736,-7.37131124854966e-06,0.0003507156645126549,-0.3098784897061413,-0.3077311889990629,-0.06452831051031568,-2.449035566816878,-0.022189407818339696,2.141467167800109,-0.3597202582119579,-0.0011595044332383079,0.0002835979826169697,0.002775898567826263,-0.0003598165889908478,0.0007750882907926892,0.0006844595208501831,0.000722806515526734,-0.39741660878023677,0.097202343757998,0.9514307694903794,-0.12332603867692624,0.2656591481688556,0.23459641362813086,0.24773972912085956
0.030006001200240048,0.4078959517317304,-0.16147085921259507,0.3109212957807972,0.00042335177599805946,-0.9238160297596248,-0.3828364292376064,-0.000179947317305067,0.0003022082330763192,0.0007294806638103616,-0.00021719500004196442,0.02002512891800538,0.048338159800270765,-0.014392398743171966,-0.0002287610598255503,-7.885035357374157e-06,0.0003751688824573194,-0.30987872969469277,-0.3077311303013407,-0.06452773596841886,-2.4490356412899543,-0.022189247394359526,2.14146730946619,-0.35972010860900366,-0.001240349691936576,0.00030337156140954313,0.0029694452515670942,-0.00038490443202707605,0.0008291305277922735,0.000732182759714465,0.0007732034593084424,-0.41087153089481815,0.10049322273920798,0.9836423746877562,-0.12750136051410563,0.27465329453482834,0.2425389011940496,0.2561271962935059
0.03100620124024805,0.407896014210236,-0.16147070839973449,0.31092125087786954,0.00042332962544859196,-0.9238160149226285,-0.38283646506890884,-0.00017993900091619832,0.00032256102081133276,0.0007786098182813218,-0.00023182293200631454,0.02068004008327776,0.04991917712865402,-0.014863178399016828,-0.00024416729016345137,-8.415811327809955e-06,0.00040043569071502704,-0.30987898612462633,-0.30773106758229474,-0.06452712206521607,-2.449035720865109,-0.02218907597988867,2.141467460837676,-0.35971994875689667,-0.0013238848191805517,0.00032380304307096287,0.0031694315848940996,-0.00041082699315252044,0.0008849708481400404,0.0007814938373857131,0.000825277200914302,-0.42430991561632675,0.10378005691370679,1.0158143887249524,-0.13167155047925788,0.2836363862300612,0.25047162667901873,0.2645043544624777
0.03200640128025605,0.407896080825591,-0.161470547601009,0.31092120300170234,0.00042330600828095007,-0.9238159991032237,-0.3828365032727196,-0.00017993013385943438,0.0003435683132428747,0.0008293190180676697,-0.0002469213568399981,0.021334138244009523,0.05149825086334103,-0.015333384780939529,-0.00026006893397816886,-8.96361269651447e-06,0.00042651508718356866,-0.30987925953369233,-0.307731000710399,-0.0645264675133118,-2.449035805709215,-0.022188893215459665,2.1414676222320037,-0.3597197783204165,-0.0014101065074997917,0.0003448916186418853,0.003375849649594806,-0.0004375832459953112,0.000942607040907304,0.0008323908014525609,0.000879025678548672,-0.43773176964141897,0.10706284791939956,1.0479468276340231,-0.13583661065048466,0.29260842773103546,0.25839459403609794,0.2728712078023058
0.033006601320264055,0.4078961517086406,-0.1614703765005406,0.31092115205823495,0.00042328087811086646,-0.9238159822703345,-0.382836543924085,-0.00017992069871386308,0.0003652292972993518,0.0008816063200080039,-0.0002624897015681936,0.021987423259181668,0.05307538187007411,-0.01580301849260084,-0.00027646537323283113,-9.528412655024267e-06,0.00045340607005595036,-0.30987955045897986,-0.3077309295542893,-0.06452577102689415,-2.449035895988943,-0.022188698742047246,2.141467793966218,-0.35971959696475514,-0.0014990114507634521,0.0003666364794906133,0.003588691530663792,-0.00046517216459928215,0.0010020368960608538,0.0008848717002944122,0.0009344468312509843,-0.45113709966675125,0.1103415973941914,1.0800397074470236,-0.13999654310588763,0.30156942351423244,0.26630780721834685,0.2812277604875208
0.03400680136027205,0.407896226990068,-0.16147019478284,0.3109210979535221,0.00042325418861214936,-0.9238159643929232,-0.3828365870979587,-0.00017991067807989104,0.00038754315976123805,0.0009354697818078179,-0.00027852739382519976,0.02263989497397755,0.054650571016895716,-0.01627208014855485,-0.0002933559896169367,-1.0110184039134e-05,0.00048110763781709204,-0.3098798594369166,-0.30773085398276323,-0.06452503132173425,-2.449035991870756,-0.02218849220106815,2.1414679763569744,-0.35971940435551675,-0.0015905963441802883,0.0003890368173130964,0.00380794931630269,-0.0004935927234239706,0.0010632582044629551,0.000938934583081441,0.0009915385988957446,-0.46452591238897994,0.11361630697598744,1.1120930441960089,-0.1441513499235684,0.31051937805613355,0.2742112701788253,0.28957401669265354
0.035007001400280055,0.4078963068003938,-0.1614700021328065,0.31092104059373304,0.0004232258935162145,-0.9238159454399915,-0.38283663286920194,-0.00017990005457963875,0.0004105090872473069,0.0009909074620417953,-0.0002950338618653033,0.02329155321984327,0.05622381917413422,-0.01674057037419959,-0.00031074016453123824,-1.0708899318328038e-05,0.0005096187892405409,-0.30988018700326947,-0.3077307738647799,-0.06452424711518556,-2.449036093520913,-0.02218827323438093,2.1414681697205378,-0.35971920015871733,-0.0016848578842986546,0.00041209182413293064,0.004033615097920183,-0.0005228438973446172,0.0011262687578713483,0.000994577499774591,0.0010502989221925305,-0.4778982145047615,0.11688697830269282,1.144106853913034,-0.14830103318162863,0.3194582958332201,0.2821049868705929,0.2979099805922347
0.03600720144028806,0.40789639126997557,-0.16146979823572727,0.3109209798851502,0.0004231959466136542,-0.9238159253805781,-0.3828366813125837,-0.00017988881085547327,0.0004341262662009246,0.0010479174201560863,-0.00031200853457359894,0.023942397814552725,0.05779512721439443,-0.01720848980572685,-0.00032861727907271027,-1.1324530585253524e-05,0.0005389385233851888,-0.30988053369314456,-0.30773068906946016,-0.06452341712618327,-2.449036201105468,-0.0221880414842858,2.141468374372783,-0.35971898404078506,-0.0017817927690065053,0.0004358006923013588,0.004265680970132009,-0.0005529246616521664,0.0011910663489392494,0.0010517985011255769,0.0011107257426859949,-0.4912540127107525,0.12015361301221265,1.1760811526301542,-0.15244559495817,0.32838618132197356,0.28998896124670936,0.3062356563607951
0.03700740148029606,0.40789648052900845,-0.16146958277727808,0.31092091573417147,0.00042316430175232654,-0.9238159041837605,-0.38283673250278,-0.00017987692957191072,0.00045839388287641236,0.0011064977164705842,-0.000329450841476757,0.024592428562268964,0.05936449601254723,-0.01767583909007228,-0.0003469867140195649,-1.1957049545250871e-05,0.0005690658395920295,-0.30988090004098756,-0.30773059946608633,-0.06452254007524363,-2.4490363147902694,-0.022187796593524437,2.141468590629196,-0.3597187556685596,-0.0018813976975313933,0.0004601626144972699,0.004504139030760956,-0.0005838339920532658,0.00125764877121535,0.0011105956386768825,0.001172817002755862,-0.5045933137036093,0.12341621274245207,1.2080159563794246,-0.15658503733129414,0.33730303899887526,0.29786319726023447,0.31455104817286544
0.03800760152030406,0.4078965747075245,-0.16146935544352228,0.31092084804730813,0.0004231309128390482,-0.9238158818186543,-0.38283678651437447,-0.00017986439341391734,0.0004833111233254625,0.0011666464121811808,-0.0003473602127537435,0.025241645253605713,0.06093192644571926,-0.01814261888486728,-0.0003658478498163569,-1.2606427505922665e-05,0.0005999997374808949,-0.309881286580584,-0.30773050492410214,-0.06452161468446334,-2.4490364347409614,-0.022187538205279807,2.141468818804871,-0.35971851470929217,-0.0019836693704404704,0.0004851767837271997,0.004748981380836866,-0.0006155708646702666,0.0013260138191438157,0.0011709669647617623,0.00123657064561693,-0.5179161241799881,0.1266747791313162,1.2399112811929005,-0.16071936237910267,0.3462088733404065,0.30572769886422785,0.3228561602029764
0.03900780156031206,0.4078966739353932,-0.16146911592091123,0.3109207767311861,0.00042309573383855846,-0.9238158582544135,-0.3828368434218584,-0.00017985118508803306,0.0005088771733836238,0.0012283615693620227,-0.00036573607924649155,0.02589004766569001,0.06249741939327988,-0.0186088298583878,-0.00038520006655914224,-1.3272635366756323e-05,0.0006317392169472476,-0.30988169384505965,-0.30773040531311285,-0.06452063967751885,-2.4490365611229827,-0.02218726596317598,2.141469059214515,-0.35971826083064534,-0.0020886044896404887,0.0005108423933253306,0.005000200124596634,-0.0006481342560412235,0.0013961592880642896,0.0012329105325042408,0.00130198461531907,-0.5312224508365457,0.12992931381671016,1.271767143102637,-0.1648485721796973,0.35510368882304877,0.3135824700117493,0.3311509966256589
0.040008001600320066,0.4078967783423206,-0.1614688638962835,0.310920701692544,0.00042305871877447275,-0.9238158334602302,-0.38283690329963094,-0.00017983728732134965,0.0005350912186568425,0.0012916412509677406,-0.0003845778724705191,0.02653763556222463,0.06406097573683303,-0.019074472689505673,-0.0004050427439807146,-1.3955643608794688e-05,0.0006642832781589424,-0.30988212236688045,-0.30773030050288497,-0.06451961377966581,-2.4490366941015687,-0.022186979511277967,2.1414693121724437,-0.35971799370069285,-0.0021961997583777987,0.0005371586369534915,0.005257787369484205,-0.0006815231431198947,0.0014680829742118886,0.0012964243958191127,0.0013690568567472266,-0.5445123003699385,0.1331798184365391,1.303583558140689,-0.1689726688111797,0.3639874899232834,0.32142751465585845,0.3394355616154436
0.04100820164032806,0.4078968880578504,-0.16146859905686542,0.3109206228382344,0.00042301982172845726,-0.9238158074053344,-0.3828369662219983,-0.00017982268286238307,0.000561952444508073,0.0013564835208356887,-0.0004038850246255029,0.027184408693550547,0.06562259636020752,-0.019539548067640102,-0.0004253752614359048,-1.4655422284350636e-05,0.0006976309215530464,-0.30988257267785313,-0.30773019036334626,-0.06451853571773833,-2.449036833841749,-0.022186678494091523,2.1414695779925856,-0.3597177129879196,-0.0023064518812383494,0.0005641247086011573,0.005521735226150577,-0.0007157365032757414,0.0015417826747172049,0.001361506609411942,0.0014377853156214164,-0.5577856794768227,0.1364262946287081,1.3353605423391117,-0.17309165435165141,0.3728602811175917,0.32926283674961504,0.3477098593468611
0.042008401680336066,0.40789700321136313,-0.16146832109027037,0.31092054007522435,0.000422978996840782,-0.9238157800589947,-0.38283703226317434,-0.00017980735448069283,0.0005894600360439436,0.0014228864436881556,-0.0004236569686057993,0.027830366796707546,0.06718228214944275,-0.020004056692706797,-0.0004461969978869474,-1.537194100677524e-05,0.0007317811478326449,-0.30988304530912536,-0.30773007476458575,-0.0645174042201484,-2.4490369805083483,-0.02218636255656298,2.141469856988478,-0.3597174183612211,-0.0024193575641476917,0.0005917398025854508,0.005792035808453806,-0.0007507733142939295,0.0016172561876063077,0.0014281552287790644,0.0015081679384967316,-0.5710425948538549,0.13966874403112237,1.3670981117299608,-0.1772055308792142,0.3817220668824551,0.33708844024607876,0.3559738939944424
0.04300860172034407,0.40789712393207644,-0.16146802968449897,0.31092045331059326,0.00042293619831016593,-0.9238157513905176,-0.38283710149728084,-0.00017979128496689717,0.0006176131781014881,0.0014908480851345742,-0.0004438931380109165,0.028475509595495063,0.068740033992781,-0.020467999275070113,-0.00046750733188892404,-1.6105168940266272e-05,0.0007667329579636702,-0.30988354079118596,-0.30772995357685345,-0.06451621801688527,-2.449037134265988,-0.02218603134407906,2.1414701494732706,-0.3597171094899038,-0.0025349135143709718,0.0006200031135511398,0.006068681233458989,-0.0007866325543753267,0.0016945013118007395,0.001496368310207584,0.001580202672763335,-0.5842830531976915,0.14290716828168695,1.3987962823452906,-0.18131430047196964,0.39057285169435485,0.3449043290983093,0.36422766973271803
0.04400880176035207,0.4078972503490444,-0.16146772452793826,0.310920362451534,0.00042289138039437924,-0.923815721369248,-0.3828371739983473,-0.00017977445713204774,0.0006464110552349338,0.0015603665116737176,-0.00046459296715593954,0.029119836800536283,0.07029585278065625,-0.020931376535493613,-0.0004893056415752697,-1.6855074789729613e-05,0.00080248535317175,-0.3098840596538651,-0.3077298266705607,-0.06451497583951471,-2.4490372952790844,-0.0221856845024667,2.141470455759724,-0.35971678604368457,-0.0026531164405129383,0.0006489138364706395,0.006351663621438287,-0.0008233132021365053,0.0017735158471175194,0.0015661439107753758,0.0016538874666464636,-0.597507061204989,0.146141569018307,1.4304550702171568,-0.18541796520801943,0.39941264002977245,0.3527105072593664,0.3724711907362188
0.04500900180036007,0.4078973825911581,-0.16146740530936243,0.3109202674053523,0.00042284449740953903,-0.9238156899645689,-0.3828372498403104,-0.0001797568538086436,0.0006758528517025607,0.0016314397906958867,-0.0004857558910819037,0.02976334810933886,0.07184973940568232,-0.021394189205090713,-0.000511591304643338,-1.762162679068771e-05,0.0008390373349390608,-0.3098846024263349,-0.30772969391627963,-0.06451367642117846,-2.4490374637118504,-0.022185321677992875,2.1414707761602108,-0.3597164476926905,-0.0027739630525179383,0.0006784711666440119,0.006640975095870908,-0.0008608142366097411,0.0018542975942691423,0.001637480088351085,0.0017292202692064283,-0.6107146255724037,0.1493719478788877,1.4620744913776145,-0.1895165271654652,0.40824143636518934,0.36050697868230985,0.3807044611794756
0.04600920184036807,0.40789752078714625,-0.16146707171793193,0.31092016807946754,0.00042279550373022654,-0.9238156571459009,-0.3828373290970151,-0.00017973845785023026,0.0007059377514536115,0.0017040659904850822,-0.000507381345566121,0.03040604320635469,0.07340169476264559,-0.02185643802527637,-0.0005343636983400508,-1.8404792699235756e-05,0.0008763879050012074,-0.30988516963710927,-0.3077295551847434,-0.06451231849659357,-2.4490376397282936,-0.02218494251736441,2.141471110986714,-0.35971609410745903,-0.0028974500616699163,0.0007086742996989647,0.006936607783443111,-0.0008991346372430126,0.0019368443548635765,0.0017103749015941266,0.0018061990303386115,-0.6239057529965921,0.15259830650133407,1.4936545618587185,-0.19360998842240856,0.41705924517708665,0.3682937473201992,0.388927485237019
0.04700940188037608,0.40789766506557285,-0.16146672344319363,0.3109200643814116,0.0004227443537903778,-0.9238156228827032,-0.3828374118422138,-0.0001797192521307298,0.0007366649381152701,0.001778243180221178,-0.0005294687671324565,0.031047921763040384,0.07495171974849005,-0.022318123747717758,-0.0005576221994476028,-1.9204539782037306e-05,0.0009145360653441013,-0.3098857618140444,-0.3077294103468459,-0.06451090080205173,-2.4490378234922177,-0.022184546667727817,2.141471460550829,-0.35971572495893767,-0.003023574180592419,0.000739522431590853,0.007238553814048212,-0.0009382733839000026,0.0020211539314042683,0.001784826409954686,0.0018848217007734706,-0.6370804501742109,0.15582064652355132,1.5251952976925247,-0.19769835105695127,0.425866070941946,0.3760708171260943,0.3971402670833798
0.048009601920384073,0.4078978155548396,-0.16146636017508054,0.3109199562188283,0.0004226910020824443,-0.9238155871444733,-0.3828374981495666,-0.00017969921954530635,0.0007680335949796922,0.0018539694299820623,-0.0005520175930615565,0.031688983437922445,0.07649981526230802,-0.022779247134285103,-0.0005813661842692416,-2.002083480638194e-05,0.000953480818200873,-0.30988637948433917,-0.30772925927364214,-0.06450942207541864,-2.4490380151672233,-0.022184133776669092,2.1414718251637637,-0.35971533991848353,-0.0031523321232485887,0.0007710147586026776,0.007546805320786573,-0.0009782294568600966,0.0021072241272901363,0.001860832673673718,0.001965086232076534,-0.650238723801916,0.15903896958344454,1.5566967149110873,-0.20178161714719486,0.43466191813624855,0.38383819205305475,0.40534281089308866
0.04900980196039208,0.4078979723831844,-0.16146598160391168,0.3109198434994749,0.0004226354031578782,-0.9238155499007463,-0.38283758809264146,-0.00017967834300984788,0.000800042904991115,0.001931242810745794,-0.0005750272614010267,0.03232922787665645,0.07804598220533443,-0.02323980895700434,-0.0006055950286151101,-2.0853644030278257e-05,0.0009932211660487792,-0.3098870231745351,-0.3077291018363476,-0.0645078810561334,-2.449038214916706,-0.022183703492213557,2.1414722051363366,-0.35971493865786375,-0.0032837206049411705,0.0008031504773450868,0.007861354439965615,-0.0010190018368183842,0.0021950527468155775,0.0019383917537829482,0.002046990576648406,-0.6633805805763642,0.16225327731891886,1.5881588295464617,-0.20585978877124106,0.44344679123647573,0.39159587605414026,0.41353512084067645
0.05001000200040008,0.4078981356786821,-0.1614655874203918,0.3109197261312207,0.00042257751162678823,-0.9238155111210955,-0.3828376817449141,-0.0001796566054613293,0.0008326920507330051,0.002010061394392731,-0.0005984972109755652,0.032968654712083025,0.07959022148092718,-0.02369980999800727,-0.0006303081077881554,-2.170293319259369e-05,0.0010337561116061434,-0.30988769341051675,-0.30772893790633854,-0.06450627648520783,-2.449038422903858,-0.022183255462825676,2.14147260077898,-0.35971452084925465,-0.003417736342312508,0.0008359287847563751,0.008182193311099813,-0.0010605895048856585,0.0022846375951704636,0.002017501712104873,0.002130532687724762,-0.676506027194212,0.16546357136787945,1.6195816576307038,-0.20993286800719152,0.45222069471910903,0.39934387308241065,0.4217172011006739
0.051010202040408084,0.4078983055692432,-0.16146517731561125,0.3109196040220471,0.0004225172821590021,-0.9238154707751323,-0.38283777917976786,-0.00017963398985696403,0.000865980214415281,0.0020904232537076483,-0.0006224268813970412,0.033607263564295664,0.0811325339945654,-0.024159251049483063,-0.0006555047965701132,-2.2568667503249876e-05,0.0010750846578292859,-0.3098883907175122,-0.30772876735515176,-0.06450460710522582,-2.4490386392916674,-0.02218278933740887,2.1414730124017374,-0.3597140861652421,-0.00355437605334454,0.0008693488781024829,0.008509314076910681,-0.0011029914425884151,0.0023759764784401388,0.0020981606112527563,0.0022157105193763506,-0.6896150703521157,0.1686698533682314,1.6509652151958676,-0.21400085693314783,0.4609836330606296,0.4070821870909255,0.42988905584761167
0.05201040208041608,0.4078984821826154,-0.1614647509810459,0.31091947708004736,0.00042245466948282335,-0.9238154288325062,-0.3828378804704945,-0.00017961047917526606,0.0008999065778615965,0.002172326462381862,-0.0006468157130745313,0.03424505404069761,0.08267292065383182,-0.024618132913630637,-0.0006811844692075505,-2.3450811633460907e-05,0.0011172058079095071,-0.3098891156200929,-0.30772859005448466,-0.06450287166034273,-2.4490388642429193,-0.022182304765305336,2.1414734403142655,-0.3597136342788211,-0.003693636457358811,0.0009034099549769984,0.008842708883326805,-0.0011462066318688549,0.0024690672036054274,0.0021803665146306354,0.002302522026508995,-0.7027077167467317,0.17187212495787982,1.6823095182740093,-0.2180637576272117,0.46973561073751907,0.4148108220327446,0.43805068925602064
0.053010602120424084,0.40789866564638183,-0.1614643081085566,0.3109193452134267,0.0004223896283865127,-0.9238153852629047,-0.3828379856902929,-0.00017958605641468187,0.0009344703224966762,0.002255769095015312,-0.0006716631472243025,0.03488202573606304,0.08421138236840847,-0.025076456402609026,-0.0007073464993979813,-2.4349329706012824e-05,0.0011601185652700269,-0.3098898686421743,-0.3077284058761952,-0.06450106889628472,-2.449039097920195,-0.022181801396295886,2.1414738848258326,-0.35971316486339566,-0.0038355142750164583,0.0009381112133011548,0.009182369879483803,-0.0011902340550848799,0.0025639075785426238,0.0022641174864333146,0.00239096516486359,-0.7157839730747164,0.17507038777472986,1.7136145828971834,-0.22212157216748474,0.4784766322262586,0.4225297818609276,0.44620210550043143
0.05401080216043209,0.4078988560879629,-0.16146384839038977,0.31091920833050235,0.0004223221137163421,-0.9238153400360535,-0.3828380949122704,-0.00017956070459571776,0.0009696706293337226,0.002340749227118679,-0.0006969686258797494,0.03551817823259568,0.08574792005006321,-0.025534222338490627,-0.0007339902602760337,-2.5264185285599466e-05,0.001203821933563014,-0.30989065030701596,-0.3077282146923016,-0.06449919756034814,-2.449039340485871,-0.022181278880599745,2.141474346245322,-0.35971267759277875,-0.003980006228318223,0.0009734518513238332,0.009528289217724362,-0.0012350726950100975,0.0026604954120235023,0.0023494115916463704,0.002481037891016104,-0.7288438460327263,0.17826464345668663,1.744880425097445,-0.2261743026320686,0.48720670200332955,0.4302390705285343,0.4543433087553748
0.05501100220044009,0.4078990536346142,-0.16146337151917614,0.3109190663397026,0.00042225208037938454,-0.9238152931217157,-0.38283820820944187,-0.0001795344067579248,0.0010055066789618676,0.0024272649351154384,-0.0007227315919012837,0.03615351109999173,0.08728253461263427,-0.02599143155321092,-0.0007611151243997181,-2.6195341369196056e-05,0.0012483149166665495,-0.3098914611372219,-0.30772801637498254,-0.06449725640139882,-2.4490395921021224,-0.02218073686887438,2.141474824881227,-0.35971217214119183,-0.004127109040604446,0.001009431067621561,0.009880459053598214,-0.0012807215348338181,0.0027588285137153112,0.00243624689604615,0.0025727381623775803,-0.741887342317418,0.18145489364165532,1.7761070609068497,-0.23022195109906501,0.4959258245452135,0.43793869198862434,0.46247430319538163
0.05601120224044809,0.4078992584134277,-0.1614628771879317,0.31091891914956726,0.0004221794833410911,-0.9238152444896931,-0.38283832565472997,-0.00017950714596269942,0.001041977651533706,0.0025153142963439475,-0.0007489514889861712,0.03678802389549989,0.08881522697203026,-0.026448084888521763,-0.0007887204637367234,-2.714276037648483e-05,0.0012935965186816698,-0.3098923016547407,-0.3077278107965769,-0.06449524416987151,-2.4490398529309196,-0.022180175012215333,2.141475321041657,-0.359711648183265,-0.004276819436555061,0.0010460480610985114,0.010238871545862142,-0.0013271795581610546,0.002858904694180772,0.0025246214661997675,0.002666063937194132,-0.7549144686254478,0.18464113996754097,1.8072945063574521,-0.23426451964657552,0.5046340043283916,0.44562865019425735,0.4705950929949824
0.05701140228045609,0.4078994705513315,-0.1614623650900564,0.31091876666874746,0.0004221042776268648,-0.9238151941098252,-0.3828384473209656,-0.00017947890529141264,0.0010790827267528674,0.002604895389059499,-0.0007756277616783273,0.03742171616397853,0.09034599804621352,-0.026904183195943072,-0.0008168056496508033,-2.8106404140328372e-05,0.0013396657439293776,-0.3098931723808659,-0.3077275978295839,-0.06449315961776919,-2.44904012313403,-0.02217959296215602,2.141475835034333,-0.35971110539403667,-0.004429134142189608,0.001083302030986505,0.010603518856479985,-0.001374445749012525,0.002960721764878085,0.0026145333694651096,0.002761013174546948,-0.7679252316534719,0.18782338407224872,1.838442777481308,-0.23830201035270182,0.5133312458293453,0.4533089490984932,0.47870568232870814
0.058011602320464095,0.4078996901750896,-0.16146183491933497,0.3109186088060059,0.00042202641832123127,-0.923815141951989,-0.3828385732808877,-0.00017944966784662003,0.001116821083861663,0.0026960062924363745,-0.0008027598553780573,0.03805458743795596,0.09187484875518444,-0.027359727336714205,-0.0008453700528882181,-2.9086233897283268e-05,0.0013865215969477108,-0.3098940738362363,-0.30772737734666283,-0.06449100149866245,-2.4490404028730177,-0.02217899037066757,2.14147636716659,-0.3597105434489535,-0.004584049884867223,0.001121192176845009,0.01097439315062264,-0.0014225190918246496,0.003064277538160924,0.0027059806739908343,0.002857583834352291,-0.7809196380981474,0.19100162759368378,1.869551890310472,-0.2423344252955456,0.522017553524556,0.46097959265439153,0.48680607537108944
0.05901180236047209,0.4078999174113012,-0.16146128636993606,0.31091844547021463,0.00042194586056915577,-0.9238150879861001,-0.38283870360714267,-0.00017941941675045958,0.0011551919016287793,0.0027886450865698678,-0.0008303472163517557,0.038686637237692424,0.09340178002097912,-0.027814718181746308,-0.0008744130435642554,-3.008221027816539e-05,0.0014341630824887663,-0.30989500654083624,-0.307727149220633,-0.06448876856768881,-2.4490406923092443,-0.022178366890158636,2.141476917745376,-0.35970996202387,-0.00474156339328664,0.0011597176985611358,0.011351486596668037,-0.0014713985714495518,0.003169569827278437,0.002798961448716365,0.002955773877361493,-0.7938976946561299,0.19417587216975118,1.9006218608769994,-0.24636176655320846,0.530692931890505,0.46864058481501203,0.49489627629665706
0.060012002400480095,0.4079001523864016,-0.1614607191364122,0.31091827657035787,0.00042186255957456,-0.9238150321821121,-0.3828388383722856,-0.0001793881351464343,0.001194194358337048,0.0028828098524783328,-0.00085838929174155,0.039317865071240965,0.09492679276766287,-0.028269156611575415,-0.0009039339911498002,-3.109429329865854e-05,0.0014825892055158095,-0.3098959710139956,-0.3077269133244739,-0.06448645958155214,-2.4490409916038676,-0.02217772217347522,2.141477487077254,-0.3597093607950488,-0.004901671397486195,0.0011988777963496456,0.011734791366201178,-0.0015210831731550598,0.0032765964463752494,0.0028934737633718997,0.0030555812651609626,-0.8068594080240764,0.1973461194383561,1.9316527052129453,-0.250384036203792,0.5393573854036738,0.47629192953341437,0.5029762892799418
0.0610122024404881,0.40790039522666205,-0.16146013291370023,0.3109181020155296,0.0004217764706014068,-0.9238149745100162,-0.38283897764877856,-0.00017935580619834394,0.0012338276317712612,0.0029784986721051935,-0.0008868855295749065,0.039948270434500686,0.09644988792130307,-0.028723043516312004,-0.0009339322644579856,-3.21224423499712e-05,0.0015317989712003415,-0.3098969677743904,-0.3077266695313248,-0.06448407329852196,-2.4490413009178424,-0.0221770558739005,2.1414780754684,-0.3597087394391599,-0.005064370628843824,0.0012386716707529462,0.012124299634014117,-0.0015715718826247054,0.003385355210491463,0.002989515688478406,0.003157003960172182,-0.8198047848986433,0.20051237103740366,1.9626444393503653,-0.2544012363253981,0.5480109185405437,0.4839336307626584,0.5110461184954743
0.0620124024804961,0.4079006460581885,-0.16145952739711986,0.31091792171493426,0.00042168754897384643,-0.9238149149398412,-0.3828391215089927,-0.00017932241309004222,0.0012740908992060493,0.003075709628320939,-0.000915835378774174,0.040577852811279146,0.09797106640997005,-0.02917637979559483,-0.0009644072316308992,-3.316661618953977e-05,0.0015817913849191859,-0.309897997340043,-0.3077264177144851,-0.06448160847843283,-2.4490416204119216,-0.022176367645154633,2.1414786832246047,-0.359708097633281,-0.005229657820077055,0.0012790985226410886,0.012520003578105942,-0.0016228636859577214,0.0034958439355626497,0.003087085295347618,0.003260039925651702,-0.8327338319764868,0.20367462860479896,1.9935970793213136,-0.2584133689961281,0.556653535777596,0.49156569245580367,0.5191057681177854
0.0630126025205041,0.4079009050069225,-0.16145890228237458,0.31091773557788643,0.00042159575007582836,-0.9238148534416545,-0.38283927002520646,-0.00017928793902601104,0.0013149833373938195,0.0031744408049251337,-0.0009452382891660962,0.04120661167335521,0.09949032916372842,-0.02962916635854487,-0.0009953582601263623,-3.4226772931772453e-05,0.0016325654522516336,-0.30989906022832214,-0.30772615774741374,-0.06447906388268372,-2.4490419502466545,-0.022175657141394592,2.1414793106512717,-0.3597074350548971,-0.005397529705243027,0.0013201575532117743,0.012921895379682816,-0.001674957569669047,0.0036080604384198644,0.0031861806560820457,0.003364687125691154,-0.8456465559542635,0.20683289377844716,2.0245106411578466,-0.26242043629408385,0.5652852415913121,0.49918811856591,0.5271552423214059
0.0640128025605121,0.40790117219864114,-0.16145825726555113,0.31091754351381073,0.00042150102935140235,-0.9238147899855609,-0.3828394232696069,-0.00017925236723118537,0.0013565041225527597,0.003274690286648396,-0.0009750937114912637,0.04183454648053523,0.10100767711462301,-0.030081404123714472,-0.0010267847167047756,-3.530287003884313e-05,0.0016841201789765479,-0.30990015695594353,-0.30772588950372964,-0.06447643827423732,-2.4490422905823883,-0.02217492401721398,2.141479958053421,-0.3597067513819005,-0.005567983019738466,0.001361847963990348,0.013329967223157935,-0.001727852520689323,0.00372200253678963,0.003286799843574963,0.003470943525217234,-0.8585429635286297,0.20998716819625338,2.0553851408920183,-0.26642244029736695,0.5739060404581734,0.506800913046037,0.5351945452808663
0.0650130026005201,0.4079014477589567,-0.16145759204311935,0.3109173454322417,0.0004214033423044037,-0.9238147245417033,-0.38283958131428847,-0.0001792156809511348,0.00139865243035489,0.0033764561591543797,-0.0010054010974135251,0.04246165668071082,0.10252311119667033,-0.0305330940190417,-0.0010586859674160127,-3.639486431154457e-05,0.0017364545710695208,-0.3099012880389699,-0.30772561285721134,-0.06447373041761949,-2.4490426415792665,-0.02217416792764285,2.141480625735686,-0.35970604629259023,-0.005741014500299706,0.0014041689568298032,0.01374421129615156,-0.0017815475263648949,0.00383766804929395,0.003388940931510418,0.003578807089991718,-0.871423061396242,0.2131374534961227,2.086220594555884,-0.27041938308407903,0.5825159368546612,0.5144040798492445,0.5432236811706975
0.06601320264052811,0.40790173181331607,-0.16145690631193163,0.3109171412428233,0.0004213026444994469,-0.9238146570802624,-0.38283974423125416,-0.00017917786345117962,0.0014414274359141814,0.0034797365090417365,-0.001036159899529347,0.04308794170991451,0.10403663234583721,-0.030984236981802523,-0.0010910613775864163,-3.75027118801512e-05,0.0017895676347000154,-0.3099024539928113,-0.3077253276817969,-0.06447093907891846,-2.449043003397231,-0.02217338852814754,2.141481314002315,-0.35970531946567247,-0.005916620885002676,0.0014471197339107793,0.014164619789491005,-0.0018360415744578106,0.003955054795450301,0.0034926019943632277,0.0036882757866114526,-0.8842868562537568,0.21628375131596037,2.1170170181815,-0.2744112667323218,0.591114935257257,0.5219976229285921,0.5512426541654304
0.06701340268053611,0.4079020244870016,-0.1614561997692233,0.3109169308553086,0.00042119889156134755,-0.9238145875714568,-0.3828399120924153,-0.000179138898017159,0.001484828313774719,0.003584529423846054,-0.0010673695713771302,0.04371340099238743,0.10554824150004458,-0.03143483395856355,-0.001123910311805828,-3.862636819536823e-05,0.0018434583762285458,-0.30990365533222547,-0.3077250338515842,-0.06446806302578437,-2.4490433761960215,-0.022172585474630465,2.1414820231571716,-0.35970457058025984,-0.006094798913262906,0.0014906994977415614,0.014591184897210627,-0.001891333653145822,0.004074160595671634,0.003597781107398979,0.003799347582508356,-0.8971343547978305,0.21942606329367137,2.1477744278009196,-0.2783980933201969,0.599703040142442,0.5295815462371396,0.5592514684395955
0.0680136027205441,0.40790232590512987,-0.16145547211261208,0.31091671417956046,0.00042109203917542747,-0.9238145159855428,-0.38284008496959054,-0.00017909876795501174,0.0015288542378989562,0.0036908329920418257,-0.0010990295674464742,0.04433803394063556,0.1070579395991548,-0.03188488590513325,-0.0011572321339146743,-3.976578801930322e-05,0.0018981258022038611,-0.3099048925713179,-0.30772473124083033,-0.0644651010274285,-2.4490437601351744,-0.02217175842342997,2.1414827535037335,-0.35970379931587165,-0.006275545325835524,0.0015349074511580827,0.015023898816551844,-0.0019474227510223848,0.004194983271266379,0.00370447634667403,0.003912020445949423,-0.9099655637251196,0.22256439106716092,2.1784928394462,-0.2823798649258059,0.6082802559866979,0.5371558537279466,0.5672501281677238
0.0690138027605521,0.40790263619265243,-0.16145472304009773,0.31091649112555025,0.0004209820430875334,-0.9238144422928146,-0.38284026293450735,-0.0001790574565909141,0.00157350438165599,0.0037986453030443637,-0.0011311393431873967,0.04496183995548032,0.10856572758495445,-0.032334393786517354,-0.0011910262069911685,-4.092092541648287e-05,0.0019535689193601264,-0.30990616622354245,-0.307724419723952,-0.06446205185462271,-2.449044155374025,-0.022170907031320127,2.1414835053450947,-0.35970300535243344,-0.006458856864815256,0.0015797427973239212,0.01546275374796312,-0.002004307857096657,0.004317520644438437,0.0038126857890355063,0.004026292346036717,-0.9227804897322804,0.2256987362743341,2.2091722691493945,-0.28635658362725047,0.6168465872665055,0.5447205493540729,0.5752386375243457
0.07001400280056011,0.40790295547435584,-0.16145395225006276,0.3109162616033589,0.0004208688591036579,-0.9238143664636043,-0.38284044605880085,-0.00017901494727181802,0.0016187779178099169,0.0039079644472117345,-0.001163698355019509,0.045584818426122865,0.1100716064011474,-0.032783358576869356,-0.0012252918933385146,-4.209173374493131e-05,0.002009786734614157,-0.3099074768017013,-0.30772409917552523,-0.06445891427969873,-2.4490445620717045,-0.022170030955510567,2.141484278983964,-0.359702188370277,-0.00664473027363643,0.0016252047397303032,0.015907741895099976,-0.0020619879607935016,0.004441770538287188,0.0039224075121213064,0.00414216125270738,-0.9355791395159695,0.22882910055309605,2.2398127329425592,-0.29032825150263236,0.6254020384583466,0.5522756370685781,0.5832170006839921
0.07101420284056811,0.4079032838748604,-0.16145315944127087,0.3109160255231749,0.00042075244309148157,-0.9238142884682816,-0.3828406344140149,-0.0001789712233637158,0.0016646740185082358,0.0040187885158466585,-0.0011967060603411354,0.04620696873020198,0.11157557699333813,-0.033231781259443094,-0.001260028554472238,-4.327816564727704e-05,0.0020667782550626143,-0.3099088248179451,-0.30772376947028535,-0.06445568707654756,-2.449044980387144,-0.022169129853646302,2.1414850747226657,-0.3597013480501401,-0.006833162297072974,0.0016712924821961005,0.016358855464824986,-0.002120462051953484,0.0045677307768074845,0.004033639594360099,0.004259625136733625,-0.9483615197728432,0.23195548554135192,2.270414246857749,-0.29429487063005316,0.6339466140387027,0.5598211208245221,0.5911852218211939
0.07201440288057612,0.40790362151862114,-0.16145234431286792,0.31091578279529636,0.0004206327509787093,-0.9238142082772544,-0.3828408280716008,-0.00017892626825355475,0.0017111918552703209,0.004131115601198411,-0.001230161917538395,0.046828290233855346,0.11307764030903848,-0.03367966282654766,-0.0012952355511075225,-4.448017304190758e-05,0.0021245424879792734,-0.3099102107837739,-0.30772343048312695,-0.06445236902061882,-2.449045410479072,-0.022168203383807535,2.14148589286314,-0.3597004840731663,-0.007024149681238411,0.0017180052288678315,0.01681608666720777,-0.0021797291208328733,0.004695399184889656,0.004146380114971319,0.004378681969722733,-0.9611276371995581,0.2350778928770068,2.300976826927019,-0.29825644308761445,0.6424803184840546,0.5673570045749644,0.5991433051104816
0.07301460292058412,0.4079039685299273,-0.1614515065643811,0.31091553333012867,0.000420509738754296,-0.9238141258609678,-0.3828410271029186,-0.0001788800653480693,0.0017583305989759465,0.0042449437964647355,-0.0012640653859942307,0.04744878229177081,0.11457779729763919,-0.03412700427949961,-0.001330912243146657,-4.569770711418484e-05,0.0021830784408122623,-0.30991163521003656,-0.3077230820891037,-0.0644489588889201,-2.449045852506014,-0.0221672512045095,2.141486733706943,-0.3596995961209049,-0.0072176891735858655,0.0017653421842196613,0.017279427715525004,-0.002239788158103642,0.004824773588319506,0.004260627153965175,0.004499329724117067,-0.9738774984927704,0.23819632419796585,2.331500489182425,-0.302212970953418,0.6510031562708842,0.5748832922729648,0.6070912547263861
0.07401480296059212,0.4079043250329021,-0.1614506458957189,0.31091527703818556,0.00042038336246854094,-0.9238140411899051,-0.38284123157923666,-0.00017883259807372214,0.0018060894198538625,0.004360271195793689,-0.0012984159260973943,0.048068444247247454,0.11607604891040188,-0.03457380662857533,-0.0013670579896665185,-4.693071830768041e-05,0.002242385121181304,-0.3099130986069317,-0.30772272416342844,-0.06444545546001633,-2.4490463066262955,-0.022166272974702254,2.1414875975552468,-0.3596986838753108,-0.007413777522908064,0.0018133025530534023,0.017748870826260428,-0.0023006381548534675,0.004955851813778318,0.004376378792142648,0.004621566373194059,-0.9866111103491367,0.24131078114213422,2.3619852496560214,-0.30616445630556544,0.6595151318756727,0.5823999878715831,0.6150290748434383
0.07501500300060011,0.40790469115150274,-0.16144976200717137,0.31091501383008924,0.0004202535782320968,-0.9238139542345873,-0.38284144157173083,-0.00017878384987770436,0.0018544674874704415,0.004477095894285539,-0.0013332129992513814,0.04868727543225627,0.11757239610046387,-0.03502007089296291,-0.0014036721489061334,-4.8179156315482016e-05,0.002302461536875043,-0.3099146014840077,-0.307722356581473,-0.06444185751402914,-2.449046772998038,-0.022165268353770532,2.141488484708839,-0.35969774701874396,-0.0076124114793373245,0.0018618855404985116,0.01822440821910481,-0.002362278102585728,0.005088631688842843,0.0044936331110954795,0.004745389891066211,-0.9993284794653134,0.24442126534741695,2.3924311243798635,-0.31011090122215834,0.6680162497749014,0.5899070953238787,0.6229567696361685
0.07601520304060812,0.40790506700952,-0.16144885459940897,0.3109147436165687,0.0004201203422177498,-0.9238138649655728,-0.38284165715148555,-0.00017873380422636192,0.001903463970718375,0.004595415987994617,-0.0013684560678833202,0.04930527516748876,0.11906683982280344,-0.0354657981007188,-0.0014407540782543173,-4.944297007152595e-05,0.0023633066958482834,-0.3099161443501627,-0.30772197921876837,-0.06443816383263622,-2.449047251779163,-0.022164237001533547,2.1414893954681244,-0.3596967852339698,-0.007813587794345572,0.001911090352012095,0.018706032116955998,-0.002424706993219507,0.0052231110419853136,0.0046123881932061935,0.0048707982526811034,-1.012029612537957,0.24752777845171922,2.4228381293860064,-0.3140523077812984,0.6765065144450516,0.5974046185829117,0.6308743432791077
0.07701540308061612,0.40790545273057904,-0.16144792337348324,0.3109144663084606,0.0004199836106591663,-0.9238137733534584,-0.38284187838949385,-0.00017868244460642939,0.001953078037805419,0.004715229573931146,-0.001404144595452819,0.049922442762424905,0.12055938103424464,-0.03591098928871919,-0.0014783031342373355,-5.072210774197637e-05,0.0024249196062193345,-0.3099177277136454,-0.3077215919510041,-0.06443437319907064,-2.44904774312739,-0.022163178578244805,2.141490330133124,-0.3596957982041587,-0.00801730322074433,0.001960916193378904,0.019193734745918872,-0.0024879238190895917,0.005359287702573437,0.004732642121648076,0.004997789433821388,-1.0247145162637241,0.2506303220929462,2.4532062807065054,-0.3179886780610873,0.6849859303626049,0.6048925616017417,0.6387817999467869
0.07801560312062412,0.40790584843813765,-0.16144696803082625,0.31091418181670877,0.0004198433398516729,-0.9238136793688777,-0.3828421053566564,-0.00017862975452422747,0.002003308856243225,0.004836534750063106,-0.0014402780464607585,0.050538777515388586,0.12205002069345461,-0.036355645502611285,-0.0015163186725066745,-5.2016516716663595e-05,0.0024872992762672956,-0.30991935208205507,-0.307721194654029,-0.06443048439812027,-2.449048247200237,-0.02216209274459195,2.1414912890034756,-0.3596947856128857,-0.008223554512684717,0.0020113622707113353,0.019687508335305366,-0.002551927572946471,0.005497159500870392,0.0048543929803851835,0.0051263614111047885,-1.0373831973392706,0.25372889790900294,2.4835355943734156,-0.3219200141396267,0.6934545020040425,0.6123709283334282,0.6466791438137364
0.07901580316063213,0.4079062542554877,-0.16144598827325052,0.31091389005236475,0.0004196994861519396,-0.9238135829825028,-0.38284233812378254,-0.00017857571750630227,0.002054155592836196,0.004959329615318055,-0.0014768558864580415,0.05115427871359699,0.12353875976091029,-0.03679976779677008,-0.0015548000478268422,-5.33261436005527e-05,0.002550444714429431,-0.3099210179623416,-0.30772078720385027,-0.06442649621612707,-2.4490487641550196,-0.02216097916169656,2.141492272378433,-0.35969374714413066,-0.00843233842565745,0.0020624277904494346,0.020187345117634474,-0.0026167172479563384,0.005636724268034836,0.004977638854172344,0.005256512161984101,-1.0500356624612532,0.2568235075377946,2.513826086418792,-0.32584631809501813,0.7019122338458458,0.619839722731031,0.6545663790544871
0.08001600320064013,0.40790667030575406,-0.16144498380294872,0.310913590926586,0.000419552005978626,-0.9238134841650433,-0.3828425767615899,-0.00017852031709857943,0.002105617413670419,0.005083612269584927,-0.0015138775820542987,0.05176894563322428,0.12502559919890444,-0.03724335723424973,-0.0015937466140632682,-5.465093420527114e-05,0.002614354929298462,-0.30992272586080627,-0.30772036947663406,-0.06442240744098654,-2.4490492941488533,-0.02215983749111398,2.141493280556868,-0.359692682482278,-0.008643651716492853,0.002114111959360893,0.02069323732863225,-0.002682291837701093,0.005777979836120904,0.005102377828555162,0.005388239664747201,-1.062671918326329,0.25991415261722634,2.54407777287469,-0.3297675920053634,0.7103591303644962,0.62729894874761,0.6624435098435698
0.08101620324064814,0.40790709671189457,-0.16144395432249325,0.3109132843506368,0.00041940085581215357,-0.9238133828872463,-0.3828428213407042,-0.0001784635368669486,0.0021576934841026447,0.005209380813715864,-0.001551342600926541,0.052382777539457206,0.1265105399715291,-0.03768641488673628,-0.0016331577241702321,-5.5990833540648516e-05,0.0026790289296199886,-0.30992447628310144,-0.30771994134870506,-0.06441821686214699,-2.449049837338652,-0.02215866739483315,2.141494313837269,-0.3596915913121163,-0.008857491143360841,0.002166413984541047,0.021205177207231782,-0.002748650336178333,0.0059209240380782005,0.005228607989869999,0.005521541898517029,-1.0752919716311533,0.2630008347852032,2.574290669773165,-0.33368383794876405,0.7187951960364751,0.6347486103362248,0.6703105403555153
0.08201640328065612,0.40790753359670007,-0.1614428995348367,0.310912970235888,0.0004192459921949526,-0.9238132791198964,-0.3828430719316594,-0.000178405360396757,0.0022103829687493332,0.005336633349527985,-0.0015892504118277713,0.05299577368655679,0.12799358304467187,-0.038128941834506665,-0.0016730327301788784,-5.734578580634045e-05,0.002744465724289767,-0.3099262697342313,-0.30771950269654663,-0.06441392327060894,-2.449050393881128,-0.022157468535276403,2.141495372517741,-0.35969047331883847,-0.009073853465770929,0.0022193330734128804,0.021723156995573208,-0.0028157917378013615,0.006065554707751806,0.005356327425243995,0.0056564168432516,-1.087895829072383,0.2660835556796304,2.604464793146271,-0.33759505800332174,0.7272204353382637,0.642188711449935,0.6781674747648542
0.08301660332066413,0.40790798108279486,-0.16144181914331135,0.3109126484938167,0.0004190873717309484,-0.9238131728338165,-0.3828433286048979,-0.00017834577129375068,0.0022636850314757583,0.005465367979805208,-0.0016276004845955543,0.053607933317903,0.12947472938599525,-0.03857093916637361,-0.0017133709831852755,-5.87157343834889e-05,0.0028106643223512074,-0.3099281067185519,-0.30771905339680056,-0.06440952545892445,-2.4490509639327924,-0.022156240575299312,2.141496456896008,-0.3596893281880414,-0.00929273544457224,0.0022728684337270265,0.022247168939003754,-0.0028837150373991895,0.006211869679882285,0.0054855342225950616,0.0057928624797440095,-1.1004834973466748,0.26916231693841297,2.634600159026064,-0.34150125424713823,0.7356348527463437,0.6496192560418003,0.6860143172461174
0.08401680336067213,0.40790843929263454,-0.1614407128516283,0.3109123190360052,0.0004189249510873187,-0.9238130639998665,-0.38284359143077046,-0.00017828475318213584,0.0023175988353851392,0.0055955828082999755,-0.0016663922901605185,0.05421925566606112,0.13095397996492872,-0.03901240797964328,-0.0017541718333385732,-6.0100621826395494e-05,0.0028776237329926815,-0.3099299877397715,-0.3077185933262671,-0.06440502222119655,-2.4490515476499564,-0.022154983178190493,2.1414975672694103,-0.35968815560572576,-0.009514133841953484,0.00232701927356176,0.022777205286077656,-0.0029524192302165246,0.006359866790105667,0.005616226470631874,0.0059308767896224185,-1.113054983150685,0.2722371201994562,2.6646967834445996,-0.34540242875831506,0.744038452737196,0.6570402480648806,0.6938510719738354
0.08501700340068014,0.4079089083485089,-0.16143958036387862,0.310911981774143,0.00041875868699207665,-0.9238129525889444,-0.38284386047953606,-0.00017822228970721112,0.0023721235428078805,0.005727275939735065,-0.0017056253005548409,0.05482973995283918,0.13243133575266364,-0.03945334938007397,-0.0017954346298291713,-6.15003898542868e-05,0.002945342965544974,-0.30993191330095066,-0.307718122361905,-0.0644004123530785,-2.449052145188728,-0.022153696007671437,2.1414987039349067,-0.35968695525829586,-0.009738045421442977,0.0023817848013230054,0.02331325828855622,-0.003021903311913782,0.00650954387495346,0.0057484022588538825,0.006070457755350063,-1.12561029318107,0.27530796710066496,2.694754682433932,-0.34929858361495386,0.7524312397873023,0.6644516914722354,0.7016777431225392
0.08601720344068814,0.4079093883725386,-0.16143842138453177,0.31091163662002325,0.00041858853623708583,-0.9238128385719854,-0.38284413582136206,-0.00017815836453233684,0.0024272583152908176,0.005860445479805303,-0.0017452989889206664,0.055439385389335905,0.13390679772214187,-0.03989376448182262,-0.0018371587208770267,-6.291497934307177e-05,0.0030138210294786937,-0.3099338839045028,-0.30771764038083105,-0.06439569465177322,-2.4490527567050178,-0.02215237872789632,2.1414998671890735,-0.35968572683255967,-0.009964466947908639,0.0024371642257443337,0.023855320201407817,-0.0030921662785670804,0.006660898771852653,0.005882059677551308,0.0062116033602252554,-1.1381494341344862,0.27837485927994465,2.724773872026117,-0.3531897208951564,0.7608132183731441,0.6718535902169246,0.7094943348667595
0.08701740348069614,0.4079098794866775,-0.16143723561843648,0.31091128348554586,0.0004184144556759665,-0.9238127219199626,-0.38284441752632425,-0.00017809296134123465,0.0024830023135865523,0.005995089535179349,-0.0017854128295184861,0.05604819117600813,0.13538036684803723,-0.040333654407400485,-0.001879343453719923,-6.434433031719377e-05,0.0030830569344017286,-0.3099359000521943,-0.3077171472603206,-0.06439086791603263,-2.4490533823545317,-0.02215103100345183,2.1415010573281044,-0.3596844700157284,-0.010193395187557977,0.002493156755886962,0.02440338328280785,-0.0031632071266682405,0.006813929319125702,0.006017196817805137,0.006354311588381378,-1.1506724127075902,0.2814377983752003,2.7547543682532094,-0.35707584267702425,0.7691843929712024,0.6792459482520078,0.717300851381027
0.08801760352070415,0.4079103818127111,-0.16143602277082006,0.31091092228271566,0.00041823640222482495,-0.9238126026038865,-0.3828447056644065,-0.00017802606383722166,0.002539354697642834,0.006131206213501377,-0.0018259662977354674,0.05665615650271441,0.13685204410674975,-0.04077302028762989,-0.0019219881746019027,-6.578838194149644e-05,0.003153049690056654,-0.3099379622451447,-0.3077166428778071,-0.064385930946157,-2.4490540222927777,-0.022149652499356992,2.141502274647813,-0.35968318449541636,-0.010424826907938103,0.0025497616011397515,0.024957439794138774,-0.0032350248531247856,0.00696863335599054,0.006153811771487128,0.006498580424786883,-1.163179235597038,0.28449678602433687,2.784696187147264,-0.360956951038659,0.7775447680579587,0.6866287695305446,0.7250972968398722
0.08901780356071214,0.40791089547225684,-0.16143478254728816,0.310910552923641,0.0004180543328630269,-0.9238124805948057,-0.3828450003055015,-0.00017795765574259192,0.002596314626591981,0.0062687936233928486,-0.001866958870093746,0.05726328054877919,0.1383218304764045,-0.04121186326159478,-0.0019650922287616983,-6.724707251313383e-05,0.003223798306318259,-0.3099400709838271,-0.307716127110882,-0.06438088254399428,-2.449054676675062,-0.022148242881062978,2.14150351944363,-0.35968186995964097,-0.010658758877935734,0.002606977971219215,0.025517481999990124,-0.0033076184552599465,0.007125008722560584,0.006291902631259813,0.006644407855245306,-1.1756699094994865,0.28755182386525974,2.814599344740337,-0.3648330480581624,0.7858943481098944,0.694002058005595,0.7328836754178263
0.09001800360072014,0.4079114205867635,-0.16143351465382458,0.31091017532053633,0.00041786820463286437,-0.9238123558638056,-0.3828453015194098,-0.00017788772079898582,0.0026538812587403923,0.006407849874454186,-0.001908390024258657,0.057869562483049176,0.13978972693681843,-0.04165018447659812,-0.0020086549604212555,-6.872033945354121e-05,0.0032953017931909388,-0.30994222676806843,-0.30771559983729485,-0.06437572151293953,-2.449055345656491,-0.02214680181445294,2.141504792010605,-0.3596805260968225,-0.010895187867777177,0.002664805076169508,0.026083502168158454,-0.0033809869308126534,0.007283053259844715,0.006431467490576489,0.006791791866395246,-1.188144441111592,0.2906029135358739,2.844463857064483,-0.36870413581363615,0.7942331376034911,0.7013658176302185,0.7406599912894198
0.09101820364072814,0.40791195727751195,-0.16143221879679145,0.31090978938571956,0.00041767797463933764,-0.9238122283820097,-0.3828456093758407,-0.00017781624276776733,0.0027120537515580795,0.0065483730772664854,-0.0019502592390469422,0.058475001463945825,0.14125573446951675,-0.04208798508811211,-0.0020526757127743017,-7.020811930042413e-05,0.00336755916080626,-0.3099444300970496,-0.3077150609349533,-0.06437044665793425,-2.4490560293919694,-0.022145328965841822,2.1415060926434055,-0.35967915259578376,-0.011134110649028344,0.0027232421263624334,0.02665549256964739,-0.003455129277937542,0.0074427648097472945,0.006572504443681227,0.006940730445710379,-1.200602837130011,0.29365005667408456,2.874289740151757,-0.37257021638318183,0.8025611410152298,0.7087200523574749,0.7484262486291835
0.09201840368073615,0.4079125056656143,-0.1614308946829286,0.31090939503161363,0.0004174836000505331,-0.923812098120579,-0.382845923944412,-0.00017774320542966892,0.002770831261668284,0.00669036134339322,-0.001992565994434881,0.05907959663951825,0.14271985405769905,-0.0425252662597359,-0.00209715382797499,-7.171034769984028e-05,0.0034405694194204247,-0.3099466814693059,-0.3077145102819228,-0.06436505678546568,-2.4490567280362026,-0.022143824001976186,2.14150742163632,-0.35967774914575024,-0.011375523994594742,0.0027822883324974406,0.027233445478667604,-0.003530044495204949,0.007604141215068159,0.006715011585608865,0.007091221581499453,-1.2130451042513997,0.2966932549177967,2.9040770100342135,-0.376431291844901,0.8108783628215919,0.7160647661404237,0.756182451611648
0.09301860372074415,0.40791306587201376,-0.16142954201935353,0.310908992170744,0.00041728503809837926,-0.9238119650507117,-0.38284624529464933,-0.0001776685925840933,0.002830212944837116,0.0068338127853818835,-0.002035309771566414,0.05968334714750892,0.14418208668623986,-0.04296202916314771,-0.0021420886471266174,-7.322695939824576e-05,0.003514331579411778,-0.30994898138272714,-0.3077139477564268,-0.06435955070356625,-2.4490574417436957,-0.02214228659003403,2.1415087792832534,-0.3596763154363496,-0.011619424678721483,0.0028419429056016268,0.02781735317263682,-0.0036057315816009194,0.007767180319502622,0.006858987012185014,0.007243263262906292,-1.2254712491724147,0.29973250990491557,2.933825682743909,-0.38028736427689547,0.819184807499059,0.7233999629321248,0.7639286044113442
0.09401880376075215,0.40791363801748465,-0.1614281605135613,0.3109085807157417,0.00041708224607764723,-0.923811829143644,-0.38284657349598733,-0.00017759238805035478,0.0028901979559633017,0.0069787255167656995,-0.0020784900527611766,0.06028625211539724,0.14564243334167903,-0.04339827497805773,-0.002187479510270365,-7.475788823466632e-05,0.0035888446512783462,-0.3099513303345581,-0.30771337323684633,-0.06435392722181286,-2.449058170668753,-0.022140716397624605,2.141510165877732,-0.3596748511576117,-0.011865809476993274,0.0029022050570297344,0.028407207932179827,-0.0036821895365271974,0.00793187996764147,0.007004428820026053,0.007396853479909792,-1.2378812785897126,0.3027678232733463,2.963535774312898,-0.3841384357572668,0.8274804795241123,0.730725646685638,0.7716647112028029
0.09501900380076016,0.4079142222226318,-0.1614267498734241,0.3109081605793389,0.0004168751813471078,-0.9238116903706494,-0.3828469086177687,-0.0001775145756663943,0.0029507854490679105,0.007125097652065242,-0.0021221063215225294,0.06088831066046051,0.1471008950122152,-0.04383400489216802,-0.0022333257563741395,-7.630306713286329e-05,0.0036641076456353696,-0.30995372882139843,-0.30771278660172036,-0.06434818515132631,-2.4490589149654793,-0.022139113092788244,2.1415115817128996,-0.3596733559999686,-0.012114675166334419,0.0029630739984641517,0.02900300204112843,-0.0037594173598012306,0.008098238004970964,0.00715133510653913,0.0075519902233239155,-1.2502751991999494,0.3057991966609939,2.993207300773235,-0.3879845083641166,0.8357653833732331,0.7380418213540227,0.7793907761605546
0.09601920384076815,0.4079148186078913,-0.16142530980719125,0.3109077316743731,0.0004166638013290319,-0.9238115487030387,-0.3828472507292448,-0.00017743513928953337,0.0030119745772842228,0.00727292730679013,-0.0021661580625455127,0.06148952188983697,0.1485574726876812,-0.04426922010112048,-0.0022796267233214686,-7.786242809355859e-05,0.0037401195732128904,-0.30995617733920344,-0.3077121877297454,-0.06434232330477059,-2.4490596747877786,-0.022137476343996185,2.1415130270815204,-0.35967182965425387,-0.01236601852500883,0.003024548941914917,0.029604727786521543,-0.003837414051656175,0.008266252277872845,0.007299703969922169,0.007708671484797711,-1.2626530176997819,0.30882663170576363,3.022840278156977,-0.39182558417554664,0.8440395235229031,0.7453484908903389,0.7871068034591303
0.09701940388077615,0.4079154272935294,-0.16142384002348895,0.31090729391378363,0.00041644806350938203,-0.9238114041121606,-0.38284759989957523,-0.0001773540627963812,0.0030737644928475845,0.007422212597440604,-0.0022106447617247704,0.062089884900555586,0.15001216735953002,-0.044703921808454325,-0.0023263817479004427,-7.943590218669437e-05,0.0038168794448532276,-0.30995867638328406,-0.3077115764997756,-0.06433634049635227,-2.449060450289356,-0.02213580582015038,2.1415145022759785,-0.35967027181170297,-0.012619836332620007,0.003086629099719711,0.03021237745860509,-0.003916178612740883,0.008435920633624326,0.007449533509163858,0.00786689525681529,-1.2750147407858667,0.3118501300455606,3.0524347224961774,-0.39566166526965857,0.8523029044496034,0.7526456592476463,0.7948127972730608
0.09801960392078415,0.4079160483996427,-0.1614223402313202,0.3109068472106126,0.0004162279254385607,-0.9238112565694011,-0.382847956197828,-0.00017727133008202183,0.003136154347085334,0.00757295164150919,-0.0022555659061624213,0.06268939877962379,0.15146498002085831,-0.045138111225561,-0.0023735901657927364,-8.102341954375515e-05,0.0038943862715086538,-0.309961226448307,-0.3077109527908226,-0.0643302355418199,-2.4490612416237156,-0.022134101190583323,2.141516007588277,-0.3596686821639528,-0.012876125370111055,0.003149313684543862,0.030825943350832042,-0.0039957100441199165,0.008607240920398091,0.007600821824043654,0.00802665953269584,-1.2873603751548595,0.31486969331828984,3.0819906498228913,-0.39949275372455384,0.8605555306298153,0.7599333303790042,0.8025087617768764
0.09901980396079216,0.4079166820461581,-0.1614208101400643,0.310906391478005,0.0004160033447303131,-0.9238111060461833,-0.38284831969297994,-0.00017718692506138092,0.003199143290406832,0.007725142557482321,-0.0023009209841758924,0.06328806260406201,0.15291591166635915,-0.04557178957163843,-0.0024212513115626786,-8.262490935012114e-05,0.003972639064238923,-0.30996382802829525,-0.3077103164820556,-0.06432400725846325,-2.4490620489441626,-0.022132362125057866,2.14151754331004,-0.35966706040304164,-0.013134882419764684,0.0032126019093803478,0.03144541775986246,-0.004076007347273537,0.008780210987262312,0.007753567015131793,0.008187962306593624,-1.2996899275034175,0.3178853231618566,3.111508076169175,-0.40331885161833436,0.8687974065400205,0.767211508237473,0.8101947011451082
0.10002000400080016,0.40791732835283206,-0.1614192494594767,0.3109059266292077,0.0004157742790636056,-0.9238109525139687,-0.38284869045391595,-0.00017710083166734065,0.003262730472293458,0.007878783464841908,-0.002346709485305698,0.06388587544095548,0.15436496329231933,-0.046004958073642216,-0.0024693645186464183,-8.424029983744065e-05,0.004051636834208916,-0.30996648161662826,-0.30770966745280104,-0.06431765446511283,-2.449062872403802,-0.022130588293767052,2.1415191097325104,-0.3596654062214088,-0.013396104265203192,0.0032764929875497895,0.032070792985563444,-0.0041570695240977125,0.008954828684180623,0.007907767183789273,0.008350801573497976,-1.312003404528197,0.3208970212141659,3.1409870175670833,-0.40713996102910166,0.8770285366567,0.7744801967761118,0.817870619552287
0.10102020404080816,0.4079179874392514,-0.16141765789968945,0.3109054525775699,0.0004155406861808568,-0.9238107959442553,-0.38284906854942946,-0.00017701303385267428,0.003326915041288743,0.00803387248406696,-0.002392930900323177,0.0644828363475262,0.1558121358966229,-0.04643761796624705,-0.0025179291193410712,-8.586951827609969e-05,0.004131378592686188,-0.30996918770604226,-0.3077090055825428,-0.06431117598213912,-2.4490637121555396,-0.022128779367333925,2.1415207071465527,-0.3596637193118948,-0.013659787691388477,0.0033409861327004546,0.03270206133100911,-0.00423889557690411,0.009131091862012138,0.00806342043216786,0.008515175329233298,-1.324300812925854,0.32390478911312287,3.17042749004867,-0.4109560840349573,0.8852489254563353,0.7817393999479805,0.8255365211729432
0.10202040408081617,0.4079186594248321,-0.1614160351712099,0.31090496923654215,0.00041530252388961473,-0.923810636308579,-0.38284945404822246,-0.00017692351558837177,0.0033916961449885104,0.008190407736635154,-0.0024395847212381923,0.06507894437117077,0.15725743047873517,-0.04686977049179748,-0.0025669444447940374,-8.75124909676863e-05,0.004211863351038649,-0.3099719467886304,-0.3077083307509222,-0.06430457063145197,-2.449064568352081,-0.022126935016811348,2.1415223358426507,-0.3596619993677407,-0.013925929484622051,0.0034060805588082598,0.03333921510248067,-0.004321484508420105,0.009308998372511451,0.0082205248632101,0.008681081570459078,-1.3365821593930454,0.32690862849663277,3.1998295096459928,-0.4147672227140031,0.8934585774154078,0.7889891217061389,0.833192410181608
0.10302060412082417,0.4079193444288195,-0.1614143809849215,0.31090447651967656,0.00041505975006199023,-0.9238104735785129,-0.38284984701890556,-0.00017683226086433572,0.0034570729300310845,0.00834838734502443,-0.002486670441306772,0.06567419854952095,0.15870084803967702,-0.04730141690025978,-0.0026164098249923046,-8.916914323751739e-05,0.004293090120732212,-0.30997475935584307,-0.3077076428377373,-0.06429783723649997,-2.449065441145933,-0.022125054913681837,2.14152399611091,-0.3596602460825885,-0.01419452643254501,0.003471775480176767,0.03398224660946639,-0.004404835321788775,0.009488546068328628,0.008379078580649303,0.008848518294669866,-1.3488474506264274,0.32990854100260064,3.2291930923911045,-0.41857337914434073,0.901657497010399,0.7962293660036467,0.8408382907528118
0.10402080416083216,0.40792004257028824,-0.16141269505208283,0.3109039743406269,0.00041481232263485256,-0.9238103077256677,-0.3828502475299974,-0.00017673925368940548,0.0035230445420875523,0.008507809432714508,-0.002534187555038712,0.06626859791049929,0.16014238958202923,-0.04773255844918141,-0.002666324588751829,-9.083939942720887e-05,0.004375057913328394,-0.30997762589848826,-0.3077069417229438,-0.0642909746222698,-2.4490663306894027,-0.02212313872985737,2.1415256882410554,-0.3596584591504806,-0.014465575324138051,0.0035380701114371845,0.03463114816466155,-0.004488947020568898,0.009669732803009206,0.008539079689009549,0.00901748350019529,-1.3610966933226567,0.3329045282689316,3.2585182543160616,-0.42237455540407165,0.9098456887177901,0.8034601367935635,0.8484741670610855
0.10502100420084017,0.4079207539681422,-0.161410977084328,0.3109034626131474,0.0004145601996100204,-0.9238101387216918,-0.38285065564992565,-0.00017664447809110503,0.003589610125852083,0.008668672124188488,-0.0025821355582051346,0.06686214147237353,0.16158205610992613,-0.04816319640364524,-0.0027166880637069808,-9.252318288729793e-05,0.004457765740482008,-0.3099805469067318,-0.30770622728665425,-0.06428398161528559,-2.4490672371345985,-0.022121186137679213,2.1415274125224344,-0.35965663826585975,-0.014739072949721472,0.0036049636675483648,0.035285912083968494,-0.004573818608734959,0.0098525564309942,0.008700526293605683,0.009187975186200044,-1.3733298941783891,0.3358965919335307,3.2878050114529183,-0.4261707535712976,0.9180231570140623,0.810681438028949,0.8561000432809597
0.10602120424084817,0.4079214787411136,-0.1614092267936661,0.3109029412510931,0.00041430333905451274,-0.9238099665382703,-0.382851071447026,-0.00017654791811557048,0.0036567688250322993,0.00883097354493436,-0.0026305139478460023,0.06745482824381445,0.16301984862902938,-0.04859333203622467,-0.00276749957630007,-9.422041596987216e-05,0.004541212613938856,-0.3099835228700975,-0.30770549940913805,-0.06427685704360828,-2.4490681606334284,-0.02211919680991774,2.1415291692440137,-0.35965478312356874,-0.015015016100955179,0.003672455363796813,0.03594653068649667,-0.004659449090677145,0.01003701480762011,0.008863416500543335,0.009359991352683911,-1.385547059890282,0.3388847336343032,3.3170533798337307,-0.42996197572412026,0.9261899063756974,0.8178932736628631,0.8637159235869654
0.10702140428085617,0.40792221700776393,-0.1614074438924812,0.31090241016842024,0.00041404169910037094,-0.9238097911471262,-0.38285149498954285,-0.0001764495578278611,0.003724519782339712,0.008994711821446547,-0.002679322222277584,0.0680466572239287,0.16445576814652554,-0.04902296662693487,-0.002818758451770904,-9.593102002129587e-05,0.004625397545533405,-0.3099865542774676,-0.30770475797082186,-0.06426959973683494,-2.449069101337602,-0.02211717041977226,2.141530958694383,-0.3596528934188505,-0.015293401570838664,0.003740544415796675,0.036612996294562515,-0.004745837471201347,0.010223105789118895,0.009027748416718892,0.009533530000481733,-1.3977481971549912,0.3418689550091542,3.3462633754905537,-0.4337482239406413,0.9343459412791766,0.8250956476483654,0.871321812153633
0.10802160432086418,0.4079229688864825,-0.16140562809353204,0.31090186927918445,0.00041377523794535083,-0.9238096125200199,-0.3828519263456292,-0.00017634938131120726,0.0037928621394801567,0.009159885081227412,-0.002728559881099872,0.06863762740232873,0.1658898156711103,-0.04945210146319262,-0.002870464014146411,-9.765491537491733e-05,0.004710319547186427,-0.30998964161708276,-0.30770400285228894,-0.06426220852609822,-2.44907005939863,-0.02211510664087082,2.141532781161752,-0.35965096884734776,-0.015574226153711023,0.003809230039489745,0.03728530123368953,-0.004832982755529158,0.010410827232618,0.009193520149819513,0.009708589131263426,-1.4099333126691729,0.34484925769598873,3.3754350144554413,-0.43752950029896226,0.9424912662009809,0.8322885639385154,0.8789177131554935
0.10902180436087218,0.4079237344954867,-0.1614037791099515,0.3109013184975412,0.00041350391385299736,-0.9238094306287485,-0.38285236558334645,-0.00017624737266725736,0.0038617950371443695,0.009326491452788768,-0.002778226425203969,0.06922773775920468,0.16732199221298863,-0.04988073783976886,-0.0029226155862303697,-9.939202134386614e-05,0.004795977630902804,-0.3099927853765428,-0.30770323393427956,-0.0642546822440656,-2.449071034967824,-0.02211300514727005,2.1415346369339523,-0.3596490091051029,-0.015857486645250957,0.003878511451145466,0.037963437832608304,-0.004920883949297877,0.010600176996140345,0.009360729808323132,0.009885166747533989,-1.4221024131294842,0.3478256433327121,3.4045683127604507,-0.4413058068771849,0.9506258856175922,0.8394720264863732,0.8865036307670777
0.11002200440088018,0.40792451395282253,-0.16140189665524712,0.3109007577377467,0.0004132276851518225,-0.9238092454451474,-0.3828528127706645,-0.00017614351601695966,0.003931317614998566,0.009494529065653389,-0.00282832135677941,0.06981698726534835,0.16875229878386167,-0.05030887705874138,-0.002975212489593102,-0.00010114225621389583,0.004882370808769229,-0.30999598604280637,-0.30770245109769057,-0.06424701972493883,-2.449072028196297,-0.022110865613454954,2.141536526298438,-0.35964701388855774,-0.01614317984247676,0.003948387867360925,0.03864739842325645,-0.005009540058560506,0.010791152938604323,0.00952937550149845,0.010063260852633484,-1.4342555052325812,0.3507981135572293,3.4336632864376355,-0.4450771457534109,0.9587498040054916,0.8466460392449983,0.8940795691629161
0.11102220444088817,0.4079253073763636,-0.16139998044330045,0.310900186914156,0.000412946510236632,-0.9238090569410886,-0.3828532679754617,-0.00017603779549915766,0.004001429011675066,0.009663996050356491,-0.002878844179321452,0.07040537488220205,0.17018073639689726,-0.05073652042946125,-0.003028254044561326,-0.00010290553723621594,0.004969498092951875,-0.3099992441021918,-0.3077016542235757,-0.06423921980445325,-2.4490730392349622,-0.02210868771433877,2.1415384495422845,-0.35964498289455354,-0.016431302543746317,0.0040188585050608535,0.03933717534077861,-0.005098950089785746,0.010983752919823796,0.009699455339404936,0.010242869450737048,-1.4463925956751202,0.3537666700074454,3.4627199515190505,-0.4488435190057417,0.9668630258411605,0.8538106061674502,0.9016455325175395
0.11202240448089618,0.40792611488381053,-0.1613980301883667,0.3108996059412227,0.00041266034756871466,-0.923808865088482,-0.38285373126552497,-0.00017593019527068724,0.00407212836476297,0.009834890538447183,-0.0029297943976383323,0.07099289956194292,0.1716073060667473,-0.05116366926849361,-0.0030817395702080665,-0.0001046817806204161,0.005057358495694227,-0.31000256004037696,-0.30770084319314506,-0.06423128131987717,-2.4490740682345358,-0.022106471125262758,2.1415404069521884,-0.3596429158203306,-0.016721851548757133,0.004089922581497637,0.040032760923526534,-0.005189113049858009,0.011177974800508115,0.009870967432892834,0.010423990546854897,-1.458513691153758,0.35673131432126565,3.4917383240367528,-0.45260492871227925,0.9749655556010802,0.860965731206789,0.9092015250054789
0.11302260452090418,0.4079269365926921,-0.161396045605075,0.3108990147335004,0.00041236915567470484,-0.9238086698592743,-0.38285420270855003,-0.0001758206995076315,0.004143414810798952,0.010007210662489986,-0.002981171517858439,0.07157956024752501,0.17303200880951652,-0.051590324899578176,-0.003135668384342505,-0.00010647090152742476,0.00514595102931481,-0.3100059343423997,-0.3077000178877655,-0.06422320311001119,-2.4490751153455337,-0.02210421552199603,2.1415423988144697,-0.3596408123635283,-0.0170148236585463,0.004161579314251299,0.040734147513058996,-0.005280027946077404,0.011373816442262099,0.010043909893603155,0.010606622146832317,-1.4706187983651509,0.35969204813659517,3.5207184200227957,-0.456361376951125,0.9830573977617324,0.8681114183160742,0.9167475508012648
0.11402280456091218,0.40792777262036395,-0.16139402640842773,0.31089841320564116,0.0004120728931481569,-0.9238084712254498,-0.3828546823721406,-0.00017570929240372498,0.00421528748525802,0.010180954556066216,-0.0030329750474374887,0.07216535587271011,0.17445484564275643,-0.052016488653592846,-0.003190039803500031,-0.0001082728140624871,0.00523527470620494,-0.310009367492658,-0.30769917818896025,-0.06421498401518758,-2.449076180718274,-0.022101920580735377,2.1415444254150704,-0.3596386722221849,-0.0173102156754905,0.0042338279212295145,0.0414413274541418,-0.005371693786159745,0.011571275707586037,0.010218280833967678,0.01079076225734966,-1.482707924005955,0.36264887309133903,3.549660255509235,-0.4601128658003806,0.991138556799598,0.8752476714483655,0.9242836140794279
0.11502300460092019,0.40792862308400873,-0.16139197231380079,0.31089780127239497,0.0004117715186487517,-0.9238082691590301,-0.38285517032380917,-0.0001755959581713985,0.004287745522544372,0.010356120353775498,-0.003085204495165625,0.07275028536214397,0.17587581758546528,-0.05244216186849602,-0.003244853142932295,-0.00011008743126821909,0.005325328538826547,-0.31001285997491046,-0.30769832397840896,-0.06420662287726968,-2.449077264502876,-0.022099585978105088,2.1415464870395544,-0.3596364950947371,-0.017608024403306038,0.004306667620667606,0.04215429309474785,-0.005464109578236555,0.011770350459875706,0.010394078367208959,0.010976408885922365,-1.4947810747728272,0.3656017908234024,3.578563846528126,-0.4638593973381478,0.9992090371911586,0.8823744945567227,0.9318097190144992
0.11602320464092819,0.4079294881006356,-0.16138988303694266,0.3108971788486098,0.0004114649909034246,-0.923808063632074,-0.3828556666309771,-0.00017548068104060972,0.004360788055982308,0.010532706191237147,-0.0031378593711744807,0.07333434763140281,0.1772949256580586,-0.05286734588928754,-0.0033001077165973466,-0.00011191466511765655,0.00541611153970992,-0.31001641227227633,-0.3076974551379477,-0.0641981185396512,-2.449078366849262,-0.022097211391156762,2.141548583973109,-0.3596342806800203,-0.017908246647048796,0.004380097631128539,0.04287303678605708,-0.005557274330855053,0.01197103856342235,0.01057130060734032,0.011163560040900935,-1.506838257362424,0.36855080297069037,3.607429209111524,-0.4676009736425282,1.0072688434128956,0.8894918915942054,0.9393258697810093
0.1170234046809362,0.4079303677870804,-0.1613877582939752,0.3108965458492322,0.0004111532687051375,-0.9238078546166776,-0.3828561713609737,-0.00017536344526033603,0.004434414217807178,0.010710710205091616,-0.0031909391869442,0.07391754158704794,0.17871217088237695,-0.05329204206797099,-0.003355802837149726,-0.00011375442650740988,0.005507622721451597,-0.3100200248672359,-0.30769657154956875,-0.06418946984725558,-2.449079487907154,-0.022094796497369146,2.1415507165005443,-0.3596320286772682,-0.018210879213114258,0.0044541171715029235,0.04359755088245643,-0.005651187052978161,0.012173337883412681,0.010749945669165843,0.011352213731470941,-1.518879478471401,0.3714959111711081,3.636256359291483,-0.4713375967916234,1.0153179799412904,0.8965998665138734,0.9468320705534887
0.11802360472094418,0.40793126226000515,-0.1613855978013925,0.3108959021893063,0.0004108363109145338,-0.9238076420849743,-0.3828566845810374,-0.00017524423509693591,0.004508623139156404,0.010890130533001901,-0.0032444434553104227,0.0744998661266743,0.18012755428166524,-0.05371625176350207,-0.003411937815930837,-0.00011560662525078938,0.005599861096712084,-0.31002369824163073,-0.3076956730954207,-0.06418067564653542,-2.4490806278260773,-0.02209234097464793,2.1415528849062926,-0.35962973878611254,-0.01851591890923753,0.004528725461009026,0.04432782774154,-0.005745846753984515,0.012377246285928907,0.010930011668280405,0.011542367967653046,-1.5309047447964157,0.37443711706256066,3.6650453131000598,-0.4750692688635352,1.0233564512528242,0.9036984232687864,0.9543283255064686
0.11902380476095219,0.40793217163589834,-0.16138340127606154,0.3108952477839728,0.0004105140764588702,-0.9238074260091346,-0.38285720635831433,-0.0001751230348353676,0.0045834139500605265,0.011070965313654946,-0.003298371690471204,0.07508132013895773,0.18154107688054827,-0.05413997634173871,-0.003468511962959089,-0.00011747117007104672,0.005692825678213748,-0.31002743287666407,-0.3076947596578081,-0.06417173478547172,-2.449081786755358,-0.0220898445013256,2.14155508947441,-0.3596274107065832,-0.018823362544493284,0.004603921719192749,0.04506385972410884,-0.005841252443668442,0.012582761637948695,0.011111496721069628,0.011734020760302966,-1.542914063034124,0.3773744222829533,3.6937960865693085,-0.4787959919363651,1.0313842618239786,0.910787565812004,0.9618146388144796
0.12002400480096019,0.407933096031074,-0.1613811684352211,0.3108945825484698,0.00041018652433314027,-0.9238072063613668,-0.38285773675986035,-0.00017499982877817007,0.0046587857794343195,0.011253212686762997,-0.0033527234079939,0.0756619025037257,0.18295273970505774,-0.05456321717541056,-0.003525524586920405,-0.00011934796859457315,0.005786515478738676,-0.3100312292529008,-0.30769383111919185,-0.06416264611357336,-2.449082964844125,-0.02208730675616123,2.1415573304885758,-0.35962504413910784,-0.019133206929295807,0.004679705165927646,0.04580563919417109,-0.0059374031322399785,0.012789881807345187,0.011294398944709913,0.011927170121111497,-1.5549074398811822,0.38030782847019096,3.722508695731284,-0.4825177680882147,1.0394014161312346,0.917867298096586,0.9692910146520521
0.1210242048409682,0.40793403556167185,-0.16137889899648208,0.31089390639813247,0.00040985361359953425,-0.9238069831139154,-0.3828582758526389,-0.00017487460124609254,0.004734737755067978,0.011436870793065062,-0.0034074981248220252,0.07624161209198636,0.18436254378258796,-0.054985975644066855,-0.0035829749951585277,-0.00012123692734423291,0.00588092951112644,-0.3100350878502679,-0.3076928873621887,-0.06415340848187637,-2.4490841622413084,-0.022084727418340323,2.1415596082320922,-0.3596226387845117,-0.019445448875399004,0.0047560750214149196,0.04655315851894197,-0.006034297830324868,0.012998604662887015,0.011478716457168444,0.012121814062604519,-1.5668848820342471,0.38323733726217896,3.7511831566180427,-0.48623459939718594,1.0474079186510739,0.9249376240755921,0.9767574571937173
0.1220244048809762,0.4079349903436567,-0.1613765926778274,0.31089321924839214,0.0004095153033882353,-0.9238067562390633,-0.3828588237035222,-0.00017474733657745788,0.004811269003618292,0.011621937774328173,-0.003462695359282034,0.07682044776599574,0.18577049014188718,-0.05540825313403224,-0.003640862493665566,-0.00012313795173265682,0.005976066788272092,-0.31003900914805493,-0.3076919282695714,-0.06414402074294333,-2.4490853790956417,-0.022082106167474618,2.1415619229878855,-0.3596201943440175,-0.019760085195896344,0.004833030506183414,0.04730641006884371,-0.006131935548964548,0.01320892807423827,0.011664447377203152,0.012317950598142969,-1.5788463961899752,0.38616295029682235,3.7798194852616387,-0.48994648794138024,1.0554037738599777,0.9319985477020821,0.9842139706140058
0.1230246049209842,0.40793596049281944,-0.16137424919761137,0.3108925210147762,0.0004091715528967805,-0.9238065257091297,-0.38285938037929124,-0.00017461801912897423,0.004888378650599969,0.011808411773348836,-0.0035183146310900897,0.07739840837930975,0.18717657981307326,-0.055830051038361236,-0.0036991863870724975,-0.00012505094605563122,0.006071926323123936,-0.3100429936249138,-0.30769095372426863,-0.06413448175086271,-2.4490866155556597,-0.022079442683601923,2.141564275038506,-0.35961771051924546,-0.020077112705220914,0.004910570841089622,0.048065386217505605,-0.006230315299616167,0.013420849911958525,0.011851589824362753,0.012515577741922863,-1.5907919890450226,0.3890846692120262,3.8084176976941277,-0.4936534357988993,1.0633889862344277,0.9390500729291156,0.9916605590874483
0.1240248049609922,0.40793694612477466,-0.16137186827455993,0.31089181161290863,0.0004088223213910132,-0.9238062914964716,-0.38285994594663547,-0.000174486633274691,0.004966065820376912,0.01199629093395432,-0.0035743554613587563,0.07797549277682551,0.1885808138275902,-0.056251370756801346,-0.0037579459786397642,-0.00012697581348549217,0.006168507128681437,-0.3100470417588595,-0.30768996360936485,-0.06412479036124828,-2.4490878717696996,-0.022076736647185926,2.1415666646661276,-0.35961518701221284,-0.020396528219145397,0.0049886952473176815,0.048830079341764,-0.006329436094152573,0.013634368047502825,0.012040141918986726,0.01271469350897529,-1.6027216672960456,0.3920024956456957,3.8369778099475638,-0.4973554450478447,1.0713635602509048,0.9460922037097522,0.9990972267885754
