rsonawane2002/My_IMU/logs_2/traj_436/imu_400hz_436.csv
time,j1,j2,j3,j4,j5,j6,j7,gripper1,gripper2,imu_ax,imu_ay,imu_az,imu_gx,imu_gy,imu_gz
0.0,0.00016700293,-0.785875,4.0107683e-05,-2.3551247,9.29385e-05,1.570997,0.786,0.04,0.04,-9.489686,0.0438618026673793,0.08858019,4.4938602e-07,-0.0011641274904832,3.208011e-07
0.0025,0.00016700427549999999,-0.7858577740000002,4.010839729999999e-05,-2.35513919,9.294252449999996e-05,1.570996565,0.786,0.04,0.04,-9.541380649999342,0.03737961895248251,0.07666221990015175,2.4534779250259795e-07,-0.0013251986645606993,3.5958494399950616e-07
0.005,0.00016700562099999998,-0.7858405480000005,4.0109111599999985e-05,-2.35515368,9.29465489999999e-05,1.57099613,0.786,0.04,0.04,-9.593075299998684,0.030897435237585716,0.06474424980030351,4.1309565005195966e-08,-0.0014862698386381983,3.983687879990123e-07
0.0075,0.00016700696649999994,-0.7858233220000007,4.010982589999997e-05,-2.35516817,9.295057349999985e-05,1.5709956950000001,0.786,0.04,0.04,-9.644769949998025,0.024415251522688926,0.05282627970045525,-1.6272866249220602e-07,-0.0016473410127156975,4.3715263199851847e-07
0.01,0.00016700831199999993,-0.785806096000001,4.011054019999997e-05,-2.3551826599999997,9.29545979999998e-05,1.5709952600000001,0.786,0.04,0.04,-9.696464599997368,0.01793306780779213,0.040908309600607005,-3.6676688998960806e-07,-0.0018084121867931965,4.7593647599802465e-07
0.0125,0.00016700965749999992,-0.7857888700000011,4.0111254499999955e-05,-2.355197149999999,9.295862249999975e-05,1.570994825,0.786,0.04,0.04,-9.748159249996709,0.011450884092895339,0.02899033950075875,-5.708051174870102e-07,-0.0019694833608706955,5.147203199975308e-07
0.015,0.0001670110029999999,-0.7857716440000013,4.011196879999995e-05,-2.355211639999999,9.296264699999969e-05,1.57099439,0.786,0.04,0.04,-9.799853899996052,0.004968700377998549,0.017072369400910503,-7.74843344984412e-07,-0.002130554534948195,5.53504163997037e-07
0.0175,0.00016701446499999939,-0.7857548620000013,4.011191375000013e-05,-2.355225734999999,9.296354025000043e-05,1.57099396,0.786,0.04,0.04,-9.834217600000024,0.0006467267259722944,0.009051730650018085,-1.129810928447431e-06,-0.002287189266632554,4.588940370289244e-07
0.02,0.0001670221599999995,-0.7857389680000011,4.0110320000000104e-05,-2.3552390399999994,9.295817100000035e-05,1.5709935400000001,0.786,0.04,0.04,-9.83391940000002,0.0006451732013374817,0.008825754600014798,-1.7866372239569888e-06,-0.0024349511135272443,9.749596802366558e-08
0.0225,0.0001670298549999996,-0.7857230740000009,4.010872625000008e-05,-2.3552523449999994,9.295280175000027e-05,1.57099312,0.786,0.04,0.04,-9.833621200000016,0.0006436196767026691,0.00859977855001151,-2.4434635194665465e-06,-0.0025827129604219343,-2.6390210098159326e-07
0.025,0.00016703754999999973,-0.7857071800000006,4.010713250000006e-05,-2.3552656499999993,9.294743250000019e-05,1.5709927000000001,0.786,0.04,0.04,-9.83332300000001,0.0006420661520678565,0.00837380250000822,-3.100289814976105e-06,-0.0027304748073166247,-6.253001699868526e-07
0.0275,0.00016704524499999983,-0.7856912860000004,4.010553875000003e-05,-2.3552789549999997,9.294206325000012e-05,1.57099228,0.786,0.04,0.04,-9.833024800000006,0.0006405126274330439,0.008147826450004933,-3.7571161104856635e-06,-0.0028782366542113146,-9.866982389921115e-07
0.03,0.00016705293999999996,-0.7856753920000001,4.010394500000001e-05,-2.3552922599999997,9.293669400000004e-05,1.57099186,0.786,0.04,0.04,-9.832726600000003,0.0006389591027982312,0.007921850400001644,-4.413942405995221e-06,-0.003025998501106005,-1.3480963079973704e-06
0.0325,0.00016706063500000005,-0.7856594979999999,4.010235124999999e-05,-2.355305565,9.293132474999996e-05,1.57099144,0.786,0.04,0.04,-9.832428399999998,0.0006374055781634187,0.007695874349998356,-5.07076870150478e-06,-0.0031737603480006954,-1.7094943770026298e-06
0.035,0.00016707955500000032,-0.7856444499999998,4.00967889999999e-05,-2.3553181,9.290989789999962e-05,1.57099101,0.786,0.04,0.04,-9.832158699999997,0.0006372989970259178,0.0074817477399973485,-6.4727725200225975e-06,-0.003313115402126531,-2.541466260013591e-06
0.0375,0.00016710408750000033,-0.7856298249999998,4.0089242499999894e-05,-2.35533025,9.28804422499996e-05,1.570990575,0.786,0.04,0.04,-9.831903249999996,0.0006379158876370334,0.00727354584999716,-8.247365100024209e-06,-0.0034482670598681687,-3.6087250500145595e-06
0.04,0.00016712862000000037,-0.7856151999999997,4.008169599999989e-05,-2.3553424,9.285098659999957e-05,1.57099014,0.786,0.04,0.04,-9.831647799999997,0.0006385327782481489,0.00706534395999697,-1.0021957680025825e-05,-0.0035834187176098068,-4.675983840015532e-06
0.0425,0.00016715315250000038,-0.7856005749999998,4.007414949999988e-05,-2.35535455,9.282153094999954e-05,1.5709897050000001,0.786,0.04,0.04,-9.831392349999996,0.0006391496688592645,0.00685714206999678,-1.1796550260027439e-05,-0.0037185703753514444,-5.743242630016503e-06
0.045,0.00016717768500000042,-0.7855859499999998,4.006660299999988e-05,-2.3553667000000003,9.279207529999951e-05,1.57098927,0.786,0.04,0.04,-9.831136899999995,0.00063976655947038,0.006648940179996591,-1.357114284002905e-05,-0.0038537220330930825,-6.810501420017472e-06
0.0475,0.00016720221750000043,-0.7855713249999997,4.005905649999987e-05,-2.35537885,9.276261964999949e-05,1.570988835,0.786,0.04,0.04,-9.830881449999996,0.0006403834500814956,0.0064407382899964016,-1.5345735420030666e-05,-0.003988873690834721,-7.877760210018445e-06
0.05,0.00016722675000000104,-0.7855566999999998,4.005150999999966e-05,-2.355391,9.273316399999865e-05,1.5709884,0.786,0.04,0.04,-9.830625999999995,0.0006410003406926149,0.006232536399996882,-1.7120328000062216e-05,-0.004124025348576129,-8.945019000037752e-06
0.0525,0.00016728317550000185,-0.7855432044999996,4.0032789249999386e-05,-2.3554021300000003,9.265852249999755e-05,1.57098798,0.786,0.04,0.04,-9.83033004999999,0.0006418225530068719,0.006061168314994389,-2.0540410800111975e-05,-0.0042465614387805365,-1.1020309350067948e-05
0.055,0.00016733960100000269,-0.7855297089999994,4.0014068499999117e-05,-2.3554132600000006,9.258388099999647e-05,1.57098756,0.786,0.04,0.04,-9.830034099999986,0.0006426447653211289,0.005889800229991895,-2.396049360016175e-05,-0.004369097528984945,-1.3095599700098148e-05
0.0575,0.0001673960265000035,-0.7855162134999991,3.999534774999884e-05,-2.3554243900000005,9.250923949999539e-05,1.57098714,0.786,0.04,0.04,-9.829738149999981,0.0006434669776353858,0.005718432144989401,-2.7380576400211522e-05,-0.0044916336191893535,-1.5170890050128348e-05
0.06,0.0001674524520000043,-0.7855027179999989,3.997662699999857e-05,-2.355435520000001,9.243459799999429e-05,1.57098672,0.786,0.04,0.04,-9.829442199999978,0.0006442891899496429,0.005547064059986908,-3.080065920026128e-05,-0.004614169709393761,-1.7246180400158547e-05
0.0625,0.00016750887750000514,-0.7854892224999988,3.9957906249998294e-05,-2.355446650000001,9.235995649999321e-05,1.5709863,0.786,0.04,0.04,-9.829146249999972,0.0006451114022638998,0.005375695974984414,-3.4220742000311055e-05,-0.00473670579959817,-1.9321470750188746e-05
0.065,0.00016756530300000594,-0.7854757269999986,3.9939185499998024e-05,-2.355457780000001,9.228531499999212e-05,1.57098588,0.786,0.04,0.04,-9.828850299999969,0.0006459336145781567,0.00520432788998192,-3.764082480036082e-05,-0.004859241889802577,-2.1396761100218948e-05
0.0675,0.00016763874700001193,-0.7854625754999986,3.991453394999595e-05,-2.355468540000001,9.218670479998373e-05,1.570985455,0.786,0.04,0.04,-9.828574699999972,0.000646758056245817,0.005033393374981129,-4.176492850061385e-05,-0.004977788124245698,-2.3898872100372353e-05
0.07,0.00016774622800001056,-0.7854501119999988,3.9878020799996416e-05,-2.3554785600000008,9.20401571999856e-05,1.57098502,0.786,0.04,0.04,-9.828339799999977,0.0006475869566202815,0.004863325999983295,-4.729707400054341e-05,-0.0050883546471703804,-2.7254624400329628e-05
0.0725,0.00016785370900000918,-0.785437648499999,3.9841507649996875e-05,-2.3554885800000007,9.189360959998747e-05,1.570984585,0.786,0.04,0.04,-9.82810489999998,0.0006484158569947458,0.004693258624985461,-5.2829219500472945e-05,-0.005198921170095063,-3.061037670028688e-05
0.075,0.00016796119000000783,-0.7854251849999991,3.980499449999734e-05,-2.3554986000000007,9.174706199998933e-05,1.57098415,0.786,0.04,0.04,-9.827869999999983,0.0006492447573692103,0.004523191249987626,-5.836136500040251e-05,-0.005309487693019745,-3.396612900024416e-05
0.0775,0.00016806867100000646,-0.7854127214999993,3.976848134999781e-05,-2.3555086200000006,9.160051439999121e-05,1.5709837150000001,0.786,0.04,0.04,-9.827635099999986,0.0006500736577436748,0.004353123874989791,-6.389351050033208e-05,-0.005420054215944427,-3.732188130020143e-05
0.08,0.00016817615200000508,-0.7854002579999995,3.973196819999827e-05,-2.3555186400000006,9.145396679999307e-05,1.57098328,0.786,0.04,0.04,-9.827400199999989,0.0006509025581181392,0.004183056499991957,-6.942565600026165e-05,-0.005530620738869109,-4.067763360015871e-05
0.0825,0.0001682836330000037,-0.7853877944999996,3.969545504999874e-05,-2.3555286600000005,9.130741919999493e-05,1.570982845,0.786,0.04,0.04,-9.827165299999992,0.0006517314584926037,0.0040129891249941225,-7.49578015001912e-05,-0.005641187261793792,-4.4033385900115984e-05
0.085,0.00016844036900000726,-0.7853759689999996,3.964179829999751e-05,-2.3555383600000006,9.109260659999003e-05,1.57098241,0.78599981,0.04,0.0399999995,-9.82690119999999,0.0006526787648909103,0.0038604226999942445,-8.22239720003255e-05,-0.00574351088144272,-4.8329803000190766e-05
0.08750000000000001,0.0001686217325000099,-0.7853644624999994,3.957956974999661e-05,-2.355547900000001,9.084366149998642e-05,1.570981975,0.785999525,0.04,0.03999999875,-9.826622499999985,0.00065368527430113,0.0037166067499921516,-9.035715500044385e-05,-0.005841713049454334,-5.3096552500260137e-05
0.09,0.00016880309600001255,-0.7853529559999992,3.95173411999957e-05,-2.3555574400000006,9.05947163999828e-05,1.57098154,0.78599924,0.04,0.039999998,-9.82634379999998,0.0006546917837113496,0.0035727907999900596,-9.849033800056216e-05,-0.005939915217465948,-5.786330200032948e-05
0.0925,0.0001689844595000152,-0.7853414494999991,3.9455112649994795e-05,-2.3555669800000008,9.034577129997917e-05,1.570981105,0.785998955,0.04,0.03999999725,-9.826065099999978,0.0006556982931215692,0.0034289748499879667,-0.00010662352100068053,-0.006038117385477562,-6.263005150039885e-05
0.095,0.0001691658230000178,-0.7853299429999988,3.939288409999389e-05,-2.355576520000001,9.009682619997555e-05,1.57098067,0.78599867,0.04,0.0399999965,-9.825786399999973,0.0006567048025317889,0.0032851588999858734,-0.00011475670400079888,-0.006136319553489176,-6.739680100046821e-05
0.0975,0.00016934718650002045,-0.7853184364999987,3.933065554999298e-05,-2.355586060000001,8.984788109997192e-05,1.570980235,0.785998385,0.04,0.03999999575,-9.825507699999969,0.0006577113119420085,0.0031413429499837805,-0.00012288988700091724,-0.00623452172150079,-7.216355050053759e-05
0.1,0.00016952855000003584,-0.7853069299999986,3.926842699998765e-05,-2.3555956000000013,8.959893599995021e-05,1.5709798,0.7859981,0.04,0.039999995,-9.82522899999998,0.0006587178213519188,0.0029975269999820446,-0.00013102307000125942,-0.0063327238895112,-7.693030000085896e-05
0.10250000000000001,0.00016980996800003225,-0.7852962604999988,3.917148664998889e-05,-2.355604330000001,8.920792019995519e-05,1.570979365,0.785997815,0.04,0.03999999575,-9.825070749999982,0.000657295316341087,0.00285651550998384,-0.00014091397850113347,-0.006421470362703236,-8.367613210077307e-05
0.105,0.00017009138600002866,-0.785285590999999,3.907454629999013e-05,-2.355613060000001,8.881690439996018e-05,1.5709789299999999,0.78599753,0.04,0.0399999965,-9.824912499999984,0.0006558728113302551,0.002715504019985636,-0.0001508048870010075,-0.00651021683589527,-9.042196420068715e-05
0.1075,0.0001703728040000251,-0.785274921499999,3.897760594999136e-05,-2.3556217900000007,8.842588859996516e-05,1.5709784949999999,0.785997245,0.04,0.03999999725,-9.824754249999986,0.0006544503063194233,0.0025744925299874314,-0.00016069579550088156,-0.0065989633090873055,-9.716779630060126e-05
0.11,0.0001706542220000215,-0.7852642519999992,3.8880665599992596e-05,-2.3556305200000005,8.803487279997013e-05,1.5709780599999998,0.78599696,0.04,0.039999998,-9.824595999999987,0.0006530278013085913,0.0024334810399892267,-0.00017058670400075564,-0.00668770978227934,-0.00010391362840051537
0.1125,0.00017093564000001792,-0.7852535824999993,3.878372524999383e-05,-2.3556392500000003,8.764385699997511e-05,1.570977625,0.785996675,0.04,0.03999999875,-9.824437749999989,0.0006516052962977594,0.0022924695499910224,-0.0001804776125006297,-0.006776456255471375,-0.0001106594605004295
0.115,0.00017121705800001433,-0.7852429129999995,3.8686784899995065e-05,-2.35564798,8.725284119998009e-05,1.57097719,0.78599639,0.04,0.0399999995,-9.82427949999999,0.0006501827912869276,0.0021514580599928173,-0.00019036852100050378,-0.00686520272866341,-0.00011740529260034359
0.11750000000000001,0.00017154151750001755,-0.7852324799999996,3.857491909999394e-05,-2.355656375,8.680143859997555e-05,1.570976745,0.7859960500000001,0.04,0.04,-9.82409474999999,0.0006489983585196398,0.002016865244994795,-0.00020139507200056848,-0.006950202514420753,-0.00012475686780036608
0.12,0.00017195206000001793,-0.7852225199999996,3.8433202399993815e-05,-2.3556641000000003,8.622926239997503e-05,1.57097628,0.7859956,0.04,0.04,-9.82385699999999,0.0006482900702393491,0.0018951097799946848,-0.00021469290800058048,-0.007027708925310143,-0.0001333199292003738
0.1225,0.0001723626025000183,-0.7852125599999996,3.829148569999368e-05,-2.3556718250000004,8.565708619997451e-05,1.570975815,0.78599515,0.04,0.04,-9.82361924999999,0.0006475817819590584,0.001773354314994574,-0.0002279907440005926,-0.007105215336199534,-0.0001418829906003816
0.125,0.00017277314500001867,-0.7852025999999995,3.8149768999993556e-05,-2.35567955,8.508490999997399e-05,1.5709753499999999,0.7859946999999999,0.04,0.04,-9.82338149999999,0.0006468734936787677,0.001651598849994463,-0.0002412885800006047,-0.007182721747088925,-0.00015044605200038942
0.1275,0.00017318368750001903,-0.7851926399999996,3.800805229999342e-05,-2.355687275,8.451273379997347e-05,1.570974885,0.78599425,0.04,0.04,-9.82314374999999,0.0006461652053984772,0.0015298433849943523,-0.00025458641600061677,-0.007260228157978315,-0.0001590091134003972
0.13,0.00017359423000001942,-0.7851826799999996,3.78663355999933e-05,-2.3556950000000003,8.394055759997293e-05,1.57097442,0.7859938,0.04,0.04,-9.822905999999989,0.0006454569171181865,0.0014080879199942415,-0.0002678842520006289,-0.007337734568867706,-0.000167572174800405
0.1325,0.00017400477250001977,-0.7851727199999995,3.7724618899993164e-05,-2.3557027250000004,8.336838139997241e-05,1.570973955,0.7859933499999999,0.04,0.04,-9.822668249999989,0.0006447486288378958,0.0012863324549941308,-0.000281182088000641,-0.007415240979757097,-0.0001761352362004128
0.135,0.00017452252400003326,-0.7851632329999995,3.75457389999885e-05,-2.3557103,8.264602239995358e-05,1.57097344,0.7859928199999999,0.04,0.04,-9.822445099999989,0.0006427915999663797,0.0011633134499928022,-0.0002965799600009574,-0.007485151570294098,-0.0001861083390006216
0.1375,0.00017509388000004156,-0.7851539824999993,3.734827749998563e-05,-2.3557178000000003,8.184857199994198e-05,1.5709729,0.78599225,0.04,0.04,-9.822229249999985,0.0006402102007993871,0.0010396626749910028,-0.00031302785000119677,-0.007551264250655736,-0.00019678646250077697
0.14,0.00017566523600004989,-0.7851447319999992,3.7150815999982755e-05,-2.3557253000000005,8.105112159993037e-05,1.57097236,0.7859916799999999,0.04,0.04,-9.822013399999982,0.0006376288016323946,0.0009160118999892033,-0.00032947574000143613,-0.007617376931017373,-0.00020746458600093238
0.14250000000000002,0.0001762365920000582,-0.7851354814999991,3.6953354499979884e-05,-2.3557328000000006,8.025367119991877e-05,1.57097182,0.7859911099999999,0.04,0.04,-9.821797549999978,0.000635047402465402,0.0007923611249874038,-0.00034592363000167554,-0.00768348961137901,-0.00021814270950108776
0.145,0.0001768079480000665,-0.7851262309999989,3.6755892999977014e-05,-2.355740300000001,7.945622079990717e-05,1.57097128,0.7859905399999999,0.04,0.04,-9.821581699999975,0.0006324660032984094,0.0006687103499856057,-0.0003623715200019147,-0.007749602291740646,-0.00022882083300124304
0.1475,0.00017737930400007484,-0.7851169804999988,3.655843149997414e-05,-2.355747800000001,7.865877039989556e-05,1.57097074,0.7859899699999999,0.04,0.04,-9.821365849999971,0.0006298846041314169,0.0005450595749838062,-0.00037881941000215405,-0.007815714972102284,-0.00023949895650139842
0.15,0.0001779506600001115,-0.7851077299999988,3.636096999996144e-05,-2.355755300000001,7.786131999984449e-05,1.5709701999999999,0.7859893999999998,0.04,0.04,-9.821149999999978,0.0006273032049642206,0.0004214087999856152,-0.00039526730000293236,-0.007881827652462725,-0.00025017708000186714
0.1525,0.00017871683600010173,-0.7850990404999989,3.6096000699964813e-05,-2.3557618550000012,7.679262549985809e-05,1.570969195,0.7859885449999998,0.04,0.03999999925,-9.82100314999998,0.0006233215302921713,0.0003225556364868738,-0.0004154187710026758,-0.007939734030522574,-0.0002630083500017038
0.155,0.00017948301200009198,-0.785090350999999,3.5831031399968186e-05,-2.355768410000001,7.57239309998717e-05,1.5709681899999999,0.7859876899999998,0.04,0.0399999985,-9.820856299999981,0.000619339855620122,0.0002237024729881324,-0.0004355702420024192,-0.007997640408582422,-0.0002758396200015404
0.1575,0.00018024918800008222,-0.785081661499999,3.556606209997156e-05,-2.355774965000001,7.46552364998853e-05,1.570967185,0.7859868349999999,0.04,0.03999999775,-9.820709449999985,0.0006153581809480727,0.000124849309489391,-0.00045572171300216265,-0.008055546786642269,-0.00028867089000137705
0.16,0.0001810153640000725,-0.7850729719999991,3.530109279997493e-05,-2.3557815200000007,7.358654199989891e-05,1.5709661799999999,0.7859859799999999,0.04,0.039999997,-9.820562599999986,0.0006113765062760233,2.599614599064961e-05,-0.0004758731840019061,-0.008113453164702118,-0.00030150216000121365
0.1625,0.00018178154000006273,-0.7850642824999993,3.5036123499978305e-05,-2.355788075000001,7.251784749991252e-05,1.570965175,0.7859851249999998,0.04,0.03999999625,-9.820415749999988,0.0006073948316039741,-7.285701750809183e-05,-0.0004960246550016496,-0.008171359542761965,-0.0003143334300010503
0.165,0.00018254771600005297,-0.7850555929999994,3.4771154199981685e-05,-2.3557946300000006,7.144915299992612e-05,1.5709641699999999,0.7859842699999999,0.04,0.0399999955,-9.82026889999999,0.0006034131569319247,-0.00017171018100683316,-0.0005161761260013929,-0.008229265920821812,-0.0003271647000008869
0.1675,0.00018339085700006075,-0.7850470549999995,3.4479531849978974e-05,-2.3558011100000007,7.027263199991516e-05,1.5709631599999998,0.7859833349999998,0.04,0.039999995,-9.820100849999987,0.000598532572621053,-0.0002706289325060361,-0.0005374270130014291,-0.008283909084278257,-0.00034083789450093586
0.17,0.00018438792800006166,-0.7850388199999995,3.4134603399978666e-05,-2.3558074400000004,6.888045799991389e-05,1.57096214,0.7859822399999999,0.04,0.039999995,-9.819890399999988,0.0005918541690330269,-0.0003696788600061263,-0.0005608767320014504,-0.008332025818529676,-0.0003561949380009498
0.17250000000000001,0.00018538499900006258,-0.7850305849999996,3.378967494997835e-05,-2.3558137700000006,6.748828399991263e-05,1.57096112,0.7859811449999999,0.04,0.039999995,-9.819679949999987,0.0005851757654450008,-0.00046872878750621645,-0.0005843264510014718,-0.008380142552781095,-0.0003715519815009638
0.17500000000000002,0.0001863820700000635,-0.7850223499999995,3.344474649997804e-05,-2.3558201000000003,6.609610999991136e-05,1.5709601,0.7859800499999999,0.04,0.039999995,-9.819469499999986,0.0005784973618569748,-0.0005677787150063067,-0.0006077761700014931,-0.008428259287032515,-0.0003869090250009778
0.1775,0.00018737914100006438,-0.7850141149999995,3.309981804997773e-05,-2.3558264300000005,6.47039359999101e-05,1.57095908,0.7859789549999999,0.04,0.039999995,-9.819259049999987,0.0005718189582689488,-0.0006668286425063957,-0.0006312258890015141,-0.008476376021283932,-0.0004022660685009916
0.18,0.0001883762120000653,-0.7850058799999995,3.2754889599977415e-05,-2.3558327600000006,6.331176199990884e-05,1.57095806,0.7859778599999999,0.04,0.039999995,-9.819048599999986,0.0005651405546809226,-0.0007658785700064859,-0.0006546756080015356,-0.008524492755535351,-0.0004176231120010056
0.1825,0.00018937328300006618,-0.7849976449999995,3.24099611499771e-05,-2.3558390900000004,6.191958799990757e-05,1.57095704,0.7859767649999999,0.04,0.039999995,-9.818838149999987,0.0005584621510928966,-0.000864928497506576,-0.0006781253270015568,-0.00857260948978677,-0.0004329801555010195
0.185,0.0001905495200000967,-0.7849896849999994,3.200299719996654e-05,-2.3558449400000003,6.02766445998649e-05,1.5709559899999999,0.7859755199999999,0.04,0.039999995,-9.81867809999999,0.0005507019581266158,-0.0009632412360074826,-0.0007041824340020903,-0.008615281991663582,-0.000450019608001366
0.1875,0.00019181534000011513,-0.7849818624999993,3.156501549996017e-05,-2.3558505500000004,5.850831649983917e-05,1.570954925,0.7859741999999998,0.04,0.039999995,-9.818543249999989,0.00054240087047137,-0.0010611853800089079,-0.0007315432350024885,-0.008655232377353909,-0.0004679002650016262
0.19,0.00019308116000013353,-0.7849740399999993,3.112703379995379e-05,-2.3558561600000005,5.673998839981343e-05,1.57095386,0.7859728799999999,0.04,0.039999995,-9.818408399999987,0.0005340997828161242,-0.0011591295240103335,-0.0007589040360028867,-0.008695182763044235,-0.0004857809220018864
0.1925,0.00019434698000015196,-0.7849662174999991,3.068905209994742e-05,-2.3558617700000006,5.49716602997877e-05,1.570952795,0.7859715599999998,0.04,0.039999995,-9.818273549999985,0.0005257986951608784,-0.0012570736680117588,-0.0007862648370032848,-0.008735133148734562,-0.0005036615790021467
0.195,0.0001956128000001704,-0.784958394999999,3.0251070399941043e-05,-2.3558673800000007,5.320333219976197e-05,1.57095173,0.7859702399999998,0.04,0.039999995,-9.818138699999983,0.0005174976075056326,-0.0013550178120131842,-0.000813625638003683,-0.008775083534424888,-0.0005215422360024068
0.1975,0.00019687862000018882,-0.7849505724999989,2.981308869993467e-05,-2.355872990000001,5.1435004099736235e-05,1.5709506649999998,0.7859689199999998,0.04,0.039999995,-9.81800384999998,0.0005091965198503868,-0.0014529619560146095,-0.0008409864390040812,-0.008815033920115215,-0.000539422893002667
0.2,0.0001981444400002577,-0.7849427499999988,2.9375106999910836e-05,-2.355878600000001,4.966667599963962e-05,1.5709495999999998,0.7859675999999998,0.04,0.039999995,-9.817868999999972,0.0005008954321944262,-0.0015509061000163018,-0.0008683472400051775,-0.008854984305803839,-0.0005573035500033762
0.2025,0.00019971843650023766,-0.7849352664999989,2.8830493899917773e-05,-2.3558838950000007,4.746541249966765e-05,1.5709480249999999,0.7859659349999998,0.04,0.03999999575,-9.817691549999973,0.00048822878743325256,-0.001650481605015034,-0.0008999726340047749,-0.008884538616989538,-0.0005779258770031135
0.20500000000000002,0.0002012924330002176,-0.784927782999999,2.8285880799924707e-05,-2.355889190000001,4.526414899969568e-05,1.5709464499999999,0.7859642699999998,0.04,0.0399999965,-9.817514099999975,0.0004755621426720788,-0.001750057110013766,-0.0009315980280043722,-0.008914092928175237,-0.000598548204002851
0.20750000000000002,0.00020286642950019757,-0.7849202994999991,2.774126769993164e-05,-2.3558944850000008,4.3062885499723706e-05,1.570944875,0.7859626049999998,0.04,0.03999999725,-9.817336649999978,0.0004628954979109051,-0.0018496326150124983,-0.0009632234220039696,-0.008943647239360935,-0.0006191705310025884
0.21,0.0002044404260001775,-0.7849128159999992,2.719665459993858e-05,-2.3558997800000006,4.0861621999751754e-05,1.5709432999999997,0.7859609399999998,0.04,0.039999998,-9.817159199999981,0.0004502288531497315,-0.0019492081200112295,-0.0009948488160035664,-0.008973201550546633,-0.0006397928580023256
0.2125,0.00020601442250015747,-0.7849053324999993,2.6652041499945514e-05,-2.3559050750000003,3.866035849977978e-05,1.5709417249999997,0.7859592749999997,0.04,0.03999999875,-9.816981749999982,0.0004375622083885578,-0.0020487836250099615,-0.0010264742100031638,-0.009002755861732332,-0.0006604151850020631
0.215,0.00020758841900013743,-0.7848978489999994,2.6107428399952447e-05,-2.3559103700000006,3.645909499980781e-05,1.5709401499999998,0.7859576099999998,0.04,0.0399999995,-9.816804299999985,0.0004248955636273841,-0.0021483591300086938,-0.001058099604002761,-0.00903231017291803,-0.0006810375120018006
0.2175,0.00020927871650015215,-0.7848904399999994,2.5522557649947348e-05,-2.3559155800000005,3.409520649978722e-05,1.5709385499999997,0.7859558324999998,0.04,0.04,-9.81663989999999,0.00041164860303862,-0.0022410334450062405,-0.0010910702050028215,-0.009059603419156672,-0.0007025255235018372
0.22,0.0002112016160001539,-0.7848831799999995,2.4857171599946745e-05,-2.3559206200000005,3.1406067999784776e-05,1.5709368999999997,0.7859538299999999,0.04,0.04,-9.81650159999999,0.0003972410107950869,-0.0023199053800063126,-0.001126731220002854,-0.009082374535502803,-0.0007257449040018584
0.2225,0.00021312451550015564,-0.7848759199999994,2.419178554994614e-05,-2.3559256600000005,2.8716929499782326e-05,1.5709352499999998,0.7859518274999998,0.04,0.04,-9.816363299999988,0.0003828334185515537,-0.002398777315006384,-0.0011623922350028864,-0.009105145651848933,-0.0007489642845018795
0.225,0.0002150474150001574,-0.7848686599999994,2.3526399499945533e-05,-2.3559307000000005,2.6027790999779877e-05,1.5709335999999998,0.7859498249999999,0.04,0.04,-9.816224999999989,0.0003684258263080206,-0.002477649250006456,-0.001198053250002919,-0.009127916768195063,-0.0007721836650019006
0.2275,0.00021697031450015916,-0.7848613999999994,2.2861013449944927e-05,-2.3559357400000005,2.3338652499777428e-05,1.5709319499999999,0.7859478224999998,0.04,0.04,-9.816086699999989,0.0003540182340644875,-0.002556521185006528,-0.0012337142650029513,-0.009150687884541195,-0.0007954030455019218
0.23,0.00021889321400016091,-0.7848541399999994,2.219562739994432e-05,-2.3559407800000005,2.0649513999774978e-05,1.5709303,0.7859458199999998,0.04,0.04,-9.815948399999987,0.0003396106418209544,-0.0026353931200065995,-0.001269375280002984,-0.009173459000887325,-0.0008186224260019429
0.2325,0.00022081611350016265,-0.7848468799999994,2.1530241349943715e-05,-2.3559458200000005,1.7960375499772532e-05,1.5709286499999997,0.7859438174999999,0.04,0.04,-9.815810099999988,0.00032520304957742125,-0.0027142650550066715,-0.0013050362950030165,-0.009196230117233455,-0.000841841806501964
0.23500000000000001,0.00022299957800021885,-0.7848397439999993,2.0774687399924265e-05,-2.3559503500000005,1.4906869419693925e-05,1.5709266599999998,0.7859415879999998,0.04,0.04,-9.815686899999989,0.0003079387577581518,-0.0028068045600094,-0.0013436677900037946,-0.009213498979808193,-0.0008669251500024608
0.23750000000000002,0.00022531332500025253,-0.7848326699999992,1.9974049499912614e-05,-2.3559546250000007,1.1671179549646839e-05,1.5709244999999996,0.7859392449999998,0.04,0.04,-9.815571249999987,0.0002892461161515598,-0.0029061778500108462,-0.0013837845250043784,-0.009228016715498284,-0.0008929404750028394
0.24,0.00022762707200028618,-0.7848255959999991,1.917341159990097e-05,-2.3559589000000005,8.435489679599786e-06,1.5709223399999996,0.7859369019999998,0.04,0.04,-9.815455599999986,0.0002705534745449679,-0.0030055511400122912,-0.0014239012600049618,-0.009242534451188375,-0.0009189558000032177
0.2425,0.00022994081900031986,-0.784818521999999,1.837277369988932e-05,-2.3559631750000007,5.199799809552698e-06,1.5709201799999997,0.7859345589999998,0.04,0.04,-9.815339949999984,0.0002518608329383759,-0.0031049244300137375,-0.0014640179950055456,-0.009257052186878466,-0.0009449711250035964
0.245,0.00023225456600035354,-0.7848114479999989,1.7572135799877667e-05,-2.3559674500000005,1.9641099395056093e-06,1.5709180199999997,0.7859322159999996,0.04,0.04,-9.815224299999981,0.00023316819133178387,-0.003204297720015184,-0.0015041347300061294,-0.009271569922568558,-0.0009709864500039749
0.2475,0.00023456831300038719,-0.7848043739999988,1.6771497899866016e-05,-2.3559717250000007,-1.2715799305414773e-06,1.5709158599999995,0.7859298729999996,0.04,0.04,-9.81510864999998,0.00021447554972519185,-0.0033036710100166297,-0.0015442514650067132,-0.00928608765825865,-0.0009970017750043536
0.25,0.00023688206000049977,-0.7847972999999988,1.597085999982707e-05,-2.355976000000001,-4.507269800699e-06,1.5709136999999995,0.7859275299999995,0.04,0.04,-9.814992999999966,0.00019578290811766684,-0.003403044300014778,-0.0015843682000081375,-0.009300605393947146,-0.0010230171000052757
0.2525,0.0002396295230004648,-0.7847903549999988,1.5020165699839175e-05,-2.355980095000001,-8.350065530650072e-06,1.5709113299999995,0.7859246904999996,0.03999999925,0.04,-9.814808049999968,0.00017196122280030752,-0.0034842849150137434,-0.001629105175007568,-0.009306357195601777,-0.0010520201850049064
0.255,0.0002423769860004298,-0.784783409999999,1.4069471399851278e-05,-2.3559841900000005,-1.2192861260601146e-05,1.5709089599999997,0.7859218509999996,0.0399999985,0.04,-9.81462309999997,0.00014813953748294816,-0.003565525530012709,-0.0016738421500069984,-0.009312108997256409,-0.0010810232700045371
0.2575,0.00024512444900039485,-0.784776464999999,1.3118777099863383e-05,-2.3559882850000005,-1.603565699055222e-05,1.5709065899999997,0.7859190114999995,0.03999999775,0.04,-9.814438149999972,0.00012431785216558884,-0.0036467661450116746,-0.0017185791250064288,-0.009317860798911042,-0.0011100263550041678
0.26,0.0002478719120003599,-0.7847695199999991,1.2168082799875486e-05,-2.3559923800000004,-1.9878452720503293e-05,1.5709042199999996,0.7859161719999996,0.039999997,0.04,-9.814253199999976,0.00010049616684822948,-0.00372800676001064,-0.001763316100005859,-0.009323612600565674,-0.0011390294400037985
0.2625,0.0002506193750003249,-0.7847625749999991,1.121738849988759e-05,-2.3559964750000004,-2.3721248450454368e-05,1.5709018499999998,0.7859133324999996,0.03999999625,0.04,-9.814068249999979,7.667448153087014e-05,-0.0038092473750096062,-0.0018080530750052895,-0.009329364402220305,-0.0011680325250034292
0.265,0.0002533668380002899,-0.7847556299999993,1.0266694199899696e-05,-2.3560005700000004,-2.7564044180405437e-05,1.5708994799999998,0.7859104929999997,0.0399999955,0.04,-9.813883299999981,5.28527962135108e-05,-0.003890487990008572,-0.00185279005000472,-0.009335116203874937,-0.00119703561000306
0.2675,0.00025627343850031386,-0.7847486999999993,9.2609345898914e-06,-2.356004635,-3.162936810043896e-05,1.5708969799999999,0.7859074949999997,0.039999994750000004,0.03999999975,-9.81372199999999,2.7823641718954018e-05,-0.003975427580008987,-0.0018989552500047707,-0.009338264120742465,-0.001226967750003094
0.27,0.0002594983140003168,-0.7847417999999993,8.145044359890384e-06,-2.35600864,-3.6139748400443066e-05,1.5708942199999998,0.7859041799999996,0.039999994000000004,0.039999999,-9.81360799999999,3.7954887105667525e-07,-0.0040677651200090705,-0.0019479769000048154,-0.009336204268038058,-0.0012587580000031227
0.2725,0.00026272318950031976,-0.7847348999999993,7.029154129889368e-06,-2.3560126450000003,-4.0650128700447176e-05,1.5708914599999997,0.7859008649999997,0.039999993250000004,0.03999999825,-9.81349399999999,-2.7064543976840674e-05,-0.004160102660009155,-0.00199699855000486,-0.00933414441533365,-0.0012905482500031517
0.275,0.0002659480650003227,-0.7847279999999993,5.9132638998883514e-06,-2.3560166500000004,-4.516050900045128e-05,1.5708886999999998,0.7858975499999997,0.0399999925,0.0399999975,-9.81337999999999,-5.450863682473802e-05,-0.004252440200009239,-0.0020460202000049045,-0.009332084562629244,-0.0013223385000031807
0.2775,0.0002691729405003256,-0.7847210999999993,4.797373669887336e-06,-2.3560206550000005,-4.967088930045539e-05,1.5708859399999997,0.7858942349999997,0.03999999175,0.03999999675,-9.81326599999999,-8.195272967263536e-05,-0.004344777740009323,-0.0020950418500049494,-0.009330024709924837,-0.0013541287500032097
0.28,0.0002723978160003286,-0.7847141999999993,3.68148343988632e-06,-2.3560246600000005,-5.41812696004595e-05,1.5708831799999998,0.7858909199999997,0.039999991,0.039999996,-9.813151999999988,-0.00010939682252053269,-0.0044371152800094064,-0.002144063500004994,-0.00932796485722043,-0.0013859190000032387
0.28250000000000003,0.0002756226915003315,-0.7847072999999993,2.5655932098853043e-06,-2.3560286650000006,-5.86916499004636e-05,1.5708804199999997,0.7858876049999997,0.03999999025,0.03999999525,-9.813037999999988,-0.00013684091536843003,-0.004529452820009491,-0.0021930851500050388,-0.009325905004516024,-0.0014177092500032675
0.28500000000000003,0.0002791954080003885,-0.7847003899999992,1.3293548198655688e-06,-2.3560322600000005,-6.368841000054335e-05,1.5708772899999996,0.7858839399999996,0.039999989799999996,0.0399999943,-9.812939799999992,-0.0001674396393388265,-0.004621844300009583,-0.0022452010100055646,-0.00931969005614432,-0.00145138633000359
0.28750000000000003,0.0002829420450003919,-0.7846934749999993,3.294234986438857e-08,-2.3560356500000004,-6.892836000054813e-05,1.5708739749999996,0.7858800999999996,0.0399999895,0.039999993250000004,-9.812849499999992,-0.0001996156788697408,-0.0047142627500096675,-0.0022988639750056135,-0.009311397559939932,-0.0014860068250036216
0.29,0.00028668868200039523,-0.7846865599999993,-1.263470120136763e-06,-2.35603904,-7.416831000055279e-05,1.5708706599999995,0.7858762599999997,0.0399999892,0.0399999922,-9.812759199999991,-0.00023179171840065436,-0.004806681200009749,-0.002352526940005661,-0.009303105063735545,-0.0015206273200036524
0.2925,0.00029043531900039865,-0.7846796449999993,-2.559882590137944e-06,-2.3560424300000005,-7.940826000055755e-05,1.5708673449999997,0.7858724199999996,0.0399999889,0.039999991150000004,-9.812668899999991,-0.0002639677579315687,-0.004899099650009834,-0.00240618990500571,-0.009294812567531157,-0.0015552478150036837
0.295,0.00029418195600040207,-0.7846727299999993,-3.856295060139124e-06,-2.3560458200000003,-8.464821000056232e-05,1.5708640299999996,0.7858685799999996,0.0399999886,0.0399999901,-9.812578599999991,-0.00029614379746248294,-0.004991518100009917,-0.0024598528700057586,-0.00928652007132677,-0.0015898683100037153
0.2975,0.0002979285930004055,-0.7846658149999993,-5.152707530140304e-06,-2.35604921,-8.98881600005671e-05,1.5708607149999996,0.7858647399999996,0.0399999883,0.039999989050000004,-9.81248829999999,-0.0003283198369933972,-0.005083936550010002,-0.0025135158350058076,-0.009278227575122382,-0.001624488805003747
0.3,0.0003016752300004707,-0.7846588999999993,-6.449120000162879e-06,-2.3560526000000004,-9.512811000065834e-05,1.5708573999999995,0.7858608999999995,0.039999988,0.039999988,-9.812397999999984,-0.0003604958765253066,-0.0051763550000101565,-0.002567178800006361,-0.009269935078917102,-0.0016591093000041194
0.3025,0.00030598853100047464,-0.7846518949999993,-7.941573800164237e-06,-2.3560556600000004,-0.00010116051600066383,1.5708535149999996,0.7858564749999994,0.0399999874,0.0399999874,-9.812243949999983,-0.0004017898812934792,-0.005269418300010241,-0.002625463205006414,-0.009253471205009158,-0.0016968538300041536
0.305,0.00031030183200047857,-0.7846448899999993,-9.434027600165597e-06,-2.35605872,-0.00010719292200066932,1.5708496299999994,0.7858520499999995,0.0399999868,0.0399999868,-9.812089899999982,-0.0004430838860616518,-0.005362481600010326,-0.002683747610006467,-0.009237007331101213,-0.001734598360004188
0.3075,0.0003146151330004825,-0.7846378849999992,-1.0926481400166954e-05,-2.35606178,-0.00011322532800067481,1.5708457449999995,0.7858476249999995,0.039999986200000004,0.039999986200000004,-9.811935849999982,-0.00048437789082982443,-0.0054555449000104105,-0.00274203201500652,-0.009220543457193267,-0.0017723428900042223
0.31,0.00031892843400048643,-0.7846308799999993,-1.2418935200168312e-05,-2.35606484,-0.0001192577340006803,1.5708418599999996,0.7858431999999995,0.0399999856,0.0399999856,-9.811781799999983,-0.000525671895597997,-0.005548608200010495,-0.002800316420006573,-0.009204079583285323,-0.0018100874200042568
0.3125,0.00032324173500049037,-0.7846238749999992,-1.3911389000169671e-05,-2.3560679,-0.0001252901400006858,1.5708379749999994,0.7858387749999994,0.039999985,0.039999985,-9.811627749999982,-0.0005669659003661696,-0.005641671500010581,-0.0028586008250066266,-0.009187615709377378,-0.001847831950004291
0.315,0.0003275550360004943,-0.7846168699999991,-1.540384280017103e-05,-2.3560709600000003,-0.0001313225460006913,1.5708340899999995,0.7858343499999995,0.0399999844,0.0399999844,-9.811473699999981,-0.0006082599051343421,-0.005734734800010665,-0.0029168852300066796,-0.009171151835469432,-0.0018855764800043255
0.3175,0.0003320723165005689,-0.7846098199999991,-1.6966863650196843e-05,-2.356073975,-0.00013764016000079562,1.5708300749999995,0.7858297199999994,0.0399999838,0.0399999838,-9.811330749999986,-0.0006509997067093808,-0.005829312735011275,-0.002976729715007273,-0.009152414230627034,-0.001924328350004709
0.32,0.0003369975560005734,-0.7846026799999991,-1.8671018600198392e-05,-2.3560769,-0.00014452819000080187,1.5708257999999995,0.7858246799999994,0.0399999832,0.0399999832,-9.811209999999985,-0.0006966311018966523,-0.005926919940011364,-0.0030396943600073303,-0.009129129163918089,-0.0019650949000047458
0.3225,0.0003419227955005779,-0.7845955399999991,-2.0375173550199945e-05,-2.356079825,-0.00015141622000080815,1.5708215249999995,0.7858196399999994,0.0399999826,0.0399999826,-9.811089249999986,-0.0007422624970839239,-0.0060245271450114525,-0.0031026590050073875,-0.009105844097209142,-0.0020058614500047833
0.325,0.00034684803500058237,-0.7845883999999991,-2.2079328500201497e-05,-2.35608275,-0.00015830425000081444,1.5708172499999995,0.7858145999999994,0.039999981999999996,0.039999981999999996,-9.810968499999985,-0.0007878938922711954,-0.006122134350011541,-0.003165623650007445,-0.009082559030500197,-0.0020466280000048204
0.3275,0.00035177327450058686,-0.7845812599999991,-2.378348345020305e-05,-2.356085675,-0.0001651922800008207,1.5708129749999995,0.7858095599999994,0.0399999814,0.0399999814,-9.810847749999985,-0.000833525287458467,-0.00621974155501163,-0.003228588295007502,-0.00905927396379125,-0.0020873945500048574
0.33,0.0003566985140005913,-0.784574119999999,-2.5487638400204603e-05,-2.3560886,-0.00017208031000082698,1.5708086999999995,0.7858045199999993,0.0399999808,0.0399999808,-9.810726999999986,-0.0008791566826457385,-0.006317348760011719,-0.0032915529400075593,-0.009035988897082304,-0.0021281611000048945
0.3325,0.0003616237535005958,-0.7845669799999991,-2.7191793350206152e-05,-2.356091525,-0.00017896834000083326,1.5708044249999995,0.7857994799999993,0.0399999802,0.0399999802,-9.810606249999985,-0.00092478807783301,-0.006414955965011808,-0.0033545175850076166,-0.009012703830373357,-0.0021689276500049316
0.335,0.0003669873220006804,-0.7845596999999991,-2.9047586500235427e-05,-2.3560944000000004,-0.00018646922500095155,1.5707998099999994,0.7857939699999993,0.0399999797,0.039999979299999995,-9.810503499999989,-0.0009744964307236668,-0.006518915730013058,-0.003420610050008246,-0.008984857145693118,-0.0022116353500053233
0.3375,0.0003725700550006855,-0.784552349999999,-3.0979198750237184e-05,-2.3560972500000004,-0.00019427653750095868,1.5707950249999993,0.7857882249999993,0.03999997925,0.03999997825,-9.81040974999999,-0.001026243262464904,-0.006626051775013155,-0.0034882664250083075,-0.008954729652028474,-0.002255313625005363
0.34,0.00037815278800069056,-0.784544999999999,-3.2910811000238945e-05,-2.3561001000000004,-0.00020208385000096578,1.5707902399999993,0.7857824799999993,0.039999978799999995,0.0399999772,-9.810315999999988,-0.0010779900942061412,-0.006733187820013253,-0.003555922800008369,-0.008924602158363833,-0.002298991900005403
0.3425,0.00038373552100069567,-0.7845376499999991,-3.48424232502407e-05,-2.3561029500000004,-0.00020989116250097288,1.5707854549999993,0.7857767349999993,0.03999997835,0.03999997615,-9.810222249999988,-0.0011297369259473783,-0.006840323865013351,-0.0036235791750084305,-0.008894474664699191,-0.0023426701750054427
0.34500000000000003,0.0003893182540007007,-0.784530299999999,-3.677403550024246e-05,-2.3561058000000004,-0.00021769847500097998,1.5707806699999993,0.7857709899999993,0.0399999779,0.0399999751,-9.810128499999989,-0.0011814837576886155,-0.006947459910013448,-0.0036912355500084925,-0.008864347171034547,-0.0023863484500054825
0.34750000000000003,0.00039490098700070583,-0.784522949999999,-3.870564775024422e-05,-2.3561086500000004,-0.00022550578750098709,1.5707758849999993,0.7857652449999993,0.03999997745,0.03999997405,-9.81003474999999,-0.0012332305894298525,-0.007054595955013545,-0.003758891925008554,-0.008834219677369906,-0.0024300267250055223
0.35000000000000003,0.00040048372000080044,-0.784515599999999,-4.0637260000276955e-05,-2.3561115000000004,-0.0002333131000011194,1.5707710999999993,0.7857594999999993,0.039999977,0.039999973,-9.80994099999999,-0.0012849774211721925,-0.007161732000014555,-0.003826548300009203,-0.008804092183704511,-0.0024737050000059675
0.3525,0.0004067696815007203,-0.7845079859999992,-4.281214345024922e-05,-2.3561141250000004,-0.0002421037300010073,1.5707656849999994,0.7857530499999993,0.0399999764,0.03999997255,-9.809860749999991,-0.001345384400344832,-0.007276034700013098,-0.0038988200550082817,-0.008768054051320555,-0.0025205652550053695
0.355,0.00041305564300064026,-0.7845003719999992,-4.4987026900221527e-05,-2.3561167500000004,-0.0002508943600008954,1.5707602699999994,0.7857465999999994,0.0399999758,0.0399999721,-9.809780499999992,-0.0014057913795174728,-0.007390337400011642,-0.003971091810007361,-0.008732015918936598,-0.002567425510004773
0.3575,0.0004193416045005602,-0.7844927579999993,-4.716191035019384e-05,-2.3561193750000005,-0.00025968499000078344,1.5707548549999995,0.7857401499999995,0.0399999752,0.03999997165,-9.809700249999993,-0.0014661983586901138,-0.007504640100010187,-0.004043363565006441,-0.008695977786552643,-0.0026142857650041764
0.36,0.0004256275660004802,-0.7844851439999995,-4.9336793800166146e-05,-2.356122,-0.0002684756200006715,1.5707494399999995,0.7857336999999995,0.0399999746,0.039999971200000005,-9.809619999999994,-0.0015266053378627546,-0.007618942800008732,-0.004115635320005521,-0.008659939654168686,-0.0026611460200035796
0.3625,0.00043191352750040015,-0.7844775299999995,-5.151167725013846e-05,-2.356124625,-0.0002772662500005596,1.5707440249999995,0.7857272499999997,0.039999974,0.03999997075,-9.809539749999994,-0.0015870123170353954,-0.007733245500007277,-0.004187907075004601,-0.00862390152178473,-0.002708006275002983
0.365,0.0004381994890003201,-0.7844699159999997,-5.3686560700110765e-05,-2.35612725,-0.00028605688000044765,1.5707386099999998,0.7857207999999997,0.0399999734,0.0399999703,-9.809459499999996,-0.0016474192962080364,-0.007847548200005822,-0.00426017883000368,-0.008587863389400773,-0.0027548665300023865
0.3675,0.0004447351260003327,-0.7844622029999997,-5.594782085011511e-05,-2.356129735,-0.0002951965900004652,1.5707329849999998,0.7857140899999997,0.039999973,0.03999997,-9.809372874999994,-0.001710662315602789,-0.007963901700005696,-0.00433401700000364,-0.008549721259621747,-0.0028027464400023606
0.37,0.00045177011400043506,-0.7844542919999995,-5.838183440015053e-05,-2.3561319400000005,-0.0003050344600006084,1.5707269399999997,0.7857068599999996,0.039999973,0.03999997,-9.809273499999993,-0.001779577415440682,-0.00808435680000745,-0.00441098800000476,-0.00850737113505338,-0.0028526656600030872
0.3725,0.0004588051020005374,-0.7844463809999994,-6.081584795018596e-05,-2.3561341450000004,-0.00031487233000075155,1.5707208949999996,0.7856996299999994,0.039999973,0.03999997,-9.809174124999991,-0.0018484925152785748,-0.008204811900009202,-0.00448795900000588,-0.008465021010485014,-0.0029025848800038135
0.375,0.00046584009000063983,-0.7844384699999993,-6.324986150022137e-05,-2.3561363500000003,-0.0003247102000008947,1.5707148499999994,0.7856923999999994,0.039999973,0.03999997,-9.80907474999999,-0.0019174076151164678,-0.008325267000010956,-0.0045649300000070005,-0.008422670885916647,-0.00295250410000454
0.3775,0.0004728750780007422,-0.7844305589999991,-6.56838750502568e-05,-2.3561385550000002,-0.0003345480700010379,1.5707088049999993,0.7856851699999993,0.039999973,0.03999997,-9.808975374999989,-0.0019863227149543605,-0.008445722100012707,-0.004641901000008121,-0.008380320761348281,-0.003002423320005267
0.38,0.0004799100660008446,-0.7844226479999991,-6.811788860029222e-05,-2.35614076,-0.00034438594000118106,1.5707027599999992,0.7856779399999991,0.039999973,0.03999997,-9.808875999999987,-0.0020552378147922533,-0.008566177200014461,-0.004718872000009241,-0.008337970636779915,-0.003052342540005993
0.3825,0.00048694505400094696,-0.7844147369999989,-7.055190215032764e-05,-2.3561429650000005,-0.00035422381000132423,1.570696714999999,0.785670709999999,0.039999973,0.03999997,-9.808776624999988,-0.0021241529146301466,-0.008686632300016213,-0.004795843000010361,-0.00829562051221155,-0.0031022617600067197
0.385,0.0004945099150010967,-0.7844065899999988,-7.316922100037943e-05,-2.3561450800000006,-0.0003648025600015336,1.5706901999999991,0.7856629369999989,0.039999973,0.03999997,-9.808657749999982,-0.0021976800169901316,-0.008812231400017951,-0.00487594700001144,-0.008248311001800446,-0.0031542199500074206
0.3875,0.0005023397125011038,-0.7843983249999988,-7.587819250038191e-05,-2.3561471500000004,-0.0003757517500015436,1.570683449999999,0.7856548924999989,0.039999973,0.03999997,-9.808529124999982,-0.0022735131206097154,-0.008940402500018069,-0.004957617500011514,-0.00819852179846953,-0.0032071976250074687
0.39,0.000510169510001111,-0.7843900599999988,-7.858716400038437e-05,-2.3561492200000003,-0.0003867009400015535,1.570676699999999,0.7856468479999988,0.039999973,0.03999997,-9.808400499999982,-0.0023493462242292996,-0.009068573600018186,-0.005039288000011588,-0.008148732595138614,-0.003260175300007517
0.3925,0.0005179993075011181,-0.7843817949999988,-8.129613550038683e-05,-2.3561512900000006,-0.0003976501300015635,1.570669949999999,0.7856388034999988,0.039999973,0.03999997,-9.808271874999981,-0.002425179327848884,-0.009196744700018302,-0.005120958500011662,-0.0080989433918077,-0.003313152975007565
0.395,0.0005258291050011252,-0.7843735299999988,-8.40051070003893e-05,-2.3561533600000004,-0.00040859932000157347,1.570663199999999,0.7856307589999988,0.039999973,0.03999997,-9.808143249999981,-0.0025010124314684677,-0.00932491580001842,-0.0052026290000117366,-0.008049154188476784,-0.0033661306500076134
0.3975,0.0005336589025011323,-0.7843652649999988,-8.671407850039177e-05,-2.3561554300000003,-0.00041954851000158345,1.5706564499999989,0.7856227144999988,0.039999973,0.03999997,-9.80801462499998,-0.0025768455350880515,-0.009453086900018537,-0.005284299500011812,-0.00799936498514587,-0.0034191083250076615
0.4,0.0005414887000012618,-0.7843569999999987,-8.942305000043656e-05,-2.3561575000000006,-0.0004304977000017644,1.5706496999999988,0.7856146699999986,0.039999973,0.03999997,-9.80788599999999,-0.0026526786387091185,-0.009581258000019938,-0.005365970000012568,-0.007949575781814138,-0.003472086000008154
0.4025,0.000550159045001388,-0.7843483374999985,-9.24228025004802e-05,-2.3561593750000003,-0.00044262205000194084,1.5706422749999986,0.7856057644999985,0.039999973,0.03999997,-9.807807999999987,-0.0027387019712615005,-0.009718254800021931,-0.005452334000013825,-0.007894188375203379,-0.0035281159500089696
0.405,0.0005588293900015141,-0.7843396749999985,-9.542255500052386e-05,-2.3561612500000004,-0.0004547464000021173,1.5706348499999987,0.7855968589999984,0.039999973,0.03999997,-9.807729999999987,-0.0028247253038138826,-0.009855251600023925,-0.0055386980000150824,-0.007838800968592618,-0.003584145900009785
0.40750000000000003,0.0005674997350016403,-0.7843310124999984,-9.842230750056752e-05,-2.3561631250000006,-0.00046687075000229376,1.5706274249999985,0.7855879534999983,0.039999973,0.03999997,-9.807651999999985,-0.0029107486363662643,-0.009992248400025917,-0.0056250620000163395,-0.007783413561981856,-0.0036401758500106004
0.41000000000000003,0.0005761700800017665,-0.7843223499999983,-0.00010142206000061116,-2.3561650000000003,-0.0004789951000024702,1.5706199999999984,0.7855790479999981,0.039999973,0.03999997,-9.807573999999985,-0.0029967719689186463,-0.010129245200027911,-0.005711426000017596,-0.007728026155371095,-0.0036962058000114158
0.41250000000000003,0.0005848404250018926,-0.7843136874999981,-0.00010442181250065482,-2.3561668750000004,-0.0004911194500026466,1.5706125749999982,0.785570142499998,0.039999973,0.03999997,-9.807495999999983,-0.0030827953014710284,-0.010266242000029905,-0.005797790000018853,-0.007672638748760334,-0.003752235750012231
0.41500000000000004,0.0005935107700020189,-0.784305024999998,-0.00010742156500069848,-2.3561687500000006,-0.0005032438000028231,1.5706051499999982,0.7855612369999979,0.039999973,0.03999997,-9.807417999999982,-0.00316881863402341,-0.010403238800031899,-0.00588415400002011,-0.007617251342149573,-0.0038082657000130466
0.4175,0.0006024764725022771,-0.7842962104999979,-0.00011052349500078782,-2.3561705800000006,-0.0005157810950031842,1.570597489999998,0.7855520279999976,0.039999973,0.03999997,-9.807332599999976,-0.003257560858059746,-0.010543223150034779,-0.005972080200021696,-0.0075597749324368335,-0.003865309750014076
0.42,0.0006120328900021554,-0.7842870919999979,-0.00011382978000074573,-2.3561723200000007,-0.000529144280003014,1.570589359999998,0.7855422119999977,0.039999973,0.03999997,-9.807232399999977,-0.0033517408650580623,-0.010689182600032921,-0.006063130800020537,-0.007498120516524694,-0.003924382000013324
0.4225,0.0006215893075020337,-0.7842779734999981,-0.00011713606500070363,-2.3561740600000003,-0.0005425074650028439,1.5705812299999982,0.7855323959999979,0.039999973,0.03999997,-9.807132199999979,-0.003445920872056378,-0.010835142050031062,-0.006154181400019377,-0.007436466100612554,-0.003983454250012571
0.425,0.0006311457250019121,-0.7842688549999982,-0.00012044235000066153,-2.3561758000000004,-0.0005558706500026737,1.5705730999999983,0.785522579999998,0.039999973,0.03999997,-9.80703199999998,-0.003540100879054694,-0.010981101500029204,-0.006245232000018218,-0.007374811684700414,-0.0040425265000118196
0.4275,0.0006407021425017904,-0.7842597364999983,-0.00012374863500061944,-2.3561775400000005,-0.0005692338350025036,1.5705649699999984,0.7855127639999981,0.039999973,0.03999997,-9.806931799999981,-0.0036342808860530098,-0.011127060950027346,-0.006336282600017058,-0.007313157268788274,-0.004101598750011068
0.43,0.0006502585600016688,-0.7842506179999984,-0.00012705492000057735,-2.3561792800000005,-0.0005825970200023335,1.5705568399999985,0.7855029479999983,0.039999973,0.03999997,-9.806831599999983,-0.003728460893051326,-0.011273020400025487,-0.006427333200015899,-0.007251502852876133,-0.004160671000010316
0.4325,0.000659814977501547,-0.7842414994999986,-0.00013036120500053525,-2.3561810200000006,-0.0005959602050021633,1.5705487099999986,0.7854931319999984,0.039999973,0.03999997,-9.806731399999984,-0.0038226409000496416,-0.011418979850023629,-0.006518383800014739,-0.007189848436963993,-0.004219743250009563
0.435,0.0006699923250017551,-0.7842320139999983,-0.00013388229800060723,-2.3561827700000006,-0.0006101915300024542,1.5705400399999985,0.7854826739999982,0.039999973,0.03999997,-9.806646399999988,-0.00392430645881116,-0.011575045300026962,-0.006612523070016012,-0.007124206051219091,-0.004280833400010392
0.4375,0.0006804801375019078,-0.7842223449999982,-0.00013751079500066003,-2.3561845250000006,-0.0006248569250026676,1.5705310999999984,0.785471894999998,0.039999973,0.03999997,-9.806568999999987,-0.004029714793451623,-0.011736163750029307,-0.006708206675017404,-0.007056569680559222,-0.004342932500011296
0.44,0.0006909679500020603,-0.7842126759999981,-0.00014113929200071284,-2.3561862800000006,-0.000639522320002881,1.5705221599999983,0.7854611159999979,0.039999973,0.03999997,-9.806491599999985,-0.004135123128092087,-0.011897282200031651,-0.006803890280018797,-0.006988933309899353,-0.0044050316000122
0.4425,0.000701455762502213,-0.784203006999998,-0.00014476778900076562,-2.3561880350000006,-0.0006541877150030945,1.570513219999998,0.7854503369999977,0.039999973,0.03999997,-9.806414199999985,-0.004240531462732552,-0.012058400650033996,-0.006899573885020189,-0.0069212969392394835,-0.004467130700013104
0.445,0.0007119435750023656,-0.7841933379999978,-0.00014839628600081843,-2.3561897900000006,-0.0006688531100033079,1.570504279999998,0.7854395579999975,0.039999973,0.03999997,-9.806336799999983,-0.004345939797373016,-0.01221951910003634,-0.006995257490021582,-0.006853660568579614,-0.004529229800014007
0.4475,0.0007224313875025183,-0.7841836689999977,-0.00015202478300087123,-2.3561915450000006,-0.0006835185050035214,1.570495339999998,0.7854287789999974,0.039999973,0.03999997,-9.80625939999998,-0.00445134813201348,-0.012380637550038686,-0.007090941095022975,-0.006786024197919745,-0.004591328900014911
0.45,0.0007329192000029196,-0.7841739999999975,-0.00015565328000101007,-2.3561933000000006,-0.0006981839000040823,1.5704863999999976,0.785417999999997,0.039999973,0.03999997,-9.806181999999984,-0.004556756466656505,-0.012541756000043877,-0.007186624700025532,-0.00671838782725871,-0.004653428000016581
0.4525,0.00074438339100293,-0.7841637849999974,-0.00015961955150101367,-2.3561949800000006,-0.0007142143760040969,1.5704766199999975,0.7854062039999969,0.03999997255,0.0399999694,-9.806120499999984,-0.00467221934816955,-0.012714053500044033,-0.007286886245025624,-0.006646172632444739,-0.0047185359950166405
0.455,0.0007558475820029403,-0.7841535699999974,-0.0001635858230010173,-2.3561966600000006,-0.0007302448520041116,1.5704668399999975,0.7853944079999969,0.0399999721,0.0399999688,-9.806058999999983,-0.004787682229682595,-0.012886351000044191,-0.007387147790025715,-0.0065739574376307685,-0.0047836439900166994
0.4575,0.0007673117730029508,-0.7841433549999974,-0.0001675520945010209,-2.3561983400000006,-0.0007462753280041262,1.5704570599999974,0.7853826119999969,0.03999997165,0.0399999682,-9.805997499999984,-0.00490314511119564,-0.013058648500044349,-0.007487409335025806,-0.0065017422428167975,-0.004848751985016758
0.46,0.0007787759640029612,-0.7841331399999973,-0.0001715183660010245,-2.3562000200000006,-0.0007623058040041407,1.5704472799999976,0.7853708159999969,0.039999971200000005,0.0399999676,-9.805935999999983,-0.005018607992708685,-0.013230946000044505,-0.007587670880025898,-0.0064295270480028265,-0.004913859980016818
0.4625,0.0007902401550029716,-0.7841229249999974,-0.00017548463750102812,-2.3562017000000006,-0.0007783362800041553,1.5704374999999975,0.7853590199999969,0.03999997075,0.039999967,-9.805874499999984,-0.00513407087422173,-0.013403243500044662,-0.007687932425025989,-0.0063573118531888555,-0.004978967975016877
0.465,0.0008017043460029821,-0.7841127099999974,-0.00017945090900103172,-2.3562033800000006,-0.00079436675600417,1.5704277199999974,0.785347223999997,0.0399999703,0.039999966399999996,-9.805812999999983,-0.005249533755734775,-0.01357554100004482,-0.007788193970026081,-0.0062850966583748846,-0.005044075970016936
0.4675,0.0008135088980032023,-0.7841022964999973,-0.0001835349300011079,-2.3562050500000002,-0.0008108730715044777,1.5704176549999973,0.7853350819999968,0.03999997,0.039999966,-9.805748849999981,-0.005368674779343245,-0.01375313825004827,-0.007889962875026876,-0.006211123126539014,-0.005110178705017465
0.47000000000000003,0.0008259941720030434,-0.7840914859999973,-0.0001878544500010529,-2.3562067000000004,-0.0008283310660042555,1.5704070199999973,0.785322247999997,0.03999997,0.039999966,-9.805679399999983,-0.005495172087133934,-0.013941335000045874,-0.007994746500025542,-0.006133632920663471,-0.005178270920016598
0.47250000000000003,0.0008384794460028844,-0.7840806754999975,-0.00019217397000099792,-2.35620835,-0.0008457890605040332,1.5703963849999976,0.7853094139999971,0.03999997,0.039999966,-9.805609949999983,-0.0056216693949246235,-0.01412953175004348,-0.008099530125024207,-0.006056142714787928,-0.005246363135015731
0.47500000000000003,0.0008509647200027255,-0.7840698649999976,-0.00019649349000094293,-2.3562100000000004,-0.0008632470550038109,1.5703857499999978,0.7852965799999972,0.03999997,0.039999966,-9.805540499999983,-0.005748166702715314,-0.014317728500041083,-0.008204313750022873,-0.0059786525089123846,-0.0053144553500148635
0.47750000000000004,0.0008634499940025665,-0.7840590544999978,-0.0002008130100008879,-2.35621165,-0.0008807050495035887,1.5703751149999978,0.7852837459999974,0.03999997,0.039999966,-9.805471049999985,-0.005874664010506003,-0.014505925250038687,-0.00830909737502154,-0.005901162303036841,-0.005382547565013997
0.48,0.0008759352680024073,-0.784048243999998,-0.0002051325300008328,-2.3562133000000003,-0.000898163044003366,1.570364479999998,0.7852709119999975,0.03999997,0.039999966,-9.805401599999986,-0.00600116131829669,-0.014694122000036286,-0.008413881000020202,-0.005823672097161299,-0.005450639780013128
0.4825,0.0008884205420022483,-0.7840374334999981,-0.00020945205000077782,-2.35621495,-0.0009156210385031437,1.570353844999998,0.7852580779999977,0.03999997,0.039999966,-9.805332149999987,-0.006127658626087379,-0.01488231875003389,-0.008518664625018869,-0.005746181891285756,-0.005518731995012262
0.485,0.0009016159900025141,-0.7840261969999979,-0.00021401728900086978,-2.35621635,-0.0009340719830035154,1.570342599999998,0.7852445159999974,0.039999969600000004,0.0399999654,-9.805265599999988,-0.006261701090286849,-0.015077615200036892,-0.008626503350020291,-0.0056655173655446,-0.005588797260013182
0.4875,0.0009151665250027113,-0.7840147474999978,-0.000218705387500938,-2.356217625,-0.0009530194025037911,1.5703310499999978,0.7852305899999972,0.039999969,0.0399999645,-9.805200499999986,-0.006399516132687725,-0.015276461500039787,-0.008735869625021883,-0.005583265679871893,-0.0056598490500142165
0.49,0.0009287170600029085,-0.7840032979999976,-0.00022339348600100624,-2.3562189,-0.0009719668220040668,1.5703194999999976,0.785216663999997,0.0399999684,0.0399999636,-9.805135399999985,-0.0065373311750886,-0.01547530780004268,-0.008845235900023474,-0.0055010139941991856,-0.00573090084001525
0.4925,0.0009422675950031056,-0.7839918484999974,-0.00022808158450107445,-2.3562201750000002,-0.0009909142415043424,1.5703079499999975,0.7852027379999968,0.0399999678,0.0399999627,-9.805070299999985,-0.006675146217489476,-0.015674154100045575,-0.008954602175025066,-0.005418762308526478,-0.005801952630016284
0.495,0.0009558181300033028,-0.7839803989999972,-0.00023276968300114267,-2.3562214500000005,-0.0010098616610046181,1.5702963999999973,0.7851888119999966,0.0399999672,0.0399999618,-9.805005199999984,-0.006812961259890352,-0.01587300040004847,-0.009063968450026659,-0.005336510622853771,-0.005873004420017318
0.4975,0.0009693686650034999,-0.7839689494999971,-0.0002374577815012109,-2.3562227250000003,-0.0010288090805048939,1.570284849999997,0.7851748859999964,0.0399999666,0.0399999609,-9.804940099999982,-0.006950776302291227,-0.01607184670005136,-0.00917333472502825,-0.005254258937181065,-0.005944056210018352
0.5,0.0009829192000039998,-0.7839574999999966,-0.00024214588000138384,-2.3562240000000005,-0.0010477565000055926,1.5702732999999967,0.7851609599999959,0.039999966,0.03999996,-9.80487499999997,-0.007088591344695581,-0.016270693000059448,-0.009282701000031065,-0.005172007251506608,-0.006015108000020185
0.5025000000000001,0.0009975789250040135,-0.7839453649999967,-0.00024721769500138857,-2.3562252000000004,-0.001068254525005612,1.5702608349999967,0.7851458759999959,0.039999966,0.03999996,-9.80477254999997,-0.007239154772874151,-0.01648857670005965,-0.00939655160003117,-0.005083345714932171,-0.006089086800020254
0.505,0.0010122386500040265,-0.7839332299999967,-0.00025228951000139306,-2.3562264,-0.0010887525500056301,1.5702483699999965,0.7851307919999959,0.039999966,0.03999996,-9.80467009999997,-0.007389718201052715,-0.016706460400059846,-0.009510402200031272,-0.0049946841783577375,-0.00616306560002032
0.5075000000000001,0.0010268983750040402,-0.7839210949999966,-0.0002573613250013978,-2.3562276000000004,-0.0011092505750056492,1.5702359049999965,0.7851157079999959,0.039999966,0.03999996,-9.80456764999997,-0.007540281629231285,-0.016924344100060048,-0.009624252800031378,-0.0049060226417833,-0.006237044400020389
0.51,0.0010415581000040534,-0.7839089599999967,-0.0002624331400014023,-2.3562288000000002,-0.0011297486000056676,1.5702234399999966,0.7851006239999958,0.039999966,0.03999996,-9.80446519999997,-0.007690845057409849,-0.017142227800060243,-0.009738103400031478,-0.004817361105208866,-0.006311023200020454
0.5125,0.0010562178250040663,-0.7838968249999967,-0.0002675049550014068,-2.35623,-0.0011502466250056858,1.5702109749999966,0.7850855399999959,0.039999966,0.03999996,-9.804362749999973,-0.007841408485588413,-0.017360111500060435,-0.00985195400003158,-0.004728699568634432,-0.00638500200002052
0.515,0.00107087755000408,-0.7838846899999966,-0.00027257677000141155,-2.3562312000000003,-0.001170744650005705,1.5701985099999967,0.7850704559999958,0.039999966,0.03999996,-9.804260299999973,-0.007991971913766983,-0.017577995200060637,-0.009965804600031686,-0.004640038032059994,-0.006458980800020589
0.5175,0.001085921400004343,-0.7838723099999965,-0.0002777814890015025,-2.3562323650000003,-0.0011917797550060724,1.5701857099999963,0.7850549799999955,0.039999966,0.03999996,-9.804168149999981,-0.008146617142528251,-0.01780009805006332,-0.010081114550032471,-0.004549620952431363,-0.006533925065021114
0.52,0.001101733500004142,-0.7838594399999966,-0.000283252016001433,-2.3562334600000003,-0.0012138890200057914,1.5701722399999967,0.7850387199999957,0.039999966,0.03999996,-9.804096599999982,-0.008309425972444686,-0.018030639200060386,-0.010199343200030969,-0.004455692786698736,-0.0066108002600201365
0.5225,0.0011175456000039401,-0.7838465699999968,-0.0002887225430013632,-2.3562345550000003,-0.0012359982850055095,1.5701587699999968,0.785022459999996,0.039999966,0.03999996,-9.804025049999982,-0.008472234802361115,-0.018261180350057447,-0.010317571850029461,-0.004361764620966114,-0.006687675455019157
0.525,0.0011333577000037392,-0.783833699999997,-0.00029419307000129365,-2.3562356500000003,-0.0012581075500052285,1.570145299999997,0.7850061999999961,0.039999966,0.03999996,-9.803953499999983,-0.008635043632277552,-0.018491721500054518,-0.010435800500027959,-0.004267836455233488,-0.006764550650018179
0.5275,0.0011491698000035376,-0.7838208299999971,-0.0002996635970012239,-2.3562367450000004,-0.0012802168150049464,1.5701318299999971,0.7849899399999963,0.039999966,0.03999996,-9.803881949999985,-0.00879785246219398,-0.018722262650051575,-0.01055402915002645,-0.0041739082895008665,-0.0068414258450171985
0.53,0.0011649819000033364,-0.7838079599999973,-0.0003051341240011544,-2.3562378400000004,-0.0013023260800046654,1.5701183599999973,0.7849736799999966,0.039999966,0.03999996,-9.803810399999985,-0.008960661292110416,-0.018952803800048646,-0.010672257800024948,-0.00407998012376824,-0.006918301040016221
0.5325,0.0011807940000031348,-0.7837950899999975,-0.0003106046510010846,-2.356238935,-0.0013244353450043832,1.5701048899999974,0.7849574199999968,0.039999966,0.03999996,-9.803738849999986,-0.009123470122026843,-0.019183344950045707,-0.01079048645002344,-0.003986051958035618,-0.006995176235015241
0.535,0.001197402920003465,-0.7837817069999973,-0.00031635087700119884,-2.35623999,-0.001347658650004845,1.5700907599999971,0.7849403459999964,0.039999966,0.03999996,-9.803664599999985,-0.009294102154707662,-0.019423190100049812,-0.010911644200024983,-0.0038888946408204062,-0.0070739593300162456
0.5375,0.0012144102500037121,-0.7837680674999971,-0.00032223495250128435,-2.356241025,-0.0013714389750051905,1.5700762999999969,0.7849228649999962,0.039999966,0.03999996,-9.803588999999983,-0.009468645788767247,-0.019667687250053367,-0.011034266500026766,-0.003790122747865316,-0.007153696375017404
0.54,0.00123141758000396,-0.7837544279999968,-0.0003281190280013701,-2.3562420600000005,-0.001395219300005537,1.5700618399999966,0.784905383999996,0.039999966,0.03999996,-9.803513399999982,-0.009643189422826841,-0.01991218440005693,-0.011156888800028552,-0.0036913508549102215,-0.007233433420018566
0.5425,0.0012484249100042071,-0.7837407884999966,-0.0003340031035014556,-2.3562430950000004,-0.0014189996250058826,1.5700473799999963,0.7848879029999957,0.039999966,0.03999996,-9.803437799999982,-0.009817733056886428,-0.020156681550060482,-0.011279511100030334,-0.0035925789619551314,-0.007313170465019725
0.545,0.001265432240004455,-0.7837271489999964,-0.0003398871790015413,-2.3562441300000003,-0.0014427799500062292,1.5700329199999963,0.7848704219999955,0.039999966,0.03999996,-9.80336219999998,-0.009992276690946022,-0.020401178700064047,-0.01140213340003212,-0.0034938070690000364,-0.007392907510020887
0.5475,0.001282439570004702,-0.7837135094999962,-0.00034577125450162684,-2.3562451650000003,-0.0014665602750065748,1.570018459999996,0.7848529409999953,0.039999966,0.03999996,-9.803286599999979,-0.010166820325005608,-0.0206456758500676,-0.011524755700033903,-0.0033950351760449462,-0.007472644555022045
0.55,0.0012994469000053102,-0.7836998699999957,-0.00035165533000183725,-2.3562462000000006,-0.001490340600007425,1.5700039999999955,0.7848354599999946,0.039999966,0.03999996,-9.803210999999985,-0.010341363959069714,-0.020890173000077922,-0.011647378000036962,-0.0032962632830885736,-0.00755238160002403
0.5525,0.0013176917600050775,-0.783685414499996,-0.0003579675505017567,-2.3562471750000005,-0.0015158509650070996,1.5699884899999956,0.7848167114999949,0.0399999666,0.0399999609,-9.803162399999986,-0.010531405452691728,-0.021157892250074507,-0.011774370100035342,-0.0031931006349335996,-0.007634942560022976
0.555,0.0013359366200048457,-0.7836709589999962,-0.00036427977100167647,-2.3562481500000003,-0.0015413613300067754,1.5699729799999957,0.784797962999995,0.0399999672,0.0399999618,-9.803113799999986,-0.010721446946313754,-0.021425611500071107,-0.011901362200033728,-0.0030899379867786207,-0.007717503520021927
0.5575,0.001354181480004613,-0.7836565034999964,-0.00037059199150159597,-2.3562491250000006,-0.00156687169500645,1.569957469999996,0.7847792144999953,0.0399999678,0.0399999627,-9.803065199999986,-0.010911488439935769,-0.021693330750067692,-0.012028354300032108,-0.0029867753386236466,-0.007800064480020874
0.56,0.0013724263400043811,-0.7836420479999965,-0.00037690421200151574,-2.3562501000000005,-0.0015923820600061258,1.5699419599999962,0.7847604659999955,0.0399999684,0.0399999636,-9.803016599999989,-0.011101529933557794,-0.021961050000064288,-0.012155346400030494,-0.0028836126904686677,-0.007882625440019825
0.5625,0.0013906712000041485,-0.7836275924999967,-0.00038321643250143524,-2.3562510750000003,-0.0016178924250058004,1.5699264499999965,0.7847417174999958,0.039999969,0.0399999645,-9.80296799999999,-0.011291571427179811,-0.022228769250060874,-0.012282338500028874,-0.0027804500423136936,-0.007965186400018772
0.5650000000000001,0.0014089160600039166,-0.7836131369999969,-0.000389528653001355,-2.3562520500000006,-0.0016434027900054762,1.5699109399999966,0.784722968999996,0.039999969600000004,0.0399999654,-9.80291939999999,-0.011481612920801835,-0.02249648850005747,-0.012409330600027262,-0.0026772873941587148,-0.008047747360017723
0.5675,0.001427587255004031,-0.7835983999999968,-0.0003959883985013946,-2.356252995,-0.0016695092700056361,1.5698950749999965,0.7847037789999959,0.03999997,0.039999966,-9.802861999999985,-0.011675629764836928,-0.022768775400058103,-0.012537742400027098,-0.002572497969936589,-0.00813123630001762
0.5700000000000001,0.001447111120004049,-0.7835830999999969,-0.0004027431940014009,-2.35625388,-0.0016968079800056615,1.5698784999999966,0.7846837059999959,0.03999997,0.039999966,-9.802786999999984,-0.011877597309690806,-0.023050197600058366,-0.01266899360002722,-0.0024644549935831732,-0.0082165812000177
0.5725,0.0014666349850040665,-0.7835677999999968,-0.00040949798950140685,-2.356254765,-0.0017241066900056858,1.5698619249999965,0.7846636329999959,0.03999997,0.039999966,-9.802711999999984,-0.012079564854544676,-0.023331619800058614,-0.012800244800027337,-0.0023564120172297623,-0.008301926100017775
0.5750000000000001,0.0014861588500040847,-0.7835524999999968,-0.00041625278500141314,-2.35625565,-0.0017514054000057112,1.5698453499999965,0.7846435599999958,0.03999997,0.039999966,-9.802636999999985,-0.012281532399398554,-0.023613042000058877,-0.01293149600002746,-0.002248369040876346,-0.008387271000017855
0.5775,0.001505682715004102,-0.7835371999999967,-0.00042300758050141916,-2.356256535,-0.0017787041100057355,1.5698287749999966,0.7846234869999958,0.03999997,0.039999966,-9.802561999999984,-0.012483499944252423,-0.023894464200059126,-0.013062747200027576,-0.0021403260645229353,-0.008472615900017931
0.58,0.0015252065800041193,-0.7835218999999968,-0.0004297623760014252,-2.35625742,-0.0018060028200057598,1.5698121999999965,0.7846034139999958,0.03999997,0.039999966,-9.802486999999983,-0.012685467489106293,-0.02417588640005938,-0.013193998400027693,-0.0020322830881695244,-0.008557960800018007
0.5825,0.0015447304450041375,-0.7835065999999967,-0.0004365171715014315,-2.356258305,-0.0018333015300057852,1.5697956249999965,0.7845833409999957,0.03999997,0.039999966,-9.802411999999984,-0.01288743503396017,-0.02445730860005964,-0.013325249600027815,-0.0019242401118161087,-0.008643305700018087
0.585,0.0015651343900046253,-0.7834906759999963,-0.00044357648100160025,-2.35625913,-0.0018618306400064672,1.569778299999996,0.7845623649999952,0.03999997,0.039999966,-9.802351799999988,-0.01310016373177237,-0.024755119800067903,-0.013459267750030047,-0.0018131170887249798,-0.008730480300019548
0.5875,0.0015859783750049293,-0.7834744399999961,-0.00045078804750170535,-2.3562599250000003,-0.001890974950006892,1.569760599999996,0.7845409374999949,0.03999997,0.039999966,-9.802298999999987,-0.013318273006058604,-0.025061125500072366,-0.01359466937503202,-0.0017004540422664578,-0.008818569750020832
0.59,0.0016068223600052322,-0.7834582039999959,-0.0004579996140018102,-2.3562607200000003,-0.0019201192600073155,1.5697428999999956,0.7845195099999946,0.03999997,0.039999966,-9.802246199999987,-0.013536382280344827,-0.02536713120007681,-0.013730071000033987,-0.0015877909958079408,-0.00890665920002211
0.5925,0.001627666345005536,-0.7834419679999957,-0.00046521118050191527,-2.3562615150000004,-0.0019492635700077401,1.5697251999999953,0.7844980824999943,0.03999997,0.039999966,-9.802193399999986,-0.01375449155463106,-0.02567313690008127,-0.01386547262503596,-0.0014751279493494186,-0.008994748650023395
0.595,0.0016485103300058388,-0.7834257319999954,-0.0004724227470020201,-2.3562623100000004,-0.0019784078800081637,1.5697074999999951,0.784476654999994,0.03999997,0.039999966,-9.802140599999985,-0.013972600828917285,-0.025979142600085717,-0.014000874250037928,-0.0013624649028909017,-0.009082838100024675
0.5975,0.0016693543150061425,-0.7834094959999952,-0.0004796343135021252,-2.3562631050000005,-0.0020075521900085884,1.5696897999999948,0.7844552274999936,0.03999997,0.039999966,-9.802087799999985,-0.014190710103203519,-0.026285148300090176,-0.014136275875039902,-0.0012498018564323795,-0.00917092755002596
0.6,0.001690198300006866,-0.7833932599999947,-0.00048684588000237557,-2.3562639,-0.0020366965000096,1.5696720999999942,0.7844337999999929,0.03999997,0.039999966,-9.802034999999977,-0.01440881937749387,-0.026591154000099662,-0.014271677500043154,-0.001137138809972492,-0.009259017000028073
0.6025,0.001712402755006584,-0.7833761209999949,-0.0004945282080022779,-2.3562646050000002,-0.0020677428700092053,1.5696532299999943,0.7844109699999932,0.03999997,0.039999966,-9.801962549999978,-0.014640274178305324,-0.026913460500095566,-0.014411238475041381,-0.0010200440941496303,-0.00934980480002692
0.605,0.0017346072100063005,-0.7833589819999951,-0.0005022105360021799,-2.3562653100000004,-0.0020987892400088095,1.5696343599999947,0.7843881399999935,0.03999997,0.039999966,-9.80189009999998,-0.014871728979116766,-0.027235767000091456,-0.0145507994500396,-0.0009029493783267738,-0.009440592600025761
0.6075,0.0017568116650060184,-0.7833418429999953,-0.0005098928640020823,-2.356266015,-0.002129835610008415,1.569615489999995,0.7843653099999938,0.03999997,0.039999966,-9.80181764999998,-0.01510318377992822,-0.02755807350008736,-0.014690360425037827,-0.0007858546625039121,-0.009531380400024608
0.61,0.0017790161200057352,-0.7833247039999955,-0.0005175751920019842,-2.3562667200000003,-0.002160881980008019,1.5695966199999951,0.7843424799999941,0.03999997,0.039999966,-9.801745199999981,-0.015334638580739662,-0.02788038000008325,-0.014829921400036047,-0.0006687599466810555,-0.00962216820002345
0.6125,0.001801220575005453,-0.7833075649999958,-0.0005252575200018866,-2.356267425,-0.0021919283500076246,1.5695777499999954,0.7843196499999944,0.03999997,0.039999966,-9.801672749999982,-0.015566093381551117,-0.028202686500079153,-0.014969482375034274,-0.0005516652308581937,-0.009712956000022296
0.615,0.0018234250300051696,-0.783290425999996,-0.0005329398480017886,-2.35626813,-0.0022229747200072283,1.5695588799999958,0.7842968199999947,0.03999997,0.039999966,-9.801600299999983,-0.01579754818236256,-0.028524993000075043,-0.015109043350032493,-0.0004345705150353372,-0.009803743800021138
0.6175,0.001846096170005303,-0.7832729829999959,-0.0005407836450018348,-2.35626882,-0.0022546736350074147,1.5695396099999956,0.7842735119999946,0.03999997,0.039999966,-9.801537099999988,-0.016034514736439864,-0.028854173400077045,-0.015249940150032254,-0.0003160986001330397,-0.009895417200020995
0.62,0.001869700680005324,-0.7832549319999959,-0.000548950380001842,-2.35626948,-0.0022876776400074443,1.5695195399999955,0.7842492479999945,0.03999997,0.039999966,-9.80149239999999,-0.016282504797037734,-0.02919710160007735,-0.015393508600032382,-0.00019487228707465703,-0.009988861800021077
0.6225,0.001893305190005346,-0.7832368809999959,-0.0005571171150018496,-2.35627014,-0.002320681645007475,1.5694994699999956,0.7842249839999945,0.03999997,0.039999966,-9.80144769999999,-0.016530494857635615,-0.029540029800077666,-0.015537077050032514,-7.364597401626896e-05,-0.010082306400021165
0.625,0.0019169097000053669,-0.7832188299999959,-0.0005652838500018569,-2.3562708,-0.0023536856500075043,1.5694793999999954,0.7842007199999945,0.03999997,0.039999966,-9.80140299999999,-0.016778484918233486,-0.029882958000077973,-0.015680645500032644,4.758033904211375e-05,-0.010175751000021247
0.6275000000000001,0.001940514210005389,-0.7832007789999959,-0.0005734505850018645,-2.35627146,-0.002386689655007535,1.5694593299999955,0.7841764559999945,0.03999997,0.039999966,-9.80135829999999,-0.017026474978831366,-0.03022588620007829,-0.015824213950032775,0.00016880665210050182,-0.010269195600021335
0.63,0.00196411872000541,-0.7831827279999959,-0.0005816173200018718,-2.35627212,-0.0024196936600075643,1.5694392599999956,0.7841521919999944,0.03999997,0.039999966,-9.80131359999999,-0.017274465039429237,-0.030568814400078595,-0.015967782400032902,0.0002900329651588844,-0.010362640200021417
0.6325000000000001,0.0019877232300054316,-0.7831646769999958,-0.0005897840550018795,-2.35627278,-0.002452697665007595,1.5694191899999954,0.7841279279999944,0.03999997,0.039999966,-9.80126889999999,-0.017522455100027118,-0.030911742600078916,-0.016111350850033037,0.00041125927821727254,-0.010456084800021505
0.635,0.002012287160006013,-0.7831459539999954,-0.0005982827950020806,-2.3562734,-0.002487042960008408,1.569398309999995,0.7841026799999938,0.03999997,0.039999966,-9.801203599999981,-0.017779825255337642,-0.031263150600085395,-0.016257596200035435,0.0005354730994742236,-0.010551269000023063
0.6375000000000001,0.002037330800006378,-0.7831268949999952,-0.0006069475375022067,-2.356274,-0.0025220589000089183,1.5693770249999948,0.7840769399999934,0.03999997,0.039999966,-9.80112799999998,-0.018041885457999642,-0.03161879850009058,-0.016405180000037586,0.0006611806748289159,-0.010647323000024463
0.64,0.002062374440006742,-0.7831078359999949,-0.0006156122800023327,-2.3562746,-0.002557074840009427,1.5693557399999944,0.7840511999999931,0.03999997,0.039999966,-9.80105239999998,-0.01830394566066163,-0.031974446400095745,-0.01655276380003973,0.0007868882501836025,-0.01074337700002586
0.6425,0.002087418080007106,-0.7830887769999946,-0.0006242770225024586,-2.3562752000000002,-0.002592090780009936,1.5693344549999941,0.7840254599999927,0.03999997,0.039999966,-9.80097679999998,-0.018566005863323617,-0.03233009430010091,-0.016700347600041875,0.0009125958255382891,-0.010839431000027254
0.645,0.002112461720007471,-0.7830697179999944,-0.0006329417650025849,-2.3562758,-0.0026271067200104464,1.5693131699999938,0.7839997199999923,0.03999997,0.039999966,-9.800901199999979,-0.018828066065985617,-0.032685742200106095,-0.016847931400044026,0.001038303400892981,-0.010935485000028654
0.6475,0.0021375053600078352,-0.783050658999994,-0.0006416065075027107,-2.3562764,-0.002662122660010955,1.5692918849999935,0.783973979999992,0.03999997,0.039999966,-9.800825599999976,-0.019090126268647607,-0.03304139010011126,-0.01699551520004617,0.0011640109762476678,-0.01103153900003005
0.65,0.0021625490000086837,-0.7830315999999935,-0.0006502712500030044,-2.356277,-0.0026971386000121415,1.5692705999999927,0.7839482399999911,0.03999997,0.039999966,-9.800749999999988,-0.019352186471314974,-0.033397038000128366,-0.0171430990000496,0.0012897185516036714,-0.011127593000032247
0.6525,0.002189070095008346,-0.7830115344999937,-0.0006594472225028874,-2.35627757,-0.0027342198600116686,1.569248069999993,0.7839209894999914,0.03999997,0.0399999651,-9.800711449999989,-0.01963064447054085,-0.03378908355012336,-0.01729458925004767,0.001419431401923102,-0.01122608000003099
0.655,0.0022155911900080083,-0.782991468999994,-0.0006686231950027708,-2.35627814,-0.0027713011200111975,1.5692255399999933,0.7838937389999917,0.03999997,0.0399999642,-9.800672899999988,-0.019909102469766734,-0.03418112910011838,-0.017446079500045744,0.0015491442522425384,-0.011324567000029739
0.6575,0.0022421122850076703,-0.7829714034999943,-0.0006777991675026538,-2.35627871,-0.002808382380010724,1.5692030099999936,0.7838664884999921,0.03999997,0.0399999633,-9.800634349999989,-0.02018756046899261,-0.03457317465011338,-0.017597569750043812,0.001678857102561969,-0.011423054000028483
0.66,0.0022686333800073333,-0.7829513379999945,-0.0006869751400025372,-2.3562792800000003,-0.002845463640010253,1.5691804799999938,0.7838392379999924,0.03999997,0.0399999624,-9.80059579999999,-0.020466018468218494,-0.0349652202001084,-0.017749060000041884,0.0018085699528814052,-0.011521541000027231
0.6625,0.002295154475006995,-0.7829312724999947,-0.0006961511125024201,-2.35627985,-0.00288254490000978,1.5691579499999941,0.7838119874999928,0.03999997,0.0399999615,-9.80055724999999,-0.020744476467444366,-0.035357265750103395,-0.01790055025003995,0.001938282803200836,-0.011620028000025975
0.665,0.002321675570006658,-0.782911206999995,-0.0007053270850023035,-2.35628042,-0.0029196261600093086,1.5691354199999945,0.7837847369999932,0.03999997,0.0399999606,-9.80051869999999,-0.02102293446667025,-0.03574931130009842,-0.018052040500038027,0.002067995653520272,-0.011718515000024724
0.6675,0.0023487016350066804,-0.782890768499995,-0.0007146777985023114,-2.35628099,-0.0029574135000093402,1.5691124549999944,0.7837569614999932,0.03999997,0.03999996,-9.800470099999982,-0.021307313814829767,-0.03614479345009587,-0.018204820400037017,0.002199114358550153,-0.0118178868500241
0.67,0.0023767376400063243,-0.7828695839999953,-0.0007243779940021881,-2.35628156,-0.0029966130000088423,1.5690886199999947,0.7837281359999936,0.03999997,0.03999996,-9.800401399999984,-0.021603535860843657,-0.03654714880009076,-0.018360179600035043,0.002333044772997871,-0.011919028400022815
0.6725,0.0024047736450059664,-0.7828483994999955,-0.0007340781895020643,-2.35628213,-0.003035812500008342,1.569064784999995,0.7836993104999939,0.03999997,0.03999996,-9.800332699999984,-0.021899757906857536,-0.036949504150085626,-0.018515538800033062,0.0024669751874455827,-0.012020169950021524
0.675,0.0024328096500056103,-0.7828272149999957,-0.0007437783850019411,-2.3562827,-0.0030750120000078442,1.5690409499999953,0.7836704849999943,0.03999997,0.03999996,-9.800263999999986,-0.022195979952871425,-0.03735185950008051,-0.018670898000031088,0.0026009056018933,-0.01212131150002024
0.6775,0.0024608456550052524,-0.7828060304999961,-0.0007534785805018173,-2.35628327,-0.003114211500007344,1.5690171149999954,0.7836416594999946,0.03999997,0.03999996,-9.800195299999986,-0.022492201998885304,-0.037754214850075386,-0.018826257200029107,0.002734836016341012,-0.012222453050018948
0.68,0.0024888816600048963,-0.7827848459999963,-0.000763178776001694,-2.35628384,-0.003153411000006846,1.5689932799999957,0.7836128339999949,0.03999997,0.03999996,-9.800126599999988,-0.022788424044899194,-0.03815657020007027,-0.018981616400027133,0.00286876643078873,-0.012323594600017663
0.6825,0.002516917665004539,-0.7827636614999965,-0.0007728789715015703,-2.35628441,-0.003192610500006346,1.568969444999996,0.7835840084999953,0.03999997,0.03999996,-9.800057899999988,-0.02308464609091307,-0.03855892555006514,-0.01913697560002515,0.0030026968452364416,-0.012424736150016373
0.685,0.002545988130004952,-0.7827417999999963,-0.0007829371730017134,-2.35628498,-0.003233256500006924,1.5689447299999957,0.7835541199999949,0.0399999703,0.039999961,-9.800019699999996,-0.023393089696817578,-0.0389849962000733,-0.019294810800026624,0.0031386447837804922,-0.01252768500001738
0.6875,0.002575575825005382,-0.782719599999996,-0.0007931743775018621,-2.35628555,-0.003274625750007525,1.5689195749999953,0.7835236999999945,0.03999997075,0.0399999625,-9.799996749999995,-0.023707644082663043,-0.03942292450007966,-0.019453884000028936,0.0032756014843719873,-0.01263153750001889
0.6900000000000001,0.0026051635200058133,-0.7826973999999957,-0.0008034115820020113,-2.35628612,-0.003315995000008128,1.568894419999995,0.783493279999994,0.039999971200000005,0.039999964,-9.799973799999995,-0.02402219846850852,-0.03986085280008604,-0.019612957200031256,0.0034125581849634885,-0.012735390000020405
0.6925,0.002634751215006243,-0.7826751999999954,-0.0008136487865021601,-2.35628669,-0.0033573642500087293,1.5688692649999947,0.7834628599999935,0.03999997165,0.039999965500000005,-9.799950849999995,-0.024336752854353987,-0.040298781100092405,-0.019772030400033565,0.0035495148855549837,-0.012839242500021913
0.6950000000000001,0.0026643389100066742,-0.7826529999999949,-0.0008238859910023093,-2.35628726,-0.0033987335000093323,1.5688441099999941,0.7834324399999931,0.0399999721,0.039999967000000004,-9.799927899999995,-0.024651307240199465,-0.04073670940009878,-0.019931103600035884,0.003686471586146485,-0.012943095000023427
0.6975,0.0026939266050071044,-0.7826307999999946,-0.0008341231955024581,-2.3562878300000003,-0.0034401027500099335,1.5688189549999938,0.7834020199999927,0.03999997255,0.039999968500000004,-9.799904949999995,-0.024965861626044934,-0.04117463770010515,-0.020090176800038197,0.00382342828673798,-0.013046947500024936
0.7000000000000001,0.0027235143000079397,-0.782608599999994,-0.0008443604000027471,-2.3562884,-0.0034814720000111016,1.5687937999999932,0.7833715999999917,0.039999973,0.03999997,-9.799881999999984,-0.025280416011894315,-0.04161256600011372,-0.02024925000004144,0.003960384987330497,-0.013150800000027068
0.7025,0.0027546897750079674,-0.7825852749999941,-0.0008551470605027568,-2.35628897,-0.0035250611000111403,1.5687673249999932,0.7833395509999918,0.039999973,0.03999997105,-9.799816899999984,-0.025610304251397504,-0.042059095600114116,-0.020411961300041585,0.004101329273580202,-0.013257078750027162
0.705,0.0027858652500079954,-0.7825619499999941,-0.0008659337210027663,-2.35628954,-0.003568650200011179,1.568740849999993,0.7833075019999918,0.039999973,0.0399999721,-9.799751799999983,-0.025940192490900692,-0.042505625200114514,-0.02057467260004173,0.004242273559829907,-0.013363357500027257
0.7075,0.0028170407250080244,-0.782538624999994,-0.0008767203815027764,-2.35629011,-0.0036122393000112196,1.5687143749999932,0.7832754529999918,0.039999973,0.03999997315,-9.799686699999983,-0.0262700807304039,-0.04295215480011493,-0.02073738390004188,0.004383217846079618,-0.013469636250027357
0.71,0.002848216200008052,-0.782515299999994,-0.0008875070420027861,-2.3562906800000003,-0.0036558284000112583,1.5686878999999931,0.7832434039999917,0.039999973,0.0399999742,-9.799621599999984,-0.026599968969907087,-0.04339868440011533,-0.020900095200042025,0.004524162132329324,-0.013575915000027451
0.7125,0.002879391675008081,-0.782491974999994,-0.000898293702502796,-2.35629125,-0.0036994175000112993,1.5686614249999933,0.7832113549999917,0.039999973,0.03999997525,-9.799556499999984,-0.02692985720941029,-0.04384521400011575,-0.021062806500042178,0.004665106418579035,-0.01368219375002755
0.715,0.0029105671500081086,-0.782468649999994,-0.0009090803630028057,-2.35629182,-0.0037430066000113376,1.5686349499999932,0.7831793059999917,0.039999973,0.0399999763,-9.799491399999983,-0.027259745448913478,-0.044291743600116146,-0.02122551780004232,0.00480605070482874,-0.013788472500027644
0.7175,0.0029422836350087105,-0.7824449379999935,-0.000920054276503014,-2.35629239,-0.0037873521000121794,1.5686080099999926,0.7831467029999911,0.039999973,0.03999997715,-9.79943574999999,-0.0275957094506353,-0.04475141570012906,-0.02138943205004417,0.004948268109039607,-0.013895534500028851
0.72,0.0029750821400091874,-0.7824204519999931,-0.0009314026960031789,-2.35629296,-0.0038332104000128454,1.5685801399999924,0.7831129919999906,0.039999973,0.0399999776,-9.79939899999999,-0.027943824976780093,-0.04523737280013612,-0.021555752200046588,0.00509303174916979,-0.014004163000030429
0.7225,0.003007880645009665,-0.7823959659999928,-0.0009427511155033443,-2.3562935300000003,-0.003879068700013514,1.5685522699999919,0.7830792809999901,0.039999973,0.039999978049999996,-9.799362249999989,-0.0282919405029249,-0.0457233299001432,-0.021722072350049013,0.00523779538929998,-0.014112791500032012
0.725,0.003040679150010142,-0.7823714799999925,-0.0009540995350035092,-2.3562941,-0.00392492700001418,1.5685243999999914,0.7830455699999896,0.039999973,0.0399999785,-9.79932549999999,-0.028640056029069695,-0.04620928700015026,-0.02188839250005143,0.0053825590294301635,-0.01422142000003359
0.7275,0.0030734776550106198,-0.7823469939999921,-0.0009654479545036746,-2.35629467,-0.003970785300014848,1.568496529999991,0.7830118589999892,0.039999973,0.03999997895,-9.799288749999988,-0.028988171555214503,-0.04669524410015735,-0.02205471265005385,0.005527322669560354,-0.014330048500035173
0.73,0.0031062761600110966,-0.7823225079999917,-0.0009767963740038394,-2.35629524,-0.004016643600015515,1.5684686599999906,0.7829781479999885,0.039999973,0.039999979399999996,-9.799251999999989,-0.029336287081359297,-0.04718120120016441,-0.02222103280005627,0.005672086309690537,-0.014438677000036752
0.7325,0.0031390746650115744,-0.7822980219999913,-0.000988144793504005,-2.35629581,-0.004062501900016183,1.5684407899999901,0.7829444369999881,0.039999973,0.03999997985,-9.799215249999987,-0.029684402607504105,-0.04766715830017149,-0.022387352950058694,0.005816849949820727,-0.014547305500038335
0.735,0.0031729781500120335,-0.782272743999991,-0.0009998756000041637,-2.3562963900000002,-0.004109905100016824,1.5684120099999899,0.7829095759999877,0.039999973,0.0399999815,-9.799172199999985,-0.03004369065178254,-0.04816338060017509,-0.02255602640005932,0.005963536817631994,-0.014657546100038782
0.7375,0.0032074341250115956,-0.7822470699999914,-0.0010117976000040122,-2.3562969750000002,-0.004158080750016212,1.5683827749999901,0.7828741399999881,0.039999973,0.03999998375,-9.799125999999985,-0.030408564955118816,-0.04866473550016872,-0.022725876500057158,0.006111185299282263,-0.014768592750037371
0.74,0.003241890100011156,-0.7822213959999916,-0.0010237196000038602,-2.3562975600000002,-0.004206256400015598,1.5683535399999906,0.7828387039999886,0.039999973,0.039999986,-9.799079799999985,-0.030773439258455076,-0.04916609040016233,-0.022895726600054993,0.006258833780932525,-0.014879639400035954
0.7425,0.003276346075010718,-0.782195721999992,-0.0010356416000037085,-2.3562981450000002,-0.004254432050014986,1.5683243049999909,0.782803267999989,0.039999973,0.03999998825,-9.799033599999985,-0.031138313561791354,-0.04966744530015595,-0.023065576700052836,0.006406482262582794,-0.014990686050034544
0.745,0.0033108020500102783,-0.7821700479999923,-0.0010475636000035564,-2.35629873,-0.004302607700014371,1.5682950699999914,0.7827678319999894,0.039999973,0.0399999905,-9.798987399999985,-0.03150318786512762,-0.05016880020014956,-0.023235426800050668,0.006554130744233055,-0.015101732700033127
0.7475,0.0033452580250098404,-0.7821443739999926,-0.0010594856000034048,-2.356299315,-0.004350783350013759,1.5682658349999916,0.7827323959999899,0.039999973,0.039999992750000005,-9.798941199999987,-0.03186806216846389,-0.050670155100143194,-0.02340527690004851,0.006701779225883324,-0.015212779350031716
0.75,0.0033797140000098626,-0.7821186999999926,-0.0010714076000034125,-2.3562999,-0.00439895900001379,1.5682365999999917,0.7826969599999899,0.039999973,0.039999995,-9.798894999999991,-0.03223293647180489,-0.051171510000147136,-0.023575127000047272,0.006849427707534577,-0.015323826000030785
0.7525000000000001,0.0034158612700098965,-0.7820918304999926,-0.001083914945003424,-2.35630047,-0.004449499745013837,1.5682058949999917,0.7826598109999898,0.039999973,0.039999994250000004,-9.798860499999991,-0.03261515852074353,-0.05171075220014763,-0.023748375950047435,0.007000708766323018,-0.01543665390003089
0.755,0.0034520085400099286,-0.7820649609999926,-0.0010964222900034352,-2.35630104,-0.004500040490013882,1.5681751899999916,0.7826226619999898,0.039999973,0.039999993500000004,-9.798825999999991,-0.032997380569682155,-0.05224999440014812,-0.023921624900047588,0.007151989825111452,-0.015549481800030992
0.7575000000000001,0.003488155810009962,-0.7820380914999926,-0.001108929635003447,-2.35630161,-0.004550581235013929,1.5681444849999917,0.7825855129999898,0.039999973,0.039999992750000005,-9.79879149999999,-0.033379602618620795,-0.052789236600148615,-0.02409487385004775,0.007303270883899893,-0.015662309700031095
0.76,0.003524303080009994,-0.7820112219999925,-0.0011214369800034581,-2.35630218,-0.004601121980013974,1.5681137799999916,0.7825483639999897,0.039999973,0.039999992,-9.79875699999999,-0.03376182466755942,-0.05332847880014909,-0.024268122800047903,0.007454551942688328,-0.015775137600031196
0.7625000000000001,0.003560450350010028,-0.7819843524999925,-0.0011339443250034697,-2.35630275,-0.004651662725014021,1.5680830749999914,0.7825112149999897,0.039999973,0.03999999125,-9.79872249999999,-0.03414404671649806,-0.053867721000149596,-0.024441371750048065,0.0076058330014767694,-0.0158879655000313
0.765,0.00359659762001006,-0.7819574829999926,-0.0011464516700034808,-2.35630332,-0.004702203470014066,1.5680523699999915,0.7824740659999897,0.039999973,0.0399999905,-9.79868799999999,-0.034526268765436685,-0.05440696320015007,-0.024614620700048218,0.007757114060265203,-0.016000793400031403
0.7675000000000001,0.0036333196000107476,-0.7819301964999921,-0.0011591579200037187,-2.35630389,-0.004753547610015027,1.5680211749999908,0.7824363249999889,0.039999973,0.03999999025,-9.798651174999987,-0.03491578139376187,-0.054951648600157665,-0.024789009550050138,0.007909442437856504,-0.016114435000032713
0.77,0.0036711910000112977,-0.7819020759999916,-0.0011722619800039091,-2.35630446,-0.004806498540015796,1.5679889999999905,0.7823973999999884,0.039999973,0.039999991,-9.798609699999988,-0.03531987518084183,-0.05550722040016574,-0.024965678200052705,0.008063865453050888,-0.016229704000034387
0.7725,0.0037090624000118482,-0.7818739554999912,-0.0011853660400040996,-2.35630503,-0.004859449470016566,1.56795682499999,0.7823584749999879,0.039999973,0.03999999175,-9.798568224999986,-0.035723968967921786,-0.05606279220017381,-0.025142346850055272,0.008218288468245271,-0.016344973000036064
0.775,0.0037469338000124,-0.7818458349999908,-0.0011984701000042905,-2.3563056000000002,-0.004912400400017338,1.5679246499999895,0.7823195499999873,0.039999973,0.039999992500000005,-9.798526749999986,-0.03612806275500176,-0.05661836400018191,-0.025319015500057846,0.008372711483439663,-0.01646024200003774
0.7775,0.0037848052000129507,-0.7818177144999904,-0.001211574160004481,-2.3563061700000003,-0.004965351330018107,1.567892474999989,0.7822806249999867,0.039999973,0.039999993250000004,-9.798485274999985,-0.036532156542081716,-0.05717393580018998,-0.025495684150060413,0.008527134498634046,-0.016575511000039417
0.78,0.0038226766000135025,-0.7817895939999899,-0.001224678220004672,-2.3563067400000004,-0.0050183022600188785,1.5678602999999887,0.7822416999999862,0.039999973,0.039999994000000004,-9.798443799999985,-0.03693625032916169,-0.05772950760019808,-0.025672352800062987,0.008681557513828438,-0.016690780000041098
0.7825,0.0038605480000140527,-0.7817614734999895,-0.0012377822800048624,-2.3563073100000005,-0.005071253190019649,1.5678281249999881,0.7822027749999856,0.039999973,0.039999994750000004,-9.798402324999984,-0.037340344116241646,-0.05828507940020615,-0.025849021450065554,0.00883598052902282,-0.01680604900004277
0.785,0.003899590250015282,-0.7817325269999886,-0.0012512915700052878,-2.3563078300000004,-0.005125841380021368,1.567794979999987,0.7821626399999844,0.039999973,0.039999994500000004,-9.798351549999978,-0.03775485157982796,-0.0588587250002247,-0.026027827900069366,0.008992471918524378,-0.016922597100045192
0.7875,0.003939217925015857,-0.7817031674999882,-0.001265003475005487,-2.3563083250000005,-0.005181248200022172,1.5677613499999865,0.7821218999999837,0.039999973,0.039999993750000004,-9.798296124999977,-0.03817456588165863,-0.05944140750023317,-0.02620770325007198,0.009149997495177762,-0.017039784750046895
0.79,0.003978845600016435,-0.7816738079999878,-0.001278715380005687,-2.35630882,-0.00523665502002298,1.567727719999986,0.7820811599999832,0.039999973,0.039999993000000005,-9.798240699999976,-0.03859428018348931,-0.06002409000024166,-0.0263875786000746,0.009307523071831152,-0.0171569724000486
0.7925,0.004018473275017011,-0.7816444484999874,-0.0012924272850058862,-2.3563093150000003,-0.005292061840023785,1.5676940899999856,0.7820404199999825,0.039999973,0.03999999225,-9.798185274999977,-0.039013994485319975,-0.06060677250025013,-0.026567453950077216,0.009465048648484537,-0.017274160050050304
0.795,0.004058100950017588,-0.781615088999987,-0.001306139190006086,-2.3563098100000004,-0.0053474686600245925,1.567660459999985,0.781999679999982,0.039999973,0.0399999915,-9.798129849999976,-0.03943370878715066,-0.06118945500025862,-0.026747329300079836,0.009622574225137927,-0.017391347700052014
0.7975,0.004097728625018164,-0.7815857294999865,-0.0013198510950062853,-2.3563103050000005,-0.005402875480025398,1.5676268299999845,0.7819589399999813,0.039999973,0.03999999075,-9.798074424999974,-0.03985342308898132,-0.06177213750026709,-0.02692720465008245,0.00978009980179131,-0.017508535350053717
0.8,0.004137356300019587,-0.7815563699999855,-0.0013335630000067778,-2.3563108000000006,-0.005458282300027386,1.5675931999999833,0.7819181999999799,0.039999973,0.03999999,-9.798018999999982,-0.04027313739082263,-0.06235482000029256,-0.027107080000086596,0.009937625378446394,-0.017625723000056468
0.8025,0.004178771495017929,-0.7815257204999867,-0.001347893700006204,-2.3563112800000003,-0.005516187280025068,1.5675580249999848,0.7818756299999816,0.0399999736,0.0399999915,-9.797981199999983,-0.04071531239916149,-0.0629734035002678,-0.027290182000079266,0.010098726814682414,-0.017745121050051688
0.805,0.004220186690016272,-0.7814950709999879,-0.0013622244000056308,-2.35631176,-0.005574092260022752,1.567522849999986,0.7818330599999833,0.0399999742,0.039999993,-9.797943399999985,-0.04115748740750038,-0.06359198700024306,-0.027473284000071943,0.010259828250918441,-0.017864519100046914
0.8075,0.004261601885014615,-0.7814644214999892,-0.001376555100005057,-2.3563122400000003,-0.005631997240020434,1.5674876749999875,0.7817904899999849,0.0399999748,0.039999994500000004,-9.797905599999988,-0.04159966241583925,-0.06421057050021828,-0.027656386000064613,0.01042092968715446,-0.017983917150042134
0.81,0.004303017080012958,-0.7814337719999904,-0.0013908858000044838,-2.35631272,-0.005689902220018118,1.567452499999989,0.7817479199999866,0.0399999754,0.039999996,-9.797867799999988,-0.04204183742417813,-0.06482915400019354,-0.02783948800005729,0.010582031123390487,-0.01810331520003736
0.8125,0.0043444322750113,-0.7814031224999917,-0.00140521650000391,-2.3563132,-0.005747807200015799,1.5674173249999903,0.7817053499999883,0.039999976,0.0399999975,-9.79782999999999,-0.042484012432516996,-0.06544773750016877,-0.02802259000004996,0.010743132559626507,-0.01822271325003258
0.8150000000000001,0.004385847470009644,-0.7813724729999929,-0.001419547200003337,-2.35631368,-0.0058057121800134835,1.5673821499999918,0.78166277999999,0.0399999766,0.039999999,-9.797792199999991,-0.042926187440855884,-0.06606632100014403,-0.028205692000042637,0.010904233995862534,-0.018342111300027802
0.8175,0.0044278686500093195,-0.7813413879999931,-0.0014340876500032245,-2.3563141499999998,-0.005864463755013029,1.567346464999992,0.7816195879999904,0.039999977,0.04,-9.797748049999988,-0.04337445013234997,-0.06669006600013667,-0.028389799750040117,0.011066343775054398,-0.018462198200026182
0.8200000000000001,0.0044711018000105395,-0.7813094319999923,-0.0014490476000036468,-2.3563146,-0.005924908520014735,1.567309759999991,0.7815751519999892,0.039999977,0.04,-9.797691199999987,-0.043834888190143244,-0.06732413400015456,-0.02857591900004537,0.011230470240156089,-0.01858366280002961
0.8225,0.004514334950011757,-0.7812774759999913,-0.0014640075500040681,-2.35631505,-0.005985353285016437,1.56727305499999,0.7815307159999879,0.039999977,0.04,-9.797634349999985,-0.04429532624793649,-0.06795820200017243,-0.028762038250050612,0.011394596705257772,-0.018705127400033033
0.8250000000000001,0.004557568100012977,-0.7812455199999905,-0.0014789675000044904,-2.3563155,-0.006045798050018143,1.5672363499999888,0.7814862799999867,0.039999977,0.04,-9.797577499999983,-0.04475576430572976,-0.06859227000019032,-0.028948157500055867,0.011558723170359464,-0.01882659200003646
0.8275,0.004600801250014195,-0.7812135639999895,-0.0014939274500049117,-2.3563159500000004,-0.006106242815019846,1.5671996449999879,0.7814418439999854,0.039999977,0.04,-9.797520649999981,-0.04521620236352301,-0.06922633800020818,-0.029134276750061108,0.011722849635461148,-0.01894805660003988
0.8300000000000001,0.004644034400015415,-0.7811816079999886,-0.001508887400005334,-2.3563164000000003,-0.006166687580021552,1.567162939999987,0.7813974079999841,0.039999977,0.04,-9.79746379999998,-0.04567664042131627,-0.06986040600022607,-0.029320396000066362,0.01188697610056284,-0.019069521200043307
0.8325,0.004687267550016633,-0.7811496519999878,-0.0015238473500057553,-2.3563168500000002,-0.0062271323450232546,1.5671262349999857,0.7813529719999829,0.039999977,0.04,-9.797406949999978,-0.04613707847910952,-0.07049447400024393,-0.029506515250071603,0.012051102565664523,-0.019190985800046727
0.835,0.004731732740018204,-0.7811168099999866,-0.0015392336800062992,-2.3563173100000006,-0.006289299340025451,1.5670884799999845,0.7813072599999813,0.0399999766,0.0399999995,-9.79737169999999,-0.04661145880837803,-0.07115527300027223,-0.029694702500076407,0.012217123061485872,-0.019313782200049853
0.8375,0.004776813950018861,-0.7810835249999861,-0.0015548332000065266,-2.3563177750000004,-0.00635232745002637,1.567050199999984,0.7812609099999807,0.039999976,0.03999999875,-9.797347249999989,-0.04709281027337184,-0.07182943750028205,-0.029883923750079165,0.01238409057266538,-0.019437244500051652
