rsonawane2002/My_IMU/logs_2/traj_268/clean_268.csv
time,j1,j2,j3,j4,j5,j6,j7,gripper1,gripper2,imu_ax,imu_ay,imu_az,imu_gx,imu_gy,imu_gz,quat_x,quat_y,quat_z,quat_w
188.8833333333758,0.00016700293,-0.785875,4.0107683e-05,-2.3551247,9.29385e-05,1.570997,0.786,0.04,0.04,0.0,-0.0,0.0,2.875329272945135e-08,-0.0011641195053377316,4.421952117202833e-08,0.9999995971961153,0.00020320632366974898,0.0008736418299892524,3.263050917662294e-05
188.90000000004247,0.00016701163,-0.78576016,4.0108534e-05,-2.3552213,9.29726e-05,1.5709941,0.786,0.04,0.04,-0.29199845959111403,-3.351784183967181e-05,0.020128408503961026,-1.8364052294192914e-08,-0.0022384545297414846,2.496229982918938e-07,0.9999996850588894,0.0002032064172813298,0.0007665025182505349,3.2606188183370775e-05
188.91666666670915,0.00016705964,-0.7856543,4.0067047e-05,-2.35531,9.299403e-05,1.5709913,0.786,0.04,0.04,0.02332872821340093,1.589516214188123e-05,-0.001670433186573561,-4.940610728270448e-07,-0.0032296545100938797,1.4255796919116619e-06,0.999999755846796,0.00020320145237283282,0.0006677972492920369,3.2593738513640484e-05
188.93333333337583,0.00016721126,-0.78555703,3.99144e-05,-2.355391,9.298664e-05,1.5709884,0.786,0.04,0.04,0.022460754329234334,3.8237512987762505e-05,-0.0015248893561858878,-1.7935246310911214e-06,-0.004144402076798003,4.467135140166288e-06,0.9999998122476269,0.00020318363396211721,0.0005771981943595004,3.260929711420844e-05
188.9500000000425,0.00016755791,-0.7854676,3.955223e-05,-2.3554652,9.29273e-05,1.5709856,0.786,0.04,0.04,0.02045309162994613,7.075431282262774e-05,-0.0014251743047699605,-3.995171177089987e-06,-0.004990188016092632,1.0180728723778241e-05,0.9999998568196794,0.00020314207439191804,0.0004939900913299651,3.267580043084361e-05
188.9666666667092,0.00016821547,-0.7853856,3.8855145e-05,-2.355532,9.278661e-05,1.5709827,0.786,0.04,0.04,0.02073533710373887,0.00011273145882282612,-0.0009303399272964086,-7.692714905687348e-06,-0.005770955649882683,1.928984291407296e-05,0.9999998914096954,0.00020306318525801917,0.0004181729306701833,3.282286468921448e-05
188.98333333337587,0.00016932162,-0.78531045,3.767362e-05,-2.3555937,9.253876e-05,1.5709798,0.786,0.04,0.039999995,0.016089161837018473,0.00015679378310911674,-0.0016822601697663586,-1.2899701253428477e-05,-0.006491300384888789,3.320882535043019e-05,0.9999999182103116,0.00020293108809147094,0.0003482863847395684,3.308984394461234e-05
189.00000000004255,0.00017103417,-0.7852416,3.5836838e-05,-2.3556514,9.213325e-05,1.570977,0.786,0.04,0.039999995,0.01387479716299378,0.00022193372583361945,-0.0017974359296957232,-2.0145853350445528e-05,-0.007163909012534211,5.09523277917597e-05,0.9999999386789666,0.00020272732775899086,0.0002835853827685531,3.351155401116042e-05
189.01666666670923,0.00017352814,-0.7851789,3.3154458e-05,-2.3557022,9.152487e-05,1.570974,0.786,0.04,0.039999995,0.018501036940454796,0.00028674463914049445,-0.0004981080891752754,-2.9113269944138244e-05,-0.00779678757199136,7.3852936704637e-05,0.999999953536551,0.0002024316376207938,0.00022535140704793333,3.413314106572191e-05
189.0333333333759,0.00017699417,-0.7851219,2.9419127e-05,-2.3557487,9.066459e-05,1.570971,0.786,0.04,0.039999995,0.013619931768404925,0.00035785150046137824,-0.0013404706177055914,-4.055427687764214e-05,-0.008381157670064332,0.00010237118587526448,0.9999999641675797,0.00020202210854682986,0.00017212412363216498,3.5002754536975985e-05
189.0500000000426,0.00018163699,-0.7850705,2.440839e-05,-2.355791,8.948875e-05,1.5709678,0.786,0.04,0.04,0.012941089250606552,0.00044189780399083497,-0.0015188747275907133,-5.4375587740685216e-05,-0.008928973956024232,0.00013616041868089895,0.9999999714143983,0.00020147506040972933,0.0001235756855498882,3.616701006652859e-05
189.06666666670927,0.00018767315,-0.7850243,1.788628e-05,-2.3558273,8.795385e-05,1.570964,0.786,0.04,0.04,0.01614432493930451,0.0005135261229934898,-0.0006507796451726833,-7.073787977581731e-05,-0.009446226815991346,0.00017714934251005654,0.9999999759002087,0.0002007656066704157,8.045112067392123e-05,3.768780209336096e-05
189.08333333337595,0.00019533015,-0.784983,9.604936e-06,-2.3558617,8.600096e-05,1.5709573,0.786,0.04,0.04,0.007738278293345502,0.0005995940868963319,-0.004055460140905964,-8.950854579995701e-05,-0.00992716973253928,0.00022484205479089467,0.9999999784695174,0.000199867731395461,3.9293327371943015e-05,3.9621827499012535e-05
189.10000000004263,0.00020484487,-0.7849466,-6.935109e-07,-2.3558893,8.3569044e-05,1.5709505,0.786,0.04,0.04,0.016775727750539815,0.0006871327812147526,9.425728937362265e-05,-0.00011135723914088568,-0.010405100728912603,0.00027952331431694286,0.9999999793575332,0.00019875412886832987,3.887161630841783e-06,4.203117096584943e-05
189.1166666667093,0.00021646202,-0.7849149,-1.3275613e-05,-2.3559146,8.059441e-05,1.5709435,0.786,0.04,0.04,0.00911562674543731,0.0007795009442768889,-0.0017469817620519024,-0.00013584330586353252,-0.010844700327359404,0.0003414284407930779,0.9999999791103589,0.00019739680189116663,-2.8121805828846377e-05,4.497719837230335e-05
189.133333333376,0.0002304334,-0.78488785,-2.841597e-05,-2.3559346,7.70126e-05,1.570933,0.786,0.04,0.04,0.012957396074697591,0.0008739543904380531,-0.0028603528617665575,-0.00016305805116062153,-0.011268846192598055,0.0004107652557982369,0.9999999780408384,0.00019576684501918862,-5.691244442576475e-05,4.852462219076145e-05
189.15000000004267,0.00024701646,-0.78486526,-4.6395235e-05,-2.3559508,7.275694e-05,1.5709224,0.786,0.04,0.04,0.011385947273612196,0.0009705296089753237,-0.0009112444726788738,-0.00019335241799076495,-0.011681445625748793,0.00048771204362948637,0.9999999764923256,0.00019383489388190533,-8.162055340955011e-05,5.273961714447834e-05
189.16666666670935,0.0002664736,-0.78484726,-6.749944e-05,-2.3559628,6.775979e-05,1.5709105,0.786,0.04,0.04,0.011949971307290141,0.0010692619111391086,-0.0016515505127490115,-0.00022651873606826527,-0.012075908697031474,0.000572412128232959,0.9999999747286106,0.00019157087249324222,-0.00010254423607945315,5.768932864945233e-05
189.18333333337603,0.00028907103,-0.78483367,-9.201903e-05,-2.3559709,6.195234e-05,1.570896,0.786,0.04,0.04,0.01056423620182656,0.0011699484688274377,-0.0026513785670978507,-0.0002626105205467994,-0.012453470560444803,0.0006649872591099153,0.9999999728645127,0.00018894436313496714,-0.0001206074604985198,6.344164123428807e-05
189.2000000000427,0.00031507853,-0.7848243,-0.00012024773,-2.355975,5.52603e-05,1.5708797,0.786,0.039999995,0.039999995,0.010959987958192308,0.0012745311554749705,-0.0019979674760639554,-0.0003019400947545183,-0.012824943122034582,0.0007657252479506015,0.9999999710838664,0.00018592438179483673,-0.00013548251525279903,7.006338997679861e-05
189.2166666667094,0.00034476767,-0.78481936,-0.00015248205,-2.3559747,4.7618858e-05,1.5708612,0.786,0.03999999,0.03999999,0.011486672520555352,0.0013736947157017075,-0.0021691039886251318,-0.00034400105629442455,-0.013189181750276176,0.0008741808265330039,0.9999999695212587,0.00018248000516016423,-0.0001470801316685606,7.762708546515165e-05
189.23333333337607,0.00037841173,-0.78481895,-0.00018902044,-2.3559709,3.895705e-05,1.5708393,0.786,0.039999988,0.039999988,0.009987351688267587,0.0014780312830465678,-0.003534379079805916,-0.0003893590469400565,-0.013544926824493396,0.0009909021242978954,0.9999999681158385,0.00017858006854740133,-0.00015635414659465708,8.620244742356802e-05
189.25000000004275,0.00041628553,-0.7848229,-0.0002301622,-2.355962,2.9203804e-05,1.5708162,0.7860002,0.039999984,0.039999984,0.012936471975644181,0.0015816530642323579,-0.0011028588204675671,-0.0004374807138935157,-0.013903775799309454,0.0011157708598554012,0.9999999671695434,0.00017428255587987335,-0.0001615464235886864,9.586060591745912e-05
189.26666666670943,0.00045866385,-0.7848311,-0.00027620743,-2.3559504,1.8288181e-05,1.57079,0.7860021,0.03999998,0.03999998,0.008657761067665248,0.0016864327404588365,-0.0033647942404346765,-0.000489752421648159,-0.014248192353386552,0.0012487932565560392,0.9999999662488172,0.00017033094611551292,-0.000164654028646693,0.00010667138450494238
189.2833333333761,0.00050582155,-0.784844,-0.000327456,-2.3559325,6.1397845e-06,1.5707604,0.786004,0.039999977,0.039999973,0.0145344045391127,0.0017916234697448513,-0.0025138399496027475,-0.0005527438966144399,-0.01459823320485887,0.0013908546880327306,0.9999999657357125,0.0001658296835537176,-0.00016412743262739362,0.00011870667898406325
189.3000000000428,0.00055803324,-0.7848613,-0.00038420738,-2.355911,-7.3132733e-06,1.5707277,0.7860059,0.039999973,0.03999997,0.010068160513099222,0.0018965359481671782,-0.0031458421042129814,-0.0006187849036660901,-0.014940546816149845,0.0015402132827322802,0.9999999653916506,0.00016074731732136296,-0.00016106962903934718,0.00013203625313251235
189.31666666670947,0.000615572,-0.7848834,-0.00044676,-2.3558843,-2.2141116e-05,1.5706923,0.7860078,0.03999997,0.039999966,0.013241136528230335,0.002002076060292383,-0.002355130769404745,-0.0006875855584379567,-0.015285934947752858,0.0016977156157885278,0.999999965293299,0.00015505298066911962,-0.00015440808915837977,0.00014673144098174674
189.33333333337615,0.00067870994,-0.78491,-0.00051541044,-2.3558533,-3.841446e-05,1.5706536,0.7860097,0.039999966,0.039999966,0.011298555548155953,0.002106376947638418,-0.0031608853860332076,-0.0007594000802251922,-0.015625655961373452,0.0018624700129976778,0.9999999651706146,0.00014871539802952335,-0.00014497768398782682,0.00016286181570063655
189.35000000004283,0.0007477174,-0.7849415,-0.0005904537,-2.3558183,-5.6201618e-05,1.5706111,0.78601164,0.03999996,0.039999958,0.011041647243925645,0.002209697725775745,-0.0036706415115439484,-0.0008339454995773884,-0.015967737756879655,0.0020370092225539234,0.999999964831388,0.00014170370091022067,-0.00013295769073376365,0.00018049802352210716
189.3666666667095,0.00082286226,-0.7849777,-0.00067218236,-2.3557775,-7.557346e-05,1.5705649,0.78601354,0.039999958,0.039999954,0.013705313485901094,0.0023160422768234755,-0.0029453122045275393,-0.0009114539978210474,-0.016315463133290367,0.0022187142504717936,0.999999964162997,0.00013398763479526075,-0.00011763337819340791,0.00019970905489294838
189.38333333337619,0.00090441015,-0.7850191,-0.0007608863,-2.355732,-9.659799e-05,1.5705147,0.78601545,0.039999954,0.03999995,0.012637309757046467,0.0024188502300343333,-0.003767739016380389,-0.0009916383264845898,-0.016661484843181605,0.0024083836872784534,0.9999999628683723,0.00012553675998632128,-9.927355957384849e-05,0.00022056413204238362
189.40000000004287,0.0009926242,-0.7850654,-0.00085685274,-2.3556817,-0.000119343145,1.5704604,0.78601736,0.03999995,0.039999947,0.012201260971567152,0.0025217318964377493,-0.0036563513057252806,-0.0010744512077342815,-0.01701102608888903,0.00260594915279605,0.9999999606270698,0.0001163211336639832,-7.811731849223676e-05,0.00024313152265660357
189.41666666670955,0.0010877644,-0.7851168,-0.0009603654,-2.3556259,-0.00014387634,1.5704019,0.78601927,0.039999947,0.039999943,0.013535114858109765,0.002624984627248273,-0.0036175877099919873,-0.0011598651771841508,-0.017364656036879648,0.0028113401509973638,0.9999999571272067,0.00010631123104614373,-5.383757303132095e-05,0.0002674790135705185
189.43333333337623,0.0011900875,-0.7851734,-0.001071705,-2.3555644,-0.00017026337,1.5703387,0.7860212,0.039999943,0.039999936,0.014020602040965002,0.002727322184171285,-0.0038819581655191726,-0.0012481154445070919,-0.017720924069792983,0.003025344404557572,0.9999999519710987,9.547797761351005e-05,-2.64053492488656e-05,0.00029367416225020406
189.4500000000429,0.0012998469,-0.78523546,-0.001191148,-2.3554978,-0.00019857053,1.5702709,0.7860231,0.03999994,0.039999932,0.012998546306519643,0.002828201332763223,-0.00430713780821268,-0.0013388745832491687,-0.01808260949988807,0.0032461568720195564,0.9999999447097159,8.379231707941333e-05,3.910213919533309e-06,0.00032178272634221484
189.46666666670959,0.001417293,-0.7853031,-0.001318967,-2.355426,-0.00022886212,1.5701984,0.786025,0.039999936,0.03999993,0.013596329890352976,0.0029280526265935904,-0.00430563343618573,-0.001431846206674897,-0.018448639472062423,0.0034745499960435284,0.999999934860731,7.122556134603393e-05,3.731671778598158e-05,0.00035187059529754667
189.48333333337627,0.0015426712,-0.7853762,-0.0014554309,-2.355348,-0.0002612016,1.570121,0.7860269,0.039999932,0.039999925,0.014938244440632076,0.003029553430325114,-0.003959751244297927,-0.0015274904468951529,-0.018821003954957217,0.0037104397234695883,0.9999999218593878,5.775034038155826e-05,7.408126618016046e-05,0.0003840027113713403
189.50000000004295,0.0016762242,-0.7854549,-0.0016008043,-2.3552642,-0.00029565158,1.5700387,0.7860288,0.03999993,0.03999992,0.014752912616944336,0.0031282929967776365,-0.004295528994502362,-0.0016252585944733118,-0.01919630584829481,0.00395371486334791,0.9999999050828767,4.333895670274554e-05,0.00011414302865196847,0.0004182431606060488
189.51666666670963,0.0018181902,-0.7855395,-0.0017553476,-2.355174,-0.00033227383,1.5699513,0.7860307,0.03999993,0.03999992,0.015349101499806395,0.0032273807963717396,-0.004296033559891832,-0.0017256218154795043,-0.019575443131379572,0.004204291459275077,0.9999998838171767,2.796444975950316e-05,0.00015770928081584935,0.0004546552597192748
189.5333333333763,0.0019688038,-0.7856299,-0.0019193159,-2.355079,-0.00037112876,1.5698582,0.7860326,0.039999932,0.039999925,0.013089812850242133,0.0033213586625507213,-0.0053669700242009455,-0.0018279897054765985,-0.019958722163793373,0.004462066350736479,0.9999998574877287,1.1599226173310461e-05,0.00020382488771020097,0.0004933005121904292
189.55000000004298,0.0021282937,-0.78572637,-0.0020929605,-2.3549771,-0.00041227555,1.5697602,0.7860345,0.039999932,0.039999925,0.016379898975582563,0.0034225063804044307,-0.004108014188819453,-0.0019325576572457432,-0.020352910298443133,0.004726944741380259,0.9999998250616593,-5.781295351724232e-06,0.0002538293648341511,0.0005342414069695304
189.56666666670966,0.002296886,-0.7858288,-0.002276527,-2.354869,-0.00045577207,1.5696564,0.78603643,0.039999932,0.03999992,0.015664069226506427,0.0035163354617653462,-0.004932126781587165,-0.0020390303718824635,-0.02074946023011135,0.004999669974323384,0.9999997857691684,-2.4203470853633866e-05,0.0003071249445284256,0.000577537944956044
189.58333333337634,0.0024748014,-0.78593755,-0.002470257,-2.3547535,-0.0005016764,1.5695469,0.7860401,0.039999932,0.03999992,0.017209286604558116,0.003614604846488862,-0.004579144461214213,-0.002147590640843717,-0.02115101556647574,0.005278429787288267,0.9999997385046152,-4.2797720273307825e-05,0.0003643052544766791,0.000623250140550875
189.60000000004302,0.0026622566,-0.78605276,-0.0026743866,-2.3546317,-0.00055004377,1.5694314,0.78604394,0.039999932,0.03999992,0.016096160775247448,0.0037065548817412884,-0.005397111768101759,-0.0022664473403711887,-0.021555064590943192,0.005563954687963201,0.9999996823715392,-6.242372971637346e-05,0.0004248918818191431,0.0006714365103267347
189.6166666667097,0.002859463,-0.7861743,-0.0028891477,-2.3545039,-0.00060092896,1.5693102,0.78604776,0.039999932,0.03999992,0.015191469044317785,0.003799150317559544,-0.005249515875394017,-0.0023875518389748856,-0.021964247890593258,0.005856152648990165,0.9999996163578484,-8.316483403875349e-05,0.0004887336841261706,0.0007221545209850407
189.63333333337638,0.0030666282,-0.7863025,-0.0031147667,-2.3543692,-0.0006543856,1.5691828,0.7860516,0.03999993,0.039999917,0.017044095101081957,0.0038945298897809797,-0.005393319090529758,-0.0025105846299496404,-0.022383276515247,0.0061549229046494215,0.9999995391079397,-0.00010504442596904452,0.0005562455690619169,0.0007754614393368545
189.65000000004306,0.0032839535,-0.7864373,-0.0033514635,-2.3542278,-0.0007104659,1.5690489,0.7860554,0.039999925,0.039999913,0.016419489784813557,0.003985406549669567,-0.005618908741489292,-0.002635216065114372,-0.02280678849529302,0.006460136295961944,0.9999994495295945,-0.0001280853622858165,0.0006271270277437496,0.0008314122558148395
189.66666666670974,0.0035116388,-0.7865789,-0.0035994535,-2.3540797,-0.00076922047,1.5689087,0.7860592,0.03999992,0.039999906,0.016773321252538942,0.004073220051777683,-0.0057103189644802654,-0.0027616607208916085,-0.02323830731165213,0.006772549222647243,0.9999993461849731,-0.00015231145385092657,0.0007015840177985174,0.0008900621964581626
189.68333333337642,0.0037498754,-0.7867274,-0.0038589498,-2.3539243,-0.0008307003,1.5687623,0.786063,0.039999925,0.03999991,0.01807855344186926,0.004171855426870368,-0.005349815428057347,-0.00288954971794922,-0.023675915052440256,0.007090362499093637,0.9999992273126415,-0.0001777421765747561,0.0007800607391558331,0.0009514657543824472
189.7000000000431,0.003998851,-0.7868828,-0.004130156,-2.3537614,-0.0008949532,1.5686091,0.78606683,0.03999993,0.039999913,0.017808580101585925,0.004259034605400653,-0.005772085002764271,-0.003019141577342132,-0.02411720854019648,0.007414269229256674,0.9999990915949784,-0.00020439954451708034,0.0008622263537676826,0.0010156750263745319
189.71666666670978,0.0042587495,-0.7870454,-0.004413273,-2.353591,-0.00096202665,1.568449,0.78607064,0.03999993,0.039999913,0.018554679121352002,0.004351093537327804,-0.005972782695828904,-0.0031497911571373165,-0.024563604914787623,0.007744217057209259,0.9999989371988973,-0.00023230403057302061,0.0009483160752175084,0.0010827430603927597
189.73333333337646,0.0045297486,-0.7872153,-0.004708494,-2.353413,-0.0010319666,1.5682822,0.78607446,0.03999993,0.039999913,0.018274438991050523,0.004436378134077177,-0.005948668640276544,-0.0032820141140047438,-0.0250150945367216,0.008080052020623504,0.9999987623407516,-0.0002614763539352347,0.0010383563147208289,0.0011527199335022908
189.75000000004314,0.004812022,-0.7873925,-0.005016009,-2.3532276,-0.0011048176,1.5681083,0.78607893,0.039999932,0.039999913,0.018575862711633917,0.004525675812609253,-0.006247094151778931,-0.003415424944646171,-0.025470361046993732,0.008422566083564818,0.9999985653651501,-0.00029160827087194136,0.001132253669655859,0.001225656512074888
189.76666666670982,0.005105739,-0.78757703,-0.0053360006,-2.3530343,-0.0011806238,1.5679275,0.7860844,0.039999936,0.039999917,0.01903823912399183,0.004613402993529098,-0.005979961936830591,-0.0035533094864132297,-0.025932399131335666,0.008769891093343418,0.9999983441510781,-0.00032253988274420087,0.001230242457041117,0.0013016015607171165
189.7833333333765,0.0054110633,-0.787769,-0.00566865,-2.3528333,-0.0012594273,1.5677395,0.78609014,0.03999994,0.03999992,0.018668876699545756,0.004700439361107075,-0.006346839386450753,-0.0036966376804584786,-0.026398002058875616,0.009122799417700372,0.9999980967683683,-0.00035467718247165787,0.001332140268564292,0.0013806035064461316
189.80000000004318,0.005728151,-0.7879686,-0.006014131,-2.3526247,-0.0013412684,1.5675445,0.78609586,0.039999947,0.03999993,0.01881752330696873,0.004790045336830221,-0.006343046353163295,-0.0038423820897730836,-0.0268675438924331,0.009481164609997544,0.9999978208930923,-0.000388155582838997,0.00143806223364374,0.0014627102660306074
189.81666666670986,0.0060571567,-0.7881757,-0.0063726096,-2.3524077,-0.001426187,1.5673422,0.7861016,0.039999954,0.039999932,0.019935222059119795,0.004877371237506671,-0.0062242972238335526,-0.003989087028550355,-0.027343614385413616,0.009845753760050851,0.9999975139069348,-0.0004229924300177572,0.0015482423285391037,0.001547967391840566
189.83333333337654,0.0063982294,-0.7883907,-0.006744248,-2.352182,-0.0015142224,1.5671324,0.7861073,0.03999996,0.03999994,0.02097506308440522,0.004966814908769542,-0.006383635838336232,-0.004136697372267696,-0.02782248378717168,0.010214748538004952,0.9999971729341803,-0.00045920445631437545,0.001662944104662961,0.001636420428571129
189.85000000004322,0.0067515145,-0.7886135,-0.007129204,-2.351948,-0.0016054108,1.5669148,0.786113,0.03999997,0.039999947,0.019593366046022354,0.0050458431590122334,-0.006860325857593885,-0.004285156423847859,-0.028301669719589268,0.01058888577797335,0.9999967962474602,-0.0004968092033125004,0.0017816560287624089,0.0017281137770425274
189.8666666667099,0.0071171494,-0.7888439,-0.00752763,-2.3517058,-0.001699789,1.5666896,0.78611875,0.03999998,0.039999958,0.01981420515282384,0.005133447239934891,-0.006584784433916191,-0.004434369566504462,-0.028786015248356542,0.010968083676331227,0.9999963811244058,-0.0005358207226329094,0.0019044623860353944,0.0018230900321625138
189.88333333337658,0.007495268,-0.7890824,-0.00793967,-2.3514557,-0.0017973904,1.5664568,0.78612447,0.039999984,0.039999958,0.019436957893592677,0.0052126477183034835,-0.0070540283812148274,-0.00458428316018285,-0.029275883625442818,0.011353103761052336,0.999995924935149,-0.0005762555282093839,0.002031328014263195,0.001921392505589631
189.90000000004326,0.007886001,-0.7893291,-0.008365468,-2.3511968,-0.0018982491,1.5662163,0.78613067,0.039999988,0.03999996,0.021226987321276702,0.0053054034039943035,-0.006764096604627845,-0.004734844822323436,-0.02977160789681369,0.011742103426197492,0.9999954238206078,-0.0006178884249530699,0.0021628130635393678,0.0020230648504933452
189.91666666670994,0.008289473,-0.789584,-0.008805159,-2.3509297,-0.002002398,1.565968,0.7861377,0.03999999,0.039999966,0.0198402603494241,0.005381667646184871,-0.007241568301208368,-0.004888181374065105,-0.03026659721138398,0.012135835504093615,0.9999948759834097,-0.0006605562088455398,0.002298404602213081,0.0021281467770208535
189.93333333337662,0.008705799,-0.789847,-0.009258875,-2.3506546,-0.0021098666,1.5657117,0.7861453,0.03999999,0.03999996,0.019771661335954427,0.005472099939340296,-0.007353347018090872,-0.00504587064036289,-0.03076669066889863,0.012535055703097115,0.9999942785227625,-0.0007043879493603769,0.0024380370651926305,0.0022366793747555062
189.9500000000433,0.009135096,-0.7901183,-0.009726737,-2.350371,-0.0022206851,1.5654476,0.78615296,0.03999999,0.03999996,0.020654401179975856,0.00554873915091258,-0.00711687041758946,-0.005206755928871129,-0.03127375936628836,0.01293793356702745,0.9999936273162413,-0.0007496974100426466,0.0025820325338571978,0.002348699362138324
189.96666666670998,0.009577482,-0.7903979,-0.010208867,-2.350078,-0.0023348813,1.5651754,0.7861606,0.039999995,0.039999966,0.021525072970640657,0.0056326492742735275,-0.0070946538805793935,-0.005368005999392361,-0.03178295633255662,0.013345267531867346,0.9999929183644167,-0.0007964979508147985,0.0027306228073621093,0.0024642465613631697
189.98333333337666,0.0100330515,-0.7906861,-0.010705382,-2.349776,-0.0024524825,1.5648949,0.7861682,0.039999995,0.03999996,0.022043655943404517,0.005732780662730469,-0.007424198984384844,-0.005529554395740427,-0.032294596607073664,0.013757810601077176,0.999992147928823,-0.0008447956735496791,0.0028838606293539065,0.0025833599902905296
190.00000000004334,0.010501907,-0.7909825,-0.011216389,-2.3494651,-0.0025735158,1.5646064,0.78617585,0.04,0.039999966,0.020918856730833824,0.005803249971423523,-0.007184590483144682,-0.005691387349935396,-0.032804957915479695,0.014173731255056233,0.9999913130270676,-0.000894603682151429,0.0030415004785718075,0.0027060727063407774
190.01666666671002,0.010984141,-0.79128754,-0.011741994,-2.3491454,-0.0026980045,1.5643098,0.7861835,0.04,0.039999966,0.02130271043805365,0.005891100892947655,-0.007544420344851588,-0.005853162788971907,-0.03331878656022544,0.014593571494896387,0.9999904094556397,-0.0009459311119016478,0.0032036839796096206,0.002832422996740483
190.0333333333767,0.011479852,-0.7916011,-0.012282291,-2.348817,-0.0028259722,1.5640048,0.7861913,0.04,0.039999966,0.020612996498892144,0.005956023162941634,-0.007872255658747385,-0.006015373100120069,-0.03383589221488721,0.015017822082335076,0.9999894346004152,-0.0009987044734647618,0.0033700456075140737,0.0029624431673281907
190.05000000004338,0.011989118,-0.7919233,-0.01283738,-2.3484802,-0.0029574418,1.5636911,0.78619987,0.04,0.039999973,0.020600240344559317,0.0060509064626041754,-0.008024937058070947,-0.006178165812115722,-0.034355444972180474,0.015445998944892216,0.9999883850491071,-0.001052630399055946,0.003540546694035417,0.0030961694444984864
190.06666666671006,0.012512027,-0.79225445,-0.01340735,-2.3481333,-0.0030924329,1.5633695,0.78620905,0.04,0.039999966,0.023641516755468217,0.006147109913831345,-0.007247741107874184,-0.0063445126625693744,-0.03488200150648618,0.01587851847242249,0.9999872522699702,-0.0011078058419400913,0.003716401036420565,0.0032336399162349425
190.08333333337674,0.013048655,-0.7925941,-0.01399228,-2.3477774,-0.003230967,1.5630393,0.7862186,0.04,0.039999966,0.021196287360303323,0.006211175192591487,-0.007817216908190261,-0.0065138875673118645,-0.035402142484471835,0.016314278694703234,0.9999860355476253,-0.0011643612784199915,0.003896557431852966,0.0033748796626290227
190.10000000004342,0.01359907,-0.7929425,-0.014592255,-2.3474126,-0.0033730625,1.5627007,0.7862281,0.04,0.03999996,0.02121676446291687,0.006300859617891768,-0.007983418384371888,-0.00668450502545305,-0.03592481486072302,0.016753756448503243,0.9999847296818983,-0.0012224803856584095,0.004081186504737246,0.0035199234993186944
190.1166666667101,0.014163343,-0.7932999,-0.015207343,-2.3470392,-0.0035187358,1.5623533,0.78623766,0.04,0.03999996,0.020704389191106287,0.006366417627352676,-0.008630026029798898,-0.006854685436491293,-0.03645086994063449,0.017196830064597587,0.9999833317084581,-0.0012821768710910956,0.004269921642851111,0.0036688004697575153
190.13333333337678,0.014741535,-0.79366595,-0.015837615,-2.3466558,-0.003668004,1.5619973,0.7862472,0.04,0.039999958,0.022916376547588158,0.006475405887330574,-0.0075318507908539445,-0.007024850943552326,-0.03698178793034406,0.01764380253170496,0.9999818336451163,-0.0013434485380507044,0.004463558227906562,0.0038215407524373013
190.15000000004346,0.015333709,-0.794041,-0.01648313,-2.346263,-0.0038208817,1.5616329,0.78625673,0.04,0.039999958,0.022450205766211262,0.006539294429993084,-0.00798106075088345,-0.007194766572416744,-0.037510598563568975,0.018093800367861027,0.9999802307737007,-0.0014063082010346713,0.004662027116810544,0.003978173221759098
190.16666666671014,0.015939916,-0.794425,-0.017143961,-2.345861,-0.0039773844,1.5612597,0.78626657,0.04,0.039999966,0.02151221637824996,0.006635429730345466,-0.008395891733448124,-0.007364079191894987,-0.03803738478202509,0.018547112473830785,0.9999785199607635,-0.0014706073801205356,0.004864960217238172,0.004138730856098489
190.18333333337682,0.016560197,-0.7948178,-0.017820152,-2.3454506,-0.0041375216,1.5608778,0.786277,0.04,0.03999996,0.019944751169220787,0.006690796029277732,-0.008679126657962222,-0.007534336857124758,-0.038566323427074105,0.019004000287392003,0.9999766992112068,-0.0015362056752272898,0.005071810374239836,0.004303236724946709
190.2000000000435,0.017194608,-0.7952196,-0.018511754,-2.3450305,-0.0043013087,1.5604874,0.78628796,0.04,0.03999996,0.022701850807016477,0.006796512812896286,-0.007994226674035154,-0.0077068225691641346,-0.039102011979691445,0.01946368823418501,0.9999747584069527,-0.0016031352288645674,0.005283580410782905,0.004471720523171064
190.21666666671018,0.017843192,-0.79563034,-0.019218806,-2.3446004,-0.0044687544,1.560088,0.78629935,0.04,0.039999958,0.022833204059491408,0.006872975038683948,-0.008254888473380184,-0.007881277805980056,-0.039634644447898465,0.01992636661834145,0.9999726927987909,-0.0016714622451080247,0.005500110833086441,0.004644206231630534
190.23333333337686,0.018505976,-0.7960502,-0.019941354,-2.3441608,-0.004639869,1.5596802,0.7863108,0.04,0.039999966,0.02231753522106139,0.006964352770800868,-0.008247368099256747,-0.008057067265410797,-0.04016498425563292,0.020391978279629845,0.9999704960448471,-0.0017413633748678838,0.0057214808847446084,0.004820720890566582
190.25000000004354,0.019182997,-0.7964792,-0.020679438,-2.3437123,-0.0048146597,1.5592636,0.78632224,0.04,0.039999966,0.020992987605872315,0.0070282222508493905,-0.008884899969552329,-0.008232267739946316,-0.040693795604696534,0.020860474094794357,0.9999681653445994,-0.0018128772800807464,0.005947172852180461,0.005001290672370777
190.26666666671022,0.019874284,-0.7969172,-0.021433087,-2.3432543,-0.0049931337,1.558838,0.7863337,0.04,0.03999996,0.02185067179314437,0.007119291771701987,-0.008577177115154377,-0.008407038244541651,-0.041224645168717454,0.021332201305377843,0.9999656940832092,-0.0018860038194880879,0.006177354102887967,0.00518593699982511
190.2833333333769,0.02057986,-0.79736406,-0.022202319,-2.3427863,-0.0051752967,1.558404,0.7863451,0.04,0.03999996,0.022692050229267124,0.007203820059390083,-0.008035680177864712,-0.008580696917377176,-0.041755397610709455,0.021806221180126505,0.9999630736412382,-0.0019607429029678217,0.006412459962295611,0.005374681243414941
190.30000000004358,0.021299746,-0.79782015,-0.02298716,-2.342309,-0.005361155,1.5579609,0.78635705,0.04,0.03999997,0.02161102557487471,0.007278095565084464,-0.009028614737838225,-0.008753648040507196,-0.04228358792754902,0.02228323307380161,0.9999603014457159,-0.002036862786133185,0.006652000238472473,0.0055675502162749555
190.31666666671026,0.02203395,-0.7982854,-0.023787623,-2.3418221,-0.005550712,1.557509,0.78636944,0.04,0.039999958,0.021965981472149565,0.007363263738721475,-0.008763353181717726,-0.008928174133973751,-0.042811172686491525,0.022762383581311416,0.9999573701435661,-0.002114361188667841,0.006896171195930581,0.005764563744403194
190.33333333337694,0.022782493,-0.79875976,-0.02460372,-2.3413255,-0.0057439697,1.5570483,0.78638226,0.04,0.03999996,0.022215563137883976,0.007442440100237022,-0.008552263742989119,-0.009103715972960448,-0.043336707490835374,0.0232439041824717,0.9999542726121016,-0.002193270053546372,0.007145079513759159,0.005965743039804151
190.35000000004362,0.023545373,-0.7992432,-0.025435468,-2.3408198,-0.0059409314,1.5565789,0.7863955,0.04,0.039999966,0.020959219228977588,0.007523627333115741,-0.009012000370556272,-0.009280211544825605,-0.04385909513466664,0.023727778087312253,0.9999510052984699,-0.0022735870856479957,0.007398324865622126,0.006171109586296166
190.3666666667103,0.0243226,-0.79973584,-0.026282862,-2.3403049,-0.006141597,1.5561007,0.78640884,0.04,0.039999958,0.02140162878716545,0.007595475864616633,-0.008908294149545526,-0.009457316351157607,-0.04438343981656569,0.024214323383924333,0.9999475600115647,-0.0023554650627389353,0.00765610363453848,0.0063806808722649015
190.38333333337698,0.025114167,-0.8002374,-0.027145907,-2.3397799,-0.006345966,1.5556136,0.7864222,0.04,0.03999995,0.02221057539166793,0.0077051172201143825,-0.00870046087535492,-0.009634130455975021,-0.04490521006889281,0.02470263788931631,0.9999439291272824,-0.002438954482505335,0.007918522048077173,0.006594475801679078
190.40000000004366,0.025920076,-0.800748,-0.028024597,-2.339245,-0.006554036,1.5551176,0.78643554,0.04,0.039999954,0.021799998961213873,0.0077742126586241925,-0.008881001164273705,-0.009809823504662068,-0.04542394523699188,0.025193091969888837,0.9999401065931941,-0.0025240576984625826,0.008185477141500445,0.006812512245290904
190.41666666671034,0.026740303,-0.80126786,-0.02891891,-2.3387012,-0.0067658103,1.5546125,0.786449,0.04,0.03999997,0.020797724984600308,0.007843349690904618,-0.009483603571647237,-0.009984425389085857,-0.045940221197103726,0.02568555505756373,0.9999360880356176,-0.0026107164466064067,0.008456686588124667,0.007034803167912041
190.43333333337702,0.027574854,-0.80179673,-0.029828843,-2.338148,-0.00698128,1.554099,0.78646296,0.04,0.039999954,0.021001040787993475,0.007912056606327288,-0.008814126118372734,-0.01015807256948057,-0.0464567050349447,0.026180308243916997,0.9999318648661895,-0.002698751461262958,0.008732403110697727,0.007261370510253428
190.4500000000437,0.028423706,-0.8023348,-0.030754374,-2.3375852,-0.007200442,1.5535767,0.7864773,0.04,0.039999958,0.021854159663536876,0.008018096908620972,-0.008959855934187466,-0.010332781483077182,-0.04697039617366093,0.026676556068672495,0.9999274281348771,-0.002788185107416907,0.009012821048019306,0.007492232253023533
190.46666666671038,0.029286832,-0.80288184,-0.031695478,-2.3370128,-0.00742329,1.5530454,0.78649205,0.04,0.039999954,0.021059915599019874,0.008089946157533931,-0.009260205808359068,-0.010508157618732316,-0.04747906900844236,0.027174359642032082,0.999922774117805,-0.0028790445164898234,0.009297538644319248,0.0077273979050311095
190.48333333337706,0.030164221,-0.80343795,-0.032652132,-2.3364313,-0.007649819,1.5525054,0.7865071,0.04,0.039999947,0.020354387057031076,0.008145322136188064,-0.009268649059657186,-0.010683760982769843,-0.04798649337754954,0.027674443234922304,0.9999178959945042,-0.002971333948116695,0.009586511114888254,0.007966884531406666
190.50000000004374,0.03105583,-0.804003,-0.033624314,-2.33584,-0.007880022,1.5519567,0.7865224,0.04,0.039999966,0.021362462821894468,0.008276113526161158,-0.008966164674717447,-0.010859170441551037,-0.04849312345914763,0.028175787846552905,0.9999127834386204,-0.0030651221473813666,0.00988002206709625,0.008210706803062606
190.51666666671042,0.031961635,-0.8045771,-0.034611985,-2.3352394,-0.008113889,1.5513991,0.78653765,0.04,0.039999973,0.020561748562197835,0.008328804392805991,-0.009364555126145646,-0.011034355595058018,-0.04899390419279834,0.02867857105023474,0.9999074310286638,-0.0031605033090154897,0.010177818543660271,0.008458877123110052
190.5333333333771,0.03288159,-0.80516034,-0.03561509,-2.3346293,-0.00835141,1.5508329,0.7865529,0.04,0.039999958,0.02099074749817298,0.008406075432959917,-0.009272570932283841,-0.011207986168769401,-0.04949303435905857,0.029182358512747184,0.9999018291532396,-0.003257472629011366,0.010480093820000815,0.008711404111920458
190.55000000004378,0.033815667,-0.80575234,-0.03663359,-2.33401,-0.008592579,1.5502579,0.78656846,0.04,0.039999943,0.02011390859708584,0.00846903083648147,-0.0091957597448733,-0.01138041268956927,-0.04998662334887692,0.029688067122477714,0.9998959738387061,-0.003355878299631161,0.010786532971749694,0.008968293507294067
190.56666666671046,0.034763806,-0.80635357,-0.037667453,-2.3333814,-0.00883738,1.5496744,0.7865844,0.04,0.039999947,0.020181418098674797,0.008584562376388188,-0.009545201922467328,-0.01155219081558334,-0.05047760860748824,0.030195133165072927,0.9998898555690316,-0.0034556746509974852,0.011097298332441306,0.009229572718617879
190.58333333337714,0.03572599,-0.80696326,-0.038716614,-2.3327436,-0.009085805,1.5490822,0.78660065,0.04,0.03999994,0.019621738366515373,0.008604238556011307,-0.009112854270187931,-0.011723991879114291,-0.05096518366608499,0.030702794086257177,0.9998834704263119,-0.0035568714406445817,0.011412046107894319,0.009495232352121654
190.60000000004382,0.036702156,-0.8075824,-0.03978104,-2.3320966,-0.009337843,1.5484813,0.7866172,0.04,0.039999943,0.020608858043313916,0.00874755611335494,-0.009669300336612174,-0.011895916028744237,-0.051450558874485554,0.03121172838162775,0.9998768042706017,-0.003659481970227558,0.011731296158810198,0.009765304078873455
190.6166666667105,0.037692238,-0.8082097,-0.04086065,-2.3314395,-0.009593475,1.547872,0.78663415,0.04,0.039999943,0.020446357738501675,0.008814316190852364,-0.00871165299958232,-0.012067499691760285,-0.051928627502682775,0.031721364313257006,0.9998698521760855,-0.003763457803426019,0.012054793767215632,0.010039773003647652
190.63333333337718,0.038696185,-0.8088464,-0.041955404,-2.330774,-0.009852688,1.547254,0.7866513,0.04,0.039999947,0.018745232496231168,0.008870130959640413,-0.010098779864553542,-0.012238971169018897,-0.052402981366113786,0.03223268973488086,0.9998626089182437,-0.0038688667291643507,0.01238225409391029,0.010318669535806811
190.65000000004386,0.039713956,-0.8094913,-0.043065213,-2.330099,-0.010115463,1.5466274,0.7866685,0.04,0.039999936,0.019392891659730793,0.008918896557843711,-0.008957413013122029,-0.012409718394053247,-0.052873798191022336,0.032743591888808925,0.9998550663861823,-0.003975821886601926,0.012713661870401648,0.01060197453564008
190.66666666671054,0.040745474,-0.81014514,-0.04419001,-2.3294153,-0.010381788,1.5459927,0.78668565,0.04,0.039999932,0.019149063237478003,0.00900388314659141,-0.00944815622558881,-0.012578848763003636,-0.05334040278448018,0.033255606125995846,0.9998472125589025,-0.004084315581891389,0.013049297953204133,0.010889707404186558
190.68333333337722,0.04179067,-0.8108077,-0.04532973,-2.328722,-0.010651645,1.5453494,0.78670317,0.04,0.03999993,0.019750093033010785,0.009127161129457093,-0.009488432278881298,-0.012745908714068305,-0.0538013628798483,0.03376903683738559,0.9998390410431013,-0.004194149702929352,0.013389053691637577,0.01118187620766573
190.7000000000439,0.04284948,-0.8114788,-0.046484284,-2.3280196,-0.010925015,1.5446975,0.78672093,0.04,0.03999993,0.018733634027645607,0.009147469613613943,-0.009429947344385958,-0.012912941337306718,-0.054256991927094475,0.03428235242006067,0.9998305461960711,-0.004305386167788075,0.01373270399064483,0.011478474825413433
190.71666666671058,0.04392181,-0.8121585,-0.04765362,-2.3273082,-0.011201881,1.5440375,0.78673905,0.04,0.039999932,0.018847254285248027,0.009288162273280234,-0.009382500627030943,-0.01307902133173717,-0.05470748510744057,0.03479598257927127,0.9998217175055112,-0.004417934189591384,0.014080409120045335,0.01177952209720648
190.73333333337726,0.045007598,-0.812847,-0.04883763,-2.3265884,-0.011482222,1.5433693,0.78675747,0.04,0.03999994,0.017705746164820013,0.009280781694710055,-0.009682681933242954,-0.013244834611705615,-0.055152406385739365,0.035310127617080016,0.9998125498114967,-0.004531839032523632,0.014431913463845786,0.012085013371472584
190.75000000004394,0.046106756,-0.81354386,-0.050036233,-2.3258595,-0.011766015,1.5426929,0.7867761,0.04,0.03999993,0.01833540558502378,0.00940204373959981,-0.009297381342210365,-0.013410119900347022,-0.05559295215235666,0.03582496604372565,0.9998030334728396,-0.004647102650375894,0.014787288955761129,0.012394949810455996
190.76666666671062,0.047219213,-0.8142491,-0.051249325,-2.3251219,-0.012053242,1.542008,0.7867951,0.04,0.039999925,0.01781738654855758,0.009434783764400434,-0.009648613390256244,-0.013574421771175616,-0.05602729217053957,0.036339458457926674,0.9997931633739594,-0.0047637013448415646,0.015146308805178763,0.012709325307289089
190.7833333333773,0.048344884,-0.81496274,-0.05247683,-2.3243754,-0.012343876,1.5413154,0.78681415,0.04,0.039999913,0.017961290141199626,0.009528301445830417,-0.009174458695149212,-0.013738028079366471,-0.05645812289224988,0.03685364743511618,0.9997829251549231,-0.004881702561587019,0.015509313379254385,0.01302815210495018
190.80000000004398,0.04948367,-0.81568474,-0.05371865,-2.3236203,-0.012637896,1.5406141,0.7868332,0.04,0.039999925,0.017069167993843948,0.009591975845620743,-0.009973818064046291,-0.013899987500816417,-0.05688083719389183,0.03736806679954557,0.9997723197491413,-0.00500116067076977,0.015875659767296393,0.013351422482975618
190.81666666671066,0.05063548,-0.816415,-0.054974675,-2.322856,-0.012935284,1.5399052,0.7868526,0.04,0.039999925,0.018486562280584096,0.009712400985949221,-0.008946758929706533,-0.014059981999510907,-0.057300840547668715,0.03788212202478081,0.9997613257921518,-0.005121897101012285,0.016246191839012738,0.013679139999852045
190.83333333337734,0.051800214,-0.8171535,-0.0562448,-2.3220832,-0.0132360095,1.5391884,0.7868722,0.04,0.039999917,0.01662012989074313,0.009714080148661222,-0.00947184644917165,-0.014219481876604644,-0.057710070584172934,0.03839715854577442,0.9997499443900892,-0.0052439456292384876,0.016620266068926633,0.01401129837128568
190.85000000004402,0.05297778,-0.8179001,-0.05752893,-2.3213024,-0.013540045,1.538464,0.78689206,0.04,0.039999917,0.016067070048819687,0.009769224728591736,-0.009351470862672961,-0.014377776203677198,-0.05811336663158287,0.03891073443674056,0.9997381680241465,-0.005367293909903018,0.016997804336559737,0.014347898784989613
190.8666666667107,0.05416808,-0.8186547,-0.058826957,-2.3205132,-0.01384737,1.5377314,0.78691214,0.04,0.039999925,0.016080038880428305,0.009859746244056389,-0.009589453778846568,-0.01453501650818173,-0.05851080153414731,0.039423527523190185,0.9997259914123263,-0.0054919262445989395,0.017378609390646914,0.014688933807885341
190.88333333337738,0.055371,-0.8194173,-0.060138743,-2.3197157,-0.014157952,1.5369912,0.78693247,0.04,0.03999993,0.01614254629287437,0.009901622126330667,-0.00928841768659261,-0.014691083293068166,-0.058905587615004695,0.03993592044994263,0.9997134020349642,-0.005617833333429582,0.01776290125077355,0.015034396544964313
190.90000000004406,0.05658645,-0.82018805,-0.061464183,-2.31891,-0.014471764,1.5362433,0.78695303,0.04,0.03999992,0.016190107503843976,0.009976271237070386,-0.009541376663357859,-0.014846156668853479,-0.05929176816969728,0.04044876892655522,0.999700390581826,-0.005745005972284146,0.018150690768361896,0.015384290739394891
190.91666666671074,0.057814308,-0.8209666,-0.06280318,-2.3180952,-0.014788782,1.5354877,0.78697383,0.04,0.03999992,0.01651257686106078,0.010111976406721943,-0.009196666482758076,-0.014999937210207696,-0.059672163084312335,0.040959587801521175,0.9996869473891186,-0.00587340596887112,0.018542018779023846,0.015738610540601855
190.93333333337742,0.059054468,-0.821753,-0.06415556,-2.3172724,-0.015108977,1.5347244,0.7869948,0.04,0.03999992,0.01530058269803014,0.01006280729649485,-0.009440167762697627,-0.015152505709604943,-0.06004206684585703,0.04146991557981956,0.9996730685947173,-0.006003080732047123,0.01893659949755141,0.016097333556075004
190.9500000000441,0.060306806,-0.82254714,-0.06552124,-2.3164418,-0.015432312,1.5339535,0.787016,0.04,0.039999925,0.01463953182918587,0.0101447939156573,-0.009362107204680115,-0.015304016496204866,-0.060406367163797534,0.04197974447096624,0.9996587484692045,-0.006134001931449687,0.01933426510511151,0.016460462391251734
190.96666666671078,0.0615712,-0.8233489,-0.06690007,-2.315603,-0.015758762,1.5331751,0.7870373,0.04,0.039999932,0.014836239243543048,0.010218788722126879,-0.009376805074401418,-0.015453677245049577,-0.06076444723491288,0.04248824628195916,0.9996439781642047,-0.006266153584732531,0.019735026942805847,0.01682798118795799
190.98333333337746,0.06284754,-0.8241582,-0.06829195,-2.3147566,-0.016088301,1.5323894,0.78705883,0.04,0.039999932,0.013978688368032621,0.010274775943139303,-0.00927790731442002,-0.015601781729433675,-0.061117137637572934,0.042995405841236484,0.99962875089868,-0.0063995191687939166,0.020138776484681365,0.017199889908169824
191.00000000004414,0.064135715,-0.8249751,-0.069696695,-2.3139026,-0.01642089,1.5315964,0.7870806,0.04,0.039999932,0.013877696713393561,0.010254067586035198,-0.009321801012096564,-0.01574855458500432,-0.06146281228217114,0.04350217568023154,0.9996130585564104,-0.006534077853206105,0.020545495156154975,0.017576166217212228
191.01666666671082,0.065435566,-0.8257992,-0.07111422,-2.313041,-0.016756497,1.5307962,0.7871025,0.04,0.03999994,0.013451767788064117,0.010397785611328259,-0.00916745951071718,-0.01589383955560927,-0.06180208745706045,0.0440055610422892,0.9995968957841341,-0.006669807789894427,0.020955015688527173,0.017956807073151025
191.0333333333775,0.06674699,-0.8266309,-0.07254434,-2.312172,-0.017095087,1.5299889,0.7871247,0.04,0.03999994,0.013281691993416445,0.010361683192386395,-0.009271007797861941,-0.016037531701423503,-0.062136285961203734,0.04450917239175972,0.9995802519113545,-0.006806695684088714,0.021367438420438513,0.01834179538774699
191.05000000004418,0.06806983,-0.8274698,-0.07398695,-2.3112948,-0.017436631,1.5291746,0.78714705,0.04,0.03999994,0.014134230005602433,0.010549472769131457,-0.008926102665807178,-0.016179915229636747,-0.06246311371391446,0.045010954698770686,0.9995631132460995,-0.006944715404875024,0.021782983113589782,0.018731129501009632
191.06666666671086,0.06940396,-0.8283158,-0.07544186,-2.31041,-0.017781086,1.5283535,0.7871696,0.04,0.03999993,0.013052750235864607,0.010491429010613118,-0.00878948451081829,-0.01632104515803793,-0.06277850084675138,0.04551169713980981,0.9995454766147858,-0.007083870999835875,0.022201394011051548,0.0191247759344944
191.08333333337754,0.07074927,-0.82916886,-0.076908946,-2.3095176,-0.018128429,1.5275254,0.78719234,0.04,0.039999947,0.012967510610106814,0.010558078970595436,-0.008957529144626442,-0.01646013143752508,-0.06308732873767058,0.04600419982584526,0.9995273343942874,-0.007224121583187953,0.022622621726119542,0.01952272655748791
191.10000000004422,0.07210561,-0.83002895,-0.07838807,-2.3086176,-0.018478613,1.5266908,0.7872154,0.04,0.03999994,0.012923211391413503,0.010627181496865312,-0.00869872131545879,-0.016598564058484,-0.06338664137178232,0.04650565331872601,0.9995086748805299,-0.007365408927784001,0.02304679596193723,0.019924978940576075
191.1166666667109,0.07347286,-0.83089614,-0.07987908,-2.30771,-0.01883161,1.5258493,0.78723854,0.04,0.039999936,0.012755544368348026,0.010669732522093633,-0.009042168743356171,-0.016735719406241106,-0.06367645062824392,0.04700066403358076,0.9994894921030776,-0.007507846472852744,0.023473751700091833,0.02033151243745882
191.13333333337758,0.07485081,-0.83176994,-0.0813818,-2.306796,-0.01918738,1.5250012,0.7872618,0.04,0.039999936,0.009802672186376427,0.010592058653106917,-0.00902630782917413,-0.016870672951538452,-0.0639557517436517,0.04749269077562337,0.9994697983643677,-0.0076513871582196925,0.02390263810585434,0.020742283471831807
191.15000000004426,0.0762394,-0.83265054,-0.082896076,-2.305875,-0.019545885,1.5241464,0.78728515,0.04,0.03999995,0.011547393882294088,0.01068421197130201,-0.008799546025639593,-0.017003226956541263,-0.06423337618461555,0.04797690296566538,0.999449570716528,-0.007796024760282714,0.024334061266017552,0.021157293181946743
191.16666666671094,0.07763842,-0.83353776,-0.08442176,-2.304947,-0.019907087,1.5232854,0.78730875,0.04,0.039999932,0.011337974317005006,0.010783948482170902,-0.008543753359391282,-0.01713420331609721,-0.06450055966130033,0.04846932427295645,0.9994288010876743,-0.007941648981217693,0.024768032485412324,0.021576522766994743
191.18333333337762,0.07904774,-0.83443147,-0.085958704,-2.3040125,-0.020270955,1.5224179,0.78733253,0.04,0.03999996,0.009446442803584532,0.010724151422972922,-0.008869162964852961,-0.017263535568018268,-0.06476036053140088,0.04894680499186388,0.9994074961204646,-0.008088297562689318,0.025203938911012563,0.021999945548359087
191.2000000000443,0.08046721,-0.8353317,-0.08750669,-2.303071,-0.02063743,1.5215442,0.7873565,0.04,0.039999932,0.01105125696714282,0.010791537878369895,-0.008445296711356853,-0.017391816553698862,-0.06501507265012374,0.04943765716666476,0.9993856332978761,-0.008235945462226729,0.025642359265842095,0.022427540467646757
191.21666666671098,0.081896685,-0.83623827,-0.0890656,-2.3021228,-0.021006495,1.5206645,0.78738064,0.04,0.039999936,0.010050972512676282,0.010840114391063443,-0.00845179063035939,-0.01751765193996993,-0.06525932773867268,0.04991391465622939,0.9993632107826923,-0.008384569876108852,0.026083037190653583,0.022859288987451314
191.23333333337766,0.08333602,-0.83715105,-0.09063521,-2.301168,-0.021378094,1.5197786,0.7874049,0.04,0.03999992,0.009765607312006708,0.010794920810866526,-0.008362313156928813,-0.017642357572787953,-0.0654940835451173,0.05039624296542103,0.9993402231391856,-0.008534199537858578,0.02652586777934471,0.023295153850607597
191.25000000004434,0.08478503,-0.83807,-0.09221542,-2.3002071,-0.0217522,1.5188867,0.78742933,0.04,0.039999932,0.008382372063264754,0.01085445570711066,-0.008558503435551756,-0.017764473276395278,-0.06572161900793204,0.05086474771930721,0.9993166733988603,-0.008684769158289262,0.026970445613778368,0.02373512408008559
191.26666666671102,0.086243555,-0.83899504,-0.093805976,-2.29924,-0.022128753,1.5179892,0.78745407,0.04,0.039999913,0.00886366376895431,0.010819321495389445,-0.008172698038322324,-0.017885207751820988,-0.06594185803508107,0.05134156292897651,0.9992925454355824,-0.008836212414183121,0.02741711116413121,0.02417916463526861
191.2833333333777,0.08771146,-0.83992594,-0.095406756,-2.298266,-0.02250773,1.5170856,0.78747904,0.04,0.03999992,0.00989289852597608,0.010984215418936155,-0.008069955994649547,-0.018004296092597353,-0.06615444250385027,0.051809403406548445,0.9992678292120084,-0.008988515730385718,0.027865936597157626,0.02462725450488161
191.30000000004438,0.08918854,-0.8408627,-0.09701757,-2.297286,-0.022889085,1.5161765,0.7875041,0.04,0.039999943,0.007582330847588636,0.010889556160210978,-0.008073326866631092,-0.018122250345753477,-0.06635466670364272,0.052266511813512856,0.9992425282611729,-0.009141754792007618,0.028316492083821976,0.02507936023124989
191.31666666671106,0.09067468,-0.8418053,-0.09863824,-2.2963004,-0.023272766,1.5152617,0.78752923,0.04,0.039999925,0.007400061003171032,0.01083723916309523,-0.00826850468553797,-0.018238237830655632,-0.06654798392635078,0.052734538297321956,0.9992166389542945,-0.009295916103681499,0.028768641054534555,0.025535459121616394
191.33333333337774,0.092169695,-0.8427535,-0.100268565,-2.2953088,-0.023658734,1.5143417,0.78755444,0.04,0.039999925,0.007734640808632065,0.010913692344324821,-0.007671097766803747,-0.018351659692756272,-0.06673454613803598,0.05319283549884814,0.9991901450730132,-0.009450978309931619,0.029222696740776474,0.02599551871289974
191.35000000004442,0.093673415,-0.8437072,-0.10190837,-2.2943115,-0.024046946,1.5134159,0.7875797,0.04,0.039999936,0.006729109502012776,0.01087596896708412,-0.008111752736317257,-0.018462943732514628,-0.06690944156075299,0.053645018558280216,0.9991630573667859,-0.009606940286113278,0.029678048491028734,0.026459496018634565
191.3666666667111,0.09518564,-0.84466636,-0.1035575,-2.293308,-0.02443736,1.5124854,0.7876052,0.04,0.039999906,0.007887514899618253,0.011038686010242382,-0.00727224633592094,-0.018571653195405012,-0.06707968430716005,0.05409921426476538,0.9991353461230393,-0.009763637413464615,0.030135482173791774,0.026927388031628155
191.38333333337778,0.0967062,-0.84563094,-0.10521573,-2.2922997,-0.024829937,1.5115497,0.78763086,0.04,0.039999917,0.00518288100397335,0.010835583776092755,-0.007896652987304797,-0.01867906188887387,-0.06723684578224676,0.05454080959182141,0.9991070318642958,-0.00992116258943405,0.030594062661801955,0.027399137614836713
191.40000000004446,0.09823495,-0.8466006,-0.10688288,-2.291286,-0.025224613,1.5106088,0.7876566,0.04,0.03999992,0.005887877291321786,0.010869501584498398,-0.0075554907688291095,-0.018784836472732096,-0.06738691267131741,0.054987176217344995,0.9990781049427815,-0.010079490154681882,0.031053894151441698,0.02787471542802301
191.41666666671114,0.099771716,-0.8475755,-0.108558744,-2.2902663,-0.02562136,1.5096631,0.78768253,0.04,0.039999925,0.006962931632870095,0.010971240362538104,-0.007234639610587124,-0.01888796673763901,-0.06753102046946388,0.05542594016646739,0.9990485418597785,-0.010238549204560035,0.031515527068629694,0.028354094441941778
191.43333333337782,0.1013163,-0.8485551,-0.11024317,-2.2892416,-0.026020126,1.5087125,0.7877086,0.04,0.039999932,0.004655694598243443,0.010870135999556385,-0.007207439556178308,-0.01898935743755615,-0.06766094670097808,0.05585375829565341,0.9990183616029035,-0.010398351529065333,0.03197814511887156,0.028837227683757537
191.4500000000445,0.102868535,-0.8495397,-0.11193593,-2.2882123,-0.026420867,1.5077571,0.78773487,0.04,0.039999943,0.00407418272398985,0.01079005700944241,-0.0075583684856939115,-0.019088987605316316,-0.06778495135949493,0.0562828784668231,0.9989875618676713,-0.010558845746344836,0.032441644236652134,0.029324081049758883
191.46666666671118,0.10442824,-0.85052913,-0.11363684,-2.2871776,-0.026823526,1.5067972,0.7877612,0.04,0.03999995,0.005588375664222767,0.010916191418360033,-0.006857992468112251,-0.019186944121498524,-0.06790358065973304,0.0567084236766742,0.9989561156994597,-0.010720063086203347,0.032906638163169806,0.029814632630197586
191.48333333337786,0.105995245,-0.8515233,-0.11534568,-2.2861385,-0.027228069,1.5058327,0.78778774,0.04,0.03999994,0.003278513023863283,0.010721932006815815,-0.007261052569007553,-0.01928281551843415,-0.06800834539065359,0.057131647547705014,0.9989240436543277,-0.010881968509212707,0.03337233952332064,0.030308822566892463
191.50000000004454,0.10756935,-0.85252184,-0.11706227,-2.2850943,-0.02763445,1.504864,0.78781444,0.04,0.039999947,0.004673918740438765,0.010868635808522487,-0.006477802020188328,-0.0193769107641968,-0.06810774835620192,0.057551410740598226,0.9988913220883814,-0.01104448829060655,0.03383930146860045,0.03080661635170556
191.51666666671122,0.10915039,-0.8535247,-0.1187864,-2.284046,-0.028042618,1.503891,0.78784126,0.04,0.039999988,0.0024125516044914974,0.010661803546854753,-0.006784018346683851,-0.019468293139994902,-0.06819749395850958,0.057952162390534294,0.9988579694757997,-0.011207674046516703,0.03430679938567016,0.031307960218779234
191.5333333333779,0.11073814,-0.85453206,-0.12051789,-2.2829928,-0.028452523,1.5029136,0.7878682,0.04,0.039999966,0.003741965356374166,0.010815586708722014,-0.006880389736352299,-0.019558305320393352,-0.06827944821722387,0.05836177553902827,0.9988239662628143,-0.011371471399839553,0.03477523728383178,0.03181284220367902
191.55000000004458,0.112332456,-0.8555435,-0.12225649,-2.2819355,-0.02886411,1.5019323,0.7878952,0.04,0.039999973,0.0025483556592931222,0.01062978313447066,-0.006316342085166404,-0.019646149775611743,-0.06835254956797705,0.058761515440414816,0.9987893160389983,-0.011535911677535128,0.0352443687377129,0.03232119088768523
191.56666666671126,0.11393316,-0.856559,-0.12400203,-2.2808738,-0.029277347,1.5009471,0.7879223,0.04,0.039999958,0.0025124196247450215,0.010646603579819724,-0.0062372382882536215,-0.019731564905908015,-0.06841690228714448,0.05916103040350684,0.9987540121663536,-0.011700940506827434,0.03571424036933114,0.03283297439630672
191.58333333337794,0.115539975,-0.85757834,-0.1257543,-2.2798078,-0.029692162,1.4999582,0.78794944,0.04,0.03999998,0.002259574584240198,0.01067481522718794,-0.00612239306632123,-0.01981479494940875,-0.06847159224158494,0.05954649231503774,0.9987180530149526,-0.01186655255337792,0.036184756860628234,0.03334814662702216
191.60000000004462,0.1171528,-0.85860145,-0.12751305,-2.278738,-0.030108528,1.4989654,0.7879766,0.04,0.03999996,0.0012636705549962102,0.010464945513442847,-0.0061479632097238834,-0.019895848210509007,-0.06851707966620776,0.059935876996613326,0.99868144550192,-0.012032762206614504,0.03665560974980637,0.03386664018978941
191.6166666667113,0.11877139,-0.8596284,-0.12927815,-2.2776644,-0.030526385,1.4979692,0.7880038,0.04,0.04,0.00137968052222881,0.010586796068101645,-0.005942375269851752,-0.019974284670539882,-0.06855476892969346,0.06031171142096836,0.9986441770646519,-0.0121995185171168,0.037126997966519255,0.034388448421074524
191.63333333337798,0.120395586,-0.860659,-0.13104932,-2.276587,-0.030945681,1.4969696,0.78803104,0.04,0.03999999,0.0012455599140093199,0.010416786086821228,-0.005774619592502361,-0.020050224081723144,-0.06858355721218223,0.060685971683406593,0.99860624431031,-0.01236681201032054,0.03759891332377223,0.03491350028327546
191.65000000004466,0.122025155,-0.86169297,-0.13282639,-2.2755065,-0.03136637,1.4959667,0.7880585,0.04,0.039999966,-0.0003959227785621522,0.010348821875687253,-0.005674908773700693,-0.020124082855441847,-0.06860178601126145,0.06105756696038263,0.9985676652909953,-0.012534510165393406,0.03807080965854689,0.035441745754790845
191.66666666671134,0.12365994,-0.8627302,-0.1346091,-2.274422,-0.031788405,1.4949608,0.7880861,0.04,0.039999958,0.0012295973639275815,0.010378770771925228,-0.005164563902337882,-0.020196092831616476,-0.06861327449184317,0.061422696170807464,0.998528412282288,-0.01270264382457458,0.038543306086655925,0.03597313248508807
191.68333333337802,0.12529974,-0.86377066,-0.13639727,-2.2733338,-0.03221173,1.4939516,0.78811383,0.04,0.03999999,0.0001695006415225464,0.010287813960192793,-0.00548757879996753,-0.02026614680086601,-0.06861407196619929,0.06177413526979575,0.9984884986253565,-0.012871201769780955,0.03901594891823184,0.03650761575196323
191.7000000000447,0.12694438,-0.86481404,-0.13819072,-2.2722428,-0.032636285,1.4929394,0.7881416,0.04,0.03999997,-0.001266202976069053,0.010118187184816885,-0.005160802545511878,-0.020334437581528825,-0.06860508299434337,0.06212686519180177,0.9984479336370453,-0.013040204887343925,0.0394884050879575,0.03704514456740033
191.71666666671138,0.1285936,-0.86586064,-0.13998917,-2.2711487,-0.033062033,1.4919243,0.78816944,0.04,0.039999977,-0.0005648153540871448,0.010160249500971996,-0.005253180811348734,-0.020400120420618426,-0.0685902278219542,0.06246879359065277,0.9984067019782477,-0.013209606847867908,0.03996099757152414,0.03758566754671117
191.73333333337806,0.13024722,-0.8669099,-0.14179242,-2.270052,-0.033488918,1.4909068,0.78819734,0.04,0.039999973,-0.0017834591847343262,0.009954466342258772,-0.004605639667643047,-0.020463683311337487,-0.06856600326592327,0.06280735792262666,0.998364812212333,-0.013379398709584177,0.04043345421789752,0.03812911232132861
191.75000000004474,0.13190508,-0.8679619,-0.14360024,-2.2689524,-0.033916887,1.4898866,0.7882253,0.04,0.039999988,-0.0015629974442710193,0.009915828648714153,-0.0048091696874807965,-0.02052460629622178,-0.06853312262436499,0.06313821048181063,0.9983222642369743,-0.01354956805243293,0.04090571010407842,0.038675429089204405
191.76666666671142,0.1335669,-0.86901647,-0.14541246,-2.26785,-0.034345888,1.488864,0.78825337,0.04,0.039999977,-0.001585676414173065,0.009979087292175115,-0.0045962193944815155,-0.020583480310772066,-0.06849262202728355,0.06346386677300164,0.998279052720497,-0.013720008901473868,0.04137784907791476,0.03922458235463917
191.7833333333781,0.13523251,-0.8700735,-0.14722882,-2.2667456,-0.034775868,1.4878389,0.7882815,0.04,0.03999998,-0.0033625875955678453,0.009670047687930505,-0.004563177488270398,-0.02064076662713978,-0.0684427202156391,0.06378101029827575,0.9982351965912675,-0.01389078015114091,0.041849364936453734,0.03977649013678386
191.80000000004478,0.13690178,-0.8711328,-0.14904907,-2.2656384,-0.035206784,1.4868116,0.7883097,0.04,0.039999977,-0.0018827510166907757,0.009646480752352471,-0.004058093468062296,-0.020695339727493392,-0.06838619886656468,0.06409317126252877,0.9981906733869946,-0.0140618678017772,0.04232075940331746,0.04033108925717333
191.81666666671146,0.13857442,-0.8721943,-0.15087308,-2.2645285,-0.035638575,1.485782,0.78833795,0.04,0.039999973,-0.0024849780713154246,0.00973642080168563,-0.004233837505385196,-0.02074755525759824,-0.06832048655100692,0.0643984095152625,0.9981454924714694,-0.014233183920108758,0.04279176147009868,0.04088835390022819
191.83333333337814,0.1402503,-0.87325776,-0.15270057,-2.2634165,-0.036071185,1.4847507,0.7883662,0.04,0.039999995,-0.0032804351866921877,0.009431826422554024,-0.003625506534588041,-0.020797887704807942,-0.06824512455065385,0.0646926483739437,0.9980996522428529,-0.01440478450894544,0.04326237187307546,0.04144820328871623
191.85000000004482,0.14192913,-0.87432325,-0.15453133,-2.262303,-0.03650457,1.4837173,0.7883945,0.04,0.03999997,-0.00463399883505744,0.009300817822585628,-0.004145249045017785,-0.02084558927979365,-0.06816118468631471,0.06498563003714444,0.9980531769014609,-0.014576622735163833,0.04373202489368014,0.042010571827056385
191.8666666667115,0.14361078,-0.8753905,-0.1563651,-2.261188,-0.03693868,1.4826826,0.788423,0.04,0.039999977,-0.004176045432657816,0.009172139756508102,-0.003310531708167197,-0.02089081057278304,-0.06807142146423062,0.0652661694711206,0.9980060490550012,-0.014748615835953058,0.04420113463748674,0.042575392861473896
191.88333333337818,0.14529498,-0.8764593,-0.15820166,-2.2600703,-0.037373446,1.481646,0.7884515,0.04,0.04,-0.0031254586610796053,0.009291505902001007,-0.0033299970239264454,-0.02093431051576301,-0.0679739934613669,0.06553953930098881,0.9979582661007711,-0.014920777674972864,0.04466973475746478,0.043142604365225296
191.90000000004486,0.14698158,-0.8775296,-0.16004086,-2.258951,-0.03780883,1.480608,0.78848004,0.04,0.039999988,-0.004469508368210029,0.009063013773420725,-0.00311487785444875,-0.020975772381541555,-0.06786560609991799,0.0658088863870035,0.997909833608143,-0.015093085115159593,0.0451376742749093,0.04371216227695723
191.91666666671154,0.14867035,-0.8786014,-0.16188237,-2.2578309,-0.038244765,1.479569,0.7885086,0.04,0.03999999,-0.006099130843173484,0.00870572118727847,-0.0030190022597853527,-0.021015135587436357,-0.067747380196192,0.06606840893470413,0.9978607704036131,-0.015265585544636393,0.045604544337956944,0.04428397366106864
191.93333333337822,0.15036109,-0.8796745,-0.16372602,-2.2567098,-0.038681205,1.4785284,0.7885372,0.04,0.039999995,-0.0059609784880176875,0.00867470348934335,-0.0032551547835213412,-0.021051769346160498,-0.06762513687314456,0.06632206728388694,0.9978110840874503,-0.015438228503830502,0.0460701953054065,0.04485798343006892
191.9500000000449,0.15205361,-0.88074875,-0.16557157,-2.2555878,-0.039118107,1.4774868,0.7885658,0.04,0.039999984,-0.005980068091115953,0.008570704563472253,-0.0026341857703116034,-0.021085483637266086,-0.06749674648227406,0.06656691315091527,0.9977607673782359,-0.0156110008351818,0.0465348106884632,0.04543411854440178
191.96666666671157,0.15374762,-0.8818239,-0.16741882,-2.2544637,-0.039555397,1.4764444,0.7885944,0.04,0.039999995,-0.0042285929609864326,0.00878060432210892,-0.0022468283187970783,-0.021116778438328345,-0.06736057712909062,0.0668034400218667,0.9977097992802311,-0.015783781709115763,0.04699887002439828,0.04601233390722037
191.98333333337825,0.15544303,-0.88290006,-0.16926752,-2.2533388,-0.039993037,1.4754012,0.7886231,0.04,0.04,-0.006415742361776111,0.008265737199972256,-0.0023950762946922666,-0.02114656297605412,-0.06721201168880758,0.06703233080351657,0.9976582047991952,-0.015956641223570524,0.04746184049521154,0.04659254977479231
192.00000000004493,0.15713955,-0.8839769,-0.17111745,-2.2522132,-0.040430952,1.474357,0.7886518,0.04,0.04,-0.006862223646519894,0.008202882739798134,-0.0022813133496280003,-0.021173930674792774,-0.06705622522020041,0.06725301546497545,0.9976060002254522,-0.01612951252057755,0.04792343209257618,0.04717469445043413
192.01666666671161,0.15883702,-0.88505447,-0.1729684,-2.2510872,-0.040869135,1.4733123,0.78868055,0.04,0.04,-0.007007087662502798,0.008076199041803789,-0.002144440740381448,-0.021198971807606316,-0.0668945240245354,0.0674633964861661,0.9975531811404431,-0.016302416455462113,0.048383769883885604,0.04775869372290187
192.0333333333783,0.16053519,-0.8861323,-0.17482014,-2.2499607,-0.04130747,1.4722672,0.7887093,0.04,0.04,-0.007430420348208955,0.007891333904155862,-0.0015470853554244712,-0.021221513180816595,-0.06672501915078516,0.06766994422453974,0.997499756790013,-0.016475301589378655,0.048842714198191084,0.04834448170326762
192.05000000004497,0.16223383,-0.88721055,-0.17667243,-2.2488337,-0.041745942,1.4712218,0.7887381,0.04,0.04,-0.0071989394377691696,0.007833783483264523,-0.0015942568247551137,-0.021241761626383027,-0.06654889325593313,0.06786513493594015,0.997445722588275,-0.01664810884840599,0.049300419339537396,0.04893198969050229
192.06666666671165,0.1639328,-0.888289,-0.17852502,-2.2477064,-0.04218449,1.4701763,0.78876686,0.04,0.04,-0.007765030447837162,0.007545495344928044,-0.0013443603678275906,-0.021260218101610984,-0.06636443302643971,0.06805239534083714,0.9973910892080718,-0.01682088584421763,0.04975671718155023,0.04952112744139721
192.08333333337833,0.16563189,-0.8893676,-0.18037769,-2.2465792,-0.042623058,1.4691309,0.78879565,0.04,0.04,-0.008102503123641469,0.00739620163333482,-0.0012849288505201173,-0.02127631072771717,-0.06617165060525794,0.06823186876839842,0.9973358613629736,-0.01699361102920594,0.05021155618808172,0.05011183940681621
192.10000000004501,0.16733085,-0.89044595,-0.18223025,-2.2454522,-0.043061584,1.4680854,0.78882444,0.04,0.04,-0.008888330687861767,0.007230593327466062,-0.0009813276931058823,-0.021289596199698238,-0.0659721840390542,0.06840177755263036,0.9972800595719075,-0.017166235303727503,0.05066462144832591,0.050704036123838614
192.1166666667117,0.16902949,-0.89152426,-0.18408243,-2.2443252,-0.04350002,1.4670402,0.78885317,0.04,0.04,-0.008194021380214522,0.00713035718431787,-0.0009077371750265684,-0.021300673959817405,-0.06576750146029048,0.06856269771952167,0.9972236690194294,-0.017338774813251107,0.05111625029653335,0.051297658728494386
192.13333333337837,0.17072761,-0.89260226,-0.18593407,-2.2431986,-0.04393834,1.4659952,0.7888819,0.04,0.04,-0.009204115315508687,0.006941759162443217,-0.0007731872570193588,-0.021308968001707146,-0.0655535955014318,0.06871475115789955,0.9971667122390104,-0.017511175580108892,0.051566095370623205,0.05189262510678189
192.15000000004505,0.172425,-0.8936796,-0.18778485,-2.2420726,-0.044376466,1.4649507,0.78891057,0.04,0.04,-0.009408123177712113,0.00666348290730423,-0.0003110770055547718,-0.021315246503954024,-0.06533413376620908,0.06885811907599035,0.9971091968595398,-0.01768345540919843,0.05201411510031682,0.05248882522257123
192.16666666671173,0.17412144,-0.89475656,-0.1896346,-2.2409472,-0.044814344,1.4639069,0.78893924,0.04,0.04,-0.009454403637976228,0.006580669703122599,-0.00035511025919809924,-0.021318322884293816,-0.065109226461508,0.06899291025623594,0.9970511190750548,-0.017855548227500195,0.052460436197078485,0.05308623157362311
192.1833333333784,0.1758167,-0.8958328,-0.1914831,-2.2398229,-0.045251913,1.4628639,0.78896785,0.04,0.04,-0.01004894816039048,0.006343237541378555,-5.5574516588663414e-05,-0.021319733379534835,-0.0648752641132285,0.06911826907002966,0.9969924941552646,-0.01802745935736479,0.052904868093852676,0.05368474866436086
192.2000000000451,0.1775106,-0.89690816,-0.1933301,-2.2386994,-0.045689132,1.4618214,0.78899646,0.04,0.04,-0.010262211760769802,0.006168227517068525,-0.00019872866132697453,-0.021318202546478357,-0.06463556702491362,0.06923442949339112,0.9969333398722402,-0.018199155633186557,0.05334718502788844,0.05428429270995144
192.21666666671177,0.17920294,-0.89798266,-0.19517538,-2.237577,-0.046125934,1.46078,0.789025,0.04,0.04,-0.010037257910422426,0.006018243793665112,0.00027950040841773216,-0.021314465942275946,-0.06439106529956554,0.06934129788987875,0.9968736454388317,-0.018370626150265672,0.053787670456343334,0.05488480328124911
192.23333333337845,0.18089345,-0.8990559,-0.19701868,-2.2364557,-0.046562277,1.4597398,0.78905356,0.04,0.04,-0.010669454000300505,0.005781314001641891,0.0006231944952084234,-0.021307716344372403,-0.06413992709888117,0.06943795861954982,0.9968134314461332,-0.018541801558852877,0.054226106534435874,0.05548615911786688
192.25000000004513,0.18258196,-0.900128,-0.19885981,-2.2353356,-0.046998113,1.4587009,0.78908205,0.04,0.04,-0.010460309698823167,0.005653907893865551,0.0006251302177906481,-0.021299218507451347,-0.06388225234911733,0.06952647180943552,0.9967526943231385,-0.018712698219122408,0.054662626233226194,0.056088310530900014
192.2666666667118,0.1842683,-0.90119886,-0.20069854,-2.234217,-0.04743338,1.457663,0.78911054,0.04,0.04,-0.011005840994560145,0.005391222954490016,0.0005344383947392117,-0.021288453007149502,-0.0636175363017927,0.06960532749123352,0.9966914556133164,-0.01888329380149479,0.055096947647256346,0.05669117993630418
192.2833333333785,0.18595223,-0.90226823,-0.20253466,-2.2331002,-0.047868017,1.456627,0.789139,0.04,0.04,-0.011681071894553696,0.0051194970132048545,0.001184267182319232,-0.021275168331581863,-0.06334639651102839,0.06967438602713394,0.996629720624252,-0.019053580981103827,0.055529091930855846,0.05729468535175273
192.30000000004517,0.18763359,-0.903336,-0.20436792,-2.231985,-0.04830198,1.4555923,0.78916734,0.04,0.04,-0.011515485396440539,0.004944225659211932,0.0009824336796082633,-0.021259817056460864,-0.06306933420366478,0.06973366600131996,0.9965675056734267,-0.01922355820768767,0.05595889995714144,0.05789873022154006
192.31666666671185,0.1893121,-0.90440184,-0.20619811,-2.2308714,-0.048735205,1.4545594,0.7891957,0.04,0.04,-0.01109886547907557,0.004882385207315154,0.0016715481321094572,-0.02124104804759372,-0.06278778678365488,0.06978277277285401,0.996504803465887,-0.01939310086492642,0.05638665865416163,0.058503239517788866
192.33333333337853,0.19098762,-0.9054658,-0.20802496,-2.2297597,-0.049167663,1.4535285,0.789224,0.04,0.04,-0.011805871681058733,0.004503598050636937,0.0016281617608138177,-0.02122087169238446,-0.062498773350010986,0.06982280311969635,0.996441633096716,-0.01956228166609712,0.05681215341825389,0.0591081059715737
192.3500000000452,0.19265988,-0.90652764,-0.20984833,-2.2286503,-0.04959928,1.4524995,0.7892523,0.04,0.04,-0.012701154203575982,0.004307637062875291,0.0017272112766031356,-0.021198218612831558,-0.062202775757230995,0.06985246361356791,0.9963780189705206,-0.01973105239984632,0.057235077921556285,0.05971327104495886
192.3666666667119,0.1943287,-0.9075875,-0.21166793,-2.2275438,-0.05003001,1.4514724,0.7892804,0.04,0.04,-0.013281522723618266,0.003966108161990167,0.0015836274259939387,-0.021172782239480863,-0.06190412962419822,0.06987300178477991,0.9963139777268599,-0.01989946672243649,0.05765528031666105,0.06031863444949473
192.38333333337857,0.19599393,-0.9086451,-0.21348359,-2.226439,-0.050459806,1.4504479,0.78930855,0.04,0.04,-0.011289441964867919,0.004057445331642762,0.002519852454296867,-0.021144673702074977,-0.06160132971402282,0.06988387314670633,0.9962494727722142,-0.020067371153460866,0.05807354534516385,0.06092414912920614
192.40000000004525,0.19765534,-0.90970016,-0.21529503,-2.2253368,-0.050888587,1.4494256,0.7893366,0.04,0.04,-0.013118084110974593,0.003547164777356615,0.00222754348266907,-0.0211149859568747,-0.06128973027951064,0.06988504107574661,0.9961845580049471,-0.02023483256294652,0.058489103515499394,0.061529689691976974
192.41666666671193,0.19931273,-0.91075265,-0.21710205,-2.2242377,-0.05131636,1.4484055,0.7893646,0.04,0.04,-0.013827508166075475,0.003265267408383843,0.0023251023510528768,-0.021082719446822572,-0.06097413210704424,0.06987488011569286,0.9961192538646834,-0.020401883200159048,0.05890177292723423,0.062135146157244636
192.4333333333786,0.20096584,-0.91180253,-0.2189045,-2.2231402,-0.05174301,1.4473883,0.7893924,0.04,0.04,-0.011198850376636926,0.003608645093494678,0.002919641802723305,-0.0210468550443334,-0.06065617461481412,0.06985601437480482,0.9960535081586946,-0.020568342137833796,0.059312552736482886,0.06274052338273964
192.4500000000453,0.20261452,-0.9128496,-0.22070208,-2.2220464,-0.052168537,1.4463737,0.7894202,0.04,0.04,-0.014496887654713575,0.0027568478323442003,0.002730305554043966,-0.021009704953559215,-0.06032743620946122,0.06982509111800181,0.9959873997779864,-0.020734317859812234,0.059720315564641836,0.06334565064180155
192.46666666671197,0.20425855,-0.91389376,-0.22249462,-2.2209554,-0.052592862,1.4453621,0.7894478,0.04,0.04,-0.013182979133530282,0.0027904440783793616,0.003143789720749801,-0.0209701499737995,-0.05999720463366358,0.06978617146369925,0.9959209065924552,-0.02089977649860885,0.060125564037631286,0.06395047852461173
192.48333333337865,0.20589775,-0.9149349,-0.22428185,-2.2198684,-0.05301594,1.4443535,0.7894754,0.04,0.04,-0.01514003400768793,0.002182723550303578,0.0031415098232789873,-0.020927627253377386,-0.05966095951223266,0.06973671015354796,0.9958540786121457,-0.02106469483578005,0.060527670850142164,0.06455488985728838
192.50000000004533,0.20753197,-0.91597295,-0.22606353,-2.2187848,-0.053437706,1.4433478,0.7895029,0.04,0.04,-0.013842708179323537,0.0021148720003499877,0.003207967706075898,-0.020882618774257754,-0.05932293128938823,0.06967723069506128,0.9957869014630848,-0.021229073595554464,0.060927018592308854,0.06515881915961774
192.516666666712,0.20916091,-0.91700757,-0.22783954,-2.217704,-0.053858113,1.4423459,0.78953034,0.04,0.04,-0.01306179747282421,0.00222057499098538,0.004082771830615783,-0.02083462880184379,-0.05898180288442845,0.06960694563815982,0.9957193616506312,-0.02139277435031179,0.061324024140484074,0.06576219356798693
192.5333333333787,0.21078442,-0.9180387,-0.22960965,-2.216627,-0.054277103,1.4413468,0.78955764,0.04,0.04,-0.014454680559294886,0.0017348726783411594,0.0034426807916432267,-0.020785584684006292,-0.058631330579191114,0.06952734000450406,0.9956515140665582,-0.021555879426778474,0.06171794436349515,0.06636491499770893
192.55000000004537,0.21240233,-0.9190663,-0.23137362,-2.2155535,-0.054694645,1.4403515,0.78958493,0.04,0.04,-0.01444238904109163,0.001428769941283492,0.004190079157240234,-0.020733377680341586,-0.05827818583040387,0.06943705113722924,0.9955833516597132,-0.021718303396459027,0.062109103417940334,0.06696689083577458
192.56666666671205,0.21401441,-0.9200903,-0.23313127,-2.2144842,-0.055110663,1.4393599,0.7896121,0.04,0.04,-0.014762462507222907,0.001212627577976133,0.004081118943388695,-0.02067987112753789,-0.05792074519552528,0.06933709280504308,0.9955148918968069,-0.021880079898755855,0.06249735624138599,0.06756805886030967
192.58333333337873,0.21562047,-0.92111063,-0.23488234,-2.2134187,-0.055525154,1.4383719,0.7896393,0.04,0.04,-0.014389849675033872,0.0010298779393791424,0.004106921955315812,-0.020623229142379913,-0.05755943443049893,0.06922446021496359,0.9954461482821573,-0.02204112992635786,0.06288273283152386,0.06816829448817133
192.6000000000454,0.21722038,-0.9221267,-0.23662667,-2.2123573,-0.05593805,1.4373877,0.7896665,0.04,0.04,-0.015057542034035976,0.0006719139294203424,0.004712904665127304,-0.020564929454055986,-0.05719410786766238,0.0691032511786991,0.9953771481918128,-0.02220143555734393,0.06326499688658944,0.06876750166806254
192.6166666667121,0.21881388,-0.92313904,-0.238364,-2.2113001,-0.056349307,1.4364074,0.78969365,0.04,0.04,-0.01481212858127634,0.0004790558246592358,0.004356720985176921,-0.020504754579397075,-0.056825607129914975,0.06897173744241356,0.9953078882416866,-0.022360988103860113,0.06364435941878496,0.06936562065653105
192.63333333337877,0.22040081,-0.9241471,-0.24009417,-2.210247,-0.05675885,1.435431,0.78972065,0.04,0.04,-0.014780968867267319,0.0002911317504572519,0.0046879461612636675,-0.020442916472048923,-0.05645256912679882,0.06883049416340718,0.995238388467698,-0.022519829138601996,0.06402067990239861,0.06996256113538529
192.65000000004545,0.221981,-0.92515105,-0.241817,-2.209199,-0.057166636,1.4344586,0.78974754,0.04,0.04,-0.01605238558037847,-0.0001987814383347386,0.0047387336328919005,-0.02037863224253219,-0.05607643185067441,0.06867817852081694,0.9951686792691038,-0.0226779700142626,0.0643936632144535,0.07055824271935314
192.66666666671213,0.22355424,-0.92615074,-0.24353223,-2.2081554,-0.05757262,1.4334905,0.7897742,0.04,0.04,-0.015071112726205982,-0.00028160539715105237,0.004966213925094998,-0.020311322426470553,-0.05569913581313788,0.06851551995579194,0.995098750036576,-0.02283540826244307,0.06476367622881006,0.07115256879734783
192.6833333333788,0.22512034,-0.9271458,-0.24523965,-2.2071164,-0.057976775,1.4325267,0.7898007,0.04,0.04,-0.015301695567426776,-0.0005677340346094129,0.0053084962441829475,-0.020240616146839786,-0.05531795504285412,0.06834119568724784,0.9950286290266454,-0.022992057331569043,0.0651305451302438,0.07174541663447113
192.7000000000455,0.2266791,-0.9281361,-0.24693914,-2.206082,-0.058379028,1.4315675,0.7898269,0.04,0.04,-0.015468666726325964,-0.0007570541440238276,0.0055844108803215775,-0.0201681973590098,-0.05493285951659267,0.06815881921819253,0.9949583208638468,-0.023147957535335634,0.06549433694584163,0.07233673778766411
192.71666666671217,0.2282304,-0.9291217,-0.24863043,-2.205053,-0.058779363,1.430613,0.789853,0.04,0.04,-0.016130027573213468,-0.001239813146072799,0.005599309906134664,-0.020092695121715035,-0.05454501022239471,0.06796310711300443,0.9948878566359984,-0.023303103368400874,0.06585481991664024,0.07292640663968966
192.73333333337885,0.22977404,-0.93010247,-0.25031328,-2.2040288,-0.059177708,1.4296632,0.78987885,0.04,0.04,-0.015176849757736477,-0.0013681440111074084,0.005600931204430282,-0.020014843400967697,-0.054154459116590024,0.06776123267913264,0.994817231365413,-0.023457459516304242,0.06621226856947258,0.07351434732335761
192.75000000004553,0.23130976,-0.9310783,-0.25198758,-2.20301,-0.059574008,1.4287182,0.7899046,0.04,0.04,-0.016272385939108958,-0.0016473273705130964,0.0058597570260054965,-0.019934310293625412,-0.053759988939659484,0.06754755902696705,0.9947464782957296,-0.023610937058364635,0.06656639215020456,0.07410049261357582
192.7666666667122,0.23283748,-0.93204904,-0.25365317,-2.2019968,-0.059968244,1.4277784,0.78993016,0.04,0.04,-0.016188433980524053,-0.0019241719280915781,0.006184821386234773,-0.019851228504931977,-0.05336406969496288,0.0673229944576749,0.9946756057760553,-0.023763574578038744,0.0669172537253664,0.07468475715409593
192.7833333333789,0.23435701,-0.9330146,-0.25530982,-2.2009888,-0.060360383,1.4268434,0.78995556,0.04,0.04,-0.015775627545489,-0.0020875214045368296,0.006053901254499117,-0.019765592645537816,-0.05296539934233585,0.06708739128891704,0.994604628780329,-0.023915342840135075,0.0672648642097922,0.07526703679846304
192.80000000004557,0.23586814,-0.9339749,-0.2569573,-2.1999862,-0.06075032,1.4259136,0.7899808,0.04,0.04,-0.01587824591169351,-0.0024444130829970323,0.0061766893631798325,-0.019678179839675795,-0.05256497837309196,0.06684451542862468,0.9945335577059777,-0.02406620597135384,0.06760926287257414,0.0758472669294156
192.81666666671225,0.23737068,-0.9349298,-0.25859538,-2.1989892,-0.06113807,1.424989,0.7900061,0.04,0.04,-0.01592654372943869,-0.00268572799929645,0.006494112566302057,-0.019588071387524213,-0.05216090188702351,0.06658839646074811,0.9944624161182349,-0.024216070841357264,0.0679503989685206,0.07642531073739736
192.83333333337893,0.23886453,-0.9358791,-0.26022404,-2.1979983,-0.06152356,1.4240698,0.7900314,0.04,0.04,-0.01696468416025887,-0.003024161780071366,0.00659741840378647,-0.01949672517040429,-0.0517542142640136,0.06632398815212869,0.9943912334834278,-0.02436493923765658,0.06828797546051132,0.07700114878855314
192.8500000000456,0.2403495,-0.9368228,-0.26184288,-2.197013,-0.06190677,1.4231561,0.7900566,0.04,0.04,-0.015568289494360954,-0.0032895965419166284,0.00685367063861797,-0.019403481477107062,-0.05134757002743961,0.06604822028858728,0.9943199978501457,-0.024512838471662864,0.06862246105860703,0.07757461223627553
192.8666666667123,0.24182531,-0.93776083,-0.26345184,-2.1960337,-0.06228762,1.4222479,0.79008174,0.04,0.04,-0.01664270353169961,-0.0034463103719795107,0.006574773401513134,-0.01930857531427644,-0.05093703961405047,0.0657637006736312,0.9942487482568023,-0.024659699526778052,0.06895344692549167,0.07814568424503257
192.88333333337897,0.24329193,-0.938693,-0.2650507,-2.1950607,-0.06266609,1.4213456,0.7901068,0.04,0.04,-0.016464506462199324,-0.00389852353124831,0.007240125583862778,-0.019211794352824968,-0.050526503266473614,0.06546889701520774,0.9941774876024184,-0.024805587892813487,0.06928112444122657,0.07871424108758336
192.90000000004565,0.24474916,-0.93961906,-0.2666394,-2.1940937,-0.063042134,1.4204489,0.7901316,0.04,0.04,-0.016242354608486664,-0.00388802817046785,0.00713139267318752,-0.019113005295526043,-0.050112734276802295,0.06516360601638554,0.9941062372847534,-0.024950453647972444,0.06960538204621135,0.07928022858513298
192.91666666671233,0.24619682,-0.94053924,-0.26821774,-2.1931336,-0.0634157,1.4195582,0.7901562,0.04,0.04,-0.017287016476297268,-0.00442577104134978,0.007164739331022574,-0.019012258946468442,-0.04969758181686952,0.06484902138113317,0.9940350202182784,-0.025094401545926764,0.06992606068877513,0.07984356973011955
192.933333333379,0.24763477,-0.9414533,-0.26978552,-2.19218,-0.06378675,1.4186734,0.7901804,0.04,0.04,-0.01654112310283118,-0.004527732344075663,0.007359115512173275,-0.01890852945342371,-0.04928344842681806,0.06452438873026435,0.9939638417206329,-0.025237410103005724,0.07024332236707312,0.08040416746717084
192.9500000000457,0.24906282,-0.94236094,-0.27134225,-2.191233,-0.06415526,1.4177948,0.7902044,0.04,0.04,-0.01674386466476996,-0.005268748864595274,0.007666951802032251,-0.018801681706474917,-0.04886662278866066,0.06418991892361228,0.9938927324024054,-0.02537947323818322,0.07055710822706283,0.08096180145270619
192.96666666671237,0.25048086,-0.9432623,-0.2728881,-2.1902924,-0.06452121,1.4169223,0.7902281,0.04,0.04,-0.016284772171148987,-0.004951408265421731,0.007542057547094139,-0.018691834509834797,-0.048449836185973906,0.06384557418946896,0.9938216909045343,-0.02552052386725203,0.07086752715603094,0.08151652068128533
192.98333333337905,0.25188878,-0.94415736,-0.2744228,-2.189358,-0.06488451,1.4160563,0.7902517,0.04,0.04,-0.015473909440189004,-0.005262148551749002,0.007706614826497038,-0.018579474519660237,-0.04803138562283439,0.06349251136225462,0.9937507057325587,-0.025660519840826495,0.07117494321078302,0.08206826449049552
193.00000000004573,0.25328624,-0.94504577,-0.2759463,-2.18843,-0.065245114,1.4151962,0.7902751,0.04,0.04,-0.016265738744314362,-0.005358199096866523,0.007674882659003401,-0.018465639755056874,-0.04760729654612279,0.06313067825949979,0.9936798332335256,-0.02579931199503903,0.07147883885259472,0.08261694815145372
193.0166666667124,0.25467327,-0.9459276,-0.27745843,-2.1875098,-0.065603025,1.4143428,0.7902985,0.04,0.04,-0.01760625714699593,-0.006068724275934412,0.00804895144135287,-0.018350589784739562,-0.047182859745995696,0.06275836554523911,0.9936090980370397,-0.02593696538613372,0.07177906781824035,0.08316248882593326
193.0333333333791,0.25604966,-0.9468026,-0.27895892,-2.186597,-0.0659582,1.413496,0.7903219,0.04,0.04,-0.01762467467409934,-0.006467195802234427,0.008256518044857941,-0.018233504694993862,-0.046760185970290316,0.06237578223996348,0.9935385281150352,-0.02607350127048032,0.07207554127108722,0.08370473124613369
193.05000000004577,0.2574153,-0.9476707,-0.28044766,-2.1856906,-0.066310555,1.4126558,0.79034513,0.04,0.04,-0.01524574261115852,-0.006138458183632678,0.008215891313678725,-0.01811463717766272,-0.04633821020701653,0.061985047533809026,0.9934680870399035,-0.02620882863002508,0.07236891382890949,0.08424368015667741
193.06666666671245,0.25877,-0.9485319,-0.2819245,-2.1847916,-0.066660166,1.4118224,0.7903683,0.04,0.04,-0.016828232596211024,-0.0066666667111497935,0.008275475824803813,-0.017994329345598116,-0.04591305545401512,0.061582534462456096,0.9933978250089337,-0.02634295879267933,0.07265878844367651,0.08477918524888187
193.08333333337913,0.26011357,-0.9493862,-0.2833893,-2.1838996,-0.06700689,1.4109958,0.7903911,0.04,0.04,-0.016361502394124372,-0.006773411402410945,0.008337853885320712,-0.017872848942543915,-0.04548700319615688,0.06117330540585716,0.9933277411452422,-0.026476005814425517,0.07294527809146722,0.08531123133306424
193.1000000000458,0.26144603,-0.9502334,-0.28484184,-2.183015,-0.0673507,1.4101762,0.79041356,0.04,0.04,-0.01651156054842673,-0.00735392493995124,0.008447513232923143,-0.017749119218207002,-0.04505935296986063,0.060754720383366295,0.993257856343583,-0.026608014495130495,0.07322833466590438,0.0858397074694186
193.1166666667125,0.26276723,-0.9510733,-0.2862821,-2.1821384,-0.06769159,1.4093633,0.79043585,0.04,0.04,-0.017441774202531235,-0.0075820031351814254,0.008599716452550865,-0.017622463860099243,-0.0446310193826526,0.06032788224807271,0.993188219029205,-0.026738884534256956,0.07350754756613376,0.0863645418344371
193.13333333337917,0.2640768,-0.95190597,-0.28770977,-2.1812694,-0.06802951,1.4085575,0.79045784,0.04,0.04,-0.01655633370041265,-0.007647050042192127,0.0086501041421716,-0.017492912170341855,-0.04420679276798952,0.05989249097845825,0.993118817898985,-0.02686857209984016,0.07378333659575266,0.08688562947367132
193.15000000004585,0.26537478,-0.9527313,-0.2891249,-2.180408,-0.068364434,1.407759,0.79047954,0.04,0.04,-0.016521832692761862,-0.007802739831352934,0.008759789699808174,-0.01736206258955922,-0.04377996602232756,0.05944620403168003,0.9930496655493064,-0.02699708317264209,0.07405566719373728,0.08740295995600236
193.16666666671253,0.2666611,-0.9535493,-0.29052716,-2.1795545,-0.068696305,1.4069678,0.79050106,0.04,0.04,-0.016538778797681175,-0.00840608606682558,0.008879089345370517,-0.01722848824218404,-0.04335341373676869,0.05899256768612353,0.9929807769669948,-0.027124452039416852,0.07432458688927625,0.08791641746183249
193.1833333333792,0.26793557,-0.95435977,-0.29191646,-2.1787086,-0.06902513,1.4061836,0.7905225,0.04,0.04,-0.01633594783005954,-0.008405243774939342,0.008792156126946615,-0.017092872588918395,-0.042926298778219116,0.05852968063217347,0.9929121838711499,-0.02725053504861795,0.07458995755048624,0.08842591075247408
193.2000000000459,0.26919806,-0.95516247,-0.2932927,-2.1778708,-0.06935086,1.405407,0.7905439,0.04,0.04,-0.016866308725260737,-0.008772891905078906,0.00924358801641656,-0.01695615912391087,-0.04249997533800878,0.05805929160489631,0.9928439053561098,-0.027375318686043967,0.07485173319624402,0.08893137557456299
193.21666666671257,0.2704484,-0.95595753,-0.2946557,-2.177041,-0.06967349,1.4046379,0.79056525,0.04,0.04,-0.016504149647333932,-0.008920289482772237,0.00916521214822108,-0.01681788929903087,-0.04207446141489868,0.057579320858968205,0.9927759462624655,-0.027498773286750655,0.07511007823973578,0.08943273526629308
193.23333333337925,0.27168655,-0.95674497,-0.29600543,-2.1762195,-0.06999294,1.4038764,0.7905865,0.04,0.04,-0.01637488845998014,-0.00918035656354288,0.00906607060544573,-0.01667872312972643,-0.041649341941132435,0.057092656168156376,0.9927083167074974,-0.02762096514149413,0.07536496685369781,0.08992998385166227
193.25000000004593,0.2729123,-0.9575246,-0.29734167,-2.1754065,-0.07030922,1.4031225,0.7906073,0.04,0.04,-0.017030032978215814,-0.00947636807207275,0.009237936310313444,-0.016538270788113596,-0.04122343550545254,0.0565974860832061,0.9926410524928746,-0.027741991327444808,0.07561620350874412,0.09042296494779746
193.2666666667126,0.27412567,-0.9582962,-0.29866442,-2.174602,-0.07062228,1.4023759,0.79062784,0.04,0.04,-0.017213650881497955,-0.009803560786544874,0.009201555870452793,-0.016394934905204044,-0.040799855942965715,0.05609407170719393,0.9925741875739441,-0.02786182035401169,0.07586351440455626,0.09091165112720924
193.2833333333793,0.27532643,-0.9590599,-0.2999735,-2.173806,-0.07093211,1.4016372,0.790648,0.04,0.04,-0.016217628953762997,-0.009767451696426899,0.009379941483533827,-0.016248813991997218,-0.04038122253753192,0.05558330780740085,0.9925076954300007,-0.027980442605979847,0.07610745823647959,0.0913959744440902
193.30000000004597,0.27651453,-0.95981556,-0.30126867,-2.173018,-0.07123868,1.4009063,0.79066783,0.04,0.04,-0.015759121411429433,-0.01006373847898534,0.00949162356691513,-0.016100476843925505,-0.0399619047118336,0.055064841161475184,0.9924415899726502,-0.02809781778482452,0.07634810604510239,0.09187583921583867
193.31666666671265,0.27768996,-0.9605631,-0.30255,-2.172238,-0.07154196,1.4001833,0.7906873,0.04,0.04,-0.015668031196858223,-0.010173164121207723,0.00953336099063229,-0.015950151575256408,-0.03954146757048538,0.054539120336429096,0.9923758806140589,-0.028213968239765394,0.07658545709306987,0.0923512389385345
193.33333333337933,0.2788524,-0.96130246,-0.30381724,-2.1714666,-0.071841896,1.3994681,0.7907068,0.04,0.04,-0.015968033239666113,-0.010405579622152494,0.009460909295988529,-0.015798027312443834,-0.03912041440865717,0.05400637178543698,0.9923106078929066,-0.028328648657937425,0.07681931897457484,0.09282207367166283
193.350000000046,0.28000194,-0.9620336,-0.3050703,-2.170704,-0.07213848,1.3987608,0.79072624,0.04,0.04,-0.016381264711107235,-0.010931978155989674,0.009573264220952282,-0.015645858481548612,-0.03870107359261765,0.05346647042630505,0.9922457868359296,-0.028442004313972747,0.07704963932781025,0.09328828423979758
193.3666666667127,0.28113836,-0.9627566,-0.30630913,-2.1699502,-0.07243172,1.3980616,0.7907457,0.03999999,0.04,-0.016589146761081253,-0.011028492385323219,0.009653540428034013,-0.01549185653220508,-0.03828223701250017,0.05291884110138435,0.9921814397424249,-0.028553933883072327,0.07727637057324181,0.0937498055543421
193.38333333337937,0.28226167,-0.9634712,-0.30753365,-2.169206,-0.07272154,1.3973707,0.790765,0.03999999,0.04,-0.016834047687819265,-0.011397006662117182,0.009824380839451585,-0.01533739401950691,-0.03786707355615568,0.05236506747655072,0.9921175824628768,-0.028664536508370638,0.07749943446988318,0.09420660577488899
193.40000000004605,0.28337157,-0.96417737,-0.30874366,-2.1684697,-0.07300794,1.3966877,0.7907839,0.039999995,0.04,-0.014866295468651813,-0.011023551342898008,0.009591871213099346,-0.015180893222368508,-0.03745458064168766,0.05180318890246302,0.9920541949890643,-0.028773792899140754,0.07771934099129332,0.09465858166418976
193.41666666671273,0.28446826,-0.9648751,-0.30993903,-2.167742,-0.07329091,1.396013,0.7908023,0.03999999,0.04,-0.015377513005354615,-0.011687482796737814,0.009832649941254878,-0.01502352924796062,-0.03704223938856824,0.05123609911625761,0.9919912963532258,-0.028881903159141558,0.0779359751865165,0.09510566440059824
193.4333333333794,0.28555158,-0.96556425,-0.31111985,-2.1670227,-0.07357038,1.3953466,0.7908204,0.039999988,0.04,-0.014925251846831245,-0.011489024061617226,0.009966006688300055,-0.014863155361745789,-0.03662813355896123,0.05066375337430215,0.991928888203937,-0.028988639688480138,0.0781494762130392,0.0955478879051796
193.4500000000461,0.28662133,-0.966245,-0.31228605,-2.1663125,-0.073846385,1.3946885,0.7908383,0.039999984,0.04,-0.015788069587685527,-0.011771555758705032,0.009680819999435819,-0.014701616140838081,-0.03621345472977063,0.05008334745931405,0.9918670096338257,-0.029093981504135162,0.07835955975294837,0.0959851802916125
193.46666666671277,0.2876775,-0.9669167,-0.3134373,-2.1656125,-0.07411888,1.3940386,0.79085606,0.039999977,0.04,-0.017948167604942,-0.012932866264114828,0.010247245874839273,-0.014539111890424354,-0.035800554446659215,0.049496419170178635,0.991805755958404,-0.029198034823176816,0.07856537176104654,0.09641731986677418
193.48333333337945,0.28872007,-0.96758026,-0.31457373,-2.164921,-0.07438785,1.3933971,0.7908737,0.03999998,0.04,-0.014304633829453905,-0.011982612477381971,0.009500154986885612,-0.014373627947257876,-0.035397432391490895,0.048905267709650715,0.9917450101427144,-0.02930065801690416,0.07876832719903987,0.09684449869284509
193.50000000004613,0.289749,-0.96823496,-0.31569526,-2.1642385,-0.074653305,1.3927643,0.79089123,0.039999973,0.04,-0.015052518331781783,-0.012384556312572403,0.010328349541821602,-0.014208117645866098,-0.03499061417912602,0.04830700901134786,0.99168482387569,-0.02940182001428629,0.07896809010402908,0.09726656064553374
193.5166666667128,0.29076397,-0.9688806,-0.31680176,-2.1635647,-0.0749152,1.3921399,0.7909085,0.03999997,0.04,-0.015154649868209802,-0.012458832071240988,0.010145018769858183,-0.014042047988029313,-0.03458500877280639,0.04770258511427172,0.991625232064184,-0.02950148905243743,0.07916445343370573,0.09768342024051396
193.5333333333795,0.29176515,-0.96951777,-0.31789315,-2.1629007,-0.07517351,1.391524,0.7909256,0.03999996,0.04,-0.015943443456256645,-0.01306740677734508,0.009724724075810265,-0.013876342720769859,-0.0341809926760449,0.0470948839390057,0.9915662448730449,-0.029599838295382225,0.07935731760174818,0.0980950954141508
193.55000000004617,0.29275244,-0.97014594,-0.31896937,-2.162246,-0.075428225,1.3909168,0.7909423,0.039999958,0.04,-0.015305913914298586,-0.01310279328926578,0.010391037714474471,-0.013708439662512317,-0.033779650842851096,0.0464811681033782,0.9915078642717464,-0.029696887379504575,0.0795468839662735,0.09850148840756281
193.56666666671285,0.29372576,-0.9707652,-0.32003036,-2.1616004,-0.07567934,1.3903182,0.7909586,0.039999954,0.04,-0.014870001865441296,-0.0130843693829652,0.010038076595741963,-0.013538304261154582,-0.03338084967244157,0.04586149519207579,0.9914501033515148,-0.029792611569191763,0.07973315637449477,0.098902561315257
193.58333333337953,0.29468504,-0.9713758,-0.32107607,-2.1609638,-0.07592686,1.389728,0.7909746,0.03999995,0.04,-0.014418865286547344,-0.013096276609045332,0.009676279147341482,-0.01336674042101224,-0.03298360046131129,0.04523798171955706,0.9913929571145392,-0.029886924755120198,0.07991633117025193,0.0992983198481114
193.6000000000462,0.2956302,-0.97197735,-0.32210645,-2.1603363,-0.07617074,1.3891464,0.7909905,0.03999995,0.04,-0.014594162040060255,-0.01332516089129765,0.010274423889278239,-0.013194142925893968,-0.032587362455253906,0.04460941025123434,0.9913364528387708,-0.029979739325667016,0.08009629903341134,0.0996886923585574
193.6166666667129,0.2965613,-0.97257006,-0.32312134,-2.159719,-0.07641097,1.3885738,0.7910061,0.039999947,0.04,-0.015970900091222262,-0.014163090760038743,0.010113640862385864,-0.013022169017816597,-0.03219113110520905,0.043976933021179554,0.991280627089251,-0.030071296334488642,0.08027271579965516,0.10007360587313903
193.63333333337957,0.29747817,-0.9731537,-0.32412088,-2.1591105,-0.07664753,1.3880098,0.79102165,0.039999943,0.04,-0.013880020322298847,-0.013342262773408109,0.010137293537604286,-0.012847093849422215,-0.031800865496820444,0.04334101237671988,0.9912254502083819,-0.030161233761852636,0.08044612443320501,0.10045311294743832
193.65000000004625,0.29838088,-0.9737283,-0.32510486,-2.158511,-0.07688044,1.3874545,0.7910371,0.03999994,0.04,-0.013668887143758468,-0.013750949132088075,0.010113339652728648,-0.012673535280492048,-0.03141005415068232,0.04269961240841175,0.991170934142932,-0.0302496894872882,0.08061656546220212,0.10082710433821185
193.66666666671293,0.2992693,-0.97429377,-0.32607335,-2.1579213,-0.077109665,1.3869078,0.79105246,0.039999932,0.04,-0.015527342331100868,-0.014205362988156667,0.010083140532923807,-0.012499822112973171,-0.031020585645723523,0.04205595125861496,0.9911171423747881,-0.030336654969679903,0.0807833915448827,0.10119555872957517
193.6833333333796,0.3001435,-0.97485024,-0.32702628,-2.1573417,-0.07733523,1.3863701,0.79106724,0.03999993,0.04,-0.015125228810619618,-0.014412442867825503,0.01022224341913347,-0.01232571205593662,-0.030635492382449593,0.04140592609234048,0.991064055117831,-0.03042245830308764,0.08094688787914031,0.10155842666603196
193.7000000000463,0.3010034,-0.97539765,-0.3279636,-2.1567712,-0.07755709,1.3858413,0.79108155,0.03999993,0.04,-0.013511895716300515,-0.014074893683546641,0.010168981489866447,-0.012148107036228812,-0.030254456730519314,0.04075315714741036,0.9910116477829469,-0.030506908107586307,0.08110752364220483,0.10191571088341982
193.71666666671297,0.30184892,-0.9759358,-0.32888532,-2.1562095,-0.077775255,1.3853209,0.79109555,0.03999993,0.04,-0.013374318326020429,-0.014033979311131595,0.009966796303473302,-0.01196942202411586,-0.02987368015044991,0.040099295538190666,0.9909599513034085,-0.030589885734735773,0.08126510832544535,0.1022673749166162
193.73333333337965,0.30268008,-0.97646487,-0.32979146,-2.1556582,-0.07798971,1.3848094,0.79110944,0.039999917,0.04,-0.015614712575340306,-0.01483120763206558,0.010156689927698359,-0.011791695858151761,-0.029493333251384382,0.03944353106830164,0.990909021325549,-0.030671439516216526,0.08141907324601222,0.10261339466856258
193.75000000004633,0.30349684,-0.9769849,-0.33068192,-2.1551168,-0.07820048,1.3843067,0.7911232,0.03999992,0.04,-0.014238166715641043,-0.014631672693043996,0.009979549688821088,-0.011611601357761216,-0.02912140921740746,0.038781576325973184,0.990858833860242,-0.030751523358186206,0.08156985812855404,0.10295374406576893
193.766666666713,0.30429938,-0.97749585,-0.33155668,-2.1545844,-0.0784075,1.3838131,0.7911368,0.03999991,0.04,-0.01291256609796676,-0.014660939578658994,0.010308199927244743,-0.01143250323984827,-0.028751562750971658,0.03812092952596297,0.990809352981767,-0.030830187704935903,0.08171795230145507,0.10328844001914207
193.7833333333797,0.30508745,-0.9779976,-0.33241576,-2.154061,-0.07861084,1.3833286,0.79115033,0.03999991,0.04,-0.01296400367496453,-0.014434729790857581,0.010120725735474068,-0.011252454150157295,-0.028380829242158012,0.03745492307245023,0.9907606074596982,-0.03090723358439563,0.08186323764710435,0.1036174306773874
193.80000000004637,0.30586106,-0.9784903,-0.33325914,-2.1535478,-0.07881046,1.3828527,0.7911638,0.039999906,0.04,-0.014331828697011773,-0.014994314778105089,0.009876116231022358,-0.011074086218796969,-0.028010890514666154,0.03678673550628092,0.9907126456559039,-0.030982790707214446,0.08200520928701703,0.10394068533190003
193.81666666671305,0.30662027,-0.97897387,-0.33408678,-2.1530442,-0.07900637,1.3823856,0.7911766,0.039999902,0.04,-0.013822721162481955,-0.015074411798671195,0.00998753928440621,-0.010896056038417687,-0.027645651098228006,0.03611739485495927,0.9906654535231987,-0.03105716598394152,0.0821440670229518,0.1042581598228633
193.83333333337973,0.30736524,-0.9794482,-0.3348987,-2.1525497,-0.07919856,1.3819274,0.7911889,0.0399999,0.04,-0.012695392077999301,-0.01495090983856251,0.010073925649267679,-0.01071507480837273,-0.027284296304972946,0.0354471993987377,0.9906190146651037,-0.03113029592120848,0.08228010959173657,0.1045698619362621
193.8500000000464,0.30809572,-0.9799135,-0.33569518,-2.152065,-0.07938704,1.381478,0.79120094,0.03999989,0.04,-0.013656848598397886,-0.01478545937438347,0.009897003672798554,-0.01053294273114989,-0.026923006850503643,0.03477571208285045,0.9905733578961403,-0.03120191061581018,0.08241307068264579,0.10487587511408654
193.8666666667131,0.3088118,-0.98036957,-0.33647576,-2.1515899,-0.0795718,1.3810375,0.7912129,0.03999989,0.04,-0.013043510729104923,-0.015384182057265328,0.010026493839987438,-0.010350756007825375,-0.026567239090361596,0.03410330872298581,0.9905284925856275,-0.03127206882779495,0.08254311074724988,0.1051760331798146
193.88333333337977,0.30951354,-0.9808165,-0.33724076,-2.151124,-0.079752885,1.3806058,0.7912247,0.039999887,0.04,-0.0127429912757826,-0.014966159122747902,0.009952215205943915,-0.010169552305566163,-0.026211781386118613,0.03342976285873891,0.9904844139493051,-0.03134072789907244,0.08267028823504749,0.1054704126349761
193.90000000004645,0.31020096,-0.98125434,-0.33799013,-2.1506674,-0.079930246,1.3801829,0.7912364,0.039999884,0.04,-0.012573493020351378,-0.015133467766437203,0.009747195701570455,-0.009988593616383993,-0.025860737716355543,0.032756327396637835,0.990441124619049,-0.03140791581555246,0.08279461679510038,0.10575903231983959
193.91666666671313,0.31087404,-0.9816829,-0.33872396,-2.1502213,-0.08010393,1.3797688,0.791248,0.039999884,0.04,-0.014446436365167514,-0.01567122795746445,0.010174620581460125,-0.009808375573518671,-0.025510835259183365,0.0320814101990235,0.9903986858234263,-0.031473650551847865,0.0829155313689261,0.10604181768518893
193.9333333333798,0.31153286,-0.98210245,-0.33944222,-2.1497846,-0.080273904,1.3793638,0.7912595,0.039999884,0.04,-0.012243327215255562,-0.015174994370192874,0.009828586268456618,-0.009628115830986748,-0.02516943620287777,0.0314075925763791,0.9903570350779907,-0.031537898136591414,0.08303377612151695,0.10631884158350893
193.9500000000465,0.3121774,-0.982513,-0.34014484,-2.1493566,-0.0804402,1.3789673,0.7912704,0.039999884,0.04,-0.011521040936868232,-0.015123087351859299,0.009525999264803353,-0.009448954732843632,-0.024828872031790135,0.03073287193371499,0.9903161684174301,-0.03160092590341777,0.08314946232796622,0.10659003221519887
193.96666666671317,0.3128078,-0.9829145,-0.34083205,-2.1489382,-0.08060284,1.3785794,0.7912806,0.039999876,0.04,-0.012689538015564494,-0.015347427200806951,0.009663524353920039,-0.009268394613826853,-0.024489428127482074,0.030058765793636068,0.9902761189384867,-0.03166276202080336,0.08326219946186758,0.10685543459325986
193.98333333337985,0.31342405,-0.9833068,-0.3415038,-2.1485298,-0.08076183,1.3782002,0.7912908,0.039999872,0.04,-0.013354706602575206,-0.01570149788992503,0.009848171903570346,-0.009086115912134414,-0.024153995011836585,0.029386166356624534,0.9902369246178272,-0.03172317786923866,0.08337175286628581,0.10711500330629338
