rsonawane2002/My_IMU/logs_2/traj_268/imu_268.csv
time,j1,j2,j3,j4,j5,j6,j7,gripper1,gripper2,imu_ax,imu_ay,imu_az,imu_gx,imu_gy,imu_gz
188.8833333333758,0.00016700293,-0.785875,4.0107683e-05,-2.3551247,9.29385e-05,1.570997,0.786,0.04,0.04,-9.420697,-0.00874771736562252,0.09114612,-2.7845195e-07,-0.0011641274904832244,3.8265753e-07
188.90000000004247,0.00016701163,-0.78576016,4.0108534e-05,-2.3552213,9.29726e-05,1.5709941,0.786,0.04,0.04,-9.834424,0.0006277569918893278,0.0091101965,-1.6311226e-07,-0.0022385013289749622,1.1583834e-06
188.91666666670915,0.00016705964,-0.7856543,4.0067047e-05,-2.35531,9.299403e-05,1.5709913,0.786,0.04,0.04,-9.832517,0.0006128922686912119,0.0075562415,-7.0119466e-07,-0.0032296485733240843,2.7377228e-06
188.93333333337583,0.00016721126,-0.78555703,3.99144e-05,-2.355391,9.298664e-05,1.5709884,0.786,0.04,0.04,-9.830807,0.0005790505674667656,0.006148158,-2.0562195e-06,-0.0041444082744419575,6.152867e-06
188.9500000000425,0.00016755791,-0.7854676,3.955223e-05,-2.3554652,9.29273e-05,1.5709856,0.786,0.04,0.04,-9.829288,0.0005292836576700211,0.0048629753,-4.306974e-06,-0.004990133456885815,1.2212276e-05
188.9666666667092,0.00016821547,-0.7853856,3.8855145e-05,-2.355532,9.278661e-05,1.5709827,0.786,0.04,0.04,-9.827867,0.0004697863769251853,0.003651199,-8.050515e-06,-0.00577098224312067,2.1641807e-05
188.98333333337587,0.00016932162,-0.78531045,3.767362e-05,-2.3555937,9.253876e-05,1.5709798,0.786,0.04,0.039999995,-9.826561,0.0004037708567921072,0.0025185966,-1.32984e-05,-0.0064912959933280945,3.585602e-05
189.00000000004255,0.00017103417,-0.7852416,3.5836838e-05,-2.3556514,9.213325e-05,1.570977,0.786,0.04,0.039999995,-9.825616,0.00031662036781199276,0.0014619469,-2.058713e-05,-0.0071639143861830235,5.3874617e-05
189.01666666670923,0.00017352814,-0.7851789,3.3154458e-05,-2.3557022,9.152487e-05,1.570974,0.786,0.04,0.039999995,-9.82488,0.00023435073671862483,0.00044522528,-2.9600582e-05,-0.007796723395586014,7.703389e-05
189.0333333333759,0.00017699417,-0.7851219,2.9419127e-05,-2.3557487,9.066459e-05,1.570971,0.786,0.04,0.039999995,-9.823891,0.0001407975796610117,-0.0004826635,-4.108692e-05,-0.008381138555705547,0.00010578832
189.0500000000426,0.00018163699,-0.7850705,2.440839e-05,-2.355791,8.948875e-05,1.5709678,0.786,0.04,0.04,-9.823241,4.444865044206381e-05,-0.0013537349,-5.4966345e-05,-0.00892889965325594,0.00013979687
189.06666666670927,0.00018767315,-0.7850243,1.788628e-05,-2.3558273,8.795385e-05,1.570964,0.786,0.04,0.04,-9.822758,-5.073461215943098e-05,-0.0021708494,-7.1389855e-05,-0.009446191601455212,0.0001809861
189.08333333337595,0.00019533015,-0.784983,9.604936e-06,-2.3558617,8.600096e-05,1.5709573,0.786,0.04,0.04,-9.822048,-0.00014035211643204093,-0.0029071388,-9.023878e-05,-0.009927104227244854,0.00022886229
189.10000000004263,0.00020484487,-0.7849466,-6.935109e-07,-2.3558893,8.3569044e-05,1.5709505,0.786,0.04,0.04,-9.822036,-0.00022752280347049236,-0.0035680705,-0.00011218683,-0.010404922068119049,0.00028371703
189.1166666667093,0.00021646202,-0.7849149,-1.3275613e-05,-2.3559146,8.059441e-05,1.5709435,0.786,0.04,0.04,-9.821373,-0.000318164995405823,-0.0042382665,-0.00013677999,-0.010844599455595016,0.00034577027
189.133333333376,0.0002304334,-0.78488785,-2.841597e-05,-2.3559346,7.70126e-05,1.570933,0.786,0.04,0.04,-9.821292,-0.0003967809025198221,-0.004860134,-0.00016412967,-0.011268693022429943,0.00041524475
189.15000000004267,0.00024701646,-0.78486526,-4.6395235e-05,-2.3559508,7.275694e-05,1.5709224,0.786,0.04,0.04,-9.821032,-0.00046736851800233126,-0.0053503686,-0.00019458182,-0.011681235395371914,0.0004923123
189.16666666670935,0.0002664736,-0.78484726,-6.749944e-05,-2.3559628,6.775979e-05,1.5709105,0.786,0.04,0.04,-9.820886,-0.0005251327529549599,-0.0058875284,-0.00022793445,-0.0120755759999156,0.00057711464
189.18333333337603,0.00028907103,-0.78483367,-9.201903e-05,-2.3559709,6.195234e-05,1.570896,0.786,0.04,0.04,-9.820735,-0.0005731630371883512,-0.0063287686,-0.00026423964,-0.012453150935471058,0.00066977466
189.2000000000427,0.00031507853,-0.7848243,-0.00012024773,-2.355975,5.52603e-05,1.5708797,0.786,0.039999995,0.039999995,-9.820737,-0.0006038550054654479,-0.006702868,-0.00030381995,-0.012824594974517822,0.0007705799
189.2166666667094,0.00034476767,-0.78481936,-0.00015248205,-2.3559747,4.7618858e-05,1.5708612,0.786,0.03999999,0.03999999,-9.820758,-0.0006216400070115924,-0.007067322,-0.0003461638,-0.013188849203288555,0.0008790891
189.23333333337607,0.00037841173,-0.78481895,-0.00018902044,-2.3559709,3.895705e-05,1.5708393,0.786,0.039999988,0.039999988,-9.820754,-0.0006190084386616945,-0.00735874,-0.00039183814,-0.013544457964599133,0.0009958437
189.25000000004275,0.00041628553,-0.7848229,-0.0002301622,-2.355962,2.9203804e-05,1.5708162,0.7860002,0.039999984,0.039999984,-9.820944,-0.0006002275040373206,-0.0075789057,-0.00044032838,-0.013903352431952953,0.0011207239
189.26666666670943,0.00045866385,-0.7848311,-0.00027620743,-2.3559504,1.8288181e-05,1.57079,0.7860021,0.03999998,0.03999998,-9.820896,-0.0005611818050965667,-0.007824919,-0.0004929933,-0.014247726649045944,0.0012537462
189.2833333333761,0.00050582155,-0.784844,-0.000327456,-2.3559325,6.1397845e-06,1.5707604,0.786004,0.039999977,0.039999973,-9.821217,-0.0004947404377162457,-0.007970339,-0.00055643526,-0.014597647823393345,0.0013958057
189.3000000000428,0.00055803324,-0.7848613,-0.00038420738,-2.355911,-7.3132733e-06,1.5707277,0.7860059,0.039999973,0.03999997,-9.821131,-0.00040583405643701553,-0.008052097,-0.000622976,-0.014939896762371063,0.0015451438
189.31666666670947,0.000615572,-0.7848834,-0.00044676,-2.3558843,-2.2141116e-05,1.5706923,0.7860078,0.03999997,0.039999966,-9.82141,-0.00029363506473600864,-0.008111322,-0.00069232564,-0.015285201370716095,0.0017025999
189.33333333337615,0.00067870994,-0.78491,-0.00051541044,-2.3558533,-3.841446e-05,1.5706536,0.7860097,0.039999966,0.039999966,-9.821507,-0.00015851366333663464,-0.008116562,-0.0007647329,-0.01562490500509739,0.0018672906
189.35000000004283,0.0007477174,-0.7849415,-0.0005904537,-2.3558183,-5.6201618e-05,1.5706111,0.78601164,0.03999996,0.039999958,-9.821722,2.650613896548748e-05,-0.008055219,-0.0008399199,-0.015966888517141342,0.0020417473
189.3666666667095,0.00082286226,-0.7849777,-0.00067218236,-2.3557775,-7.557346e-05,1.5705649,0.78601354,0.039999958,0.039999954,-9.8220825,0.00021362281404435635,-0.007948808,-0.00091813126,-0.016314636915922165,0.0022233445
189.38333333337619,0.00090441015,-0.7850191,-0.0007608863,-2.355732,-9.659799e-05,1.5705147,0.78601545,0.039999954,0.03999995,-9.822168,0.000449291430413723,-0.0077941148,-0.0009990799,-0.0166604146361351,0.002412889
189.40000000004287,0.0009926242,-0.7850654,-0.00085685274,-2.3556817,-0.000119343145,1.5704604,0.78601736,0.03999995,0.039999947,-9.822443,0.0007147348951548338,-0.0075540803,-0.0010827136,-0.017009926959872246,0.0026103025
189.41666666670955,0.0010877644,-0.7851168,-0.0009603654,-2.3556259,-0.00014387634,1.5704019,0.78601927,0.039999947,0.039999943,-9.822713,0.0010175113566219807,-0.00728757,-0.001169005,-0.017363445833325386,0.0028155162
189.43333333337623,0.0011900875,-0.7851734,-0.001071705,-2.3555644,-0.00017026337,1.5703387,0.7860212,0.039999943,0.039999936,-9.822944,0.0013548589777201414,-0.0069588698,-0.0012581937,-0.017719710245728493,0.0030293171
189.4500000000429,0.0012998469,-0.78523546,-0.001191148,-2.3554978,-0.00019857053,1.5702709,0.7860231,0.03999994,0.039999932,-9.823203,0.0017246431671082973,-0.0065635475,-0.0013499634,-0.018081191927194595,0.0032499016
189.46666666670959,0.001417293,-0.7853031,-0.001318967,-2.355426,-0.00022886212,1.5701984,0.786025,0.039999936,0.03999993,-9.823476,0.0021343366242945194,-0.0061033214,-0.0014439946,-0.01844725012779236,0.0034780381
189.48333333337627,0.0015426712,-0.7853762,-0.0014554309,-2.355348,-0.0002612016,1.570121,0.7860269,0.039999932,0.039999925,-9.823798,0.0025931992568075657,-0.0055725127,-0.0015407893,-0.01881944015622139,0.0037136404
189.50000000004295,0.0016762242,-0.7854549,-0.0016008043,-2.3552642,-0.00029565158,1.5700387,0.7860288,0.03999993,0.03999992,-9.824012,0.0030865841545164585,-0.0050170813,-0.0016397708,-0.01919463463127613,0.003956605
189.51666666670963,0.0018181902,-0.7855395,-0.0017553476,-2.355174,-0.00033227383,1.5699513,0.7860307,0.03999993,0.03999992,-9.824265,0.003624850884079933,-0.0043829815,-0.0017414155,-0.019573690369725227,0.004206839
189.5333333333763,0.0019688038,-0.7856299,-0.0019193159,-2.355079,-0.00037112876,1.5698582,0.7860326,0.039999932,0.039999925,-9.824513,0.004208812955766916,-0.0036713877,-0.0018451321,-0.019956903532147408,0.004464246
189.55000000004298,0.0021282937,-0.78572637,-0.0020929605,-2.3549771,-0.00041227555,1.5697602,0.7860345,0.039999932,0.039999925,-9.824898,0.004840301349759102,-0.0029020421,-0.00195114,-0.02035106159746647,0.004728722
189.56666666670966,0.002296886,-0.7858288,-0.002276527,-2.354869,-0.00045577207,1.5696564,0.78603643,0.039999932,0.03999992,-9.825149,0.005517748650163412,-0.00207785,-0.0020591144,-0.020747438073158264,0.0050010113
189.58333333337634,0.0024748014,-0.78593755,-0.002470257,-2.3547535,-0.0005016764,1.5695469,0.7860401,0.039999932,0.03999992,-9.825387,0.006236323621124029,-0.001188573,-0.0021692624,-0.021148988977074623,0.005279295
189.60000000004302,0.0026622566,-0.78605276,-0.0026743866,-2.3546317,-0.00055004377,1.5694314,0.78604394,0.039999932,0.03999992,-9.825565,0.007011842913925648,-0.00020484813,-0.0022897602,-0.021552909165620804,0.0055643683
189.6166666667097,0.002859463,-0.7861743,-0.0028891477,-2.3545039,-0.00060092896,1.5693102,0.78604776,0.039999932,0.03999992,-9.825822,0.007830990478396416,0.0008559311,-0.0024125958,-0.02196202427148819,0.0058560716
189.63333333337638,0.0030666282,-0.7863025,-0.0031147667,-2.3543692,-0.0006543856,1.5691828,0.7860516,0.03999993,0.039999917,-9.82621,0.00870395079255104,0.0019559823,-0.0025374482,-0.02238084375858307,0.006154308
189.65000000004306,0.0032839535,-0.7864373,-0.0033514635,-2.3542278,-0.0007104659,1.5690489,0.7860554,0.039999925,0.039999913,-9.8264475,0.00962749868631363,0.0031582387,-0.0026639744,-0.022804278880357742,0.006458958
189.66666666670974,0.0035116388,-0.7865789,-0.0035994535,-2.3540797,-0.00076922047,1.5689087,0.7860592,0.03999992,0.039999906,-9.826728,0.01061459444463253,0.0044174707,-0.0027924008,-0.023235660046339035,0.0067707635
189.68333333337642,0.0037498754,-0.7867274,-0.0038589498,-2.3539243,-0.0008307003,1.5687623,0.786063,0.039999925,0.03999991,-9.827016,0.011644186452031136,0.0057444945,-0.0029223813,-0.023673156276345253,0.007087944
189.7000000000431,0.003998851,-0.7868828,-0.004130156,-2.3537614,-0.0008949532,1.5686091,0.78606683,0.03999993,0.039999913,-9.827251,0.01273498684167862,0.0071522826,-0.0030541217,-0.024114444851875305,0.007411178
189.71666666670978,0.0042587495,-0.7870454,-0.004413273,-2.353591,-0.00096202665,1.568449,0.78607064,0.03999993,0.039999913,-9.82745,0.013881763443350792,0.008622348,-0.0031870247,-0.02456064708530903,0.0077404063
189.73333333337646,0.0045297486,-0.7872153,-0.004708494,-2.353413,-0.0010319666,1.5682822,0.78607446,0.03999993,0.039999913,-9.8276415,0.01509292982518673,0.010213661,-0.0033215682,-0.025012008845806122,0.008075479
189.75000000004314,0.004812022,-0.7873925,-0.005016009,-2.3532276,-0.0011048176,1.5681083,0.78607893,0.039999932,0.039999913,-9.827878,0.016354339197278023,0.011847995,-0.0034574026,-0.025467190891504288,0.008417186
189.76666666670982,0.005105739,-0.78757703,-0.0053360006,-2.3530343,-0.0011806238,1.5679275,0.7860844,0.039999936,0.039999917,-9.828118,0.0176704004406929,0.013583893,-0.0035977825,-0.02592920884490013,0.008763701
189.7833333333765,0.0054110633,-0.787769,-0.00566865,-2.3528333,-0.0012594273,1.5677395,0.78609014,0.03999994,0.03999992,-9.828291,0.019057746976614,0.015378119,-0.00374373,-0.02639458328485489,0.0091157835
189.80000000004318,0.005728151,-0.7879686,-0.006014131,-2.3526247,-0.0013412684,1.5675445,0.78609586,0.039999947,0.03999993,-9.828468,0.02050877921283245,0.017269637,-0.0038921558,-0.026864059269428253,0.00947329
189.81666666670986,0.0060571567,-0.7881757,-0.0063726096,-2.3524077,-0.001426187,1.5673422,0.7861016,0.039999954,0.039999932,-9.828742,0.02201368659734726,0.019225938,-0.004041636,-0.02733996883034706,0.009836983
189.83333333337654,0.0063982294,-0.7883907,-0.006744248,-2.352182,-0.0015142224,1.5671324,0.7861073,0.03999996,0.03999994,-9.828879,0.023577315732836723,0.021267902,-0.0041921083,-0.027818772941827774,0.010205031
189.85000000004322,0.0067515145,-0.7886135,-0.007129204,-2.351948,-0.0016054108,1.5669148,0.786113,0.03999997,0.039999947,-9.82894,0.025222433730959892,0.02343014,-0.0043435115,-0.028297847136855125,0.010578191
189.8666666667099,0.0071171494,-0.7888439,-0.00752763,-2.3517058,-0.001699789,1.5666896,0.78611875,0.03999998,0.039999958,-9.829119,0.02691812254488468,0.025657266,-0.004495766,-0.028782054781913757,0.010956362
189.88333333337658,0.007495268,-0.7890824,-0.00793967,-2.3514557,-0.0017973904,1.5664568,0.78612447,0.039999984,0.039999958,-9.829323,0.028688637539744377,0.027942758,-0.0046488177,-0.029271913692355156,0.011340297
189.90000000004326,0.007886001,-0.7893291,-0.008365468,-2.3511968,-0.0018982491,1.5662163,0.78613067,0.039999988,0.03999996,-9.829526,0.030513040721416473,0.030344259,-0.0048026103,-0.02976745367050171,0.011728178
189.91666666670994,0.008289473,-0.789584,-0.008805159,-2.3509297,-0.002002398,1.565968,0.7861377,0.03999999,0.039999966,-9.829561,0.03242002800107002,0.032846734,-0.0049592433,-0.030262308195233345,0.012120754
189.93333333337662,0.008705799,-0.789847,-0.009258875,-2.3506546,-0.0021098666,1.5657117,0.7861453,0.03999999,0.03999996,-9.829749,0.034388381987810135,0.03541278,-0.005120345,-0.03076230175793171,0.012518823
189.9500000000433,0.009135096,-0.7901183,-0.009726737,-2.350371,-0.0022206851,1.5654476,0.78615296,0.03999999,0.03999996,-9.829974,0.03641626238822937,0.03807573,-0.0052847285,-0.03126923739910126,0.012920527
189.96666666670998,0.009577482,-0.7903979,-0.010208867,-2.350078,-0.0023348813,1.5651754,0.7861606,0.039999995,0.039999966,-9.8300705,0.0385226309299469,0.040804364,-0.005449601,-0.03177840635180473,0.013326629
189.98333333337666,0.0100330515,-0.7906861,-0.010705382,-2.349776,-0.0024524825,1.5648949,0.7861682,0.039999995,0.03999996,-9.830143,0.04070962592959404,0.043654628,-0.0056148362,-0.032289840281009674,0.0137378955
190.00000000004334,0.010501907,-0.7909825,-0.011216389,-2.3494651,-0.0025735158,1.5646064,0.78617585,0.04,0.039999966,-9.830139,0.0429467111825943,0.04658881,-0.0057804496,-0.03280017524957657,0.014152516
190.01666666671002,0.010984141,-0.79128754,-0.011741994,-2.3491454,-0.0026980045,1.5643098,0.7861835,0.04,0.039999966,-9.830261,0.04526561498641968,0.04958593,-0.005946083,-0.03331393375992775,0.014570976
190.0333333333767,0.011479852,-0.7916011,-0.012282291,-2.348817,-0.0028259722,1.5640048,0.7861913,0.04,0.039999966,-9.830361,0.04765540361404419,0.052705705,-0.006112209,-0.03383084386587143,0.014993805
190.05000000004338,0.011989118,-0.7919233,-0.01283738,-2.3484802,-0.0029574418,1.5636911,0.78619987,0.04,0.039999973,-9.830414,0.050128426402807236,0.055916205,-0.0062790476,-0.034350354224443436,0.015420516
190.06666666671006,0.012512027,-0.79225445,-0.01340735,-2.3481333,-0.0030924329,1.5633695,0.78620905,0.04,0.039999966,-9.830598,0.05266192555427551,0.059196256,-0.006449578,-0.03487682715058327,0.01585154
190.08333333337674,0.013048655,-0.7925941,-0.01399228,-2.3477774,-0.003230967,1.5630393,0.7862186,0.04,0.039999966,-9.830461,0.05526481196284294,0.062595814,-0.006623117,-0.035396821796894073,0.016285848
190.10000000004342,0.01359907,-0.7929425,-0.014592255,-2.3474126,-0.0033730625,1.5627007,0.7862281,0.04,0.03999996,-9.830483,0.0579586997628212,0.066078074,-0.0067979894,-0.0359194315969944,0.01672384
190.1166666667101,0.014163343,-0.7932999,-0.015207343,-2.3470392,-0.0035187358,1.5623533,0.78623766,0.04,0.03999996,-9.8306,0.060714878141880035,0.069635496,-0.006972559,-0.03644531965255737,0.017165348
190.13333333337678,0.014741535,-0.79366595,-0.015837615,-2.3466558,-0.003668004,1.5619973,0.7862472,0.04,0.039999958,-9.83067,0.0635572224855423,0.07331638,-0.0071472134,-0.03697622939944267,0.017610706
190.15000000004346,0.015333709,-0.794041,-0.01648313,-2.346263,-0.0038208817,1.5616329,0.78625673,0.04,0.039999958,-9.830588,0.06646604835987091,0.077055,-0.0073216665,-0.037505026906728745,0.018059036
190.16666666671014,0.015939916,-0.794425,-0.017143961,-2.345861,-0.0039773844,1.5612597,0.78626657,0.04,0.039999966,-9.830489,0.06946338713169098,0.08091892,-0.0074955435,-0.03803171217441559,0.01851063
190.18333333337682,0.016560197,-0.7948178,-0.017820152,-2.3454506,-0.0041375216,1.5608778,0.786277,0.04,0.03999996,-9.8305435,0.07252499461174011,0.08486664,-0.007670486,-0.03856067731976509,0.018965794
190.2000000000435,0.017194608,-0.7952196,-0.018511754,-2.3450305,-0.0043013087,1.5604874,0.78628796,0.04,0.03999996,-9.830637,0.07567249238491058,0.08889063,-0.007847823,-0.03909621387720108,0.019423703
190.21666666671018,0.017843192,-0.79563034,-0.019218806,-2.3446004,-0.0044687544,1.560088,0.78629935,0.04,0.039999958,-9.83054,0.07888976484537125,0.09300351,-0.008027111,-0.03962881118059158,0.019884609
190.23333333337686,0.018505976,-0.7960502,-0.019941354,-2.3441608,-0.004639869,1.5596802,0.7863108,0.04,0.039999966,-9.830366,0.08220486342906952,0.097239085,-0.008207831,-0.040159083902835846,0.020348456
190.25000000004354,0.019182997,-0.7964792,-0.020679438,-2.3437123,-0.0048146597,1.5592636,0.78632224,0.04,0.039999966,-9.830302,0.08557243645191193,0.101545654,-0.008387956,-0.04068784788250923,0.020815104
190.26666666671022,0.019874284,-0.7969172,-0.021433087,-2.3432543,-0.0049931337,1.558838,0.7863337,0.04,0.03999996,-9.830293,0.08904431760311127,0.10598027,-0.008567772,-0.04121862351894379,0.021284983
190.2833333333769,0.02057986,-0.79736406,-0.022202319,-2.3427863,-0.0051752967,1.558404,0.7863451,0.04,0.03999996,-9.830186,0.09258304536342621,0.11047445,-0.008746591,-0.04174938052892685,0.021757044
190.30000000004358,0.021299746,-0.79782015,-0.02298716,-2.342309,-0.005361155,1.5579609,0.78635705,0.04,0.03999997,-9.830018,0.09621573984622955,0.115069464,-0.0089246575,-0.04227757081389427,0.02223207
190.31666666671026,0.02203395,-0.7982854,-0.023787623,-2.3418221,-0.005550712,1.557509,0.78636944,0.04,0.039999958,-9.829919,0.09990520775318146,0.119756594,-0.009104384,-0.04280523955821991,0.022709208
190.33333333337694,0.022782493,-0.79875976,-0.02460372,-2.3413255,-0.0057439697,1.5570483,0.78638226,0.04,0.03999996,-9.8297615,0.10369051247835159,0.1245604,-0.0092851585,-0.043330755084753036,0.023188785
190.35000000004362,0.023545373,-0.7992432,-0.025435468,-2.3408198,-0.0059409314,1.5565789,0.7863955,0.04,0.039999966,-9.829552,0.10756223648786545,0.12945162,-0.009466868,-0.04385312646627426,0.023670642
190.3666666667103,0.0243226,-0.79973584,-0.026282862,-2.3403049,-0.006141597,1.5561007,0.78640884,0.04,0.039999958,-9.829497,0.11150817573070526,0.13442084,-0.009649318,-0.044377438724040985,0.024155166
190.38333333337698,0.025114167,-0.8002374,-0.027145907,-2.3397799,-0.006345966,1.5556136,0.7864222,0.04,0.03999995,-9.829315,0.11553040891885757,0.13949394,-0.009831472,-0.044899243861436844,0.024641454
190.40000000004366,0.025920076,-0.800748,-0.028024597,-2.339245,-0.006554036,1.5551176,0.78643554,0.04,0.039999954,-9.829078,0.11965175718069077,0.14464587,-0.010012615,-0.045418087393045425,0.02512981
190.41666666671034,0.026740303,-0.80126786,-0.02891891,-2.3387012,-0.0067658103,1.5546125,0.786449,0.04,0.03999997,-9.828817,0.12385532259941101,0.14990003,-0.010192605,-0.045934442430734634,0.02562009
190.43333333337702,0.027574854,-0.80179673,-0.029828843,-2.338148,-0.00698128,1.554099,0.78646296,0.04,0.039999954,-9.828682,0.12813006341457367,0.15525821,-0.010371711,-0.04645102471113205,0.026112663
190.4500000000437,0.028423706,-0.8023348,-0.030754374,-2.3375852,-0.007200442,1.5535767,0.7864773,0.04,0.039999958,-9.82846,0.13248363137245178,0.16068022,-0.010551894,-0.046964745968580246,0.02660673
190.46666666671038,0.029286832,-0.80288184,-0.031695478,-2.3370128,-0.00742329,1.5530454,0.78649205,0.04,0.039999954,-9.828168,0.1369343400001526,0.16621554,-0.010732721,-0.04747369885444641,0.027102377
190.48333333337706,0.030164221,-0.80343795,-0.032652132,-2.3364313,-0.007649819,1.5525054,0.7865071,0.04,0.039999947,-9.827888,0.1414746344089508,0.17184874,-0.010913822,-0.04798106849193573,0.027600264
190.50000000004374,0.03105583,-0.804003,-0.033624314,-2.33584,-0.007880022,1.5519567,0.7865224,0.04,0.039999966,-9.827688,0.14607910811901093,0.17754981,-0.01109477,-0.04848787933588028,0.028099403
190.51666666671042,0.031961635,-0.8045771,-0.034611985,-2.3352394,-0.008113889,1.5513991,0.78653765,0.04,0.039999973,-9.827338,0.1507789045572281,0.18334478,-0.011275431,-0.048988886177539825,0.02859996
190.5333333333771,0.03288159,-0.80516034,-0.03561509,-2.3346293,-0.00835141,1.5508329,0.7865529,0.04,0.039999958,-9.82707,0.1555660218000412,0.18923576,-0.011454607,-0.04948802292346954,0.029101476
190.55000000004378,0.033815667,-0.80575234,-0.03663359,-2.33401,-0.008592579,1.5502579,0.78656846,0.04,0.039999943,-9.826664,0.16044853627681732,0.19523829,-0.011632465,-0.049981988966464996,0.029604897
190.56666666671046,0.034763806,-0.80635357,-0.037667453,-2.3333814,-0.00883738,1.5496744,0.7865844,0.04,0.039999947,-9.826372,0.16538971662521362,0.20128848,-0.011809665,-0.050473205745220184,0.030109655
190.58333333337714,0.03572599,-0.80696326,-0.038716614,-2.3327436,-0.009085805,1.5490822,0.78660065,0.04,0.03999994,-9.8260355,0.17042668163776398,0.20746884,-0.011986903,-0.050960931926965714,0.030615024
190.60000000004382,0.036702156,-0.8075824,-0.03978104,-2.3320966,-0.009337843,1.5484813,0.7866172,0.04,0.039999943,-9.825679,0.175563246011734,0.21368033,-0.012164297,-0.051446590572595596,0.031121572
190.6166666667105,0.037692238,-0.8082097,-0.04086065,-2.3314395,-0.009593475,1.547872,0.78663415,0.04,0.039999943,-9.825253,0.18076615035533905,0.22004005,-0.01234123,-0.05192501097917557,0.03162897
190.63333333337718,0.038696185,-0.8088464,-0.041955404,-2.330774,-0.009852688,1.547254,0.7866513,0.04,0.039999947,-9.824818,0.18606215715408325,0.22641172,-0.012517959,-0.052399661391973495,0.032137983
190.65000000004386,0.039713956,-0.8094913,-0.043065213,-2.330099,-0.010115463,1.5466274,0.7866685,0.04,0.039999936,-9.824439,0.19144397974014282,0.2329615,-0.0126940375,-0.05287079140543938,0.03264661
190.66666666671054,0.040745474,-0.81014514,-0.04419001,-2.3294153,-0.010381788,1.5459927,0.78668565,0.04,0.039999932,-9.823972,0.1969195306301117,0.23950809,-0.0128683625,-0.053337763994932175,0.03315626
190.68333333337722,0.04179067,-0.8108077,-0.04532973,-2.328722,-0.010651645,1.5453494,0.78670317,0.04,0.03999993,-9.823551,0.2024672031402588,0.24618602,-0.013040565,-0.05379919335246086,0.033667352
190.7000000000439,0.04284948,-0.8114788,-0.046484284,-2.3280196,-0.010925015,1.5446975,0.78672093,0.04,0.03999993,-9.823032,0.20810498297214508,0.2529498,-0.01321265,-0.05425518378615379,0.03417832
190.71666666671058,0.04392181,-0.8121585,-0.04765362,-2.3273082,-0.011201881,1.5440375,0.78673905,0.04,0.039999932,-9.822535,0.2138279378414154,0.25978073,-0.013383669,-0.05470623821020126,0.034689605
190.73333333337726,0.045007598,-0.812847,-0.04883763,-2.3265884,-0.011482222,1.5433693,0.78675747,0.04,0.03999994,-9.821995,0.21965216100215912,0.26671383,-0.013554346,-0.05515158921480179,0.035201427
190.75000000004394,0.046106756,-0.81354386,-0.050036233,-2.3258595,-0.011766015,1.5426929,0.7867761,0.04,0.03999993,-9.821549,0.2255469411611557,0.273716,-0.013724441,-0.05559266358613968,0.035713963
190.76666666671062,0.047219213,-0.8142491,-0.051249325,-2.3251219,-0.012053242,1.542008,0.7867951,0.04,0.039999925,-9.820979,0.23152267932891846,0.2807882,-0.013893351,-0.056027501821517944,0.036226172
190.7833333333773,0.048344884,-0.81496274,-0.05247683,-2.3243754,-0.012343876,1.5413154,0.78681415,0.04,0.039999913,-9.820429,0.23759005963802338,0.28795436,-0.014061676,-0.056458935141563416,0.036738053
190.80000000004398,0.04948367,-0.81568474,-0.05371865,-2.3236203,-0.012637896,1.5406141,0.7868332,0.04,0.039999925,-9.819813,0.24375465512275696,0.29519343,-0.014228025,-0.05688222125172615,0.03725018
190.81666666671066,0.05063548,-0.816415,-0.054974675,-2.322856,-0.012935284,1.5399052,0.7868526,0.04,0.039999925,-9.819257,0.24999092519283295,0.30251598,-0.0143924365,-0.057302914559841156,0.037761945
190.83333333337734,0.051800214,-0.8171535,-0.0562448,-2.3220832,-0.0132360095,1.5391884,0.7868722,0.04,0.039999917,-9.81854,0.25632888078689575,0.30990022,-0.014556028,-0.05771292746067047,0.03827474
190.85000000004402,0.05297778,-0.8179001,-0.05752893,-2.3213024,-0.013540045,1.538464,0.78689206,0.04,0.039999917,-9.817893,0.26274433732032776,0.31738457,-0.014718305,-0.05811695009469986,0.03878606
190.8666666667107,0.05416808,-0.8186547,-0.058826957,-2.3205132,-0.01384737,1.5377314,0.78691214,0.04,0.039999925,-9.817293,0.2692338228225708,0.3249045,-0.014879377,-0.058515239506959915,0.039296646
190.88333333337738,0.055371,-0.8194173,-0.060138743,-2.3197157,-0.014157952,1.5369912,0.78693247,0.04,0.03999993,-9.816682,0.27582353353500366,0.33251417,-0.0150393015,-0.058910779654979706,0.039806798
190.90000000004406,0.05658645,-0.82018805,-0.061464183,-2.31891,-0.014471764,1.5362433,0.78695303,0.04,0.03999992,-9.815936,0.28249603509902954,0.34020552,-0.015197945,-0.05929778516292572,0.04031748
190.91666666671074,0.057814308,-0.8209666,-0.06280318,-2.3180952,-0.014788782,1.5354877,0.78697383,0.04,0.03999992,-9.815222,0.28925561904907227,0.34798607,-0.015355084,-0.05967912822961807,0.040826153
190.93333333337742,0.059054468,-0.821753,-0.06415556,-2.3172724,-0.015108977,1.5347244,0.7869948,0.04,0.03999992,-9.814398,0.29608768224716187,0.355808,-0.0155108,-0.06004999205470085,0.041334346
190.9500000000441,0.060306806,-0.82254714,-0.06552124,-2.3164418,-0.015432312,1.5339535,0.787016,0.04,0.039999925,-9.81365,0.3030201196670532,0.36371854,-0.015665209,-0.06041521579027176,0.04184214
190.96666666671078,0.0615712,-0.8233489,-0.06690007,-2.315603,-0.015758762,1.5331751,0.7870373,0.04,0.039999932,-9.812894,0.3100288510322571,0.37169293,-0.015817633,-0.06077434495091438,0.042348586
190.98333333337746,0.06284754,-0.8241582,-0.06829195,-2.3147566,-0.016088301,1.5323894,0.78705883,0.04,0.039999932,-9.812099,0.31713545322418213,0.37973252,-0.015968386,-0.061128050088882446,0.042853717
191.00000000004414,0.064135715,-0.8249751,-0.069696695,-2.3139026,-0.01642089,1.5315964,0.7870806,0.04,0.039999932,-9.8113,0.3243131935596466,0.3878133,-0.016117489,-0.06147485598921776,0.04335842
191.01666666671082,0.065435566,-0.8257992,-0.07111422,-2.313041,-0.016756497,1.5307962,0.7871025,0.04,0.03999994,-9.810491,0.33156105875968933,0.39598665,-0.016265083,-0.061815425753593445,0.043859832
191.0333333333775,0.06674699,-0.8266309,-0.07254434,-2.312172,-0.017095087,1.5299889,0.7871247,0.04,0.03999994,-9.809659,0.3389264643192291,0.40419638,-0.016410813,-0.062150850892066956,0.044361394
191.05000000004418,0.06806983,-0.8274698,-0.07398695,-2.3112948,-0.017436631,1.5291746,0.78714705,0.04,0.03999994,-9.808788,0.3463630974292755,0.41249418,-0.016555084,-0.06247907504439354,0.044861246
191.06666666671086,0.06940396,-0.8283158,-0.07544186,-2.31041,-0.017781086,1.5283535,0.7871696,0.04,0.03999993,-9.807787,0.35388070344924927,0.4208346,-0.01669764,-0.06279569864273071,0.045360126
191.08333333337754,0.07074927,-0.82916886,-0.076908946,-2.3095176,-0.018128429,1.5275254,0.78719234,0.04,0.039999947,-9.806892,0.36143800616264343,0.42922935,-0.016838178,-0.06310585141181946,0.045850776
191.10000000004422,0.07210561,-0.83002895,-0.07838807,-2.3086176,-0.018478613,1.5266908,0.7872154,0.04,0.03999994,-9.805866,0.3691900968551636,0.43771097,-0.016977204,-0.06340670585632324,0.0463505
191.1166666667109,0.07347286,-0.83089614,-0.07987908,-2.30771,-0.01883161,1.5258493,0.78723854,0.04,0.039999936,-9.804888,0.3769218623638153,0.4462301,-0.017114824,-0.06369789689779282,0.046843924
191.13333333337758,0.07485081,-0.83176994,-0.0813818,-2.306796,-0.01918738,1.5250012,0.7872618,0.04,0.039999936,-9.803796,0.38476741313934326,0.45484498,-0.017249791,-0.06397885084152222,0.04733446
191.15000000004426,0.0762394,-0.83265054,-0.082896076,-2.305875,-0.019545885,1.5241464,0.78728515,0.04,0.03999995,-9.802943,0.392656147480011,0.46346316,-0.017382793,-0.06425804644823074,0.047816962
191.16666666671094,0.07763842,-0.83353776,-0.08442176,-2.304947,-0.019907087,1.5232854,0.78730875,0.04,0.039999932,-9.801824,0.40074312686920166,0.47217348,-0.01751317,-0.06452693045139313,0.048307847
191.18333333337762,0.07904774,-0.83443147,-0.085958704,-2.3040125,-0.020270955,1.5224179,0.78733253,0.04,0.03999996,-9.80079,0.4087494909763336,0.48090485,-0.017642267,-0.06478843837976456,0.048783846
191.2000000000443,0.08046721,-0.8353317,-0.08750669,-2.303071,-0.02063743,1.5215442,0.7873565,0.04,0.039999932,-9.799775,0.4170173108577728,0.48969012,-0.017769331,-0.06504512578248978,0.04927324
191.21666666671098,0.081896685,-0.83623827,-0.0890656,-2.3021228,-0.021006495,1.5206645,0.78738064,0.04,0.039999936,-9.798607,0.42519500851631165,0.4985397,-0.017894184,-0.06529108434915543,0.049748108
191.23333333337766,0.08333602,-0.83715105,-0.09063521,-2.301168,-0.021378094,1.5197786,0.7874049,0.04,0.03999992,-9.79744,0.43359145522117615,0.50744,-0.018016968,-0.06552779674530029,0.05022909
191.25000000004434,0.08478503,-0.83807,-0.09221542,-2.3002071,-0.0217522,1.5188867,0.78742933,0.04,0.039999932,-9.796313,0.44192472100257874,0.5163716,-0.018137513,-0.06575720757246017,0.05069642
191.26666666671102,0.086243555,-0.83899504,-0.093805976,-2.29924,-0.022128753,1.5179892,0.78745407,0.04,0.039999913,-9.795158,0.4504868984222412,0.5253405,-0.018255832,-0.06597963720560074,0.051171925
191.2833333333777,0.08771146,-0.83992594,-0.095406756,-2.298266,-0.02250773,1.5170856,0.78747904,0.04,0.03999992,-9.793995,0.45901280641555786,0.5343735,-0.018372504,-0.06619430333375931,0.05163864
191.30000000004438,0.08918854,-0.8408627,-0.09701757,-2.297286,-0.022889085,1.5161765,0.7875041,0.04,0.039999943,-9.792606,0.4676235318183899,0.5434475,-0.018487744,-0.06639646738767624,0.05209483
191.31666666671106,0.09067468,-0.8418053,-0.09863824,-2.2963004,-0.023272766,1.5152617,0.78752923,0.04,0.039999925,-9.791443,0.4764304459095001,0.55255854,-0.018600026,-0.06659211963415146,0.052561972
191.33333333337774,0.092169695,-0.8427535,-0.100268565,-2.2953088,-0.023658734,1.5143417,0.78755444,0.04,0.039999925,-9.790196,0.4851836562156677,0.5617061,-0.018709835,-0.06678098440170288,0.05301931
191.35000000004442,0.093673415,-0.8437072,-0.10190837,-2.2943115,-0.024046946,1.5134159,0.7875797,0.04,0.039999936,-9.78884,0.4940491020679474,0.57089835,-0.01881716,-0.06695809215307236,0.053470697
191.3666666667111,0.09518564,-0.84466636,-0.1035575,-2.293308,-0.02443736,1.5124854,0.7876052,0.04,0.039999906,-9.787576,0.5030293464660645,0.58011496,-0.0189214,-0.06713090091943741,0.053924035
191.38333333337778,0.0967062,-0.84563094,-0.10521573,-2.2922997,-0.024829937,1.5115497,0.78763086,0.04,0.039999917,-9.786153,0.5119959115982056,0.58937854,-0.01902407,-0.06729058921337128,0.054364983
191.40000000004446,0.09823495,-0.8466006,-0.10688288,-2.291286,-0.025224613,1.5106088,0.7876566,0.04,0.03999992,-9.784832,0.5211570262908936,0.5986738,-0.019124443,-0.06744315475225449,0.054810792
191.41666666671114,0.099771716,-0.8475755,-0.108558744,-2.2902663,-0.02562136,1.5096631,0.78768253,0.04,0.039999925,-9.783481,0.5303080081939697,0.60800135,-0.019222068,-0.06758991628885269,0.05524897
191.43333333337782,0.1013163,-0.8485551,-0.11024317,-2.2892416,-0.026020126,1.5087125,0.7877086,0.04,0.039999932,-9.781938,0.5395050644874573,0.61736566,-0.019317728,-0.067722387611866,0.055676427
191.4500000000445,0.102868535,-0.8495397,-0.11193593,-2.2882123,-0.026420867,1.5077571,0.78773487,0.04,0.039999943,-9.780555,0.5488573312759399,0.62673503,-0.019410962,-0.06784921884536743,0.056105196
191.46666666671118,0.10442824,-0.85052913,-0.11363684,-2.2871776,-0.026823526,1.5067972,0.7877612,0.04,0.03999995,-9.779151,0.5582464337348938,0.6361544,-0.019502318,-0.06797052174806595,0.05653042
191.48333333337786,0.105995245,-0.8515233,-0.11534568,-2.2861385,-0.027228069,1.5058327,0.78778774,0.04,0.03999994,-9.777553,0.5677269697189331,0.6456058,-0.019590702,-0.06807811558246613,0.056953546
191.50000000004454,0.10756935,-0.85252184,-0.11706227,-2.2850943,-0.02763445,1.504864,0.78781444,0.04,0.039999947,-9.776118,0.5772544741630554,0.6550781,-0.01967702,-0.06818053871393204,0.057373237
191.51666666671122,0.10915039,-0.8535247,-0.1187864,-2.284046,-0.028042618,1.503891,0.78784126,0.04,0.039999988,-9.774539,0.5867595076560974,0.66454995,-0.019761113,-0.06827300041913986,0.057773966
191.5333333333779,0.11073814,-0.85453206,-0.12051789,-2.2829928,-0.028452523,1.5029136,0.7878682,0.04,0.039999966,-9.77302,0.5965070724487305,0.67404795,-0.019842597,-0.06835813820362091,0.058183696
191.55000000004458,0.112332456,-0.8555435,-0.12225649,-2.2819355,-0.02886411,1.5019323,0.7878952,0.04,0.039999973,-9.771394,0.6062160730361938,0.6836115,-0.01992168,-0.06843408942222595,0.05858367
191.56666666671126,0.11393316,-0.856559,-0.12400203,-2.2808738,-0.029277347,1.5009471,0.7879223,0.04,0.039999958,-9.769789,0.6160359978675842,0.6931461,-0.019997733,-0.06850168853998184,0.058983445
191.58333333337794,0.115539975,-0.85757834,-0.1257543,-2.2798078,-0.029692162,1.4999582,0.78794944,0.04,0.03999998,-9.768132,0.6258471608161926,0.7027122,-0.020071749,-0.06855954229831696,0.05936926
191.60000000004462,0.1171528,-0.85860145,-0.12751305,-2.278738,-0.030108528,1.4989654,0.7879766,0.04,0.03999996,-9.766452,0.6358349323272705,0.7122949,-0.020142335,-0.06860832124948502,0.059759155
191.6166666667113,0.11877139,-0.8596284,-0.12927815,-2.2776644,-0.030526385,1.4979692,0.7880038,0.04,0.04,-9.764773,0.6457664966583252,0.721887,-0.020210655,-0.06864923983812332,0.060135465
191.63333333337798,0.120395586,-0.860659,-0.13104932,-2.276587,-0.030945681,1.4969696,0.78803104,0.04,0.03999999,-9.763072,0.6558524370193481,0.73150516,-0.020275647,-0.06868147104978561,0.060510308
191.65000000004466,0.122025155,-0.86169297,-0.13282639,-2.2755065,-0.03136637,1.4959667,0.7880585,0.04,0.039999966,-9.761311,0.6659793257713318,0.7411423,-0.020337854,-0.06870327144861221,0.06088263
191.66666666671134,0.12365994,-0.8627302,-0.1346091,-2.274422,-0.031788405,1.4949608,0.7880861,0.04,0.039999958,-9.759583,0.6761636734008789,0.750765,-0.020397974,-0.06871838867664337,0.061248522
191.68333333337802,0.12529974,-0.86377066,-0.13639727,-2.2733338,-0.03221173,1.4939516,0.78811383,0.04,0.03999999,-9.757758,0.6863484978675842,0.76040494,-0.020456119,-0.06872255355119705,0.06160101
191.7000000000447,0.12694438,-0.86481404,-0.13819072,-2.2722428,-0.032636285,1.4929394,0.7881416,0.04,0.03999997,-9.755897,0.6966813802719116,0.7700611,-0.02051135,-0.06871721148490906,0.061954822
191.71666666671138,0.1285936,-0.86586064,-0.13998917,-2.2711487,-0.033062033,1.4919243,0.78816944,0.04,0.039999977,-9.754129,0.7070087194442749,0.7797054,-0.020564225,-0.06870593130588531,0.06229787
191.73333333337806,0.13024722,-0.8669099,-0.14179242,-2.270052,-0.033488918,1.4909068,0.78819734,0.04,0.039999973,-9.75225,0.7174458503723145,0.78939945,-0.02061415,-0.06868541240692139,0.062637754
191.75000000004474,0.13190508,-0.8679619,-0.14360024,-2.2689524,-0.033916887,1.4898866,0.7882253,0.04,0.039999988,-9.750402,0.7278925180435181,0.7990371,-0.020661263,-0.0686563104391098,0.06296989
191.76666666671142,0.1335669,-0.86901647,-0.14541246,-2.26785,-0.034345888,1.488864,0.78825337,0.04,0.039999977,-9.748501,0.7384217381477356,0.80870724,-0.020705806,-0.06861955672502518,0.06329696
191.7833333333781,0.13523251,-0.8700735,-0.14722882,-2.2667456,-0.034775868,1.4878389,0.7882815,0.04,0.03999998,-9.74654,0.7489955425262451,0.81836885,-0.020748459,-0.06857334077358246,0.06361577
191.80000000004478,0.13690178,-0.8711328,-0.14904907,-2.2656384,-0.035206784,1.4868116,0.7883097,0.04,0.039999977,-9.744649,0.7596321105957031,0.82803977,-0.020788055,-0.06852080672979355,0.0639295
191.81666666671146,0.13857442,-0.8721943,-0.15087308,-2.2645285,-0.035638575,1.485782,0.78833795,0.04,0.039999973,-9.742651,0.7702951431274414,0.8376884,-0.020824758,-0.06845901161432266,0.06423649
191.83333333337814,0.1402503,-0.87325776,-0.15270057,-2.2634165,-0.036071185,1.4847507,0.7883662,0.04,0.039999995,-9.74057,0.7810113430023193,0.84735143,-0.020859482,-0.0683874562382698,0.06453261
191.85000000004482,0.14192913,-0.87432325,-0.15453133,-2.262303,-0.03650457,1.4837173,0.7883945,0.04,0.03999997,-9.738582,0.7918263673782349,0.85698885,-0.020890605,-0.06830759346485138,0.06482757
191.8666666667115,0.14361078,-0.8753905,-0.1563651,-2.261188,-0.03693868,1.4826826,0.788423,0.04,0.039999977,-9.736571,0.8026169538497925,0.8666448,-0.020919537,-0.06822175532579422,0.06511012
191.88333333337818,0.14529498,-0.8764593,-0.15820166,-2.2600703,-0.037373446,1.481646,0.7884515,0.04,0.04,-9.734556,0.8134827613830566,0.8762627,-0.020946447,-0.06812819093465805,0.06538564
191.90000000004486,0.14698158,-0.8775296,-0.16004086,-2.258951,-0.03780883,1.480608,0.78848004,0.04,0.039999988,-9.732349,0.8244194984436035,0.8858785,-0.020970387,-0.06802386790513992,0.06565733
191.91666666671154,0.14867035,-0.8786014,-0.16188237,-2.2578309,-0.038244765,1.479569,0.7885086,0.04,0.03999999,-9.730209,0.8353747129440308,0.89550096,-0.020991782,-0.0679096132516861,0.06591944
191.93333333337822,0.15036109,-0.8796745,-0.16372602,-2.2567098,-0.038681205,1.4785284,0.7885372,0.04,0.039999995,-9.728196,0.8463789224624634,0.9050804,-0.021010507,-0.0677914023399353,0.06617542
191.9500000000449,0.15205361,-0.88074875,-0.16557157,-2.2555878,-0.039118107,1.4774868,0.7885658,0.04,0.039999984,-9.726075,0.8574112057685852,0.91467077,-0.021026207,-0.06766710430383682,0.06642272
191.96666666671157,0.15374762,-0.8818239,-0.16741882,-2.2544637,-0.039555397,1.4764444,0.7885944,0.04,0.039999995,-9.723905,0.8684914708137512,0.9242278,-0.021039248,-0.0675351545214653,0.066661716
191.98333333337825,0.15544303,-0.88290006,-0.16926752,-2.2533388,-0.039993037,1.4754012,0.7886231,0.04,0.04,-9.721573,0.8796321749687195,0.93378216,-0.021049913,-0.06739071011543274,0.06689345
192.00000000004493,0.15713955,-0.8839769,-0.17111745,-2.2522132,-0.040430952,1.474357,0.7886518,0.04,0.04,-9.719376,0.8907792568206787,0.94331455,-0.021057859,-0.06723884493112564,0.06711712
192.01666666671161,0.15883702,-0.88505447,-0.1729684,-2.2510872,-0.040869135,1.4733123,0.78868055,0.04,0.04,-9.717159,0.9019683003425598,0.9528219,-0.021063581,-0.06708130985498428,0.06733035
192.0333333333783,0.16053519,-0.8861323,-0.17482014,-2.2499607,-0.04130747,1.4722672,0.7887093,0.04,0.04,-9.714894,0.9132240414619446,0.9623277,-0.021066174,-0.06691595911979675,0.06753997
192.05000000004497,0.16223383,-0.88721055,-0.17667243,-2.2488337,-0.041745942,1.4712218,0.7887381,0.04,0.04,-9.712638,0.9244755506515503,0.97176605,-0.0210665,-0.06674394011497498,0.06773823
192.06666666671165,0.1639328,-0.888289,-0.17852502,-2.2477064,-0.04218449,1.4701763,0.78876686,0.04,0.04,-9.710311,0.9357759356498718,0.9812094,-0.021064704,-0.0665634498000145,0.06792875
192.08333333337833,0.16563189,-0.8893676,-0.18037769,-2.2465792,-0.042623058,1.4691309,0.78879565,0.04,0.04,-9.707971,0.9471041560173035,0.99061924,-0.021060064,-0.06637481600046158,0.06811155
192.10000000004501,0.16733085,-0.89044595,-0.18223025,-2.2454522,-0.043061584,1.4680854,0.78882444,0.04,0.04,-9.705656,0.9584535956382751,1.0000261,-0.021052497,-0.06617937982082367,0.06828497
192.1166666667117,0.16902949,-0.89152426,-0.18408243,-2.2443252,-0.04350002,1.4670402,0.78885317,0.04,0.04,-9.703326,0.9698336124420166,1.0093637,-0.021042777,-0.0659787654876709,0.06844928
192.13333333337837,0.17072761,-0.89260226,-0.18593407,-2.2431986,-0.04393834,1.4659952,0.7888819,0.04,0.04,-9.700885,0.9812467694282532,1.0187173,-0.021029841,-0.06576895713806152,0.06860489
192.15000000004505,0.172425,-0.8936796,-0.18778485,-2.2420726,-0.044376466,1.4649507,0.78891057,0.04,0.04,-9.698527,0.9926885366439819,1.0280114,-0.021014879,-0.0655534639954567,0.06875193
192.16666666671173,0.17412144,-0.89475656,-0.1896346,-2.2409472,-0.044814344,1.4639069,0.78893924,0.04,0.04,-9.696145,1.0041420459747314,1.0372586,-0.020996645,-0.06533261388540268,0.06889019
192.1833333333784,0.1758167,-0.8958328,-0.1914831,-2.2398229,-0.045251913,1.4628639,0.78896785,0.04,0.04,-9.69367,1.0156207084655762,1.0465089,-0.020976348,-0.06510254740715027,0.06901941
192.2000000000451,0.1775106,-0.89690816,-0.1933301,-2.2386994,-0.045689132,1.4618214,0.78899646,0.04,0.04,-9.691254,1.0271273851394653,1.0557071,-0.020953102,-0.06486696749925613,0.0691393
192.21666666671177,0.17920294,-0.89798266,-0.19517538,-2.237577,-0.046125934,1.46078,0.789025,0.04,0.04,-9.688798,1.038648009300232,1.0648705,-0.020927772,-0.06462641805410385,0.069249965
192.23333333337845,0.18089345,-0.8990559,-0.19701868,-2.2364557,-0.046562277,1.4597398,0.78905356,0.04,0.04,-9.686323,1.0501827001571655,1.0740111,-0.020899331,-0.06437917798757553,0.06935047
192.25000000004513,0.18258196,-0.900128,-0.19885981,-2.2353356,-0.046998113,1.4587009,0.78908205,0.04,0.04,-9.683806,1.0617382526397705,1.083086,-0.02086898,-0.06412526220083237,0.0694429
192.2666666667118,0.1842683,-0.90119886,-0.20069854,-2.234217,-0.04743338,1.457663,0.78911054,0.04,0.04,-9.681289,1.0733033418655396,1.0921389,-0.02083623,-0.06386447697877884,0.069525726
192.2833333333785,0.18595223,-0.90226823,-0.20253466,-2.2331002,-0.047868017,1.456627,0.789139,0.04,0.04,-9.678723,1.0848891735076904,1.1011763,-0.020800903,-0.06359703093767166,0.06959891
192.30000000004517,0.18763359,-0.903336,-0.20436792,-2.231985,-0.04830198,1.4555923,0.78916734,0.04,0.04,-9.676215,1.0964796543121338,1.1101296,-0.02076345,-0.06332366168498993,0.06966238
192.31666666671185,0.1893121,-0.90440184,-0.20619811,-2.2308714,-0.048735205,1.4545594,0.7891957,0.04,0.04,-9.673663,1.1080693006515503,1.1190646,-0.020722901,-0.06304582953453064,0.069715574
192.33333333337853,0.19098762,-0.9054658,-0.20802496,-2.2297597,-0.049167663,1.4535285,0.789224,0.04,0.04,-9.671034,1.1196861267089844,1.1279429,-0.020680608,-0.06276027113199234,0.0697599
192.3500000000452,0.19265988,-0.90652764,-0.20984833,-2.2286503,-0.04959928,1.4524995,0.7892523,0.04,0.04,-9.668433,1.1312965154647827,1.1367834,-0.020635813,-0.06246775761246681,0.069793925
192.3666666667119,0.1943287,-0.9075875,-0.21166793,-2.2275438,-0.05003001,1.4514724,0.7892804,0.04,0.04,-9.665886,1.1429215669631958,1.1455777,-0.020588621,-0.062172625213861465,0.069818735
192.38333333337857,0.19599393,-0.9086451,-0.21348359,-2.226439,-0.050459806,1.4504479,0.78930855,0.04,0.04,-9.663296,1.1545442342758179,1.1543361,-0.020539032,-0.061873264610767365,0.06983381
192.40000000004525,0.19765534,-0.90970016,-0.21529503,-2.2253368,-0.050888587,1.4494256,0.7893366,0.04,0.04,-9.660603,1.1661673784255981,1.1630355,-0.020487309,-0.06156492233276367,0.069839425
192.41666666671193,0.19931273,-0.91075265,-0.21710205,-2.2242377,-0.05131636,1.4484055,0.7893646,0.04,0.04,-9.657986,1.177777647972107,1.1716753,-0.020433392,-0.06125252693891525,0.06983374
192.4333333333786,0.20096584,-0.91180253,-0.2189045,-2.2231402,-0.05174301,1.4473883,0.7893924,0.04,0.04,-9.655369,1.1893950700759888,1.1802832,-0.020376444,-0.0609377846121788,0.06981904
192.4500000000453,0.20261452,-0.9128496,-0.22070208,-2.2220464,-0.052168537,1.4463737,0.7894202,0.04,0.04,-9.652572,1.201022744178772,1.1888409,-0.020317825,-0.06061198189854622,0.069792695
192.46666666671197,0.20425855,-0.91389376,-0.22249462,-2.2209554,-0.052592862,1.4453621,0.7894478,0.04,0.04,-9.649989,1.2126338481903076,1.1973491,-0.020256972,-0.06028475984930992,0.06975833
192.48333333337865,0.20589775,-0.9149349,-0.22428185,-2.2198684,-0.05301594,1.4443535,0.7894754,0.04,0.04,-9.647285,1.2242379188537598,1.2057903,-0.020193389,-0.059951357543468475,0.06971334
192.50000000004533,0.20753197,-0.91597295,-0.22606353,-2.2187848,-0.053437706,1.4433478,0.7895029,0.04,0.04,-9.644668,1.2358335256576538,1.2141804,-0.020127933,-0.05961621552705765,0.06965817
192.516666666712,0.20916091,-0.91700757,-0.22783954,-2.217704,-0.053858113,1.4423459,0.78953034,0.04,0.04,-9.641986,1.2473926544189453,1.2225379,-0.020059891,-0.059277892112731934,0.069592185
192.5333333333787,0.21078442,-0.9180387,-0.22960965,-2.216627,-0.054277103,1.4413468,0.78955764,0.04,0.04,-9.63918,1.2589879035949707,1.2308029,-0.019990345,-0.0589299276471138,0.069517195
192.55000000004537,0.21240233,-0.9190663,-0.23137362,-2.2155535,-0.054694645,1.4403515,0.78958493,0.04,0.04,-9.636476,1.2705451250076294,1.2390492,-0.019918261,-0.05857924371957779,0.06943133
192.56666666671205,0.21401441,-0.9200903,-0.23313127,-2.2144842,-0.055110663,1.4393599,0.7896121,0.04,0.04,-9.6337595,1.282094120979309,1.2472157,-0.01984499,-0.05822410061955452,0.06933596
192.58333333337873,0.21562047,-0.92111063,-0.23488234,-2.2134187,-0.055525154,1.4383719,0.7896393,0.04,0.04,-9.631038,1.293601393699646,1.2553358,-0.019769264,-0.057865042239427567,0.069227755
192.6000000000454,0.21722038,-0.9221267,-0.23662667,-2.2123573,-0.05593805,1.4373877,0.7896665,0.04,0.04,-9.628298,1.3051198720932007,1.2634069,-0.019692084,-0.057501643896102905,0.069111176
192.6166666667121,0.21881388,-0.92313904,-0.238364,-2.2113001,-0.056349307,1.4364074,0.78969365,0.04,0.04,-9.625546,1.316607117652893,1.2713954,-0.019613316,-0.05713491141796112,0.06898429
192.63333333337877,0.22040081,-0.9241471,-0.24009417,-2.210247,-0.05675885,1.435431,0.78972065,0.04,0.04,-9.622764,1.3280781507492065,1.2793605,-0.019533228,-0.05676346644759178,0.06884776
192.65000000004545,0.221981,-0.92515105,-0.241817,-2.209199,-0.057166636,1.4344586,0.78974754,0.04,0.04,-9.620011,1.3395110368728638,1.2872382,-0.019451167,-0.0563887320458889,0.06870011
192.66666666671213,0.22355424,-0.92615074,-0.24353223,-2.2081554,-0.05757262,1.4334905,0.7897742,0.04,0.04,-9.617298,1.3509272336959839,1.2950704,-0.019366855,-0.05601281300187111,0.06854186
192.6833333333788,0.22512034,-0.9271458,-0.24523965,-2.2071164,-0.057976775,1.4325267,0.7898007,0.04,0.04,-9.614526,1.3623032569885254,1.3028381,-0.019279877,-0.05563291534781456,0.068371914
192.7000000000455,0.2266791,-0.9281361,-0.24693914,-2.206082,-0.058379028,1.4315675,0.7898269,0.04,0.04,-9.611719,1.3736763000488281,1.310534,-0.019191243,-0.05524900555610657,0.068193935
192.71666666671217,0.2282304,-0.9291217,-0.24863043,-2.205053,-0.058779363,1.430613,0.789853,0.04,0.04,-9.608963,1.3849921226501465,1.318157,-0.019100437,-0.05486220121383667,0.068002395
192.73333333337885,0.22977404,-0.93010247,-0.25031328,-2.2040288,-0.059177708,1.4296632,0.78987885,0.04,0.04,-9.606218,1.3962942361831665,1.3257083,-0.019007294,-0.05447264015674591,0.0678047
192.75000000004553,0.23130976,-0.9310783,-0.25198758,-2.20301,-0.059574008,1.4287182,0.7899046,0.04,0.04,-9.603403,1.4075453281402588,1.3332366,-0.018912114,-0.054079245775938034,0.06759503
192.7666666667122,0.23283748,-0.93204904,-0.25365317,-2.2019968,-0.059968244,1.4277784,0.78993016,0.04,0.04,-9.600657,1.4187626838684082,1.3406764,-0.018815188,-0.05368398502469063,0.06737444
192.7833333333789,0.23435701,-0.9330146,-0.25530982,-2.2009888,-0.060360383,1.4268434,0.78995556,0.04,0.04,-9.597897,1.42995023727417,1.3480386,-0.018716518,-0.05328591540455818,0.06714273
192.80000000004557,0.23586814,-0.9339749,-0.2569573,-2.1999862,-0.06075032,1.4259136,0.7899808,0.04,0.04,-9.595136,1.4411160945892334,1.3553472,-0.018616322,-0.05288602039217949,0.06690361
192.81666666671225,0.23737068,-0.9349298,-0.25859538,-2.1989892,-0.06113807,1.424989,0.7900061,0.04,0.04,-9.592308,1.452199935913086,1.3626198,-0.018514179,-0.052482109516859055,0.06665137
192.83333333337893,0.23886453,-0.9358791,-0.26022404,-2.1979983,-0.06152356,1.4240698,0.7900314,0.04,0.04,-9.589513,1.4632701873779297,1.3697853,-0.018411193,-0.05207541212439537,0.06639075
192.8500000000456,0.2403495,-0.9368228,-0.26184288,-2.197013,-0.06190677,1.4231561,0.7900566,0.04,0.04,-9.586814,1.474292278289795,1.3768884,-0.018307565,-0.051668424159288406,0.06611878
192.8666666667123,0.24182531,-0.93776083,-0.26345184,-2.1960337,-0.06228762,1.4222479,0.79008174,0.04,0.04,-9.583996,1.4852455854415894,1.3839358,-0.018202357,-0.0512574128806591,0.06583806
192.88333333337897,0.24329193,-0.938693,-0.2650507,-2.1950607,-0.06266609,1.4213456,0.7901068,0.04,0.04,-9.581247,1.496181845664978,1.3909291,-0.018096386,-0.0508461557328701,0.06554705
192.90000000004565,0.24474916,-0.93961906,-0.2666394,-2.1940937,-0.063042134,1.4204489,0.7901316,0.04,0.04,-9.578482,1.5070469379425049,1.397819,-0.017988995,-0.05043138191103935,0.06524552
192.91666666671233,0.24619682,-0.94053924,-0.26821774,-2.1931336,-0.0634157,1.4195582,0.7901562,0.04,0.04,-9.575714,1.5178710222244263,1.4046443,-0.017880261,-0.05001505836844444,0.06493458
192.933333333379,0.24763477,-0.9414533,-0.26978552,-2.19218,-0.06378675,1.4186734,0.7901804,0.04,0.04,-9.573038,1.5286535024642944,1.4114311,-0.01776985,-0.04959971830248833,0.064613335
192.9500000000457,0.24906282,-0.94236094,-0.27134225,-2.191233,-0.06415526,1.4177948,0.7902044,0.04,0.04,-9.570248,1.5393764972686768,1.4181165,-0.017657036,-0.04918159544467926,0.064282015
192.96666666671237,0.25048086,-0.9432623,-0.2728881,-2.1902924,-0.06452121,1.4169223,0.7902281,0.04,0.04,-9.567556,1.5499863624572754,1.4247348,-0.017542128,-0.04876343160867691,0.06394057
192.98333333337905,0.25188878,-0.94415736,-0.2744228,-2.189358,-0.06488451,1.4160563,0.7902517,0.04,0.04,-9.56482,1.56058669090271,1.431288,-0.017425388,-0.04834358021616936,0.06359022
193.00000000004573,0.25328624,-0.94504577,-0.2759463,-2.18843,-0.065245114,1.4151962,0.7902751,0.04,0.04,-9.561985,1.571141004562378,1.4377987,-0.017307088,-0.04791789874434471,0.063231304
193.0166666667124,0.25467327,-0.9459276,-0.27745843,-2.1875098,-0.065603025,1.4143428,0.7902985,0.04,0.04,-9.559226,1.581639289855957,1.4442312,-0.017188715,-0.04749146103858948,0.06286194
193.0333333333791,0.25604966,-0.9468026,-0.27895892,-2.186597,-0.0659582,1.413496,0.7903219,0.04,0.04,-9.556607,1.5920488834381104,1.4505672,-0.01706963,-0.047066424041986465,0.062482
193.05000000004577,0.2574153,-0.9476707,-0.28044766,-2.1856906,-0.066310555,1.4126558,0.79034513,0.04,0.04,-9.553977,1.6023850440979004,1.4568182,-0.01694974,-0.04664190486073494,0.062093846
193.06666666671245,0.25877,-0.9485319,-0.2819245,-2.1847916,-0.066660166,1.4118224,0.7903683,0.04,0.04,-9.551174,1.6126765012741089,1.4630299,-0.016829286,-0.04621390998363495,0.06169402
193.08333333337913,0.26011357,-0.9493862,-0.2833893,-2.1838996,-0.06700689,1.4109958,0.7903911,0.04,0.04,-9.548508,1.6229051351547241,1.4691637,-0.016707953,-0.04578472301363945,0.06128742
193.1000000000458,0.26144603,-0.9502334,-0.28484184,-2.183015,-0.0673507,1.4101762,0.79041356,0.04,0.04,-9.545816,1.633062720298767,1.4752262,-0.016585277,-0.04535380378365517,0.0608713
193.1166666667125,0.26276723,-0.9510733,-0.2862821,-2.1821384,-0.06769159,1.4093633,0.79043585,0.04,0.04,-9.543132,1.6431390047073364,1.4812349,-0.016460378,-0.04492226243019104,0.060446806
193.13333333337917,0.2640768,-0.95190597,-0.28770977,-2.1812694,-0.06802951,1.4085575,0.79045784,0.04,0.04,-9.540585,1.6531531810760498,1.4871303,-0.016334374,-0.04449465125799179,0.06001319
193.15000000004585,0.26537478,-0.9527313,-0.2891249,-2.180408,-0.068364434,1.407759,0.79047954,0.04,0.04,-9.537896,1.6630815267562866,1.4929849,-0.01620788,-0.04406417906284332,0.059568834
193.16666666671253,0.2666611,-0.9535493,-0.29052716,-2.1795545,-0.068696305,1.4069678,0.79050106,0.04,0.04,-9.535305,1.6729457378387451,1.4987494,-0.016079372,-0.04363391175866127,0.059116784
193.1833333333792,0.26793557,-0.95435977,-0.29191646,-2.1787086,-0.06902513,1.4061836,0.7905225,0.04,0.04,-9.532687,1.6827234029769897,1.5044589,-0.015949799,-0.04320289194583893,0.05865538
193.2000000000459,0.26919806,-0.95516247,-0.2932927,-2.1778708,-0.06935086,1.405407,0.7905439,0.04,0.04,-9.53008,1.6924324035644531,1.5100975,-0.015820172,-0.04277239367365837,0.05818638
193.21666666671257,0.2704484,-0.95595753,-0.2946557,-2.177041,-0.06967349,1.4046379,0.79056525,0.04,0.04,-9.527523,1.702048897743225,1.5156261,-0.015690135,-0.042342353612184525,0.057707697
193.23333333337925,0.27168655,-0.95674497,-0.29600543,-2.1762195,-0.06999294,1.4038764,0.7905865,0.04,0.04,-9.525002,1.7115910053253174,1.5210934,-0.015560015,-0.04191236570477486,0.05722227
193.25000000004593,0.2729123,-0.9575246,-0.29734167,-2.1754065,-0.07030922,1.4031225,0.7906073,0.04,0.04,-9.522408,1.7210735082626343,1.5265251,-0.015429427,-0.04148146137595177,0.056728378
193.2666666667126,0.27412567,-0.9582962,-0.29866442,-2.174602,-0.07062228,1.4023759,0.79062784,0.04,0.04,-9.519931,1.7304532527923584,1.5318626,-0.015297304,-0.041052669286727905,0.05622584
193.2833333333793,0.27532643,-0.9590599,-0.2999735,-2.173806,-0.07093211,1.4016372,0.790648,0.04,0.04,-9.517499,1.7397496700286865,1.5370971,-0.015164316,-0.04062885791063309,0.055715404
193.30000000004597,0.27651453,-0.95981556,-0.30126867,-2.173018,-0.07123868,1.4009063,0.79066783,0.04,0.04,-9.515005,1.7489619255065918,1.5422804,-0.0150298895,-0.04020428657531738,0.055197045
193.31666666671265,0.27768996,-0.9605631,-0.30255,-2.172238,-0.07154196,1.4001833,0.7906873,0.04,0.04,-9.512475,1.7580889463424683,1.5473963,-0.014894,-0.039778418838977814,0.05467134
193.33333333337933,0.2788524,-0.96130246,-0.30381724,-2.1714666,-0.071841896,1.3994681,0.7907068,0.04,0.04,-9.509977,1.767133116722107,1.5524445,-0.014757033,-0.039351917803287506,0.05413843
193.350000000046,0.28000194,-0.9620336,-0.3050703,-2.170704,-0.07213848,1.3987608,0.79072624,0.04,0.04,-9.507549,1.776074767112732,1.5574149,-0.0146210445,-0.03892671316862106,0.053598475
193.3666666667127,0.28113836,-0.9627566,-0.30630913,-2.1699502,-0.07243172,1.3980616,0.7907457,0.03999999,0.04,-9.505121,1.784920573234558,1.5623114,-0.014484295,-0.0385017916560173,0.0530506
193.38333333337937,0.28226167,-0.9634712,-0.30753365,-2.169206,-0.07272154,1.3973707,0.790765,0.03999999,0.04,-9.502789,1.7936975955963135,1.5671378,-0.014348419,-0.03808005154132843,0.052496485
193.40000000004605,0.28337157,-0.96417737,-0.30874366,-2.1684697,-0.07300794,1.3966877,0.7907839,0.039999995,0.04,-9.500472,1.8023512363433838,1.5718703,-0.014212115,-0.037660907953977585,0.05193398
193.41666666671273,0.28446826,-0.9648751,-0.30993903,-2.167742,-0.07329091,1.396013,0.7908023,0.03999999,0.04,-9.498085,1.8109395503997803,1.5765485,-0.014075367,-0.03724171221256256,0.05136617
193.4333333333794,0.28555158,-0.96556425,-0.31111985,-2.1670227,-0.07357038,1.3953466,0.7908204,0.039999988,0.04,-9.495671,1.8194102048873901,1.5811687,-0.01393601,-0.03682095184922218,0.05079285
193.4500000000461,0.28662133,-0.966245,-0.31228605,-2.1663125,-0.073846385,1.3946885,0.7908383,0.039999984,0.04,-9.493307,1.8278050422668457,1.585712,-0.013796304,-0.03639945387840271,0.050211422
193.46666666671277,0.2876775,-0.9669167,-0.3134373,-2.1656125,-0.07411888,1.3940386,0.79085606,0.039999977,0.04,-9.49103,1.8361040353775024,1.5901834,-0.013656669,-0.03597935289144516,0.049623355
193.48333333337945,0.28872007,-0.96758026,-0.31457373,-2.164921,-0.07438785,1.3933971,0.7908737,0.03999998,0.04,-9.488986,1.844251275062561,1.5945101,-0.013516555,-0.035569146275520325,0.049030222
193.50000000004613,0.289749,-0.96823496,-0.31569526,-2.1642385,-0.074653305,1.3927643,0.79089123,0.039999973,0.04,-9.486614,1.8523595333099365,1.5988938,-0.013376422,-0.0351547971367836,0.048430335
193.5166666667128,0.29076397,-0.9688806,-0.31680176,-2.1635647,-0.0749152,1.3921399,0.7909085,0.03999997,0.04,-9.484391,1.860347032546997,1.6031212,-0.0132367,-0.03474144637584686,0.0478242
193.5333333333795,0.29176515,-0.96951777,-0.31789315,-2.1629007,-0.07517351,1.391524,0.7909256,0.03999996,0.04,-9.482183,1.8682626485824585,1.6072731,-0.013097928,-0.03432932496070862,0.04721489
193.55000000004617,0.29275244,-0.97014594,-0.31896937,-2.162246,-0.075428225,1.3909168,0.7909423,0.039999958,0.04,-9.480069,1.8760223388671875,1.6113948,-0.012958189,-0.03391978517174721,0.046599176
193.56666666671285,0.29372576,-0.9707652,-0.32003036,-2.1616004,-0.07567934,1.3903182,0.7909586,0.039999954,0.04,-9.477953,1.8837021589279175,1.6154255,-0.012817531,-0.03351285681128502,0.04597717
193.58333333337953,0.29468504,-0.9713758,-0.32107607,-2.1609638,-0.07592686,1.389728,0.7909746,0.03999995,0.04,-9.475822,1.8912800550460815,1.619376,-0.012676063,-0.03310742974281311,0.045351047
193.6000000000462,0.2956302,-0.97197735,-0.32210645,-2.1603363,-0.07617074,1.3891464,0.7909905,0.03999995,0.04,-9.473725,1.8987467288970947,1.6233037,-0.0125343865,-0.032702911645174026,0.044719793
193.6166666667129,0.2965613,-0.97257006,-0.32312134,-2.159719,-0.07641097,1.3885738,0.7910061,0.039999947,0.04,-9.47159,1.906139612197876,1.6271312,-0.012393667,-0.03229789808392525,0.04408483
193.63333333337957,0.29747817,-0.9731537,-0.32412088,-2.1591105,-0.07664753,1.3880098,0.79102165,0.039999943,0.04,-9.469686,1.9133789539337158,1.6308758,-0.012251533,-0.03189927339553833,0.043445677
193.65000000004625,0.29838088,-0.9737283,-0.32510486,-2.158511,-0.07688044,1.3874545,0.7910371,0.03999994,0.04,-9.46761,1.920544147491455,1.6345593,-0.012111326,-0.03149934858083725,0.04280139
193.66666666671293,0.2992693,-0.97429377,-0.32607335,-2.1579213,-0.077109665,1.3869078,0.79105246,0.039999932,0.04,-9.4656105,1.9275721311569214,1.6381828,-0.011971319,-0.03110072948038578,0.04215491
193.6833333333796,0.3001435,-0.97485024,-0.32702628,-2.1573417,-0.07733523,1.3863701,0.79106724,0.03999993,0.04,-9.463686,1.9345121383666992,1.6417346,-0.01183263,-0.030705969780683517,0.041501887
193.7000000000463,0.3010034,-0.97539765,-0.3279636,-2.1567712,-0.07755709,1.3858413,0.79108155,0.03999993,0.04,-9.461853,1.9413267374038696,1.6452003,-0.011691617,-0.030315646901726723,0.040845428
193.71666666671297,0.30184892,-0.9759358,-0.32888532,-2.1562095,-0.077775255,1.3853209,0.79109555,0.03999993,0.04,-9.4599285,1.948049545288086,1.6486135,-0.01154963,-0.02992587722837925,0.040187698
193.73333333337965,0.30268008,-0.97646487,-0.32979146,-2.1556582,-0.07798971,1.3848094,0.79110944,0.039999917,0.04,-9.457981,1.954674482345581,1.651964,-0.011408654,-0.02953609824180603,0.039528277
193.75000000004633,0.30349684,-0.9769849,-0.33068192,-2.1551168,-0.07820048,1.3843067,0.7911232,0.03999992,0.04,-9.456308,1.9611507654190063,1.6552181,-0.011267999,-0.02915465459227562,0.038861994
193.766666666713,0.30429938,-0.97749585,-0.33155668,-2.1545844,-0.0784075,1.3838131,0.7911368,0.03999991,0.04,-9.454511,1.9675626754760742,1.6584343,-0.011128286,-0.028775140643119812,0.03819708
193.7833333333797,0.30508745,-0.9779976,-0.33241576,-2.154061,-0.07861084,1.3833286,0.79115033,0.03999991,0.04,-9.452668,1.9738081693649292,1.6615735,-0.010988154,-0.028394659981131554,0.03752678
193.80000000004637,0.30586106,-0.9784903,-0.33325914,-2.1535478,-0.07881046,1.3828527,0.7911638,0.039999906,0.04,-9.450918,1.9799587726593018,1.664633,-0.0108498875,-0.028014497831463814,0.03685466
193.81666666671305,0.30662027,-0.97897387,-0.33408678,-2.1530442,-0.07900637,1.3823856,0.7911766,0.039999902,0.04,-9.449226,1.9860261678695679,1.6676693,-0.010712892,-0.0276387557387352,0.036181238
193.83333333337973,0.30736524,-0.9794482,-0.3348987,-2.1525497,-0.07919856,1.3819274,0.7911889,0.0399999,0.04,-9.44761,1.9919519424438477,1.6706065,-0.010573938,-0.02726743370294571,0.03550629
193.8500000000464,0.30809572,-0.9799135,-0.33569518,-2.152065,-0.07938704,1.381478,0.79120094,0.03999989,0.04,-9.445906,1.9977538585662842,1.6734686,-0.010433806,-0.026896245777606964,0.034829915
193.8666666667131,0.3088118,-0.98036957,-0.33647576,-2.1515899,-0.0795718,1.3810375,0.7912129,0.03999989,0.04,-9.44435,2.0035011768341064,1.6763018,-0.0102948,-0.02653045952320099,0.034152396
193.88333333337977,0.30951354,-0.9808165,-0.33724076,-2.151124,-0.079752885,1.3806058,0.7912247,0.039999887,0.04,-9.44273,2.0090713500976562,1.6790414,-0.010156789,-0.026164809241890907,0.033473916
193.90000000004645,0.31020096,-0.98125434,-0.33799013,-2.1506674,-0.079930246,1.3801829,0.7912364,0.039999884,0.04,-9.441199,2.014561891555786,1.6817261,-0.010019752,-0.025803396478295326,0.032795396
193.91666666671313,0.31087404,-0.9816829,-0.33872396,-2.1502213,-0.08010393,1.3797688,0.791248,0.039999884,0.04,-9.439652,2.0199131965637207,1.6843498,-0.009883741,-0.025442887097597122,0.03211552
193.9333333333798,0.31153286,-0.98210245,-0.33944222,-2.1497846,-0.080273904,1.3793638,0.7912595,0.039999884,0.04,-9.438318,2.0251758098602295,1.6868672,-0.009749206,-0.025090845301747322,0.031436343
193.9500000000465,0.3121774,-0.982513,-0.34014484,-2.1493566,-0.0804402,1.3789673,0.7912704,0.039999884,0.04,-9.436836,2.0303092002868652,1.6893643,-0.00961582,-0.024739375337958336,0.030756464
193.96666666671317,0.3128078,-0.9829145,-0.34083205,-2.1489382,-0.08060284,1.3785794,0.7912806,0.039999876,0.04,-9.435353,2.0353281497955322,1.6918116,-0.009481101,-0.024389343336224556,0.030076882
193.98333333337985,0.31342405,-0.9833068,-0.3415038,-2.1485298,-0.08076183,1.3782002,0.7912908,0.039999872,0.04,-9.434014,2.0402324199676514,1.6941773,-0.009345161,-0.02404380589723587,0.02939836
194.00000000004653,0.31402615,-0.98369026,-0.3421602,-2.1481304,-0.080917165,1.3778297,0.79130083,0.03999987,0.04,-9.432709,2.0450279712677,1.6964611,-0.009210752,-0.02370333857834339,0.02872028
194.0166666667132,0.3146141,-0.98406494,-0.34280124,-2.14774,-0.081068866,1.3774679,0.7913107,0.039999872,0.04,-9.431404,2.0497164726257324,1.6987069,-0.009077273,-0.023366186767816544,0.02804384
194.0333333333799,0.31518802,-0.9844308,-0.34342697,-2.147359,-0.08121693,1.377115,0.79132044,0.03999987,0.04,-9.43002,2.054293632507324,1.7009301,-0.008945677,-0.02302779071033001,0.027367748
194.05000000004657,0.315748,-0.9847876,-0.34403747,-2.146988,-0.08136142,1.3767706,0.79133016,0.03999987,0.04,-9.428811,2.0587284564971924,1.7030423,-0.008814783,-0.022692201659083366,0.026693214
194.06666666671325,0.31629413,-0.9851355,-0.34463277,-2.146625,-0.08150231,1.3764347,0.79133976,0.03999986,0.04,-9.427711,2.0630691051483154,1.7050809,-0.008685611,-0.02236509509384632,0.026021702
194.08333333337993,0.31682652,-0.98547447,-0.34521303,-2.1462717,-0.081639655,1.3761073,0.79134893,0.039999865,0.04,-9.426383,2.0672972202301025,1.7071086,-0.008557776,-0.022035812959074974,0.025351664
194.1000000000466,0.31734502,-0.9858049,-0.34577826,-2.145927,-0.08177342,1.3757885,0.7913573,0.03999986,0.04,-9.425311,2.071389675140381,1.7090266,-0.008429677,-0.0217121634632349,0.024684852
194.1166666667133,0.3178499,-0.98612666,-0.34632862,-2.1455922,-0.081903666,1.3754779,0.79136556,0.039999858,0.04,-9.424111,2.0754151344299316,1.7109654,-0.008300466,-0.021388303488492966,0.02401979
194.13333333337997,0.31834117,-0.98643965,-0.34686413,-2.1452668,-0.082030386,1.3751758,0.79137367,0.039999858,0.04,-9.423172,2.0792946815490723,1.712783,-0.008172193,-0.02107354626059532,0.023358464
194.15000000004665,0.31881896,-0.9867442,-0.3473849,-2.14495,-0.082153596,1.3748821,0.79138166,0.039999858,0.04,-9.422165,2.0830671787261963,1.7145326,-0.008045389,-0.020763427019119263,0.022699857
194.16666666671333,0.31928322,-0.9870401,-0.34789106,-2.1446416,-0.082273394,1.3745966,0.7913896,0.039999846,0.04,-9.421119,2.086717128753662,1.7162656,-0.007919721,-0.020454052835702896,0.02204436
194.18333333338,0.31973425,-0.9873276,-0.34838268,-2.1443417,-0.08238973,1.3743192,0.79139733,0.039999846,0.04,-9.420082,2.090303897857666,1.7179337,-0.007796937,-0.02014731802046299,0.021394027
194.20000000004669,0.320172,-0.98760647,-0.34885997,-2.144051,-0.08250266,1.3740501,0.791405,0.039999846,0.04,-9.419119,2.0937340259552,1.7195613,-0.007674754,-0.019843123853206635,0.020746833
194.21666666671337,0.32059672,-0.98787725,-0.3493229,-2.1437697,-0.08261223,1.373789,0.7914127,0.039999846,0.04,-9.4182625,2.097076892852783,1.7210916,-0.0075551313,-0.019543936476111412,0.020103363
194.23333333338005,0.3210084,-0.9881396,-0.34977153,-2.1434968,-0.082718424,1.3735356,0.79141927,0.039999843,0.04,-9.417487,2.1002871990203857,1.7225872,-0.0074369307,-0.019251927733421326,0.019466672
194.25000000004673,0.3214072,-0.9883939,-0.35020652,-2.1432319,-0.08282128,1.3732904,0.7914256,0.039999843,0.04,-9.416583,2.103400707244873,1.7240359,-0.007315444,-0.01896217279136181,0.018834734
194.2666666667134,0.3217932,-0.98864,-0.35062733,-2.1429758,-0.08292086,1.3730531,0.7914319,0.039999843,0.04,-9.41574,2.1064653396606445,1.7254515,-0.0071966723,-0.01867433823645115,0.018205883
194.28333333338009,0.32216656,-0.9888779,-0.3510343,-2.1427276,-0.08301716,1.3728235,0.79143804,0.03999984,0.04,-9.415013,2.1093332767486572,1.726774,-0.0070790676,-0.018391702324151993,0.017584391
194.30000000004677,0.3225274,-0.98910797,-0.3514278,-2.142488,-0.08311025,1.3726015,0.7914441,0.039999835,0.04,-9.414268,2.112112522125244,1.7280451,-0.0069635347,-0.01811298355460167,0.016968522
194.31666666671345,0.32287595,-0.98933023,-0.35180774,-2.1422567,-0.083200134,1.3723873,0.79145014,0.039999835,0.04,-9.413569,2.1148414611816406,1.7293079,-0.0068502314,-0.017838742583990097,0.016358886
194.33333333338012,0.32321224,-0.9895447,-0.3521744,-2.1420333,-0.08328689,1.3721805,0.7914559,0.039999824,0.04,-9.41289,2.1174120903015137,1.7304945,-0.006738127,-0.017567161470651627,0.015754845
194.3500000000468,0.32353655,-0.9897514,-0.3525279,-2.1418178,-0.08337052,1.371981,0.7914617,0.039999828,0.04,-9.412242,2.1198949813842773,1.7316319,-0.006628121,-0.01729987934231758,0.01515728
194.36666666671348,0.32384893,-0.9899506,-0.3528684,-2.1416106,-0.08345109,1.371789,0.7914675,0.03999982,0.04,-9.411622,2.122302770614624,1.7327261,-0.006520061,-0.01703723520040512,0.014568609
194.38333333338016,0.32414952,-0.9901422,-0.35319605,-2.1414113,-0.08352865,1.3716041,0.7914723,0.039999813,0.04,-9.411119,2.1245713233947754,1.7337626,-0.0064145047,-0.016781076788902283,0.013984693
194.40000000004684,0.32443848,-0.99032646,-0.35351112,-2.1412196,-0.08360317,1.3714265,0.7914768,0.03999981,0.04,-9.41059,2.1267611980438232,1.7347426,-0.0063069416,-0.016529420390725136,0.013410748
194.41666666671352,0.3247161,-0.9905035,-0.35381377,-2.1410356,-0.08367476,1.3712559,0.7914812,0.03999981,0.04,-9.410067,2.1288461685180664,1.7356822,-0.0062003667,-0.016281291842460632,0.012843642
194.4333333333802,0.32498237,-0.99067354,-0.35410413,-2.140859,-0.08374347,1.3710921,0.7914854,0.039999805,0.04,-9.409602,2.130854845046997,1.7365848,-0.006096252,-0.016037985682487488,0.0122853825
194.45000000004688,0.32523763,-0.9908364,-0.35438243,-2.1406894,-0.08380929,1.3709351,0.79148954,0.03999981,0.04,-9.409108,2.132751703262329,1.7374693,-0.005993979,-0.015797970816493034,0.011735055
194.46666666671356,0.32548198,-0.9909922,-0.35464883,-2.1405272,-0.0838723,1.3707848,0.79149365,0.039999805,0.04,-9.408724,2.134561777114868,1.7382601,-0.005893498,-0.015563525259494781,0.011195559
194.48333333338024,0.3257156,-0.9911413,-0.3549036,-2.1403718,-0.083932556,1.370641,0.79149777,0.0399998,0.04,-9.408336,2.136242151260376,1.7390126,-0.005796067,-0.015334081836044788,0.01066292
194.50000000004692,0.32593876,-0.9912838,-0.35514694,-2.1402233,-0.08399011,1.3705039,0.7915017,0.039999805,0.04,-9.40794,2.1378839015960693,1.7397591,-0.005701396,-0.015107620507478714,0.01014005
194.5166666667136,0.3261516,-0.9914197,-0.3553791,-2.1400816,-0.084045015,1.3703731,0.7915056,0.039999805,0.04,-9.407609,2.139404773712158,1.740435,-0.0056083207,-0.01488509215414524,0.009627056
194.53333333338028,0.3263544,-0.991549,-0.35560024,-2.139947,-0.08409731,1.3702482,0.7915094,0.039999798,0.04,-9.407338,2.1408615112304688,1.74107,-0.0055179424,-0.014668093994259834,0.009125442
194.55000000004696,0.32654735,-0.99167216,-0.3558106,-2.1398194,-0.08414707,1.3701297,0.7915132,0.0399998,0.04,-9.407117,2.142186403274536,1.7416601,-0.005430126,-0.014459268189966679,0.0086332075
194.56666666671364,0.32673073,-0.9917892,-0.35601047,-2.1396983,-0.08419435,1.3700169,0.79151577,0.039999794,0.04,-9.406926,2.143460750579834,1.7422031,-0.0053446805,-0.014255804009735584,0.008152321
194.58333333338032,0.32690457,-0.9919002,-0.35620004,-2.1395833,-0.084239185,1.36991,0.7915183,0.039999798,0.04,-9.406728,2.1446378231048584,1.7427297,-0.005255792,-0.014058610424399376,0.007681668
194.600000000047,0.3270692,-0.9920053,-0.35637963,-2.1394734,-0.084281646,1.3698088,0.7915208,0.039999794,0.04,-9.406556,2.145733594894409,1.7431921,-0.0051701823,-0.013866421766579151,0.0072233197
194.61666666671368,0.3272249,-0.9921047,-0.3565494,-2.1393697,-0.08432182,1.3697131,0.79152304,0.03999979,0.04,-9.406275,2.1467783451080322,1.7436488,-0.0050879614,-0.013674918562173843,0.006775753
194.63333333338036,0.32737193,-0.9921986,-0.35670972,-2.1392725,-0.084359705,1.3696228,0.79152524,0.039999787,0.04,-9.406192,2.147709608078003,1.7440615,-0.0050068754,-0.013490607030689716,0.0063410983
194.65000000004704,0.32751054,-0.9922871,-0.35686082,-2.1391811,-0.08439544,1.3695375,0.79152745,0.039999787,0.04,-9.406154,2.148571014404297,1.7444183,-0.004928576,-0.013313224539160728,0.0059185275
194.66666666671372,0.32764092,-0.9923705,-0.3570029,-2.1390944,-0.08442907,1.3694572,0.79152966,0.03999979,0.04,-9.406138,2.1493468284606934,1.744742,-0.004852968,-0.013144689612090588,0.0055080946
194.6833333333804,0.3277634,-0.9924487,-0.35713637,-2.139013,-0.08446062,1.3693821,0.79153186,0.039999783,0.04,-9.405977,2.150084972381592,1.7450653,-0.004780451,-0.012976842932403088,0.005111183
194.70000000004708,0.32787815,-0.99252194,-0.35726154,-2.1389372,-0.084490195,1.3693117,0.791534,0.03999978,0.04,-9.405981,2.1507277488708496,1.7453157,-0.004710997,-0.012815749272704124,0.004726905
194.71666666671376,0.3279855,-0.9925905,-0.35737854,-2.138866,-0.08451787,1.3692455,0.79153603,0.03999978,0.04,-9.4060335,2.1513171195983887,1.7455403,-0.004644498,-0.012662152759730816,0.0043569286
194.73333333338044,0.32808584,-0.99265456,-0.35748792,-2.1387994,-0.08454369,1.3691838,0.79153794,0.039999783,0.04,-9.40602,2.151822090148926,1.7457612,-0.004580673,-0.012514134868979454,0.0040010223
194.75000000004712,0.3281792,-0.99271417,-0.35758975,-2.138738,-0.08456775,1.3691263,0.79153985,0.039999776,0.04,-9.406093,2.1522836685180664,1.7459292,-0.004519211,-0.012373236007988453,0.003658778
194.7666666667138,0.3282661,-0.9927696,-0.35768437,-2.13868,-0.084590115,1.3690729,0.79154176,0.03999978,0.04,-9.406225,2.152665376663208,1.7460461,-0.0044612777,-0.012240220792591572,0.0033317748
194.78333333338048,0.32834682,-0.9928211,-0.35777223,-2.1386268,-0.08461088,1.3690233,0.7915436,0.03999978,0.04,-9.406214,2.1529829502105713,1.7461799,-0.0044059292,-0.012109378352761269,0.0030190751
194.80000000004716,0.32842153,-0.9928688,-0.35785365,-2.1385767,-0.08463013,1.3689775,0.79154545,0.039999772,0.04,-9.406409,2.1532511711120605,1.7462549,-0.0043537286,-0.011987810023128986,0.0027220233
194.81666666671384,0.3284907,-0.9929128,-0.35792902,-2.138531,-0.08464793,1.3689355,0.7915461,0.039999772,0.04,-9.406451,2.1534903049468994,1.7463279,-0.004304961,-0.011868868954479694,0.002440626
194.83333333338052,0.3285545,-0.99295366,-0.35799867,-2.1384883,-0.08466437,1.3688967,0.7915467,0.039999772,0.04,-9.406665,2.153648614883423,1.7463503,-0.0042542564,-0.011758076958358288,0.0021741944
194.8500000000472,0.3286133,-0.9929913,-0.35806274,-2.13845,-0.08467951,1.3688605,0.7915473,0.03999978,0.04,-9.406763,2.1537890434265137,1.746396,-0.0042069927,-0.01165012363344431,0.0019242349
194.86666666671388,0.3286675,-0.9930259,-0.35812187,-2.1384134,-0.084693424,1.3688265,0.79154783,0.03999978,0.04,-9.407123,2.153825283050537,1.7463869,-0.004162228,-0.011557795107364655,0.0016913012
194.88333333338056,0.32871738,-0.9930579,-0.35817623,-2.1383808,-0.08470625,1.3687962,0.7915483,0.039999776,0.04,-9.407194,2.1538803577423096,1.7463821,-0.004121756,-0.0114691611379385,0.0014747644
194.90000000004724,0.32876322,-0.9930872,-0.35822612,-2.1383505,-0.08471806,1.3687685,0.7915487,0.039999776,0.04,-9.407502,2.153843402862549,1.7463106,-0.0040833834,-0.011386766098439693,0.0012745954
194.91666666671392,0.32880548,-0.9931141,-0.3582721,-2.138322,-0.08472893,1.3687421,0.7915491,0.039999776,0.04,-9.407694,2.153820276260376,1.7462541,-0.00404815,-0.011310103349387646,0.0010924982
194.9333333333806,0.32884443,-0.9931388,-0.35831442,-2.1382966,-0.0847389,1.368719,0.7915494,0.039999772,0.04,-9.407845,2.153808832168579,1.7462493,-0.004015643,-0.011240990832448006,0.00092385605
194.95000000004728,0.32888025,-0.99316156,-0.35835332,-2.1382737,-0.08474811,1.3686965,0.7915497,0.039999772,0.04,-9.408084,2.1537771224975586,1.7461592,-0.0039851195,-0.011175732128322124,0.00076797116
194.96666666671396,0.32891318,-0.9931825,-0.35838908,-2.1382513,-0.08475658,1.368677,0.79155,0.03999977,0.04,-9.408342,2.1537585258483887,1.7461458,-0.003956932,-0.011123500764369965,0.00062548305
194.98333333338064,0.3289436,-0.9932017,-0.358422,-2.1382306,-0.08476437,1.3686583,0.7915503,0.03999977,0.04,-9.408291,2.1537563800811768,1.746109,-0.0039316257,-0.011063645593822002,0.0004943552
195.00000000004732,0.32897148,-0.99321944,-0.35845232,-2.138212,-0.08477154,1.3686405,0.7915506,0.039999772,0.04,-9.408446,2.1537461280822754,1.746102,-0.0039080894,-0.011012180708348751,0.0003735472
195.016666666714,0.3289972,-0.993236,-0.35848024,-2.1381962,-0.08477813,1.3686255,0.7915509,0.03999977,0.04,-9.408646,2.153737783432007,1.7460959,-0.0038868547,-0.01096886582672596,0.00026230182
195.03333333338068,0.32902086,-0.99325114,-0.35850593,-2.138181,-0.08478421,1.3686106,0.7915512,0.039999776,0.04,-9.408887,2.153714179992676,1.7460234,-0.0038665412,-0.010928540490567684,0.00015977921
195.05000000004736,0.32904264,-0.9932649,-0.3585296,-2.138166,-0.08478978,1.3685962,0.7915515,0.03999977,0.04,-9.408927,2.1537158489227295,1.746029,-0.00384837,-0.010893242433667183,6.542132e-05
195.06666666671404,0.32906264,-0.99327785,-0.35855135,-2.138152,-0.08479494,1.368585,0.79155177,0.039999764,0.04,-9.40893,2.1537115573883057,1.7460155,-0.0038322064,-0.010860297828912735,-2.1422311e-05
195.08333333338072,0.32908112,-0.9932894,-0.35857135,-2.1381395,-0.084799655,1.3685739,0.79155207,0.039999764,0.04,-9.408921,2.153714895248413,1.7459843,-0.0038175357,-0.010818027891218662,-0.00010152249
195.1000000000474,0.32909808,-0.9933004,-0.35858974,-2.138128,-0.08480398,1.3685629,0.79155236,0.039999764,0.04,-9.409131,2.1536784172058105,1.7459542,-0.0038037698,-0.010786852799355984,-0.00017550378
195.11666666671408,0.32911372,-0.99331015,-0.3586067,-2.1381185,-0.08480799,1.3685522,0.79155266,0.039999764,0.04,-9.4092,2.1536896228790283,1.7459882,-0.0037910957,-0.010760027915239334,-0.00024264815
195.13333333338076,0.32912812,-0.9933194,-0.35862228,-2.1381104,-0.084811695,1.3685447,0.79155296,0.03999977,0.04,-9.409439,2.1536624431610107,1.7459273,-0.003779372,-0.010744289495050907,-0.00030522037
195.15000000004744,0.32914135,-0.99332786,-0.35863665,-2.1381028,-0.084815055,1.3685374,0.79155326,0.03999977,0.04,-9.409499,2.1536600589752197,1.7458568,-0.0037682408,-0.010720890015363693,-0.00036177618
195.16666666671412,0.3291535,-0.9933355,-0.3586499,-2.1380951,-0.08481818,1.3685302,0.79155356,0.03999977,0.04,-9.40954,2.1536502838134766,1.7458556,-0.0037582677,-0.0107004689052701,-0.00041530802
195.1833333333808,0.32916468,-0.99334276,-0.35866207,-2.1380877,-0.08482105,1.3685229,0.79155385,0.03999977,0.04,-9.409543,2.1536648273468018,1.7458599,-0.003749807,-0.010682306252419949,-0.00046378057
195.20000000004748,0.32917503,-0.99334943,-0.35867327,-2.1380804,-0.084823705,1.3685158,0.79155415,0.039999772,0.04,-9.409535,2.1536638736724854,1.7458872,-0.003742016,-0.010665345937013626,-0.0005084997
195.21666666671416,0.32918453,-0.99335533,-0.35868356,-2.1380732,-0.08482612,1.3685089,0.79155445,0.039999772,0.04,-9.409517,2.1536660194396973,1.7458935,-0.0037349784,-0.010648669674992561,-0.0005498833
195.23333333338084,0.32919323,-0.99336094,-0.35869306,-2.1380663,-0.084828325,1.3685045,0.79155475,0.039999772,0.04,-9.409556,2.1536567211151123,1.7458719,-0.0037288724,-0.01063484512269497,-0.00058763573
195.25000000004752,0.3292013,-0.9933661,-0.3587018,-2.13806,-0.08483038,1.3685008,0.79155505,0.039999764,0.04,-9.409495,2.153667688369751,1.7458444,-0.0037237012,-0.010610862635076046,-0.00062284153
195.2666666667142,0.32920876,-0.99337095,-0.35870975,-2.138055,-0.08483229,1.3684973,0.79155535,0.03999977,0.04,-9.409547,2.1536567211151123,1.7458508,-0.0037186272,-0.010587701573967934,-0.00065514847
195.28333333338088,0.32921553,-0.9933751,-0.35871714,-2.1380503,-0.08483401,1.3684938,0.79155564,0.039999764,0.04,-9.40968,2.1536407470703125,1.7458547,-0.0037134197,-0.01057021226733923,-0.00068458065
195.30000000004756,0.32922184,-0.993379,-0.35872397,-2.1380458,-0.08483564,1.3684903,0.79155594,0.03999977,0.04,-9.168059,2.08191180229187,1.8474895,0.0,-0.0,0.0
195.31666666671424,0.32922184,-0.993379,-0.35872397,-2.1380458,-0.08483564,1.3684903,0.79155594,0.03999977,0.04,-9.410309,2.152998208999634,1.7455091,0.0,-0.0,0.0
195.33333333338092,0.32922184,-0.993379,-0.35872397,-2.1380458,-0.08483564,1.3684903,0.79155594,0.03999977,0.04,-9.410309,2.152998208999634,1.7455091,0.0,-0.0,0.0
195.3500000000476,0.32922184,-0.993379,-0.35872397,-2.1380458,-0.08483564,1.3684903,0.79155594,0.03999977,0.04,-9.410309,2.152998208999634,1.7455091,0.0,-0.0,0.0
195.36666666671428,0.32922184,-0.993379,-0.35872397,-2.1380458,-0.08483564,1.3684903,0.79155594,0.03999977,0.04,-9.410309,2.152998208999634,1.7455091,0.0,-0.0,0.0
195.38333333338096,0.32922184,-0.993379,-0.35872397,-2.1380458,-0.08483564,1.3684903,0.79155594,0.03999977,0.04,-9.410309,2.152998208999634,1.7455091,0.0,-0.0,0.0
195.40000000004764,0.32922184,-0.993379,-0.35872397,-2.1380458,-0.08483564,1.3684903,0.79155594,0.03999977,0.04,-9.410309,2.152998208999634,1.7455091,0.0,-0.0,0.0
195.41666666671432,0.32922184,-0.993379,-0.35872397,-2.1380458,-0.08483564,1.3684903,0.79155594,0.03999977,0.04,-9.410309,2.152998208999634,1.7455091,0.0,-0.0,0.0
195.433333333381,0.32922184,-0.993379,-0.35872397,-2.1380458,-0.08483564,1.3684903,0.79155594,0.03999977,0.04,-9.410309,2.152998208999634,1.7455091,0.0,-0.0,0.0
195.45000000004768,0.32922184,-0.993379,-0.35872397,-2.1380458,-0.08483564,1.3684903,0.79155594,0.03999977,0.04,-9.410309,2.152998208999634,1.7455091,0.0,-0.0,0.0
195.46666666671436,0.32922184,-0.993379,-0.35872397,-2.1380458,-0.08483564,1.3684903,0.79155594,0.03999977,0.04,-9.410309,2.152998208999634,1.7455091,0.0,-0.0,0.0
195.48333333338104,0.32922184,-0.993379,-0.35872397,-2.1380458,-0.08483564,1.3684903,0.79155594,0.03999977,0.04,-9.410309,2.152998208999634,1.7455091,0.0,-0.0,0.0
195.50000000004772,0.32922184,-0.993379,-0.35872397,-2.1380458,-0.08483564,1.3684903,0.79155594,0.03999977,0.04,-9.410309,2.152998208999634,1.7455091,0.0,-0.0,0.0
195.5166666667144,0.32922184,-0.993379,-0.35872397,-2.1380458,-0.08483564,1.3684903,0.79155594,0.03999977,0.04,-9.410309,2.152998208999634,1.7455091,0.0,-0.0,0.0
195.53333333338108,0.32922184,-0.993379,-0.35872397,-2.1380458,-0.08483564,1.3684903,0.79155594,0.03999977,0.04,-9.410309,2.152998208999634,1.7455091,0.0,-0.0,0.0
195.55000000004776,0.32922184,-0.993379,-0.35872397,-2.1380458,-0.08483564,1.3684903,0.79155594,0.03999977,0.04,-9.410309,2.152998208999634,1.7455091,0.0,-0.0,0.0
195.56666666671444,0.32922184,-0.993379,-0.35872397,-2.1380458,-0.08483564,1.3684903,0.79155594,0.03999977,0.04,-9.410309,2.152998208999634,1.7455091,0.0,-0.0,0.0
195.58333333338112,0.32922184,-0.993379,-0.35872397,-2.1380458,-0.08483564,1.3684903,0.79155594,0.03999977,0.04,-9.410309,2.152998208999634,1.7455091,0.0,-0.0,0.0
195.6000000000478,0.32922184,-0.993379,-0.35872397,-2.1380458,-0.08483564,1.3684903,0.79155594,0.03999977,0.04,-9.410309,2.152998208999634,1.7455091,0.0,-0.0,0.0
195.61666666671448,0.32922184,-0.993379,-0.35872397,-2.1380458,-0.08483564,1.3684903,0.79155594,0.03999977,0.04,-9.410309,2.152998208999634,1.7455091,0.0,-0.0,0.0
195.63333333338116,0.32922184,-0.993379,-0.35872397,-2.1380458,-0.08483564,1.3684903,0.79155594,0.03999977,0.04,-9.410309,2.152998208999634,1.7455091,0.0,-0.0,0.0
195.65000000004784,0.32922184,-0.993379,-0.35872397,-2.1380458,-0.08483564,1.3684903,0.79155594,0.03999977,0.04,-9.410309,2.152998208999634,1.7455091,0.0,-0.0,0.0
195.66666666671452,0.32922184,-0.993379,-0.35872397,-2.1380458,-0.08483564,1.3684903,0.79155594,0.03999977,0.04,-9.410309,2.152998208999634,1.7455091,0.0,-0.0,0.0
195.6833333333812,0.32922184,-0.993379,-0.35872397,-2.1380458,-0.08483564,1.3684903,0.79155594,0.03999977,0.04,-9.410309,2.152998208999634,1.7455091,0.0,-0.0,0.0
195.70000000004788,0.32922184,-0.993379,-0.35872397,-2.1380458,-0.08483564,1.3684903,0.79155594,0.03999977,0.04,-9.410309,2.152998208999634,1.7455091,0.0,-0.0,0.0
195.71666666671456,0.32922184,-0.993379,-0.35872397,-2.1380458,-0.08483564,1.3684903,0.79155594,0.03999977,0.04,-9.410309,2.152998208999634,1.7455091,0.0,-0.0,0.0
195.73333333338124,0.32922184,-0.993379,-0.35872397,-2.1380458,-0.08483564,1.3684903,0.79155594,0.03999977,0.04,-9.410309,2.152998208999634,1.7455091,0.0,-0.0,0.0
195.75000000004792,0.32922184,-0.993379,-0.35872397,-2.1380458,-0.08483564,1.3684903,0.79155594,0.03999977,0.04,-9.410309,2.152998208999634,1.7455091,0.0,-0.0,0.0
195.7666666667146,0.32922184,-0.993379,-0.35872397,-2.1380458,-0.08483564,1.3684903,0.79155594,0.03999977,0.04,-9.410309,2.152998208999634,1.7455091,0.0,-0.0,0.0
195.78333333338128,0.32922184,-0.993379,-0.35872397,-2.1380458,-0.08483564,1.3684903,0.79155594,0.03999977,0.04,-9.410309,2.152998208999634,1.7455091,0.0,-0.0,0.0
195.80000000004796,0.32922184,-0.993379,-0.35872397,-2.1380458,-0.08483564,1.3684903,0.79155594,0.03999977,0.04,-9.410309,2.152998208999634,1.7455091,0.0,-0.0,0.0
195.81666666671464,0.32922184,-0.993379,-0.35872397,-2.1380458,-0.08483564,1.3684903,0.79155594,0.03999977,0.04,-9.410309,2.152998208999634,1.7455091,0.0,-0.0,0.0
195.83333333338132,0.32922184,-0.993379,-0.35872397,-2.1380458,-0.08483564,1.3684903,0.79155594,0.03999977,0.04,-9.410309,2.152998208999634,1.7455091,0.0,-0.0,0.0
195.850000000048,0.32922184,-0.993379,-0.35872397,-2.1380458,-0.08483564,1.3684903,0.79155594,0.03999977,0.04,-9.410309,2.152998208999634,1.7455091,0.0,-0.0,0.0
195.86666666671468,0.32922184,-0.993379,-0.35872397,-2.1380458,-0.08483564,1.3684903,0.79155594,0.03999977,0.04,-9.410309,2.152998208999634,1.7455091,0.0,-0.0,0.0
195.88333333338136,0.32922184,-0.993379,-0.35872397,-2.1380458,-0.08483564,1.3684903,0.79155594,0.03999977,0.04,-9.410309,2.152998208999634,1.7455091,0.0,-0.0,0.0
195.90000000004804,0.32922184,-0.993379,-0.35872397,-2.1380458,-0.08483564,1.3684903,0.79155594,0.03999977,0.04,-9.410309,2.152998208999634,1.7455091,0.0,-0.0,0.0
195.91666666671472,0.32922184,-0.993379,-0.35872397,-2.1380458,-0.08483564,1.3684903,0.79155594,0.03999977,0.04,-9.410309,2.152998208999634,1.7455091,0.0,-0.0,0.0
195.9333333333814,0.32922184,-0.993379,-0.35872397,-2.1380458,-0.08483564,1.3684903,0.79155594,0.03999977,0.04,-9.410309,2.152998208999634,1.7455091,0.0,-0.0,0.0
195.95000000004808,0.32922184,-0.993379,-0.35872397,-2.1380458,-0.08483564,1.3684903,0.79155594,0.03999977,0.04,-9.410309,2.152998208999634,1.7455091,0.0,-0.0,0.0
195.96666666671476,0.32922184,-0.993379,-0.35872397,-2.1380458,-0.08483564,1.3684903,0.79155594,0.03999977,0.04,-9.410309,2.152998208999634,1.7455091,0.0,-0.0,0.0
195.98333333338144,0.32922184,-0.993379,-0.35872397,-2.1380458,-0.08483564,1.3684903,0.79155594,0.03999977,0.04,-9.410309,2.152998208999634,1.7455091,0.0,-0.0,0.0
196.00000000004812,0.32922184,-0.993379,-0.35872397,-2.1380458,-0.08483564,1.3684903,0.79155594,0.03999977,0.04,-9.410309,2.152998208999634,1.7455091,0.0,-0.0,0.0
196.0166666667148,0.32922184,-0.993379,-0.35872397,-2.1380458,-0.08483564,1.3684903,0.79155594,0.03999977,0.04,-9.410309,2.152998208999634,1.7455091,0.0,-0.0,0.0
196.03333333338148,0.32922184,-0.993379,-0.35872397,-2.1380458,-0.08483564,1.3684903,0.79155594,0.03999977,0.04,-9.410309,2.152998208999634,1.7455091,0.0,-0.0,0.0
196.05000000004816,0.32922184,-0.993379,-0.35872397,-2.1380458,-0.08483564,1.3684903,0.79155594,0.03999977,0.04,-9.410309,2.152998208999634,1.7455091,0.0,-0.0,0.0
196.06666666671484,0.32922184,-0.993379,-0.35872397,-2.1380458,-0.08483564,1.3684903,0.79155594,0.03999977,0.04,-9.410309,2.152998208999634,1.7455091,0.0,-0.0,0.0
196.08333333338152,0.32922184,-0.993379,-0.35872397,-2.1380458,-0.08483564,1.3684903,0.79155594,0.03999977,0.04,-9.410309,2.152998208999634,1.7455091,0.0,-0.0,0.0
196.1000000000482,0.32922184,-0.993379,-0.35872397,-2.1380458,-0.08483564,1.3684903,0.79155594,0.03999977,0.04,-9.410309,2.152998208999634,1.7455091,0.0,-0.0,0.0
196.11666666671488,0.32922184,-0.993379,-0.35872397,-2.1380458,-0.08483564,1.3684903,0.79155594,0.03999977,0.04,-9.410309,2.152998208999634,1.7455091,0.0,-0.0,0.0
196.13333333338156,0.32922184,-0.993379,-0.35872397,-2.1380458,-0.08483564,1.3684903,0.79155594,0.03999977,0.04,-9.410309,2.152998208999634,1.7455091,0.0,-0.0,0.0
196.15000000004824,0.32922184,-0.993379,-0.35872397,-2.1380458,-0.08483564,1.3684903,0.79155594,0.03999977,0.04,-9.410309,2.152998208999634,1.7455091,0.0,-0.0,0.0
196.16666666671492,0.32922184,-0.993379,-0.35872397,-2.1380458,-0.08483564,1.3684903,0.79155594,0.03999977,0.04,-9.410309,2.152998208999634,1.7455091,0.0,-0.0,0.0
196.1833333333816,0.32922184,-0.993379,-0.35872397,-2.1380458,-0.08483564,1.3684903,0.79155594,0.03999977,0.04,-9.410309,2.152998208999634,1.7455091,0.0,-0.0,0.0
196.20000000004828,0.32922184,-0.993379,-0.35872397,-2.1380458,-0.08483564,1.3684903,0.79155594,0.03999977,0.04,-9.410309,2.152998208999634,1.7455091,0.0,-0.0,0.0
196.21666666671496,0.32922184,-0.993379,-0.35872397,-2.1380458,-0.08483564,1.3684903,0.79155594,0.03999977,0.04,-9.410309,2.152998208999634,1.7455091,0.0,-0.0,0.0
196.23333333338164,0.32922184,-0.993379,-0.35872397,-2.1380458,-0.08483564,1.3684903,0.79155594,0.03999977,0.04,-9.410309,2.152998208999634,1.7455091,0.0,-0.0,0.0
196.25000000004832,0.32922184,-0.993379,-0.35872397,-2.1380458,-0.08483564,1.3684903,0.79155594,0.03999977,0.04,-9.410309,2.152998208999634,1.7455091,0.0,-0.0,0.0
196.266666666715,0.32922184,-0.993379,-0.35872397,-2.1380458,-0.08483564,1.3684903,0.79155594,0.03999977,0.04,-9.410309,2.152998208999634,1.7455091,0.0,-0.0,0.0
196.28333333338168,0.32922184,-0.993379,-0.35872397,-2.1380458,-0.08483564,1.3684903,0.79155594,0.03999977,0.04,-9.410309,2.152998208999634,1.7455091,0.0,-0.0,0.0
196.30000000004836,0.32922184,-0.993379,-0.35872397,-2.1380458,-0.08483564,1.3684903,0.79155594,0.03999977,0.04,-9.410309,2.152998208999634,1.7455091,0.0,-0.0,0.0
196.31666666671504,0.32922184,-0.993379,-0.35872397,-2.1380458,-0.08483564,1.3684903,0.79155594,0.03999977,0.04,-9.410309,2.152998208999634,1.7455091,0.0,-0.0,0.0
196.33333333338172,0.32922184,-0.993379,-0.35872397,-2.1380458,-0.08483564,1.3684903,0.79155594,0.03999977,0.04,-9.410309,2.152998208999634,1.7455091,0.0,-0.0,0.0
196.3500000000484,0.32922184,-0.993379,-0.35872397,-2.1380458,-0.08483564,1.3684903,0.79155594,0.03999977,0.04,-9.410309,2.152998208999634,1.7455091,0.0,-0.0,0.0
196.36666666671508,0.32922184,-0.993379,-0.35872397,-2.1380458,-0.08483564,1.3684903,0.79155594,0.03999977,0.04,-9.410309,2.152998208999634,1.7455091,0.0,-0.0,0.0
196.38333333338176,0.32922184,-0.993379,-0.35872397,-2.1380458,-0.08483564,1.3684903,0.79155594,0.03999977,0.04,-9.410309,2.152998208999634,1.7455091,0.0,-0.0,0.0
196.40000000004844,0.32922184,-0.993379,-0.35872397,-2.1380458,-0.08483564,1.3684903,0.79155594,0.03999977,0.04,-9.410309,2.152998208999634,1.7455091,0.0,-0.0,0.0
196.41666666671512,0.32922184,-0.993379,-0.35872397,-2.1380458,-0.08483564,1.3684903,0.79155594,0.03999977,0.04,-9.410309,2.152998208999634,1.7455091,0.0,-0.0,0.0
196.4333333333818,0.32922184,-0.993379,-0.35872397,-2.1380458,-0.08483564,1.3684903,0.79155594,0.03999977,0.04,-9.410309,2.152998208999634,1.7455091,0.0,-0.0,0.0
196.45000000004848,0.32922184,-0.993379,-0.35872397,-2.1380458,-0.08483564,1.3684903,0.79155594,0.03999977,0.04,-9.410309,2.152998208999634,1.7455091,0.0,-0.0,0.0
196.46666666671516,0.32922184,-0.993379,-0.35872397,-2.1380458,-0.08483564,1.3684903,0.79155594,0.03999977,0.04,-9.410309,2.152998208999634,1.7455091,0.0,-0.0,0.0
196.48333333338184,0.32922184,-0.993379,-0.35872397,-2.1380458,-0.08483564,1.3684903,0.79155594,0.03999977,0.04,-9.410309,2.152998208999634,1.7455091,0.0,-0.0,0.0
196.50000000004852,0.32922184,-0.993379,-0.35872397,-2.1380458,-0.08483564,1.3684903,0.79155594,0.03999977,0.04,-9.410309,2.152998208999634,1.7455091,0.0,-0.0,0.0
196.5166666667152,0.32922184,-0.993379,-0.35872397,-2.1380458,-0.08483564,1.3684903,0.79155594,0.03999977,0.04,-9.410309,2.152998208999634,1.7455091,0.0,-0.0,0.0
196.53333333338188,0.32922184,-0.993379,-0.35872397,-2.1380458,-0.08483564,1.3684903,0.79155594,0.03999977,0.04,-9.410309,2.152998208999634,1.7455091,0.0,-0.0,0.0
196.55000000004856,0.32922184,-0.993379,-0.35872397,-2.1380458,-0.08483564,1.3684903,0.79155594,0.03999977,0.04,-9.410309,2.152998208999634,1.7455091,0.0,-0.0,0.0
196.56666666671524,0.32922184,-0.993379,-0.35872397,-2.1380458,-0.08483564,1.3684903,0.79155594,0.03999977,0.04,-9.410309,2.152998208999634,1.7455091,0.0,-0.0,0.0
196.58333333338192,0.32922184,-0.993379,-0.35872397,-2.1380458,-0.08483564,1.3684903,0.79155594,0.03999977,0.04,-9.410309,2.152998208999634,1.7455091,0.0,-0.0,0.0
196.6000000000486,0.32922184,-0.993379,-0.35872397,-2.1380458,-0.08483564,1.3684903,0.79155594,0.03999977,0.04,-9.410309,2.152998208999634,1.7455091,0.0,-0.0,0.0
196.61666666671528,0.32922184,-0.993379,-0.35872397,-2.1380458,-0.08483564,1.3684903,0.79155594,0.03999977,0.04,-9.410309,2.152998208999634,1.7455091,0.0,-0.0,0.0
196.63333333338196,0.32922184,-0.993379,-0.35872397,-2.1380458,-0.08483564,1.3684903,0.79155594,0.03999977,0.04,-9.410309,2.152998208999634,1.7455091,0.0,-0.0,0.0
196.65000000004864,0.32922184,-0.993379,-0.35872397,-2.1380458,-0.08483564,1.3684903,0.79155594,0.03999977,0.04,-9.410309,2.152998208999634,1.7455091,0.0,-0.0,0.0
196.66666666671532,0.32922184,-0.993379,-0.35872397,-2.1380458,-0.08483564,1.3684903,0.79155594,0.03999977,0.04,-9.410309,2.152998208999634,1.7455091,0.0,-0.0,0.0
196.683333333382,0.32922184,-0.993379,-0.35872397,-2.1380458,-0.08483564,1.3684903,0.79155594,0.03999977,0.04,-9.410309,2.152998208999634,1.7455091,0.0,-0.0,0.0
196.70000000004868,0.32922184,-0.993379,-0.35872397,-2.1380458,-0.08483564,1.3684903,0.79155594,0.03999977,0.04,-9.410309,2.152998208999634,1.7455091,0.0,-0.0,0.0
196.71666666671535,0.32922184,-0.993379,-0.35872397,-2.1380458,-0.08483564,1.3684903,0.79155594,0.03999977,0.04,-9.410309,2.152998208999634,1.7455091,0.0,-0.0,0.0
196.73333333338203,0.32922184,-0.993379,-0.35872397,-2.1380458,-0.08483564,1.3684903,0.79155594,0.03999977,0.04,-9.410309,2.152998208999634,1.7455091,0.0,-0.0,0.0
196.75000000004871,0.32922184,-0.993379,-0.35872397,-2.1380458,-0.08483564,1.3684903,0.79155594,0.03999977,0.04,-9.410309,2.152998208999634,1.7455091,0.0,-0.0,0.0
196.7666666667154,0.32922184,-0.993379,-0.35872397,-2.1380458,-0.08483564,1.3684903,0.79155594,0.03999977,0.04,-9.410309,2.152998208999634,1.7455091,0.0,-0.0,0.0
196.78333333338207,0.32922184,-0.993379,-0.35872397,-2.1380458,-0.08483564,1.3684903,0.79155594,0.03999977,0.04,-9.410309,2.152998208999634,1.7455091,0.0,-0.0,0.0
196.80000000004875,0.32922184,-0.993379,-0.35872397,-2.1380458,-0.08483564,1.3684903,0.79155594,0.03999977,0.04,-9.410309,2.152998208999634,1.7455091,0.0,-0.0,0.0
196.81666666671543,0.32922184,-0.993379,-0.35872397,-2.1380458,-0.08483564,1.3684903,0.79155594,0.03999977,0.04,-9.410309,2.152998208999634,1.7455091,0.0,-0.0,0.0
196.83333333338211,0.32922184,-0.993379,-0.35872397,-2.1380458,-0.08483564,1.3684903,0.79155594,0.03999977,0.04,-9.410309,2.152998208999634,1.7455091,0.0,-0.0,0.0
196.8500000000488,0.32922184,-0.993379,-0.35872397,-2.1380458,-0.08483564,1.3684903,0.79155594,0.03999977,0.04,-9.410309,2.152998208999634,1.7455091,0.0,-0.0,0.0
196.86666666671547,0.32922184,-0.993379,-0.35872397,-2.1380458,-0.08483564,1.3684903,0.79155594,0.03999977,0.04,-9.410309,2.152998208999634,1.7455091,0.0,-0.0,0.0
196.88333333338215,0.32922184,-0.993379,-0.35872397,-2.1380458,-0.08483564,1.3684903,0.79155594,0.03999977,0.04,-9.410309,2.152998208999634,1.7455091,0.0,-0.0,0.0
196.90000000004883,0.32922184,-0.993379,-0.35872397,-2.1380458,-0.08483564,1.3684903,0.79155594,0.03999977,0.04,-9.410309,2.152998208999634,1.7455091,0.0,-0.0,0.0
