rsonawane2002/My_IMU/logs_2/traj_375/clean_375.csv
time,j1,j2,j3,j4,j5,j6,j7,gripper1,gripper2,imu_ax,imu_ay,imu_az,imu_gx,imu_gy,imu_gz,quat_x,quat_y,quat_z,quat_w
1371.233333332415,0.00016700293,-0.785875,4.0107683e-05,-2.3551247,9.29385e-05,1.570997,0.786,0.04,0.04,0.0,-0.0,0.0,2.875329272945135e-08,-0.0011641195053377316,4.421952117202833e-08,0.9999995971961153,0.00020320632366974898,0.0008736418299892524,3.263050917662294e-05
1371.2499999990816,0.0001670042,-0.78576016,4.012326e-05,-2.3552213,9.29724e-05,1.5709941,0.786,0.04,0.04,-0.2919984608169335,-4.2572547636786015e-05,0.020128406648645125,-5.176574559593684e-07,-0.002238655128303004,-3.643609032734963e-07,0.999999685059364,0.00020320492662931445,0.000766502520170946,3.2600878959476545e-05
1371.2666666657483,0.00016699485,-0.7856541,4.0198072e-05,-2.35531,9.2992355e-05,1.5709913,0.786,0.04,0.04,0.023131094313955103,-4.817835366709676e-05,-0.0015688687539094914,-3.91503934106486e-06,-0.003227142121506105,-3.415344131340284e-06,0.9999997559108577,0.00020318750466858675,0.0006677078593858828,3.254654163669897e-05
1371.283333332415,0.00016696002,-0.7855565,4.0430554e-05,-2.355391,9.298037e-05,1.5709884,0.786,0.04,0.04,0.02226309738022625,-0.000134745731200116,-0.0014234798431989049,-1.314508962067149e-05,-0.004137150625229587,-1.1529519707737387e-05,0.9999998124199743,0.00020312669933194173,0.0005769300404968306,3.242358184046113e-05
1371.2999999990816,0.00016687978,-0.7854662,4.096194e-05,-2.3554645,9.291151e-05,1.5709856,0.786,0.04,0.04,0.021075863081754243,-0.0002612723643802793,-0.0008013574477994112,-3.0755594649281326e-05,-0.0049712207591824315,-2.690021528097058e-05,0.9999998570450066,0.00020298252565805695,0.0004936326460719373,3.216942070208394e-05
1371.3166666657482,0.00016672973,-0.78538257,4.197212e-05,-2.3555312,9.275429e-05,1.5709827,0.786,0.04,0.04,0.018728938607992518,-0.00042345134601425006,-0.0008443662699031407,-5.887426539912652e-05,-0.005733439797713216,-5.14700170870906e-05,0.9999998920039304,0.00020270359217599527,0.0004170110432662805,3.1704433864644786e-05
1371.333333332415,0.0001664814,-0.78530467,4.367545e-05,-2.3555906,9.2470145e-05,1.5709798,0.786,0.04,0.04,0.01888940511427517,-0.0006168148041736936,2.570301771420702e-05,-0.00010031844610751795,-0.0064318960605004765,-8.702368184046923e-05,0.9999999188876277,0.00020222830235989116,0.0003469460576879175,3.093355539445132e-05
1371.3499999990815,0.00016610263,-0.785232,4.6317204e-05,-2.3556473,9.2015456e-05,1.570977,0.7859981,0.04,0.04,0.010257324938622858,-0.0008380397009474122,-0.0018293565010818469,-0.00015695975592454152,-0.007065380645961423,-0.00013513157462838448,0.9999999400223499,0.00020053244716436696,0.0002808151530153928,2.9747001972899107e-05
1371.3666666657482,0.00016555806,-0.78516346,5.017044e-05,-2.3556974,9.133853e-05,1.5709741,0.7859962,0.04,0.04,0.0158933740975975,-0.0010838152896680607,0.0006316516685700435,-0.0002220567804834029,-0.007658550048283691,-0.00019717869546653094,0.9999999556907626,0.0001984906688420799,0.00022007865524482936,2.802342803912471e-05
1371.3833333324148,0.00016480932,-0.7850984,5.5532782e-05,-2.3557403,9.038895e-05,1.5709736,0.7859943,0.04,0.04,0.016733945729097144,-0.0013560446682684465,0.00299920892261607,-0.00030658700484611254,-0.008196027450811674,-0.0002744362697540128,0.9999999667088342,0.0001960168679292107,0.0001658392949840711,2.5632912023535823e-05
1371.3999999990815,0.0001638157,-0.7850358,6.2723724e-05,-2.3557775,8.910935e-05,1.5709708,0.78599113,0.04,0.04,0.011735934253609415,-0.0016451199917637304,-0.0006488241352187174,-0.00041156133593625083,-0.008669229855475828,-0.0003680112153668352,0.9999999746834445,0.00019239249279998124,0.00011452085611613246,2.243240067168899e-05
1371.4166666657482,0.00016253398,-0.7849752,7.208173e-05,-2.3558114,8.744614e-05,1.5709697,0.7859873,0.04,0.039999995,0.008413522787664718,-0.001957631646247747,0.0016990706044106574,-0.0005337912154448788,-0.0091082076720003,-0.000478098901410648,0.9999999799675527,0.0001878175357419538,6.674922319538318e-05,1.8275897945305694e-05
1371.4333333324148,0.00016091918,-0.7849159,8.396251e-05,-2.3558383,8.5318185e-05,1.5709668,0.78598267,0.04,0.04,0.012697871640354741,-0.0022680197752179346,0.0009775180321192067,-0.000677137390168861,-0.009508936874135383,-0.0006078899489870163,0.9999999830885012,0.00018209903386487745,2.2226423051907335e-05,1.2997121072896547e-05
1371.4499999990815,0.0001589244,-0.78485703,9.8736135e-05,-2.3558583,8.266849e-05,1.570964,0.78597695,0.04,0.04,0.012143726515967401,-0.0026115750345799224,0.0028870642400757873,-0.0008420934604703724,-0.009871795028133849,-0.0007557468106172288,0.999999984490889,0.00017501024858494152,-1.8660072822829158e-05,6.437107661779376e-06
1371.466666665748,0.00015650118,-0.784798,0.000116785435,-2.3558726,7.9420184e-05,1.5709611,0.7859693,0.04,0.04,0.009590135681780687,-0.0029531881509819308,0.0026249964434121864,-0.0010293663295946915,-0.010193982196849454,-0.0009238244248856247,0.9999999846070107,0.00016602267363441842,-5.674469153510816e-05,-1.5780015822013761e-06
1371.4833333324148,0.00015359969,-0.784738,0.000138504,-2.3558815,7.552697e-05,1.5709583,0.7859606,0.04,0.039999995,0.008195902514263054,-0.0033291103679538767,0.003026063125677325,-0.0012360333991609414,-0.01048162620969613,-0.0011097341620836274,0.9999999835697181,0.0001554390702651266,-9.259365752721875e-05,-1.1210426363536608e-05
1371.4999999990814,0.00015016962,-0.7846764,0.000164295,-2.355885,7.088253e-05,1.5709554,0.78595066,0.04,0.04,0.007131041279873074,-0.003671184686232428,0.0032579033295121462,-0.0014676185571592278,-0.010740920648746346,-0.0013192381222692877,0.9999999814945306,0.0001430523547595394,-0.00012662417466585948,-2.2655698406370536e-05
1371.516666665748,0.000146159,-0.784612,0.00019456894,-2.3558812,6.5430446e-05,1.5709525,0.7859389,0.04,0.04,0.00952403249665501,-0.004058268556932359,0.004863316910186377,-0.0017241092107384086,-0.01097355089954297,-0.0015480090920441997,0.9999999785618767,0.00012847470197043095,-0.00015832960409160982,-3.608647162084073e-05
1371.5333333324147,0.00014151543,-0.78454494,0.0002297424,-2.35587,5.9104175e-05,1.5709497,0.78592503,0.04,0.04,0.009588641725621905,-0.004444171164015045,0.004831067584176729,-0.002004347290884132,-0.011175602236631197,-0.0017972006832116753,0.9999999748469,0.0001114057726832433,-0.00018768016415211065,-5.1682772541361385e-05
1371.5499999990814,0.00013618596,-0.78447413,0.00027023721,-2.3558517,5.18281e-05,1.5709468,0.7859089,0.039999995,0.03999999,0.007996029313073194,-0.0048292177905980655,0.005332389216983202,-0.0023074096375785657,-0.011344978125062636,-0.002067861564876423,0.9999999701908833,9.166275433475566e-05,-0.00021533154421746645,-6.963115738069768e-05
1371.566666665748,0.00013011755,-0.78439885,0.00031647933,-2.3558264,4.348852e-05,1.570944,0.78589034,0.03999999,0.04,0.006798548761954848,-0.005190899621157073,0.00563097217234354,-0.002634254528273805,-0.01148809602146362,-0.00236408313030222,0.9999999643286872,6.90613230050133e-05,-0.00024176063591991868,-9.013852035636013e-05
1371.5833333324147,0.000123256,-0.78431857,0.00036889652,-2.355794,3.4036497e-05,1.5709411,0.78586936,0.039999984,0.039999995,0.006608647881134466,-0.005602316353021909,0.006042346121448716,-0.002984978113292345,-0.011609650589123222,-0.0026786912535101477,0.9999999569530793,4.344675376998841e-05,-0.00026711654355484693,-0.00011337976504603095
1371.5999999990813,0.0001155476,-0.7842326,0.00042791842,-2.3557537,2.3393846e-05,1.5709381,0.7858458,0.039999984,0.039999995,0.007059019178390358,-0.005995444393694415,0.006646532643861391,-0.003360195758073343,-0.011709662062205195,-0.0030150582289167646,0.9999999476910595,1.4633439371014366e-05,-0.00029142918877802116,-0.0001395448621939698
1371.616666665748,0.0001069383,-0.78414035,0.0004939757,-2.3557055,1.1482692e-05,1.5709351,0.7858196,0.039999977,0.03999999,0.006369176526987985,-0.006389943596823641,0.007107038775489016,-0.003760228141462281,-0.01178856198520178,-0.003374057205591182,0.9999999359928937,-1.7564569749957052e-05,-0.00031496694699386345,-0.0001688239214514013
1371.6333333324146,9.737405e-05,-0.7840411,0.0005674992,-2.3556492,-1.7735488e-06,1.5709319,0.78579026,0.03999997,0.039999984,0.0059708015487824895,-0.00678617112183936,0.0074080400326081985,-0.004185362699719888,-0.011846623304180248,-0.003753938932838143,0.9999999211460137,-5.348245505927324e-05,-0.0003380578677936875,-0.0002014062350780397
1371.6499999990813,8.6801025e-05,-0.78393424,0.0006489184,-2.3555841,-1.6452794e-05,1.5709286,0.78575784,0.03999996,0.039999977,0.006495125484051734,-0.007181399945023871,0.008189992452023453,-0.004634213584206688,-0.01188867669068573,-0.004155480693516658,0.9999999024331322,-9.324670867838236e-05,-0.00036061278358781547,-0.00023748094187690675
1371.666666665748,7.516565e-05,-0.7838196,0.00073866127,-2.3555098,-3.26325e-05,1.5709245,0.78572226,0.039999954,0.039999973,0.006980905418729755,-0.007575824074169636,0.008028252592318097,-0.005107848485413278,-0.011912325013440344,-0.004579438283467822,0.9999998789344238,-0.00013701329920032417,-0.00038275119313262423,-0.00027723639350496785
1371.6833333324146,6.241437e-05,-0.78369653,0.0008371538,-2.3554263,-5.0388368e-05,1.5709178,0.7856831,0.039999947,0.039999966,0.005177171814052528,-0.007968216132925332,0.006904533587870354,-0.005606490629008897,-0.011918151646671931,-0.005023931949050086,0.9999998490115319,-0.000185116263311373,-0.00040590400445171635,-0.0003208595043546139
1371.6999999990812,4.849423e-05,-0.78356415,0.0009448193,-2.3553333,-6.979727e-05,1.5709112,0.78564024,0.03999994,0.039999958,0.005888399318143556,-0.00836181193197079,0.009546726433184993,-0.006128987671841689,-0.011920292918182277,-0.005489633238147755,0.9999998118360375,-0.0002377410116171148,-0.00042893915853537833,-0.0003685353432997543
1371.7166666657479,3.335264e-05,-0.783422,0.0010620776,-2.3552306,-9.093536e-05,1.5709044,0.7855936,0.039999932,0.039999954,0.005722241618544288,-0.008751544017072153,0.009835651205292173,-0.00667525195085773,-0.011905943987210513,-0.005977202118449943,0.9999997659186536,-0.00029504203067724555,-0.00045203595360336933,-0.0004204477790175781
1371.7333333324145,1.6937249e-05,-0.7832695,0.0011893446,-2.3551168,-0.000113876384,1.5708976,0.7855429,0.039999925,0.039999947,0.007184786507941077,-0.009141669628829696,0.010765209315977131,-0.007245469206969179,-0.011878388142451818,-0.006484688139791281,0.999999709780977,-0.0003573220844649777,-0.0004748075819386735,-0.0004767773587210328
1371.7499999990812,-8.0345296e-07,-0.783106,0.0013270333,-2.3549929,-0.00013869561,1.5708905,0.785488,0.03999992,0.039999947,0.005095206880811887,-0.009526035901564556,0.010671324055011588,-0.007838975973157695,-0.011831974804817742,-0.007013534504769278,0.9999996411907843,-0.00042473435917759507,-0.0004980891567808392,-0.000537704582965737
1371.7666666657478,-1.9920579e-05,-0.7829311,0.0014755499,-2.3548582,-0.00016546554,1.5708832,0.78542894,0.039999917,0.039999943,0.0053972480904551645,-0.009908047143127206,0.011034099863005409,-0.00845566254432611,-0.011774331699081155,-0.007561740535973848,0.9999995580515421,-0.0004974005273393082,-0.0005219111904699305,-0.0006034054568157131
1371.7833333324145,-4.0464583e-05,-0.78274447,0.0016352977,-2.3547115,-0.00019425881,1.5708743,0.78536546,0.039999913,0.03999994,0.0068098877055389195,-0.010289324837354247,0.010906838894242377,-0.009096223151450165,-0.011705758110586289,-0.008129855759710935,0.9999994579492852,-0.0005755609677025072,-0.0005463341524695766,-0.0006740546729416348
1371.7999999990811,-6.2485306e-05,-0.78254545,0.001806674,-2.3545537,-0.00022514779,1.5708638,0.7852973,0.03999991,0.03999994,0.004717283642308168,-0.010662393696770798,0.010813086273175898,-0.009759989380813072,-0.011627003737757578,-0.008718384007235533,0.9999993377189715,-0.0006594843867016287,-0.0005721935082205142,-0.0007498243467874489
1371.8166666657478,-8.6031854e-05,-0.78233355,0.0019900696,-2.3543835,-0.00025820173,1.5708532,0.7852243,0.03999991,0.03999994,0.006692312679024148,-0.011039836139439731,0.012776387384261234,-0.010446274001676975,-0.011544696036615246,-0.009325267284163117,0.999999195061523,-0.0007493199356997445,-0.0005983578046965994,-0.0008308813859003648
1371.8333333324144,-0.00011115261,-0.7821083,0.0021858702,-2.3542008,-0.00029349126,1.5708426,0.7851465,0.039999913,0.039999947,0.0061888863685855,-0.011407920929750988,0.013136748051167935,-0.011154649201708527,-0.011448609263074975,-0.009951875548439367,0.9999990266596036,-0.0008452448143773754,-0.0006250070190136306,-0.0009173915605793331
1371.849999999081,-0.00013789511,-0.78186923,0.0023944562,-2.3540063,-0.00033108372,1.5708318,0.7850635,0.039999913,0.039999947,0.00476114412994999,-0.011772878575758974,0.013015763641477385,-0.011885510598644395,-0.011339522904134508,-0.010596101938824721,0.9999988285301953,-0.000947494708187583,-0.0006527385384927151,-0.0010095169217281667
1371.8666666657477,-0.00016630624,-0.7816161,0.0026162013,-2.3537982,-0.0003710471,1.5708202,0.78497523,0.039999913,0.03999995,0.007165704336298262,-0.012138762666884847,0.013548740632218781,-0.012638164433518183,-0.01122325166796045,-0.01125924837177255,0.9999985970227764,-0.0010562743793881256,-0.0006810769806573219,-0.0011074163900036524
1371.8833333324144,-0.00019643207,-0.78134817,0.0028514704,-2.3535762,-0.0004134468,1.5708059,0.7848817,0.039999913,0.03999995,0.006121237726297579,-0.012491162523405649,0.012552079216021639,-0.013411593649309097,-0.011093675220463698,-0.011939213133106771,0.9999983270847934,-0.001171666049109127,-0.0007112754957295594,-0.0012112445884424452
1371.899999999081,-0.0002283178,-0.7810651,0.0031006248,-2.353341,-0.000458348,1.5707915,0.7847826,0.039999917,0.039999958,0.005319539186343647,-0.012847710844145861,0.014389930498381887,-0.014207120251042284,-0.01096401123222051,-0.012637241424343085,0.9999980144076311,-0.0012939624101926698,-0.0007425610530363556,-0.0013211529656692751
1371.9166666657477,-0.00026200773,-0.78076625,0.003364018,-2.3530917,-0.00050581456,1.570777,0.7846778,0.03999992,0.039999966,0.006634825536178113,-0.013202721225363855,0.015389710399649204,-0.015023128391889077,-0.010825668974489775,-0.013352081746337459,0.9999976541902937,-0.0014233051894443688,-0.000774607638566163,-0.0014372888553757098
1371.9333333324143,-0.00029754522,-0.7804515,0.003641995,-2.3528292,-0.00055590796,1.5707622,0.78456724,0.039999925,0.03999997,0.004305303109419789,-0.013540213547523824,0.014566799916693185,-0.015859703052731877,-0.010674636524641089,-0.014082412601998665,0.9999972402456218,-0.0015598622253255253,-0.0008083113166317959,-0.0015597960744255447
1371.949999999081,-0.00033497304,-0.7801204,0.0039348966,-2.3525527,-0.00060869055,1.5707463,0.78445077,0.03999993,0.039999977,0.005288316435358986,-0.01388487654713319,0.014879984165427906,-0.01671648602321825,-0.010520495178574518,-0.014829494078777225,0.9999967666070491,-0.0017038019131564433,-0.0008436444364816634,-0.0016888157248073103
1371.9666666657477,-0.00037433274,-0.7797725,0.004243054,-2.352261,-0.00066422066,1.5707282,0.7843283,0.039999936,0.039999984,0.006006097507138541,-0.014222953843811593,0.014571321085732336,-0.01759353745134234,-0.01036181408846548,-0.015591127995137547,0.9999962264962662,-0.001855289733830197,-0.0008809967420640324,-0.0018244829329044283
1371.9833333324143,-0.00041566518,-0.7794075,0.0045667915,-2.3519542,-0.000722558,1.57071,0.78419954,0.039999943,0.039999995,0.006597708077071829,-0.014562243792467632,0.016518553895927823,-0.018490210905248026,-0.01020297080949667,-0.016368568378563056,0.9999956137384136,-0.0020145521958507937,-0.0009193873588929483,-0.0019669291466694956
1371.999999999081,-0.00045901013,-0.779025,0.0049064266,-2.3516316,-0.0007837524,1.5706913,0.78406453,0.03999995,0.04,0.0069720140822626675,-0.014900064603651838,0.016728128292164968,-0.019405993394665998,-0.010032153779751165,-0.017158728815340224,0.9999949210804661,-0.0021816936807927284,-0.0009588486508806201,-0.0021162786253932616
1372.0166666657476,-0.0005044063,-0.7786245,0.005262271,-2.3512928,-0.00084787037,1.5706722,0.7839231,0.039999954,0.04,0.007013259959776086,-0.015222559914977035,0.017107014059525305,-0.02034073547036557,-0.009852136576752945,-0.01796463524854499,0.9999941404212657,-0.0023569074855100992,-0.0009995623337382869,-0.002272660418906565
1372.0333333324143,-0.00055189215,-0.7782059,0.005634624,-2.3509378,-0.0009149301,1.5706508,0.78377503,0.039999958,0.039999995,0.006490893981303536,-0.015560978313459636,0.015954904959203375,-0.021294242184506283,-0.009662749276085457,-0.018780150195190404,0.9999932625320044,-0.0025403809074128992,-0.0010423063943287485,-0.0024361758605538947
1372.049999999081,-0.0006015045,-0.77776855,0.006023782,-2.3505666,-0.0009849995,1.5706288,0.78362036,0.039999966,0.04,0.006177837059118119,-0.01587420347190123,0.01739751349902896,-0.022265628649416492,-0.009471631594928346,-0.01961115909957698,0.9999922789260701,-0.002732216497939986,-0.0010866964894334012,-0.0026069468719131295
1372.0666666657476,-0.0006532791,-0.77731234,0.006430031,-2.3501787,-0.0010581323,1.5706064,0.7834588,0.039999966,0.04,0.0068633652137606305,-0.016191443070788514,0.017985165840017636,-0.023255237137769537,-0.009274402173821321,-0.02045553250937579,0.9999911802710952,-0.002932632787110392,-0.0011324083746217374,-0.00278508460027965
1372.0833333324142,-0.0007072511,-0.77683675,0.0068536513,-2.3497753,-0.0011344049,1.5705832,0.78329045,0.039999958,0.04,0.004155833692776056,-0.016468878261904386,0.017454671977579217,-0.02426232852986146,-0.00906775293659791,-0.02131345218170573,0.9999899554302376,-0.003141726067068344,-0.0011804587847384382,-0.002970709176000761
1372.0999999990809,-0.0007634547,-0.7763415,0.0072949147,-2.3493538,-0.001213868,1.5705582,0.783115,0.03999995,0.04,0.007859316601721567,-0.016791956583792067,0.01792401528040166,-0.025286543451557446,-0.008862357046104743,-0.022182719033993693,0.9999885941995379,-0.003359682111970107,-0.0012302853909280367,-0.0031639223750569417
1372.1166666657475,-0.000821923,-0.77582633,0.007754086,-2.3489149,-0.0012965654,1.5705323,0.7829324,0.039999943,0.04,0.00667205965256823,-0.01709658675802493,0.018541293875840026,-0.02632792805086453,-0.008650324066197663,-0.02306285618991082,0.999987085203947,-0.0035866862277647137,-0.001281832744175672,-0.0033648197624443813
1372.1333333324142,-0.00088268827,-0.7752911,0.008231419,-2.3484592,-0.0013825587,1.5705057,0.78274256,0.039999932,0.04,0.005248405082536323,-0.01737226990311848,0.018413188279708947,-0.027385285797658854,-0.008433260469095358,-0.023954145981096527,0.9999854161517571,-0.003822830116630016,-0.0013354923386987051,-0.003573501631436043
1372.1499999990808,-0.00094578153,-0.77473533,0.008727167,-2.3479857,-0.0014718841,1.5704784,0.78254557,0.03999992,0.04,0.006757410947400011,-0.01769181825339427,0.01919410753117301,-0.02845900051980047,-0.008212539411700857,-0.024855396118808073,0.9999835753006202,-0.004068179141270072,-0.0013908808829994229,-0.0037900524841495017
1372.1666666657475,-0.0010112332,-0.7741587,0.009241569,-2.3474936,-0.0015645563,1.5704492,0.7823411,0.03999992,0.04,0.0071448346377289695,-0.018004526475022195,0.01883676577858484,-0.029549425133243164,-0.007985974183576005,-0.025763385202633837,0.9999815485572305,-0.004322971407930044,-0.0014484206159167301,-0.004014541195293762
1372.1833333324141,-0.001079073,-0.7735612,0.009774859,-2.3469841,-0.0016606309,1.5704193,0.7821291,0.039999913,0.04,0.005373944055953039,-0.01827369361260406,0.019225949545997878,-0.030655389977305218,-0.007756330146360264,-0.026681938947143876,0.9999793218785076,-0.0045873564728850175,-0.0015081462589764988,-0.004247054373601014
1372.1999999990808,-0.0011493288,-0.7729425,0.01032726,-2.346456,-0.0017601481,1.5703888,0.7819095,0.03999991,0.04,0.007111019241046179,-0.018572102028715717,0.019995422267538032,-0.0317761530871655,-0.0075248828195519524,-0.027607859301803914,0.9999768817408855,-0.004861423519194015,-0.0015695262593485556,-0.004487664477555886
1372.2166666657474,-0.0012220278,-0.77230215,0.0108989915,-2.3459096,-0.0018631467,1.5703571,0.7816824,0.039999902,0.04,0.005925431334596887,-0.01884769959803311,0.019719524242112207,-0.03291213836434634,-0.007285061512069464,-0.028542432261450614,0.9999742121739617,-0.005145259392846248,-0.0016332213233910258,-0.004736441803080087
1372.233333332414,-0.0012971961,-0.77163994,0.011490263,-2.345344,-0.0019696646,1.5703236,0.78144735,0.0399999,0.04,0.00662183486384027,-0.01913052155543358,0.01974019687052131,-0.034063175209297046,-0.007042874546927127,-0.029483322780865504,0.9999712966099848,-0.005439098444349659,-0.0016992970314697866,-0.00499345109690069
1372.2499999990807,-0.00137486,-0.77095586,0.012101281,-2.3447595,-0.002079731,1.5702894,0.78120464,0.039999895,0.04,0.006891840029865648,-0.01942330220171852,0.020546693403278304,-0.03522806944939645,-0.006799910802746093,-0.030430926339899803,0.9999681200493654,-0.005742939126374348,-0.0017672220196576123,-0.0052587509412411314
1372.2666666657474,-0.0014550433,-0.7702496,0.012732237,-2.3441563,-0.0021933888,1.5702546,0.7809538,0.039999895,0.04,0.005716988547166402,-0.019675820534695125,0.02059506506055797,-0.03640800045787998,-0.006550085629344677,-0.03138464398025075,0.9999646637042147,-0.006057071856265652,-0.0018373308881517174,-0.005532398996111503
1372.283333332414,-0.0015377698,-0.76952064,0.013383316,-2.343533,-0.0023106684,1.5702181,0.7806951,0.039999895,0.04,0.007135017891113371,-0.01996172997152084,0.020754754238239137,-0.03760038931500541,-0.006296938638288528,-0.03234311261791794,0.9999609101395075,-0.0063814899166807606,-0.0019097184922832763,-0.0058144436269995875
1372.2999999990807,-0.001623062,-0.76876915,0.0140547,-2.3428905,-0.0024315894,1.5701804,0.7804283,0.03999989,0.04,0.006194461021924447,-0.020228515211592225,0.02069043847072738,-0.03880675881452979,-0.006040142538562312,-0.03330757250084715,0.999956840471421,-0.006716333448722208,-0.001984421096521081,-0.00610492688982859
1372.3166666657473,-0.0017109411,-0.76799476,0.014746566,-2.342229,-0.002556188,1.570142,0.78015333,0.03999989,0.04,0.005460079852648292,-0.020492477369292612,0.021147841528357247,-0.040026184989745264,-0.00578212452276649,-0.03427574222996233,0.9999524349095974,-0.0070617457711665025,-0.0020615049874226996,-0.00640389430094899
1372.333333332414,-0.0018014279,-0.7671974,0.015459075,-2.3415473,-0.002684487,1.5701022,0.7798701,0.03999989,0.04,0.0066383530892277776,-0.02076171259599944,0.021121013037528336,-0.04125844788881601,-0.005520038332176391,-0.035247953875977386,0.9999476732271965,-0.007417862786505024,-0.0021409174874860346,-0.006711377765278641
1372.3499999990806,-0.0018945427,-0.7663768,0.016192378,-2.3408453,-0.002816521,1.5700607,0.7795786,0.039999884,0.04,0.00668260750815719,-0.021010550020088975,0.021159653102076348,-0.0425026632413691,-0.005256536464520161,-0.03622446483560695,0.999942534756005,-0.007784730549050908,-0.0022227545356510426,-0.007027411919661963
1372.3666666657473,-0.0019903032,-0.7655326,0.016946632,-2.3401237,-0.0029523536,1.5700188,0.77927893,0.03999989,0.04,0.005690788391521373,-0.02124576514086346,0.02207735716581727,-0.043759160394066854,-0.004988909715714308,-0.03720292234583106,0.9999369982671236,-0.008162432137276179,-0.0023068739758733657,-0.0073520426140048735
1372.383333332414,-0.0020887288,-0.76466465,0.017721983,-2.339382,-0.0030919649,1.5699757,0.7789708,0.03999989,0.04,0.005615034429418131,-0.021530398738145787,0.02184864064589398,-0.04502824975028651,-0.004719285060679485,-0.03818469624852026,0.9999310401945625,-0.008551161533017238,-0.0023935520391440905,-0.0076852716602790454
1372.3999999990806,-0.002189834,-0.76377314,0.018518563,-2.3386197,-0.0032354053,1.5699309,0.7786543,0.03999989,0.04,0.0063732068726451985,-0.021763003618799348,0.02140146308451385,-0.04630823270091951,-0.004447463613441257,-0.039169198215047926,0.9999246380057891,-0.008950931512084308,-0.0024827955435596212,-0.008027132759999615
1372.4166666657472,-0.0022936373,-0.76285785,0.019336496,-2.3378372,-0.003382679,1.5698851,0.7783293,0.03999989,0.04,0.005864133533162175,-0.0220141780525044,0.022057933928798512,-0.047600215068326235,-0.004173485916192238,-0.04015404109862408,0.9999177681034438,-0.009361874208944644,-0.002574433630742142,-0.008377626979314805
1372.433333332414,-0.0024001522,-0.7619187,0.020175906,-2.3370335,-0.0035338183,1.5698385,0.7779957,0.039999884,0.04,0.007351069230931984,-0.02228657315752336,0.02262104733370407,-0.04890322144533951,-0.003898232814788681,-0.041140534532283654,0.9999104065180634,-0.009784157215004755,-0.002667968082303227,-0.00873677004305255
1372.4499999990805,-0.0025093919,-0.7609555,0.021036908,-2.336209,-0.0036888558,1.5697904,0.77765363,0.039999876,0.04,0.00594578620198849,-0.022494815646060748,0.02201185467658462,-0.05021617988290469,-0.0036141021470861255,-0.04212813557411402,0.9999025271303851,-0.010217759260660734,-0.0027641211757519967,-0.00910457402003994
1372.4666666657472,-0.0026213713,-0.759968,0.021919604,-2.3353648,-0.0038478025,1.5697409,0.777303,0.03999987,0.04,0.0040264595435823836,-0.022703491931043776,0.021896629718409777,-0.05154016903299791,-0.0033285142254949308,-0.04311450192886321,0.9998941022003248,-0.010662806805461656,-0.00286337823291305,-0.009481033758564066
1372.4833333324138,-0.0027361019,-0.7589561,0.022824105,-2.3345,-0.0040106666,1.5696906,0.77694345,0.03999987,0.04,0.005210146705869612,-0.022985671526533705,0.022617414610781594,-0.052874593784029096,-0.003045774773975424,-0.044099163545800346,0.999885104932665,-0.011119526241333576,-0.002965182645597929,-0.00986614219641267
1372.4999999990805,-0.0028535957,-0.7579197,0.023750493,-2.3336134,-0.0041774837,1.5696388,0.7765753,0.039999858,0.04,0.007268863373810497,-0.023229496712934283,0.022864419723345186,-0.054217819856126934,-0.002761197069026198,-0.045084120762042566,0.9998755107036286,-0.011587834582902029,-0.0030691538576895203,-0.01025989665811355
1372.5166666657472,-0.0029738636,-0.7568589,0.024698852,-2.332705,-0.0043482557,1.5695856,0.7761985,0.039999854,0.04,0.00664227964870534,-0.023456167778573497,0.022705606867678974,-0.05557107581536319,-0.002471695123579973,-0.046065489516051626,0.9998652903558596,-0.012067855757106808,-0.003175509512813604,-0.010662276415102463
1372.5333333324138,-0.0030969142,-0.75577337,0.02566926,-2.3317757,-0.0045230035,1.5695316,0.7758129,0.039999846,0.04,0.0053668792434180546,-0.02367113515196924,0.023109100154261597,-0.05693341501916107,-0.0021769690874975088,-0.04704627397983297,0.9998544146078154,-0.012559689686673918,-0.003284288306153187,-0.011073266661613736
1372.5499999990805,-0.0032227566,-0.7546632,0.026661796,-2.3308256,-0.0047017243,1.5694761,0.7754185,0.039999846,0.04,0.004682751445805877,-0.023891320059163737,0.022434764570888888,-0.05830472690251665,-0.0018783192957569006,-0.04802248107455363,0.9998428521438184,-0.013063427899165602,-0.0033959463507973304,-0.011492841981882398
1372.566666665747,-0.0033513983,-0.7535283,0.027676515,-2.329855,-0.004884448,1.5694191,0.7750154,0.039999846,0.04,0.003912813382300762,-0.024071376078039705,0.02234237690816876,-0.059684690749554535,-0.001581756656967808,-0.04899600006136422,0.9998305724651732,-0.013579069840985248,-0.0035107599474478984,-0.011920981117727951
1372.5833333324138,-0.0034828465,-0.7523686,0.028713472,-2.3288631,-0.0050712107,1.5693614,0.7746035,0.03999986,0.04,0.005323417247615758,-0.024310287885346074,0.023261693853338095,-0.06107390420273859,-0.0012869209245080218,-0.04997488498462299,0.9998175463679116,-0.014106743697780236,-0.003627934057776085,-0.012357663677514048
1372.5999999990804,-0.0036171086,-0.751184,0.02977273,-2.3278494,-0.00526195,1.5693023,0.7741826,0.03999986,0.04,0.005907687954631591,-0.024608001856612355,0.023193078701178038,-0.06247091378107082,-0.0009878094991584764,-0.05093920255119087,0.9998037413209485,-0.01464657416283675,-0.0037475978018864466,-0.01280282065177722
1372.616666665747,-0.003754189,-0.74997425,0.03085433,-2.3268142,-0.005456694,1.5692418,0.7737529,0.039999858,0.04,0.00482753469859265,-0.02478096487091401,0.023045460298476428,-0.06387529622419028,-0.0006858549321598251,-0.051898637115098845,0.9997891246493484,-0.015198559427827907,-0.003870057553469114,-0.01325642028381991
1372.6333333324137,-0.0038940916,-0.74873966,0.031958297,-2.3257577,-0.0056554675,1.5691803,0.77331436,0.039999854,0.04,0.004703507927539263,-0.024965860788356276,0.023156738632024165,-0.06528749291606485,-0.0003826903788321169,-0.05285359657055341,0.9997736637130767,-0.015762785979144312,-0.003995084498405283,-0.013718426431559447
1372.6499999990804,-0.004036822,-0.7474801,0.033084683,-2.3246794,-0.005858263,1.5691174,0.7728669,0.039999846,0.04,0.005525644784132311,-0.025228831272457175,0.023286066464667243,-0.0667068492426827,-7.609123341180152e-05,-0.0538027437709689,0.9997573252262438,-0.01633931923373015,-0.004122568784360116,-0.01418878888640506
1372.666666665747,-0.004182379,-0.74619526,0.0342335,-2.32358,-0.006065122,1.5690532,0.7724105,0.039999835,0.04,0.003388337881671255,-0.025344504744095886,0.02293132973767431,-0.06813325918572236,0.00023346238507765188,-0.05474616065296407,0.9997400713763688,-0.016928240171742846,-0.004253205457922944,-0.014667467824869931
1372.6833333324137,-0.0043307682,-0.74488527,0.035404764,-2.3224595,-0.0062760212,1.5689878,0.77194524,0.03999983,0.04,0.003889512418542296,-0.025581241545345745,0.023237859688296503,-0.06956604740357246,0.0005413224228633749,-0.05568092811152304,0.9997218691428535,-0.017529576387160913,-0.00438664598713248,-0.015154393626586549
1372.6999999990803,-0.00448199,-0.7435501,0.0365985,-2.3213172,-0.0064909374,1.5689213,0.7714711,0.039999828,0.04,0.0045074694922542236,-0.0258329324575389,0.02336537566667296,-0.07100550057093158,0.0008492728040972765,-0.05660847295144805,0.9997026836877838,-0.018143387943477036,-0.004522721065000499,-0.015649495057145094
1372.716666665747,-0.0046360446,-0.74218994,0.03781471,-2.3201535,-0.006709901,1.5688534,0.7709878,0.03999982,0.04,0.0040118651023268725,-0.02598591076244383,0.023006453657359316,-0.07245118999147893,0.001159938898946887,-0.05752905848002561,0.999682475500941,-0.018769843155450126,-0.004661620820882554,-0.016152722852594094
1372.7333333324136,-0.0047929315,-0.74080473,0.03905338,-2.3189678,-0.006932899,1.5687842,0.77049565,0.039999817,0.04,0.004736119095105629,-0.02620405004632384,0.023400727294498047,-0.07390180386091788,0.0014718527024711282,-0.05844051378076848,0.9996612116571284,-0.019408874529979855,-0.004802995320995224,-0.01666399512805906
1372.7499999990803,-0.004952648,-0.7393944,0.04031451,-2.317761,-0.007159946,1.5687138,0.76999456,0.039999813,0.04,0.003259564410185156,-0.02634859099469658,0.023012100026531535,-0.07535779487386121,0.001787005144247721,-0.059343317635710005,0.999638851767743,-0.02006056239047542,-0.0049473015030547084,-0.01718325000935155
1372.766666665747,-0.0051151947,-0.73795897,0.04159808,-2.3165326,-0.0073910444,1.5686421,0.7694847,0.03999981,0.04,0.0034690660957847896,-0.02653858669761089,0.023240207561392445,-0.07681915400034202,0.0021012443132238986,-0.06023932658811218,0.9996153602268532,-0.020724867162065296,-0.005094398273155783,-0.017710408970090925
1372.7833333324136,-0.0052805673,-0.73649836,0.042904086,-2.315283,-0.0076261563,1.5685691,0.7689659,0.039999805,0.04,0.0028244739205485203,-0.026740981816431725,0.02294419676631687,-0.07828612455029699,0.0024176623977833402,-0.06112323911757518,0.9995906954820419,-0.021401928571504074,-0.005244535088593597,-0.018245377794186005
1372.7999999990802,-0.005448764,-0.7350128,0.044232484,-2.314012,-0.007865322,1.5684948,0.7684382,0.039999794,0.04,0.00340905941176306,-0.026887792765017265,0.023087999414705962,-0.07975726028490802,0.002732455077062855,-0.06199940634512692,0.9995648204724688,-0.022091759128751855,-0.005397363179940708,-0.01878808992799792
1372.8166666657469,-0.005619776,-0.73350227,0.045583244,-2.3127198,-0.008108501,1.5684193,0.7679016,0.03999979,0.04,0.0026967083424311866,-0.027081734744068692,0.02303698950001376,-0.08123288471299855,0.00304968000628287,-0.06286258389986324,0.999537694043093,-0.02279443785401652,-0.005553071300411454,-0.019338438123799827
1372.8333333324135,-0.005793604,-0.73196673,0.046956353,-2.311406,-0.008355693,1.5683424,0.7673562,0.039999783,0.04,0.0033248470264979346,-0.027294626274017297,0.023034147528355753,-0.08271237094895495,0.0033662743383661617,-0.06371567226256956,0.9995092784201032,-0.02350992539764663,-0.005711518133962367,-0.0198963393750481
1372.8499999990802,-0.0059702387,-0.73040617,0.048351742,-2.3100703,-0.008606904,1.5682645,0.766802,0.03999978,0.04,0.003191274140146305,-0.027441477273440484,0.023326246545329887,-0.08419596508467683,0.003685042876183952,-0.0645581607234639,0.9994795331768185,-0.024238292920840822,-0.00587256430691632,-0.020461693610096827
1372.8666666657468,-0.006149673,-0.7288209,0.049769368,-2.3087144,-0.008862119,1.5681854,0.7662389,0.03999977,0.04,0.0010050165389907662,-0.027521776930339303,0.022443040886921395,-0.08568292976898396,0.004005915234301009,-0.06538893496138913,0.9994484132636415,-0.02497960244445428,-0.006036756074129901,-0.02103440663787622
1372.8833333324135,-0.0063319025,-0.72721094,0.051209174,-2.3073363,-0.009121316,1.5681051,0.7656671,0.03999977,0.04,0.00390994367742703,-0.02781236165356679,0.023168696423181423,-0.08717290998394892,0.004325226984426693,-0.06620484702732192,0.9994158833019998,-0.02573384322182993,-0.006203296686988772,-0.021614361589720292
1372.8999999990801,-0.006516916,-0.7255759,0.052671105,-2.3059385,-0.009384486,1.5680234,0.7650864,0.03999976,0.04,-0.0006511280314924761,-0.027804820009838527,0.02222069176200936,-0.08866572194490516,0.004649721574534131,-0.06701000817594246,0.999381892160718,-0.026501076416874287,-0.0063735364968933814,-0.022201454964314613
1372.9166666657468,-0.0067047076,-0.72391665,0.05415509,-2.3045185,-0.009651627,1.5679407,0.764497,0.039999757,0.04,0.004168774163271216,-0.028130695449896104,0.02303811153328006,-0.09016082816745952,0.004965866698062206,-0.06780207590202109,0.9993464083401135,-0.027281317117083786,-0.006545785370334971,-0.02279558220265246
1372.9333333324134,-0.0068952665,-0.7222329,0.05566107,-2.3030782,-0.009922714,1.5678567,0.76389885,0.03999975,0.04,0.0004067132304941268,-0.02815925383290452,0.022093227145147942,-0.09165814970930042,0.005291148788641529,-0.06858164672483354,0.9993093822079222,-0.02807456618626503,-0.006721243178479133,-0.023396629133484875
1372.94999999908,-0.007088584,-0.7205244,0.057188954,-2.3016162,-0.010197755,1.5677712,0.76329213,0.039999742,0.04,0.002325450217588454,-0.028367248094718356,0.02278932360122443,-0.0931574141806906,0.005612421354978092,-0.06934731759395849,0.9992707756449477,-0.02888080261789133,-0.006899380336441358,-0.024004473188643988
1372.9666666657467,-0.007284647,-0.7187916,0.05873866,-2.3001335,-0.010476728,1.5676848,0.7626766,0.03999974,0.04,0.0012224961107420995,-0.02847142413626158,0.022403143274107862,-0.09465857213412657,0.005936382657664431,-0.07009883589320152,0.9992305415324628,-0.02970017602051501,-0.007080208202333418,-0.02461899804831609
1372.9833333324134,-0.0074834446,-0.71703446,0.060310114,-2.29863,-0.0107596,1.567597,0.7620525,0.03999973,0.04,0.0007816180181086096,-0.02862286099166722,0.022180730351828437,-0.09616022450483569,0.006261978229088044,-0.0708351286946136,0.999188637685794,-0.030532601554814364,-0.007263970416802103,-0.025240073210786317
1372.99999999908,-0.0076849647,-0.7152531,0.061903197,-2.297106,-0.011046364,1.567508,0.7614197,0.039999723,0.04,0.0003953751700036534,-0.02869846218337413,0.021941621777687992,-0.09766275967548757,0.006585802344568069,-0.07155636847445239,0.9991450190396125,-0.03137812649748696,-0.0074507053547603706,-0.025867568412139448
1373.0166666657467,-0.007889192,-0.7134477,0.063517846,-2.2955613,-0.011337003,1.5674179,0.76077855,0.03999972,0.04,0.0008140822733926356,-0.02890611376597796,0.022133490433451364,-0.0991660943331941,0.006909227509843913,-0.07226250634110501,0.9990996460686906,-0.03223667900720182,-0.00764011974422498,-0.026501364536527256
1373.0333333324133,-0.008096115,-0.71161824,0.0651539,-2.293996,-0.011631482,1.5673268,0.76012874,0.03999971,0.04,0.00032316837506041196,-0.028949790738504178,0.022050854069299852,-0.10066999942203811,0.007234144980234388,-0.07295391609778407,0.9990524715082435,-0.03310838132125803,-0.007832253864882696,-0.02714129803366799
1373.04999999908,-0.008305723,-0.7097651,0.066811286,-2.2924109,-0.011929798,1.567234,0.7594706,0.03999971,0.04,-0.000549451847220439,-0.029037062868551844,0.021086443551854295,-0.1021730543658884,0.007559915102378331,-0.07362789127485402,0.9990034508615523,-0.03399310886779379,-0.008027558029856281,-0.027787263778390237
1373.0666666657467,-0.0085179955,-0.70788807,0.06848991,-2.2908049,-0.0122319395,1.5671402,0.75880396,0.039999712,0.04,0.0005020916926223862,-0.029258534034508343,0.021904533456074127,-0.10367652358560378,0.007881142591312396,-0.07429133288666837,0.9989525408762804,-0.03489096776179827,-0.008225444713050228,-0.028439119268026076
1373.0833333324133,-0.008732918,-0.7059876,0.07018962,-2.2891784,-0.012537903,1.5670455,0.7581289,0.03999971,0.04,0.00035817102623791897,-0.029306383550632698,0.021641556143947582,-0.10517894714925963,0.008205735418208316,-0.07493987739806944,0.9988996975483392,-0.035801964528410564,-0.008425801466011835,-0.029096725647370435
1373.09999999908,-0.008950479,-0.7040638,0.0719103,-2.2875328,-0.012847624,1.5669492,0.75744563,0.039999705,0.04,-0.0021931653994888833,-0.029289563714333944,0.02047191765928158,-0.1066797048788358,0.008533421405577335,-0.07556588357366611,0.9988448742722185,-0.03672595148782904,-0.00862949473327238,-0.029759930243164704
1373.1166666657466,-0.009170658,-0.7021167,0.07365184,-2.2858665,-0.013161077,1.5668519,0.7567539,0.039999705,0.04,0.0005659017100922981,-0.02959737656764022,0.021358460582154848,-0.10817977587772895,0.00885541020995904,-0.07617281418739266,0.9987880274663722,-0.03766312281456256,-0.008835551730241876,-0.030428578594979
1373.1333333324133,-0.009393438,-0.7001465,0.07541408,-2.2841804,-0.013478252,1.5667536,0.75605416,0.0399997,0.04,-0.0010643266560084186,-0.02956023313018946,0.021107429184286097,-0.1096770571729414,0.009181112917977904,-0.07676419086446591,0.9987291177475057,-0.038613269529619625,-0.009044239985362848,-0.031102516017341424
1373.14999999908,-0.009618799,-0.6981533,0.077196866,-2.2824755,-0.013799118,1.5666542,0.7553465,0.039999694,0.04,-0.0027020734851612715,-0.029543666799182466,0.020209122919112588,-0.11117275175431207,0.009507029197784159,-0.07733698422134241,0.9986680973476316,-0.039576332722636796,-0.009256099258041994,-0.03178159616529592
1373.1666666657466,-0.009846726,-0.69613725,0.07900011,-2.2807508,-0.014123649,1.5665532,0.75463027,0.03999969,0.04,-0.0013340871659384135,-0.02975427684970694,0.020308297124360664,-0.1126675394311148,0.009829430338787139,-0.07789170315646232,0.9986049106062395,-0.0405526391582047,-0.009470816431602313,-0.032465668120766636
1373.1833333324132,-0.010077199,-0.69409853,0.080823645,-2.2790065,-0.014451819,1.5664515,0.75390637,0.03999968,0.04,-0.0014041205236514642,-0.02985096666925785,0.020635999246398917,-0.11415723574717143,0.010150684704403078,-0.0784290006059851,0.9985395321949804,-0.041541789467544936,-0.009687965952655354,-0.03315457264637956
1373.1999999990799,-0.010310197,-0.69203734,0.082667276,-2.2772434,-0.014783602,1.5663487,0.7531747,0.039999668,0.04,-0.002740894072905675,-0.0297533416989626,0.019791915840827734,-0.11564530926251901,0.010474208364908892,-0.07894701478324975,0.9984719123871136,-0.042543787696577504,-0.009908059141290535,-0.03384814125622352
1373.2166666657465,-0.0105457,-0.6899539,0.084530875,-2.2754607,-0.015118984,1.5662444,0.752435,0.03999966,0.04,-0.0015258221542246986,-0.02992162301549417,0.01975854675613231,-0.1171309548342768,0.010795353339365748,-0.07944710374894724,0.9984020017604425,-0.04355880176009131,-0.010130747486004687,-0.0345462244730326
1373.2333333324132,-0.010783685,-0.6878483,0.0864143,-2.2736597,-0.015457934,1.5661392,0.7516874,0.03999965,0.04,-0.0034881537522402084,-0.029909833395551366,0.01955468970269436,-0.11861229658204311,0.011116357176112347,-0.07992891363397091,0.9983297538399878,-0.04458678399991187,-0.01035630092748911,-0.03524866410850223
1373.2499999990798,-0.011024134,-0.6857208,0.08831734,-2.2718396,-0.01580042,1.5660331,0.750932,0.039999653,0.04,-0.0022328953120487327,-0.029989685563229507,0.019610902415778675,-0.12008893694968274,0.011434945916959368,-0.08038973007082523,0.9982551311958645,-0.04562766312137054,-0.010584303494713353,-0.035955276646716314
1373.2666666657465,-0.011267026,-0.6835714,0.090239845,-2.270001,-0.016146379,1.565926,0.7501687,0.03999965,0.04,-0.0032048502641712773,-0.030018538411602513,0.019203121743349705,-0.1215607514845643,0.01175444849435571,-0.08083149014443095,0.9981780848169216,-0.04668146791402946,-0.010815027447780113,-0.036665879587398115
1373.2833333324131,-0.011512339,-0.6814005,0.09218167,-2.268144,-0.016495824,1.5658174,0.7493977,0.039999638,0.04,-0.0034855092090557704,-0.030019228413620536,0.01855273053625872,-0.12302689238092523,0.01207270127285438,-0.08125514174967113,0.9980985707100354,-0.04774810602780409,-0.011048591211269087,-0.037380344428434464
1373.2999999990798,-0.011760043,-0.6792084,0.09414262,-2.2662687,-0.016848689,1.565708,0.74861914,0.03999964,0.04,-0.003444633417104548,-0.030103089171858166,0.018702146605575898,-0.12448780495542087,0.012388996806549825,-0.0816564060521654,0.9980165515687667,-0.04882752122151056,-0.011284577907561013,-0.038098481171805566
1373.3166666657464,-0.012010118,-0.676995,0.09612249,-2.2643752,-0.01720495,1.5655977,0.747833,0.03999963,0.04,-0.0035594147169693002,-0.030077034707959305,0.01859387770732912,-0.12594241130259784,0.012705614136635093,-0.08204023192228896,0.997931982590106,-0.04991969145702976,-0.011523137459582488,-0.038820095719908354
1373.333333332413,-0.012262542,-0.6747609,0.0981211,-2.2624636,-0.017564584,1.5654858,0.7470394,0.03999962,0.04,-0.003477111197369709,-0.03007197065714312,0.017759500525782457,-0.12739086610749364,0.013021109633674102,-0.08240317191218169,0.9978448205227879,-0.05102456678956259,-0.01176424063131014,-0.03954504244720731
1373.3499999990797,-0.012517286,-0.67250603,0.100138254,-2.2605345,-0.017927565,1.5653732,0.7462385,0.039999615,0.04,-0.004768769769070147,-0.030022170524687808,0.01783614353612073,-0.12883256332995593,0.013336446559449594,-0.08274561676283368,0.997755027795247,-0.05214199299801912,-0.012007971284568214,-0.040273138704717916
1373.3666666657464,-0.012774329,-0.6702306,0.10217374,-2.2585878,-0.01829382,1.5652597,0.7454304,0.039999608,0.04,-0.004346931689802602,-0.030066270467922485,0.01777449716251489,-0.1302680052749635,0.013648758474781364,-0.08306674860624763,0.9976625632752935,-0.053271979737341386,-0.01225412236397808,-0.04100417660341397
1373.383333332413,-0.013033643,-0.66793495,0.10422738,-2.2566237,-0.018663337,1.5651454,0.744615,0.0399996,0.04,-0.00458165436330038,-0.030061553462798485,0.017412776208125536,-0.13169607906540454,0.013961844126205977,-0.08336843301458995,0.9975673827843838,-0.05441451648912518,-0.012502663967963934,-0.04173799939711708
1373.3999999990797,-0.013295205,-0.6656193,0.10629899,-2.2546427,-0.019036083,1.5650296,0.7437926,0.039999597,0.04,-0.005390965664475722,-0.029967733750474457,0.01648798847273536,-0.13311620531126386,0.014274489186257358,-0.08364924439364721,0.9974694450655209,-0.055569451134063384,-0.012753977707128392,-0.04247444306858697
1373.4166666657463,-0.013558987,-0.6632838,0.10838835,-2.2526448,-0.019411992,1.5649129,0.7429631,0.03999959,0.04,-0.005293848768550546,-0.029994416310061278,0.016699233327344132,-0.1345285856588945,0.01458319812858123,-0.08390828344127527,0.9973687104594099,-0.056736797840401726,-0.013007765808113914,-0.043213298833028504
1373.433333332413,-0.013824957,-0.66092896,0.11049524,-2.25063,-0.019791065,1.5647954,0.74212676,0.039999582,0.04,-0.004863276714539566,-0.029962500455152363,0.016430379516130245,-0.13593265979185343,0.014890348693983927,-0.08414800719721487,0.9972651485672843,-0.05791638038575193,-0.01326372235051815,-0.043954408260079646
1373.4499999990796,-0.014093091,-0.6585547,0.11261942,-2.2485988,-0.02017323,1.5646765,0.74128354,0.039999582,0.04,-0.006462341661195303,-0.029784913960517745,0.01568829065656807,-0.13732852730245207,0.015198011825474377,-0.08436669637807154,0.9971587088039017,-0.05910820861767934,-0.013522472775781662,-0.04469755989506245
1373.4666666657463,-0.014363359,-0.6561614,0.11476074,-2.2465513,-0.02055849,1.564557,0.7404336,0.039999574,0.04,-0.005489033637018359,-0.0298924685721097,0.015881296359987473,-0.1387154430337042,0.015499321702993538,-0.08456918100393743,0.9970493602627207,-0.06031219908600333,-0.013783355678544298,-0.045442611581516114
1373.483333332413,-0.014635733,-0.6537491,0.116918944,-2.2444878,-0.020946795,1.5644364,0.739577,0.039999574,0.04,-0.006683375323368601,-0.02972618324702525,0.015464892402272667,-0.14009238122446513,0.015801856204667612,-0.08474671090827465,0.9969370625239139,-0.06152824479188823,-0.014046781400864612,-0.04618935365747925
1373.4999999990796,-0.014910187,-0.65131825,0.11909379,-2.2424088,-0.021338055,1.5643151,0.7387137,0.039999574,0.04,-0.006972698886675843,-0.029638226090716868,0.01492014134560904,-0.14145979555730084,0.016101674004460328,-0.08489803073993128,0.9968217750031294,-0.06275635490855051,-0.01431266056865403,-0.046937581378349094
1373.5166666657462,-0.01518669,-0.64886916,0.12128507,-2.2403135,-0.021732256,1.5641928,0.737844,0.03999957,0.04,-0.005614933294917357,-0.029697227224945166,0.014908693725756983,-0.14281655443051078,0.016397455904555363,-0.08503139535730826,0.9967034745302847,-0.06399632728957953,-0.014580533851795604,-0.047687125991190724
1373.533333332413,-0.015465212,-0.64640206,0.12349252,-2.2382028,-0.022129385,1.5640696,0.7369679,0.039999556,0.04,-0.006652820333830078,-0.02945796982600224,0.014430979696022916,-0.14416254656945315,0.016694372983212483,-0.08514342183343059,0.9965821216128871,-0.06524809965559253,-0.01485057475463533,-0.048437803442640204
1373.5499999990795,-0.015745727,-0.643917,0.12571591,-2.236077,-0.022529347,1.5639455,0.7360854,0.03999956,0.04,-0.007588180322293248,-0.0293704137053985,0.0139818708914774,-0.14549794040079994,0.016989586563135022,-0.08523058209622292,0.9964576733382959,-0.06651166328722816,-0.015123047869698267,-0.049189402467679146
1373.5666666657462,-0.016028203,-0.6414146,0.1279551,-2.233936,-0.022932123,1.5638206,0.7351967,0.03999955,0.04,-0.006662532886392292,-0.029435432379443238,0.013767297139510859,-0.1468213140106357,0.017281642459432534,-0.08529984682781797,0.9963301030464418,-0.06778688459787849,-0.015397495706318728,-0.04994177776125385
1373.5833333324128,-0.016312597,-0.63889474,0.13020976,-2.231781,-0.023337688,1.5636947,0.7343019,0.039999537,0.04,-0.008849874644711875,-0.02905190180416961,0.013017333961351518,-0.14813270870226797,0.017573075225345673,-0.08534657190981672,0.9961993710553854,-0.06907362423405314,-0.015674562942564745,-0.050694729712143394
1373.5999999990795,-0.01659889,-0.6363581,0.13247962,-2.2296107,-0.023745982,1.5635681,0.73340124,0.039999533,0.04,-0.006199962995401265,-0.029140471862856843,0.013322662007797526,-0.1494322571986628,0.017856208511814596,-0.0853705326088263,0.9960654653374095,-0.07037173697922698,-0.01595322669061953,-0.05144805103066742
1373.6166666657462,-0.016887039,-0.6338048,0.13476442,-2.2274265,-0.024156956,1.5634407,0.73249453,0.039999526,0.04,-0.008562004541157187,-0.028769152018784383,0.01234242903160876,-0.15071942215836537,0.018143798037748265,-0.08537529015110326,0.9959283380693889,-0.07168120500843764,-0.016234167222520527,-0.05220155259640026
1373.6333333324128,-0.017177025,-0.631235,0.13706401,-2.2252283,-0.024570558,1.5633123,0.73158205,0.039999507,0.04,-0.008210041464074003,-0.028840075653649433,0.012186583579265609,-0.15199339001438586,0.01842646548356248,-0.08535765329473162,0.9957879612360432,-0.07300189887464362,-0.016517252086618844,-0.05295506964935355
1373.6499999990795,-0.01746881,-0.628649,0.13937804,-2.223016,-0.024986751,1.5631833,0.73066384,0.039999504,0.04,-0.00787184359496429,-0.02862369566205003,0.012188602889184885,-0.1532537985617139,0.018705579136759506,-0.08531753283081034,0.9956443132355174,-0.07433370133466077,-0.016802143351768502,-0.053708382459827474
1373.666666665746,-0.017762357,-0.6260473,0.14170629,-2.2207909,-0.025405493,1.5630535,0.72973996,0.039999492,0.04,-0.009413320776063827,-0.028309891561845157,0.011008853423066789,-0.15450064848605727,0.018982917037842884,-0.08525710923283464,0.9954973558678936,-0.07567650644035585,-0.017089277982804015,-0.05446133868205792
1373.6833333324128,-0.018057639,-0.62343013,0.14404848,-2.218552,-0.025826735,1.5629227,0.7288106,0.03999948,0.04,-0.008161804596973354,-0.028279327287183964,0.011057389373725357,-0.15573301570209597,0.019256336686144626,-0.08517519292893566,0.9953470716726107,-0.07703016559688641,-0.017378254582968537,-0.055213737136011264
1373.6999999990794,-0.018354619,-0.6207976,0.1464044,-2.2163002,-0.026250435,1.5627913,0.7278758,0.039999478,0.04,-0.008844864155488352,-0.028143399325472607,0.010916093128221505,-0.15695109998834467,0.019527492883268993,-0.08507116467979778,0.995193430669864,-0.07839460699817814,-0.017669061679031563,-0.05596539470539397
1373.716666665746,-0.018653262,-0.6181501,0.14877373,-2.2140355,-0.026676547,1.5626591,0.72693586,0.039999474,0.04,-0.008838611938943863,-0.0278638293294442,0.010238342030177705,-0.15815397825788452,0.019795311230072686,-0.08494830200861361,0.9950364156593046,-0.07976960938321075,-0.017961682448095644,-0.056716125523236224
1373.7333333324127,-0.018953534,-0.61548793,0.15115622,-2.2117584,-0.027105,1.5625262,0.7259906,0.039999463,0.04,-0.009504321970643659,-0.02766708181588806,0.00988110175881296,-0.15934201089131445,0.020060765885077936,-0.08480278162356686,0.9948759922453675,-0.0811551660467885,-0.01825619894377245,-0.05746573133476351
1373.7499999990794,-0.019255405,-0.6128115,0.15355161,-2.2094688,-0.027535759,1.5623926,0.72504026,0.039999455,0.04,-0.009024558742698474,-0.027512490500863906,0.00948936096820674,-0.16051363009958264,0.020322610400929052,-0.08463540146123938,0.9947121460939747,-0.08255108254386281,-0.018552355747578075,-0.05821404710352006
1373.766666665746,-0.019558834,-0.610121,0.15595964,-2.2071679,-0.02796879,1.5622584,0.724085,0.039999448,0.04,-0.010471818392021603,-0.027168216775860787,0.008901541836836557,-0.1616695219733194,0.02058201204371512,-0.08444875912046149,0.9945448493979991,-0.08395722040986327,-0.018850464661773102,-0.05896089940796385
1373.7833333324127,-0.019863788,-0.60741675,0.15838,-2.2048547,-0.028404037,1.5621235,0.7231248,0.03999944,0.04,-0.009007625191936874,-0.027104334598063162,0.008965397061344582,-0.16280887689184606,0.020836245063409257,-0.08424018336381331,0.9943740902055732,-0.08537347117991015,-0.01915000576602246,-0.05970608365730488
1373.7999999990793,-0.020170234,-0.6046991,0.16081244,-2.2025304,-0.028841425,1.5619879,0.72215986,0.03999944,0.04,-0.010323425255842622,-0.02672313234782231,0.00799876416162082,-0.16393123376031388,0.021088657568492666,-0.08401031060860528,0.9941998430646617,-0.0867996718822397,-0.01945138029467767,-0.06044942361982692
1373.816666665746,-0.020478128,-0.6019686,0.16325665,-2.2001948,-0.02928091,1.5618515,0.72119033,0.03999943,0.04,-0.0096297555727487,-0.02652635151609295,0.007623391181521555,-0.16503618688398058,0.02133631514332812,-0.08376059960773627,0.9940220998732409,-0.0882356404191278,-0.019754213301734488,-0.06119074913946284
1373.8333333324126,-0.020787444,-0.5992251,0.16571237,-2.1978483,-0.029722443,1.5617144,0.72021616,0.039999425,0.04,-0.010349564022393842,-0.02629165420185986,0.00750433787350957,-0.16612411475384115,0.02158097279830191,-0.08349038644463717,0.9938408317215869,-0.08968133552624488,-0.020058700551755862,-0.06192986188704487
1373.8499999990793,-0.021098139,-0.59646916,0.16817932,-2.1954908,-0.030165965,1.5615768,0.71923757,0.03999942,0.04,-0.00968853758600563,-0.026110404903914586,0.00725214581007716,-0.16719330892690715,0.021820821464032542,-0.0831983533457192,0.9936560363844072,-0.09113654789528272,-0.02036443467446918,-0.06266658435681394
1373.866666665746,-0.021410171,-0.5937012,0.17065717,-2.1931236,-0.030611433,1.5614387,0.7182548,0.03999941,0.04,-0.011257536479014618,-0.025582200108936748,0.006226598124303706,-0.16824381059124321,0.022059533528033966,-0.08288901962996013,0.9934676985598058,-0.09260103057456519,-0.020671840501463774,-0.06340075760661971
1373.8833333324126,-0.021723513,-0.5909214,0.17314567,-2.1907463,-0.031058813,1.5613,0.7172679,0.039999403,0.04,-0.010598351583945842,-0.02542267217662264,0.006179947066486946,-0.16927643312206028,0.02229222452987692,-0.08256106244794717,0.9932758048293278,-0.09407470220053454,-0.020980605688042435,-0.06413220822250583
1373.8999999990792,-0.022038123,-0.58813,0.17564459,-2.1883585,-0.031508047,1.5611607,0.7162769,0.039999396,0.04,-0.00972332616662186,-0.02538415617021339,0.006004611351939637,-0.17029055948893806,0.02252001554409426,-0.08221254241941746,0.9930803439347107,-0.09555744595684322,-0.021290502756969948,-0.06486077015482677
1373.9166666657459,-0.02235396,-0.58532745,0.17815349,-2.1859617,-0.031959068,1.5610207,0.7152819,0.039999392,0.04,-0.011509983627799869,-0.024617537075058427,0.005024935232511574,-0.17128420936120428,0.02274664208329149,-0.08184543987607418,0.9928813051432172,-0.09704903839118052,-0.021601931116828357,-0.06558623801128204
1373.9333333324125,-0.022670994,-0.58251417,0.18067218,-2.1835558,-0.032411844,1.5608802,0.71428317,0.039999392,0.04,-0.01104708834629431,-0.024523020427474895,0.004648874900636812,-0.17225850169674728,0.022966404258440022,-0.08145881397080812,0.9926786820679407,-0.09854930488571,-0.021914659984925863,-0.06630849381598539
1373.9499999990792,-0.022989184,-0.5796904,0.18320036,-2.1811407,-0.032866266,1.5607392,0.7132806,0.03999939,0.04,-0.010364452046607298,-0.024330091798002718,0.004603375583323022,-0.17321298183393,0.023182304767317346,-0.08104887585247018,0.9924724685576048,-0.10005816793834912,-0.022228378023943715,-0.0670273182696426
1373.9666666657458,-0.02330849,-0.57685643,0.18573767,-2.178717,-0.03332233,1.5605978,0.71227443,0.039999377,0.04,-0.01117540223680713,-0.023817234748249594,0.004068586490513226,-0.17414600308426104,0.023394538234469804,-0.08062181066815788,0.9922626597120029,-0.10157540629881945,-0.02254321082481981,-0.0677425613790875
1373.9833333324125,-0.023628876,-0.57401264,0.18828389,-2.1762848,-0.033779964,1.560456,0.7112648,0.039999366,0.04,-0.011164336599200908,-0.023604353614328777,0.0036168161289928946,-0.175058323710793,0.023604530936946304,-0.08017647257239609,0.992049251944021,-0.10310084509941038,-0.022859077217077906,-0.06845407252953914
1373.9999999990791,-0.023950305,-0.5711593,0.19083866,-2.1738446,-0.034239125,1.5603136,0.7102518,0.03999936,0.04,-0.011301283759612701,-0.023121570480483244,0.002959445107375558,-0.17594938219670309,0.023808243119296427,-0.07971224758518987,0.9918322432095711,-0.10463427267526748,-0.023176104128153588,-0.06916168382152771
1374.0166666657458,-0.024272734,-0.5682969,0.1934017,-2.1713965,-0.034699768,1.5601707,0.70923555,0.039999355,0.04,-0.011043188593973241,-0.022812352690010362,0.0026298856072859422,-0.17681873069456605,0.024007418948928105,-0.07923071129067348,0.991611633079875,-0.10617554676621792,-0.023494034897567333,-0.06986524696721458
1374.0333333324124,-0.024596123,-0.56542575,0.19597268,-2.1689413,-0.035161804,1.5600274,0.7082163,0.039999347,0.04,-0.011839473614294604,-0.022391676349048373,0.0020811026713918324,-0.17766641879817424,0.024202322983958913,-0.07873043988718817,0.991387428661169,-0.10772439730850186,-0.023812990992985877,-0.07056459435923525
1374.049999999079,-0.02492043,-0.5625461,0.19855131,-2.1664786,-0.03562519,1.5598837,0.70719403,0.039999336,0.04,-0.01114766758663066,-0.02212497502057653,0.001955249472329612,-0.17849220748234995,0.02439198834672393,-0.07821248080550884,0.9911596275325981,-0.10928073942752208,-0.024132718002583077,-0.07125955838638764
1374.0666666657457,-0.025245626,-0.5596584,0.2011373,-2.1640089,-0.036089867,1.5597395,0.70616895,0.039999332,0.04,-0.01092518817333854,-0.021741666448943375,0.0012354596497843318,-0.17929519057604085,0.02457696466210871,-0.07767560805155871,0.9909282396745867,-0.11084431723090625,-0.024453161173129727,-0.07195001085253672
1374.0833333324124,-0.025571655,-0.55676305,0.2037303,-2.1615329,-0.036555786,1.5595949,0.7051411,0.03999932,0.04,-0.01205106280246504,-0.021160246219931178,0.000673702347109284,-0.18007548713899,0.024759457786552752,-0.07712357943664098,0.990693263843874,-0.11241495505647511,-0.024774507814399084,-0.072635794320549
1374.099999999079,-0.025898498,-0.5538602,0.20633005,-2.1590505,-0.037022896,1.55945,0.7041107,0.03999931,0.04,-0.011393372501045107,-0.020957125607101723,0.0006701341729531407,-0.18083329704664658,0.024933716313409716,-0.07655422509629806,0.9904547091664848,-0.11399249625486008,-0.025096467640869296,-0.07331675933557458
1374.1166666657457,-0.026226101,-0.55095035,0.20893621,-2.156562,-0.037491143,1.559305,0.7030777,0.0399993,0.04,-0.011472742149498671,-0.020490776610682104,1.912004294890579e-05,-0.1815670131609937,0.02510381959396584,-0.07596845404415445,0.9902125812789027,-0.1155767638656077,-0.025418991010607142,-0.07399277280470615
1374.1333333324123,-0.026554424,-0.5480339,0.21154845,-2.1540678,-0.037960477,1.5591594,0.7020423,0.039999295,0.04,-0.011045900260064911,-0.02004166177715927,-0.00045705451283684084,-0.18227652946845535,0.025271147807796518,-0.07536678210295825,0.989966897567708,-0.11716751052601483,-0.025741992753544985,-0.07466368599513368
1374.149999999079,-0.02688343,-0.5451112,0.21416646,-2.1515682,-0.038430817,1.5590136,0.7010047,0.039999284,0.04,-0.011683192866751568,-0.019596027003376815,-0.0009441526744424777,-0.1829624774871223,0.025432953024260553,-0.07474907656657487,0.9897176697809257,-0.11876451847991872,-0.02606550826097813,-0.07532936049605522
1374.1666666657457,-0.027213078,-0.5421824,0.21678996,-2.1490636,-0.03890211,1.5588676,0.69996506,0.039999273,0.04,-0.011817046401407794,-0.01919348497051998,-0.0012606990369645743,-0.183623840937431,0.02558997341647644,-0.07411595199689458,0.9894649118925037,-0.12036757299085724,-0.026389540725895014,-0.07598965486253188
1374.1833333324123,-0.027543318,-0.5392479,0.21941864,-2.1465538,-0.0393743,1.5587212,0.69892335,0.03999927,0.04,-0.010952751065707034,-0.018909398258415422,-0.0015384683283325984,-0.18426098016485384,0.025741168080237797,-0.07346582047611598,0.9892086317426582,-0.12197657643827628,-0.02671383534281445,-0.07664443024442491
1374.199999999079,-0.027874123,-0.5363081,0.22205208,-2.1440399,-0.039847318,1.5585743,0.6978798,0.039999265,0.04,-0.012274008043933193,-0.01801523746420841,-0.0025577690215827786,-0.18487243522943317,0.02588923822480608,-0.07280119178850294,0.9889488515373459,-0.12359118175625779,-0.027038781437588727,-0.07729355169369832
1374.2166666657456,-0.028205456,-0.53336346,0.2246901,-2.141522,-0.0403211,1.5584272,0.69683456,0.039999258,0.04,-0.011711614121101555,-0.017876168288832872,-0.00270499990067119,-0.18545994331925159,0.02602759989640671,-0.07212236857658332,0.9886855894636712,-0.12521122427837278,-0.027364057043523314,-0.07793691605204016
1374.2333333324123,-0.028537259,-0.5304142,0.22733228,-2.1390004,-0.040795624,1.55828,0.69578767,0.039999243,0.04,-0.012004644245267038,-0.01725069015354741,-0.0030902485486539177,-0.1860219365945309,0.02616071770532584,-0.07143089635686695,0.9884188595179596,-0.12683653035592005,-0.027689671042733132,-0.07857439044646083
1374.249999999079,-0.0288695,-0.5274609,0.22997838,-2.1364746,-0.04127085,1.5581326,0.69473934,0.03999924,0.04,-0.010138069984910736,-0.01712583129699352,-0.003106370973449124,-0.18655858705272682,0.026286918706464477,-0.07072548046940512,0.9881487000781989,-0.1284668677618561,-0.02801500162121027,-0.07920587165978966
1374.2666666657456,-0.029202132,-0.52450377,0.23262806,-2.1339462,-0.04174666,1.5579851,0.6936897,0.03999923,0.04,-0.012393148506029128,-0.016259286250674965,-0.0043107618492799205,-0.1870684645244397,0.026412181134626178,-0.07000537777608062,0.9878751182803758,-0.13010198553890287,-0.028340739641435894,-0.07983123773276407
1374.2833333324122,-0.029535115,-0.52154315,0.23528099,-2.131415,-0.042223033,1.5578371,0.69263875,0.03999922,0.04,-0.011636341967991015,-0.01585603538722391,-0.004486423340233081,-0.18755294883739748,0.026528746815743638,-0.06927225512505696,0.9875981344042043,-0.13174173334176328,-0.02866668645340331,-0.08045036796202382
1374.2999999990789,-0.029868415,-0.51857936,0.23793681,-2.1288807,-0.0426999,1.5576891,0.6915867,0.039999213,0.04,-0.011014183118551735,-0.01542657427245353,-0.004578211174366409,-0.1880105431279812,0.026638684413605253,-0.0685262519868144,0.9873177880033924,-0.13338586264150223,-0.02899251925408121,-0.08106312951503986
1374.3166666657455,-0.030201996,-0.51561284,0.2405952,-2.1263447,-0.043177217,1.5575409,0.69053376,0.0399992,0.04,-0.011949723563664527,-0.014729738719893026,-0.0053599419079120025,-0.1884416097511308,0.026744191024344402,-0.06776922959162796,0.9870341097424138,-0.13503405171607658,-0.0293184755325004,-0.08166944394686841
1374.3333333324122,-0.030535799,-0.5126439,0.2432559,-2.123806,-0.04365491,1.5573926,0.68947995,0.039999187,0.04,-0.010288638004563033,-0.014602587088019536,-0.0052576082801403246,-0.18884704877722092,0.026840718381687174,-0.06699784319038671,0.9867471261822042,-0.13668621770083278,-0.029644032946325023,-0.08226918118274368
1374.3499999990788,-0.030869797,-0.509673,0.2459185,-2.1212652,-0.044132926,1.5572442,0.6884255,0.03999918,0.04,-0.010252765270379882,-0.01392153739687707,-0.00584802757619407,-0.18922453599288125,0.02693435655106348,-0.06621532349649863,0.9864568824466363,-0.1383420341784977,-0.029969135379989784,-0.08286224458457693
1374.3666666657455,-0.03120394,-0.50670034,0.24858281,-2.1187236,-0.044611186,1.5570958,0.68737036,0.03999917,0.04,-0.012344815030607137,-0.013296118812106128,-0.0066262568716002335,-0.1895752957310913,0.027025627801459895,-0.06542229342353445,0.9861633744786674,-0.14000138733103948,-0.030294358385271915,-0.08344856039654883
1374.3833333324121,-0.031538185,-0.5037264,0.2512484,-2.116181,-0.045089647,1.5569474,0.68631476,0.03999917,0.04,-0.01070891985668343,-0.01280748289073097,-0.006725196273271727,-0.18989816827573866,0.027106627067672015,-0.06461752190437062,0.9858666625503126,-0.14166398107294645,-0.030619171454985626,-0.08402801007926987
1374.3999999990788,-0.031872503,-0.50075173,0.25391486,-2.1136377,-0.045568228,1.5567989,0.6852589,0.03999916,0.04,-0.011129098402440363,-0.012071674564761992,-0.007392659333893548,-0.19019355795813653,0.02718281649377888,-0.0638020577455175,0.9855667925630385,-0.1433294881445364,-0.03094366780914536,-0.08460050028071406
1374.4166666657454,-0.032206837,-0.49777648,0.25658205,-2.1110935,-0.04604689,1.5566504,0.68420297,0.039999146,0.04,-0.009995692999309469,-0.011958828021352286,-0.007444968475112113,-0.19046209607436754,0.027253105477568835,-0.06297815072693812,0.9852637953135953,-0.14499776926080177,-0.031267540465833805,-0.08516596425132714
1374.433333332412,-0.032541163,-0.49480098,0.25924957,-2.108549,-0.04652561,1.5565019,0.68314695,0.039999127,0.04,-0.010564157145664943,-0.011164623622905712,-0.007913371947720904,-0.19070327234236062,0.027317763032613785,-0.06214635756408617,0.9849577053551314,-0.14666858651595618,-0.03159090309880744,-0.08572432112514776
1374.4499999990787,-0.032875407,-0.4918256,0.26191708,-2.1060054,-0.04700431,1.5563533,0.682091,0.039999116,0.04,-0.011525006057699905,-0.010459974456189514,-0.00864068014818642,-0.19091600738941392,0.0273764285360956,-0.061303562983529354,0.984648551604439,-0.14834171054927064,-0.03191402987560783,-0.08627549728454575
1374.4666666657454,-0.03320956,-0.48885074,0.26458424,-2.1034625,-0.04748292,1.5562048,0.68103516,0.039999116,0.04,-0.010862074607564942,-0.009906597435033193,-0.008878781580956563,-0.19110127371972613,0.027426945893367263,-0.06044981847977766,0.9843363815146924,-0.15001691517563223,-0.03223671001054469,-0.0868193971151909
1374.483333332412,-0.033543568,-0.48587686,0.26725084,-2.10092,-0.04796137,1.5560563,0.67997974,0.039999112,0.04,-0.009705258055414667,-0.009699333337748195,-0.009098710449872982,-0.19125800357515343,0.027470982718734733,-0.059587947679116626,0.9840212514260889,-0.15169393903447237,-0.03255855916386417,-0.08735597190354417
1374.4999999990787,-0.03387739,-0.4829042,0.26991636,-2.0983784,-0.048439573,1.5559077,0.6789248,0.03999911,0.04,-0.009994977727068033,-0.008824189625050716,-0.009446845070004706,-0.19138674120178253,0.027508744585087258,-0.05871876174828561,0.9837032142523886,-0.15337250281506154,-0.03287967625338636,-0.08788508712651893
1374.5166666657453,-0.034211,-0.47993323,0.27258062,-2.0958388,-0.04891752,1.5557594,0.67787045,0.039999098,0.04,-0.01072474093393172,-0.008259423681789002,-0.01006736740312153,-0.1914873363667942,0.02754190433576368,-0.05784354315400346,0.9833822967754,-0.15505242012291398,-0.03320016089979713,-0.0884067572021169
1374.533333332412,-0.034544334,-0.47696432,0.2752433,-2.0933006,-0.049395133,1.5556113,0.6768168,0.039999083,0.04,-0.009331954864655323,-0.007927526551759767,-0.010142219142128539,-0.1915601963332996,0.027566232003696345,-0.05696141662331334,0.9830585573396505,-0.15673347226666118,-0.0335196356145962,-0.08892089484921707
1374.5499999990786,-0.03487735,-0.47399774,0.27790418,-2.090764,-0.04987238,1.5554634,0.675764,0.039999068,0.04,-0.00915150497102779,-0.007529121238919467,-0.010266016141979861,-0.19160403820445535,0.027585177873076763,-0.056072597133225335,0.9827320379923592,-0.158415479667854,-0.03383794538815814,-0.08942746086575452
1374.5666666657453,-0.03521,-0.47103387,0.2805628,-2.0882306,-0.050349224,1.5553157,0.67471224,0.03999906,0.04,-0.010847908440525522,-0.00633348208108897,-0.011342720449891708,-0.19161834768118235,0.027600694773432743,-0.0551769299364311,0.9824027835483006,-0.16009808774307713,-0.03415570559976219,-0.08992641965820244
1374.583333332412,-0.035542276,-0.46807298,0.2832187,-2.0856996,-0.050825533,1.5551682,0.67366165,0.039999053,0.04,-0.009131938034356857,-0.0059288603348306435,-0.011106412223305107,-0.19160436209653003,0.027607636724541994,-0.05427412899850978,0.9820708805528168,-0.16178099789765246,-0.034472405964513196,-0.0904176283501877
1374.5999999990786,-0.035874106,-0.46511567,0.28587183,-2.0831711,-0.05130127,1.5550207,0.6726122,0.03999904,0.04,-0.008569505514599562,-0.0056917267526601645,-0.011630789297667476,-0.19156244829100041,0.027608059667693155,-0.0533654553555266,0.9817363503560991,-0.16346415392059657,-0.034787858693215046,-0.09090112023540224
1374.6166666657452,-0.03620548,-0.4621622,0.28852162,-2.0806465,-0.05177638,1.5548735,0.67156404,0.039999038,0.04,-0.00991554880582779,-0.004454742782955545,-0.012198526383211394,-0.19149087168081655,0.02760450373446252,-0.052452080447716334,0.9813992608261637,-0.16514716841565588,-0.035102444032824774,-0.091376813454359
1374.633333332412,-0.036536332,-0.45921287,0.29116786,-2.0781245,-0.05225079,1.5547265,0.67051744,0.03999903,0.04,-0.0073921976797786115,-0.004556760717305819,-0.011798417156660967,-0.19139090680877377,0.027592612074101325,-0.05153407551338833,0.9810596893006724,-0.16682984184811708,-0.03541539446910476,-0.09184464999551249
1374.6499999990785,-0.03686663,-0.4562681,0.29381025,-2.0756075,-0.052724488,1.5545796,0.66947246,0.03999902,0.04,-0.010577129042821376,-0.0032218449636689517,-0.013286750375129941,-0.19126270216762878,0.027576750888080356,-0.050614333092492594,0.9807176505581314,-0.16851191182503322,-0.03572773563296891,-0.09230468223959144
1374.6666666657452,-0.037196327,-0.45332825,0.2964485,-2.0730944,-0.0531974,1.5544331,0.66842926,0.03999901,0.04,-0.007888175286963062,-0.0032150252342877383,-0.012702573269041117,-0.19110597755519057,0.0275498735149277,-0.04968947488844304,0.980373233910212,-0.17019316773317136,-0.036038556796447414,-0.09275683432184707
1374.6833333324118,-0.037525382,-0.45039368,0.29908225,-2.0705857,-0.053669453,1.5542867,0.6673879,0.039999,0.04,-0.008433118125417138,-0.0023576762677668395,-0.013392621100116742,-0.19092057268025198,0.027518942249649486,-0.048761963367380895,0.9800264892798537,-0.17187335892149128,-0.0363481415937791,-0.09320108049549462
1374.6999999990785,-0.037853766,-0.44746467,0.30171117,-2.068082,-0.054140605,1.5541404,0.66634864,0.039998997,0.04,-0.008606822439549688,-0.0016408353068764203,-0.013748331577190243,-0.19070608927522698,0.02748084702599611,-0.04783044672388452,0.9796774857143205,-0.1735521752670621,-0.036656557277994245,-0.09363740306663589
1374.7166666657452,-0.038181428,-0.44454166,0.30433497,-2.0655835,-0.054610778,1.5539945,0.6653114,0.039998982,0.04,-0.0077811351330225875,-0.0012392819182860393,-0.013778713280143684,-0.19046411787058243,0.027433622361626213,-0.046896973900851305,0.9793262778438305,-0.17522949241023095,-0.03696347153153626,-0.09406576575215152
1374.7333333324118,-0.038508322,-0.441625,0.3069533,-2.0630898,-0.055079937,1.553849,0.6642765,0.039998967,0.04,-0.007082433158545065,-0.000694493892544612,-0.013923201221355264,-0.19019254100606542,0.027381770347754734,-0.04596095172791266,0.9789729503475149,-0.17690498525186393,-0.03726868232503179,-0.09448615770934977
1374.7499999990785,-0.03883441,-0.438715,0.30956596,-2.060603,-0.055548012,1.5537038,0.6632439,0.039998956,0.04,-0.009175905127123407,0.0002738950017289188,-0.014912704260261478,-0.1898927239752354,0.027324904182800376,-0.045023759292573864,0.978617526505984,-0.17857847381427758,-0.037572850205056914,-0.09489861133305172
1374.766666665745,-0.03915966,-0.43581203,0.31217253,-2.0581217,-0.05601496,1.553559,0.6622138,0.039998945,0.04,-0.006939934319016849,0.0005936661786665187,-0.014529893261960858,-0.1895642967714968,0.02725785485697947,-0.044084409439215266,0.9782601066684005,-0.18024968343069958,-0.03787531953597932,-0.0953030717989189
1374.7833333324118,-0.039484028,-0.43291646,0.31477278,-2.055647,-0.056480702,1.5534145,0.6611864,0.039998934,0.04,-0.007341009346206739,0.0012371007660771927,-0.015084435582224387,-0.1892074886615426,0.027184126653098502,-0.04314502551462846,0.977900751010126,-0.18191836267039624,-0.038176225045032014,-0.09569956289589253
1374.7999999990784,-0.03980746,-0.43002865,0.3173664,-2.0531785,-0.05694521,1.5532705,0.66016173,0.03999892,0.04,-0.006641048119626625,0.001749179467969153,-0.015104283318478906,-0.18882236169262703,0.02710549583124716,-0.042204729200026346,0.9775395284681689,-0.18358431452831853,-0.03847533316245223,-0.09608807667674388
1374.816666665745,-0.040129945,-0.42714897,0.3199529,-2.050717,-0.057408404,1.5531268,0.65914,0.03999891,0.04,-0.006676608420730368,0.002695783392264728,-0.015515718996006456,-0.18840803471126982,0.02702115631779313,-0.04125959567563012,0.977176527596905,-0.18524718567572496,-0.03877273529453646,-0.09646859131685596
1374.8333333324117,-0.040451434,-0.4242777,0.32253206,-2.048263,-0.057870228,1.5529838,0.6581212,0.0399989,0.04,-0.006819789763912176,0.003258466640709834,-0.015659322900773986,-0.18796620817861967,0.02693098872317899,-0.040319349905161936,0.9768118079142141,-0.18690679730085752,-0.03906840811949879,-0.09684110970609998
1374.8499999990784,-0.04077188,-0.42141512,0.32510364,-2.045817,-0.058330636,1.5528411,0.6571056,0.03999889,0.04,-0.007044358406393947,0.003852322142333664,-0.01618545785917469,-0.1874971555386344,0.02683251845954942,-0.0393797094463015,0.9764454277084733,-0.18856291482724666,-0.03936254489090503,-0.0972056784286836
1374.866666665745,-0.04109125,-0.41856167,0.3276674,-2.0433786,-0.058789596,1.5526986,0.65609336,0.03999888,0.04,-0.006277978412927432,0.004369265276432666,-0.01642056112842738,-0.18700019682408248,0.0267249591723663,-0.03844228073538118,0.9760774660895496,-0.19021528091006493,-0.03965498520318157,-0.0975623351967593
1374.8833333324117,-0.0414095,-0.41571775,0.33022282,-2.040948,-0.05924701,1.5525566,0.6550844,0.03999887,0.04,-0.0050023775128194,0.004978280948125802,-0.0162061764368282,-0.18647572880788943,0.026611179669862796,-0.03750489812299514,0.9757080150069152,-0.19186368966475734,-0.03994528608317512,-0.09791102164324714
1374.8999999990783,-0.041726585,-0.41288358,0.33276975,-2.0385256,-0.059702825,1.5524154,0.6540788,0.039998863,0.04,-0.005626682164194818,0.005495084245132897,-0.01644497147417212,-0.1859235225935748,0.026492453226505466,-0.03657000572042289,0.9753371277797003,-0.19350797174257037,-0.04023357156662427,-0.09825177741656613
1374.916666665745,-0.04204248,-0.41005957,0.33530784,-2.0361123,-0.060157,1.5522746,0.65307695,0.039998855,0.04,-0.006034475593219568,0.006444686866069471,-0.017072087145963977,-0.18534279223807118,0.026368831408253975,-0.03563839450415509,0.9749648999070926,-0.19514771749341764,-0.040520090672396564,-0.09858465680907467
1374.9333333324116,-0.042357143,-0.4072462,0.3378368,-2.0337083,-0.06060949,1.5521342,0.6520788,0.039998848,0.04,-0.005566122168976229,0.007036741140376002,-0.017440763383702595,-0.18473598997679097,0.026236088652964142,-0.03471022931749814,0.9745913891107636,-0.19678277894373786,-0.04080478808971881,-0.0989097136346337
1374.9499999990783,-0.04267054,-0.4044436,0.34035635,-2.031313,-0.06106023,1.5519944,0.65108454,0.03999883,0.04,-0.003926349724947542,0.007208213919152051,-0.016758185456722252,-0.18410217343451665,0.026095162265385108,-0.03378407047138206,0.9742166999219944,-0.19841294243031724,-0.041087059011269696,-0.09922690890603666
1374.966666665745,-0.042982616,-0.40165213,0.34286627,-2.028927,-0.061509192,1.5518552,0.65009433,0.039998814,0.04,-0.004787148968232735,0.007983220168727989,-0.017537090570129976,-0.18344128892525666,0.025951687991118425,-0.03286330499665431,0.9738408890240647,-0.20003796189619358,-0.04136729510373299,-0.09953634291572638
1374.9833333324116,-0.043293346,-0.39887217,0.34536618,-2.0265515,-0.0619563,1.5517166,0.64910805,0.039998803,0.04,-0.005183587505630527,0.008883799472308995,-0.017835587363213,-0.1827536074049258,0.025801785408800074,-0.0319453839945103,0.9734640180383961,-0.20165766652107245,-0.041645624507274666,-0.0998380342215141
1374.9999999990782,-0.043602694,-0.39610407,0.3478557,-2.0241857,-0.06240151,1.5515785,0.64812607,0.039998792,0.04,-0.003660340120803518,0.009373889541236524,-0.017617590282825724,-0.18203877267154375,0.02564329442299248,-0.031031368750423442,0.9730862172763848,-0.20327168078068894,-0.041921616424361596,-0.10013199097041184
1375.0166666657449,-0.043910634,-0.39334804,0.35033464,-2.0218303,-0.062844776,1.5514411,0.6471483,0.039998785,0.04,-0.0043367686455964005,0.009954700340392142,-0.017993475546540516,-0.18129794400908503,0.025480666524691546,-0.030122614164896585,0.9727075233897332,-0.20487991357027588,-0.042195527830110005,-0.10041828711736903
1375.0333333324115,-0.044217095,-0.3906045,0.35280266,-2.0194857,-0.06328603,1.5513042,0.64617497,0.039998773,0.04,-0.0038961642720103384,0.010646003380554436,-0.018175966623990014,-0.18053068161267002,0.025310243454542535,-0.029218576630294427,0.9723280349933995,-0.20648207423510312,-0.04246726485848696,-0.1006969552711642
1375.0499999990782,-0.044522077,-0.38787368,0.35525954,-2.0171525,-0.063725196,1.551168,0.6452063,0.039998766,0.04,-0.0045210763726766245,0.011339271318311361,-0.018529611003970103,-0.17973762247687688,0.025134395196377595,-0.02831873859957536,0.9719478320235191,-0.20807788669379146,-0.04273705892925193,-0.10096805776038416
1375.0666666657448,-0.04482553,-0.38515598,0.35770515,-2.0148306,-0.06416224,1.5510323,0.64424217,0.03999876,0.04,-0.0033929297971191374,0.011491512885064559,-0.018538097218101512,-0.17892007598153922,0.024948136254594848,-0.027424203031126887,0.9715669694469742,-0.20966729674343046,-0.04300460696054214,-0.10123167654491294
1375.0833333324115,-0.04512741,-0.3824517,0.36013886,-2.0125198,-0.06459713,1.5508975,0.64328295,0.039998747,0.04,-0.0025812741102582137,0.01246219708588292,-0.018241048240486002,-0.1780756175905771,0.02475628385634763,-0.02653752511042072,0.9711855963700603,-0.21124986281118502,-0.043269617254479205,-0.10148779773074475
1375.0999999990781,-0.04542769,-0.37976122,0.3625606,-2.0102208,-0.06502983,1.5507634,0.64232856,0.03999874,0.04,-0.0027362276062925517,0.012904443778949393,-0.018649008042825876,-0.17720716673237366,0.024560112581056365,-0.025656947733945074,0.9708037510905071,-0.21282551282591392,-0.043532233657523046,-0.10173653518659932
1375.1166666657448,-0.04572634,-0.37708467,0.36497006,-2.0079343,-0.06546027,1.5506297,0.6413792,0.039998733,0.04,-0.0038699912194850583,0.013853596330304363,-0.019216010823952523,-0.17631322802842575,0.02435798499351169,-0.02478309987430062,0.9704215073150085,-0.2143939631393669,-0.04379295704008687,-0.10197795655703126
1375.1333333324114,-0.04602332,-0.3744226,0.3673671,-2.005659,-0.06588836,1.5504969,0.640435,0.03999872,0.04,-0.0005097942130438682,0.013469910700636412,-0.01842791541422084,-0.17539469921941853,0.024146723028934728,-0.02391474720013726,0.9700389896085819,-0.215955063585785,-0.04405063612421035,-0.10221208640798463
1375.149999999078,-0.046318587,-0.37177518,0.36975113,-2.003397,-0.066314094,1.550365,0.6394959,0.039998714,0.04,-0.0031193962059417046,0.015165606867117987,-0.019148072360497537,-0.17445124000840237,0.02393425588256979,-0.023055824461831825,0.9696562575111003,-0.21750852728537487,-0.04430615332995602,-0.10243899455196087
1375.1666666657447,-0.04661213,-0.36914268,0.37212208,-2.0011477,-0.06673743,1.5502338,0.6385621,0.039998703,0.04,-0.0021271999220084936,0.015317515452129005,-0.01907069455733268,-0.17348418716277006,0.023713629703056897,-0.022203290742368945,0.9692733882340625,-0.21905421525483385,-0.0445592464830436,-0.10265877065897802
1375.1833333324114,-0.04690389,-0.36652547,0.3744797,-1.9989119,-0.06715832,1.5501033,0.63763374,0.0399987,0.04,-0.0022389252336108,0.01597388074464634,-0.019512407678612398,-0.1724926042335376,0.0234866813936938,-0.021359515389591674,0.9688904678756585,-0.22059185526820982,-0.044810091318651095,-0.10287152358661197
1375.199999999078,-0.04719384,-0.36392376,0.37682378,-1.996689,-0.06757668,1.5499735,0.63671094,0.039998684,0.04,-0.001132392169633789,0.01622110319425829,-0.01918285958919519,-0.17147800254455553,0.023252252494222674,-0.020522570463201356,0.9685075893995099,-0.22212129454405677,-0.045058355440492553,-0.10307727388042802
1375.2166666657447,-0.047481954,-0.361338,0.37915394,-1.9944794,-0.06799251,1.5498445,0.63579386,0.03999868,0.04,-0.0008097072290658147,0.01699404635553403,-0.019268448069098554,-0.17043936445441915,0.023013315993011593,-0.019695378940206947,0.9681248588056689,-0.22364224072461866,-0.04530393949991631,-0.10327612982661186
1375.2333333324113,-0.0477682,-0.35876825,0.38146988,-1.992284,-0.06840571,1.5497162,0.63488245,0.039998673,0.04,-0.0018586584053847943,0.01785160197904645,-0.019607437370727787,-0.1693782764690494,0.02276935445677889,-0.018877062352504748,0.9677423329090069,-0.22515454089294296,-0.04554728787970436,-0.10346813218534567
1375.249999999078,-0.048052546,-0.356215,0.38377154,-1.9901028,-0.06881629,1.549589,0.6339768,0.03999866,0.04,-0.0007673292795162823,0.017887587979426023,-0.019411728540985607,-0.16829442385058943,0.022517903504048562,-0.018065271087364006,0.9673600880890644,-0.22665809419221128,-0.04578794971146964,-0.10365342237809706
1375.2666666657447,-0.048334952,-0.3536785,0.3860585,-1.9879355,-0.069224134,1.5494626,0.63307714,0.039998643,0.04,-0.00023870635068590218,0.01866114933669616,-0.019547554228482866,-0.16718660957182804,0.022262833237504574,-0.017260504669725698,0.9669782423796981,-0.22815257749668721,-0.046025976167543885,-0.10383202619477522
1375.2833333324113,-0.048615396,-0.35115898,0.38833052,-1.9857833,-0.06962924,1.549337,0.63218355,0.039998632,0.04,-0.0011798190266754105,0.019484430737548575,-0.019750101406112996,-0.1660574423052063,0.022001538362504798,-0.01646938125268574,0.9665968712562305,-0.22963777434266833,-0.04626161187112471,-0.10400405924624886
1375.299999999078,-0.048893843,-0.34865677,0.3905875,-1.9836456,-0.070031606,1.5492121,0.6312961,0.039998624,0.04,0.0003465052217155318,0.019544721663000697,-0.019748392453533548,-0.16490714371845616,0.021732890042470875,-0.015687701587455097,0.9662160441445327,-0.23111359004169743,-0.046494585367650616,-0.1041696600129757
1375.3166666657446,-0.04917026,-0.34617206,0.3928291,-1.9815229,-0.070431136,1.5490882,0.6304148,0.039998617,0.04,-0.0002331743450323387,0.02031395807566838,-0.019588434267037158,-0.16373479305055216,0.02145876692973394,-0.014916577577903191,0.9658358503954189,-0.23257983835972446,-0.046724944345505524,-0.10432884766655812
1375.3333333324113,-0.04944462,-0.34370515,0.39505503,-1.9794153,-0.07082778,1.5489652,0.6295399,0.039998606,0.04,0.0005276312179169906,0.02077927656560785,-0.019640017367827944,-0.16254060185546337,0.021179997196140585,-0.014154439268092674,0.9654564044321056,-0.23403622496450394,-0.04695260160523874,-0.10448171968289191
1375.349999999078,-0.049716882,-0.34125635,0.39726502,-1.9773232,-0.07122152,1.5488429,0.6286714,0.039998595,0.04,0.00040566890666671185,0.02152988918336929,-0.01989171497238651,-0.16132585334939414,0.02089564581581274,-0.013403685871012753,0.965077772864899,-0.2354826018888151,-0.04717771101477094,-0.10462839056970552
1375.3666666657446,-0.049987055,-0.33882594,0.39945894,-1.9752469,-0.07161232,1.5487218,0.6278095,0.039998587,0.04,0.0004864216333722027,0.02183575711265373,-0.019681472992960636,-0.16009079971933293,0.020605366476253842,-0.012664200899469003,0.9647000514954314,-0.2369187733157623,-0.04740008845168536,-0.10476897016788327
1375.3833333324112,-0.050255068,-0.33641398,0.4016365,-1.9731865,-0.07200011,1.5486016,0.6269542,0.03999858,0.04,0.0007121072227889158,0.022363654196599914,-0.019644920500327956,-0.1588357612378146,0.020311084674817254,-0.011934214837310927,0.9643233099329096,-0.23834462459222122,-0.047619838984965364,-0.10490350224409382
1375.3999999990779,-0.050520908,-0.33402094,0.40379754,-1.9711423,-0.07238484,1.5484824,0.6261056,0.039998572,0.04,0.000993620990685784,0.022863669331996128,-0.019873071614728843,-0.1575607363144247,0.02001128470121627,-0.011216471196122617,0.9639476406108757,-0.23975993488023348,-0.04783691915978628,-0.10503213295107511
1375.4166666657445,-0.050784543,-0.331647,0.4059418,-1.9691143,-0.072766535,1.5483639,0.6252638,0.039998565,0.04,0.001382758782875193,0.023356871844426585,-0.019901305813507797,-0.15626597224638378,0.019705521349969765,-0.01051029835861737,0.9635731187303536,-0.24116454933379242,-0.04805137064980852,-0.10515498458733899
1375.4333333324112,-0.051045947,-0.32929257,0.40806898,-1.967103,-0.07314511,1.5482466,0.6244288,0.039998557,0.04,0.0014751854088279615,0.02399489556628165,-0.01971790500436832,-0.15495225220346606,0.019393786140120224,-0.009815171663899579,0.963199842044859,-0.2425582904362162,-0.04826302793212439,-0.10527212432663262
1375.4499999990778,-0.051305097,-0.3269577,0.4101789,-1.9651085,-0.07352053,1.5481303,0.6236008,0.03999855,0.04,0.0015183169755461634,0.024425786124115945,-0.01978264769217919,-0.15361927946371665,0.019078956836691502,-0.009131387900499298,0.9628278917343593,-0.24394097082406968,-0.048472031833631156,-0.1053836599369129
1375.4666666657445,-0.051561974,-0.32464257,0.41227144,-1.963131,-0.07389274,1.5480148,0.62277985,0.039998543,0.04,0.0016628279950969826,0.02476017959992527,-0.019812512366113033,-0.15226793366665545,0.01875886189352433,-0.0084591911878408,0.9624573427103709,-0.24531244757065682,-0.04867844053807938,-0.1054896959734274
1375.4833333324111,-0.051816534,-0.32234755,0.41434634,-1.9611708,-0.07426171,1.5479004,0.62196606,0.039998546,0.04,0.0017094665683003996,0.025284928540125762,-0.0197516429891742,-0.15089806273206463,0.01843327312864805,-0.007797105081923255,0.9620882826748103,-0.2466725594759708,-0.04888214349583871,-0.10559034420182739
1375.4999999990778,-0.05206877,-0.32007274,0.41640344,-1.9592278,-0.07462741,1.5477872,0.62115955,0.039998528,0.04,0.0023517332205624797,0.02555790166073324,-0.019534631519380063,-0.14951097976317498,0.01810205321239575,-0.0071492797145836055,0.9617207981111145,-0.24802115702806643,-0.049083049862512045,-0.10568569611434785
1375.5166666657444,-0.052318633,-0.3178185,0.41844234,-1.9573026,-0.0749898,1.5476747,0.6203602,0.03999852,0.04,0.002030167405187022,0.026591274168297208,-0.01994296354796976,-0.14810589522594567,0.017767415245345627,-0.006512324003262345,0.961354958932361,-0.24935806038568878,-0.049281486666300604,-0.10577587498482378
1375.533333332411,-0.052566137,-0.31558514,0.42046303,-1.9553953,-0.075348854,1.5475632,0.6195682,0.039998513,0.04,0.0023163222328204114,0.026678686859782363,-0.019824785780597765,-0.1466838054277565,0.017426670404839334,-0.005886315798154882,0.9609908512114841,-0.2506831245597196,-0.04947724783721031,-0.10586102632819423
1375.5499999990777,-0.05281122,-0.31337264,0.42246523,-1.9535058,-0.07570453,1.5474532,0.61878383,0.0399985,0.04,0.0030976347545008664,0.02685251276265399,-0.019104181113061003,-0.1452456466896307,0.017079673179148977,-0.005274353725383183,0.9606285868716405,-0.25199618245611977,-0.049670000085339644,-0.10594117803790612
1375.5666666657444,-0.053053893,-0.31118137,0.42444882,-1.9516343,-0.0760568,1.5473439,0.618007,0.039998494,0.04,0.00283009292321168,0.027608042292692758,-0.01980554277880575,-0.14379084403745168,0.016730866838248065,-0.0046759340318940565,0.960268219378662,-0.25329707339234653,-0.049860185651103416,-0.10601651451091744
1375.583333332411,-0.05329411,-0.30901146,0.42641357,-1.9497812,-0.07640567,1.5472355,0.6172378,0.039998494,0.04,0.0028688731382509047,0.0280047632428837,-0.019579420192150643,-0.14232033318786816,0.016377119571717974,-0.004088786645925824,0.9599098253866107,-0.25458567870829757,-0.05004774849949744,-0.10608714433432989
1375.5999999990777,-0.05353186,-0.3068632,0.4283593,-1.9479467,-0.07675104,1.5471284,0.616476,0.039998487,0.04,0.0030855597201284723,0.028291960608972655,-0.01935681851925608,-0.14083489863079368,0.016017737733322827,-0.0035142773442328433,0.9595534523686015,-0.25586202252461016,-0.050232539225130136,-0.10615314164031969
1375.6166666657443,-0.053767107,-0.30473658,0.43028572,-1.9461308,-0.07709291,1.5470225,0.61572164,0.039998483,0.04,0.0032411486049044314,0.02890136376461072,-0.01922512719461089,-0.13933195668256831,0.015656379278046532,-0.0029492650943501175,0.9591991869906297,-0.25712592430716064,-0.05041467789461836,-0.10621458929207998
1375.633333332411,-0.05399984,-0.30263206,0.43219286,-1.9443334,-0.0774312,1.5469174,0.6149749,0.039998468,0.04,0.003912309282538828,0.0289124050186218,-0.019410769492145263,-0.13781303394587333,0.015290654517707027,-0.0023964975102098336,0.9588471018423661,-0.2583772729924102,-0.050594039301051545,-0.10627164850845436
1375.6499999990776,-0.054230038,-0.3005497,0.4340805,-1.9425551,-0.077765934,1.5468137,0.6142366,0.03999846,0.04,0.0036443506920225133,0.029354668166126086,-0.01908797450160815,-0.1362790140635709,0.01492013493807798,-0.0018586065705538217,0.9584973646562686,-0.25961560872138073,-0.05077057418139044,-0.10632443958237914
1375.6666666657443,-0.054457676,-0.29848963,0.43594837,-1.9407961,-0.07809709,1.5467112,0.6135068,0.039998453,0.04,0.0032638507043047937,0.030115874050051783,-0.01918811014838262,-0.1347329355642533,0.01454681066365993,-0.0013353882684938728,0.958150065391404,-0.2608407107755537,-0.05094450896945795,-0.10637308305399946
1375.683333332411,-0.05468274,-0.29645205,0.4377963,-1.9390562,-0.07842461,1.5466096,0.6127847,0.039998446,0.04,0.004316463763420764,0.03026864377162486,-0.018963076896549858,-0.13317617063989692,0.014168484523932316,-0.0008243229420244538,0.957805174013095,-0.2620528924876397,-0.051115722159082014,-0.10641763538418757
1375.6999999990776,-0.054905213,-0.29443726,0.43962416,-1.937336,-0.07874849,1.546509,0.61207026,0.039998446,0.04,0.003563656978911034,0.030860649567010512,-0.01933071852089352,-0.1316043540698394,0.013786980055718967,-0.00032582142443254164,0.9574627343884352,-0.2632520601045963,-0.05128449508311144,-0.10645828136963803
1375.7166666657442,-0.055125087,-0.2924454,0.44143185,-1.935635,-0.079068646,1.5464101,0.6113643,0.03999844,0.04,0.00495912416231814,0.030596239939817416,-0.01837090913932027,-0.13001863798235075,0.013399604381090799,0.00016153750219478555,0.9571229410843916,-0.2644378270350961,-0.05145010563208965,-0.1064950605115925
1375.733333332411,-0.05534233,-0.29047653,0.44321918,-1.9339536,-0.07938514,1.546312,0.6106664,0.03999843,0.04,0.0042681740489936,0.031431383724644935,-0.018974326857712498,-0.12842144972613834,0.01301224512780409,0.0006321363448742422,0.9567857771001564,-0.2656102537770054,-0.05161320160448036,-0.10652815237062867
1375.7499999990775,-0.055556927,-0.28853083,0.444986,-1.9322921,-0.07969788,1.5462148,0.6099767,0.03999842,0.04,0.004425842850008799,0.03172443948840087,-0.018786930195924256,-0.12681153530263017,0.012621317734545306,0.0010918044925558347,0.9564513388214445,-0.2667691679222452,-0.05177372970567341,-0.1065576295959288
1375.7666666657442,-0.055768866,-0.28660846,0.4467321,-1.9306505,-0.0800069,1.5461191,0.60929525,0.039998412,0.04,0.00471502648604627,0.0319508376996791,-0.018338767724790372,-0.12519036362328495,0.012225187406402847,0.0015382402741591084,0.9561196957156242,-0.267914510754325,-0.05193144997324885,-0.10658361457376547
1375.7833333324108,-0.05597813,-0.28470957,0.44845757,-1.929029,-0.08031215,1.5460244,0.6086222,0.03999841,0.04,0.004536507526831102,0.032136367508495134,-0.018656560657359655,-0.12355716318435059,0.01182758669076296,0.0019712355967584742,0.9557909010133694,-0.2690461764117315,-0.05208660149595547,-0.10660625892920349
1375.7999999990775,-0.0561847,-0.28283435,0.45016205,-1.9274278,-0.08061359,1.5459309,0.6079574,0.039998405,0.04,0.0047406963710638905,0.03273528835391337,-0.018470685460125758,-0.12191291827184789,0.011426745647045256,0.002392539119513405,0.9554650280502482,-0.27016406149864985,-0.052239190886132846,-0.10662563942623907
1375.8166666657442,-0.056388583,-0.28098297,0.45184544,-1.9258469,-0.08091121,1.5458385,0.60730124,0.039998397,0.04,0.004930911569256402,0.03300673963826384,-0.018299084556039347,-0.12025842925093089,0.011021074804688124,0.0028000410072178163,0.955142179910021,-0.2712679544063722,-0.05238914276216748,-0.1066418810297377
1375.8333333324108,-0.056589756,-0.27915543,0.4535077,-1.924287,-0.08120498,1.5457475,0.60665345,0.039998394,0.04,0.004284007568688963,0.03320139878656425,-0.018193855938219983,-0.11859453951877515,0.01061382151030738,0.0031969227370309654,0.9548223676982367,-0.27235793313756446,-0.05253660894247953,-0.10665508483420859
1375.8499999990775,-0.05678819,-0.27735192,0.45514876,-1.922747,-0.08149487,1.5456576,0.60601413,0.039998397,0.04,0.00589190101107917,0.03307741224243266,-0.017939362678154325,-0.11692035007486376,0.010202801601220859,0.0035814566820119575,0.9545056673226009,-0.2734339343193622,-0.0526812875715613,-0.10666534841021975
1375.866666665744,-0.0569839,-0.2755727,0.45676833,-1.9212279,-0.08178084,1.5455687,0.6053835,0.039998397,0.04,0.00503255380008838,0.034003757829170755,-0.018242366149268108,-0.11523629292718555,0.009790216416401362,0.0039520283724650915,0.9541921795980531,-0.27449566065120234,-0.052823540314650023,-0.10667281877874532
1375.8833333324108,-0.05717685,-0.27381757,0.45836645,-1.9197294,-0.08206292,1.5454813,0.6047615,0.03999839,0.04,0.005532688472564828,0.03364834789458815,-0.017397775891336842,-0.11354482894040713,0.009373123304303347,0.00431020801729203,0.9538819343013355,-0.27554324128047825,-0.05296300561987532,-0.10667754043799407
1375.8999999990774,-0.05736703,-0.27208686,0.4599429,-1.9182519,-0.0823411,1.5453951,0.60414803,0.039998386,0.04,0.005032065435139899,0.03438395407885375,-0.017827777425516445,-0.11184405659624758,0.008956469008778178,0.004655523662215229,0.9535749842158512,-0.2765765360099432,-0.053100040358319646,-0.1066796837285556
1375.916666665744,-0.057554446,-0.27038062,0.46149766,-1.9167955,-0.082615346,1.54531,0.6035434,0.03999838,0.04,0.005154222029779554,0.034534506775762974,-0.01775335890497054,-0.1101354570493495,0.00853583836999599,0.0049881616700272104,0.953271407118131,-0.27759539921041426,-0.053234687445959376,-0.10667936426863542
1375.9333333324107,-0.057739105,-0.26869902,0.46303058,-1.9153595,-0.082885645,1.5452263,0.6029474,0.039998375,0.04,0.00672806938342152,0.03441006172150152,-0.016980617134798592,-0.10842028303382872,0.008111193423021107,0.005309505317448601,0.9529712711635807,-0.27859986408408655,-0.05336636655803087,-0.10667662813189806
1375.9499999990774,-0.057920966,-0.26704204,0.46454152,-1.9139457,-0.08315198,1.5451438,0.6023602,0.039998375,0.04,0.0038213906149442423,0.03541853233102188,-0.017817492596727824,-0.10669732472102218,0.0076895793004289285,0.005617662208031447,0.9526745886545025,-0.2795897919600548,-0.05349611317723197,-0.10667165621024428
1375.966666665744,-0.058100034,-0.26540968,0.46603057,-1.9125521,-0.08341433,1.5450624,0.6017817,0.039998367,0.04,0.006907681315948544,0.034622160639929955,-0.016809617001145583,-0.10496848989797355,0.0072599226138404934,0.005915246271855553,0.9523814415152682,-0.2805652314643544,-0.05362306303038676,-0.10666446391320919
1375.9833333324107,-0.058276314,-0.26380226,0.46749762,-1.9111797,-0.0836727,1.5449823,0.601212,0.039998364,0.04,0.0061624608098442835,0.03509542082277273,-0.01701423724469464,-0.10323317948236063,0.006831781895681973,0.006199250462926787,0.9520918686840876,-0.2815261167741825,-0.05374738295719629,-0.1066552295245939
1375.9999999990773,-0.058449768,-0.2622197,0.46894252,-1.9098289,-0.08392709,1.5449038,0.6006512,0.039998367,0.04,0.005191989273911624,0.03549312566233365,-0.01686829006195545,-0.10149167230403186,0.006402742452339077,0.006473269963994109,0.9518059250383949,-0.28247234902249846,-0.053869308650369166,-0.10664403726907783
1376.016666665744,-0.05862042,-0.26066208,0.47036523,-1.9084989,-0.08417744,1.5448261,0.6000992,0.039998364,0.04,0.006782916112579862,0.03545951749308607,-0.016648816868936045,-0.09974463676906459,0.005972544787333372,0.006735437906539037,0.9515236724071608,-0.2834038924688246,-0.053988649369466714,-0.10663095386223294
1376.0333333324106,-0.058788255,-0.25912943,0.47176558,-1.9071909,-0.08442374,1.5447497,0.5995561,0.039998356,0.04,0.004828734818795866,0.03617848646884081,-0.016918840908664023,-0.09799273158958668,0.005541387293301156,0.006984864867626794,0.9512451431577029,-0.2843206462181427,-0.05410594534713915,-0.10661610774677122
1376.0499999990773,-0.05895328,-0.25762185,0.47314367,-1.9059039,-0.08466605,1.5446749,0.5990218,0.03999835,0.04,0.006797285666326758,0.03556134361631935,-0.016047692961684845,-0.09623665524850464,0.005107616540039739,0.007227619757374655,0.9509703867210283,-0.2852227088564782,-0.054220467981216686,-0.10659958153824246
1376.066666665744,-0.059115496,-0.25613934,0.4744994,-1.9046384,-0.0849043,1.5446012,0.5984965,0.039998345,0.04,0.005996014142994888,0.03602728628206986,-0.01634450562133516,-0.09447660172071572,0.004674186896808038,0.007456048556458801,0.950699459591416,-0.28610992694849074,-0.054332647398870344,-0.10658147428492923
1376.0833333324106,-0.059274882,-0.254682,0.47583267,-1.9033947,-0.08513852,1.5445284,0.59798014,0.03999834,0.04,0.005583109661588814,0.036541175930804304,-0.01660611383282884,-0.0927134105127328,0.004238824599236537,0.0076719568095438805,0.9504323873158919,-0.28698224865978916,-0.05444280560901615,-0.10656193979373786
1376.0999999990772,-0.05943144,-0.25324985,0.47714356,-1.9021722,-0.08536868,1.5444572,0.59747255,0.039998334,0.04,0.006729273333161423,0.035869450775005696,-0.01563538156765798,-0.09094849247196587,0.0037993526883041695,0.007877677461358163,0.9501691971952371,-0.2878398573482225,-0.05455026810754015,-0.10654098494245831
1376.1166666657439,-0.059585176,-0.25184283,0.47843194,-1.9009712,-0.08559478,1.5443872,0.5969741,0.039998334,0.04,0.00621103439319981,0.03639042414135263,-0.015820471265026725,-0.08917932007162992,0.003362580460766888,0.008072676540134086,0.9499099745626515,-0.28868249954246306,-0.05465541953711494,-0.1065187298061738
1376.1333333324105,-0.05973609,-0.250461,0.47969782,-1.8997917,-0.08581682,1.5443181,0.5964844,0.039998334,0.04,0.0061039560062425835,0.03660710999521255,-0.016026450087425204,-0.087409092842034,0.002924912156376166,0.008257033290397594,0.9496547018210859,-0.28951028831144787,-0.05475849202661549,-0.10649529483454966
1376.1499999990772,-0.059884187,-0.24910441,0.48094115,-1.898634,-0.086034834,1.5442506,0.5960037,0.03999833,0.04,0.006130026375905651,0.03651808028330983,-0.015308678208492132,-0.08563744667282798,0.0024847919129122897,0.008431166921106736,0.9494034454132897,-0.2903231870902128,-0.05485914680972581,-0.1064707419269011
1376.1666666657438,-0.06002947,-0.24777296,0.4821619,-1.8974978,-0.08624879,1.5441844,0.59553194,0.03999833,0.04,0.006180339858485873,0.036631511465157196,-0.01531947202573214,-0.08386437593148365,0.0020446839978349924,0.008594848090883412,0.9491562341921534,-0.2911211782521815,-0.05495755175901174,-0.1064451510022275
1376.1833333324105,-0.06017194,-0.24646676,0.4833603,-1.8963829,-0.08645869,1.5441191,0.59506917,0.039998326,0.04,0.006586782434880867,0.0364420526322351,-0.015550785351825525,-0.08209117831291571,0.0016042868286514594,0.008748396633941814,0.9489130806342436,-0.2919042878496759,-0.05505379885956974,-0.10641866080407617
1376.1999999990771,-0.060311597,-0.24518576,0.48453587,-1.8952898,-0.08666452,1.5440553,0.5946153,0.039998315,0.04,0.00621410995100824,0.037042155405508925,-0.014812212388637391,-0.08031793584138505,0.0011634588026171078,0.008893531117275939,0.9486740624946794,-0.292672421620218,-0.055147757625043065,-0.10639126656698805
1376.2166666657438,-0.060448445,-0.24392992,0.48568898,-1.894218,-0.08686634,1.543993,0.5941703,0.039998315,0.04,0.0066458717495221364,0.03648660569257611,-0.014729765468346478,-0.07854515176321565,0.0007229182469781657,0.00902762767684421,0.9484391621575354,-0.2934257311701478,-0.05523935149063154,-0.1063631045996256
1376.2333333324104,-0.060582496,-0.24269925,0.48681954,-1.8931679,-0.08706413,1.5439315,0.5937343,0.03999831,0.04,0.0059992249004547915,0.0370291134247136,-0.015137496597206201,-0.07677297453365162,0.0002832047660154789,0.009151427192274438,0.9482084302131665,-0.2941640471173246,-0.05532905828858011,-0.10633429157679071
1376.249999999077,-0.060713753,-0.24149367,0.4879275,-1.8921392,-0.08725786,1.5438714,0.59330714,0.039998308,0.04,0.006416028919153938,0.03678251551162415,-0.014414854997246707,-0.07500344898661185,-0.0001581120728111297,0.009267871388846681,0.9479818725509688,-0.29488753994749445,-0.05541653799281908,-0.10630482310490111
1376.2666666657437,-0.06084223,-0.24031316,0.48901302,-1.891132,-0.08744755,1.5438128,0.59288883,0.039998304,0.04,0.00636300474550211,0.036604895110436964,-0.014347769314038139,-0.0732354636899281,-0.0005985543941605517,0.009374894164292729,0.94775951086566,-0.29559621808100484,-0.0555018161342546,-0.10627480334346048
1376.2833333324104,-0.060967952,-0.23915768,0.49007604,-1.8901461,-0.0876332,1.5437552,0.5924795,0.039998304,0.04,0.006464063418731847,0.036853565438665914,-0.014332647823378508,-0.07146933371828931,-0.0010371563499705352,0.009473275128530738,0.9475413975583369,-0.296289973179191,-0.05558503761130698,-0.10624431890890805
