rsonawane2002/My_IMU/logs_2/traj_260/imu_400hz_260.csv
time,j1,j2,j3,j4,j5,j6,j7,gripper1,gripper2,imu_ax,imu_ay,imu_az,imu_gx,imu_gy,imu_gz
0.0,0.00016700293,-0.785875,4.0107683e-05,-2.3551247,9.29385e-05,1.570997,0.786,0.04,0.04,-9.483106,-0.0685451701283454,0.09726301,-2.2047803e-07,-0.0011641270248219,1.1791127e-06
0.0025,0.000167003029,-0.785857774,4.010735705e-05,-2.35513919,9.29439906e-05,1.570996565,0.786,0.04,0.04,-9.535801150000003,-0.058169979695230065,0.08404079582499925,-1.604958814999966e-07,-0.0013252444390672892,1.215991445000002e-06
0.005,0.000167003128,-0.785840548,4.0107031100000004e-05,-2.3551536800000004,9.29494812e-05,1.57099613,0.786,0.04,0.04,-9.588496300000006,-0.04779478926211472,0.07081858164999849,-1.0051373299999318e-07,-0.0014863618533126782,1.2528701900000042e-06
0.0075,0.000167003227,-0.785823322,4.010670515e-05,-2.3551681700000002,9.29549718e-05,1.570995695,0.786,0.04,0.04,-9.641191450000008,-0.03741959882899939,0.057596367474997745,-4.0531584499989766e-08,-0.0016474792675580674,1.2897489350000062e-06
0.01,0.00016700332599999998,-0.7858060960000001,4.01063792e-05,-2.35518266,9.296046240000001e-05,1.5709952600000001,0.786,0.04,0.04,-9.693886600000011,-0.027044408395884047,0.04437415329999699,1.9450564000013645e-08,-0.0018085966818034566,1.3266276800000084e-06
0.0125,0.000167003425,-0.78578887,4.0106053249999996e-05,-2.3551971500000004,9.2965953e-05,1.570994825,0.786,0.04,0.04,-9.746581750000015,-0.016669217962768705,0.03115193912499624,7.943271250001708e-08,-0.001969714096048846,1.3635064250000104e-06
0.015,0.00016700352399999998,-0.785771644,4.01057273e-05,-2.3552116400000003,9.297144360000001e-05,1.57099439,0.786,0.04,0.04,-9.799276900000018,-0.00629402752965337,0.017929724949995493,1.3941486100002047e-07,-0.0021308315102942345,1.4003851700000125e-06
0.0175,0.0001670028355,-0.785754857,4.0102236499999993e-05,-2.3552257350000003,9.29771593e-05,1.57099396,0.786,0.04,0.04,-9.834309750000001,0.0006179966527269843,0.009042759274999913,2.688358970001069e-07,-0.002287841378711174,1.5958445500002042e-06
0.02,0.00016700057199999998,-0.785738948,4.009241599999999e-05,-2.3552390400000003,9.29833252e-05,1.5709935400000001,0.786,0.04,0.04,-9.834018,0.0006036883336491536,0.008826290599999901,5.37134708000122e-07,-0.0024366361554712277,2.108465200000233e-06
0.0225,0.0001669983085,-0.7857230390000001,4.008259549999999e-05,-2.3552523450000002,9.298949110000001e-05,1.57099312,0.786,0.04,0.04,-9.83372625,0.0005893800145713227,0.00860982192499989,8.054335190001371e-07,-0.002585430932231281,2.621085850000262e-06
0.025,0.000166996045,-0.78570713,4.007277499999999e-05,-2.35526565,9.2995657e-05,1.5709927,0.786,0.04,0.04,-9.8334345,0.0005750716954934918,0.008393353249999876,1.0737323300001526e-06,-0.0027342257089913347,3.133706500000292e-06
0.0275,0.00016699378149999999,-0.785691221,4.006295449999999e-05,-2.3552789549999997,9.300182290000001e-05,1.57099228,0.786,0.04,0.04,-9.83314275,0.000560763376415661,0.008176884574999864,1.3420311410001677e-06,-0.002883020485751388,3.6463271500003208e-06
0.03,0.000166991518,-0.7856753120000001,4.005313399999999e-05,-2.3552922599999997,9.300798880000001e-05,1.57099186,0.786,0.04,0.04,-9.832851,0.0005464550573378302,0.007960415899999853,1.6103299520001828e-06,-0.0030318152625114416,4.15894780000035e-06
0.0325,0.0001669892545,-0.785659403,4.004331349999999e-05,-2.3553055649999997,9.301415470000002e-05,1.57099144,0.786,0.04,0.04,-9.83255925,0.0005321467382599994,0.007743947224999839,1.8786287630001984e-06,-0.0031806100392714953,4.6715684500003795e-06
0.035,0.000166982557,-0.78564434,4.001679399999999e-05,-2.3553181,9.302292e-05,1.57099101,0.786,0.04,0.0399999995,-9.8322826,0.0005105124961118642,0.007549266699999958,2.4323494000001593e-06,-0.0033218896714970513,5.74551740000031e-06
0.0375,0.0001669736425,-0.7856297,3.998192500000002e-05,-2.3553302499999997,9.3032985e-05,1.570990575,0.786,0.04,0.03999999875,-9.8320135,0.00048521529242858937,0.007365480250000105,3.1287809499996037e-06,-0.003459411731455372,7.100130499999229e-06
0.04,0.00016696472800000001,-0.78561506,3.994705600000005e-05,-2.3553424,9.304304999999999e-05,1.57099014,0.786,0.04,0.039999998,-9.8317444,0.0004599180887453145,0.00718169380000025,3.82521249999905e-06,-0.0035969337914136925,8.454743599998153e-06
0.0425,0.00016695581350000002,-0.7856004200000001,3.991218700000007e-05,-2.35535455,9.305311499999998e-05,1.5709897050000001,0.786,0.04,0.03999999725,-9.8314753,0.00043462088506203964,0.006997907350000396,4.521644049998496e-06,-0.003734455851372013,9.809356699997075e-06
0.045,0.00016694689900000002,-0.78558578,3.98773180000001e-05,-2.3553667,9.306317999999997e-05,1.57098927,0.786,0.04,0.0399999965,-9.8312062,0.0004093236813787648,0.006814120900000543,5.2180755999979405e-06,-0.0038719779113303337,1.1163969799995993e-05
0.0475,0.00016693798450000003,-0.7855711400000001,3.984244900000013e-05,-2.35537885,9.307324499999996e-05,1.570988835,0.786,0.04,0.03999999575,-9.8309371,0.0003840264776954899,0.006630334450000689,5.914507149997387e-06,-0.004009499971288654,1.2518582899994919e-05
0.05,0.00016692907000000003,-0.7855565000000001,3.9807580000000156e-05,-2.355391,9.308330999999996e-05,1.5709884,0.786,0.04,0.039999995,-9.830668000000001,0.00035872927401221506,0.006446548000000835,6.610938699996834e-06,-0.004147022031246975,1.387319599999384e-05
0.0525,0.0001669071520000001,-0.7855429700000001,3.97254250000003e-05,-2.35540213,9.309649109999994e-05,1.57098798,0.786,0.04,0.03999999575,-9.830417050000001,0.00031981175707197556,0.006294804850000552,7.92719819499521e-06,-0.004274527612141781,1.603843114999212e-05
0.055,0.00016688523400000007,-0.78552944,3.964327000000022e-05,-2.3554132599999997,9.310967219999996e-05,1.57098756,0.786,0.04,0.0399999965,-9.8301661,0.00028089424013167405,0.0061430617000004135,9.24345768999641e-06,-0.004402033193036542,1.8203666299994093e-05
0.0575,0.00016686331600000004,-0.78551591,3.9561115000000146e-05,-2.35542439,9.312285329999997e-05,1.57098714,0.786,0.04,0.03999999725,-9.82991515,0.00024197672319137248,0.005991318550000276,1.0559717184997606e-05,-0.004529538773931303,2.0368901449996062e-05
0.06,0.00016684139800000002,-0.78550238,3.947896000000007e-05,-2.35543552,9.313603439999999e-05,1.57098672,0.786,0.04,0.039999998,-9.8296642,0.00020305920625107108,0.0058395754000001385,1.1875976679998803e-05,-0.004657044354826064,2.2534136599998028e-05
0.0625,0.00016681948,-0.7854888499999999,3.9396804999999996e-05,-2.3554466499999998,9.31492155e-05,1.5709863,0.786,0.04,0.03999999875,-9.82941325,0.00016414168931076957,0.00568783225,1.3192236175e-05,-0.004784549935720825,2.469937175e-05
0.065,0.00016679756199999997,-0.78547532,3.931464999999993e-05,-2.35545778,9.316239660000002e-05,1.57098588,0.786,0.04,0.0399999995,-9.8291623,0.00012522417237046806,0.005536089099999862,1.4508495670001198e-05,-0.0049120555166155865,2.686460690000197e-05
0.0675,0.00016676853899999993,-0.7854621199999999,3.920726349999976e-05,-2.35546854,9.317823880000003e-05,1.57098563,0.786,0.04,0.04,-9.828917800000001,8.389405265909221e-05,0.0053914766999997995,1.6068092200003145e-05,-0.005036531342193622,2.9513937900005558e-05
0.07,0.00016672530599999994,-0.78544958,3.904941399999975e-05,-2.35547856,9.319940320000004e-05,1.57098572,0.786,0.04,0.04,-9.8286862,3.7738727405600635e-05,0.005261125799999792,1.8114362800003262e-05,-0.005154947657138249,3.3131460600005766e-05
0.0725,0.00016668207299999993,-0.7854370399999999,3.889156449999974e-05,-2.35548858,9.322056760000003e-05,1.57098581,0.786,0.04,0.04,-9.8284546,-8.416597847890682e-06,0.005130774899999785,2.016063340000337e-05,-0.005273363972082875,3.6748983300005955e-05
0.075,0.00016663883999999994,-0.7854245,3.873371499999973e-05,-2.3554986,9.324173200000004e-05,1.5709859000000002,0.786,0.04,0.04,-9.828223,-5.457192310138227e-05,0.005000423999999778,2.2206904000003486e-05,-0.005391780287027502,4.036650600000616e-05
0.0775,0.00016659560699999992,-0.7854119599999999,3.857586549999972e-05,-2.35550862,9.326289640000003e-05,1.57098599,0.786,0.04,0.04,-9.8279914,-0.00010072724835487384,0.00487007309999977,2.4253174600003604e-05,-0.005510196601972129,4.398402870000637e-05
0.08,0.00016655237399999993,-0.78539942,3.841801599999971e-05,-2.35551864,9.328406080000004e-05,1.5709860800000002,0.786,0.04,0.04,-9.827759799999999,-0.00014688257360836543,0.0047397221999997624,2.6299445200003724e-05,-0.005628612916916755,4.760155140000658e-05
0.0825,0.0001665091409999999,-0.78538688,3.8260166499999704e-05,-2.35552866,9.330522520000003e-05,1.57098617,0.786,0.04,0.04,-9.8275282,-0.00019303789886185698,0.004609371299999755,2.834571580000384e-05,-0.005747029231861382,5.1219074100006796e-05
0.085,0.0001664450339999999,-0.785374926,3.8029294399999636e-05,-2.35553814,9.333410850000004e-05,1.57098628,0.7859998100000001,0.04,0.04,-9.8272925,-0.0002454404369928359,0.004486686699999837,3.095488840000395e-05,-0.005858363164588887,5.589361650000711e-05
0.08750000000000001,0.00016637048999999996,-0.785363265,3.776191099999985e-05,-2.35554735,9.336685125000001e-05,1.5709864,0.785999525,0.04,0.04,-9.82705475,-0.00030096658156253175,0.004367835249999932,3.384551200000165e-05,-0.005966155906207861,6.109666875000298e-05
0.09,0.00016629594600000002,-0.785351604,3.749452760000006e-05,-2.35555656,9.339959399999999e-05,1.57098652,0.78599924,0.04,0.04,-9.826817,-0.0003564927261322273,0.004248983800000027,3.673613559999934e-05,-0.006073948647826836,6.629972099999881e-05
0.0925,0.00016622140200000008,-0.785339943,3.7227144200000276e-05,-2.35556577,9.343233674999996e-05,1.57098664,0.785998955,0.04,0.04,-9.82657925,-0.0004120188707019232,0.004130132350000122,3.962675919999704e-05,-0.00618174138944581,7.150277324999467e-05
0.095,0.00016614685800000014,-0.785328282,3.695976080000049e-05,-2.35557498,9.346507949999994e-05,1.57098676,0.78599867,0.04,0.04,-9.8263415,-0.0004675450152716191,0.004011280900000216,4.2517382799994746e-05,-0.006289534131064783,7.670582549999054e-05
0.0975,0.00016607231400000017,-0.7853166210000001,3.66923774000007e-05,-2.35558419,9.349782224999992e-05,1.57098688,0.7859983850000001,0.04,0.04,-9.82610375,-0.0005230711598413149,0.0038924294500003107,4.5408006399992444e-05,-0.006397326872683758,8.19088777499864e-05
0.1,0.00016599777000000023,-0.78530496,3.642499400000091e-05,-2.3555934,9.353056499999989e-05,1.570987,0.7859981,0.04,0.04,-9.825866,-0.0005785973044110109,0.003773578000000405,4.829862999999015e-05,-0.006505119614302732,8.711192999998226e-05
0.10250000000000001,0.00016588035600000018,-0.7852940610000001,3.600931790000068e-05,-2.35560204,9.357928424999991e-05,1.570987135,0.785997815,0.04,0.04,-9.82569035,-0.0006417038675861912,0.003690397390000137,5.3389739499991624e-05,-0.006606553005985738,9.412972649998846e-05
0.105,0.000165762942,-0.785283162,3.5593641799999955e-05,-2.35561068,9.36280035e-05,1.57098727,0.78599753,0.04,0.04,-9.8255147,-0.0007048104307613971,0.0036072167799999907,5.8480849000000574e-05,-0.006707986397668722,0.00010114752300000078
0.1075,0.00016564552799999978,-0.785272263,3.517796569999922e-05,-2.35561932,9.36767227500001e-05,1.570987405,0.785997245,0.04,0.04,-9.82533905,-0.0007679169939366034,0.003524036169999844,6.357195850000954e-05,-0.006809419789351705,0.00010816531950001316
0.11,0.00016552811399999956,-0.785261364,3.4762289599998486e-05,-2.35562796,9.372544200000017e-05,1.57098754,0.7859969600000001,0.04,0.04,-9.8251634,-0.0008310235571118096,0.0034408555599996973,6.866306800001852e-05,-0.006910853181034689,0.00011518311600002553
0.1125,0.00016541069999999937,-0.785250465,3.434661349999776e-05,-2.3556366,9.377416125000026e-05,1.570987675,0.785996675,0.04,0.04,-9.824987749999998,-0.0008941301202870157,0.003357674949999551,7.375417750002749e-05,-0.007012286572717673,0.0001222009125000379
0.115,0.00016529328599999916,-0.7852395659999999,3.3930937399997024e-05,-2.35564524,9.382288050000035e-05,1.57098781,0.78599639,0.04,0.04,-9.824812099999999,-0.000957236683462222,0.0032744943399994043,7.884528700003647e-05,-0.007113719964400657,0.00012921870900005027
0.11750000000000001,0.00016515727949999862,-0.785228882,3.34514612999951e-05,-2.35565352,9.387845850000056e-05,1.570988115,0.7859961050000001,0.04,0.04,-9.82464645,-0.0010220662690704162,0.0031972654599994725,8.423375200004831e-05,-0.007213577278890491,0.00013691055600007298
0.12,0.00016498408799999875,-0.785218628,3.2844385199995584e-05,-2.35566108,9.39477540000005e-05,1.57098876,0.78599582,0.04,0.04,-9.8245008,-0.0010903418995444566,0.0031319400399995247,9.021692800004351e-05,-0.0073102824389941435,0.00014595050400006575
0.1225,0.00016481089649999887,-0.785208374,3.223730909999607e-05,-2.35566864,9.401704950000044e-05,1.570989405,0.7859955350000001,0.04,0.04,-9.824355149999999,-0.0011586175300184972,0.003066614619999577,9.620010400003876e-05,-0.007406987599097797,0.00015499045200005856
0.125,0.00016463770499999903,-0.7851981199999999,3.163023299999655e-05,-2.3556762,9.408634500000039e-05,1.57099005,0.78599525,0.04,0.04,-9.8242095,-0.001226893160492538,0.0030012891999996287,0.000102183280000034,-0.007503692759201449,0.00016403040000005138
0.1275,0.00016446451349999916,-0.7851878659999999,3.1023156899997034e-05,-2.3556837600000002,9.415564050000034e-05,1.570990695,0.785994965,0.04,0.04,-9.82406385,-0.0012951687909665787,0.0029359637799996805,0.00010816645600002925,-0.007600397919305103,0.0001730703480000442
0.13,0.00016429132199999929,-0.7851776119999999,3.0416080799997516e-05,-2.35569132,9.422493600000028e-05,1.57099134,0.7859946800000001,0.04,0.04,-9.8239182,-0.0013634444214406195,0.0028706383599997323,0.00011414963200002449,-0.007697103079408756,0.000182110296000037
0.1325,0.00016411813049999944,-0.7851673579999999,2.9809004699998e-05,-2.3556988800000003,9.429423150000023e-05,1.570991985,0.785994395,0.04,0.04,-9.82377255,-0.0014317200519146601,0.0028053129399997845,0.00012013280800001974,-0.007793808239512408,0.00019115024400002983
0.135,0.00016389834599999926,-0.785157466,2.9042997399997402e-05,-2.35570593,9.438068300000028e-05,1.57099268,0.7859940200000001,0.04,0.04,-9.8235905,-0.0015040153870361183,0.0027421856799998093,0.0001267528260000213,-0.007885147444904062,0.00020165786400003455
0.1375,0.00016365526499999923,-0.785147755,2.8197524499997353e-05,-2.355712725,9.447571250000029e-05,1.5709934,0.7859936,0.04,0.04,-9.82339025,-0.0015783205744812575,0.0026801574999998057,0.00013369126500002173,-0.007973803672939752,0.00021289932000003521
0.14,0.00016341218399999922,-0.785138044,2.7352051599997304e-05,-2.35571952,9.45707420000003e-05,1.57099412,0.78599318,0.04,0.04,-9.823189999999999,-0.001652625761926397,0.002618129319999802,0.00014062970400002212,-0.008062459900975443,0.00022414077600003585
0.14250000000000002,0.0001631691029999992,-0.785128333,2.6506578699997258e-05,-2.355726315,9.466577150000031e-05,1.57099484,0.78599276,0.04,0.04,-9.82298975,-0.0017269309493715362,0.0025561011399997985,0.00014756814300002252,-0.008151116129011132,0.0002353822320000365
0.145,0.00016292602199999919,-0.7851186219999999,2.5661105799997215e-05,-2.35573311,9.47608010000003e-05,1.57099556,0.78599234,0.04,0.04,-9.822789499999999,-0.0018012361368166746,0.0024940729599997958,0.00015450658200002286,-0.008239772357046822,0.000246623688000037
0.1475,0.00016268294099999918,-0.785108911,2.4815632899997166e-05,-2.355739905,9.485583050000031e-05,1.57099628,0.78599192,0.04,0.04,-9.822589249999998,-0.0018755413242618141,0.002432044779999792,0.00016144502100002325,-0.00832842858508251,0.00025786514400003767
0.15,0.00016243985999999888,-0.7850992,2.3970159999996134e-05,-2.3557467,9.495086000000042e-05,1.570997,0.7859915,0.04,0.04,-9.822389,-0.0019498465117069675,0.0023700165999998965,0.000168383460000029,-0.008417084813118187,0.000269106600000046
0.1525,0.00016211167049999856,-0.785089921,2.2835846799995102e-05,-2.355753,9.507534650000053e-05,1.57099823,0.78599093,0.03999999925,0.04,-9.822246649999999,-0.0020282763987782837,0.0023395826799998687,0.00017688918750003674,-0.008501630695537015,0.00028259097600005827
0.155,0.00016178348099999827,-0.7850806419999999,2.170153359999407e-05,-2.3557593000000003,9.519983300000065e-05,1.5709994600000001,0.78599036,0.0399999985,0.04,-9.8221043,-0.0021067062858496004,0.002309148759999841,0.00018539491500004448,-0.008586176577955842,0.0002960753520000705
0.1575,0.000161455291499998,-0.7850713629999999,2.0567220399993037e-05,-2.3557656000000002,9.532431950000075e-05,1.57100069,0.7859897899999999,0.03999999775,0.04,-9.821961949999999,-0.0021851361729209166,0.002278714839999813,0.00019390064250005224,-0.00867072246037467,0.0003095597280000828
0.16,0.00016112710199999767,-0.785062084,1.9432907199992e-05,-2.3557719,9.544880600000087e-05,1.57100192,0.7859892199999999,0.039999997,0.04,-9.8218196,-0.0022635660599922332,0.0022482809199997856,0.00020240637000005997,-0.008755268342793497,0.0003230441040000951
0.1625,0.00016079891249999738,-0.785052805,1.8298593999990972e-05,-2.3557782,9.557329250000099e-05,1.5710031500000001,0.78598865,0.03999999625,0.04,-9.821677249999999,-0.0023419959470635495,0.002217846999999758,0.0002109120975000677,-0.008839814225212322,0.00033652848000010737
0.165,0.0001604707229999971,-0.7850435259999999,1.7164280799989936e-05,-2.3557845000000004,9.56977790000011e-05,1.5710043800000002,0.78598808,0.0399999955,0.04,-9.8215349,-0.0024204258341348657,0.00218741307999973,0.00021941782500007546,-0.00892436010763115,0.0003500128560001196
0.1675,0.00016010878199999604,-0.7850343479999999,1.5915849799986394e-05,-2.355790475,9.583440300000147e-05,1.5710056300000002,0.7859874124999999,0.03999999465,0.0399999994,-9.82140135,-0.002498798735906106,0.00215880584499977,0.00022843610550009254,-0.009007461182773764,0.0003644196945001497
0.17,0.0001596793379999964,-0.785025372,1.443918319998757e-05,-2.3557958,9.599530200000135e-05,1.57100692,0.78598655,0.039999993600000006,0.039999997600000003,-9.821285399999999,-0.002577057667077199,0.0021338519799997896,0.00023847949200008454,-0.009087672643364075,0.0003806714580001368
0.17250000000000001,0.00015924989399999673,-0.785016396,1.2962516599988743e-05,-2.355801125,9.615620100000122e-05,1.57100821,0.7859856875,0.03999999255,0.0399999958,-9.82116945,-0.0026553165982482916,0.0021088981149998097,0.00024852287850007655,-0.009167884103954386,0.0003969232215001239
0.17500000000000002,0.00015882044999999706,-0.7850074199999999,1.1485849999989918e-05,-2.35580645,9.63171000000011e-05,1.5710095000000002,0.785984825,0.0399999915,0.039999994,-9.8210535,-0.0027335755294193844,0.0020839442499998298,0.0002585662650000686,-0.009248095564544699,0.000413174985000111
0.1775,0.00015839100599999742,-0.784998444,1.0009183399991108e-05,-2.355811775,9.647799900000097e-05,1.57101079,0.7859839625,0.03999999045,0.0399999922,-9.82093755,-0.0028118344605904764,0.00205899038499985,0.0002686096515000605,-0.009328307025135008,0.00042942674850009784
0.18,0.00015796156199999776,-0.7849894679999999,8.532516799992282e-06,-2.3558171,9.663889800000085e-05,1.57101208,0.7859831,0.0399999894,0.0399999904,-9.8208216,-0.002890093391761569,0.0020340365199998695,0.0002786530380000525,-0.00940851848572532,0.00044567851200008493
0.1825,0.00015753211799999811,-0.784980492,7.055850199993455e-06,-2.355822425,9.679979700000072e-05,1.57101337,0.7859822375000001,0.03999998835,0.0399999886,-9.820705649999999,-0.002968352322932662,0.0020090826549998895,0.00028869642450004456,-0.009488729946315631,0.000461930275500072
0.185,0.0001570238469999977,-0.7849716299999999,5.313519359992114e-06,-2.35582748,9.698924200000087e-05,1.57101504,0.785981378,0.0399999876,0.039999987199999996,-9.82056775,-0.0030496912309903187,0.001999452069999992,0.00030022549300005164,-0.009566661249846533,0.00047993414700007943
0.1875,0.00015647616249999768,-0.7849628249999999,3.438356399992006e-06,-2.3558323999999997,9.719296000000087e-05,1.5710169,0.7859805200000001,0.039999987,0.039999986,-9.820418875,-0.0031325701274912284,0.0019974831249999917,0.00031249740250005234,-0.009643452474847753,0.0004988140725000805
0.19,0.00015592847799999763,-0.7849540199999999,1.5631934399918978e-06,-2.35583732,9.739667800000088e-05,1.57101876,0.785979662,0.0399999864,0.0399999848,-9.820269999999999,-0.003215449023992138,0.001995514179999992,0.00032476931200005305,-0.009720243699848972,0.0005176939980000816
0.1925,0.0001553807934999976,-0.784945215,-3.119695200082104e-07,-2.35584224,9.76003960000009e-05,1.5710206199999999,0.7859788040000001,0.0399999858,0.0399999836,-9.820121125,-0.003298327920493048,0.0019935452349999915,0.00033704122150005376,-0.00979703492485019,0.0005365739235000827
0.195,0.00015483310899999759,-0.78493641,-2.1871324800083177e-06,-2.3558471599999997,9.78041140000009e-05,1.5710224799999999,0.785977946,0.039999985200000004,0.039999982399999995,-9.81997225,-0.0033812068169939576,0.001991576289999991,0.00034931313100005447,-0.009873826149851411,0.0005554538490000838
0.1975,0.00015428542449999754,-0.784927605,-4.062295440008426e-06,-2.35585208,9.800783200000092e-05,1.57102434,0.7859770880000001,0.0399999846,0.0399999812,-9.819823374999999,-0.0034640857134948673,0.0019896073449999913,0.0003615850405000551,-0.00995061737485263,0.0005743337745000848
0.2,0.0001537377399999969,-0.7849188,-5.937458400010616e-06,-2.355857,9.821155000000115e-05,1.5710262,0.78597623,0.039999984,0.03999998,-9.8196745,-0.0035469646099957797,0.0019876383999999883,0.0003738569500000593,-0.010027408599853838,0.0005932137000000978
0.2025,0.00015305412399999627,-0.7849101075,-8.26958319001274e-06,-2.355861095,9.846419500000137e-05,1.57102863,0.7859750855000001,0.0399999834,0.039999979549999995,-9.819597625,-0.0036303787608634656,0.0019851102849999863,0.00038688716800007114,-0.010101899132132912,0.0006147063075001174
0.20500000000000002,0.00015237050799999565,-0.784901415,-1.0601707980014863e-05,-2.35586519,9.871684000000161e-05,1.57103106,0.7859739410000001,0.0399999828,0.0399999791,-9.819520749999999,-0.0037137929117311516,0.001982582169999984,0.00039991738600008304,-0.010176389664411985,0.000636198915000137
0.20750000000000002,0.00015168689199999502,-0.7848927225,-1.2933832770016985e-05,-2.355869285,9.896948500000184e-05,1.57103349,0.7859727965000001,0.0399999822,0.03999997865,-9.819443875,-0.0037972070625988375,0.0019800540549999813,0.0004129476040000949,-0.010250880196691058,0.0006576915225001565
0.21,0.0001510032759999944,-0.78488403,-1.526595756001908e-05,-2.35587338,9.922213000000206e-05,1.57103592,0.7859716520000001,0.0399999816,0.0399999782,-9.819367,-0.0038806212134665226,0.0019775259399999793,0.0004259778220001066,-0.01032537072897013,0.0006791841300001759
0.2125,0.00015031965999999378,-0.7848753374999999,-1.7598082350021208e-05,-2.355877475,9.94747750000023e-05,1.57103835,0.7859705075,0.039999981,0.03999997775,-9.819290125,-0.003964035364334209,0.001974997824999977,0.00043900804000011846,-0.010399861261249203,0.0007006767375001954
0.215,0.00014963604399999316,-0.7848666449999999,-1.993020714002333e-05,-2.35588157,9.972742000000253e-05,1.5710407800000001,0.785969363,0.039999980399999996,0.039999977299999996,-9.819213249999999,-0.004047449515201895,0.0019724697099999747,0.00045203825800013036,-0.010474351793528274,0.000722169345000215
0.2175,0.00014890100649999133,-0.7848579499999999,-2.243481835002948e-05,-2.3558854350000002,9.999855750000318e-05,1.5710434,0.785968123,0.03999997985,0.039999976799999996,-9.819121149999999,-0.004130524885841477,0.001975911195000159,0.0004657440815001557,-0.010547625273466763,0.0007446055025002516
0.22,0.000148063125999992,-0.7848492499999999,-2.5284402400027213e-05,-2.35588884,0.00010030668000000295,1.5710464000000002,0.785966692,0.039999979399999996,0.0399999762,-9.818998599999999,-0.004212922696024887,0.0019912918800001466,0.0004808011160001438,-0.010618464648724197,0.0007689287600002322
0.2225,0.00014722524549999266,-0.78484055,-2.813398645002495e-05,-2.355892245,0.0001006148025000027,1.5710494000000002,0.785965261,0.03999997895,0.0399999756,-9.81887605,-0.004295320506208297,0.0020066725650001345,0.0004958581505001318,-0.01068930402398163,0.0007932520175002129
0.225,0.00014638736499999333,-0.78483185,-3.098357050002268e-05,-2.3558956500000003,0.00010092292500000245,1.5710524000000001,0.78596383,0.0399999785,0.039999975,-9.8187535,-0.004377718316391706,0.0020220532500001224,0.0005109151850001198,-0.010760143399239063,0.0008175752750001936
0.2275,0.000145549484499994,-0.78482315,-3.383315455002042e-05,-2.355899055,0.0001012310475000022,1.5710554,0.785962399,0.039999978049999996,0.0399999744,-9.81863095,-0.004460116126575115,0.0020374339350001103,0.0005259722195001079,-0.010830982774496498,0.0008418985325001743
0.23,0.00014471160399999466,-0.78481445,-3.6682738600018154e-05,-2.3559024600000003,0.00010153917000000195,1.5710584,0.785960968,0.0399999776,0.0399999738,-9.8185084,-0.004542513936758525,0.0020528146200000977,0.0005410292540000959,-0.010901822149753932,0.000866221790000155
0.2325,0.00014387372349999533,-0.78480575,-3.953232265001589e-05,-2.355905865,0.00010184729250000172,1.5710614,0.785959537,0.03999997715,0.039999973200000004,-9.81838585,-0.004624911746941934,0.0020681953050000856,0.000556086288500084,-0.010972661525011364,0.0008905450475001355
0.23500000000000001,0.0001429204169999946,-0.784796955,-4.2768340600018344e-05,-2.3559089,0.00010219690140000199,1.5710647899999999,0.785957914,0.0399999766,0.0399999723,-9.818278,-0.004705549078062577,0.0020919695800001494,0.0005724242940000909,-0.011041787359863794,0.0009168933700001463
0.23750000000000002,0.00014190939749999452,-0.7847881125,-4.619757550001854e-05,-2.35591175,0.000102567253500002,1.571068375,0.785956195,0.039999976,0.03999997125,-9.8181775,-0.004785306169651856,0.002119940650000151,0.0005894027850000918,-0.011110056424513744,0.0009442542250001479
0.24,0.00014089837799999448,-0.78477927,-4.96268104000187e-05,-2.3559146,0.00010293760560000202,1.57107196,0.785954476,0.0399999754,0.0399999702,-9.818076999999999,-0.004865063261241135,0.0021479117200001526,0.0006063812760000926,-0.011178325489163692,0.0009716150800001492
0.2425,0.00013988735849999442,-0.7847704275,-5.3056045300018905e-05,-2.35591745,0.00010330795770000204,1.571075545,0.785952757,0.0399999748,0.03999996915,-9.8179765,-0.004944820352830415,0.0021758827900001543,0.0006233597670000936,-0.011246594553813641,0.0009989759350001507
0.245,0.00013887633899999435,-0.784761585,-5.64852802000191e-05,-2.3559203,0.00010367830980000206,1.57107913,0.785951038,0.0399999742,0.0399999681,-9.817876,-0.005024577444419694,0.0022038538600001557,0.0006403382580000945,-0.011314863618463589,0.0010263367900001522
0.2475,0.00013786531949999431,-0.7847527425,-5.99145151000193e-05,-2.35592315,0.00010404866190000208,1.571082715,0.785949319,0.0399999736,0.03999996705,-9.8177755,-0.005104334536008974,0.0022318249300001575,0.0006573167490000956,-0.011383132683113539,0.001053697645000154
0.25,0.00013685429999999316,-0.7847439,-6.334375000002315e-05,-2.355926,0.0001044190140000025,1.5710863,0.7859476,0.039999973,0.039999966,-9.817675,-0.005184091627598258,0.0022597960000002113,0.0006742952400001068,-0.011451401747763483,0.0010810585000001717
0.2525,0.00013565083949999309,-0.7847348355,-6.741629200002338e-05,-2.35592801,0.00010485828900000252,1.5710905149999999,0.7859455645,0.03999997255,0.0399999651,-9.817606,-0.005264698504470733,0.0022969859500002136,0.0006930740295001079,-0.01151871960610184,0.0011112683800001734
0.255,0.000134447378999993,-0.784725771,-7.148883400002363e-05,-2.35593002,0.00010529756400000255,1.57109473,0.785943529,0.0399999721,0.0399999642,-9.817537,-0.005345305381343208,0.002334175900000216,0.000711852819000109,-0.0115860374644402,0.0011414782600001753
0.2575,0.00013324391849999295,-0.7847167065,-7.556137600002386e-05,-2.35593203,0.00010573683900000258,1.571098945,0.7859414935,0.03999997165,0.0399999633,-9.817467999999998,-0.005425912258215682,0.002371365850000218,0.0007306316085001099,-0.011653355322778558,0.001171688140000177
0.26,0.00013204045799999287,-0.784707642,-7.96339180000241e-05,-2.35593404,0.0001061761140000026,1.57110316,0.785939458,0.039999971200000005,0.0399999624,-9.817398999999998,-0.005506519135088157,0.0024085558000002203,0.000749410398000111,-0.011720673181116917,0.0012018980200001787
0.2625,0.0001308369974999928,-0.7846985775,-8.370646000002433e-05,-2.35593605,0.00010661538900000261,1.571107375,0.7859374225,0.03999997075,0.0399999615,-9.817329999999998,-0.005587126011960632,0.002445745750000222,0.0007681891875001121,-0.011787991039455277,0.0012321079000001806
0.265,0.00012963353699999274,-0.784689513,-8.777900200002456e-05,-2.35593806,0.00010705466400000264,1.57111159,0.785935387,0.0399999703,0.0399999606,-9.817260999999998,-0.005667732888833106,0.0024829357000002244,0.0007869679770001132,-0.011855308897793635,0.0012623177800001823
0.2675,0.00012835936179999178,-0.7846803465,-9.208760200002775e-05,-2.35593996,0.00010751926155000298,1.5711161299999998,0.7859332134999999,0.03999997,0.03999996,-9.817181049999999,-0.0057465653633702474,0.0025237717900002793,0.0008063838930001201,-0.011921909824014023,0.001293537295000193
0.27,0.00012694375719999289,-0.784670976,-9.686831800002396e-05,-2.35594164,0.00010803450420000258,1.57112132,0.785930764,0.03999997,0.03999996,-9.817079199999998,-0.005821849033236817,0.002571900160000241,0.0008270740620001036,-0.011987076885998506,0.0013267760800001666
0.2725,0.00012552815259999402,-0.7846616055,-0.00010164903400002015,-2.35594332,0.00010854974685000216,1.57112651,0.7859283145,0.03999997,0.03999996,-9.816977349999998,-0.005897132703103387,0.002620028530000203,0.0008477642310000872,-0.01205224394798299,0.0013600148650001402
0.275,0.00012411254799999516,-0.784652235,-0.00010642975000001635,-2.355945,0.00010906498950000176,1.5711317,0.785925865,0.03999997,0.03999996,-9.816875499999998,-0.005972416372969957,0.0026681569000001648,0.0008684544000000707,-0.012117411009967473,0.0013932536500001137
0.2775,0.00012269694339999627,-0.7846428645,-0.00011121046600001255,-2.3559466799999997,0.00010958023215000135,1.57113689,0.7859234155,0.03999997,0.03999996,-9.816773649999998,-0.006047700042836527,0.0027162852700001266,0.0008891445690000542,-0.012182578071951956,0.0014264924350000873
0.28,0.00012128133879999741,-0.784633494,-0.00011599118200000875,-2.3559483599999997,0.00011009547480000093,1.57114208,0.785920966,0.03999997,0.03999996,-9.816671799999998,-0.006122983712703098,0.0027644136400000884,0.0009098347380000378,-0.01224774513393644,0.0014597312200000608
0.28250000000000003,0.00011986573419999853,-0.7846241235,-0.00012077189800000495,-2.3559500399999997,0.00011061071745000053,1.57114727,0.7859185165,0.03999997,0.03999996,-9.81656995,-0.006198267382569668,0.0028125420100000497,0.0009305249070000214,-0.012312912195920922,0.0014929700050000344
0.28500000000000003,0.00011829538339999772,-0.784614485,-0.00012606861500000764,-2.35595104,0.00011118133950000082,1.57115293,0.78591579,0.03999997,0.0399999598,-9.8165158,-0.0062712009530515285,0.002864760790000075,0.0009526649870000315,-0.01237788144499064,0.00152834434000005
0.28750000000000003,0.00011664765949999622,-0.7846047125,-0.0001316233325000127,-2.3559517,0.00011177965125000137,1.571158825,0.785912925,0.03999997,0.0399999595,-9.816485499999999,-0.006342959473841039,0.002919024775000124,0.0009755300225000523,-0.012442751787602974,0.0015647864500000833
0.29,0.00011499993559999476,-0.78459494,-0.00013717805000001764,-2.35595236,0.0001123779630000019,1.5711647199999998,0.7859100600000001,0.03999997,0.039999959200000004,-9.8164552,-0.0064147179946305475,0.0029732887600001723,0.0009983950580000726,-0.012507622130215307,0.0016012285600001156
0.2925,0.00011335221169999326,-0.7845851675,-0.0001427327675000227,-2.35595302,0.00011297627475000245,1.571170615,0.7859071950000001,0.03999997,0.0399999589,-9.8164249,-0.006486476515420058,0.003027552745000222,0.0010212600935000935,-0.01257249247282764,0.0016376706700001488
0.295,0.00011170448779999176,-0.784575395,-0.00014828748500002775,-2.35595368,0.00011357458650000299,1.57117651,0.78590433,0.03999997,0.0399999586,-9.816394599999999,-0.006558235036209568,0.0030818167300002714,0.0010441251290001143,-0.012637362815439973,0.001674112780000182
0.2975,0.00011005676389999027,-0.7845656225,-0.0001538422025000328,-2.35595434,0.00011417289825000354,1.571182405,0.785901465,0.03999997,0.0399999583,-9.8163643,-0.006629993556999079,0.0031360807150003205,0.0010669901645001352,-0.012702233158052308,0.0017105548900002152
0.3,0.00010840903999998704,-0.7845558499999999,-0.00015939692000004358,-2.355955,0.00011477121000000469,1.5711883,0.7858986,0.03999997,0.039999958,-9.816334,-0.006701752077788555,0.003190344700000485,0.0010898552000001697,-0.012767103500664626,0.0017469970000002686
0.3025,0.00010650895099998693,-0.784545533,-0.00016579227800004397,-2.3559550899999997,0.00011545960875000473,1.571195245,0.7858953405,0.039999970450000005,0.0399999583,-9.816216549999998,-0.006768508418463609,0.0032614461850004888,0.0011147358800001712,-0.012829661974683795,0.001786415560000271
0.305,0.00010460886199998684,-0.784535216,-0.00017218763600004435,-2.35595518,0.00011614800750000478,1.57120219,0.785892081,0.0399999709,0.0399999586,-9.816099099999999,-0.006835264759138662,0.003332547670000493,0.0011396165600001725,-0.012892220448702963,0.0018258341200002733
0.3075,0.00010270877299998673,-0.7845248989999999,-0.0001785829940000447,-2.35595527,0.00011683640625000482,1.571209135,0.7858888215,0.03999997135,0.0399999589,-9.815981649999998,-0.006902021099813717,0.003403649155000497,0.0011644972400001738,-0.012954778922722131,0.0018652526800002755
0.31,0.00010080868399998662,-0.7845145819999999,-0.00018497835200004508,-2.35595536,0.00011752480500000486,1.57121608,0.7858855619999999,0.0399999718,0.039999959200000004,-9.815864199999998,-0.00696877744048877,0.0034747506400005014,0.0011893779200001754,-0.013017337396741302,0.0019046712400002778
0.3125,9.89085949999865e-05,-0.7845042649999999,-0.00019137371000004546,-2.35595545,0.00011821320375000489,1.5712230249999999,0.7858823024999999,0.03999997225,0.0399999595,-9.815746749999999,-0.007035533781163824,0.003545852125000505,0.0012142586000001767,-0.01307989587076047,0.00194408980000028
0.315,9.70085059999864e-05,-0.7844939479999999,-0.00019776906800004582,-2.35595554,0.00011890160250000493,1.57122997,0.7858790429999999,0.039999972700000004,0.0399999598,-9.815629299999998,-0.007102290121838878,0.0036169536100005093,0.0012391392800001782,-0.013142454344779638,0.0019835083600002823
0.3175,9.501748499998493e-05,-0.7844834364999999,-0.00020446704050005067,-2.35595541,0.00011962246625000546,1.571237235,0.7858756265,0.03999997285,0.039999959700000004,-9.815537599999999,-0.007167003769427905,0.0036893762200005207,0.0012646491250001856,-0.013204919174313913,0.002024013580000296
0.32,9.284459999998666e-05,-0.7844725359999999,-0.00021177024200004485,-2.3559548400000003,0.00012040826000000482,1.57124514,0.785871896,0.0399999724,0.0399999588,-9.8154974,-0.007227632030845012,0.003764441080000461,0.0012914173000001642,-0.013267196714878403,0.002066692120000262
0.3225,9.067171499998839e-05,-0.7844616354999999,-0.00021907344350003907,-2.3559542700000002,0.0001211940537500042,1.571253045,0.7858681654999999,0.039999971950000004,0.0399999579,-9.815457199999999,-0.007288260292262119,0.0038395059400004013,0.001318185475000143,-0.013329474255442893,0.0021093706600002282
0.325,8.849882999999012e-05,-0.784450735,-0.00022637664500003326,-2.3559537,0.00012197984750000357,1.57126095,0.7858644349999999,0.0399999715,0.039999956999999996,-9.815417,-0.007348888553679226,0.003914570800000341,0.0013449536500001217,-0.013391751796007384,0.002152049200000194
0.3275,8.632594499999184e-05,-0.7844398344999999,-0.00023367984650002745,-2.35595313,0.00012276564125000293,1.571268855,0.7858607045,0.03999997105,0.0399999561,-9.815376800000001,-0.007409516815096333,0.003989635660000282,0.0013717218250001006,-0.013454029336571874,0.00219472774000016
0.33,8.415305999999356e-05,-0.7844289339999999,-0.00024098304800002166,-2.35595256,0.0001235514350000023,1.5712767600000002,0.785856974,0.039999970600000004,0.0399999552,-9.8153366,-0.00747014507651344,0.004064700520000222,0.0013984900000000794,-0.013516306877136364,0.0022374062800001263
0.3325,8.198017499999529e-05,-0.7844180335,-0.0002482862495000158,-2.3559519900000003,0.0001243372287500017,1.571284665,0.7858532435,0.03999997015,0.039999954299999994,-9.815296400000001,-0.0075307733379305465,0.0041397653800001625,0.001425258175000058,-0.013578584417700854,0.0022800848200000925
0.335,7.961174339999382e-05,-0.78440665,-0.0002562397850000208,-2.35595087,0.00012519272400000222,1.57129329,0.7858492,0.0399999703,0.039999954399999996,-9.815246,-0.007587629929185028,0.004223997600000222,0.0014533282900000722,-0.013640606310218685,0.0023247745000001146
0.3375,7.714553849999157e-05,-0.7843950249999999,-0.0002645184875000283,-2.355949475,0.00012608307000000303,1.571302275,0.785845,0.03999997075,0.039999955,-9.8151905,-0.007642600685358213,0.004312813500000304,0.0014820493750000983,-0.013702500378713187,0.002370469750000156
0.34,7.467933359998932e-05,-0.7843834,-0.00027279719000003586,-2.35594808,0.00012697341600000385,1.57131126,0.7858408,0.039999971200000005,0.0399999556,-9.815135,-0.007697571441531398,0.004401629400000384,0.0015107704600001244,-0.013764394447207689,0.002416165000000198
0.3425,7.221312869998708e-05,-0.7843717749999999,-0.00028107589250004337,-2.355946685,0.00012786376200000466,1.5713202450000001,0.7858366,0.03999997165,0.0399999562,-9.815079500000001,-0.007752542197704583,0.0044904453000004655,0.0015394915450001505,-0.01382628851570219,0.0024618602500002394
0.34500000000000003,6.974692379998482e-05,-0.7843601499999999,-0.00028935459500005093,-2.3559452899999997,0.00012875410800000547,1.5713292300000001,0.7858324,0.0399999721,0.0399999568,-9.815024000000001,-0.0078075129538777675,0.004579261200000546,0.0015682126300001768,-0.013888182584196692,0.002507555500000281
0.34750000000000003,6.728071889998259e-05,-0.784348525,-0.00029763329750005844,-2.355943895,0.00012964445400000628,1.571338215,0.7858282,0.03999997255,0.0399999574,-9.8149685,-0.007862483710050952,0.004668077100000627,0.001596933715000203,-0.013950076652691192,0.0025532507500003227
0.35000000000000003,6.481451399997784e-05,-0.7843368999999999,-0.0003059120000000743,-2.3559425,0.000130534800000008,1.5713472,0.785824,0.039999973,0.039999958,-9.814913,-0.007917454466224084,0.004756893000000753,0.0016256548000002445,-0.014011970721185688,0.0025989460000003894
0.3525,6.203434439997774e-05,-0.7843245294999999,-0.00031523410250007463,-2.355940535,0.00013153698450000802,1.57135734,0.7858192599999999,0.0399999736,0.0399999583,-9.81484565,-0.00796568337827957,0.004851315705000756,0.0016563077950002454,-0.014073109440505984,0.002647794505000391
0.355,5.925417479997758e-05,-0.7843121589999998,-0.00032455620500007517,-2.3559385699999997,0.00013253916900000807,1.57136748,0.78581452,0.0399999742,0.0399999586,-9.8147783,-0.008013912290335058,0.0049457384100007615,0.0016869607900002472,-0.014134248159826283,0.002696643010000394
0.3575,5.647400519997742e-05,-0.7842997884999999,-0.0003338783075000757,-2.3559366049999997,0.00013354135350000814,1.57137762,0.7858097799999999,0.0399999748,0.0399999589,-9.81471095,-0.008062141202390547,0.005040161115000767,0.001717613785000249,-0.014195386879146581,0.0027454915150003966
0.36,5.3693835599977255e-05,-0.7842874179999999,-0.00034320041000007626,-2.35593464,0.0001345435380000082,1.57138776,0.78580504,0.0399999754,0.039999959200000004,-9.814643599999998,-0.008110370114446035,0.005134583820000772,0.0017482667800002506,-0.01425652559846688,0.0027943400200003995
0.3625,5.09136659999771e-05,-0.7842750474999999,-0.0003525225125000768,-2.355932675,0.00013554572250000824,1.5713979,0.7858002999999999,0.039999976,0.0399999595,-9.814576249999998,-0.008158599026501522,0.005229006525000778,0.0017789197750002525,-0.01431766431778718,0.0028431885250004025
0.365,4.813349639997693e-05,-0.7842626769999999,-0.00036184461500007734,-2.35593071,0.00013654790700000832,1.57140804,0.78579556,0.0399999766,0.0399999598,-9.814508899999998,-0.00820682793855701,0.005323429230000783,0.0018095727700002543,-0.014378803037107478,0.002892037030000405
0.3675,4.524178324997487e-05,-0.7842499984999999,-0.0003715371895000842,-2.355928455,0.00013758982850000905,1.57141858,0.7857906299999999,0.039999977,0.0399999599,-9.814453825,-0.00825151540339017,0.005422984315000886,0.0018408994850002637,-0.014440121129155633,0.0029419796550004206
0.37,4.2126982999977345e-05,-0.7842367039999999,-0.0003819707080000759,-2.35592562,0.00013871122400000815,1.57142992,0.7857853199999999,0.039999977,0.0399999596,-9.8144233,-0.008289119973778934,0.005532804160000799,0.0018735736400002376,-0.014501797966659489,0.002994110520000379
0.3725,3.901218274997982e-05,-0.7842234094999999,-0.0003924042265000676,-2.3559227849999997,0.00013983261950000725,1.57144126,0.78578001,0.039999977,0.0399999593,-9.814392775,-0.0083267245441677,0.005642624005000711,0.0019062477950002117,-0.014563474804163345,0.0030462413850003375
0.375,3.5897382499982295e-05,-0.7842101149999999,-0.00040283774500005933,-2.3559199499999997,0.00014095401500000638,1.5714526,0.7857746999999999,0.039999977,0.039999959,-9.814362249999999,-0.008364329114556463,0.005752443850000624,0.0019389219500001856,-0.014625151641667201,0.0030983722500002964
0.3775,3.278258224998477e-05,-0.7841968205,-0.000413271263500051,-2.355917115,0.00014207541050000549,1.5714639400000001,0.78576939,0.039999977,0.039999958700000005,-9.814331724999999,-0.00840193368494523,0.005862263695000537,0.0019715961050001595,-0.014686828479171056,0.003150503115000255
0.38,2.9667781999987245e-05,-0.784183526,-0.0004237047820000427,-2.35591428,0.0001431968060000046,1.57147528,0.78576408,0.039999977,0.0399999584,-9.8143012,-0.008439538255333993,0.005972083540000449,0.0020042702600001337,-0.014748505316674912,0.0032026339800002132
0.3825,2.655298174998972e-05,-0.7841702315,-0.0004341383005000344,-2.355911445,0.0001443182015000037,1.5714866200000002,0.78575877,0.039999977,0.0399999581,-9.814270675,-0.00847714282572276,0.006081903385000362,0.002036944415000108,-0.014810182154178769,0.003254764845000172
0.385,2.320131162998539e-05,-0.78415629,-0.00044535813600004887,-2.35590815,0.00014552385400000526,1.5714987900000001,0.785753067,0.039999977299999996,0.039999958200000005,-9.81422315,-0.008510801754891944,0.0061934289000004725,0.0020709677400001457,-0.01487172422930619,0.003308907130000232
0.3875,1.973120657497927e-05,-0.784142025,-0.00045697113000006933,-2.355904625,0.00014677163500000746,1.571511375,0.7857471675,0.03999997775,0.0399999585,-9.814167124999999,-0.008542487863451364,0.006305807250000671,0.002105665650000207,-0.014933198923245393,0.0033640551250003294
0.39,1.6261101519973152e-05,-0.78412776,-0.00046858412400008984,-2.3559011,0.00014801941600000966,1.5715239600000002,0.785741268,0.0399999782,0.0399999588,-9.8141111,-0.008574173972010785,0.006418185600000869,0.002140363560000268,-0.014994673617184597,0.0034192031200004267
0.3925,1.2790996464967036e-05,-0.7841134949999998,-0.0004801971180001103,-2.3558975749999997,0.00014926719700001186,1.571536545,0.7857353685,0.03999997865,0.0399999591,-9.814055074999999,-0.008605860080570207,0.006530563950001067,0.0021750614700003293,-0.015056148311123799,0.003474351115000524
0.395,9.320891409960917e-06,-0.7840992299999998,-0.0004918101120001308,-2.35589405,0.00015051497800001407,1.5715491300000002,0.785729469,0.0399999791,0.0399999594,-9.81399905,-0.008637546189129628,0.006642942300001266,0.0022097593800003905,-0.015117623005063002,0.003529499110000621
0.3975,5.850786354954801e-06,-0.7840849649999998,-0.0005034231060001513,-2.355890525,0.00015176275900001627,1.571561715,0.7857235695,0.039999979549999995,0.039999959700000004,-9.813943024999999,-0.008669232297689048,0.006755320650001464,0.0022444572900004517,-0.015179097699002206,0.003584647105000718
0.4,2.380681299943124e-06,-0.7840706999999998,-0.0005150361000001902,-2.355887,0.00015301054000002045,1.5715743000000002,0.7857176699999999,0.03999998,0.03999996,-9.813887,-0.008700918406248292,0.006867699000001834,0.0022791552000005423,-0.015240572392941422,0.003639795100000864
0.4025,-1.4653406450538185e-06,-0.7840553849999998,-0.00052789639500018,-2.35588277,0.00015439209550001935,1.57158831,0.7857111194999999,0.03999998,0.039999959700000004,-9.813855949999999,-0.008720636554062562,0.006991743600001736,0.002315833995000513,-0.015302852727473622,0.0036982053400008174
0.405,-5.31136259005076e-06,-0.7840400699999998,-0.0005407566900001697,-2.35587854,0.00015577365100001824,1.5716023200000002,0.785704569,0.03999998,0.0399999594,-9.813824899999998,-0.008740354701876831,0.007115788200001637,0.002352512790000484,-0.015365133062005822,0.003756615580000771
0.40750000000000003,-9.157384535047703e-06,-0.7840247549999998,-0.0005536169850001595,-2.35587431,0.00015715520650001714,1.5716163300000001,0.7856980185,0.03999998,0.0399999591,-9.81379385,-0.008760072849691101,0.007239832800001539,0.002389191585000455,-0.015427413396538022,0.0038150258200007245
0.41000000000000003,-1.3003406480044647e-05,-0.7840094399999998,-0.0005664772800001493,-2.35587008,0.00015853676200001604,1.57163034,0.7856914679999999,0.03999998,0.0399999588,-9.8137628,-0.008779790997505369,0.0073638774000014395,0.0024258703800004258,-0.015489693731070224,0.003873436060000678
0.41250000000000003,-1.684942842504159e-05,-0.7839941249999999,-0.0005793375750001391,-2.35586585,0.00015991831750001494,1.5716443500000001,0.7856849174999999,0.03999998,0.0399999585,-9.813731749999999,-0.008799509145319639,0.007487922000001341,0.0024625491750003966,-0.015551974065602424,0.003931846300000632
0.41500000000000004,-2.0695450370038532e-05,-0.7839788099999999,-0.0005921978700001288,-2.35586162,0.00016129987300001383,1.57165836,0.7856783669999999,0.03999998,0.039999958200000005,-9.8137007,-0.008819227293133908,0.007611966600001243,0.0024992279700003675,-0.015614254400134624,0.003990256540000585
0.4175,-2.4673626750040243e-05,-0.7839631264999999,-0.0006054964880001344,-2.355857095,0.00016272839150001443,1.57167284,0.785671595,0.0399999802,0.0399999581,-9.8136701,-0.00883604311384269,0.007738851500001257,0.002536603660000368,-0.015676695108414202,0.004049661395000583
0.42,-2.8916112000040487e-05,-0.7839467059999998,-0.0006196717520001353,-2.3558519799999997,0.00016425083600001453,1.57168826,0.7856643799999999,0.0399999808,0.0399999584,-9.813640399999999,-0.008847054280340745,0.007871417000001265,0.00257537314000037,-0.015739456564188518,0.004111055480000586
0.4225,-3.3158597250040734e-05,-0.7839302854999999,-0.0006338470160001361,-2.3558468649999997,0.0001657732805000146,1.5717036800000002,0.7856571649999999,0.0399999814,0.039999958700000005,-9.8136107,-0.0088580654468388,0.008003982500001273,0.0026141426200003725,-0.015802218019962837,0.00417244956500059
0.425,-3.7401082500040975e-05,-0.7839138649999998,-0.0006480222800001368,-2.3558417499999997,0.0001672957250000147,1.5717191000000001,0.7856499499999999,0.039999982,0.039999959,-9.813581,-0.008869076613336857,0.00813654800000128,0.0026529121000003746,-0.015864979475737156,0.0042338436500005934
0.4275,-4.1643567750041216e-05,-0.7838974444999999,-0.0006621975440001377,-2.3558366349999997,0.0001688181695000148,1.5717345200000001,0.7856427349999999,0.0399999826,0.0399999593,-9.8135513,-0.008880087779834912,0.008269113500001288,0.0026916815800003767,-0.015927740931511475,0.004295237735000596
0.43,-4.588605300004146e-05,-0.7838810239999998,-0.0006763728080001385,-2.3558315199999997,0.00017034061400001487,1.5717499400000001,0.7856355199999999,0.0399999832,0.0399999596,-9.8135216,-0.008891098946332967,0.008401679000001296,0.0027304510600003793,-0.015990502387285794,0.0043566318200006
0.4325,-5.012853825004171e-05,-0.7838646034999998,-0.0006905480720001393,-2.3558264049999997,0.00017186305850001496,1.5717653600000001,0.7856283049999999,0.0399999838,0.0399999599,-9.8134919,-0.008902110112831024,0.008534244500001304,0.0027692205400003814,-0.016053263843060113,0.004418025905000604
0.435,-5.464897200004873e-05,-0.7838473169999998,-0.0007056448400001627,-2.3558207899999997,0.00017348427900001746,1.5717817800000002,0.7856206049999999,0.039999984,0.0399999598,-9.8134509,-0.00890584522858254,0.00867469960000151,0.0028092963800004263,-0.01611610651016297,0.0044815650100006755
0.4375,-5.930838000005297e-05,-0.7838295974999998,-0.0007212023600001768,-2.355814925,0.000175154887500019,1.5717987000000002,0.7856126625,0.039999984,0.0399999595,-9.81340425,-0.008905942318960951,0.008819099500001641,0.0028500254000004633,-0.01617898978293009,0.004546176625000734
0.44,-6.39677880000572e-05,-0.7838118779999997,-0.000736759880000191,-2.35580906,0.0001768254960000205,1.5718156200000002,0.7856047199999999,0.039999984,0.039999959200000004,-9.8133576,-0.00890603940933936,0.008963499400001773,0.0028907544200005002,-0.01624187305569721,0.004610788240000793
0.4425,-6.862719600006146e-05,-0.7837941584999998,-0.0007523174000002052,-2.355803195,0.00017849610450002202,1.5718325400000002,0.7855967774999999,0.039999984,0.0399999589,-9.81331095,-0.008906136499717771,0.009107899300001904,0.0029314834400005372,-0.016304756328464336,0.0046753998550008525
0.445,-7.328660400006569e-05,-0.7837764389999997,-0.0007678749200002193,-2.3557973299999997,0.00018016671300002355,1.5718494600000004,0.7855888349999999,0.039999984,0.0399999586,-9.8132643,-0.008906233590096181,0.009252299200002036,0.002972212460000574,-0.016367639601231457,0.004740011470000911
0.4475,-7.794601200006994e-05,-0.7837587194999998,-0.0007834324400002335,-2.355791465,0.00018183732150002508,1.5718663800000003,0.7855808925,0.039999984,0.0399999583,-9.81321765,-0.00890633068047459,0.009396699100002168,0.003012941480000611,-0.016430522873998578,0.00480462308500097
0.45,-8.260542000008114e-05,-0.7837409999999997,-0.0007989899600002707,-2.3557856,0.00018350793000002904,1.5718833000000003,0.7855729499999999,0.039999984,0.039999958,-9.813171,-0.008906427770852814,0.009541099000002332,0.0030536705000006816,-0.016493406146765723,0.004869234700001075
0.4525,-8.77020367500771e-05,-0.7837220624999998,-0.0008159965970002572,-2.3557788349999997,0.0001853338005000276,1.5719018250000003,0.7855642949999999,0.0399999846,0.0399999583,-9.81315435,-0.008894741442054288,0.009687529900002215,0.0030964936850006474,-0.01655779201537463,0.0049367775550010215
0.455,-9.279865350007304e-05,-0.7837031249999997,-0.0008330032340002437,-2.35577207,0.00018715967100002616,1.5719203500000003,0.7855556399999999,0.039999985200000004,0.0399999586,-9.8131377,-0.008883055113255761,0.009833960800002099,0.0031393168700006137,-0.016622177883983534,0.005004320410000968
0.4575,-9.789527025006898e-05,-0.7836841874999998,-0.0008500098710002302,-2.355765305,0.00018898554150002472,1.5719388750000003,0.7855469849999999,0.0399999858,0.0399999589,-9.81312105,-0.008871368784457236,0.009980391700001982,0.0031821400550005796,-0.016686563752592438,0.005071863265000914
0.46,-0.00010299188700006494,-0.7836652499999998,-0.0008670165080002167,-2.35575854,0.00019081141200002325,1.5719574000000003,0.78553833,0.0399999864,0.039999959200000004,-9.8131044,-0.008859682455658711,0.010126822600001865,0.0032249632400005454,-0.01675094962120134,0.00513940612000086
0.4625,-0.00010808850375006088,-0.7836463124999998,-0.0008840231450002032,-2.355751775,0.0001926372825000218,1.5719759250000003,0.7855296749999999,0.039999987,0.0399999595,-9.81308775,-0.008847996126860186,0.01027325350000175,0.0032677864250005117,-0.016815335489810245,0.005206948975000807
0.465,-0.00011318512050005684,-0.7836273749999998,-0.0009010297820001897,-2.35574501,0.00019446315300002037,1.5719944500000003,0.7855210199999999,0.0399999876,0.0399999598,-9.8130711,-0.00883630979806166,0.010419684400001633,0.0033106096100004776,-0.01687972135841915,0.005274491830000753
0.4675,-0.0001184341972500591,-0.7836079624999998,-0.0009185415830001971,-2.3557379849999998,0.00019634318750002115,1.5720135300000002,0.7855121059999999,0.039999988,0.0399999599,-9.813045599999999,-0.008820417290553132,0.010572918700001774,0.0033540563800004758,-0.016944087855518517,0.005343085605000752
0.47000000000000003,-0.00012398819400005943,-0.7835875999999998,-0.0009370637120001981,-2.35573044,0.00019833155000002127,1.5720337200000003,0.7855026739999998,0.039999988,0.0399999596,-9.8130024,-0.008796112425625,0.010739759800001785,0.0033987503200004782,-0.017008415609598808,0.005413781220000756
0.47250000000000003,-0.00012954219075005975,-0.7835672374999998,-0.0009555858410001992,-2.355722895,0.0002003199125000214,1.5720539100000002,0.7854932419999999,0.039999988,0.0399999593,-9.8129592,-0.008771807560696869,0.010906600900001794,0.0034434442600004807,-0.017072743363679102,0.00548447683500076
0.47500000000000003,-0.00013509618750006007,-0.7835468749999999,-0.0009741079700002003,-2.35571535,0.0002023082750000215,1.5720741000000003,0.7854838099999999,0.039999988,0.039999959,-9.812916,-0.008747502695768737,0.011073442000001803,0.003488138200000483,-0.017137071117759396,0.005555172450000764
0.47750000000000004,-0.0001406501842500604,-0.7835265124999998,-0.0009926300990002013,-2.355707805,0.00020429663750002163,1.5720942900000003,0.7854743779999999,0.039999988,0.039999958700000005,-9.8128728,-0.008723197830840607,0.011240283100001813,0.003532832140000486,-0.01720139887183969,0.005625868065000768
0.48,-0.00014620418100006057,-0.7835061499999998,-0.001011152228000202,-2.35570026,0.0002062850000000217,1.5721144800000002,0.7854649459999999,0.039999988,0.0399999584,-9.8128296,-0.008698892965912475,0.011407124200001818,0.0035775260800004873,-0.01726572662591998,0.005696563680000771
0.4825,-0.0001517581777500609,-0.7834857874999999,-0.001029674357000203,-2.355692715,0.0002082733625000218,1.5721346700000003,0.7854555139999999,0.039999988,0.0399999581,-9.8127864,-0.008674588100984345,0.01157396530000183,0.00362222002000049,-0.017330054380000275,0.005767259295000775
0.485,-0.00015763039600006647,-0.7834644539999998,-0.0010492506200002216,-2.3556846,0.0002103746750000238,1.5721560300000001,0.7854455429999999,0.0399999882,0.039999958,-9.8127616,-0.008641258534043534,0.011739237800001813,0.003668252500000515,-0.017395257763565243,0.0058399453000008116
0.4875,-0.00016366172500006682,-0.7834426349999998,-0.0010693539500002227,-2.3556762,0.0002125324625000239,1.5721779750000002,0.7854353024999999,0.0399999885,0.039999958,-9.812746,-0.008603416616096607,0.011903726000001821,0.0037149542500005176,-0.01746089896187253,0.005913626500000816
0.49,-0.00016969305400006717,-0.7834208159999998,-0.0010894572800002238,-2.3556678,0.00021469025000002404,1.5721999200000003,0.785425062,0.0399999888,0.039999958,-9.812730400000001,-0.008565574698149678,0.012068214200001832,0.0037616560000005204,-0.01752654016017981,0.00598730770000082
0.4925,-0.00017572438300006752,-0.7833989969999998,-0.001109560610000225,-2.3556594,0.00021684803750002417,1.5722218650000002,0.7854148214999999,0.0399999891,0.039999958,-9.8127148,-0.008527732780202751,0.01223270240000184,0.0038083577500005227,-0.017592181358487096,0.0060609889000008245
0.495,-0.00018175571200006787,-0.7833771779999997,-0.0011296639400002262,-2.355651,0.0002190058250000243,1.5722438100000002,0.7854045809999999,0.0399999894,0.039999958,-9.8126992,-0.008489890862255824,0.012397190600001851,0.0038550595000005254,-0.017657822556794378,0.006134670100000829
0.4975,-0.00018778704100006822,-0.7833553589999998,-0.0011497672700002274,-2.3556426,0.0002211636125000244,1.5722657550000003,0.7853943404999999,0.0399999897,0.039999958,-9.8126836,-0.008452048944308897,0.01256167880000186,0.003901761250000528,-0.017723463755101664,0.006208351300000833
0.5,-0.0001938183700000742,-0.7833335399999998,-0.0011698706000002471,-2.3556342,0.00022332140000002655,1.5722877000000002,0.7853840999999999,0.03999999,0.039999958,-9.812668,-0.008414207026361843,0.012726167000002066,0.0039484630000005535,-0.01778910495340896,0.00628203250000087
0.5025000000000001,-0.00020034681400006918,-0.7833101864999997,-0.0011916202250002305,-2.355624825,0.00022565559050002475,1.5723113850000001,0.7853730299999999,0.03999999075,0.0399999583,-9.8126491,-0.00836523966863697,0.012907940150001926,0.003997136350000516,-0.017855848651380006,0.00635852860000081
0.505,-0.00020687525800006383,-0.7832868329999998,-0.0012133698500002127,-2.3556154499999997,0.00022798978100002285,1.5723350700000003,0.7853619599999999,0.0399999915,0.0399999586,-9.812630200000001,-0.008316272310912101,0.013089713300001778,0.004045809700000476,-0.017922592349351053,0.006435024700000748
0.5075000000000001,-0.00021340370200005878,-0.7832634794999997,-0.0012351194750001959,-2.355606075,0.00023032397150002102,1.5723587550000002,0.7853508899999999,0.03999999225,0.0399999589,-9.8126113,-0.008267304953187228,0.013271486450001637,0.004094483050000438,-0.0179893360473221,0.006511520800000689
0.51,-0.00021993214600005346,-0.7832401259999998,-0.0012568691000001781,-2.3555967,0.00023265816200001912,1.5723824400000002,0.7853398199999999,0.039999993000000005,0.039999959200000004,-9.8125924,-0.00821833759546236,0.013453259600001488,0.0041431564000003985,-0.018056079745293146,0.0065880169000006265
0.5125,-0.0002264605900000481,-0.7832167724999998,-0.0012786187250001604,-2.355587325,0.00023499235250001722,1.572406125,0.7853287499999999,0.039999993750000004,0.0399999595,-9.812573500000001,-0.00816937023773749,0.01363503275000134,0.004191829750000359,-0.018122823443264192,0.006664513000000564
0.515,-0.00023298903400004308,-0.7831934189999998,-0.0013003683500001435,-2.35557795,0.0002373265430000154,1.5724298100000003,0.7853176799999999,0.039999994500000004,0.0399999598,-9.8125546,-0.008120402880012617,0.0138168059000012,0.004240503100000321,-0.01818956714123524,0.006741009100000505
0.5175,-0.00023968968850004475,-0.7831695224999998,-0.0013226881900001491,-2.355568295,0.000239721815000016,1.5724541150000002,0.7853063229999999,0.039999995,0.0399999599,-9.812531700000001,-0.00806574630550993,0.014000886050001198,0.004289826450000322,-0.018256602063775412,0.0068185096750005055
0.52,-0.0002467347640000513,-0.7831445399999998,-0.001346148460000171,-2.3555580799999998,0.00024223925000001835,1.5724796600000002,0.785294392,0.039999995,0.0399999596,-9.8125008,-0.007999711297451919,0.014189580200001375,0.004340449800000369,-0.018324219435453832,0.0068980192000005795
0.5225,-0.00025377983950005756,-0.7831195574999997,-0.0013696087300001918,-2.355547865,0.00024475668500002057,1.5725052050000001,0.7852824609999999,0.039999995,0.0399999593,-9.8124699,-0.00793367628939391,0.014378274350001542,0.004391073150000414,-0.018391836807132245,0.00697752872500065
0.525,-0.00026082491500006416,-0.7830945749999997,-0.0013930690000002136,-2.35553765,0.00024727412000002296,1.5725307500000003,0.7852705299999999,0.039999995,0.039999959,-9.812439,-0.007867641281335899,0.014566968500001718,0.0044416965000004605,-0.018459454178810664,0.007057038250000724
0.5275,-0.00026786999050007037,-0.7830695924999997,-0.0014165292700002343,-2.355527435,0.0002497915550000252,1.5725562950000003,0.785258599,0.039999995,0.039999958700000005,-9.8124081,-0.00780160627327789,0.014755662650001885,0.004492319850000506,-0.01852707155048908,0.0071365477750007945
0.53,-0.00027491506600007696,-0.7830446099999997,-0.0014399895400002563,-2.35551722,0.0002523089900000275,1.5725818400000002,0.7852466679999999,0.039999995,0.0399999584,-9.8123772,-0.007735571265219878,0.014944356800002062,0.004542943200000553,-0.018594688922167497,0.0072160573000008684
0.5325,-0.00028196014150008323,-0.7830196274999996,-0.001463449810000277,-2.3555070049999998,0.0002548264250000298,1.5726073850000002,0.7852347369999999,0.039999995,0.0399999581,-9.8123463,-0.007669536257161869,0.01513305095000223,0.0045935665500005975,-0.018662306293845913,0.007295566825000939
0.535,-0.0002893625030000923,-0.7829935339999996,-0.0014880929000003072,-2.35549611,0.000257470503000033,1.5726342400000004,0.7852221999999999,0.039999995,0.039999958,-9.8123277,-0.0075962857343246735,0.015328371300002419,0.0046454572500006395,-0.01873092520982105,0.007376800100001
0.5375,-0.0002969435075000926,-0.7829668849999997,-0.0015133274000003081,-2.3554848749999997,0.0002601779025000331,1.5726617500000004,0.7852093599999999,0.039999995,0.039999958,-9.81231525,-0.007519427454098086,0.015527004750002425,0.004697981625000641,-0.01880004489794452,0.007458895250001003
0.54,-0.0003045245120000932,-0.7829402359999996,-0.0015385619000003103,-2.35547364,0.0002628853020000333,1.5726892600000004,0.7851965199999998,0.039999995,0.039999958,-9.8123028,-0.007442569173871495,0.015725638200002442,0.004750506000000645,-0.018869164586067987,0.007540990400001009
0.5425,-0.0003121055165000935,-0.7829135869999997,-0.0015637964000003112,-2.355462405,0.0002655927015000334,1.5727167700000004,0.7851836799999998,0.039999995,0.039999958,-9.81229035,-0.007365710893644907,0.015924271650002448,0.0048030303750006475,-0.018938284274191457,0.007623085550001012
0.545,-0.00031968652100009405,-0.7828869379999996,-0.0015890309000003132,-2.35545117,0.0002683001010000336,1.5727442800000004,0.7851708399999998,0.039999995,0.039999958,-9.8122779,-0.007288852613418316,0.016122905100002465,0.004855554750000652,-0.019007403962314928,0.007705180700001019
0.5475,-0.00032726752550009435,-0.7828602889999997,-0.001614265400000314,-2.3554399349999997,0.0002710075005000337,1.5727717900000004,0.7851579999999998,0.039999995,0.039999958,-9.81226545,-0.007211994333191728,0.01632153855000247,0.004908079125000653,-0.019076523650438396,0.007787275850001022
0.55,-0.0003348485300001019,-0.7828336399999997,-0.001639499900000339,-2.3554287,0.0002737149000000364,1.5727993000000005,0.7851451599999998,0.039999995,0.039999958,-9.812253,-0.007135136052964874,0.016520172000002595,0.0049606035000006815,-0.019145643338561873,0.007869371000001069
0.5525,-0.0003429845510000952,-0.7828052539999997,-0.001666571495000317,-2.35541664,0.00027661952550003403,1.5728287600000004,0.7851313959999998,0.03999999575,0.0399999583,-9.812225999999999,-0.007037276355548524,0.016727533200002427,0.005015026575000637,-0.019215401727706947,0.007954685750000998
0.555,-0.00035112057200008896,-0.7827768679999997,-0.0016936430900002962,-2.35540458,0.0002795241510000318,1.5728582200000003,0.7851176319999998,0.0399999965,0.0399999586,-9.812199,-0.00693941665813217,0.016934894400002266,0.005069449650000595,-0.019285160116852024,0.008040000500000933
0.5575,-0.00035925659300008227,-0.7827484819999997,-0.0017207146850002739,-2.35539252,0.0002824287765000294,1.5728876800000005,0.7851038679999999,0.03999999725,0.0399999589,-9.812172,-0.00684155696071582,0.0171422556000021,0.005123872725000551,-0.019354918505997094,0.008125315250000863
0.56,-0.000367392614000076,-0.7827200959999997,-0.0017477862800002529,-2.35538046,0.00028533340200002715,1.5729171400000004,0.7850901039999999,0.039999998,0.039999959200000004,-9.812145,-0.0067436972632994654,0.017349616800001938,0.005178295800000509,-0.01942467689514217,0.008210630000000798
0.5625,-0.00037552863500006937,-0.7826917099999998,-0.0017748578750002308,-2.3553684,0.0002882380275000248,1.5729466000000003,0.7850763399999999,0.03999999875,0.0399999595,-9.812118,-0.0066458375658831155,0.01755697800000177,0.005232718875000464,-0.019494435284287244,0.008295944750000728
0.5650000000000001,-0.00038366465600006306,-0.7826633239999998,-0.00180192947000021,-2.35535634,0.00029114265300002253,1.5729760600000002,0.785062576,0.0399999995,0.0399999598,-9.812090999999999,-0.006547977868466761,0.01776433920000161,0.0052871419500004225,-0.01956419367343232,0.008381259500000663
0.5675,-0.0003919919265000678,-0.7826343174999998,-0.0018296339950002257,-2.355343925,0.00029411494650002424,1.5730062200000003,0.7850484799999999,0.04,0.03999996,-9.81207505,-0.006446900963782373,0.017976938600001737,0.005342204890000439,-0.019634729623795023,0.008467406600000685
0.5700000000000001,-0.00040070169600008336,-0.7826040699999998,-0.0018586043800002774,-2.3553308,0.00029722257600002977,1.5730377800000004,0.7850337199999998,0.04,0.03999996,-9.8120812,-0.00633938964456211,0.018200014400002136,0.00539854756000054,-0.01970682069659293,0.008555218400000841
0.5725,-0.0004094114655000985,-0.7825738224999996,-0.0018875747650003278,-2.3553176749999998,0.0003003302055000352,1.5730693400000004,0.7850189599999998,0.04,0.03999996,-9.81208735,-0.006231878325341854,0.018423090200002525,0.005454890230000638,-0.019778911769390835,0.008643030200000994
0.5750000000000001,-0.00041812123500011407,-0.7825435749999996,-0.0019165451500003795,-2.35530455,0.0003034378350000407,1.5731009000000005,0.7850041999999998,0.04,0.03999996,-9.8120935,-0.006124367006121591,0.018646166000002923,0.0055112329000007385,-0.019851002842188745,0.008730842000001151
0.5775,-0.00042683100450012924,-0.7825133274999996,-0.00194551553500043,-2.355291425,0.00030654546450004615,1.5731324600000005,0.7849894399999997,0.04,0.03999996,-9.81209965,-0.006016855686901334,0.018869241800003312,0.005567575570000836,-0.01992309391498665,0.008818653800001302
0.58,-0.0004355407740001444,-0.7824830799999994,-0.0019744859200004805,-2.3552782999999997,0.00030965309400005157,1.5731640200000006,0.7849746799999997,0.04,0.03999996,-9.8121058,-0.005909344367681077,0.0190923176000037,0.005623918240000934,-0.019995184987784555,0.008906465600001455
0.5825,-0.00044425054350015995,-0.7824528324999994,-0.002003456305000532,-2.3552651749999995,0.0003127607235000571,1.5731955800000006,0.7849599199999997,0.04,0.03999996,-9.81211195,-0.005801833048460815,0.019315393400004096,0.005680260910001034,-0.020067276060582465,0.008994277400001612
0.585,-0.0004533551640001712,-0.7824213219999994,-0.0020337331700005694,-2.35525139,0.00031600842700006107,1.5732285700000006,0.7849444999999997,0.04,0.0399999594,-9.8120947,-0.005679922271517444,0.019538399500004102,0.005737927820001073,-0.02013983577489981,0.009083968800001667
0.5875,-0.000462657210000164,-0.7823891799999994,-0.0020646632750005453,-2.3552372749999995,0.0003193261675000585,1.5732622750000005,0.7849287499999997,0.04,0.0399999585,-9.812065749999999,-0.005550811765713124,0.01976137075000393,0.005796256850001028,-0.02021262980997686,0.009174600000001597
0.59,-0.0004719592560001564,-0.7823570379999994,-0.00209559338000052,-2.3552231599999995,0.0003226439080000558,1.5732959800000006,0.7849129999999997,0.04,0.0399999576,-9.8120368,-0.005421701259908809,0.01998434200000375,0.005854585880000981,-0.020285423845053902,0.009265231200001523
0.5925,-0.0004812613020001492,-0.7823248959999994,-0.0021265234850004963,-2.3552090449999996,0.00032596164850005324,1.5733296850000005,0.7848972499999998,0.04,0.0399999567,-9.812007849999999,-0.005292590754104489,0.020207313250003578,0.005912914910000936,-0.020358217880130952,0.009355862400001453
0.595,-0.0004905633480001416,-0.7822927539999994,-0.002157453590000471,-2.3551949299999997,0.0003292793890000505,1.5733633900000004,0.7848814999999998,0.04,0.0399999558,-9.8119789,-0.0051634802483001745,0.020430284500003396,0.005971243940000888,-0.020431011915208,0.009446493600001379
0.5975,-0.0004998653940001344,-0.7822606119999995,-0.002188383695000447,-2.3551808149999998,0.0003325971295000479,1.5733970950000005,0.7848657499999998,0.04,0.039999954899999995,-9.811949949999999,-0.005034369742495854,0.02065325575000322,0.006029572970000843,-0.020503805950285045,0.00953712480000131
0.6,-0.0005091674400001351,-0.7822284699999995,-0.0022193138000004492,-2.3551667,0.00033591487000004817,1.5734308000000004,0.7848499999999998,0.04,0.039999954,-9.811921,-0.0049052592366913795,0.020876227000003265,0.006087902000000821,-0.020576599985362112,0.00962775600000127
0.6025,-0.0005190798990001275,-0.7821943884999996,-0.002252263820000424,-2.35515149,0.0003394490605000454,1.5734666800000003,0.7848332299999998,0.04,0.039999954899999995,-9.8119099,-0.004764388501642248,0.021115577050003078,0.006148087490000774,-0.020650785136968844,0.009720879300001197
0.605,-0.0005289923580001194,-0.7821603069999996,-0.002285213840000397,-2.3551362799999995,0.0003429832510000425,1.5735025600000003,0.7848164599999998,0.04,0.0399999558,-9.8118988,-0.004623517766593123,0.021354927100002884,0.0062082729800007255,-0.020724970288575572,0.00981400260000112
0.6075,-0.0005389048170001118,-0.7821262254999996,-0.0023181638600003715,-2.3551210699999996,0.00034651744150003983,1.5735384400000003,0.7847996899999998,0.04,0.0399999567,-9.8118877,-0.0044826470315439924,0.021594277150002696,0.006268458470000678,-0.020799155440182307,0.009907125900001049
0.61,-0.0005488172760001036,-0.7820921439999996,-0.0023511138800003445,-2.3551058599999997,0.0003500516320000369,1.5735743200000003,0.7847829199999998,0.04,0.0399999576,-9.8118766,-0.004341776296494867,0.021833627200002502,0.0063286439600006295,-0.020873340591789035,0.010000249200000973
0.6125,-0.0005587297350000959,-0.7820580624999997,-0.002384063900000319,-2.3550906499999997,0.0003535858225000342,1.5736102000000003,0.7847661499999999,0.04,0.0399999585,-9.8118655,-0.004200905561445737,0.022072977250002318,0.006388829450000583,-0.02094752574339577,0.010093372500000902
0.615,-0.0005686421940000879,-0.7820239809999997,-0.002417013920000292,-2.35507544,0.00035712001300003133,1.5736460800000003,0.7847493799999999,0.04,0.0399999594,-9.8118544,-0.004060034826396611,0.02231232730000212,0.0064490149400005334,-0.021021710895002498,0.010186495800000825
0.6175,-0.0005787641170000942,-0.7819892169999997,-0.0024506568200003136,-2.355059885,0.0003607283670000336,1.5736827350000002,0.7847322549999999,0.04,0.0399999599,-9.81184025,-0.003911758214233817,0.022555615950002245,0.006509824420000555,-0.021096282079816484,0.010280500100000856
0.62,-0.0005893049680001126,-0.7819530879999996,-0.002485685480000374,-2.35504364,0.00036448504800004014,1.5737209400000003,0.7847144199999998,0.04,0.0399999596,-9.811819999999999,-0.0037486698478442575,0.022806781800002684,0.006571881880000663,-0.021171625331044948,0.010376266400001022
0.6225,-0.0005998458190001315,-0.7819169589999996,-0.002520714140000437,-2.355027395,0.00036824172900004685,1.5737591450000004,0.7846965849999998,0.04,0.0399999593,-9.81179975,-0.0035855814814546917,0.02305794765000313,0.006633939340000774,-0.02124696858227341,0.010472032700001193
0.625,-0.0006103866700001498,-0.7818808299999995,-0.002555742800000498,-2.3550111499999997,0.0003719984100000534,1.5737973500000004,0.7846787499999998,0.04,0.039999959,-9.8117795,-0.0034224931150651323,0.02330911350000357,0.0066959968000008824,-0.02132231183350187,0.010567799000001361
0.6275000000000001,-0.0006209275210001686,-0.7818447009999995,-0.00259077146000056,-2.354994905,0.0003757550910000601,1.5738355550000007,0.7846609149999998,0.04,0.039999958700000005,-9.81175925,-0.0032594047486755665,0.023560279350004015,0.006758054260000993,-0.021397655084730335,0.010663565300001532
0.63,-0.000631468372000187,-0.7818085719999994,-0.002625800120000621,-2.35497866,0.00037951177200006665,1.5738737600000008,0.7846430799999997,0.04,0.0399999584,-9.811739,-0.0030963163822860075,0.023811445200004454,0.006820111720001101,-0.0214729983359588,0.0107593316000017
0.6325000000000001,-0.0006420092230002058,-0.7817724429999993,-0.002660828780000684,-2.3549624149999997,0.00038326845300007336,1.5739119650000009,0.7846252449999996,0.04,0.0399999581,-9.811718749999999,-0.0029332280158964412,0.0240626110500049,0.0068821691800012115,-0.021548341587187263,0.010855097900001871
0.635,-0.0006529807030002189,-0.7817349199999992,-0.0026972818500007266,-2.3549454499999998,0.000387177848000078,1.5739516900000008,0.7846066969999996,0.04,0.039999957600000004,-9.8117069,-0.0027610458433593135,0.024319457100005076,0.0069454519600012496,-0.02162463236600304,0.010952436200001919
0.6375000000000001,-0.0006641674975002102,-0.7816966999999994,-0.0027344471250006983,-2.354928125,0.0003911636000000749,1.5739921750000008,0.7845877924999997,0.04,0.039999957,-9.81169925,-0.002584316767748805,0.02457914325000488,0.0070093474000012005,-0.021701396908612443,0.011050560500001845
0.64,-0.000675354292000201,-0.7816584799999994,-0.0027716124000006677,-2.3549108,0.00039514935200007164,1.5740326600000007,0.7845688879999997,0.04,0.0399999564,-9.8116916,-0.0024075876921383047,0.024838829400004665,0.007073242840001148,-0.021778161451221842,0.011148684800001763
0.6425,-0.0006865410865001919,-0.7816202599999994,-0.002808777675000637,-2.354893475,0.0003991351040000684,1.5740731450000007,0.7845499834999997,0.04,0.0399999558,-9.81168395,-0.002230858616527804,0.025098515550004454,0.0071371382800010956,-0.021854925993831237,0.011246809100001684
0.645,-0.0006977278810001832,-0.7815820399999994,-0.0028459429500006087,-2.35487615,0.0004031208560000653,1.5741136300000007,0.7845310789999997,0.04,0.0399999552,-9.8116763,-0.0020541295409172954,0.025358201700004253,0.0072010337200010465,-0.02193169053644064,0.011344933400001608
0.6475,-0.0007089146755001741,-0.7815438199999994,-0.002883108225000578,-2.354858825,0.00040710660800006204,1.5741541150000007,0.7845121744999998,0.04,0.0399999546,-9.811668650000001,-0.001877400465306795,0.025617887850004042,0.007264929160000994,-0.022008455079050037,0.011443057700001527
0.65,-0.0007201014700001752,-0.7815055999999995,-0.002920273500000582,-2.3548414999999996,0.0004110923600000624,1.5741946000000007,0.7844932699999997,0.04,0.039999954,-9.811661,-0.0017006713896959669,0.02587757400000401,0.00732882460000097,-0.022085219621659456,0.011541182000001489
0.6525,-0.0007319513995001757,-0.7814652124999995,-0.0029596323900005833,-2.354823035,0.0004153130360000626,1.5742374550000007,0.7844732419999997,0.04,0.03999995235,-9.811643225000001,-0.0015023167245059898,0.026148899400004023,0.007394457970000973,-0.022163249552251036,0.011641862000001493
0.655,-0.0007438013290001766,-0.7814248249999994,-0.0029989912800005864,-2.3548045699999998,0.0004195337120000629,1.5742803100000007,0.7844532139999997,0.04,0.0399999507,-9.811625450000001,-0.0013039620593160038,0.026420224800004045,0.007460091340000978,-0.022241279482842623,0.0117425420000015
0.6575,-0.000755651258500177,-0.7813844374999994,-0.003038350170000588,-2.3547861049999996,0.00042375438800006305,1.5743231650000007,0.7844331859999997,0.04,0.03999994905,-9.811607675,-0.0011056073941260267,0.026691550200004053,0.00752572471000098,-0.022319309413434206,0.011843222000001504
0.66,-0.000767501188000178,-0.7813440499999994,-0.003077709060000591,-2.3547676399999995,0.0004279750640000634,1.5743660200000007,0.7844131579999997,0.04,0.0399999474,-9.8115899,-0.0009072527289360409,0.026962875600004075,0.007591358080000985,-0.022397339344025793,0.011943902000001512
0.6625,-0.0007793511175001784,-0.7813036624999994,-0.0031170679500005924,-2.354749175,0.0004321957400000635,1.5744088750000007,0.7843931299999998,0.04,0.03999994575,-9.811572125,-0.0007088980637460639,0.027234201000004087,0.007656991450000988,-0.022475369274617372,0.012044582000001516
0.665,-0.0007912010470001793,-0.7812632749999994,-0.0031564268400005955,-2.3547307099999997,0.0004364164160000639,1.5744517300000007,0.7843731019999998,0.04,0.039999944100000004,-9.81155435,-0.0005105433985560779,0.02750552640000411,0.007722624820000993,-0.02255339920520896,0.012145262000001525
0.6675,-0.0008032776850001936,-0.7812221524999994,-0.0031965355350006427,-2.3547118699999996,0.00044071738850006895,1.5744954200000008,0.7843526959999997,0.03999999975,0.039999942450000006,-9.8115394,-0.00030674459412361713,0.027780504000004366,0.007788884880001044,-0.022631980013103476,0.012246664600001591
0.67,-0.0008158077400002053,-0.7811795599999993,-0.0032381438400006816,-2.3546922799999996,0.0004451789540000731,1.5745407800000009,0.7843315339999997,0.039999999,0.0399999408,-9.8115301,-9.205751120692194e-05,0.028062786000004628,0.007856398320001106,-0.022711662575603784,0.012349512400001686
0.6725,-0.0008283377950002164,-0.7811369674999993,-0.003279752145000719,-2.3546726899999997,0.0004496405195000771,1.5745861400000007,0.7843103719999996,0.03999999825,0.039999939150000004,-9.8115208,0.0001226295717097637,0.02834506800000488,0.007923911760001167,-0.02279134513810409,0.012452360200001776
0.675,-0.0008408678500002281,-0.7810943749999992,-0.0033213604500007573,-2.3546530999999997,0.00045410208500008126,1.5746315000000008,0.7842892099999996,0.0399999975,0.0399999375,-9.8115115,0.000337316654626459,0.02862735000000514,0.007991425200001229,-0.0228710277006044,0.012555208000001872
0.6775,-0.0008533979050002392,-0.7810517824999992,-0.0033629687550007946,-2.3546335099999998,0.0004585636505000852,1.574676860000001,0.7842680479999996,0.03999999675,0.03999993585,-9.8115022,0.0005520037375431446,0.028909632000005393,0.00805893864000129,-0.022950710263104707,0.012658055800001964
0.68,-0.0008659279600002509,-0.7810091899999991,-0.003404577060000833,-2.35461392,0.00046302521600008934,1.574722220000001,0.7842468859999996,0.039999996,0.039999934200000004,-9.8114929,0.0007666908204598398,0.029191914000005655,0.008126452080001352,-0.023030392825605015,0.012760903600002059
0.6825,-0.000878458015000262,-0.7809665974999991,-0.0034461853650008703,-2.3545943299999994,0.0004674867815000933,1.574767580000001,0.7842257239999996,0.03999999525,0.03999993255,-9.811483599999999,0.0009813779033765256,0.029474196000005906,0.008193965520001413,-0.023110075388105323,0.01286375140000215
0.685,-0.000891452534000274,-0.7809224839999991,-0.0034893296900009095,-2.3545739699999997,0.0004721128430000975,1.5748146000000012,0.7842037729999995,0.0399999955,0.0399999324,-9.811472649999999,0.001209143921737733,0.029764513000006095,0.008262653200001436,-0.023190485127271822,0.012968322100002183
0.6875,-0.0009046792850002631,-0.7808776099999991,-0.0035332420250008736,-2.3545532249999996,0.00047682115250009366,1.574862450000001,0.7841814274999995,0.03999999625,0.039999933,-9.811460875,0.0014434494078205615,0.030058847500005856,0.008331928000001378,-0.023271258454771383,0.013073754250002097
0.6900000000000001,-0.0009179060360002529,-0.7808327359999991,-0.00357715436000084,-2.3545324799999996,0.00048152946200009,1.574910300000001,0.7841590819999996,0.039999997,0.0399999336,-9.811449099999999,0.0016777548939034006,0.030353182000005627,0.008401202800001326,-0.023352031782270945,0.013179186400002015
0.6925,-0.0009311327870002421,-0.7807878619999992,-0.003621066695000804,-2.3545117349999996,0.0004862377715000862,1.574958150000001,0.7841367364999996,0.03999999775,0.039999934200000004,-9.811437325,0.001912060379986229,0.030647516500005387,0.008470477600001268,-0.023432805109770503,0.01328461855000193
0.6950000000000001,-0.0009443595380002319,-0.7807429879999992,-0.00366497903000077,-2.3544909899999995,0.0004909460810000825,1.5750060000000008,0.7841143909999996,0.0399999985,0.0399999348,-9.81142555,0.002146365866069068,0.030941851000005162,0.008539752400001216,-0.023513578437270068,0.013390050700001849
0.6975,-0.0009575862890002211,-0.7806981139999992,-0.0037088913650007342,-2.3544702449999995,0.0004956543905000787,1.5750538500000009,0.7840920454999996,0.03999999925,0.0399999354,-9.811413774999998,0.002380671352151896,0.03123618550000492,0.008609027200001158,-0.023594351764769626,0.013495482850001761
0.7000000000000001,-0.0009708130400002223,-0.7806532399999992,-0.003752803700000738,-2.3544494999999994,0.000500362700000079,1.575101700000001,0.7840696999999996,0.04,0.039999936,-9.811402,0.002614976838235046,0.031530520000004884,0.008678302000001133,-0.023675125092269215,0.013600915000001709
0.7025,-0.0009847526840002228,-0.7806060439999992,-0.0037990737200007396,-2.3544275849999994,0.0005053233500000793,1.5751521300000009,0.7840461709999996,0.04,0.0399999354,-9.811392175,0.002868735883388915,0.0318370141000049,0.008749403650001137,-0.023757501598448787,0.013708132300001712
0.705,-0.0009986923280002231,-0.7805588479999993,-0.003845343740000741,-2.35440567,0.0005102840000000794,1.5752025600000008,0.7840226419999996,0.04,0.0399999348,-9.811382349999999,0.003122494928542784,0.03214350820000491,0.00882050530000114,-0.02383987810462836,0.013815349600001718
0.7075,-0.0010126319720002244,-0.7805116519999993,-0.003891613760000745,-2.3543837549999997,0.0005152446500000798,1.575252990000001,0.7839991129999996,0.04,0.039999934200000004,-9.811372525,0.003376253973696664,0.03245000230000493,0.008891606950001145,-0.023922254610807936,0.013922566900001725
0.71,-0.0010265716160002248,-0.7804644559999993,-0.003937883780000747,-2.3543618399999997,0.0005202053000000799,1.575303420000001,0.7839755839999997,0.04,0.0399999336,-9.8113627,0.003630013018850533,0.03275649640000494,0.008962708600001148,-0.02400463111698751,0.01402978420000173
0.7125,-0.0010405112600002258,-0.7804172599999992,-0.00398415380000075,-2.3543399249999997,0.0005251659500000804,1.5753538500000008,0.7839520549999996,0.04,0.039999933,-9.811352874999999,0.0038837720640044135,0.03306299050000497,0.009033810250001153,-0.024087007623167084,0.014137001500001738
0.715,-0.0010544509040002264,-0.7803700639999992,-0.004030423820000752,-2.3543180099999996,0.0005301266000000806,1.5754042800000008,0.7839285259999996,0.04,0.0399999324,-9.81134305,0.004137531109158283,0.03336948460000498,0.009104911900001155,-0.02416938412934666,0.014244218800001741
0.7175,-0.0010686335150002393,-0.7803220679999991,-0.004077497225000795,-2.354295695,0.0005351732820000852,1.575455580000001,0.7839045844999997,0.04,0.0399999319,-9.811333175,0.004397798608992922,0.033680322800005214,0.00917657970000119,-0.024252206645907243,0.014352209550001788
0.72,-0.00108330206000024,-0.7802724719999992,-0.004126177400000796,-2.3542725799999995,0.0005403920280000853,1.575508620000001,0.7838798179999996,0.04,0.039999931600000004,-9.8113232,0.004671083018188111,0.033999849200005226,0.00924937980000119,-0.02433592118322977,0.014461747200001792
0.7225,-0.001097970605000241,-0.7802228759999992,-0.004174857575000801,-2.3542494649999997,0.0005456107740000858,1.5755616600000009,0.7838550514999996,0.04,0.0399999313,-9.811313225,0.004944367427383313,0.03431937560000525,0.009322179900001197,-0.0244196357205523,0.014571284850001802
0.725,-0.0011126391500002417,-0.7801732799999992,-0.004223537750000802,-2.35422635,0.000550829520000086,1.575614700000001,0.7838302849999996,0.04,0.039999931,-9.81130325,0.005217651836578503,0.034638902000005266,0.0093949800000012,-0.02450335025787483,0.014680822500001805
0.7275,-0.0011273076950002428,-0.7801236839999991,-0.004272217925000806,-2.3542032349999995,0.0005560482660000864,1.575667740000001,0.7838055184999996,0.04,0.039999930700000005,-9.811293275,0.005490936245773704,0.034958428400005286,0.009467780100001206,-0.02458706479519736,0.014790360150001814
0.73,-0.0011419762400002433,-0.7800740879999991,-0.004320898100000808,-2.3541801199999997,0.0005612670120000866,1.5757207800000008,0.7837807519999995,0.04,0.0399999304,-9.8112833,0.005764220654968894,0.0352779548000053,0.009540580200001206,-0.02467077933251989,0.014899897800001817
0.7325,-0.0011566447850002446,-0.7800244919999991,-0.004369578275000812,-2.354157005,0.000566485758000087,1.5757738200000009,0.7837559854999996,0.04,0.039999930100000004,-9.811273325,0.006037505064164095,0.035597481200005325,0.009613380300001213,-0.02475449386984242,0.015009435450001826
0.735,-0.0011718095900002487,-0.7799732579999991,-0.004419899440000825,-2.3541330699999996,0.0005718801760000885,1.5758286700000008,0.7837303909999995,0.04,0.0399999295,-9.8112656,0.006325585767631438,0.03592346850000531,0.009687389300001204,-0.024839298427106256,0.0151202894000018
0.7375,-0.0011872225250002368,-0.7799212049999992,-0.004471041100000786,-2.3541087249999997,0.0005773624300000843,1.5758844250000008,0.7837043824999996,0.04,0.039999928750000004,-9.811259,0.006621064618234315,0.03625268625000506,0.009762002750001145,-0.02492464799434071,0.015231801500001713
0.74,-0.0012026354600002242,-0.7798691519999992,-0.004522182760000744,-2.3540843799999998,0.0005828446840000798,1.5759401800000008,0.7836783739999996,0.04,0.039999928000000004,-9.8112524,0.006916543468837178,0.036581904000004786,0.009836616200001085,-0.02500999756157516,0.015343313600001622
0.7425,-0.0012180483950002124,-0.7798170989999993,-0.0045733244200007045,-2.354060035,0.0005883269380000755,1.5759959350000008,0.7836523654999996,0.04,0.03999992725,-9.8112458,0.0072120223194400545,0.036911121750004536,0.009911229650001028,-0.025095347128809616,0.015454825700001536
0.745,-0.0012334613300001998,-0.7797650459999993,-0.004624466080000663,-2.35403569,0.000593809192000071,1.5760516900000008,0.7836263569999997,0.04,0.0399999265,-9.8112392,0.007507501170042919,0.037240339500004264,0.009985843100000967,-0.02518069669604407,0.015566337800001447
0.7475,-0.0012488742650001879,-0.7797129929999993,-0.004675607740000623,-2.3540113449999995,0.0005992914460000668,1.5761074450000008,0.7836003484999997,0.04,0.03999992575,-9.8112326,0.007802980020645795,0.037569557250004014,0.010060456550000908,-0.02526604626327852,0.01567784990000136
0.75,-0.001264287200000184,-0.7796609399999993,-0.00472674940000061,-2.3539869999999996,0.0006047737000000654,1.5761632000000008,0.7835743399999997,0.04,0.039999925,-9.811226,0.008098458871248864,0.0378987750000039,0.010135070000000867,-0.025351395830512984,0.015789362000001292
0.7525000000000001,-0.001280459675000199,-0.7796064239999994,-0.00478040254000066,-2.353961455,0.0006105249160000707,1.5762216250000007,0.7835470489999997,0.03999999925,0.039999923199999995,-9.811207999999999,0.008412068057809082,0.03824168985000422,0.010211415500000938,-0.025437750108541074,0.015903014750001398
0.755,-0.0012966321500002135,-0.7795519079999993,-0.004834055680000707,-2.3539359099999997,0.0006162761320000758,1.5762800500000007,0.7835197579999996,0.0399999985,0.0399999214,-9.81119,0.008725677244369286,0.03858460470000453,0.010287761000001007,-0.02552410438656916,0.0160166675000015
0.7575000000000001,-0.0013128046250002283,-0.7794973919999992,-0.0048877088200007576,-2.3539103649999995,0.0006220273480000812,1.576338475000001,0.7834924669999996,0.03999999775,0.039999919599999996,-9.811172,0.009039286430929503,0.03892751955000485,0.010364106500001078,-0.02561045866459725,0.016130320250001606
0.76,-0.0013289771000002427,-0.7794428759999992,-0.004941361960000805,-2.3538848199999998,0.0006277785640000863,1.5763969000000009,0.7834651759999997,0.039999997,0.0399999178,-9.811154,0.009352895617489707,0.03927043440000515,0.010440452000001146,-0.02569681294262534,0.016243973000001705
0.7625000000000001,-0.0013451495750002578,-0.7793883599999991,-0.004995015100000855,-2.3538592749999996,0.0006335297800000916,1.5764553250000009,0.7834378849999996,0.03999999625,0.039999915999999996,-9.811136,0.009666504804049925,0.03961334925000547,0.010516797500001217,-0.02578316722065343,0.01635762575000181
0.765,-0.0013613220500002722,-0.779333843999999,-0.005048668240000903,-2.3538337299999994,0.0006392809960000967,1.5765137500000008,0.7834105939999996,0.0399999955,0.0399999142,-9.811118,0.00998011399061013,0.03995626410000577,0.010593143000001285,-0.025869521498681512,0.01647127850000191
0.7675000000000001,-0.001377752650000296,-0.7792784724999989,-0.005103174800000982,-2.3538077849999994,0.0006451235630001052,1.5765731100000009,0.7833828749999995,0.03999999525,0.039999913,-9.81110685,0.01030160002410999,0.040304093900006256,0.010670058500001365,-0.025956565234811605,0.016585514150002017
0.77,-0.0013946995000002967,-0.779221389999999,-0.0051593882000009845,-2.3537810399999994,0.0006511488320001055,1.576634340000001,0.7833542999999995,0.039999996,0.039999913,-9.811109400000001,0.010638839751487886,0.04066175360000627,0.010748114000001367,-0.026044987887145588,0.01670091560000202
0.7725,-0.0014116463500002973,-0.779164307499999,-0.005215601600000987,-2.3537542949999994,0.0006571741010001057,1.576695570000001,0.7833257249999995,0.03999999675,0.039999913,-9.81111195,0.010976079478865784,0.04101941330000628,0.01082616950000137,-0.02613341053947957,0.016816317050002024
0.775,-0.0014285932000002988,-0.779107224999999,-0.005271815000000991,-2.3537275499999994,0.0006631993700001062,1.576756800000001,0.7832971499999994,0.0399999975,0.039999913,-9.8111145,0.011313319206243696,0.04137707300000631,0.010904225000001376,-0.026221833191813558,0.016931718500002035
0.7775,-0.0014455400500002994,-0.779050142499999,-0.005328028400000993,-2.3537008049999995,0.0006692246390001065,1.576818030000001,0.7832685749999995,0.03999999825,0.039999913,-9.81111705,0.011650558933621593,0.04173473270000632,0.01098228050000138,-0.02631025584414754,0.01704711995000204
0.78,-0.0014624869000003007,-0.778993059999999,-0.005384241800000997,-2.3536740599999995,0.0006752499080001069,1.576879260000001,0.7832399999999995,0.039999999,0.039999913,-9.8111196,0.011987798660999506,0.04209239240000635,0.011060336000001385,-0.026398678496481528,0.01716252140000205
0.7825,-0.0014794337500003013,-0.778935977499999,-0.0054404552000009996,-2.3536473149999995,0.0006812751770001071,1.576940490000001,0.7832114249999995,0.03999999975,0.039999913,-9.811122150000001,0.012325038388377403,0.04245005210000636,0.011138391500001388,-0.026487101148815514,0.017277922850002052
0.785,-0.0014969065600003066,-0.778877144999999,-0.0054984075000010174,-2.3536197599999995,0.000687486566000109,1.577003630000001,0.7831819539999995,0.04,0.0399999127,-9.811119,0.012674341909593465,0.04281475930000637,0.011217562300001378,-0.026576546952129947,0.01739451680000203
0.7875,-0.0015146423500002923,-0.7788174374999991,-0.005557229250000969,-2.3535917999999993,0.0006937910150001039,1.5770677250000011,0.7831520349999995,0.04,0.03999991225,-9.811113,0.013029677327728105,0.04318299025000607,0.011297290750001313,-0.026666504330934558,0.01751170700000193
0.79,-0.0015323781400002786,-0.7787577299999991,-0.005616051000000924,-2.3535638399999996,0.0007000954640000991,1.577131820000001,0.7831221159999995,0.04,0.039999911799999996,-9.811107,0.01338501274586276,0.043551221200005784,0.011377019200001252,-0.026756461709739172,0.01762889720000184
0.7925,-0.001550113930000264,-0.7786980224999991,-0.005674872750000876,-2.3535358799999995,0.0007063999130000938,1.577195915000001,0.7830921969999995,0.04,0.03999991135,-9.811101,0.0137403481639974,0.04391945215000548,0.011456747650001186,-0.026846419088543783,0.017746087400001744
0.795,-0.0015678497200002505,-0.7786383149999991,-0.00573369450000083,-2.3535079199999993,0.000712704362000089,1.577260010000001,0.7830622779999995,0.04,0.0399999109,-9.811095,0.014095683582132056,0.0442876831000052,0.011536476100001126,-0.026936376467348398,0.017863277600001653
0.7975,-0.0015855855100002359,-0.7785786074999992,-0.005792516250000782,-2.3534799599999996,0.0007190088110000839,1.5773241050000009,0.7830323589999996,0.04,0.03999991045,-9.811089,0.014451019000266695,0.044655914050004894,0.01161620455000106,-0.02702633384615301,0.017980467800001558
0.8,-0.0016033213000002323,-0.7785188999999992,-0.00585133800000077,-2.3534519999999994,0.0007253132600000826,1.5773882000000008,0.7830024399999995,0.04,0.03999991,-9.811083,0.014806354418401658,0.04502414500000473,0.01169593300000102,-0.027116291224957647,0.018097658000001487
0.8025,-0.0016218600700002646,-0.7784565494999991,-0.005912814390000877,-2.3534225999999996,0.000731901890000094,1.577455220000001,0.7829711739999995,0.04,0.03999991,-9.8110836,0.01518636420369685,0.04540125415000538,0.011777402500001163,-0.02720795851200947,0.018216495500001696
0.805,-0.0016403988400002976,-0.7783941989999991,-0.005974290780000987,-2.3533931999999993,0.0007384905200001058,1.577522240000001,0.7829399079999995,0.04,0.03999991,-9.8110842,0.015566373988992058,0.04577836330000605,0.011858872000001307,-0.0272996257990613,0.018335333000001907
0.8075,-0.0016589376100003298,-0.7783318484999989,-0.006035767170001094,-2.3533637999999995,0.0007450791500001172,1.5775892600000012,0.7829086419999994,0.04,0.03999991,-9.8110848,0.01594638377428725,0.04615547245000671,0.01194034150000145,-0.027391293086113124,0.018454170500002115
0.81,-0.001677476380000363,-0.7782694979999988,-0.006097243560001204,-2.3533343999999996,0.000751667780000129,1.5776562800000014,0.7828773759999994,0.04,0.03999991,-9.8110854,0.01632639355958246,0.04653258160000738,0.012021811000001595,-0.027482960373164955,0.018573008000002326
0.8125,-0.0016960151500003953,-0.7782071474999988,-0.00615871995000131,-2.3533049999999993,0.0007582564100001404,1.5777233000000015,0.7828461099999993,0.04,0.03999991,-9.811086000000001,0.01670640334487765,0.04690969075000804,0.012103280500001737,-0.027574627660216778,0.018691845500002535
0.8150000000000001,-0.0017145539200004284,-0.7781447969999986,-0.00622019634000142,-2.3532755999999995,0.0007648450400001522,1.5777903200000016,0.7828148439999992,0.04,0.03999991,-9.811086600000001,0.017086413130172857,0.04728679990000871,0.012184750000001882,-0.02766629494726861,0.018810683000002746
0.8175,-0.0017333649550004644,-0.7780815459999985,-0.00628257287000154,-2.353245759999999,0.000771530030000165,1.5778583100000019,0.7827831199999992,0.0399999995,0.03999990925,-9.8110784,0.017472666688272916,0.04766951540000945,0.012266785100001995,-0.027758179791273804,0.018930084700002892
0.8200000000000001,-0.0017527205200004495,-0.7780164939999985,-0.00634674968000149,-2.3532150399999994,0.0007784077400001596,1.5779282400000016,0.7827504799999992,0.039999998,0.039999907,-9.8110526,0.017871407791981358,0.048063443600009144,0.01234995140000193,-0.027850499749185704,0.019050614800002797
0.8225,-0.0017720760850004336,-0.7779514419999985,-0.006410926490001438,-2.353184319999999,0.000785285450000154,1.5779981700000016,0.7827178399999992,0.0399999965,0.03999990475,-9.8110268,0.018270148895689783,0.04845737180000882,0.012433117700001863,-0.027942819707097596,0.0191711449000027
0.8250000000000001,-0.0017914316500004185,-0.7778863899999986,-0.006475103300001388,-2.3531535999999993,0.0007921631600001487,1.5780681000000016,0.7826851999999993,0.039999994999999997,0.0399999025,-9.811001,0.018668889999398225,0.04885130000000852,0.012516284000001798,-0.028035139665009496,0.019291675000002607
0.8275,-0.0018107872150004028,-0.7778213379999986,-0.006539280110001335,-2.3531228799999995,0.0007990408700001431,1.5781380300000016,0.7826525599999993,0.0399999935,0.03999990025,-9.8109752,0.01906763110310665,0.0492452282000082,0.01259945030000173,-0.02812745962292139,0.019412205100002508
0.8300000000000001,-0.0018301427800003877,-0.7777562859999987,-0.006603456920001286,-2.353092159999999,0.0008059185800001378,1.5782079600000014,0.7826199199999994,0.039999992,0.039999898,-9.8109494,0.01946637220681509,0.04963915640000789,0.012682616600001667,-0.028219779580833288,0.019532735200002413
0.8325,-0.001849498345000372,-0.7776912339999988,-0.006667633730001233,-2.3530614399999994,0.0008127962900001322,1.5782778900000014,0.7825872799999993,0.0399999905,0.03999989575,-9.810923599999999,0.019865113310523513,0.05003308460000757,0.012765782900001599,-0.028312099538745184,0.019653265300002314
0.835,-0.0018694073100003715,-0.7776243649999988,-0.006733640100001231,-2.353029839999999,0.000819869828000132,1.5783497600000014,0.7825536999999994,0.0399999905,0.039999895,-9.810909599999999,0.0202819073572833,0.0504361621000075,0.012850046600001561,-0.028405531123282167,0.019774841200002245
0.8375,-0.001889592975000356,-0.7775565874999988,-0.00680056125000118,-2.3529977999999994,0.0008270412800001264,1.5784226000000015,0.7825196499999993,0.03999999125,0.039999895,-9.8109015,0.02070772787556801,0.05084381425000719,0.012934859000001495,-0.028499518521131657,0.019896940000002153
0.84,-0.0019097786400003394,-0.7774888099999989,-0.006867482400001125,-2.3529657599999996,0.0008342127320001205,1.5784954400000013,0.7824855999999993,0.039999992,0.039999895,-9.8108934,0.0211335483938527,0.051251466400006856,0.013019671400001426,-0.02859350591898114,0.020019038800002054
0.8425,-0.0019299643050003238,-0.7774210324999989,-0.006934403550001074,-2.3529337199999993,0.000841384184000115,1.5785682800000012,0.7824515499999994,0.039999992750000005,0.039999895,-9.810885299999999,0.02155936891213741,0.05165911855000654,0.01310448380000136,-0.028687493316830626,0.020141137600001958
0.845,-0.0019501499700003073,-0.777353254999999,-0.007001324700001019,-2.3529016799999996,0.0008485556360001091,1.5786411200000012,0.7824174999999994,0.039999993500000004,0.039999895,-9.810877199999998,0.021985189430422103,0.052066770700006204,0.013189296200001291,-0.028781480714680112,0.02026323640000186
0.8475,-0.0019703356350002916,-0.777285477499999,-0.007068245850000967,-2.3528696399999993,0.0008557270880001037,1.578713960000001,0.7823834499999994,0.039999994250000004,0.039999895,-9.8108691,0.022411009948706814,0.05247442285000589,0.013274108600001226,-0.028875468112529598,0.020385335200001766
0.85,-0.0019905213000002866,-0.777217699999999,-0.007135167000000951,-2.3528375999999995,0.0008628985400001018,1.5787868000000012,0.7823493999999995,0.039999995,0.039999895,-9.810861,0.022836830466991746,0.05288207500000579,0.013358921000001179,-0.0289694555103791,0.020507434000001684
0.8525,-0.002011550055000324,-0.7771471099999989,-0.007204875345001075,-2.3528041499999994,0.0008703682130001151,1.5788627900000012,0.7823139549999995,0.03999999575,0.039999895,-9.8108475,0.02328033763915983,0.05330655775000655,0.013445495600001335,-0.029064883757384023,0.020630934400001907
0.855,-0.002032578810000361,-0.7770765199999988,-0.007274583690001196,-2.3527706999999993,0.0008778378860001282,1.5789387800000014,0.7822785099999994,0.0399999965,0.039999895,-9.810834,0.023723844811327898,0.053731040500007286,0.013532070200001486,-0.029160312004388938,0.02075443480000212
0.8575,-0.0020536075650003983,-0.7770059299999987,-0.007344292035001321,-2.3527372499999992,0.0008853075590001415,1.5790147700000015,0.7822430649999993,0.03999999725,0.039999895,-9.8108205,0.024167351983495986,0.05415552325000804,0.01361864480000164,-0.02925574025139386,0.02087793520000234
0.86,-0.002074636320000435,-0.7769353399999985,-0.007414000380001442,-2.352703799999999,0.0008927772320001545,1.5790907600000017,0.7822076199999992,0.039999998,0.039999895,-9.810807,0.024610859155664053,0.05458000600000878,0.013705219400001791,-0.029351168498398774,0.021001435600002553
0.8625,-0.0020956650750004724,-0.7768647499999984,-0.007483708725001566,-2.352670349999999,0.0009002469050001679,1.5791667500000017,0.7821721749999992,0.03999999875,0.039999895,-9.8107935,0.025054366327832138,0.05500448875000954,0.013791794000001946,-0.029446596745403696,0.021124936000002776
0.865,-0.002116693830000509,-0.7767941599999983,-0.007553417070001687,-2.352636899999999,0.0009077165780001808,1.579242740000002,0.7821367299999992,0.0399999995,0.039999895,-9.810780000000001,0.025497873500000205,0.05542897150001028,0.013878368600002097,-0.02954202499240861,0.021248436400002988
0.8675,-0.00213800782000055,-0.7767226349999982,-0.0076240683350018235,-2.352603039999999,0.0009152871655001955,1.579319740000002,0.7821008099999991,0.03999999975,0.0399998946,-9.81076765,0.025950338505220275,0.055855965300010864,0.013965462900002217,-0.029637824557723978,0.02137240010000314
0.87,-0.0021598922800005324,-0.7766492399999982,-0.007696605440001765,-2.352568359999999,0.0009230595820001891,1.579398760000002,0.7820639399999991,0.039999999,0.0399998934,-9.8107576,0.02642071917654224,0.05628798120001051,0.014053596600002145,-0.02973436675966015,0.021497290400003036
0.8725,-0.002181776740000515,-0.7765758449999983,-0.007769142545001708,-2.352533679999999,0.0009308319985001831,1.579477780000002,0.7820270699999992,0.03999999825,0.0399998922,-9.81074755,0.02689109984786423,0.056719997100010175,0.014141730300002077,-0.029830908961596327,0.021622180700002942
0.875,-0.0022036612000004975,-0.7765024499999983,-0.00784167965000165,-2.352498999999999,0.0009386044150001768,1.5795568000000018,0.7819901999999992,0.0399999975,0.039999890999999996,-9.8107375,0.027361480519186195,0.05715201300000982,0.014229864000002004,-0.029927451163532497,0.021747071000002838
0.8775000000000001,-0.0022255456600004807,-0.7764290549999984,-0.007914216755001594,-2.3524643199999993,0.0009463768315001708,1.5796358200000018,0.7819533299999992,0.03999999675,0.0399998898,-9.81072745,0.02783186119050818,0.057584028900009486,0.014317997700001936,-0.03002399336546867,0.021871961300002744
