rsonawane2002/My_IMU/logs_2/traj_2003/imu_400hz_2003.csv
time,j1,j2,j3,j4,j5,j6,j7,gripper1,gripper2,imu_ax,imu_ay,imu_az,imu_gx,imu_gy,imu_gz
0.0,0.00016700293,-0.785875,4.0107683e-05,-2.3551247,9.29385e-05,1.570997,0.786,0.04,0.04,-9.572045233763768,0.1628663506597788,0.2203445636407597,-0.0003036011425154,-0.0030725027904068,-0.0007093853585545
0.0025,0.0001670034235,-0.785857774,4.010975885e-05,-2.35513919,9.29443551e-05,1.570996565,0.786,0.04,0.04,-9.617584151611899,0.17360337748138854,0.17278588116177018,-0.0002922291137402845,-0.0030778668839071873,-0.000829512165385133
0.005,0.000167003917,-0.785840548,4.0111834700000005e-05,-2.3551536800000004,9.295021020000001e-05,1.57099613,0.786,0.04,0.04,-9.663123069460031,0.18434040430299825,0.1252271986827807,-0.00028085708496516904,-0.003083230977407575,-0.000949638972215766
0.0075,0.0001670044105,-0.7858233219999999,4.0113910550000004e-05,-2.3551681700000002,9.295606530000001e-05,1.570995695,0.786,0.04,0.04,-9.708661987308162,0.19507743112460796,0.07766851620379123,-0.0002694850561900535,-0.0030885950709079626,-0.001069765779046399
0.01,0.000167004904,-0.785806096,4.01159864e-05,-2.35518266,9.296192040000001e-05,1.5709952600000001,0.786,0.04,0.04,-9.754200905156294,0.2058144579462177,0.03010983372480172,-0.000258113027414938,-0.00309395916440835,-0.0011898925858770321
0.0125,0.0001670053975,-0.78578887,4.0118062250000006e-05,-2.3551971500000004,9.296777550000001e-05,1.570994825,0.786,0.04,0.04,-9.799739823004424,0.21655148476782743,-0.017448848754187757,-0.00024674099863982254,-0.003099323257908738,-0.0013100193927076652
0.015,0.000167005891,-0.785771644,4.0120138100000005e-05,-2.3552116400000003,9.297363060000001e-05,1.57099439,0.786,0.04,0.04,-9.845278740852555,0.22728851158943714,-0.06500753123317723,-0.00023536896986470703,-0.0031046873514091254,-0.0014301461995382982
0.0175,0.0001670065655,-0.785754867,4.012457610000003e-05,-2.3552257350000003,9.298055755000002e-05,1.57099396,0.786,0.04,0.04,-9.880903926789257,0.22136426027148431,-0.09569304801195003,-0.00024052583412687383,-0.0027161252631071123,-0.0012823465869115144
0.02,0.000167007602,-0.785738988,4.013373840000003e-05,-2.3552390400000003,9.298962820000002e-05,1.5709935400000001,0.786,0.04,0.04,-9.89670164890339,0.18211745267488955,-0.0926322333907785,-0.000278740484463126,-0.0015397108112117212,-0.0005986941353776658
0.0225,0.0001670086385,-0.785723109,4.014290070000003e-05,-2.3552523450000002,9.299869885000002e-05,1.57099312,0.786,0.04,0.04,-9.912499371017521,0.14287064507829478,-0.08957141876960699,-0.00031695513479937815,-0.0003632963593163301,8.495831615618283e-05
0.025,0.000167009675,-0.78570723,4.015206300000003e-05,-2.35526565,9.300776950000003e-05,1.5709927,0.786,0.04,0.04,-9.928297093131652,0.10362383748169995,-0.08651060414843546,-0.00035516978513563035,0.0008131180925790623,0.0007686107676900325
0.0275,0.0001670107115,-0.785691351,4.0161225300000035e-05,-2.355278955,9.301684015000003e-05,1.57099228,0.786,0.04,0.04,-9.944094815245785,0.06437702988510519,-0.08344978952726394,-0.0003933844354718825,0.001989532544474454,0.0014522632192238809
0.03,0.000167011748,-0.785675472,4.017038760000003e-05,-2.35529226,9.302591080000003e-05,1.57099186,0.786,0.04,0.04,-9.959892537359917,0.025130222288510418,-0.08038897490609243,-0.00043159908580813464,0.0031659469963698453,0.0021359156707577297
0.0325,0.0001670127845,-0.785659593,4.0179549900000036e-05,-2.3553055649999997,9.303498145000004e-05,1.57099144,0.786,0.04,0.04,-9.975690259474048,-0.014116585308084406,-0.0773281602849209,-0.0004698137361443869,0.004342361448265238,0.0028195681222915794
0.035,0.00016701499300000001,-0.785644573,4.02013130000001e-05,-2.3553181,9.305020050000008e-05,1.57099101,0.786,0.04,0.04,-9.991847038898108,-0.03204605551264552,-0.060517196880970035,-0.0008835861805299792,0.00362444996355647,0.0025534835648948736
0.0375,0.00016701778750000001,-0.7856299824999999,4.0229376500000106e-05,-2.3553302499999997,9.306849375000007e-05,1.570990575,0.786,0.04,0.04,-10.008183346977127,-0.03931685702136251,-0.03683115908574098,-0.0014851375219371973,0.001959375510560974,0.0018125305030405878
0.04,0.00016702058200000002,-0.785615392,4.02574400000001e-05,-2.3553424,9.308678700000008e-05,1.57099014,0.786,0.04,0.04,-10.024519655056148,-0.046587658530079526,-0.01314512129051186,-0.002086688863344417,0.00029430105756547264,0.0010715774411863
0.0425,0.00016702337650000002,-0.7856008015,4.028550350000011e-05,-2.35535455,9.310508025000007e-05,1.5709897050000001,0.786,0.04,0.04,-10.040855963135167,-0.05385846003879653,0.010540916504717265,-0.002688240204751637,-0.0013707733954300277,0.00033062437933201226
0.045,0.00016702617100000002,-0.7855862109999999,4.0313567000000104e-05,-2.3553667,9.312337350000008e-05,1.57098927,0.786,0.04,0.04,-10.057192271214188,-0.061129261547513525,0.03422695429994632,-0.003289791546158855,-0.0030358478484255247,-0.00041032868252227324
0.0475,0.00016702896550000002,-0.7855716205,4.034163050000011e-05,-2.35537885,9.314166675000008e-05,1.570988835,0.786,0.04,0.04,-10.073528579293207,-0.06840006305623053,0.05791299209517543,-0.0038913428875660743,-0.004700922301421025,-0.0011512817443765605
0.05,0.00016703176000000002,-0.78555703,4.0369694000000255e-05,-2.355391,9.315996000000016e-05,1.5709884,0.786,0.04,0.04,-10.08986488737197,-0.0756708645648667,0.08159902989017025,-0.004492894228970364,-0.006365996754410123,-0.0018922348062262592
0.0525,0.000167038288,-0.7855436155,4.043362490000025e-05,-2.35540213,9.319641600000015e-05,1.57098798,0.786,0.04,0.04,-10.041649912430863,-0.06262950664325838,0.046409731347680706,-0.004358131336970807,-0.006422223513347951,-0.0014799839781019664
0.055,0.00016704481600000003,-0.7855302009999999,4.049755580000026e-05,-2.35541326,9.323287200000015e-05,1.57098756,0.786,0.04,0.04,-9.993434937489754,-0.049588148721650016,0.011220432805191069,-0.004223368444971249,-0.00647845027228578,-0.0010677331499776726
0.0575,0.00016705134400000002,-0.7855167865,4.056148670000026e-05,-2.35542439,9.326932800000016e-05,1.57098714,0.786,0.04,0.04,-9.945219962548647,-0.03654679080004166,-0.02396886573729856,-0.0040886055529716905,-0.006534677031223608,-0.000655482321853379
0.06,0.00016705787200000004,-0.785503372,4.0625417600000266e-05,-2.35543552,9.330578400000016e-05,1.57098672,0.786,0.04,0.04,-9.89700498760754,-0.02350543287843334,-0.05915816427978811,-0.003953842660972134,-0.006590903790161436,-0.00024323149372908626
0.0625,0.00016706440000000003,-0.7854899575,4.068934850000027e-05,-2.3554466499999998,9.334224000000015e-05,1.5709863,0.786,0.04,0.04,-9.84879001266643,-0.010464074956824984,-0.09434746282227775,-0.0038190797689725757,-0.0066471305490992645,0.00016901933439520756
0.065,0.00016707092800000002,-0.785476543,4.0753279400000275e-05,-2.35545778,9.337869600000016e-05,1.57098588,0.786,0.04,0.04,-9.800575037725324,0.0025772829647833784,-0.12953676136476738,-0.0036843168769730176,-0.006703357308037092,0.0005812701625195014
0.0675,0.00016707957350000006,-0.7854635034999999,4.083635700000053e-05,-2.3554685699999998,9.34253642500003e-05,1.570985455,0.786,0.04,0.03999999975,-9.775291583029908,0.010378638180812335,-0.15311917251229415,-0.0034029019627152585,-0.006880754350774602,0.0007511914634500368
0.07,0.00016709245400000006,-0.785451214,4.095772800000054e-05,-2.35547868,9.34924570000003e-05,1.57098502,0.786,0.04,0.039999999,-9.795871168824977,0.007699987985888075,-0.15348780887035066,-0.0028281830039468504,-0.007300491961106722,0.0004364537100025637
0.0725,0.00016710533450000007,-0.7854389245,4.1079099000000544e-05,-2.35548879,9.35595497500003e-05,1.570984585,0.786,0.04,0.03999999825,-9.816450754620044,0.005021337790963831,-0.15385644522840713,-0.0022534640451784453,-0.007720229571438839,0.00012171595655509229
0.075,0.00016711821500000007,-0.785426635,4.120047000000055e-05,-2.3554989,9.362664250000031e-05,1.57098415,0.786,0.04,0.0399999975,-9.837030340415113,0.0023426875960395714,-0.15422508158646364,-0.0016787450864100373,-0.008139967181770959,-0.0001930217968923809
0.0775,0.00016713109550000008,-0.7854143455,4.132184100000056e-05,-2.35550901,9.369373525000031e-05,1.5709837150000001,0.786,0.04,0.03999999675,-9.857609926210182,-0.0003359625988846888,-0.15459371794452015,-0.0011040261276416292,-0.008559704792103077,-0.000507759550339854
0.08,0.00016714397600000005,-0.785402056,4.1443212000000565e-05,-2.3555191200000003,9.376082800000032e-05,1.57098328,0.786,0.04,0.039999996,-9.878189512005251,-0.003014612793808949,-0.15496235430257663,-0.0005293071688732207,-0.008979442402435197,-0.0008224973037873273
0.0825,0.00016715685650000006,-0.7853897665,4.1564583000000575e-05,-2.35552923,9.382792075000033e-05,1.570982845,0.786,0.04,0.03999999525,-9.89876909780032,-0.0056932629887332074,-0.15533099066063313,4.541178989518743e-05,-0.009399180012767317,-0.0011372350572348003
0.085,0.0001671761430000001,-0.785378178,4.174144550000098e-05,-2.35553911,9.392309250000053e-05,1.57098241,0.78600019,0.04,0.039999995,-9.879334594515411,-0.029632592820007964,-0.14530476786845364,0.0006428383818336083,-0.009597104344599396,-0.0011460613323309014
0.08750000000000001,0.00016719863250000012,-0.78536694,4.194605375000099e-05,-2.355548875,9.403230375000053e-05,1.570981975,0.786000475,0.04,0.039999995,-9.839893046690943,-0.06420226246923127,-0.13008111550126697,0.0012516187903567934,-0.009684122037183822,-0.001001931868254578
0.09,0.0001672211220000001,-0.7853557019999999,4.2150662000001e-05,-2.3555586400000004,9.414151500000054e-05,1.57098154,0.7860007600000001,0.04,0.039999995,-9.800451498866472,-0.0987719321184544,-0.1148574631340804,0.0018603991988799752,-0.009771139729768246,-0.0008578024041782556
0.0925,0.0001672436115000001,-0.7853444639999999,4.235527025000101e-05,-2.355568405,9.425072625000054e-05,1.570981105,0.786001045,0.04,0.039999995,-9.761009951042002,-0.1333416017676777,-0.09963381076689376,0.00246917960740316,-0.009858157422352671,-0.0007136729401019323
0.095,0.00016726610100000012,-0.7853332259999999,4.255987850000103e-05,-2.3555781700000002,9.435993750000055e-05,1.57098067,0.78600133,0.04,0.039999995,-9.721568403217534,-0.16791127141690101,-0.0844101583997071,0.003077960015926345,-0.009945175114937095,-0.000569543476025609
0.0975,0.0001672885905000001,-0.7853219879999999,4.2764486750001036e-05,-2.355587935,9.446914875000055e-05,1.570980235,0.786001615,0.04,0.039999995,-9.682126855393063,-0.20248094106612433,-0.06918650603252044,0.0036867404244495306,-0.01003219280752152,-0.0004254140119492857
0.1,0.00016731108000000018,-0.78531075,4.296909500000163e-05,-2.3555977,9.457836000000085e-05,1.5709798,0.7860019,0.04,0.039999995,-9.642685307568923,-0.23705061071485958,-0.05396285366555988,0.004295520832964378,-0.01011921050010484,-0.00028128454787291384
0.10250000000000001,0.00016734691050000018,-0.7853004974999999,4.328638625000165e-05,-2.3556065050000004,9.474474000000086e-05,1.57097938,0.7860021850000001,0.04,0.039999995,-9.667508133552321,-0.17626462791740524,-0.08291481302417586,0.003275165472495774,-0.009990201951425642,-0.00012768030276691497
0.105,0.00016738274100000017,-0.7852902449999999,4.360367750000166e-05,-2.35561531,9.491112000000088e-05,1.57097896,0.78600247,0.04,0.039999995,-9.692330959535717,-0.11547864511995123,-0.11186677238279166,0.0022548101120271756,-0.009861193402746446,2.592394233908303e-05
0.1075,0.00016741857150000017,-0.7852799924999999,4.392096875000168e-05,-2.355624115,9.507750000000089e-05,1.57097854,0.786002755,0.04,0.039999995,-9.717153785519114,-0.05469266232249689,-0.14081873174140763,0.0012344547515585717,-0.009732184854067249,0.0001795281874450819
0.11,0.00016745440200000017,-0.7852697399999999,4.42382600000017e-05,-2.35563292,9.52438800000009e-05,1.57097812,0.78600304,0.04,0.039999995,-9.741976611502512,0.006093320474957448,-0.16977069110002363,0.00021409939108996742,-0.009603176305388051,0.00033313243255108076
0.1125,0.0001674902325000002,-0.7852594875,4.455555125000172e-05,-2.355641725,9.541026000000091e-05,1.5709777,0.786003325,0.04,0.039999995,-9.76679943748591,0.06687930327241182,-0.19872265045863957,-0.000806255969378636,-0.009474167756708854,0.00048673667765707963
0.115,0.0001675260630000002,-0.785249235,4.4872842500001736e-05,-2.35565053,9.557664000000092e-05,1.5709772800000001,0.7860036100000001,0.04,0.039999995,-9.791622263469307,0.12766528606986616,-0.22767460981725554,-0.0018266113298472404,-0.009345159208029656,0.0006403409227630785
0.11750000000000001,0.00016756775750000028,-0.7852392964999999,4.523863735000256e-05,-2.355659215,9.576720900000133e-05,1.57097685,0.786003992,0.04,0.03999999525,-9.789126018352846,0.16190050714360263,-0.21158032522596645,-0.002380722631422024,-0.009144253759804908,0.0007729349648634197
0.12,0.0001676211800000003,-0.7852299859999999,4.570143940000258e-05,-2.35566766,9.600615600000133e-05,1.5709764000000002,0.7860045680000001,0.04,0.039999996,-9.731991631038015,0.14303420477121714,-0.10539355273709661,-0.0020023458152322376,-0.00879955451249262,0.0008635086009534844
0.1225,0.00016767460250000028,-0.7852206755,4.6164241450002604e-05,-2.355676105,9.624510300000135e-05,1.57097595,0.786005144,0.04,0.03999999675,-9.674857243723185,0.12416790239883155,0.0007932197517738493,-0.0016239689990424494,-0.00845485526518033,0.0009540822370435496
0.125,0.0001677280250000003,-0.785211365,4.662704350000263e-05,-2.3556845500000003,9.648405000000137e-05,1.5709755,0.78600572,0.04,0.0399999975,-9.617722856408355,0.10530160002644595,0.1069799922406443,-0.001245592182852661,-0.00811015601786804,0.0010446558731336147
0.1275,0.0001677814475000003,-0.7852020544999999,4.708984555000266e-05,-2.355692995,9.672299700000137e-05,1.5709750500000002,0.786006296,0.04,0.03999999825,-9.560588469093524,0.08643529765406037,0.21316676472951473,-0.0008672153666628728,-0.007765456770555751,0.0011352295092236801
0.13,0.00016783487000000032,-0.7851927439999999,4.7552647600002684e-05,-2.3557014400000003,9.696194400000139e-05,1.5709746,0.786006872,0.04,0.039999999,-9.503454081778692,0.06756899528167477,0.31935353721838516,-0.0004888385504730843,-0.007420757523243461,0.0012258031453137453
0.1325,0.0001678882925000003,-0.7851834335,4.801544965000271e-05,-2.3557098850000004,9.72008910000014e-05,1.57097415,0.786007448,0.04,0.03999999975,-9.446319694463861,0.04870269290928919,0.4255403097072556,-0.00011046173428329613,-0.00707605827593117,0.0013163767814038105
0.135,0.00016795651800000045,-0.7851747269999999,4.859908470000381e-05,-2.35571777,9.750092200000195e-05,1.5709737000000001,0.786008022,0.04,0.04,-9.49192239784306,0.027048937481467777,0.40057909578848505,-0.00040310682377811676,-0.007087852937245924,0.0012329939665915522
0.1375,0.00016803214500000046,-0.7851663225,4.924313625000385e-05,-2.355725375,9.783149500000197e-05,1.57097325,0.786008595,0.04,0.04,-9.588893646567916,0.004001455525965314,0.310043888667628,-0.0010312628661063696,-0.007277894552869485,0.0010626329263304325
0.14,0.00016810777200000046,-0.7851579179999999,4.9887187800003886e-05,-2.35573298,9.816206800000199e-05,1.5709728,0.786009168,0.04,0.04,-9.68586489529277,-0.01904602642953715,0.219508681546771,-0.0016594189084346222,-0.007467936168493046,0.0008922718860693126
0.14250000000000002,0.00016818339900000046,-0.7851495135,5.053123935000392e-05,-2.355740585,9.849264100000201e-05,1.57097235,0.786009741,0.04,0.04,-9.782836144017624,-0.04209350838503961,0.12897347442591395,-0.002287574950762875,-0.0076579777841166066,0.0007219108458081928
0.145,0.00016825902600000047,-0.7851411089999999,5.117529090000395e-05,-2.35574819,9.882321400000203e-05,1.5709719,0.786010314,0.04,0.04,-9.879807392742478,-0.06514099034054183,0.03843826730505795,-0.0029157309930911207,-0.007848019399740166,0.0005515498055470748
0.1475,0.00016833465300000047,-0.7851327045,5.181934245000399e-05,-2.355755795,9.915378700000205e-05,1.5709714499999998,0.786010887,0.04,0.04,-9.976778641467334,-0.08818847229604429,-0.052096939815799104,-0.0035438870354193735,-0.008038061015363727,0.000381188765285955
0.15,0.00016841028000000064,-0.7851243,5.24633940000054e-05,-2.3557634,9.948436000000276e-05,1.570971,0.78601146,0.04,0.04,-10.073749890191063,-0.11123595425143411,-0.14263214693581544,-0.0041720430777377115,-0.008228102630985381,0.00021082772502518306
0.1525,0.00016851313650000064,-0.7851167459999999,5.332706490000545e-05,-2.355770915,9.99275020000028e-05,1.57097052,0.786012321,0.04,0.04,-9.990677169516319,-0.11626080541521108,-0.09867620035134692,-0.0032139836695973764,-0.00811320684573294,9.612718924459642e-05
0.155,0.00016861599300000064,-0.785109192,5.41907358000055e-05,-2.35577843,0.00010037064400000282,1.57097004,0.786013182,0.04,0.04,-9.907604448841575,-0.12128565657898804,-0.054720253766878404,-0.002255924261457041,-0.007998311060480498,-1.8573346535990197e-05
0.1575,0.00016871884950000066,-0.785101638,5.505440670000555e-05,-2.355785945,0.00010081378600000285,1.57096956,0.786014043,0.04,0.04,-9.824531728166832,-0.12631050774276503,-0.010764307182409893,-0.001297864853316706,-0.007883415275228057,-0.0001332738823165768
0.16,0.00016882170600000066,-0.7850940839999999,5.591807760000559e-05,-2.35579346,0.00010125692800000287,1.57096908,0.786014904,0.04,0.04,-9.741459007492088,-0.131335358906542,0.03319163940205863,-0.0003398054451763709,-0.007768519489975615,-0.0002479744180971634
0.1625,0.00016892456250000066,-0.78508653,5.6781748500005646e-05,-2.355800975,0.0001017000700000029,1.5709686,0.786015765,0.04,0.04,-9.658386286817343,-0.13636021007031895,0.07714758598652716,0.0006182539629639647,-0.007653623704723174,-0.00036267495387775
0.165,0.00016902741900000066,-0.7850789759999999,5.764541940000569e-05,-2.3558084900000003,0.00010214321200000292,1.57096812,0.786016626,0.04,0.04,-9.5753135661426,-0.14138506123409594,0.12110353257099568,0.0015763133711042994,-0.0075387279194707325,-0.0004773754896583367
0.1675,0.0001691411315000009,-0.785071703,5.859585770000748e-05,-2.355815815,0.00010263101100000385,1.57096752,0.78601758,0.04,0.03999999975,-9.53011459901329,-0.1254800206983791,0.15624220989274074,0.0020450464152365166,-0.007299195362613542,-0.0006738694482577262
0.17,0.00016927655600000092,-0.7850649919999999,5.971983080000754e-05,-2.35582276,0.00010320812400000387,1.57096668,0.78601872,0.04,0.039999999,-9.560663138972586,-0.06771519676492455,0.17374634868956546,0.0015351267313817173,-0.0068103892625542995,-0.001033950252489837
0.17250000000000001,0.00016941198050000092,-0.785058281,6.0843803900007604e-05,-2.355829705,0.0001037852370000039,1.57096584,0.78601986,0.04,0.03999999825,-9.59121167893188,-0.009950372831469989,0.19125048748639015,0.0010252070475269177,-0.006321583162495056,-0.0013940310567219479
0.17500000000000002,0.00016954740500000094,-0.7850515699999999,6.196777700000767e-05,-2.35583665,0.00010436235000000394,1.570965,0.786021,0.04,0.0399999975,-9.621760218891177,0.04781445110198454,0.20875462628321484,0.0005152873636721184,-0.0058327770624358125,-0.0017541118609540587
0.1775,0.00016968282950000093,-0.785044859,6.309175010000772e-05,-2.355843595,0.00010493946300000397,1.5709641600000002,0.7860221399999999,0.04,0.03999999675,-9.652308758850472,0.10557927503543843,0.22625876508003936,5.367679817324441e-06,-0.005343970962376575,-0.0021141926651861657
0.18,0.00016981825400000096,-0.7850381479999999,6.421572320000778e-05,-2.35585054,0.000105516576000004,1.5709633200000002,0.78602328,0.04,0.039999996,-9.682857298809768,0.163344098968893,0.24376290387686406,-0.0005045520040374749,-0.004855164862317332,-0.0024742734694182763
0.1825,0.00016995367850000095,-0.7850314369999999,6.533969630000785e-05,-2.355857485,0.00010609368900000403,1.5709624800000002,0.78602442,0.04,0.03999999525,-9.713405838769063,0.22110892290234754,0.2612670426736888,-0.0010144716878922743,-0.004366358762258089,-0.002834354273650387
0.185,0.00017011458800000125,-0.78502526,6.666569660001006e-05,-2.35586413,0.00010677274160000515,1.5709615300000002,0.7860257549999999,0.04,0.0399999955,-9.712216414807703,0.18494179949973794,0.2503190773393601,-0.0012670863808499238,-0.004351100360719631,-0.003265336364460307
0.1875,0.00017028824000000126,-0.7850193499999999,6.809271050001014e-05,-2.355870625,0.00010750276400000519,1.570960525,0.7860271875,0.04,0.03999999625,-9.695158008886514,0.1018087024305776,0.22514505993990339,-0.0013910485783630558,-0.004572615808434099,-0.0037317690985580144
0.19,0.00017046189200000124,-0.78501344,6.951972440001022e-05,-2.35587712,0.00010823278640000523,1.57095952,0.78602862,0.04,0.039999997,-9.678099602965325,0.01867560536141727,0.1999710425404467,-0.001515010775876188,-0.004794131256148567,-0.004198201832655721
0.1925,0.00017063554400000125,-0.7850075299999999,7.09467383000103e-05,-2.355883615,0.00010896280880000527,1.570958515,0.7860300525,0.04,0.03999999775,-9.661041197044137,-0.06445749170774306,0.17479702514099002,-0.0016389729733893201,-0.005015646703863035,-0.004664634566753428
0.195,0.00017080919600000126,-0.78500162,7.237375220001039e-05,-2.3558901100000003,0.00010969283120000532,1.57095751,0.786031485,0.04,0.0399999985,-9.643982791122948,-0.1475905887769034,0.1496230077415333,-0.0017629351709024523,-0.005237162151577502,-0.005131067300851135
0.1975,0.00017098284800000127,-0.7849957099999999,7.380076610001047e-05,-2.355896605,0.00011042285360000536,1.570956505,0.7860329175,0.04,0.03999999925,-9.62692438520176,-0.23072368584606373,0.12444899034207663,-0.0018868973684155845,-0.0054586775992919705,-0.0055975000349488425
0.2,0.0001711565000000016,-0.7849898,7.522778000001312e-05,-2.3559031,0.0001111528760000067,1.5709555,0.78603435,0.04,0.04,-9.609865979280883,-0.3138567829144484,0.09927497294265253,-0.0020108595659247153,-0.005680193047007357,-0.006063932769036769
0.2025,0.00017137423250000164,-0.7849847,7.700229290001322e-05,-2.355909535,0.00011205850685000675,1.57095448,0.7860360675,0.04,0.04,-9.635068730849095,-0.2920846646668083,0.07850556065136356,-0.001593665577286251,-0.006026017419304927,-0.005207708021873685
0.20500000000000002,0.00017159196500000164,-0.7849795999999999,7.877680580001332e-05,-2.35591597,0.0001129641377000068,1.57095346,0.786037785,0.04,0.04,-9.66027148241731,-0.27031254641916824,0.057736148360074596,-0.001176471588647787,-0.006371841791602498,-0.0043514832747106
0.20750000000000002,0.00017180969750000164,-0.7849744999999999,8.055131870001342e-05,-2.355922405,0.00011386976855000686,1.57095244,0.7860395025,0.04,0.04,-9.685474233985524,-0.24854042817152813,0.03696673606878564,-0.0007592776000093231,-0.006717666163900067,-0.003495258527547516
0.21,0.00017202743000000167,-0.7849693999999999,8.232583160001351e-05,-2.35592884,0.0001147753994000069,1.5709514199999999,0.78604122,0.04,0.04,-9.710676985553736,-0.2267683099238883,0.0161973237774969,-0.00034208361137086363,-0.0070634905361976336,-0.002639033780384441
0.2125,0.00017224516250000167,-0.7849643,8.410034450001361e-05,-2.3559352749999998,0.00011568103025000695,1.5709503999999999,0.7860429375,0.04,0.04,-9.73587973712195,-0.2049961916762482,-0.004572088513792066,7.51103772676006e-05,-0.007409314908495203,-0.0017828090332213569
0.215,0.00017246289500000167,-0.7849592,8.587485740001371e-05,-2.3559417099999997,0.000116586661100007,1.57094938,0.786044655,0.04,0.04,-9.761082488690162,-0.1832240734286081,-0.025341500805081033,0.0004923043659060648,-0.007755139280792773,-0.000926584286058272
0.2175,0.00017269734500000204,-0.7849543575,8.778053470001658e-05,-2.355948125,0.00011755953675000847,1.5709483149999999,0.7860464850000001,0.03999999975,0.03999999975,-9.77457374997064,-0.14772031655732903,-0.05433730429033475,0.0007987564277210046,-0.008087119573745947,-0.00040730312341670196
0.22,0.00017296523000000195,-0.78495003,8.994854080001577e-05,-2.3559545,0.00011866690200000806,1.57094716,0.78604854,0.039999999,0.039999999,-9.764642030676464,-0.08475328243973201,-0.09978589016294288,0.0008837246358966383,-0.008391411708011295,-0.0005619091297946049
0.2225,0.00017323311500000186,-0.7849457025,9.211654690001498e-05,-2.355960875,0.00011977426725000766,1.570946005,0.7860505950000001,0.03999999825,0.03999999825,-9.754710311382288,-0.021786248322134966,-0.145234476035551,0.000968692844072272,-0.008695703842276642,-0.000716515136172508
0.225,0.00017350100000000177,-0.7849413749999999,9.428455300001418e-05,-2.35596725,0.00012088163250000724,1.5709448499999998,0.78605265,0.0399999975,0.0399999975,-9.744778592088112,0.04118078579546208,-0.19068306190815915,0.0010536610522479057,-0.00899999597654199,-0.000871121142550411
0.2275,0.00017376888500000165,-0.7849370474999999,9.645255910001337e-05,-2.355973625,0.00012198899775000684,1.570943695,0.7860547050000001,0.03999999675,0.03999999675,-9.734846872793938,0.10414781991305913,-0.23613164778076728,0.0011386292604235394,-0.009304288110807338,-0.001025727148928314
0.23,0.00017403677000000156,-0.78493272,9.862056520001258e-05,-2.35598,0.00012309636300000644,1.5709425399999999,0.78605676,0.039999996,0.039999996,-9.724915153499762,0.16711485403065615,-0.2815802336533754,0.001223597468599173,-0.009608580245072686,-0.001180333155306217
0.2325,0.00017430465500000147,-0.7849283925,0.00010078857130001179,-2.355986375,0.000124203728250006,1.570941385,0.7860588150000001,0.03999999525,0.03999999525,-9.714983434205585,0.23008188814825317,-0.32702881952598356,0.0013085656767748068,-0.009912872379338033,-0.0013349391616841201
0.23500000000000001,0.00017461018400000182,-0.784924575,0.0001032504660000147,-2.35599275,0.0001254595660000075,1.5709399499999999,0.7860612,0.039999994500000004,0.0399999955,-9.742169959865619,0.2563141994535159,-0.32312348722045997,0.0010651868675418741,-0.010242286949561016,-0.0011797780654446935
0.23750000000000002,0.000174934535000002,-0.7849210125,0.00010585930500001596,-2.3559991250000003,0.00012678964000000813,1.5709383749999999,0.7860637500000001,0.039999993750000004,0.03999999625,-9.787915608002313,0.26417914935305037,-0.2945411958264602,0.0006576345496085819,-0.010584262737762517,-0.0008697334179003034
0.24,0.00017525888600000215,-0.78491745,0.0001084681440000172,-2.3560055,0.00012811971400000877,1.5709368,0.7860663,0.039999993000000005,0.039999997,-9.833661256139008,0.27204409925258477,-0.26595890443246073,0.00025008223167529396,-0.010926238525964013,-0.0005596887703559168
0.2425,0.0001755832370000023,-0.7849138875,0.00011107698300001845,-2.356011875,0.00012944978800000941,1.570935225,0.78606885,0.03999999225,0.03999999775,-9.879406904275703,0.27990904915211917,-0.23737661303846097,-0.0001574700862579982,-0.011268214314165513,-0.00024964412281152683
0.245,0.00017590758800000244,-0.784910325,0.00011368582200001972,-2.3560182500000004,0.00013077986200001006,1.57093365,0.7860714,0.0399999915,0.0399999985,-9.925152552412397,0.28777399905165363,-0.2087943216444612,-0.0005650224041912906,-0.011610190102367014,6.040052473286323e-05
0.2475,0.00017623193900000262,-0.7849067625,0.00011629466100002099,-2.3560246250000003,0.0001321099360000107,1.570932075,0.78607395,0.03999999075,0.03999999925,-9.970898200549092,0.2956389489511881,-0.18021203025046145,-0.0009725747221245829,-0.011952165890568515,0.0003704451722772533
0.25,0.0001765562900000033,-0.7849032,0.00011890350000002642,-2.356031,0.00013344001000001348,1.5709305,0.7860765,0.03999999,0.04,-10.016643848685346,0.30350389885009993,-0.15162973885662115,-0.0013801270400551696,-0.012294141678759923,0.0006804898198157343
0.2525,0.00017694350150000333,-0.784900425,0.0001220015670000266,-2.3560373,0.00013501915300001357,1.57092885,0.786079485,0.0399999891,0.0399999985,-10.010841048446183,0.23834922410194498,-0.14175097638904408,-0.0014703805417312897,-0.011452380125410128,0.0002974897898617072
0.255,0.00017733071300000334,-0.78489765,0.00012509963400002678,-2.3560436,0.00013659829600001365,1.5709272,0.78608247,0.0399999882,0.039999997,-10.005038248207022,0.17319454935379,-0.13187221392146703,-0.00156063404340741,-0.010610618572060335,-8.551024009231995e-05
0.2575,0.00017771792450000336,-0.784894875,0.00012819770100002697,-2.3560499,0.00013817743900001374,1.57092555,0.786085455,0.0399999873,0.0399999955,-9.999235447967859,0.10803987460563502,-0.12199345145388996,-0.0016508875450835301,-0.009768857018710542,-0.00046851027004634704
0.26,0.0001781051360000034,-0.7848921,0.00013129576800002712,-2.3560562000000003,0.00013975658200001382,1.5709239,0.78608844,0.0399999864,0.039999994,-9.993432647728696,0.042885199857480016,-0.11211468898631288,-0.0017411410467596505,-0.00892709546536075,-0.000851510300000374
0.2625,0.00017849234750000342,-0.784889325,0.0001343938350000273,-2.3560625,0.00014133572500001394,1.57092225,0.7860914250000001,0.0399999855,0.0399999925,-9.987629847489533,-0.022269474890674934,-0.10223592651873581,-0.0018313945484357706,-0.008085333912010955,-0.0012345103299544013
0.265,0.00017887955900000344,-0.78488655,0.0001374919020000275,-2.3560688,0.00014291486800001402,1.5709206,0.78609441,0.0399999846,0.039999991,-9.98182704725037,-0.08742414963882994,-0.09235716405115874,-0.001921648050111891,-0.007243572358661162,-0.0016175103599084285
0.2675,0.00017928991500000408,-0.784884025,0.00014076949600003248,-2.356075115,0.00014458534100001655,1.570918785,0.7860975680000001,0.03999998365,0.0399999899,-9.980024265536919,-0.13863351268641663,-0.09205584700320424,-0.001975064297460214,-0.007034071310106162,-0.0017280532991200959
0.27,0.0001797465600000041,-0.784882,0.00014440614400003268,-2.35608146,0.00014643847400001666,1.57091664,0.786101072,0.039999982600000004,0.0399999896,-9.986221520874569,-0.16195225233398527,-0.11090942079372672,-0.001954806036155898,-0.008089091271090042,-0.0012936820568688959
0.2725,0.00018020320500000412,-0.784879975,0.0001480427920000329,-2.356087805,0.00014829160700001676,1.570914495,0.786104576,0.03999998155,0.0399999893,-9.99241877621222,-0.1852709919815539,-0.1297629945842492,-0.0019345477748515818,-0.009144111232073924,-0.0008593108146176956
0.275,0.00018065985000000414,-0.7848779499999999,0.0001516794400000331,-2.35609415,0.00015014474000001686,1.57091235,0.78610808,0.0399999805,0.039999989,-9.99861603154987,-0.20858973162912253,-0.1486165683747717,-0.0019142895135472655,-0.010199131193057806,-0.0004249395723664956
0.2775,0.0001811164950000042,-0.7848759249999999,0.00015531608800003333,-2.3561004949999997,0.000151997873000017,1.570910205,0.786111584,0.03999997945,0.0399999887,-10.00481328688752,-0.23190847127669117,-0.16747014216529416,-0.0018940312522429494,-0.011254151154041686,9.431669884704631e-06
0.28,0.00018157314000000422,-0.7848739,0.00015895273600003353,-2.35610684,0.0001538510060000171,1.5709080599999998,0.786115088,0.0399999784,0.0399999884,-10.01101054222517,-0.2552272109242598,-0.18632371595581665,-0.0018737729909386331,-0.012309171115025566,0.00044380291213590487
0.28250000000000003,0.00018202978500000424,-0.784871875,0.00016258938400003374,-2.356113185,0.0001557041390000172,1.570905915,0.786118592,0.03999997735,0.0399999881,-10.01720779756282,-0.27854595057182846,-0.20517728974633914,-0.001853514729634317,-0.013364191076009448,0.0008781741543871047
0.28500000000000003,0.00018253715200000498,-0.78487038,0.00016661844000003944,-2.35611955,0.0001577570370000201,1.5709037,0.786122484,0.0399999766,0.0399999876,-10.010110380213309,-0.2743344194613839,-0.17662910425200523,-0.0017755134204747024,-0.013822431997993583,0.0006799221622043067
0.28750000000000003,0.000183069880000005,-0.78486915,0.00017084370000003968,-2.356125925,0.00015990981750002022,1.5709014499999998,0.78612657,0.039999976,0.039999987,-9.996365626520495,-0.2563577529725086,-0.12438003911623458,-0.0016686405873886463,-0.013982283400490327,0.000165358552817742
0.29,0.00018360260800000502,-0.7848679199999999,0.00017506896000003984,-2.3561323,0.0001620625980000203,1.5708992,0.786130656,0.0399999754,0.0399999864,-9.982620872827681,-0.2383810864836337,-0.07213097398046509,-0.0015617677543025923,-0.014142134802987066,-0.00034920505656881127
0.2925,0.00018413533600000507,-0.78486669,0.00017929422000004008,-2.356138675,0.00016421537850002041,1.5708969499999998,0.786134742,0.0399999748,0.0399999858,-9.968876119134867,-0.2204044199947584,-0.019881908844694457,-0.0014548949212165362,-0.014301986205483811,-0.0008637686659553759
0.295,0.00018466806400000509,-0.78486546,0.00018351948000004033,-2.3561450500000003,0.00016636815900002055,1.5708947,0.786138828,0.0399999742,0.039999985200000004,-9.955131365442053,-0.20242775350588307,0.0323671562910762,-0.0013480220881304798,-0.014461837607980555,-0.0013783322753419406
0.2975,0.0001852007920000051,-0.7848642299999999,0.00018774474000004057,-2.356151425,0.0001685209395000207,1.5708924499999999,0.786142914,0.0399999736,0.0399999846,-9.941386611749238,-0.18445108701700777,0.08461622142684683,-0.001241149255044424,-0.0146216890104773,-0.0018928958847285052
0.3,0.00018573352000000594,-0.784863,0.00019197000000004697,-2.3561578,0.00017067372000002394,1.5708902,0.786147,0.039999973,0.039999984,-9.927641858055985,-0.16647442052846534,0.13686528656213812,-0.0011342764219535214,-0.014781540412963996,-0.0024074594941095265
0.3025,0.00018634907650000597,-0.784862505,0.00019683456150004726,-2.356164235,0.00017315180250002408,1.57088747,0.7861517025000001,0.03999997255,0.0399999834,-9.868499248351686,-0.18295973123485978,0.1394851444162859,-0.0005256699186418414,-0.013901151679618315,-0.0023481141127591433
0.305,0.000186964633000006,-0.78486201,0.00020169912300004755,-2.35617067,0.00017562988500002423,1.57088474,0.7861564050000001,0.0399999721,0.0399999828,-9.809356638647385,-0.19944504194125423,0.14210500227043368,8.293658466983884e-05,-0.013020762946272635,-0.00228876873140876
0.3075,0.00018758018950000606,-0.784861515,0.00020656368450004784,-2.356177105,0.00017810796750002437,1.57088201,0.7861611075000001,0.03999997165,0.0399999822,-9.750214028943084,-0.2159303526476487,0.14472486012458147,0.0006915430879815187,-0.012140374212926953,-0.0022294233500583763
0.31,0.0001881957460000061,-0.78486102,0.0002114282460000481,-2.35618354,0.00018058605000002452,1.57087928,0.7861658100000001,0.039999971200000005,0.0399999816,-9.691071419238785,-0.23241566335404315,0.14734471797872925,0.001300149591293199,-0.011259985479581272,-0.002170077968707993
0.3125,0.00018881130250000613,-0.784860525,0.0002162928075000484,-2.356189975,0.00018306413250002466,1.57087655,0.7861705125,0.03999997075,0.039999981,-9.631928809534484,-0.2489009740604376,0.14996457583287703,0.001908756094604879,-0.010379596746235592,-0.0021107325873576093
0.315,0.00018942685900000616,-0.78486003,0.00022115736900004865,-2.35619641,0.00018554221500002478,1.57087382,0.7861752150000001,0.0399999703,0.039999980399999996,-9.572786199830183,-0.26538628476683207,0.15258443368702482,0.0025173625979165596,-0.00949920801288991,-0.002051387206007226
0.3175,0.0001900722995000071,-0.784859815,0.0002262520795000559,-2.356202865,0.00018813740650002847,1.570871,0.7861801290000001,0.0399999698,0.03999997985,-9.541870153097467,-0.2514606831980884,0.14539357221238797,0.0026753759941360814,-0.008699481163818761,-0.0021016460369614417
0.32,0.00019077750800000712,-0.78486016,0.00023180708800005621,-2.3562093600000003,0.00019096681600002863,1.570868,0.786185466,0.0399999692,0.039999979399999996,-9.567407232305364,-0.1767132570818175,0.1185812720810687,0.0019322031762120182,-0.008061078083289378,-0.002371113292514947
0.3225,0.00019148271650000717,-0.784860505,0.00023736209650005653,-2.356215855,0.0001937962255000288,1.570865,0.7861908030000001,0.0399999686,0.03999997895,-9.592944311513262,-0.10196583096554665,0.09176897194974942,0.0011890303582879555,-0.007422675002759996,-0.0026405805480684526
0.325,0.00019218792500000722,-0.78486085,0.00024291710500005685,-2.35622235,0.00019662563500002895,1.570862,0.78619614,0.039999968,0.0399999785,-9.61848139072116,-0.027218404849275762,0.06495667181843014,0.00044585754036389254,-0.0067842719222306145,-0.0029100478036219583
0.3275,0.00019289313350000727,-0.784861195,0.0002484721135000572,-2.356228845,0.00019945504450002912,1.570859,0.786201477,0.0399999674,0.039999978049999996,-9.644018469929058,0.0475290212669951,0.038144371687110865,-0.0002973152775601704,-0.006145868841701233,-0.003179515059175464
0.33,0.0001935983420000073,-0.78486154,0.0002540271220000575,-2.35623534,0.00020228445400002928,1.5708559999999998,0.786206814,0.0399999668,0.0399999776,-9.669555549136955,0.12227644738326598,0.011332071555791579,-0.001040488095484233,-0.005507465761171851,-0.003448982314728969
0.3325,0.00019430355050000734,-0.784861885,0.0002595821305000578,-2.356241835,0.00020511386350002944,1.5708529999999998,0.786212151,0.0399999662,0.03999997715,-9.695092628344852,0.19702387349953687,-0.015480228575527694,-0.001783660913408296,-0.004869062680642469,-0.003718449570282475
0.335,0.0001950730900000084,-0.78486276,0.0002656317280000659,-2.35624863,0.00020819486500003358,1.57084976,0.786217984,0.0399999652,0.0399999766,-9.72100536981283,0.20410757069543742,-0.03855450109481727,-0.001582557264037183,-0.005273221484385757,-0.003427844023759219
0.3375,0.00019587479500000844,-0.7848639,0.00027192862000006626,-2.356255575,0.00021140166250003376,1.5708464,0.7862240650000001,0.039999964,0.039999976,-9.747105942410835,0.17735940343274045,-0.059759759808179706,-0.0009093153810406391,-0.006198661230240915,-0.0028572020762107245
0.34,0.00019667650000000848,-0.78486504,0.00027822551200006664,-2.35626252,0.00021460846000003394,1.57084304,0.7862301460000001,0.0399999628,0.0399999754,-9.773206515008843,0.15061123617004352,-0.08096501852154214,-0.0002360734980440954,-0.007124100976096073,-0.00228656012866223
0.3425,0.00019747820500000854,-0.78486618,0.000284522404000067,-2.356269465,0.00021781525750003413,1.57083968,0.7862362270000001,0.0399999616,0.0399999748,-9.799307087606849,0.12386306890734654,-0.1021702772349046,0.0004371683849524483,-0.008049540721951232,-0.0017159181811137354
0.34500000000000003,0.00019827991000000858,-0.7848673199999999,0.00029081929600006733,-2.35627641,0.0002210220550000343,1.57083632,0.7862423080000001,0.0399999604,0.0399999742,-9.825407660204855,0.09711490164464957,-0.12337553594826703,0.0011104102679489925,-0.008974980467806391,-0.0011452762335652407
0.34750000000000003,0.00019908161500000862,-0.78486846,0.0002971161880000677,-2.356283355,0.0002242288525000345,1.57083296,0.786248389,0.039999959200000004,0.0399999736,-9.851508232802862,0.07036673438195262,-0.14458079466162946,0.0017836521509455362,-0.009900420213661549,-0.0005746342860167464
0.35000000000000003,0.0001998833200000098,-0.7848696,0.00030341308000007665,-2.3562903,0.00022743565000003904,1.5708296,0.7862544700000001,0.039999958,0.039999973,-9.877608805400328,0.043618567119973646,-0.16578605337458027,0.0024568940339253164,-0.01082585995951268,-3.992338469775986e-06
0.3525,0.00020078840800000984,-0.7848715589999999,0.00031050350200007693,-2.356297755,0.00023104626700003918,1.57082573,0.7862612995000001,0.0399999574,0.03999997255,-9.853869279245695,0.08326757272100191,-0.14892469909049255,0.0015798886295438253,-0.011378859441921504,0.00042569724554094267
0.355,0.00020169349600000988,-0.7848735179999999,0.0003175939240000773,-2.35630521,0.00023465688400003937,1.57082186,0.7862681290000001,0.0399999568,0.0399999721,-9.83012975309106,0.12291657832203104,-0.13206334480640447,0.0007028832251623146,-0.011931858924330341,0.0008553868295516708
0.3575,0.00020259858400000993,-0.7848754769999999,0.00032468434600007776,-2.356312665,0.0002382675010000396,1.5708179899999999,0.7862749585000001,0.0399999562,0.03999997165,-9.806390226936424,0.1625655839230602,-0.1152019905223164,-0.00017412217921919599,-0.012484858406739179,0.001285076413562399
0.36,0.00020350367200000998,-0.7848774359999999,0.00033177476800007815,-2.35632012,0.0002418781180000398,1.5708141199999999,0.786281788,0.0399999556,0.039999971200000005,-9.782650700781788,0.20221458952408933,-0.09834063623822832,-0.001051127583600707,-0.013037857889148016,0.0017147659975731272
0.3625,0.00020440876000001003,-0.7848793949999999,0.00033886519000007854,-2.356327575,0.00024548873500004,1.5708102499999999,0.7862886175000001,0.039999955,0.03999997075,-9.758911174627153,0.24186359512511846,-0.08147928195414025,-0.0019281329879822172,-0.013590857371556853,0.0021444555815838553
0.365,0.00020531384800001007,-0.7848813539999999,0.000345955612000079,-2.35633503,0.0002490993520000402,1.5708063799999998,0.7862954470000001,0.039999954399999996,0.0399999703,-9.73517164847252,0.2815126007261476,-0.06461792767005217,-0.0028051383923637283,-0.01414385685396569,0.0025741451655945835
0.3675,0.00020625569850001138,-0.784883592,0.00035332778200008883,-2.356342525,0.0002528533245000452,1.570802345,0.7863025550000001,0.039999953649999996,0.0399999695,-9.736367885629882,0.2933925936572708,-0.030019640618106785,-0.003080554478509413,-0.01436468068050932,0.002680831573464237
0.37,0.00020727107400001144,-0.784886388,0.0003612634480000893,-2.3563501,0.0002568940080000455,1.57079798,0.7863102200000001,0.0399999526,0.039999968000000004,-9.78743564940873,0.24973456125137505,0.04005251196776913,-0.0021527919282439594,-0.013921153195355949,0.002141511629084231
0.3725,0.00020828644950001148,-0.784889184,0.00036919911400008976,-2.356357675,0.0002609346915000457,1.570793615,0.7863178850000001,0.039999951549999996,0.039999966500000005,-9.83850341318758,0.20607652884547936,0.11012466455364504,-0.0012250293779785056,-0.013477625710202579,0.0016021916847042247
0.375,0.00020930182500001154,-0.78489198,0.00037713478000009023,-2.35636525,0.0002649753750000459,1.57078925,0.78632555,0.0399999505,0.039999965,-9.88957117696643,0.16241849643958367,0.18019681713952096,-0.0002972668277130522,-0.013034098225049208,0.0010628717403242186
0.3775,0.0002103172005000116,-0.784894776,0.0003850704460000907,-2.356372825,0.0002690160585000462,1.570784885,0.7863332150000001,0.03999994945,0.0399999635,-9.940638940745279,0.11876046403368798,0.25026896972539686,0.0006304957225524016,-0.012590570739895838,0.0005235517959442126
0.38,0.00021133257600001166,-0.784897572,0.00039300611200009117,-2.3563804,0.0002730567420000464,1.57078052,0.78634088,0.0399999484,0.039999962,-9.991706704524127,0.07510243162779229,0.32034112231127276,0.001558258272817855,-0.012147043254742466,-1.5768148435793376e-05
0.3825,0.00021234795150001172,-0.7849003680000001,0.0004009417780000916,-2.356387975,0.0002770974255000466,1.5707761550000001,0.7863485450000001,0.03999994735,0.0399999605,-10.042774468302976,0.03144439922189657,0.39041327489714867,0.0024860208230833084,-0.011703515769589097,-0.0005550880928157998
0.385,0.00021344143800001314,-0.78490373,0.00040947545000010247,-2.35639586,0.00028144231400005216,1.57077155,0.78635679,0.0399999459,0.0399999594,-10.07124862640568,0.012822277881544903,0.3588752913182448,0.0021386756036449153,-0.011227550059975161,-0.0007221480392229688
0.3875,0.0002145739800000132,-0.7849073750000001,0.000418308125000103,-2.3564039,0.0002859393050000524,1.570766825,0.7863653250000001,0.03999994425,0.0399999585,-10.0884259816709,0.006718112073314016,0.27653223965959417,0.0011537764993877686,-0.010735365238131789,-0.0007030779866534026
0.39,0.00021570652200001328,-0.78491102,0.0004271408000001035,-2.35641194,0.0002904362960000527,1.5707621,0.7863738600000001,0.0399999426,0.0399999576,-10.105603336936118,0.0006139462650831297,0.19418918800094354,0.0001688773951306218,-0.010243180416288414,-0.0006840079340838366
0.3925,0.00021683906400001333,-0.7849146650000001,0.000435973475000104,-2.35641998,0.00029493328700005294,1.570757375,0.7863823950000001,0.03999994095,0.0399999567,-10.122780692201339,-0.005490219543147757,0.1118461363422929,-0.0008160217091265254,-0.00975099559444504,-0.0006649378815142704
0.395,0.0002179716060000134,-0.78491831,0.0004448061500001045,-2.35642802,0.0002994302780000532,1.57075265,0.78639093,0.0399999393,0.0399999558,-10.139958047466557,-0.011594385351378644,0.029503084683642267,-0.0018009208133836717,-0.009258810772601668,-0.0006458678289447044
0.3975,0.00021910414800001344,-0.7849219550000001,0.00045363882500010504,-2.35643606,0.00030392726900005347,1.5707479249999998,0.7863994650000001,0.03999993765,0.039999954899999995,-10.157135402731777,-0.017698551159609527,-0.05283996697500837,-0.002785819917640819,-0.008766625950758293,-0.0006267977763751382
0.4,0.000220236690000015,-0.7849256,0.00046247150000011683,-2.3564441,0.0003084242600000595,1.5707432,0.7864080000000001,0.039999936,0.039999954,-10.17431275799564,-0.023802716967464506,-0.13518301863243035,-0.0037707190218771837,-0.008274441128918638,-0.000607727723805673
0.4025,0.0002214932775000151,-0.784930094,0.0004722527975001174,-2.3564528300000003,0.0003134039015000598,1.5707379949999998,0.786417435,0.03999993435,0.03999995235,-10.078024256333906,0.0015608240064025267,-0.11467846058213119,-0.0030159754656568904,-0.008093522707146349,-0.0005970958967870074
0.405,0.00022274986500001514,-0.784934588,0.000482034095000118,-2.35646156,0.00031838354300006005,1.5707327899999999,0.7864268700000001,0.0399999327,0.0399999507,-9.981735754672172,0.02692436498026956,-0.09417390253183205,-0.0022612319094365966,-0.007912604285374058,-0.0005864640697683418
0.40750000000000003,0.00022400645250001522,-0.7849390820000001,0.0004918153925001186,-2.35647029,0.00032336318450006037,1.570727585,0.7864363050000001,0.03999993105,0.03999994905,-9.88544725301044,0.05228790595413659,-0.0736693444815329,-0.0015064883532163028,-0.007731685863601768,-0.0005758322427496761
0.41000000000000003,0.0002252630400000153,-0.7849435760000001,0.0005015966900001191,-2.35647902,0.00032834282600006064,1.5707223799999999,0.7864457400000001,0.0399999294,0.0399999474,-9.789158751348706,0.07765144692800363,-0.05316478643123375,-0.0007517447969960091,-0.007550767441829477,-0.0005652004157310106
0.41250000000000003,0.00022651962750001536,-0.78494807,0.0005113779875001197,-2.35648775,0.00033332246750006095,1.570717175,0.7864551750000001,0.03999992775,0.03999994575,-9.692870249686973,0.10301498790187066,-0.0326602283809346,2.9987592242842857e-06,-0.007369849020057186,-0.000554568588712345
0.41500000000000004,0.00022777621500001544,-0.784952564,0.0005211592850001203,-2.35649648,0.0003383021090000612,1.57071197,0.7864646100000001,0.0399999261,0.039999944100000004,-9.596581748025239,0.1283785288757377,-0.012155670330635457,0.0007577423154445781,-0.007188930598284896,-0.0005439367616936793
0.4175,0.0002290764440000171,-0.7849573470000001,0.000531273935000133,-2.356505245,0.0003434513415000677,1.57070658,0.7864743650000001,0.0399999246,0.03999994265,-9.551055125725343,0.15533078303031447,0.0010918016803792441,0.0014143714717485157,-0.007275487923968792,-0.0005955507739472761
0.42,0.0002304639560000172,-0.784962708,0.0005420552900001336,-2.3565140799999997,0.000348939756000068,1.5707008199999999,0.7864847600000001,0.0399999234,0.039999941600000005,-9.607052262143496,0.18546046354613646,-0.0001748983863696491,0.0018747718282306623,-0.007896996744535418,-0.0007716564647385013
0.4225,0.00023185146800001728,-0.784968069,0.0005528366450001342,-2.3565229149999998,0.0003544281705000683,1.57069506,0.7864951550000001,0.0399999222,0.03999994055,-9.663049398561649,0.21559014406195842,-0.0014415984531185421,0.0023351721847128092,-0.008518505565102044,-0.0009477621555297264
0.425,0.00023323898000001734,-0.7849734300000001,0.0005636180000001348,-2.35653175,0.0003599165850000686,1.5706893,0.7865055500000001,0.039999921,0.0399999395,-9.719046534979801,0.2457198245777804,-0.002708298519867435,0.0027955725411949557,-0.00914001438566867,-0.0011238678463209514
0.4275,0.00023462649200001743,-0.784978791,0.0005743993550001354,-2.356540585,0.0003654049995000689,1.57068354,0.7865159450000001,0.0399999198,0.03999993845,-9.775043671397952,0.2758495050936024,-0.003974998586616328,0.003255972897677102,-0.009761523206235296,-0.0012999735371121766
0.43,0.00023601400400001751,-0.784984152,0.000585180710000136,-2.35654942,0.0003708934140000692,1.57067778,0.7865263400000001,0.0399999186,0.0399999374,-9.831040807816105,0.3059791856094244,-0.005241698653365222,0.0037163732541592486,-0.010383032026801922,-0.0014760792279034018
0.4325,0.0002374015160000176,-0.784989513,0.0005959620650001366,-2.356558255,0.00037638182850006956,1.57067202,0.7865367350000001,0.0399999174,0.03999993635,-9.887037944234258,0.3361088661252464,-0.006508398720114115,0.004176773610641395,-0.011004540847368547,-0.001652184918694627
0.435,0.00023888084800001942,-0.78499549,0.0006074442390001506,-2.35656775,0.00038222670200007666,1.57066588,0.7865478100000002,0.039999917,0.0399999364,-9.910702967769403,0.3570330600259776,0.02487680841959129,0.004326067755163631,-0.010982193980620947,-0.001844628424674454
0.4375,0.0002404060900000195,-0.785001775,0.0006192768225001513,-2.356577575,0.00038824980500007703,1.57065955,0.7865592250000002,0.039999917,0.039999937,-9.918201934863966,0.37335451061942654,0.0725879691615913,0.004319808793714795,-0.010637919270234622,-0.0020452408382481157
0.44,0.00024193133200001962,-0.78500806,0.000631109406000152,-2.3565874,0.00039427290800007734,1.57065322,0.7865706400000002,0.039999917,0.0399999376,-9.92570090195853,0.3896759612128754,0.1202991299035913,0.00431354983226596,-0.010293644559848297,-0.0022458532518217773
0.4425,0.0002434565740000197,-0.785014345,0.0006429419895001527,-2.3565972250000002,0.0004002960110000777,1.57064689,0.7865820550000002,0.039999917,0.0399999382,-9.933199869053093,0.4059974118063243,0.16801029064559128,0.004307290870817124,-0.009949369849461973,-0.002446465665395439
0.445,0.0002449818160000198,-0.7850206300000001,0.0006547745730001534,-2.35660705,0.0004063191140000781,1.57064056,0.7865934700000002,0.039999917,0.039999938799999996,-9.940698836147655,0.4223188623997732,0.21572145138759127,0.004301031909368289,-0.009605095139075648,-0.0026470780789691005
0.4475,0.00024650705800001986,-0.7850269150000001,0.0006666071565001541,-2.3566168750000003,0.0004123422170000784,1.57063423,0.7866048850000001,0.039999917,0.0399999394,-9.94819780324222,0.4386403129932221,0.2634326121295913,0.0042947729479194535,-0.009260820428689323,-0.002847690492542762
0.45,0.00024803230000002187,-0.7850332000000001,0.0006784397400001692,-2.3566267,0.0004183653200000861,1.5706279,0.7866163000000002,0.039999917,0.03999994,-9.955696770335571,0.4549617635856584,0.31114377287052203,0.004288513986462979,-0.008916545718304093,-0.0030483029061147567
0.4525,0.00024970204450002197,-0.7850403850000001,0.0006913744665001699,-2.356636795,0.0004249491125000865,1.570621,0.7866287800000002,0.0399999164,0.03999994,-9.87058654819377,0.3938582524645252,0.2770983820804265,0.0036981187271279397,-0.008656080808468334,-0.0031214388724173005
0.455,0.000251371789000022,-0.78504757,0.0007043091930001707,-2.3566468900000004,0.00043153290500008685,1.5706141,0.7866412600000002,0.0399999158,0.03999994,-9.785476326051969,0.3327547413433921,0.24305299129033092,0.0031077234677929005,-0.008395615898632573,-0.003194574838719845
0.4575,0.0002530415335000221,-0.7850547550000001,0.0007172439195001714,-2.3566569850000003,0.00043811669750008726,1.5706072,0.7866537400000002,0.0399999152,0.03999994,-9.700366103910167,0.2716512302222589,0.20900760050023537,0.0025173282084578613,-0.008135150988796813,-0.003267710805022389
0.46,0.0002547112780000222,-0.7850619400000001,0.0007301786460001721,-2.3566670800000002,0.0004447004900000876,1.5706003,0.7866662200000002,0.0399999146,0.03999994,-9.615255881768366,0.21054771910112577,0.17496220971013982,0.0019269329491228226,-0.007874686078961054,-0.0033408467713249334
0.4625,0.0002563810225000223,-0.785069125,0.0007431133725001728,-2.356677175,0.000451284282500088,1.5705934,0.7866787000000002,0.039999914,0.03999994,-9.530145659626564,0.14944420797999264,0.14091681892004426,0.0013365376897877834,-0.007614221169125294,-0.0034139827376274776
0.465,0.0002580507670000224,-0.7850763100000001,0.0007560480990001736,-2.35668727,0.0004578680750000884,1.5705864999999999,0.7866911800000002,0.039999913399999996,0.03999994,-9.445035437484762,0.08834069685885948,0.10687142812994871,0.0007461424304527442,-0.007353756259289534,-0.003487118703930022
0.4675,0.00025977092100002455,-0.78508381,0.0007693670025001899,-2.3566976700000004,0.0004646473065000967,1.57057939,0.7867040300000002,0.03999991285,0.039999939799999995,-9.416092792048618,0.05100056690591127,0.07733798214410154,0.0004161384194732672,-0.007319148058576949,-0.0032871263706110037
0.47000000000000003,0.00026159189400002465,-0.78509194,0.0007834542600001907,-2.35670868,0.0004718174160000971,1.57057186,0.7867176200000002,0.0399999124,0.0399999392,-9.49948530001698,0.061187199286453525,0.05682842576620453,0.0006069169051733632,-0.007736253276083348,-0.0025408774380819557
0.47250000000000003,0.00026341286700002476,-0.78510007,0.0007975415175001915,-2.3567196900000003,0.0004789875255000975,1.57056433,0.7867312100000002,0.03999991195,0.0399999386,-9.582877807985342,0.07137383166699579,0.03631886938830752,0.0007976953908734592,-0.008153358493589747,-0.0017946285055529078
0.47500000000000003,0.00026523384000002486,-0.7851082,0.0008116287750001924,-2.3567307,0.0004861576350000979,1.5705568,0.7867448000000002,0.0399999115,0.039999938,-9.666270315953705,0.08156046404753806,0.01580931301041051,0.0009884738765735552,-0.008570463711096146,-0.0010483795730238596
0.47750000000000004,0.00026705481300002496,-0.7851163300000001,0.0008257160325001932,-2.35674171,0.0004933277445000983,1.5705492699999999,0.7867583900000003,0.039999911049999996,0.0399999374,-9.749662823922067,0.09174709642808032,-0.004700243367486492,0.0011792523622736512,-0.008987568928602545,-0.00030213064049481155
0.48,0.00026887578600002507,-0.7851244600000001,0.0008398032900001937,-2.3567527200000002,0.0005004978540000985,1.57054174,0.7867719800000003,0.0399999106,0.0399999368,-9.833055331890428,0.10193372880862236,-0.025209799745383052,0.0013700308479737428,-0.009404674146108936,0.0004441182920342196
0.4825,0.00027069675900002517,-0.7851325900000001,0.0008538905475001945,-2.35676373,0.000507667963500099,1.57053421,0.7867855700000003,0.03999991015,0.0399999362,-9.91644783985879,0.11212036118916463,-0.045719356123280055,0.0015608093336738388,-0.009821779363615335,0.001190367224563268
0.485,0.00027262300700002745,-0.7851413770000001,0.000868779513000212,-2.35677536,0.0005152459200001079,1.57052625,0.7867999300000003,0.03999991,0.039999936,-9.939783677319234,0.07539417657933867,-0.053524133606369984,0.0016143108169458702,-0.010234647221509656,0.0016843242018850795
0.4875,0.0002746018925000276,-0.7851504925000001,0.0008840693325002129,-2.3567873,0.0005230278000001084,1.5705180749999998,0.7868146750000002,0.03999991,0.039999936,-9.933091179527587,0.01521158347578798,-0.05497652164245164,0.0015991737990081393,-0.01064539639959807,0.0020521352016111207
0.49,0.0002765807780000277,-0.7851596080000002,0.0008993591520002138,-2.35679924,0.0005308096800001088,1.5705099,0.7868294200000002,0.03999991,0.039999936,-9.926398681735938,-0.044971009627762695,-0.056428909678533305,0.0015840367810704085,-0.011056145577686482,0.002419946201337162
0.4925,0.00027855966350002776,-0.7851687235000001,0.0009146489715002146,-2.3568111800000002,0.0005385915600001093,1.570501725,0.7868441650000002,0.03999991,0.039999936,-9.91970618394429,-0.10515360273131337,-0.05788129771461496,0.0015688997631326774,-0.011466894755774896,0.0027877572010632035
0.495,0.0002805385490000279,-0.7851778390000002,0.0009299387910002155,-2.35682312,0.0005463734400001098,1.57049355,0.7868589100000003,0.03999991,0.039999936,-9.913013686152642,-0.16533619583486409,-0.05933368575069662,0.0015537627451949465,-0.01187764393386331,0.0031555682007892447
0.4975,0.000282517434500028,-0.7851869545000002,0.0009452286105002163,-2.3568350600000003,0.0005541553200001101,1.5704853749999999,0.7868736550000003,0.03999991,0.039999936,-9.906321188360995,-0.22551878893841476,-0.06078607378677828,0.0015386257272572157,-0.012288393111951724,0.003523379200515286
0.5,0.00028449632000003046,-0.7851960700000001,0.000960518430000235,-2.356847,0.0005619372000001196,1.5704771999999998,0.7868884000000003,0.03999991,0.039999936,-9.899628690569667,-0.2857013820402144,-0.06223846182295908,0.0015234887093159462,-0.012699142290032245,0.0038911902002270408
0.5025000000000001,0.0002866396940000306,-0.7852061635000002,0.0009770603205002365,-2.35685927,0.0005703558825001203,1.5704683799999999,0.7869043750000003,0.03999991045,0.03999993705,-9.91553382817075,-0.22266607336880878,-0.07066726662205933,0.00125934424630677,-0.012554494337022179,0.0032537082197849196
0.505,0.0002887830680000307,-0.7852162570000002,0.000993602211000237,-2.35687154,0.0005787745650001207,1.57045956,0.7869203500000003,0.0399999109,0.0399999381,-9.931438965771832,-0.15963076469740597,-0.07909607142115921,0.0009951997832976058,-0.012409846384012118,0.002616226239342827
0.5075000000000001,0.00029092644200003087,-0.7852263505000001,0.0010101441015002383,-2.3568838100000002,0.0005871932475001213,1.5704507399999998,0.7869363250000003,0.03999991135,0.039999939150000004,-9.947344103372913,-0.09659545602600034,-0.08752487622025946,0.0007310553202884297,-0.012265198431002051,0.001978744258900706
0.51,0.00029306981600003097,-0.7852364440000001,0.001026685992000239,-2.3568960800000003,0.0005956119300001216,1.57044192,0.7869523000000003,0.039999911799999996,0.0399999402,-9.963249240973996,-0.03356014735459756,-0.09595368101935935,0.00046691085727926544,-0.01212055047799199,0.0013412622784586136
0.5125,0.000295213190000031,-0.7852465375000002,0.0010432278825002396,-2.3569083500000003,0.0006040306125001219,1.5704331,0.7869682750000003,0.03999991225,0.039999941250000004,-9.979154378575076,0.029475161316805276,-0.10438248581845923,0.000202766394270101,-0.011975902524981931,0.000703780298016521
0.515,0.0002973565640000312,-0.7852566310000001,0.001059769773000241,-2.3569206200000004,0.0006124492950001226,1.57042428,0.7869842500000003,0.0399999127,0.0399999423,-9.995059516176159,0.09251046998821089,-0.11281129061755948,-6.137806873907515e-05,-0.011831254571971863,6.629831757439973e-05
0.5175,0.0002995569500000338,-0.7852670670000002,0.0010767453450002604,-2.356933235,0.0006210885725001325,1.57041521,0.7870006325000003,0.0399999132,0.039999943350000004,-10.004289991618853,0.13623718743361912,-0.1187381121993447,-0.0004444324358447953,-0.011601003496622601,-0.0007208608018739203
0.52,0.00030187136000003396,-0.7852781880000002,0.001094588280000262,-2.35694654,0.0006301690400001332,1.57040564,0.7870178300000003,0.0399999138,0.0399999444,-10.000171142745646,0.14134672242957233,-0.119660967346829,-0.0010653066111280499,-0.01119954617660615,-0.0018073741993151022
0.5225,0.00030418577000003406,-0.7852893090000002,0.0011124312150002625,-2.356959845,0.0006392495075001335,1.57039607,0.7870350275000003,0.0399999144,0.039999945450000005,-9.996052293872438,0.14645625742552532,-0.12058382249431325,-0.0016861807864112768,-0.010798088856589715,-0.002893887596756236
0.525,0.0003065001800000342,-0.7853004300000002,0.0011302741500002639,-2.35697315,0.0006483299750001343,1.5703865,0.7870522250000003,0.039999915000000004,0.0399999465,-9.991933444999232,0.1515657924214785,-0.12150667764179754,-0.002307054961694531,-0.010396631536573263,-0.003980400994197417
0.5275,0.0003088145900000343,-0.7853115510000002,0.0011481170850002646,-2.3569864550000004,0.0006574104425001346,1.57037693,0.7870694225000003,0.0399999156,0.03999994755,-9.987814596126023,0.15667532741743148,-0.1224295327892818,-0.0029279291369777583,-0.009995174216556829,-0.005066914391638551
0.53,0.0003111290000000345,-0.7853226720000002,0.001165960020000266,-2.3569997600000003,0.0006664909100001354,1.5703673599999999,0.7870866200000003,0.0399999162,0.0399999486,-9.983695747252817,0.1617848624133847,-0.12335238793676609,-0.0035488033122610127,-0.009593716896540375,-0.006153427789079733
0.5325,0.0003134434100000346,-0.7853337930000002,0.0011838029550002667,-2.3570130650000003,0.0006755713775001357,1.5703577899999999,0.7871038175000004,0.0399999168,0.03999994965,-9.979576898379609,0.16689439740933765,-0.12427524308425034,-0.00416967748754424,-0.009192259576523943,-0.007239941186520867
0.535,0.0003158761150000374,-0.7853456100000002,0.0012025454400002883,-2.3570270900000003,0.0006851094500001468,1.5703477399999999,0.7871218850000004,0.039999917,0.03999995,-9.941891563295338,0.17704016035798117,-0.10012354965265764,-0.0036939638778708,-0.009156286119435204,-0.006977267522418103
0.5375,0.0003183679675000375,-0.7853577750000001,0.001221737700000289,-2.357041475,0.0006948763250001471,1.5703374499999998,0.7871403875000004,0.039999917,0.03999995,-9.887422985106664,0.1897040372827997,-0.06343458193237242,-0.002669956375755984,-0.009303054593798009,-0.00604000032758884
0.54,0.0003208598200000377,-0.7853699400000002,0.0012409299600002906,-2.35705586,0.0007046432000001479,1.5703271599999997,0.7871588900000003,0.039999917,0.03999995,-9.83295440691799,0.2023679142076188,-0.02674561421208556,-0.001645948873641122,-0.00944982306816082,-0.005102733132759535
0.5425,0.0003233516725000378,-0.7853821050000002,0.0012601222200002912,-2.357070245,0.0007144100750001482,1.5703168699999999,0.7871773925000003,0.039999917,0.03999995,-9.778485828729316,0.2150317911324373,0.009943353508199679,-0.0006219413715263058,-0.009596591542523627,-0.004165465937930272
0.545,0.000325843525000038,-0.7853942700000002,0.0012793144800002927,-2.35708463,0.000724176950000149,1.5703065799999998,0.7871958950000003,0.039999917,0.03999995,-9.724017250540642,0.22769566805725638,0.046632321228486526,0.000402066130588556,-0.009743360016886438,-0.003228198743100967
0.5475,0.0003283353775000381,-0.7854064350000002,0.0012985067400002935,-2.357099015,0.0007339438250001493,1.57029629,0.7872143975000003,0.039999917,0.03999995,-9.669548672351969,0.2403595449820749,0.08332128894877176,0.0014260736327033723,-0.009890128491249244,-0.0022909315482717036
0.55,0.0003308272300000411,-0.7854186000000002,0.0013176990000003165,-2.3571134000000002,0.000743710700000161,1.5702859999999998,0.7872329000000003,0.039999917,0.03999995,-9.61508009416359,0.2530234219055814,0.1200102566680242,0.002450081134797031,-0.010036896965612286,-0.0013536643534555598
0.5525,0.0003335028910000412,-0.7854318450000002,0.0013382883450003171,-2.3571281,0.0007541881175001613,1.5702750049999998,0.7872527450000003,0.0399999164,0.03999995,-9.57977171489711,0.18026290637938142,0.0893775765923781,0.002094134668385363,-0.010198714244242332,-0.001272961030297297
0.555,0.00033617855200004145,-0.7854450900000002,0.0013588776900003187,-2.3571428,0.0007646655350001622,1.5702640099999998,0.7872725900000003,0.0399999158,0.03999995,-9.54446333563063,0.10750239085317823,0.058744896516730635,0.0017381882019736803,-0.010360531522872385,-0.0011922577071390307
0.5575,0.0003388542130000415,-0.7854583350000002,0.0013794670350003196,-2.3571575,0.0007751429525001626,1.5702530149999998,0.7872924350000003,0.0399999152,0.03999995,-9.509154956364151,0.03474187532697823,0.028112216441084525,0.0013822417355620128,-0.010522348801502431,-0.0011115543839807678
0.56,0.00034152987400004175,-0.7854715800000002,0.0014000563800003211,-2.3571722000000004,0.0007856203700001634,1.5702420199999998,0.7873122800000003,0.0399999146,0.03999995,-9.473846577097671,-0.03801864019922496,-0.0025204636345629305,0.0010262952691503294,-0.010684166080132484,-0.0010308510608225013
0.5625,0.00034420553500004187,-0.7854848250000002,0.0014206457250003218,-2.3571869000000003,0.0007960977875001638,1.5702310249999998,0.7873321250000003,0.039999914,0.03999995,-9.438538197831193,-0.11077915572542496,-0.03315314371020904,0.0006703488027386621,-0.010845983358762528,-0.0009501477376642384
0.5650000000000001,0.00034688119600004204,-0.7854980700000002,0.0014412350700003234,-2.3572016000000002,0.0008065752050001647,1.5702200299999998,0.7873519700000003,0.039999913399999996,0.03999995,-9.403229818564713,-0.18353967125162818,-0.0637858237858565,0.00031440233632697894,-0.011007800637392581,-0.0008694444145059719
0.5675,0.00034962021650004514,-0.7855116800000003,0.001462305800000347,-2.3572166450000003,0.0008172974825001766,1.5702087749999998,0.7873722780000003,0.039999913,0.0399999502,-9.411422878989038,-0.21390683594535162,-0.08067223638525084,0.00029552096607139147,-0.011066382303808785,-0.0010020155970597746
0.5700000000000001,0.0003524859560000454,-0.7855260200000003,0.0014843393000003487,-2.3572323800000006,0.0008285094800001775,1.5701969999999998,0.7873935120000003,0.039999913,0.039999950799999996,-9.506618818788818,-0.15948729898012348,-0.07006611403408786,0.0009507697880802586,-0.01091849274581192,-0.0015611357910075294
0.5725,0.0003553516955000455,-0.7855403600000003,0.0015063728000003496,-2.3572481150000004,0.0008397214775001778,1.5701852249999997,0.7874147460000003,0.039999913,0.0399999514,-9.601814758588594,-0.10506776201489776,-0.05945999168292534,0.0016060186100890967,-0.010770603187815059,-0.0021202559849552594
0.5750000000000001,0.00035821743500004567,-0.7855547000000003,0.0015284063000003511,-2.3572638500000003,0.0008509334750001787,1.5701734499999997,0.7874359800000004,0.039999913,0.039999952,-9.697010698388373,-0.05064822504966959,-0.048853869331762355,0.002261267432097964,-0.010622713629818191,-0.002679376178903014
0.5775,0.00036108317450004576,-0.7855690400000003,0.001550439800000352,-2.357279585,0.0008621454725001791,1.5701616749999998,0.7874572140000003,0.039999913,0.0399999526,-9.79220663818815,0.0037713119155561303,-0.038247746980599844,0.002916516254106802,-0.010474824071821333,-0.0032384963728507438
0.58,0.0003639489140000459,-0.7855833800000002,0.0015724733000003527,-2.3572953200000004,0.0008733574700001796,1.5701498999999999,0.7874784480000003,0.039999913,0.0399999532,-9.887402577987926,0.05819084888078188,-0.027641624629437332,0.00357176507611564,-0.010326934513824472,-0.003797616566798474
0.5825,0.0003668146535000461,-0.7855977200000002,0.0015945068000003545,-2.3573110550000003,0.0008845694675001805,1.570138125,0.7874996820000003,0.039999913,0.039999953799999995,-9.982598517787705,0.11261038584600999,-0.017035502278274342,0.004227013898124507,-0.010179044955827605,-0.004356736760746228
0.585,0.00036981122700004935,-0.7856128000000002,0.0016175339800003794,-2.35732753,0.0008962868860001931,1.5701258299999998,0.7875218880000003,0.039999913399999996,0.039999954399999996,-9.987696448485599,0.11788890691497332,-0.008457366532614065,0.004371641457478794,-0.009992977200159701,-0.004459312526689152
0.5875,0.0003728732175000496,-0.7856282500000002,0.0016410580000003813,-2.3573443750000003,0.000908257015000194,1.5701132749999998,0.7875445800000004,0.039999914,0.039999955,-9.947745374635815,0.09859692003758527,-0.0008932240896310645,0.004260958385524306,-0.00978782034565765,-0.004333616078646212
0.59,0.00037593520800004973,-0.7856437000000002,0.0016645820200003822,-2.35736122,0.0009202271440001945,1.57010072,0.7875672720000003,0.0399999146,0.0399999556,-9.907794300786032,0.0793049331601981,0.006670918353351598,0.004150275313569822,-0.009582663491155607,-0.004207919630603278
0.5925,0.00037899719850004995,-0.7856591500000002,0.001688106040000384,-2.3573780650000002,0.0009321972730001954,1.5700881649999998,0.7875899640000004,0.0399999152,0.0399999562,-9.867843226936248,0.060012946282810065,0.014235060796334598,0.0040395922416153335,-0.009377506636653557,-0.004082223182560338
0.595,0.00038205918900005006,-0.7856746000000002,0.0017116300600003849,-2.3573949100000005,0.0009441674020001958,1.5700756099999997,0.7876126560000003,0.0399999158,0.0399999568,-9.827892153086465,0.04072095940542288,0.021799203239317264,0.003928909169660849,-0.009172349782151513,-0.003956526734517404
0.5975,0.00038512117950005034,-0.7856900500000003,0.0017351540800003868,-2.357411755,0.0009561375310001969,1.5700630549999999,0.7876353480000003,0.0399999164,0.0399999574,-9.787941079236681,0.021428972528034843,0.029363345682300264,0.0038182260977063604,-0.008967192927649463,-0.0038308302864744634
0.6,0.00038818317000005375,-0.7857055000000002,0.001758678100000413,-2.3574286000000004,0.0009681076600002101,1.5700504999999998,0.7876580400000004,0.039999917,0.039999958,-9.747990005387754,0.002136985650805686,0.036927488125148296,0.003707543025746973,-0.008762036073155474,-0.003705133838417772
0.6025,0.00039144746700005403,-0.7857221125000002,0.001783738120000415,-2.3574465100000004,0.0009808589860002112,1.5700371049999997,0.7876822065000003,0.039999917450000005,0.039999959200000004,-9.75993004862465,-0.007562978873106875,0.03632027705062092,0.003299226375495105,-0.009045691979398552,-0.002744435299765225
0.605,0.00039471176400005415,-0.7857387250000002,0.001808798140000416,-2.3574644200000003,0.0009936103120002115,1.5700237099999999,0.7877063730000003,0.0399999179,0.0399999604,-9.771870091861546,-0.017262943397019,0.03571306597609357,0.0028909097252432557,-0.009329347885641616,-0.001783736761112721
0.6075,0.0003979760610000544,-0.7857553375000003,0.0018338581600004177,-2.3574823300000003,0.0010063616380002127,1.5700103149999998,0.7877305395000004,0.039999918350000004,0.0399999616,-9.783810135098443,-0.02696290792093156,0.03510585490156619,0.002482593074991388,-0.009613003791884693,-0.0008230382224601743
0.61,0.00040124035800005454,-0.7857719500000002,0.0018589181800004186,-2.3575002400000002,0.001019112964000213,1.56999692,0.7877547060000004,0.0399999188,0.0399999628,-9.79575017833534,-0.036662872444843696,0.034498643827038836,0.0020742764247395386,-0.009896659698127759,0.00013766031619233008
0.6125,0.00040450465500005477,-0.7857885625000003,0.0018839782000004207,-2.35751815,0.001031864290000214,1.5699835249999998,0.7877788725000004,0.03999991925,0.039999964,-9.807690221572237,-0.04636283696875625,0.03389143275251146,0.0016659597744876709,-0.010180315604370837,0.0010983588548448765
0.615,0.0004077689520000549,-0.7858051750000002,0.0019090382200004216,-2.35753606,0.0010446156160002144,1.5699701299999997,0.7878030390000004,0.039999919700000004,0.0399999652,-9.819630264809133,-0.05606280149266838,0.03328422167798411,0.0012576431242358214,-0.0104639715106139,0.0020590573934973814
0.6175,0.0004111026675000587,-0.7858221750000003,0.0019346252200004503,-2.35755434,0.001057634970000229,1.569956475,0.7878277090000004,0.03999992025,0.03999996635,-9.825471370210627,-0.06024802183115519,0.047959050716107066,0.0013555474213535821,-0.010561808669157517,0.0026649996067387143
0.62,0.0004145752200000588,-0.7858399500000003,0.0019612661800004513,-2.3575733600000004,0.0010711903800002295,1.5699423,0.7878533860000004,0.039999921,0.039999967399999996,-9.819114599942242,-0.053403753799628376,0.09319795997720769,0.0024658936131336665,-0.010288008332330442,0.002561429169211506
0.6225,0.0004180477725000591,-0.7858577250000003,0.001987907140000453,-2.3575923800000003,0.0010847457900002306,1.5699281249999997,0.7878790630000004,0.03999992175,0.03999996845,-9.812757829673858,-0.04655948576810125,0.1384368692383103,0.0035762398049138,-0.010014207995503356,0.0024578587316842924
0.625,0.0004215203250000592,-0.7858755000000003,0.0020145481000004542,-2.3576114,0.001098301200000231,1.5699139499999997,0.7879047400000004,0.0399999225,0.0399999695,-9.806401059405474,-0.03971521773657444,0.1836757784994109,0.004686585996693884,-0.00974040765867628,0.0023542882941570836
0.6275000000000001,0.0004249928775000595,-0.7858932750000003,0.0020411890600004565,-2.35763042,0.0011118566100002322,1.5698997749999997,0.7879304170000004,0.03999992325,0.03999997055,-9.800044289137091,-0.03287094970504731,0.22891468776051355,0.005796932188474018,-0.009466607321849193,0.0022507178566298705
0.63,0.0004284654300000596,-0.7859110500000003,0.002067830020000457,-2.3576494400000003,0.0011254120200002327,1.5698855999999997,0.7879560940000004,0.039999924,0.0399999716,-9.793687518868706,-0.026026681673520492,0.2741535970216142,0.006907278380254103,-0.009192806985022119,0.0021471474191026617
0.6325000000000001,0.0004319379825000599,-0.7859288250000003,0.0020944709800004594,-2.35766846,0.0011389674300002338,1.5698714249999997,0.7879817710000004,0.03999992475,0.03999997265,-9.787330748600322,-0.01918241364199337,0.31939250628271676,0.008017624572034237,-0.008919006648195033,0.0020435769815754486
0.635,0.00043555331200006373,-0.7859473920000003,0.0021221952800004884,-2.3576881600000004,0.0011530738900002485,1.5698566099999998,0.7880084970000004,0.039999925,0.039999973,-9.84432722336972,0.005101893674931104,0.2786536574290515,0.00783384903505136,-0.008892513792603569,0.0011189317877469528
0.6375000000000001,0.000439240030000064,-0.7859663550000003,0.0021504612500004906,-2.3577082000000003,0.0011674558750002497,1.5698414749999998,0.7880357475000005,0.039999925,0.039999973,-9.933000320655555,0.038106220633878585,0.19492592952133866,0.007003012633737223,-0.008989674677620312,-0.0002162507842003586
0.64,0.00044292674800006413,-0.7859853180000004,0.002178727220000492,-2.35772824,0.00118183786000025,1.5698263399999997,0.7880629980000005,0.039999925,0.039999973,-10.021673417941384,0.07111054759282459,0.1111982016136295,0.006172176232423124,-0.009086835562637051,-0.001551433356147611
0.6425,0.0004466134660000643,-0.7860042810000003,0.0022069931900004927,-2.3577482800000005,0.0011962198450002506,1.5698112049999997,0.7880902485000004,0.039999925,0.039999973,-10.110346515227215,0.1041148745517706,0.027470473705920317,0.005341339831109024,-0.009183996447653789,-0.0028866159280948635
0.645,0.0004503001840000646,-0.7860232440000003,0.002235259160000495,-2.3577683200000004,0.0012106018300002519,1.5697960699999998,0.7881174990000005,0.039999925,0.039999973,-10.19901961251305,0.1371192015107181,-0.05625725420179256,0.004510503429794888,-0.009281157332670532,-0.004221798500042175
0.6475,0.0004539869020000647,-0.7860422070000003,0.0022635251300004962,-2.3577883600000002,0.0012249838150002524,1.5697809349999998,0.7881447495000005,0.039999925,0.039999973,-10.287692709798879,0.1701235284696641,-0.13998498210950172,0.0036796670284807882,-0.00937831821768727,-0.0055569810719894265
0.65,0.0004576736200000689,-0.7860611700000003,0.002291791100000528,-2.3578084000000006,0.0012393658000002684,1.5697657999999999,0.7881720000000005,0.039999925,0.039999973,-10.376365807080926,0.20312785542624373,-0.22371271001572224,0.002848830627168547,-0.009475479102700062,-0.006892163643921881
0.6525,0.000461580220000069,-0.7860813495000003,0.0023217253550005287,-2.3578292350000005,0.001254596245000269,1.5697498699999999,0.7882008525000005,0.03999992575,0.03999997405,-10.250200438706674,0.10182807197591164,-0.22279601792988216,0.002125449301921361,-0.009348579237843877,-0.007384545420691574
0.655,0.0004654868200000693,-0.7861015290000004,0.0023516596100005313,-2.3578500700000005,0.0012698266900002702,1.5697339399999999,0.7882297050000006,0.0399999265,0.0399999751,-10.124035070332416,0.0005282885255750158,-0.22187932584404205,0.001402067976674143,-0.009221679372987688,-0.007876927197461287
0.6575,0.00046939342000006947,-0.7861217085000004,0.002381593865000532,-2.3578709050000004,0.0012850571350002708,1.5697180099999999,0.7882585575000005,0.03999992725,0.03999997615,-9.997869701958164,-0.10077149492475707,-0.220962633758202,0.0006786866514269575,-0.009094779508131503,-0.00836930897423098
0.66,0.00047330002000006975,-0.7861418880000004,0.0024115281200005347,-2.3578917400000003,0.001300287580000272,1.5697020799999999,0.7882874100000006,0.039999928000000004,0.0399999772,-9.871704333583907,-0.2020712783750937,-0.22004594167236188,-4.469467382026051e-05,-0.008967879643275313,-0.008861690751000694
0.6625,0.00047720662000006993,-0.7861620675000004,0.0024414623750005355,-2.3579125750000007,0.0013155180250002726,1.5696861499999997,0.7883162625000005,0.039999928750000004,0.03999997825,-9.745538965209654,-0.30337106182542584,-0.2191292495865218,-0.0007680759990674464,-0.008840979778419128,-0.009354072527770388
0.665,0.0004811132200000702,-0.7861822470000004,0.002471396630000538,-2.3579334100000007,0.0013307484700002738,1.5696702199999997,0.7883451150000006,0.0399999295,0.039999979299999995,-9.619373596835397,-0.40467084527576247,-0.2182125575006817,-0.0014914573243146644,-0.008714079913562938,-0.0098464543045401
0.6675,0.00048509500100007443,-0.7862028435000005,0.00250190110000057,-2.3579546200000006,0.0013462689500002899,1.5696539649999997,0.7883745175000005,0.039999930100000004,0.039999980399999996,-9.554881715154261,-0.4393723965072951,-0.21911279083497168,-0.001722733936235893,-0.008657778354632953,-0.009801657876915502
0.67,0.0004892271440000747,-0.7862242740000004,0.0025335460000005723,-2.3579765800000003,0.0013623695000002914,1.5696370599999998,0.7884050200000006,0.0399999304,0.0399999816,-9.613736806849367,-0.34087748331201356,-0.22364687500922756,-0.0009698011215848979,-0.008742673407543936,-0.008682505040589292
0.6725,0.0004933592870000749,-0.7862457045000004,0.0025651909000005734,-2.3579985400000005,0.0013784700500002918,1.5696201549999997,0.7884355225000006,0.039999930700000005,0.0399999828,-9.672591898544471,-0.24238257011673642,-0.22818095918348322,-0.000216868306933936,-0.008827568460454913,-0.007563352204263132
0.675,0.0004974914300000752,-0.7862671350000004,0.0025968358000005762,-2.3580205000000003,0.001394570600000293,1.5696032499999997,0.7884660250000006,0.039999931,0.039999984,-9.73144699023958,-0.1438876569214549,-0.2327150433577391,0.0005360645077170591,-0.008912463513365896,-0.0064441993679369225
0.6775,0.0005016235730000754,-0.7862885655000004,0.0026284807000005773,-2.3580424600000005,0.0014106711500002937,1.5695863449999996,0.7884965275000005,0.0399999313,0.0399999852,-9.790302081934684,-0.04539274372617774,-0.23724912753199479,0.0012889973223680208,-0.008997358566276873,-0.005325046531610763
0.68,0.0005057557160000757,-0.7863099960000004,0.0026601256000005798,-2.3580644200000003,0.001426771700000295,1.5695694399999998,0.7885270300000006,0.039999931600000004,0.0399999864,-9.84915717362979,0.05310216946910379,-0.24178321170625067,0.0020419301370190163,-0.009082253619187856,-0.0042058936952845535
0.6825,0.0005098878590000759,-0.7863314265000003,0.002691770500000581,-2.3580863800000005,0.0014428722500002956,1.5695525349999997,0.7885575325000005,0.0399999319,0.0399999876,-9.908012265324894,0.15159708266438093,-0.24631729588050635,0.002794862951669978,-0.009167148672098835,-0.0030867408589583933
0.685,0.0005141740460000804,-0.7863536930000004,0.0027245836100006156,-2.3581091100000005,0.0014595669400003133,1.5695350399999997,0.7885891660000006,0.039999932,0.039999988,-9.875720652007855,0.1779603600823964,-0.21991498285470293,0.0032756595834970564,-0.008802487161069131,-0.0026475059239132095
0.6875,0.0005185372550000806,-0.7863763775000004,0.002757980825000617,-2.3581322250000003,0.001476558700000314,1.5695172499999996,0.7886213650000006,0.039999932,0.039999988,-9.797855686188516,0.1682578196147631,-0.17804447123015144,0.003620388123923419,-0.00821304736808771,-0.0025482299394804157
0.6900000000000001,0.000522900464000081,-0.7863990620000004,0.0027913780400006197,-2.3581553400000006,0.0014935504600003154,1.5694994599999996,0.7886535640000006,0.039999932,0.039999988,-9.719990720369173,0.1585552791471294,-0.13617395960559808,0.003965116664349796,-0.007623607575106264,-0.002448953955047618
0.6925,0.0005272636730000812,-0.7864217465000004,0.0028247752550006207,-2.3581784550000005,0.0015105422200003158,1.5694816699999996,0.7886857630000006,0.039999932,0.039999988,-9.642125754549836,0.14885273867949614,-0.09430344798104662,0.004309845204776158,-0.007034167782124843,-0.0023496779706148243
0.6950000000000001,0.0005316268820000815,-0.7864444310000004,0.0028581724700006235,-2.3582015700000003,0.0015275339800003172,1.5694638799999996,0.7887179620000007,0.039999932,0.039999988,-9.564260788730493,0.13915019821186242,-0.05243293635649329,0.004654573745202536,-0.006444727989143396,-0.0022504019861820266
0.6975,0.0005359900910000817,-0.7864671155000005,0.002891569685000625,-2.3582246850000006,0.001544525740000318,1.5694460899999996,0.7887501610000006,0.039999932,0.039999988,-9.486395822911154,0.12944765774422914,-0.0105624247319418,0.004999302285628898,-0.005855288196161975,-0.002151126001749233
0.7000000000000001,0.0005403533000000864,-0.7864898000000005,0.002924966900000661,-2.3582478000000004,0.0015615175000003364,1.5694282999999996,0.7887823600000007,0.039999932,0.039999988,-9.408530857094457,0.11974511727768013,0.031308086892401936,0.005344030826037445,-0.005265848403199393,-0.00205185001732609
0.7025,0.0005449530050000865,-0.7865137850000005,0.0029601572150006624,-2.3582721300000005,0.001579421185000337,1.5694095649999997,0.7888162720000007,0.0399999326,0.039999989050000004,-9.47137546528706,0.16778527297552903,0.06202048327402416,0.004739532397071768,-0.005680723640294623,-0.002466521530147419
0.705,0.0005495527100000867,-0.7865377700000005,0.0029953475300006638,-2.3582964600000005,0.0015973248700003376,1.5693908299999997,0.7888501840000006,0.039999933200000004,0.0399999901,-9.534220073479666,0.21582542867337795,0.09273287965564639,0.004135033968106092,-0.006095598877389853,-0.002881193042968749
0.7075,0.0005541524150000871,-0.7865617550000005,0.0030305378450006665,-2.3583207900000005,0.0016152285550003391,1.5693720949999996,0.7888840960000006,0.0399999338,0.039999991150000004,-9.597064681672276,0.263865584371229,0.12344527603726997,0.003530535539140388,-0.0065104741144851016,-0.003295864555790097
0.71,0.0005587521200000873,-0.7865857400000005,0.003065728160000668,-2.3583451200000005,0.0016331322400003397,1.5693533599999996,0.7889180080000007,0.0399999344,0.0399999922,-9.659909289864881,0.3119057400690779,0.15415767241889222,0.0029260371101747116,-0.006925349351580332,-0.003710536068611427
0.7125,0.0005633518250000876,-0.7866097250000005,0.0031009184750006706,-2.3583694500000005,0.001651035925000341,1.5693346249999995,0.7889519200000007,0.039999935,0.039999993250000004,-9.722753898057489,0.3599458957669289,0.18487006880051582,0.002321538681209008,-0.00734022458867558,-0.004125207581432776
0.715,0.0005679515300000878,-0.7866337100000005,0.003136108790000672,-2.3583937800000006,0.0016689396100003418,1.5693158899999995,0.7889858320000007,0.0399999356,0.0399999943,-9.785598506250095,0.40798605146477784,0.21558246518213803,0.0017170402522433317,-0.007755099825770809,-0.004539879094254105
0.7175,0.0005726318320000927,-0.7866581400000004,0.0031719100900007096,-2.3584185300000007,0.001687154080000361,1.5692968249999995,0.7890203380000007,0.039999936,0.03999999525,-9.835684210547345,0.42153108390822097,0.2210137984426102,0.0011542384777966013,-0.007973263270613741,-0.004726857037211446
0.72,0.0005774733280000929,-0.7866834600000004,0.003208933360000711,-2.3584441200000006,0.0017059901200003618,1.5692770999999994,0.7890560320000007,0.039999936,0.039999996,-9.860252107056079,0.36608586984879293,0.17588300546513644,0.0006748300123806542,-0.007798003130985935,-0.004458447840480006
0.7225,0.0005823148240000933,-0.7867087800000004,0.003245956630000714,-2.3584697100000005,0.0017248261600003633,1.5692573749999996,0.7890917260000007,0.039999936,0.03999999675,-9.884820003564814,0.3106406557893624,0.13075221248766067,0.00019542154696468588,-0.0076227429913581215,-0.0041900386437485546
0.725,0.0005871563200000935,-0.7867341000000004,0.003282979900000715,-2.3584953000000004,0.001743662200000364,1.5692376499999996,0.7891274200000007,0.039999936,0.0399999975,-9.909387900073549,0.2551954417299343,0.0856214195101869,-0.00028398691845126097,-0.007447482851730315,-0.003921629447017115
0.7275,0.0005919978160000939,-0.7867594200000004,0.003320003170000718,-2.3585208900000003,0.0017624982400003652,1.5692179249999996,0.7891631140000007,0.039999936,0.03999999825,-9.933955796582284,0.19975022767050377,0.040490626532711155,-0.0007633953838672293,-0.007272222712102501,-0.0036532202502856633
0.73,0.0005968393120000941,-0.7867847400000004,0.0033570264400007194,-2.3585464800000002,0.001781334280000366,1.5691981999999995,0.7891988080000008,0.039999936,0.039999999,-9.958523693091017,0.14430501361107567,-0.004640166444762617,-0.0012428038492831766,-0.0070969625724746944,-0.003384811053554224
0.7325,0.0006016808080000945,-0.7868100600000004,0.0033940497100007224,-2.35857207,0.0018001703200003674,1.5691784749999995,0.7892345020000007,0.039999936,0.03999999975,-9.983091589599752,0.08885979955164514,-0.04977095942223836,-0.0017222123146991447,-0.00692170243284688,-0.003116401856822773
0.735,0.0006066869420000995,-0.7868362700000004,0.0034323209800007602,-2.3585985300000005,0.0018196408500003867,1.5691580799999996,0.7892713840000007,0.0399999356,0.04,-9.968444601340867,0.07135438460132514,-0.04905502276967445,-0.0011376259252143222,-0.006791645712033109,-0.0031292230784446397
0.7375,0.0006117753950000999,-0.7868629250000005,0.003471216250000763,-2.3586254250000005,0.0018394286250003884,1.5691373499999997,0.7893088600000008,0.039999935,0.04,-9.934190170699894,0.07281886920389241,-0.025415721304104764,-2.1042108325807938e-05,-0.006684190700624366,-0.003282659509230812
0.74,0.0006168638480001001,-0.7868895800000005,0.003510111520000765,-2.3586523200000005,0.001859216400000389,1.5691166199999995,0.7893463360000007,0.0399999344,0.04,-9.899935740058924,0.07428335380645963,-0.0017764198385361307,0.0010955417085626565,-0.0065767356892156275,-0.0034360959400169776
0.7425,0.0006219523010001004,-0.7869162350000005,0.003549006790000768,-2.3586792150000004,0.0018790041750003906,1.5690958899999996,0.7893838120000007,0.0399999338,0.04,-9.86568130941795,0.07574783840902692,0.02186288162703355,0.002212125525451171,-0.0064692806778068835,-0.0035895323708031498
0.745,0.0006270407540001007,-0.7869428900000005,0.0035879020600007696,-2.3587061100000004,0.0018987919500003914,1.5690751599999997,0.7894212880000007,0.039999933200000004,0.04,-9.831426878776979,0.07721232301159413,0.04550218309260219,0.003328709342339636,-0.006361825666398145,-0.003742968801589315
0.7475,0.000632129207000101,-0.7869695450000006,0.0036267973300007725,-2.3587330050000004,0.001918579725000393,1.5690544299999996,0.7894587640000007,0.0399999326,0.04,-9.797172448136006,0.07867680761416142,0.06914148455817189,0.00444529315922815,-0.006254370654989401,-0.0038964052323754873
0.75,0.0006372176600001063,-0.7869962000000006,0.003665692600000812,-2.3587599000000004,0.0019383675000004131,1.5690336999999996,0.7894962400000007,0.039999932,0.04,-9.76291801749465,0.08014129221730859,0.09278078602260584,0.005561876976090788,-0.0061469156435823066,-0.004049841663153156
0.7525000000000001,0.0006425581460001066,-0.7870242200000006,0.003706497910000815,-2.3587881900000003,0.0019591278000004146,1.5690119199999997,0.7895355700000007,0.039999932,0.04,-9.709387429033994,0.11075677730023278,0.05938811934883752,0.0053803248018079435,-0.006122100361618714,-0.003776192141482934
0.755,0.0006478986320001068,-0.7870522400000006,0.0037473032200008166,-2.3588164800000007,0.0019798881000004155,1.5689901399999997,0.7895749000000007,0.039999932,0.04,-9.655856840573337,0.1413722623831556,0.025995452675070668,0.005198772627525107,-0.006097285079655124,-0.003502542619812724
0.7575000000000001,0.0006532391180001073,-0.7870802600000005,0.00378810853000082,-2.3588447700000006,0.002000648400000417,1.5689683599999995,0.7896142300000007,0.039999932,0.04,-9.602326252112679,0.17198774746607978,-0.007397213998697652,0.0050172204532422625,-0.006072469797691531,-0.0032288930981425024
0.76,0.0006585796040001075,-0.7871082800000005,0.0038289138400008213,-2.3588730600000005,0.002021408700000418,1.5689465799999995,0.7896535600000008,0.039999932,0.04,-9.548795663652022,0.2026032325490026,-0.0407898806724645,0.004835668278959426,-0.006047654515727941,-0.0029552435764722924
0.7625000000000001,0.0006639200900001079,-0.7871363000000006,0.0038697191500008245,-2.3589013500000005,0.0020421690000004197,1.5689247999999996,0.7896928900000008,0.039999932,0.04,-9.495265075191366,0.23321871763192678,-0.07418254734623284,0.0046541161046765814,-0.0060228392337643485,-0.0026815940548020707
0.765,0.000669260576000108,-0.7871643200000006,0.003910524460000826,-2.3589296400000004,0.0020629293000004206,1.5689030199999996,0.7897322200000008,0.039999932,0.04,-9.44173448673071,0.2638342027148496,-0.10757521401999967,0.004472563930393745,-0.005998023951800758,-0.002407944533131861
0.7675000000000001,0.0006746867030001137,-0.7871928075000005,0.003951978800000869,-2.3589583450000005,0.0020840205250004422,1.5688809049999994,0.7897721760000008,0.0399999319,0.0399999995,-9.432818678868749,0.2800441602893253,-0.11783323016743838,0.0042794391741172045,-0.006015037375678306,-0.0023427203620637305
0.77,0.0006802841120001139,-0.7872222300000006,0.00399473120000087,-2.3589878800000004,0.002105773600000443,1.5688581199999996,0.7898133840000008,0.039999931600000004,0.039999998,-9.513132432196029,0.2674430628495357,-0.08182194526644505,0.004063169253855397,-0.00611570821123049,-0.002694346892161698
0.7725,0.0006858815210001141,-0.7872516525000006,0.004037483600000872,-2.3590174150000007,0.002127526675000444,1.5688353349999995,0.7898545920000009,0.0399999313,0.0399999965,-9.59344618552331,0.2548419654097461,-0.04581066036545173,0.0038468993335935894,-0.0062163790467826725,-0.0030459734222596656
0.775,0.0006914789300001145,-0.7872810750000006,0.004080236000000875,-2.3590469500000006,0.0021492797500004455,1.5688125499999994,0.7898958000000008,0.039999931,0.039999994999999997,-9.673759938850596,0.24224086796995592,-0.009799375464456805,0.0036306294133317723,-0.006317049882334861,-0.0033975999523576488
0.7775,0.0006970763390001147,-0.7873104975000006,0.004122988400000876,-2.3590764850000006,0.0021710328250004463,1.5687897649999996,0.7899370080000009,0.039999930700000005,0.0399999935,-9.754073692177876,0.22963977053016632,0.026211909436536507,0.0034143594930699647,-0.006417720717887045,-0.003749226482455616
0.78,0.0007026737480001152,-0.7873399200000006,0.00416574080000088,-2.3591060200000005,0.002192785900000448,1.5687669799999995,0.7899782160000008,0.0399999304,0.039999992,-9.834387445505161,0.21703867309037617,0.06222319433753143,0.0031980895728081476,-0.006518391553439233,-0.0041008530125535994
0.7825,0.0007082711570001154,-0.7873693425000007,0.004208493200000881,-2.359135555000001,0.0022145389750004487,1.5687441949999996,0.7900194240000009,0.039999930100000004,0.0399999905,-9.914701198832441,0.20443757565058657,0.09823447923852477,0.00298181965254634,-0.0066190623889914165,-0.0044524795426515665
0.785,0.0007140431190001213,-0.7873996950000006,0.004252567900000926,-2.3591659000000007,0.002236963260000471,1.5687207199999995,0.7900619040000009,0.03999993,0.039999991,-9.897961668903719,0.2122831598875744,0.08535705147805708,0.002738605844206106,-0.006550032356741754,-0.004699385296407748
0.7875,0.0007199023575001215,-0.7874305125000006,0.004297303750000927,-2.359196650000001,0.002259723150000472,1.5686968999999995,0.7901050200000009,0.03999993,0.0399999925,-9.832695497351505,0.2303520849620004,0.048035267389131275,0.0024819200918279266,-0.006396151890599059,-0.004893930661997885
0.79,0.000725761596000122,-0.7874613300000006,0.0043420396000009315,-2.3592274000000004,0.002282483040000474,1.5686730799999995,0.7901481360000009,0.03999993,0.039999994,-9.767429325799286,0.24842101003642725,0.010713483300203816,0.002225234339449736,-0.006242271424456356,-0.00508847602758803
0.7925,0.0007316208345001222,-0.7874921475000006,0.004386775450000933,-2.3592581500000005,0.0023052429300004745,1.5686492599999995,0.790191252000001,0.03999993,0.0399999955,-9.702163154247073,0.2664899351108533,-0.026608300788722006,0.001968548587071557,-0.006088390958313661,-0.005283021393178167
0.795,0.0007374800730001227,-0.7875229650000006,0.004431511300000936,-2.3592889000000006,0.0023280028200004764,1.5686254399999995,0.7902343680000009,0.03999993,0.039999997,-9.636896982694854,0.2845588601852801,-0.06393008487764945,0.0017118628346933665,-0.005934510492170958,-0.005477566758768313
0.7975,0.0007433393115001229,-0.7875537825000006,0.004476247150000938,-2.3593196500000007,0.0023507627100004774,1.5686016199999995,0.790277484000001,0.03999993,0.0399999985,-9.57163081114264,0.30262778525970613,-0.10125186896657526,0.0014551770823151874,-0.005780630026028263,-0.00567211212435845
0.8,0.000749198550000129,-0.7875846000000006,0.004520983000000985,-2.3593504000000007,0.002373522600000501,1.5685777999999995,0.790320600000001,0.03999993,0.04,-9.50636463959313,0.3206967103326021,-0.13857365305395533,0.0011984913299443781,-0.0056267495598958245,-0.005866657489926992
0.8025,0.0007553242725001292,-0.7876168350000007,0.004567738090000986,-2.3593824850000007,0.0023973101100005015,1.5685528999999994,0.790365666000001,0.03999992925,0.03999999925,-9.569753032484448,0.26604307932850296,-0.10238490407646691,0.0012924618039338266,-0.005960489988810857,-0.005034930342353808
0.805,0.0007614499950001297,-0.7876490700000006,0.00461449318000099,-2.3594145700000007,0.0024210976200005037,1.5685279999999995,0.790410732000001,0.039999928500000004,0.0399999985,-9.633141425375769,0.21138944832440137,-0.06619615509897689,0.001386432277923279,-0.006294230417725904,-0.004203203194780587
0.8075,0.0007675757175001299,-0.7876813050000007,0.004661248270000991,-2.3594466550000006,0.0024448851300005042,1.5685030999999994,0.790455798000001,0.039999927750000004,0.03999999775,-9.696529818267084,0.15673581732030223,-0.03000740612148846,0.0014804027519127274,-0.006627970846640935,-0.003371476047207402
0.81,0.0007737014400001303,-0.7877135400000007,0.004708003360000995,-2.3594787400000006,0.0024686726400005065,1.5684781999999995,0.790500864000001,0.039999927,0.039999997,-9.759918211158405,0.10208218631620064,0.006181342856001554,0.0015743732259021798,-0.006961711275555982,-0.0025397488996341806
0.8125,0.0007798271625001305,-0.7877457750000006,0.004754758450000997,-2.359510825000001,0.002492460150000507,1.5684532999999994,0.790545930000001,0.03999992625,0.03999999625,-9.823306604049723,0.047428555312101495,0.04237009183349,0.001668343699891628,-0.007295451704471014,-0.0017080217520609965
0.8150000000000001,0.000785952885000131,-0.7877780100000007,0.004801513540001001,-2.359542910000001,0.002516247660000509,1.5684283999999995,0.7905909960000009,0.0399999255,0.0399999955,-9.886694996941042,-0.007225075692000094,0.07855884081098002,0.0017623141738810806,-0.007629192133386061,-0.0008762946044877746
0.8175,0.000792168975000137,-0.7878107250000007,0.004848953170001046,-2.359575445000001,0.002540382740000532,1.5684031349999994,0.790636718000001,0.03999992475,0.03999999525,-9.929681267521763,-0.041444150471953434,0.09456188944935906,0.002018803517580903,-0.007595177257577388,-0.0006115313514946778
0.8200000000000001,0.0007985658000001375,-0.7878444000000007,0.00489776188000105,-2.359608880000001,0.0025652129600005342,1.5683771399999995,0.7906837520000011,0.039999924,0.039999996,-9.931863293485222,-0.034794112807554164,0.07019353741340967,0.0026003306006701695,-0.006825651772392166,-0.0014806958875524972
0.8225,0.0008049626250001378,-0.7878780750000007,0.0049465705900010514,-2.3596423150000008,0.002590043180000535,1.5683511449999994,0.790730786000001,0.03999992325,0.03999999675,-9.93404531944868,-0.028144075143155197,0.04582518537746137,0.00318185768375941,-0.006056126287206979,-0.0023498604236102784
0.8250000000000001,0.0008113594500001383,-0.7879117500000007,0.0049953793000010556,-2.359675750000001,0.0026148734000005372,1.5683251499999995,0.7907778200000011,0.0399999225,0.0399999975,-9.936227345412139,-0.02149403747875593,0.02145683334151198,0.0037633847668486764,-0.005286600802021757,-0.0032190249596680976
0.8275,0.0008177562750001385,-0.7879454250000006,0.005044188010001057,-2.3597091850000007,0.002639703620000538,1.5682991549999996,0.790824854000001,0.03999992175,0.03999999825,-9.938409371375597,-0.01484399981435696,-0.0029115186944363297,0.004344911849937917,-0.00451707531683657,-0.004088189495725879
0.8300000000000001,0.0008241531000001391,-0.7879791000000007,0.005092996720001061,-2.359742620000001,0.00266453384000054,1.5682731599999995,0.7908718880000011,0.039999921,0.039999999,-9.940591397339055,-0.008193962149957691,-0.027279870730385708,0.004926438933027183,-0.0037475498316513487,-0.004957354031783699
0.8325,0.0008305499250001393,-0.7880127750000007,0.005141805430001063,-2.3597760550000006,0.0026893640600005406,1.5682471649999996,0.790918922000001,0.03999992025,0.03999999975,-9.942773423302514,-0.0015439244855587272,-0.05164822276633402,0.005507966016116425,-0.0029780243464661614,-0.005826518567841479
0.835,0.0008371304450001456,-0.7880474500000008,0.00519200550000111,-2.3598104800000006,0.0027149028400005647,1.5682204299999996,0.7909673100000011,0.03999992,0.04,-9.901576439276884,-0.00922533304012906,-0.07924712899337401,0.005443786952172857,-0.0027636816835623994,-0.006198949268813827
0.8375,0.0008438028125001461,-0.7880826250000007,0.005242901250001114,-2.3598454000000006,0.002740795900000567,1.5681933249999995,0.7910163750000011,0.03999992,0.04,-9.838689950258832,-0.024072464703482083,-0.10846131231580275,0.005056754814744526,-0.0028269304317721346,-0.0063230130522678165
0.84,0.0008504751800001464,-0.7881178000000008,0.005293797000001116,-2.3598803200000007,0.002766688960000568,1.5681662199999995,0.7910654400000011,0.03999992,0.04,-9.775803461240782,-0.038919596366834446,-0.1376754956382302,0.004669722677316213,-0.002890179179981867,-0.0064470768357218
0.8425,0.0008571475475001469,-0.7881529750000007,0.00534469275000112,-2.3599152400000007,0.00279258202000057,1.5681391149999995,0.791114505000001,0.03999992,0.04,-9.71291697222273,-0.05376672803018747,-0.16688967896065895,0.004282690539887881,-0.002953427928191602,-0.00657114061917579
0.845,0.0008638199150001471,-0.7881881500000008,0.005395588500001122,-2.359950160000001,0.002818475080000571,1.5681120099999994,0.791163570000001,0.03999992,0.04,-9.650030483204683,-0.06861385969353984,-0.1961038622830864,0.003895658402459568,-0.0030166766764013345,-0.006695204402629775
0.8475,0.0008704922825001477,-0.7882233250000007,0.005446484250001125,-2.359985080000001,0.0028443681400005727,1.5680849049999994,0.791212635000001,0.03999992,0.04,-9.587143994186631,-0.08346099135689286,-0.22531804560551513,0.003508626265031237,-0.0030799254246110692,-0.006819268186083765
0.85,0.0008771646500001541,-0.7882585000000008,0.005497380000001174,-2.360020000000001,0.0028702612000005975,1.5680577999999994,0.7912617000000011,0.03999992,0.04,-9.524257505170661,-0.09830812301935217,-0.2545322289266455,0.0031215941275956616,-0.003143174172816708,-0.006943331969540917
0.8525,0.0008841168635001546,-0.7882951450000008,0.005550395355001179,-2.360056300000001,0.0028972305700006,1.5680295549999994,0.7913127825000011,0.03999991955,0.04,-9.55523822948633,-0.07285544235555409,-0.22521364521065343,0.002406857305202869,-0.003021684496967393,-0.007210350650416558
0.855,0.0008910690770001549,-0.7883317900000008,0.005603410710001181,-2.3600926000000007,0.0029241999400006005,1.5680013099999994,0.7913638650000011,0.0399999191,0.04,-9.586218953801998,-0.047402761691757146,-0.19589506149466265,0.0016921204828101088,-0.0029001948211180837,-0.0074773693312921875
0.8575,0.0008980212905001554,-0.7883684350000008,0.005656426065001185,-2.3601289000000008,0.002951169310000603,1.5679730649999994,0.7914149475000011,0.03999991865,0.04,-9.617199678117666,-0.021950081027959076,-0.16657647777867057,0.0009773836604173168,-0.002778705145268769,-0.00774438801216783
0.86,0.0009049735040001557,-0.7884050800000008,0.0057094414200011875,-2.360165200000001,0.002978138680000604,1.5679448199999995,0.7914660300000012,0.039999918200000005,0.04,-9.648180402433333,0.0035025996358378775,-0.1372578940626798,0.00026264683802455606,-0.00265721546941946,-0.008011406693043458
0.8625,0.0009119257175001562,-0.7884417250000008,0.005762456775001192,-2.360201500000001,0.003005108050000606,1.5679165749999995,0.7915171125000011,0.03999991775,0.04,-9.679161126749001,0.028955280299635955,-0.10793931034668772,-0.00045208998436823593,-0.002535725793570145,-0.008278425373919101
0.865,0.0009188779310001564,-0.7884783700000008,0.005815472130001193,-2.360237800000001,0.003032077420000607,1.5678883299999995,0.7915681950000011,0.0399999173,0.04,-9.710141851064668,0.054407960963432894,-0.07862072663069694,-0.0011668268067609963,-0.002414236117720836,-0.00854544405479473
0.8675,0.0009259248360001635,-0.7885155320000008,0.005869204565001247,-2.3602746100000007,0.003059411880000634,1.5678596949999994,0.7916199675000012,0.0399999168,0.04,-9.741345485535351,0.07499937124487466,-0.045005452509484456,-0.0015555170751097706,-0.0024663828382734264,-0.008542054836786843
