rsonawane2002/My_IMU/logs_2/traj_2003/imu_2003.csv
time,j1,j2,j3,j4,j5,j6,j7,gripper1,gripper2,imu_ax,imu_ay,imu_az,imu_gx,imu_gy,imu_gz
34.183333333332676,0.00016700293,-0.785875,4.0107683e-05,-2.3551247,9.29385e-05,1.570997,0.786,0.04,0.04,-9.572045233763767,0.1628663506597788,0.22034456364075972,-0.00030360114251542987,-0.0030725027904068983,-0.0007093853585545492
34.19999999999934,0.00016700622,-0.78576016,4.0121522e-05,-2.3552213,9.2977534e-05,1.5709941,0.786,0.04,0.04,-9.87563801941783,0.23444652947047578,-0.09671331955235044,-0.00022778761734805329,-0.003108263413742751,-0.0015102307374250932
34.21666666666601,0.00016701313,-0.7856543,4.0182604e-05,-2.35531,9.3038005e-05,1.5709913,0.786,0.04,0.04,-9.980956166845369,-0.02719885450680801,-0.07630788874454146,-0.0004825519529230994,0.00473449959889285,0.0030474522728004354
34.23333333333267,0.00016703176,-0.78555703,4.0369694e-05,-2.355391,9.315996e-05,1.5709884,0.786,0.04,0.04,-10.089864887372162,-0.07567086456491866,0.08159902989031037,-0.004492894228970906,-0.006365996754409945,-0.0018922348062279505
34.24999999999934,0.00016707528,-0.7854676,4.07959e-05,-2.3554652,9.3403e-05,1.5709856,0.786,0.04,0.04,-9.768431721098128,0.011271521579132112,-0.15299629372627377,-0.0035944749489739075,-0.00674084181399542,0.0008561040479339499
34.266666666666005,0.00016716115,-0.78538567,4.160504e-05,-2.3555326,9.3850285e-05,1.5709827,0.786,0.04,0.039999995,-9.905628959731912,-0.006586146387028666,-0.15545386944665027,0.00023698477614867252,-0.009539092549542716,-0.0012421476417158463
34.28333333333267,0.00016731108,-0.78531075,4.2969095e-05,-2.3555977,9.457836e-05,1.5709798,0.7860019,0.04,0.039999995,-9.642685307568795,-0.23705061071517072,-0.05396285366541174,0.004295520832969616,-0.01011921050010553,-0.00028128454787370303
34.299999999999336,0.00016754995,-0.7852424,4.508437e-05,-2.3556564,9.568756e-05,1.570977,0.7860038,0.04,0.039999995,-9.80817081412477,0.1681892746011682,-0.24697591605617375,-0.0025068482368207543,-0.009259153508910989,0.0007427437528329518
34.316666666666,0.0001679061,-0.78518033,4.8169717e-05,-2.3557127,9.728054e-05,1.570974,0.78600764,0.04,0.04,-9.427274898692588,0.042413925451938256,0.4609359005362551,1.5663871111076558e-05,-0.006961158526829175,0.0013465679934333992
34.33333333333267,0.00016841028,-0.7851243,5.2463394e-05,-2.3557634,9.948436e-05,1.570971,0.78601146,0.04,0.04,-10.073749890191582,-0.11123595425140272,-0.14263214693609022,-0.004172043077743781,-0.008228102630986113,0.00021082772502592842
34.34999999999933,0.00016909599,-0.78507394,5.82212e-05,-2.3558135,0.00010243864,1.5709678,0.7860172,0.04,0.04,-9.51993175235999,-0.1447349620099139,0.15040749696034972,0.002215019643191534,-0.007462130729303229,-0.0005538425135113775
34.366666666666,0.00016999882,-0.7850292,6.5714354e-05,-2.3558598,0.00010628606,1.5709622,0.7860248,0.04,0.039999995,-9.723588685421948,0.24036386421309422,0.267101755605841,-0.001184444915840355,-0.004203423395575134,-0.0029543812083919333
34.383333333332665,0.0001711565,-0.7849898,7.522778e-05,-2.3559031,0.000111152876,1.5709555,0.78603435,0.04,0.04,-9.609865979280695,-0.31385678291460944,0.09927497294280613,-0.002010859565927896,-0.00568019304700483,-0.006063932769043199
34.39999999999933,0.00017260805,-0.7849558,8.7057866e-05,-2.355946,0.000117190415,1.5709487,0.7860458,0.04,0.04,-9.777884323068776,-0.1687093279303505,-0.03918777566577901,0.0007704336916618017,-0.007985688862321882,-0.00035576778795626095
34.416666666665996,0.00017439395,-0.78492695,0.00010151124,-2.3559885,0.00012457285,1.570941,0.7860595,0.039999995,0.039999995,-9.71167286110758,0.25107089952045125,-0.3421783481499449,0.0013368884128329881,-0.01001430309075821,-0.0013864744971426406
34.43333333333266,0.00017655629,-0.7849032,0.0001189035,-2.356031,0.00013344001,1.5709305,0.7860765,0.03999999,0.04,-10.016643848685396,0.30350389885065554,-0.15162973885670547,-0.0013801270400544217,-0.012294141678767143,0.0006804898198190583
34.44999999999933,0.0001791377,-0.7848847,0.00013955728,-2.356073,0.00014396763,1.5709195,0.7860964,0.039999984,0.03999999,-9.977958513757647,-0.13086059947035267,-0.08577132240619548,-0.00198181705122858,-0.006682397989768844,-0.0018728437132077033
34.46666666666599,0.000182182,-0.7848712,0.0001638016,-2.3561153,0.00015632185,1.5709052,0.78611976,0.039999977,0.039999988,-10.01927354934198,-0.28631886378746796,-0.2114618143430047,-0.0018467619758664891,-0.013715864396327698,0.0010229645684668364
34.48333333333266,0.00018573352,-0.784863,0.00019197,-2.3561578,0.00017067372,1.5708902,0.786147,0.039999973,0.039999984,-9.927641858056557,-0.16647442052830613,0.13686528656211283,-0.0011342764219594871,-0.01478154041297251,-0.002407459494110189
34.499999999999325,0.00018983723,-0.7848597,0.00022440041,-2.3562007,0.00018719427,1.570872,0.78617835,0.03999997,0.03999998,-9.533357793361244,-0.2763764919042628,0.15433100558976376,0.0029231002667849796,-0.008912282190668377,-0.0020118236184409515
34.51666666666599,0.00019453862,-0.784862,0.0002614338,-2.356244,0.000206057,1.570852,0.78621393,0.039999966,0.039999977,-9.703604988080553,0.22193968220418103,-0.024417661952354546,-0.00203138518604195,-0.004656261653806062,-0.003808271988797528
34.533333333332656,0.00019988332,-0.7848696,0.00030341308,-2.3562903,0.00022743565,1.5708296,0.78625447,0.039999958,0.039999973,-9.877608805400586,0.043618567119544926,-0.16578605337476265,0.0024568940339348344,-0.010825859959506776,-3.992338474422466e-06
34.54999999999932,0.00020591724,-0.78488266,0.00035068256,-2.35634,0.00025150643,1.5708038,0.7863,0.039999954,0.03999997,-9.719345297703029,0.3079452711263906,-0.05337702481418196,-0.0033898086619416844,-0.014512523175565412,0.0028606048882636238
34.56666666666599,0.00021268641,-0.7849013,0.000403587,-2.3563905,0.00027844432,1.5707747,0.7863511,0.039999947,0.03999996,-10.05979705622867,0.01689172175376945,0.4137706590916305,0.0027952750064944775,-0.011555673274543167,-0.0007348614076029365
34.583333333332654,0.00022023669,-0.7849256,0.0004624715,-2.3564441,0.00030842426,1.5707432,0.786408,0.039999936,0.039999954,-10.174312757996793,-0.023802716967767548,-0.13518301863267532,-0.0037707190218862516,-0.008274441128920893,-0.0006077277238058349
34.59999999999932,0.00022861394,-0.78495556,0.00052768015,-2.3565023,0.00034162187,1.5707085,0.7864709,0.039999925,0.039999943,-9.53238941358527,0.1452875561913363,0.001514035035977801,0.001260904686248812,-0.007068318317105634,-0.000536848877014756
34.616666666665985,0.00023786402,-0.7849913,0.00059955585,-2.3565612,0.0003782113,1.5706701,0.7865402,0.039999917,0.039999936,-9.905703656372932,0.3461520929634712,-0.006930632075681077,0.004330240396129651,-0.011211710454216229,-0.0017108868156228679
34.63333333333265,0.0002480323,-0.7850332,0.00067843974,-2.3566267,0.00041836532,1.5706279,0.7866163,0.039999917,0.03999994,-9.955696770336683,0.45496176358645757,0.3111437728709673,0.004288513986470704,-0.008916545718307587,-0.0030483029061138932
34.64999999999932,0.00025916393,-0.7850811,0.00076467125,-2.356694,0.00046225727,1.5705819,0.7866995,0.039999913,0.03999994,-9.388295289391374,0.04760502277892672,0.08417450093701002,0.00035254559090407015,-0.007180112986069202,-0.00353587601479748
34.66666666666598,0.00027130375,-0.7851353,0.0008585863,-2.3567674,0.000510058,1.5705317,0.7867901,0.03999991,0.039999936,-9.944245342513758,0.11551590531587125,-0.05255587491562887,0.0016244021622379718,-0.009960814436111711,0.0014391168687293223
34.68333333333265,0.00028449632,-0.78519607,0.00096051843,-2.356847,0.0005619372,1.5704772,0.7868884,0.03999991,0.039999936,-9.899628690569442,-0.28570138204111023,-0.06223846182283936,0.0015234887093197981,-0.012699142290034332,0.0038911902002361338
34.699999999999314,0.00029878548,-0.78526336,0.0010707977,-2.3569288,0.00061806175,1.5704184,0.7869949,0.039999913,0.039999943,-10.005662941243315,0.13453400910156033,-0.11843049381683651,-0.00023747437740801467,-0.011734822603300653,-0.0003586896693777927
34.71666666666598,0.00031421488,-0.7853375,0.0011897506,-2.3570175,0.0006785982,1.5703546,0.78710955,0.039999917,0.03999995,-9.978203948755267,0.16859757574124568,-0.12458286146673139,-0.004376635545962762,-0.009058440469857801,-0.007602112318985041
34.733333333332645,0.00033082723,-0.7854186,0.001317699,-2.3571134,0.0007437107,1.570286,0.7872329,0.039999917,0.03999995,-9.615080094164131,0.25302342190669946,0.12001025666849496,0.0024500811348025075,-0.010036896965609835,-0.001353664353456898
34.74999999999931,0.00034866497,-0.7855069,0.0014549613,-2.3572114,0.00081356015,1.5702127,0.7873652,0.039999913,0.03999995,-9.379690899054282,-0.23204668160128325,-0.0842076105024719,7.710469205813474e-05,-0.011115678823143465,-0.0008156421990684849
34.76666666666598,0.0003677699,-0.7856025,0.0016018513,-2.3573163,0.0008883068,1.5701342,0.78750676,0.039999913,0.039999954,-10.014330497719431,0.13075023150020884,-0.013500128161391078,0.004445430172116984,-0.01012974843649773,-0.004543110158719884
34.78333333333264,0.00038818317,-0.7857055,0.0017586781,-2.3574286,0.00096810766,1.5700505,0.78765804,0.039999917,0.039999958,-9.747990005387555,0.002136985650965508,0.03692748812515834,0.003707543025753772,-0.008762036073150802,-0.0037051338384336946
34.79999999999931,0.00040994515,-0.78581625,0.0019257449,-2.357548,0.0010531165,1.5699612,0.78781915,0.03999992,0.039999966,-9.827590293633527,-0.06252944450844648,0.03287941429497614,0.0009854320240748767,-0.010653075448104583,0.0026995230859162738
34.816666666665974,0.0004330955,-0.78593475,0.0021033513,-2.3576748,0.0011434859,1.5698667,0.78799033,0.039999925,0.039999973,-9.785211825177637,-0.01690099096493593,0.33447214270230285,0.008387739969275117,-0.008827739869257488,0.0020090535024015286
34.83333333333264,0.00045767362,-0.78606117,0.0022917911,-2.3578084,0.0012393658,1.5697658,0.788172,0.039999925,0.039999973,-10.37636580708315,0.20312785542802975,-0.2237127100157384,0.0028488306271813976,-0.009475479102702357,-0.006892163643913287
34.849999999999305,0.00048371762,-0.7861957,0.0024913528,-2.3579473,0.0013409021,1.5696596,0.78836435,0.03999993,0.03999998,-9.535263351254834,-0.47220403424082713,-0.21760142944347152,-0.0019737115411331677,-0.008629480003661162,-0.010174708822377794
34.86666666666597,0.00051126524,-0.78633857,0.0027023188,-2.3580937,0.0014482391,1.5695469,0.7885677,0.039999932,0.039999988,-9.927630629222179,0.1844287203943306,-0.24782865727184164,0.003045840556539875,-0.009195447023067698,-0.0027136899135369653
34.88333333333264,0.0005403533,-0.7864898,0.0029249669,-2.3582478,0.0015615175,1.5694283,0.78878236,0.039999932,0.039999988,-9.408530857093277,0.1197451172767777,0.03130808689182507,0.005344030826048808,-0.00526584840319167,-0.002051850017318371
34.8999999999993,0.000571018,-0.7866497,0.003159569,-2.35841,0.0016808754,1.5693034,0.78900844,0.039999936,0.039999995,-9.82749491171063,0.4400128219290924,0.23605739610263266,0.0013140412996111147,-0.008031683317159732,-0.004816326769460429
34.91666666666597,0.00060329464,-0.7868185,0.0034063908,-2.3585806,0.001806449,1.5691719,0.7892464,0.039999936,0.04,-9.991280888435515,0.0703780615329184,-0.06481455708051512,-0.0018820151364951233,-0.006863282386307781,-0.003026932124584245
34.933333333332634,0.00063721766,-0.7869962,0.0036656926,-2.3587599,0.0019383675,1.5690337,0.78949624,0.039999932,0.04,-9.762918017495716,0.08014129221669958,0.09278078602327026,0.005561876976094485,-0.006146915643582847,-0.004049841663158608
34.9499999999993,0.0006728209,-0.787183,0.003937728,-2.3589485,0.0020767695,1.5688885,0.78975844,0.039999932,0.04,-9.406047427758025,0.28424452610284445,-0.12983699180183422,0.00435152914754229,-0.00598148043049223,-0.0022255115186906043
34.966666666665965,0.00071013696,-0.78737915,0.004222744,-2.3591454,0.00222179,1.5687366,0.79003316,0.03999993,0.03999999,-9.941472449939878,0.20023720983758345,0.1102382408714461,0.0029097296791302614,-0.006652619334173477,-0.004569688386010317
34.98333333333263,0.00074919855,-0.7875846,0.004520983,-2.3593504,0.0023735226,1.5685778,0.7903206,0.03999993,0.04,-9.506364639591796,0.32069671033375263,-0.13857365305471717,0.0011984913299424135,-0.005626749559888815,-0.005866657489944546
34.9999999999993,0.0007900367,-0.7877995,0.0048326836,-2.3595643,0.002532106,1.5684118,0.79062104,0.039999925,0.039999995,-9.928953925533895,-0.04366082969356222,0.10268467346186383,0.0018249611565387257,-0.00785168575265562,-0.00032180983945684973
35.01666666666596,0.0008326822,-0.788024,0.005158075,-2.3597872,0.0026976408,1.5682385,0.7909346,0.03999992,0.04,-9.943500765290286,0.0006727547357627262,-0.0597710067777858,0.005701808377133501,-0.0027215158514212225,-0.006116240079841855
35.03333333333263,0.00087716465,-0.7882585,0.00549738,-2.36002,0.0028702612,1.5680578,0.7912617,0.03999992,0.04,-9.524257505169977,-0.09830812301991626,-0.2545322289272952,0.003121594127611532,-0.003143174172819435,-0.006943331969535017
35.049999999999294,0.00092351274,-0.7885028,0.0058508157,-2.360262,0.003050057,1.5678695,0.79160225,0.039999917,0.04,-9.730795667274414,0.07137641473872411,-0.05907500415403037,-0.0016433180216734178,-0.0023332430004907173,-0.008723456508705854
35.06666666666596,0.00097175466,-0.78875744,0.006218593,-2.3605142,0.0032371546,1.5676734,0.7919566,0.039999913,0.04,-9.941792032478872,0.1438355448568256,0.22231602871781989,0.00011270090948022754,-0.004996039755964869,-0.005095423070572589
35.083333333332625,0.0010219173,-0.78902245,0.0066009187,-2.3607752,0.0034316482,1.5674698,0.7923249,0.03999991,0.04,-9.918480370885494,-0.09460890267692948,0.41874470853363355,0.0008102019243128261,-0.008064348719251503,-0.006019690109687885
35.09999999999929,0.0010740277,-0.7892976,0.0069979923,-2.3610466,0.003633642,1.5672582,0.7927076,0.039999906,0.04,-9.644604784761349,-0.06352762081035554,0.0560586582179691,0.0038597830206075485,0.0012339834413845163,-0.00934931996658444
35.11666666666596,0.0011281115,-0.7895834,0.0074100057,-2.3613281,0.00384323,1.5670389,0.7931047,0.039999906,0.04,-9.902531101503829,-0.1633687477070948,-0.47294528814959047,0.00875559144939938,-0.00046430697787270143,-0.006947555242271068
35.13333333333262,0.0011841925,-0.78987974,0.007837146,-2.3616202,0.0040605357,1.5668117,0.7935163,0.039999902,0.03999999,-9.765720909177567,0.3425913578538268,0.12845518865381075,0.003348911693167449,-0.004619789897857561,-0.001979961327160305
35.14999999999929,0.0012422954,-0.79018676,0.008279589,-2.361922,0.0042856084,1.5665764,0.79394263,0.0399999,0.04,-9.56072982858084,0.1808957983648794,-0.2734254338875431,0.004364904524072063,-0.005038552568645662,-0.0029229872407138062
35.166666666665954,0.0013024436,-0.7905047,0.008737519,-2.3622344,0.0045185406,1.5663325,0.7943839,0.039999895,0.04,-10.294977949005787,0.021365838204120628,0.26212122208276745,0.005871942054895905,-0.0027310561860468263,-0.009131247227208952
35.18333333333262,0.0013646586,-0.7908337,0.0092111,-2.3625576,0.00475945,1.5660803,0.7948403,0.039999895,0.04,-9.281612389323843,-0.24784524211229783,-0.14374916049255188,0.006805979489917938,0.0006178387490730684,-0.006016774975466287
35.199999999999285,0.0014289623,-0.7911738,0.009700492,-2.3628917,0.0050084074,1.56582,0.79531187,0.039999895,0.04,-9.952912831852014,0.3960984110319642,-0.29921279721801897,0.0021751052445251255,-0.0024283181816344085,-0.003788905418218101
35.21666666666595,0.0014953754,-0.79152495,0.010205856,-2.3632367,0.005265486,1.565551,0.7957989,0.039999895,0.04,-9.509902121780645,0.15385827619777617,-0.17714856440191395,0.0037208935480641976,-0.001454024872894151,-0.006470701980286316
35.23333333333262,0.001563917,-0.79188746,0.010727334,-2.3635921,0.005530763,1.5652735,0.7963014,0.03999989,0.04,-9.953829557786667,0.2420877717536349,0.17096382726155054,0.004910260205238063,-0.00119726077315962,-0.008868895897921327
35.24999999999928,0.0016346074,-0.7922614,0.011265073,-2.3639588,0.005804317,1.5649873,0.7968197,0.03999989,0.04,-9.666599197003892,-0.029704466965935906,0.07439544591865607,0.00018498817163145847,-0.002072462909851413,-0.006315136664205625
35.26666666666595,0.0017074639,-0.7926468,0.011819211,-2.3643367,0.00608621,1.5646924,0.7973537,0.039999887,0.04,-9.746007596169916,0.29180178947508806,-0.00515595343939293,0.003224354847424637,0.003068565364363568,-0.004257354857085179
35.283333333332614,0.001782504,-0.7930437,0.012389881,-2.364726,0.006376507,1.5643886,0.7979036,0.039999884,0.04,-9.931850656896437,-0.05174714385063916,-0.13822081376466663,0.0060733571339563475,-0.0034554552171381634,-0.005408355197441056
35.29999999999928,0.0018597454,-0.7934523,0.012977212,-2.3651261,0.0066752615,1.5640761,0.7984695,0.03999988,0.04,-10.006623594954924,0.09048201738982208,-0.28968038556281595,0.0019711190875242993,0.003426319155507918,-0.0080832702542674
35.316666666665945,0.001939203,-0.7938726,0.01358132,-2.3655381,0.006982549,1.5637546,0.7990516,0.039999876,0.04,-9.889578392177727,0.009544603610390733,-0.08311283736619879,0.006347283533612641,0.0017794357349697032,-0.005931561632087801
35.33333333333261,0.002020892,-0.7943047,0.014202316,-2.365961,0.0072984328,1.5634241,0.79964995,0.03999987,0.039999995,-9.551783124771001,-0.2305892676663202,-0.28077057704767705,0.003983919521184826,0.0010071986167844132,-0.005386092623736952
35.34999999999928,0.002104827,-0.7947488,0.014840313,-2.3663957,0.007622967,1.5630845,0.80026466,0.03999986,0.039999988,-9.733940645047024,-0.2667725923234962,-0.12766086479518657,0.008722549132706264,0.003117221044851714,-0.00792486001554419
35.36666666666594,0.002191021,-0.7952047,0.015495408,-2.366842,0.007956161,1.5627359,0.80089587,0.039999854,0.04,-10.032520294358093,0.1501999572662043,-0.0951183903541091,0.005881875316960849,0.007533563299668048,-0.006974847328762448
35.38333333333261,0.0022794874,-0.7956726,0.016167706,-2.3673,0.008298098,1.562378,0.8015437,0.039999854,0.04,-9.753801579820474,0.08856768474557643,0.07089332904654282,0.007127807197375002,0.003972339214226873,-0.014764502644910226
35.399999999999274,0.0023702371,-0.79615265,0.016857285,-2.3677697,0.008648829,1.5620109,0.8022082,0.039999854,0.04,-9.855152487824391,-0.023322247594085972,0.5101461622422956,0.005408073520060053,0.007739401556761164,-0.008288899222102146
35.41666666666594,0.002463282,-0.7966447,0.017564243,-2.368251,0.009008422,1.5616348,0.80288935,0.039999854,0.04,-9.84201421479253,0.07076990190616089,-0.3406123720007402,0.006487137687669112,0.0039982251559725545,-0.005478820737374531
35.433333333332605,0.002558632,-0.797149,0.018288655,-2.3687446,0.00937687,1.5612491,0.8035872,0.03999985,0.04,-9.39926273055447,-0.02483378369534647,-0.12048662232926699,0.006143301007756944,0.006378351384679724,-0.010645511002805733
35.44999999999927,0.0026562973,-0.7976657,0.01903059,-2.36925,0.009754265,1.5608543,0.8043019,0.03999985,0.039999995,-9.736912507900447,-0.07304290736172717,-0.09690940056055464,0.00951672259038305,0.008106827230345164,-0.010014931740687466
35.46666666666594,0.0027562883,-0.79819447,0.019790119,-2.3697672,0.0101405885,1.5604502,0.8050334,0.039999843,0.04,-9.7975297695751,0.05961531796965977,0.11163276728309048,0.011448002169198473,0.006851716528760817,-0.012242174996086748
35.4833333333326,0.002858612,-0.79873556,0.020567304,-2.3702965,0.010535884,1.5600367,0.80578214,0.039999843,0.04,-9.494807078306714,-0.01732050276742869,-0.0708679307031392,0.003917778611069458,0.010454292869960385,-0.010522404196924073
35.49999999999927,0.002963275,-0.799289,0.0213622,-2.3708375,0.010940193,1.5596138,0.8065483,0.03999984,0.04,-9.961277755931663,0.06271829670881345,-0.12770346216826658,0.006319597224065462,0.009554319512436881,-0.011546071957339081
35.516666666665934,0.003070285,-0.79985476,0.02217486,-2.3713913,0.011353529,1.5591812,0.80733114,0.039999835,0.04,-9.986464639071041,0.08810947979283996,-0.22064940978996123,0.002308150129808546,0.015800148146460767,-0.014029359446556963
35.5333333333326,0.003179647,-0.80043304,0.023005337,-2.3719566,0.011775943,1.5587393,0.8081312,0.03999983,0.039999995,-9.672648564294526,-0.05520243196444589,-0.573187417713473,0.008444729036899768,0.012228683889410839,-0.013368954620234482
35.549999999999265,0.0032913678,-0.8010237,0.023853658,-2.3725343,0.012207412,1.5582879,0.8089486,0.039999828,0.04,-9.86597035425814,0.038336198687748985,-9.81421812153438e-05,0.004909954490288744,0.01323366388288193,-0.007707214499418572
35.56666666666593,0.0034054508,-0.80162716,0.024719864,-2.3731244,0.012647993,1.5578269,0.809783,0.039999828,0.04,-9.978715564981924,0.14053985881891012,-0.3567520782458377,0.00994532502530351,0.013213209076233128,-0.014618125730998733
35.5833333333326,0.0035218997,-0.80224293,0.025603984,-2.3737261,0.013097684,1.5573564,0.8106348,0.039999824,0.04,-9.622821857206496,0.2348471152652113,0.17556548498492514,0.012686536944967635,0.012051579472625,-0.015529253448804126
35.59999999999926,0.0036407188,-0.8028708,0.026506046,-2.37434,0.013556501,1.5568763,0.8115038,0.03999982,0.04,-9.511969261501621,0.06331737773735481,-0.19666358190754826,0.009935953904953958,0.008700007678165263,-0.0068928784812185735
35.61666666666593,0.0037619092,-0.8035117,0.027426055,-2.3749664,0.014024435,1.556387,0.81239015,0.039999817,0.04,-10.01565765090898,0.07771593992520937,-0.4537105949783795,0.010310533981274956,0.009272554035474796,-0.01164664165038296
35.633333333332594,0.003885474,-0.80416477,0.02836404,-2.3756049,0.01450151,1.5558876,0.8132937,0.03999981,0.04,-9.416408428671486,0.2597395537102285,-0.5362617091326158,0.00961011325057384,0.011353138412150186,-0.015231810204676247
35.64999999999926,0.0040114145,-0.8048305,0.029320009,-2.3762558,0.01498772,1.5553787,0.81421465,0.03999981,0.04,-9.553608712363966,0.19542580773979468,-0.252126660580329,0.006976122524274612,0.015520014127101996,-0.01699178797801669
35.666666666665925,0.0041397316,-0.8055086,0.030293962,-2.3769193,0.015483058,1.5548605,0.81515294,0.0399998,0.04,-9.723894637043015,-0.09505761847266395,-0.005841858350773693,0.011074293428808047,0.016418164227552857,-0.016081041026393076
35.68333333333259,0.004270422,-0.8061995,0.031285897,-2.3775945,0.015987562,1.5543326,0.81610847,0.039999798,0.04,-9.584351063738108,0.18859448137914903,-0.30612668600561604,0.0037606441669903786,0.013890245896122018,-0.017406535946937172
35.69999999999926,0.004403486,-0.8069028,0.032295816,-2.3782828,0.016501188,1.5537953,0.8170814,0.039999794,0.04,-10.03373713995205,-0.10297535717997372,-0.6336527052945504,0.012815436274140186,0.018132010252928116,-0.020276927523977983
35.71666666666592,0.0045389235,-0.8076186,0.033323694,-2.3789823,0.017023956,1.5532485,0.81807154,0.039999783,0.04,-9.562459548269713,0.25209134696061936,-0.2684347848749982,0.007354465831292562,0.019067409759430807,-0.018492469577863112
35.73333333333259,0.0046767304,-0.808347,0.034369517,-2.379694,0.017555848,1.552692,0.81907904,0.039999783,0.04,-10.195011587664299,-0.4873455330733565,-0.4600375262569824,0.0068811936053100545,0.014202538168297352,-0.010091852985663737
35.749999999999254,0.0048169065,-0.80908793,0.03543327,-2.3804185,0.018096857,1.552126,0.82010376,0.039999776,0.04,-9.653506302982317,-0.049292005795109804,-0.016820676971804005,0.011315513887501127,0.012644063583862872,-0.016372208834978877
35.76666666666592,0.004959447,-0.8098412,0.036514908,-2.381155,0.018646978,1.5515504,0.8211458,0.03999977,0.04,-9.810683362162539,-0.23636366613084397,-0.5418230425946989,0.009213853017674946,0.015337281894809545,-0.012743278463537906
35.783333333332585,0.0051043467,-0.81060684,0.037614424,-2.381904,0.019206166,1.5509651,0.82220507,0.039999757,0.04,-9.98758914675978,-0.1622294831209397,-0.4931763342258916,0.009995123046862361,0.02252041008062586,-0.021363556033188142
35.79999999999925,0.0052516027,-0.811385,0.03873178,-2.3826647,0.019774413,1.5503706,0.82328135,0.03999975,0.04,-9.834697576623503,-0.18964567991421194,-0.0478929164874837,0.010866321460169116,0.01847461627442114,-0.01585186885407218
35.81666666666592,0.0054012095,-0.8121756,0.03986693,-2.3834374,0.020351725,1.5497667,0.82437474,0.039999742,0.04,-9.741081883688727,-0.19716040999251722,0.05722311836523111,0.011181256258373719,0.016860458616792,-0.016008383478341354
35.83333333333258,0.00555316,-0.81297845,0.041019823,-2.3842227,0.020938031,1.5491533,0.8254852,0.03999973,0.04,-9.7746868608227,-0.10316575507691468,-0.37806723489421856,0.009612361058702374,0.018434399259333163,-0.02198127388237706
35.84999999999925,0.0057074465,-0.8137937,0.042190414,-2.3850195,0.021533338,1.5485305,0.82661295,0.039999727,0.04,-9.905524935470226,-0.03988321069568201,-0.23803860089261522,0.0027966882569642254,0.02330593868098926,-0.025752843663431748
35.866666666665914,0.005864064,-0.8146214,0.04337865,-2.3858283,0.022137627,1.5478984,0.8277576,0.03999972,0.04,-9.676689058226444,0.11587798580604312,-0.3372949242921389,0.013190284426912151,0.02210690673624591,-0.021276650569602387
35.88333333333258,0.0060230047,-0.81546104,0.04458447,-2.3866491,0.022750868,1.5472567,0.8289192,0.039999712,0.04,-9.59971369923227,0.24734449821337046,-0.12445664045005632,0.011379727402095282,0.017257048839481346,-0.02007557370639878
35.899999999999245,0.0061842585,-0.81631297,0.045807816,-2.387482,0.023373023,1.5466057,0.8300975,0.039999712,0.04,-9.717558565521623,0.02217350157345087,-0.5105161663270077,0.012138107125553745,0.021251828203084164,-0.01630231903314492
35.91666666666591,0.0063478164,-0.8171771,0.047048625,-2.3883266,0.024004066,1.5459455,0.8312928,0.039999705,0.04,-9.72918695528241,-0.2537870625899572,-0.45848146171187687,0.0182062154324294,0.021374728767478857,-0.02153206481171062
35.93333333333258,0.0065136696,-0.8180535,0.048306827,-2.389183,0.024643948,1.5452759,0.8325048,0.03999971,0.04,-9.96962022425149,0.015032869954711009,-0.19008941240118504,0.01683602050824369,0.025006232994090192,-0.01879543093352507
35.94999999999924,0.0066818073,-0.81894183,0.04958234,-2.3900511,0.02529265,1.5445971,0.83373356,0.03999971,0.04,-9.73639666919953,0.03405052113859898,-0.1415089031327367,0.018764890884636523,0.021431919257435296,-0.01608024856365721
35.96666666666591,0.006852221,-0.81984216,0.05087507,-2.390931,0.025950124,1.5439093,0.8349788,0.039999705,0.04,-9.93228883981723,-0.31619823608927744,-0.12079433463546452,0.015027502934518454,0.027793075890408567,-0.022047787487494804
35.983333333332574,0.007024899,-0.8207545,0.052184954,-2.3918223,0.026616331,1.5432119,0.8362406,0.039999697,0.04,-9.852105703810004,-0.130550718022342,-0.263694058528113,0.013685270517543919,0.02843052757841193,-0.026619734321905734
35.99999999999924,0.007199829,-0.8216787,0.05351189,-2.3927257,0.027291201,1.5425061,0.8375188,0.0399997,0.04,-9.831887871269165,0.15896458679313147,0.003955831902746898,0.015520963971921934,0.028205428619550117,-0.023965559122241506
36.016666666665905,0.0073769963,-0.8226148,0.054855794,-2.3936405,0.027974702,1.5417912,0.83881336,0.039999697,0.04,-9.907679100666524,-0.11942818023627585,-0.3252298592861394,0.015659908287604187,0.026474792243715337,-0.024234972028918562
36.03333333333257,0.007556392,-0.8235626,0.05621656,-2.3945673,0.028666787,1.5410672,0.8401243,0.039999694,0.04,-9.788032593851144,0.2096228469519426,-0.24903861679308215,0.011500021018493367,0.02636488897977121,-0.02684249542160801
36.04999999999924,0.007737999,-0.824522,0.057594117,-2.3955052,0.029367406,1.5403337,0.84145135,0.03999969,0.04,-9.499357483705275,0.009633902323994595,-0.4620432604098118,0.008800552107360608,0.02712866186884034,-0.025084382133982976
36.0666666666659,0.007921807,-0.8254931,0.05898833,-2.3964546,0.030076494,1.5395924,0.84279436,0.039999694,0.04,-9.912849268537718,0.5101023989274447,0.14513415074686575,0.016837187526746837,0.028957752786612504,-0.02211819609781731
36.08333333333257,0.008107799,-0.8264757,0.06039909,-2.3974147,0.030794011,1.5388417,0.8441533,0.03999969,0.04,-9.965982179247266,-0.18283315956746277,-0.5490900022317077,0.016005815758059573,0.027307239347368995,-0.01891071889892299
36.099999999999234,0.008295959,-0.8274696,0.06182628,-2.3983867,0.0315199,1.5380826,0.845528,0.039999682,0.04,-9.488529535810741,0.196300189616899,-0.20843575956479551,0.0166021693649073,0.02808821511272898,-0.02419592462662165
36.1166666666659,0.008486275,-0.82847506,0.0632698,-2.3993695,0.03225409,1.5373144,0.84691846,0.039999675,0.04,-9.94060635073608,-0.22287555975740175,-0.27545627441076165,0.01897434101052829,0.023824278929901258,-0.02843555259896506
36.133333333332565,0.008678729,-0.82949173,0.064729534,-2.4003632,0.032996505,1.5365379,0.8483245,0.03999966,0.04,-9.894165365817848,-0.14204438098461022,-0.4057976704229489,0.012163273870923107,0.034747559880735954,-0.026234059983114556
36.14999999999923,0.008873308,-0.8305196,0.06620538,-2.401368,0.03374707,1.5357527,0.8497462,0.03999966,0.04,-9.831699255884862,-0.15742381747186124,-0.10082604410535734,0.01633792662269567,0.029728215582838904,-0.028092883680685434
36.1666666666659,0.009069991,-0.83155864,0.067697145,-2.4023833,0.034505762,1.5349588,0.85118306,0.03999965,0.04,-10.007140586244555,-0.2321358054618753,-0.24652623932165255,0.016984996833539913,0.030651953789514498,-0.028921451390330782
36.18333333333256,0.00926876,-0.83260876,0.06920476,-2.4034092,0.035272505,1.5341568,0.8526351,0.039999638,0.04,-9.643944638151394,-0.40206029684365574,-0.7921708600839128,0.017071314001443294,0.03181522273231597,-0.03188023233103722
36.19999999999923,0.009469601,-0.83366984,0.07072805,-2.4044456,0.036047235,1.5333463,0.85410225,0.039999638,0.04,-9.402150010643195,-0.13201679905701313,-0.21799500669945407,0.016619268039648902,0.028693736337545087,-0.022640761485696877
36.216666666665894,0.009672493,-0.83474165,0.07226689,-2.4054933,0.036829855,1.5325274,0.85558456,0.03999963,0.04,-9.752479479809404,-0.05856721240591456,-0.29091001654157134,0.022380713324556142,0.02563530866723946,-0.021346567205482378
36.23333333333256,0.0098774135,-0.83582425,0.07382112,-2.4065516,0.037620317,1.5317003,0.8570821,0.039999623,0.04,-9.444264764397245,-0.3773679613511715,-0.6332083252635626,0.021690005301685113,0.026248432138033562,-0.03127656000632513
36.249999999999226,0.010084352,-0.83691764,0.07539063,-2.4076202,0.038418546,1.5308652,0.85859394,0.03999962,0.04,-9.647036465705447,0.05089371106837978,-0.5314961983190325,0.013773119896992887,0.035510370781378225,-0.03509614028086715
36.26666666666589,0.0102932835,-0.83802146,0.07697525,-2.4086986,0.039224483,1.5300221,0.86012036,0.03999961,0.04,-10.112837139737879,-0.03344874242738216,-0.1711254606755489,0.01654947287607549,0.031875672697712285,-0.03426182361962547
36.28333333333256,0.010504188,-0.83913577,0.07857485,-2.4097874,0.040038005,1.5291708,0.86166126,0.03999961,0.04,-9.960915147862979,-0.47043310631166024,-0.21941598687708136,0.018546439998007574,0.03437205777613745,-0.03269944164298777
36.29999999999922,0.010717047,-0.84026027,0.080189236,-2.4108868,0.040859055,1.5283118,0.8632163,0.039999604,0.04,-9.410708325709438,-0.33696561214376364,-0.6973082950022368,0.02212032794775813,0.036901989537252294,-0.03354067823658891
36.31666666666589,0.010931836,-0.84139514,0.08181828,-2.4119954,0.04168758,1.527445,0.8647854,0.0399996,0.04,-9.533321319685845,-0.02923515667525789,-0.5681366347961893,0.01593939212697366,0.03443114978231398,-0.038729387134769235
36.333333333332554,0.011148538,-0.84253997,0.083461836,-2.4131148,0.04252348,1.5265703,0.8663686,0.039999597,0.04,-9.925166723186882,-0.33997117342294114,-0.18544248589483037,0.017759967015044814,0.035075267204724266,-0.03930926490524012
36.34999999999922,0.011367128,-0.8436948,0.085119694,-2.4142432,0.043366678,1.525688,0.8679654,0.039999586,0.04,-9.553109322283058,-0.16751925311754395,-0.4949895936058993,0.023023079015131807,0.032184276714624795,-0.030668013272582728
36.366666666665886,0.01158759,-0.84485954,0.08679171,-2.4153812,0.04421705,1.5247984,0.8695761,0.039999586,0.04,-9.79514439339121,-0.1393868492810629,-0.6645861824722834,0.024062945323922287,0.0330338744070818,-0.032635886402123296
36.38333333333255,0.011809892,-0.84603405,0.088477686,-2.4165292,0.04507455,1.5239013,0.87120026,0.03999957,0.039999995,-9.508358855952967,-0.3373268120610503,-0.3735134798331256,0.024032939518525018,0.03769463483958858,-0.03552736920636515
36.39999999999922,0.012034013,-0.84721804,0.0901775,-2.4176862,0.04593909,1.5229968,0.8728376,0.039999563,0.039999995,-9.467854697138865,-0.15542014493367795,-0.6490891101197372,0.022578508260635472,0.03378041202348703,-0.03588979388731311
36.41666666666588,0.012259933,-0.8484116,0.09189098,-2.4188528,0.04681054,1.522085,0.87448806,0.039999563,0.04,-9.927832843330222,0.03002295485461609,-0.2552613855691463,0.026812221304412357,0.03806166170425719,-0.03182757643787761
36.43333333333255,0.0124876285,-0.8496147,0.09361791,-2.420028,0.047688846,1.521166,0.8761516,0.039999556,0.04,-9.669875486801997,-0.12989834534041936,-0.45310793852032194,0.02175957435066237,0.03501327505902689,-0.034411571461588
36.449999999999214,0.012717074,-0.85082704,0.0953581,-2.421213,0.048573893,1.5202401,0.877828,0.039999552,0.04,-9.980874672807087,0.016084654039463075,-0.4516832624712223,0.026399650619547393,0.03753258527287654,-0.04189997944673998
36.46666666666588,0.012948243,-0.8520486,0.09711142,-2.4224062,0.04946562,1.519307,0.8795169,0.039999545,0.04,-9.960313452023502,-0.3291908925696151,-0.3183520289454997,0.02504470952100863,0.03892573095973835,-0.035203974972312535
36.483333333332546,0.013181116,-0.853279,0.09887764,-2.4236088,0.0503639,1.5183674,0.8812183,0.039999537,0.04,-9.833493358685496,0.01797761796884445,-0.3393263893310736,0.024733012714188735,0.037305571524357053,-0.03460760111321953
36.49999999999921,0.013415662,-0.8545183,0.100656554,-2.42482,0.05126865,1.5174209,0.88293195,0.039999533,0.04,-9.843957656822457,-0.38328003561059587,-0.34934056258269686,0.021732253945315822,0.03915692167253313,-0.042685517731770456
36.51666666666588,0.013651857,-0.85576636,0.102448,-2.4260395,0.052179758,1.5164678,0.8846577,0.039999533,0.04,-9.865957786545108,-0.08283105228543372,-0.6338233899549521,0.02397532478762228,0.040126442664212315,-0.043380817911259174
36.53333333333254,0.013889675,-0.85702294,0.10425177,-2.4272666,0.053097147,1.5155082,0.8863952,0.039999526,0.04,-9.927792331063712,-0.057266752297162354,0.08184024965064529,0.03136843280640369,0.03544389159152667,-0.040207440995477475
36.54999999999921,0.014129095,-0.8582879,0.106067665,-2.4285023,0.0540207,1.514542,0.88814443,0.039999522,0.04,-9.79442108888797,0.13101713298679746,-0.43790033288005964,0.02852128616620753,0.03853700041249216,-0.03975335842859017
36.566666666665874,0.014370085,-0.85956126,0.107895516,-2.4297464,0.054950334,1.5135695,0.88990515,0.039999515,0.04,-10.081611479771174,-0.6163942992983922,-0.6419856215878191,0.027619109870855852,0.04014047036557119,-0.042559432273005925
36.58333333333254,0.01461262,-0.86084294,0.10973507,-2.4309986,0.055885926,1.5125908,0.89167714,0.03999951,0.04,-9.48421592510224,-0.4861429923442919,-0.7626755486743433,0.024538749024229,0.04098799065466661,-0.04167919511477297
36.599999999999206,0.014856669,-0.8621326,0.11158617,-2.4322586,0.05682739,1.511606,0.89346033,0.039999507,0.04,-9.958689284864478,-0.8206041670124722,-0.4220501511887519,0.03131772135161698,0.041110854297686565,-0.041453532914087696
36.61666666666587,0.0151022095,-0.86343014,0.113448575,-2.4335263,0.057774615,1.510615,0.89525443,0.039999496,0.04,-9.621213096134166,-0.6479680828470484,-0.66555743733441,0.029860140915749556,0.04184741034678192,-0.047609182240679476
36.63333333333254,0.015349212,-0.8647355,0.1153221,-2.4348016,0.05872748,1.509618,0.89705926,0.039999496,0.04,-9.78365429802305,-0.26416248581867807,-0.4346402967307258,0.026764713105150776,0.043794875655865956,-0.04590109715663501
36.6499999999992,0.015597649,-0.86604834,0.11720648,-2.4360845,0.05968587,1.5086154,0.8988745,0.03999948,0.04,-9.873221927626634,-0.10065696407998015,-0.6106163143001665,0.026145311608247925,0.04498226495592733,-0.0456153501658419
36.66666666666587,0.015847484,-0.86736876,0.11910153,-2.4373744,0.060649693,1.507607,0.9007002,0.039999474,0.04,-9.709663139828901,-0.15121839953184835,-0.8232007739799354,0.02889133412248122,0.039742999177685215,-0.04325760960398464
36.683333333332534,0.0160987,-0.86869633,0.121007085,-2.4386718,0.061618846,1.5065929,0.9025356,0.039999474,0.04,-9.785364221422515,-0.9035688648808204,-0.6987708564018563,0.034747480331785,0.041678924755857785,-0.039215431681336343
36.6999999999992,0.01635126,-0.87003106,0.12292288,-2.4399762,0.06259321,1.5055734,0.90438116,0.039999463,0.04,-10.001494019525003,-0.26341229735165894,-0.8586114039322846,0.028383435447653236,0.04076423235151251,-0.042423707289362275
36.716666666665866,0.016605144,-0.87137294,0.12484868,-2.4412866,0.063572675,1.5045488,0.90623635,0.03999945,0.04,-10.031974008699754,-0.5303863230314436,-0.7086037388549619,0.024939474623175983,0.04183641439879924,-0.04453847252116728
36.73333333333253,0.016860321,-0.8727214,0.1267843,-2.4426038,0.064557105,1.5035187,0.90810084,0.03999945,0.04,-9.654188194444664,-0.3992872983526702,-0.6433541121733143,0.03374598871602276,0.040470276996130455,-0.043065472525941735
36.7499999999992,0.01711675,-0.87407684,0.12872948,-2.4439278,0.0655464,1.5024837,0.90997463,0.039999448,0.04,-9.773725876048346,-0.6221665268668297,-0.4635098722148888,0.03482885118786804,0.04131482044737475,-0.041266181930424556
36.76666666666586,0.017374408,-0.87543875,0.13068397,-2.4452581,0.06654047,1.5014437,0.9118574,0.039999437,0.04,-9.9242458389932,-0.20349583653396902,-0.7922433069186552,0.031957920442790694,0.0413589191418213,-0.046449451138942714
36.78333333333253,0.017633267,-0.87680686,0.13264762,-2.4465952,0.0675392,1.5003989,0.9137491,0.039999433,0.04,-9.876482286702407,-0.2652982309801566,-0.7362670978791733,0.029494996463514223,0.04203457936750031,-0.05143969521095757
36.799999999999194,0.017893292,-0.8781812,0.13462014,-2.4479377,0.068542436,1.4993494,0.9156493,0.039999425,0.04,-10.069155983591473,-0.4138360047963334,-0.4704199170837249,0.031701938449085636,0.04687354605447868,-0.04325993135339802
36.81666666666586,0.01815446,-0.8795617,0.13660137,-2.4492862,0.06955007,1.4982952,0.91755784,0.03999941,0.04,-9.811912385410887,-0.1905994012368393,-0.49023461640823424,0.0344749775782684,0.04283280646098369,-0.046954244599469
36.833333333332526,0.018416733,-0.8809481,0.13859096,-2.4506402,0.070562005,1.4972363,0.9194744,0.039999407,0.04,-9.791388489685108,-0.34927659987805443,-0.9169462236608718,0.03438533649729448,0.043314499029148024,-0.05142919640356582
36.84999999999919,0.018680079,-0.88234055,0.14058878,-2.4520006,0.071578085,1.496173,0.921399,0.0399994,0.04,-9.58672505715553,-0.3232142695408303,-0.5306339042833068,0.03520103233609769,0.044812837208219554,-0.05000975737990354
36.86666666666586,0.018944474,-0.88373786,0.14259455,-2.453366,0.07259819,1.4951057,0.9233313,0.0399994,0.04,-9.949630530001048,-0.3958728796849007,-0.39573886950396503,0.037787695742185025,0.04501884774627982,-0.052946012470016096
36.88333333333252,0.01920988,-0.8851407,0.14460802,-2.4547362,0.07362226,1.4940343,0.92527115,0.039999392,0.04,-10.009058241423306,-0.681502539412134,-0.7040878119193968,0.03883260278711253,0.04097763407189284,-0.04981549894610043
36.89999999999919,0.01947627,-0.88654894,0.14662898,-2.456112,0.07465011,1.4929589,0.92721796,0.03999939,0.04,-9.609049466185683,-0.5295646410663853,-0.5696154977433543,0.035055299135089694,0.0421773300717463,-0.051760509053356676
36.916666666665854,0.019743606,-0.8879624,0.14865717,-2.4574928,0.07568167,1.4918796,0.92917174,0.039999377,0.04,-10.00236461166536,-0.4491267614698701,-0.7911942433049292,0.037689503249241266,0.04591795269653057,-0.05260983568423663
36.93333333333252,0.020011866,-0.8893805,0.15069239,-2.458878,0.076716766,1.4907967,0.9311324,0.03999937,0.04,-9.626262210012737,-0.6308611933311868,-0.5667937163882919,0.033536788897259376,0.045087670788722264,-0.05363879309591944
36.949999999999186,0.020281008,-0.8908034,0.15273435,-2.4602685,0.07775531,1.4897101,0.93309945,0.039999366,0.04,-9.778423238665749,-0.5301212420373215,-1.0590940891440066,0.03982150470540147,0.04691046804873827,-0.05678465039182953
36.96666666666585,0.020550998,-0.89223075,0.15478282,-2.461663,0.07879717,1.4886202,0.9350729,0.039999355,0.04,-9.821711053083103,-0.46893317090959225,-0.9463536055283475,0.03929887765010619,0.04440909955388964,-0.06298342109171635
36.98333333333252,0.020821808,-0.89366245,0.1568375,-2.4630616,0.079842195,1.4875268,0.9370522,0.039999343,0.04,-9.728886478687823,-0.48088813371518124,-0.834682454259758,0.03798643762608449,0.04804643342626113,-0.05618299124963494
36.99999999999918,0.021093404,-0.8950984,0.15889819,-2.4644644,0.080890246,1.4864302,0.9390373,0.03999934,0.04,-9.880049249315418,-0.48431712831676577,-0.96808115663348,0.03971779577618286,0.04406819510930589,-0.05202610228957234
37.01666666666585,0.021365756,-0.89653826,0.16096468,-2.4658709,0.081941254,1.4853305,0.9410281,0.03999933,0.04,-9.621187175171915,-0.545174086140339,-0.4242669503999184,0.04752113474688327,0.04755182355150464,-0.05268150425548291
37.033333333332514,0.02163883,-0.897982,0.16303663,-2.4672816,0.08299505,1.4842281,0.94302416,0.039999325,0.04,-9.736113576519948,-0.6297233665034002,-1.0755493816816528,0.04256372980295259,0.0489500551047993,-0.05187510880812795
37.04999999999918,0.021912592,-0.8994296,0.16511391,-2.4686954,0.08405152,1.4831228,0.9450254,0.03999932,0.04,-9.8310973601351,-0.7076480853706661,-0.5729833080323155,0.0380234174085698,0.04601111396180316,-0.0533662119326599
37.066666666665846,0.02218701,-0.9008808,0.16719615,-2.4701128,0.08511057,1.4820147,0.9470314,0.039999314,0.04,-9.887744925796655,-0.6617613551239423,-0.7666255645612136,0.04059538119463596,0.04531601180213192,-0.05284603346445572
37.08333333333251,0.02246205,-0.9023351,0.16928314,-2.471533,0.08617203,1.480904,0.94904196,0.039999302,0.04,-9.609009258630284,-0.8588681244947229,-0.9264634533009686,0.04225466764057595,0.04499491621807658,-0.05520651774088778
37.09999999999918,0.022737676,-0.9037927,0.17137466,-2.472957,0.08723577,1.4797912,0.9510569,0.039999295,0.04,-9.582402945565462,-0.6095503412516963,-0.78593418778743,0.03986213292995647,0.04896397701903742,-0.06084153139714032
37.11666666666584,0.023013856,-0.90525323,0.17347044,-2.4743836,0.08830168,1.478676,0.95307595,0.039999295,0.04,-9.83754625204462,-0.3051562140230265,-0.7049905617221177,0.0393403283292957,0.05115224191108399,-0.06011371797523444
37.13333333333251,0.023290554,-0.90671647,0.17557025,-2.4758124,0.089369625,1.4775585,0.955099,0.03999928,0.04,-9.611126598229125,-0.39192871082220837,-0.8605697289997313,0.04534819129725984,0.0491318847612201,-0.05690085429921155
37.149999999999174,0.023567747,-0.9081824,0.17767373,-2.4772446,0.090439476,1.476439,0.9571255,0.039999273,0.04,-9.653480958026314,-0.4885139573942429,-0.9127302135699734,0.04837649933298684,0.049046974279119235,-0.05158629052242504
37.16666666666584,0.02384539,-0.90965086,0.17978075,-2.478679,0.09151109,1.4753176,0.9591552,0.039999265,0.04,-9.592253519838524,-0.7101148887720957,-0.5936257637543504,0.048962795027147496,0.04612189676434967,-0.0626480341515641
37.183333333332506,0.024123454,-0.91112155,0.18189098,-2.480115,0.09258434,1.4741948,0.96118814,0.039999254,0.04,-10.176716345117272,-0.7579272626935502,-0.649500169944658,0.042787439587201846,0.04768823298856867,-0.05900027683783222
37.19999999999917,0.0244019,-0.9125943,0.18400414,-2.481553,0.09365912,1.4730703,0.9632242,0.039999247,0.04,-9.725483323204196,-0.747457323988483,-1.1913889398804987,0.04100882849389844,0.0437390611128461,-0.0614744989821193
37.21666666666584,0.024680695,-0.914069,0.18612002,-2.4829936,0.09473527,1.4719442,0.9652626,0.03999924,0.04,-9.626003589590916,-0.6371480239598273,-0.9040739488547107,0.04830714892355543,0.039812420043694646,-0.056781503549553115
37.2333333333325,0.024959803,-0.9155454,0.18823835,-2.4844356,0.095812656,1.4708169,0.96730334,0.039999235,0.04,-9.852721978297883,-0.853986891632349,-1.1114401033157852,0.044551100778605156,0.0486297270619843,-0.0590389848433323
37.24999999999917,0.025239196,-0.91702336,0.19035886,-2.4858785,0.09689114,1.4696885,0.9693462,0.03999923,0.04,-9.414674463293805,-0.6525079609812053,-0.962592290846209,0.04578941124850436,0.047405077567268195,-0.057382612347842844
37.266666666665834,0.02551883,-0.91850257,0.19248134,-2.487323,0.09797061,1.468559,0.971391,0.03999922,0.04,-9.486554166071775,-0.931865519929123,-0.8472649712456217,0.0472375647642423,0.045920118697885974,-0.06725107827031199
37.2833333333325,0.025798682,-0.91998297,0.19460544,-2.4887686,0.09905093,1.4674287,0.97343755,0.039999217,0.04,-9.955466345484805,-0.7747722792743372,-1.006040502995524,0.04474847331304023,0.04110857555268654,-0.05650383818001995
37.299999999999166,0.026078712,-0.9214643,0.19673097,-2.4902155,0.10013197,1.4662975,0.9754854,0.039999206,0.04,-9.81704321665996,-0.5385824621130473,-0.9314727619234239,0.04758110158586983,0.04703447803937076,-0.06088813844210224
37.31666666666583,0.026358891,-0.9229466,0.19885764,-2.4916632,0.10121359,1.4651659,0.9775343,0.03999919,0.04,-9.708558509064217,-0.6441632530019207,-1.1375539970982698,0.046904809721830615,0.046071503476849365,-0.06446319246156307
37.3333333333325,0.02663918,-0.9244295,0.20098515,-2.4931118,0.102295645,1.4640336,0.97958404,0.039999194,0.04,-9.863839933527455,-0.888864820339283,-1.0329329506023677,0.0485834412255712,0.049750791198730354,-0.0605813767277074
37.34999999999916,0.02691954,-0.92591286,0.20311333,-2.4945607,0.103378035,1.4629011,0.98163444,0.039999176,0.04,-9.618528356863044,-0.5888950552308551,-1.2316005826448118,0.04871147680297575,0.0425546228004964,-0.06378553536787103
37.36666666666583,0.027199937,-0.9273965,0.20524186,-2.4960096,0.104460604,1.4617684,0.9836851,0.03999917,0.04,-9.803468434895025,-1.042528874186626,-0.9665416851925107,0.05452516242330362,0.050661166588553,-0.0698904214590642
37.383333333332494,0.027480347,-0.92888016,0.20737052,-2.4974585,0.10554324,1.4606355,0.98573583,0.039999172,0.04,-9.602085390054615,-0.9274386604549887,-1.114724909328276,0.04395211525785365,0.05071227233333558,-0.06226558997233844
37.39999999999916,0.027760722,-0.93036366,0.20949902,-2.4989073,0.106625795,1.4595029,0.98778635,0.039999157,0.04,-10.004770690006527,-0.9467075155162755,-0.9940383721014036,0.04510356065742969,0.04125829789862952,-0.07085593011148499
37.416666666665826,0.02804103,-0.93184686,0.21162702,-2.500356,0.10770811,1.4583704,0.9898366,0.03999915,0.04,-9.786805651619513,-0.9027205907455732,-0.9521667050386734,0.0521600319526492,0.04418629826994766,-0.066685903777684
37.43333333333249,0.028321246,-0.9333298,0.21375436,-2.5018044,0.10879008,1.4572383,0.99188626,0.03999914,0.04,-9.989012906489682,-1.0077316702321137,-1.1774089127899363,0.04879608717409119,0.050548944957950294,-0.06974300787529306
37.44999999999916,0.02860133,-0.93481195,0.21588078,-2.5032518,0.109871574,1.4561068,0.9939349,0.03999913,0.04,-10.02519310673759,-0.8082145658608955,-1.2289672109676741,0.04633489983430248,0.04938659600628898,-0.06694578233551704
37.46666666666582,0.028881244,-0.9362933,0.21800593,-2.504698,0.11095243,1.4549757,0.99598265,0.03999912,0.04,-9.498431926661889,-0.5067322803380312,-1.061707504786481,0.05315869822786525,0.04508406257320669,-0.06409920978025742
37.48333333333249,0.029160962,-0.9377737,0.22012967,-2.5061436,0.11203255,1.4538455,0.9980289,0.039999116,0.04,-9.95379117638948,-1.2863341473516932,-1.00587668097281,0.053312554427471966,0.04426946410646908,-0.06455562696251513
37.499999999999154,0.029440444,-0.93925285,0.22225164,-2.5075874,0.11311178,1.4527161,1.0000733,0.039999098,0.04,-9.693730341193513,-1.153997888410898,-0.9730209023430628,0.055172327194789414,0.04856361845268141,-0.06650897523140194
37.51666666666582,0.029719654,-0.94073063,0.22437166,-2.5090306,0.11419002,1.4515879,1.0021157,0.039999094,0.04,-9.373242186402527,-1.0766727303100267,-1.3786684818169408,0.053912976076638655,0.04735000277799804,-0.06710169576763833
37.533333333332486,0.029998561,-0.9422069,0.22648945,-2.510472,0.11526709,1.4504608,1.0041564,0.03999908,0.04,-9.682847845117607,-1.0503062743382292,-1.0645079398805863,0.05766846784482317,0.04352720563331937,-0.0717402471055395
37.54999999999915,0.03027713,-0.9436815,0.22860469,-2.511912,0.1163429,1.4493349,1.0061944,0.039999075,0.04,-9.24746840485289,-0.9156449116974691,-1.3018726063093216,0.050092176446820534,0.04357920634340038,-0.06640809006496134
37.56666666666582,0.030555326,-0.9451543,0.23071717,-2.5133495,0.1174173,1.4482108,1.0082297,0.039999064,0.04,-9.843578759844455,-1.1671532540836844,-0.8104371349834971,0.04778905509012284,0.04575587364769819,-0.06865099927424519
37.58333333333248,0.03083312,-0.9466249,0.23282662,-2.5147853,0.11849014,1.4470881,1.0102626,0.039999064,0.04,-9.708717378482653,-0.6065185968575779,-1.1211484830737977,0.05206560713824736,0.04454701544968885,-0.0688338002970895
37.59999999999915,0.031110475,-0.9480932,0.23493282,-2.516219,0.11956131,1.4459671,1.0122919,0.039999053,0.04,-9.675336264310108,-0.8738895984260827,-0.8628463448605588,0.05445606585927371,0.047696263037578145,-0.06555829957575024
37.616666666665814,0.03138735,-0.94955903,0.23703542,-2.5176501,0.12063068,1.444848,1.014318,0.039999045,0.04,-9.77820019568529,-0.8091647418842899,-1.397119143985959,0.05876901075176732,0.04365340363021607,-0.06365589987973887
37.63333333333248,0.031663723,-0.9510222,0.23913427,-2.5190787,0.12169811,1.4437307,1.0163403,0.039999038,0.04,-9.452263829439625,-0.8587186387548243,-1.0265367237458658,0.056593988265371376,0.04583674791418141,-0.06888602537711133
37.649999999999146,0.031939562,-0.9524824,0.24122906,-2.520504,0.12276352,1.4426159,1.0183586,0.039999027,0.04,-9.847544095965723,-0.7607403370672496,-1.2539108143995503,0.05037200688637162,0.04562901627048562,-0.06921041102994491
37.66666666666581,0.032214824,-0.95394,0.24331947,-2.5219276,0.12382671,1.4415034,1.020373,0.039999016,0.04,-9.628349045294884,-1.0792800776923932,-1.0844901521390318,0.05551000659905268,0.041622808166625856,-0.07204474955190916
37.68333333333248,0.032489467,-0.9553942,0.24540538,-2.5233471,0.12488757,1.4403931,1.0223827,0.039999,0.04,-9.724667262768367,-0.5489292191702231,-0.9924344552814625,0.05548827669382386,0.040293136728372,-0.07134064822686706
37.69999999999914,0.032763463,-0.95684505,0.24748644,-2.524764,0.12594599,1.4392858,1.024388,0.039998997,0.04,-9.651445522880241,-0.7571034168808414,-0.8817121685257642,0.05374890712864296,0.042063349560801884,-0.06937704126847538
37.71666666666581,0.03303678,-0.9582923,0.24956246,-2.5261767,0.12700176,1.4381808,1.0263882,0.039998986,0.04,-9.994874183206699,-1.0330314726141383,-1.1933162756650089,0.05827761807246353,0.04309361927199526,-0.07303115066712597
37.733333333332475,0.033309393,-0.959736,0.25163314,-2.5275865,0.12805489,1.4370788,1.0283835,0.03999898,0.04,-9.595716700626506,-0.6757303327068903,-1.640569487979541,0.05168044025998811,0.04136289992903183,-0.07144250071636857
37.74999999999914,0.033581257,-0.9611758,0.25369826,-2.5289917,0.1291052,1.43598,1.0303733,0.03999897,0.04,-9.901708402011332,-0.8195227934616409,-0.8661695674567575,0.06042528944542012,0.04595900636638456,-0.07091302405671884
37.766666666665806,0.03385236,-0.96261173,0.2557575,-2.5303934,0.13015251,1.4348842,1.0323576,0.039998963,0.04,-9.569907833533366,-0.7962807090267394,-0.7595809587898532,0.058728212732120526,0.047738320692497595,-0.06869248919165173
37.78333333333247,0.034122646,-0.9640432,0.25781074,-2.5317907,0.13119675,1.4337914,1.034336,0.039998945,0.04,-9.818450482159697,-0.7136897262124766,-1.272104500599394,0.057679987189387404,0.04338433910001532,-0.07283701322172366
37.79999999999914,0.034392096,-0.9654702,0.2598576,-2.533184,0.13223782,1.4327022,1.036308,0.039998934,0.04,-9.463407410520439,-1.1639015491704559,-0.9449980989037485,0.05612309897966378,0.037437622688803116,-0.0673620262967653
37.8166666666658,0.034660682,-0.9668928,0.26189792,-2.5345728,0.13327555,1.4316161,1.0382742,0.03999893,0.04,-9.8369313712796,-1.3968368278336016,-1.5108272590689251,0.055539499541852604,0.038745202074132935,-0.06751408919593162
37.83333333333247,0.034928363,-0.9683105,0.2639314,-2.5359573,0.13430974,1.4305338,1.0402336,0.039998915,0.04,-9.668430411823776,-0.880563080957449,-1.2907428186876717,0.055959264412294644,0.039960824931306774,-0.07393183121560946
37.849999999999135,0.035195105,-0.96972317,0.2659579,-2.5373366,0.13534042,1.4294552,1.0421861,0.03999891,0.04,-9.289459418430479,-1.078070003364239,-0.9737391251868666,0.05886348994871335,0.03933431841936781,-0.07073806115713771
37.8666666666658,0.03546088,-0.9711313,0.267977,-2.538711,0.13636732,1.4283804,1.0441316,0.0399989,0.04,-9.649102818879205,-1.520905910834506,-1.2570598335367615,0.06054869885875721,0.04070019814848448,-0.06286302317856698
37.883333333332466,0.03572565,-0.97253436,0.26998863,-2.5400805,0.1373904,1.4273096,1.0460697,0.039998896,0.04,-10.054769300319585,-1.4208524551761454,-1.2771891402782465,0.0601476929810166,0.0375008094897477,-0.07025067581826266
37.89999999999913,0.03598938,-0.97393197,0.2719924,-2.5414445,0.13840957,1.4262432,1.0480005,0.039998885,0.04,-9.746035228294408,-1.5209839788100337,-1.128948099698797,0.05863079731026134,0.04282754388331819,-0.06795419206652228
37.9166666666658,0.03625205,-0.97532403,0.2739882,-2.5428033,0.1394246,1.4251808,1.0499235,0.03999887,0.04,-9.83648390105364,-1.293878320409621,-1.153208553253545,0.05200719819265137,0.04090209484428506,-0.06894729418879786
37.93333333333246,0.036513638,-0.97670984,0.2759758,-2.5441563,0.14043544,1.4241229,1.0518386,0.039998867,0.04,-9.522797602415093,-1.40661823059872,-1.0749258549732144,0.05937108325288402,0.03813084818562543,-0.06932342145828323
37.94999999999913,0.03677409,-0.9780897,0.27795503,-2.5455036,0.14144196,1.4230694,1.0537457,0.039998867,0.04,-9.905688767341067,-1.3398825328616042,-1.3928560567644086,0.058144180364206204,0.03211307039016793,-0.06665416430808499
37.966666666665795,0.037033394,-0.9794637,0.2799255,-2.5468447,0.14244406,1.4220206,1.0556446,0.03999885,0.04,-9.776641290451051,-0.9489060629411245,-1.7713606549138123,0.06001756849530615,0.03655849613820193,-0.07490695800645811
37.98333333333246,0.037291504,-0.9808314,0.28188694,-2.5481799,0.14344163,1.4209765,1.0575347,0.039998837,0.04,-9.631874012435157,-1.4085886765821862,-1.4318233759692856,0.06020870985777662,0.040601978032636606,-0.07126618815330944
37.999999999999126,0.037548408,-0.98219275,0.2838392,-2.5495086,0.14443453,1.4199376,1.0594159,0.039998826,0.04,-9.843939098131345,-1.4627189034787555,-1.1832175537572716,0.0605655983086909,0.037960982094754715,-0.06831380110422333
38.01666666666579,0.03780406,-0.98354757,0.2857821,-2.550831,0.14542258,1.4189036,1.061288,0.039998826,0.04,-9.607710708072164,-0.9145903769470697,-1.5332376619175137,0.0605236946551637,0.03684924732228373,-0.06257900601319215
38.03333333333246,0.038058437,-0.9848957,0.28771532,-2.552147,0.14640577,1.4178745,1.063151,0.03999881,0.04,-9.422943071419155,-1.0213545628196696,-1.2486494911175636,0.058947483624319015,0.035662916644191675,-0.06751598752329512
38.04999999999912,0.03831151,-0.98623705,0.28963867,-2.553456,0.14738397,1.4168508,1.0650042,0.0399988,0.04,-9.581590545715109,-1.3148154180485603,-1.4714288654840766,0.05789907171632608,0.036862953960098664,-0.06685920319713534
38.06666666666579,0.038563244,-0.98757124,0.29155186,-2.5547583,0.148357,1.4158323,1.0668482,0.039998792,0.04,-9.554489317388093,-1.4145916162553522,-1.0521814361031356,0.05912169894693201,0.036843884118587376,-0.06784670331071802
38.083333333332455,0.038813625,-0.9888982,0.29345503,-2.5560536,0.14932482,1.4148195,1.0686818,0.039998792,0.04,-9.658619245049447,-1.158670339700003,-1.61575583002675,0.05681923441655469,0.0316635105719707,-0.06713121369390193
38.09999999999912,0.039062627,-0.990218,0.29534742,-2.5573418,0.15028726,1.4138123,1.0705051,0.039998777,0.04,-9.345299472542868,-1.5488136402341293,-1.3271707418421126,0.06420911001862771,0.03303596130347735,-0.06993459735390373
38.116666666665786,0.039310202,-0.9915303,0.2972292,-2.5586233,0.15124421,1.4128106,1.0723184,0.039998762,0.04,-9.794547497223196,-1.2150543073907303,-1.4824034408107853,0.05701354122290957,0.03429755253331676,-0.06806506272656333
38.13333333333245,0.039556317,-0.992835,0.29909998,-2.5598972,0.15219562,1.4118148,1.0741215,0.03999875,0.04,-9.595204072623204,-0.9252185431537859,-1.3213120360074189,0.061434088680657216,0.03621746879399668,-0.06499242807201838
38.14999999999912,0.039800953,-0.9941319,0.3009596,-2.561163,0.15314136,1.4108249,1.0759135,0.039998744,0.04,-9.418061125693233,-1.4824775130992645,-1.112499436591924,0.057344702457625595,0.035421464838721675,-0.06801753440023295
38.16666666666578,0.040044095,-0.99542093,0.3028079,-2.5624213,0.15408133,1.4098413,1.0776947,0.03999874,0.04,-9.818154558650349,-1.255301366145684,-1.3162751143822367,0.05700304449173573,0.03708370486783804,-0.0718014091835157
38.18333333333245,0.0402857,-0.9967019,0.30464458,-2.5636716,0.15501541,1.4088634,1.0794646,0.039998725,0.04,-9.43637892309487,-1.4697026444556067,-0.9928459175255324,0.053539420111715634,0.033985640270066335,-0.07245741713058221
38.199999999999115,0.040525753,-0.99797475,0.30646953,-2.5649137,0.15594353,1.4078919,1.0812232,0.039998714,0.04,-9.722408197416142,-1.516173928607181,-1.5151032490008574,0.055274128147152,0.03189102326483596,-0.06912569122158303
38.21666666666578,0.040764216,-0.99923927,0.30828255,-2.5661476,0.1568655,1.4069269,1.0829703,0.039998703,0.04,-9.351133029430544,-1.3480189102286104,-1.5861936186988783,0.061854331928557604,0.028907025306070627,-0.06241562552840651
38.233333333332446,0.04100108,-1.0004953,0.3100833,-2.567373,0.15778126,1.4059682,1.0847056,0.03999869,0.04,-9.185672859903258,-1.4624524668776466,-1.2921420006252584,0.06005306326741292,0.03098301889655756,-0.06255027358942473
38.24999999999911,0.041236304,-1.0017424,0.31187168,-2.5685902,0.15869075,1.4050162,1.086429,0.03999869,0.04,-9.392779367090837,-1.3230434596074798,-1.6682339799498676,0.05891891525981221,0.03217299431055871,-0.0658954822976314
38.26666666666578,0.04146986,-1.002981,0.3136475,-2.5697987,0.15959382,1.4040711,1.0881404,0.039998677,0.04,-9.571798856618429,-1.505557026596628,-1.2075492558157377,0.057910841819343396,0.036630128809503705,-0.06407017321608398
38.28333333333244,0.04170173,-1.0042107,0.31541055,-2.5709984,0.1604904,1.4031328,1.0898392,0.039998665,0.04,-9.714798699307806,-1.7111130092522235,-1.3294286898273775,0.05790207896621619,0.03444729468747391,-0.06290811744196545
38.29999999999911,0.041931894,-1.0054313,0.31716064,-2.5721896,0.16138038,1.402201,1.0915256,0.039998658,0.04,-9.88372104190591,-1.6032967712127482,-1.4323963269980877,0.057465170904515854,0.035082554570881386,-0.06857497444251015
38.316666666665775,0.04216031,-1.0066428,0.31889758,-2.573372,0.16226369,1.4012766,1.0931995,0.03999864,0.04,-9.712332456074186,-1.4813775164081235,-1.3880463311664735,0.05766357733588023,0.0329425270282503,-0.06933139483867347
38.33333333333244,0.042386983,-1.007845,0.3206212,-2.5745451,0.1631402,1.4003592,1.0948602,0.039998636,0.04,-9.654252037111414,-1.526129581816454,-1.5115393929948142,0.0573525271105917,0.028434448465955546,-0.06966425583374684
38.349999999999106,0.042611863,-1.0090381,0.32233128,-2.5757093,0.16400987,1.3994488,1.0965083,0.03999863,0.04,-9.524102966513865,-1.4541595036844284,-1.3570390600275104,0.06316120195409103,0.030345597951603194,-0.0629409818938125
38.36666666666577,0.042834934,-1.0102214,0.32402772,-2.5768635,0.16487262,1.3985459,1.0981431,0.03999862,0.04,-9.438048649291112,-1.8634027548284904,-1.6294335954164432,0.06092306810262928,0.030419826315014546,-0.0626307212823089
38.38333333333244,0.043056183,-1.0113947,0.3257102,-2.5780087,0.16572823,1.3976504,1.0997646,0.039998606,0.04,-9.52761878269053,-1.7698755851112975,-1.3294159612988687,0.05470814064036369,0.027953283236602643,-0.06622545483271434
38.3999999999991,0.043275565,-1.0125587,0.32737872,-2.5791447,0.16657676,1.3967624,1.1013726,0.0399986,0.04,-9.566403136682297,-1.6557310655554787,-1.472867892925628,0.05666973495090208,0.0305476120017834,-0.06650554252781472
38.41666666666577,0.043493085,-1.0137126,0.329033,-2.5802705,0.16741803,1.3958819,1.1029667,0.03999858,0.04,-9.613003056099608,-1.6551555562590796,-1.1818851221494582,0.05784130142005861,0.027073273727304937,-0.06007598759270254
38.433333333332435,0.043708704,-1.0148565,0.33067286,-2.581387,0.16825196,1.395009,1.1045471,0.039998583,0.04,-10.070067659817399,-1.4836020115624855,-1.1959978902708641,0.058194601307570704,0.02379670398801207,-0.058775753537815424
38.4499999999991,0.043922413,-1.0159903,0.33229825,-2.5824938,0.1690785,1.3941439,1.1061133,0.03999858,0.04,-9.44397829650888,-1.5472835084636765,-1.504900443634712,0.050536818656549375,0.022070729974470592,-0.06391382366584028
38.466666666665766,0.044134185,-1.0171139,0.3339089,-2.5835896,0.16989763,1.3932866,1.107666,0.03999856,0.04,-9.572121432346155,-1.3792916698861373,-1.770371813312967,0.059452079482952,0.024840360555723223,-0.05624663118031877
38.48333333333243,0.044343982,-1.0182271,0.33550468,-2.5846753,0.17070916,1.3924371,1.1092037,0.039998554,0.04,-9.37865399235896,-1.7991743394017834,-1.2490184053952593,0.05867204471135228,0.02284772506728782,-0.05412268090121328
38.4999999999991,0.04455181,-1.0193298,0.3370855,-2.585751,0.17151308,1.3915955,1.1107264,0.039998546,0.04,-9.676861060947651,-1.5908768621825253,-1.3082838374314272,0.05781396838725287,0.027705937996440787,-0.06288678430863544
38.51666666666576,0.04475762,-1.0204219,0.33865106,-2.586816,0.17230928,1.3907621,1.112236,0.03999853,0.04,-9.47377946979571,-1.393753785768816,-1.7323711293386255,0.055760769724607105,0.02743669677412283,-0.0626902735012243
38.53333333333243,0.04496142,-1.0215032,0.34020135,-2.587871,0.17309767,1.3899369,1.113731,0.03999852,0.04,-9.455462169165655,-1.6292218772556408,-1.3774938914828083,0.05988340784981169,0.021948101643117012,-0.05762024779070832
38.549999999999095,0.045163196,-1.022574,0.34173614,-2.5889153,0.17387816,1.38912,1.1152108,0.039998516,0.04,-9.797756233834141,-1.4378357149552559,-1.4669025057772977,0.05952365757827633,0.02323546401902866,-0.05506910473287733
38.56666666666576,0.045362905,-1.0236338,0.34325543,-2.5899496,0.17465079,1.3883113,1.1166753,0.039998513,0.04,-9.438218884500822,-1.7582747770061664,-1.232044710160758,0.05692108885536549,0.021526333164390062,-0.060539612536141534
38.583333333332426,0.04556053,-1.0246829,0.3447589,-2.5909731,0.1754154,1.3875109,1.1181241,0.039998498,0.04,-9.683177958338542,-1.8022769607354414,-1.7023060987593521,0.05399802820086616,0.02150771137018165,-0.0572490959199496
38.59999999999909,0.04575607,-1.0257205,0.34624654,-2.5919857,0.17617193,1.386719,1.1195576,0.039998487,0.04,-9.288313291223158,-1.4685146531016726,-1.3449792154923248,0.05299064304413332,0.02229426126844526,-0.05186258152403559
38.61666666666576,0.045949496,-1.0267472,0.34771818,-2.5929878,0.17692032,1.3859354,1.1209756,0.03999848,0.04,-9.86973297655986,-1.405118462229464,-1.1854165092754396,0.053374559840667336,0.02843235052528195,-0.05456966849593242
38.63333333333242,0.046140797,-1.0277625,0.34917375,-2.5939784,0.17766047,1.3851607,1.122378,0.039998468,0.04,-9.388766194826959,-1.8498548538899715,-1.6009019325211722,0.053067874308884926,0.020350200588700306,-0.054644437656612435
38.64999999999909,0.046329957,-1.0287669,0.35061303,-2.5949583,0.17839237,1.3843943,1.123765,0.03999846,0.04,-9.498490402534967,-1.5361632454282832,-1.5203160728007814,0.052069495107382464,0.023866482191182373,-0.05679899924020259
38.666666666665755,0.046516955,-1.0297599,0.3520359,-2.5959265,0.17911594,1.3836368,1.1251365,0.039998457,0.04,-9.861549682018968,-1.8415951269324484,-1.644910841162202,0.05364560159808698,0.025611838336413083,-0.05668121628473545
38.68333333333242,0.04670179,-1.0307411,0.35344234,-2.596884,0.17983115,1.3828883,1.1264917,0.039998446,0.04,-9.860178481954264,-1.2917127519406972,-1.7526220991864503,0.05575631838546822,0.020760548526844336,-0.048732381974904086
38.699999999999086,0.046884444,-1.0317107,0.3548322,-2.59783,0.18053794,1.3821486,1.127831,0.03999844,0.04,-9.548811272152632,-1.8479765767511944,-1.3743499152296668,0.04870036017236855,0.023645836560961076,-0.05255477514367316
38.71666666666575,0.04706488,-1.0326687,0.35620537,-2.5987647,0.1812362,1.3814174,1.1291543,0.039998427,0.04,-9.216278524987992,-1.8684429792359187,-1.4129292049987472,0.049091652746892867,0.027802762626857862,-0.05304349565008536
38.73333333333242,0.04724311,-1.0336152,0.35756168,-2.5996876,0.18192592,1.3806956,1.1304611,0.039998412,0.04,-9.60393741530607,-1.433100124479004,-1.4311747187226853,0.05204320515305254,0.023731480329907663,-0.04918715270568671
38.74999999999908,0.047419116,-1.0345497,0.3589011,-2.6005998,0.182607,1.3799824,1.131752,0.03999841,0.04,-9.109910953544578,-1.918810430693345,-1.8206303700565714,0.052696891255985506,0.017352458840312765,-0.05192815338756383
38.76666666666575,0.047592875,-1.0354725,0.3602235,-2.6014998,0.18327944,1.3792784,1.1330265,0.039998397,0.04,-9.71667347269276,-1.804768144706491,-1.9087004308867024,0.04787693498339192,0.019090408280313605,-0.05025851538405743
38.783333333332415,0.047764387,-1.0363834,0.36152884,-2.602388,0.18394323,1.3785838,1.1342841,0.03999839,0.04,-9.39179206972716,-1.7995062928162768,-1.280539453789188,0.047588532295425964,0.019561616157547652,-0.05475225037298678
38.79999999999908,0.04793363,-1.0372823,0.36281687,-2.6032646,0.18459824,1.3778985,1.1355256,0.039998386,0.04,-9.560877605504192,-1.8011782121233115,-1.252299757433029,0.047498143838897625,0.01846491112831643,-0.04932489170887088
38.816666666665746,0.048100602,-1.0381689,0.36408764,-2.6041293,0.18524446,1.3772217,1.1367502,0.039998367,0.04,-9.556830801155543,-2.0386430602152092,-1.8536379799084974,0.05284094754430827,0.019054316425271865,-0.04550308107286617
38.83333333333241,0.048265286,-1.0390435,0.36534116,-2.6049826,0.18588187,1.3765543,1.1379582,0.03999836,0.04,-9.737865073042792,-1.9691015210179568,-1.662663646757585,0.04931671451845797,0.018136549199902503,-0.04025735245202478
38.84999999999908,0.048427682,-1.039906,0.36657727,-2.6058235,0.1865104,1.3758961,1.1391493,0.03999835,0.04,-9.247524931906915,-1.7603156545571992,-1.4389415928642189,0.04605808749240334,0.013039654620927306,-0.051200115116807714
38.86666666666574,0.04858777,-1.0407565,0.36779585,-2.6066532,0.18713005,1.3752475,1.1403236,0.039998345,0.04,-9.417909584406884,-1.9397828580339802,-1.8033193217315486,0.050965835397224775,0.015306326813231658,-0.04447216569712651
38.88333333333241,0.04874555,-1.0415944,0.36899686,-2.6074705,0.18774076,1.374608,1.141481,0.039998338,0.04,-9.246665619140135,-2.118503437857197,-1.295492486939763,0.04961975241862713,0.011849117393158373,-0.045235363244967956
38.899999999999075,0.048901007,-1.0424201,0.3701802,-2.608276,0.1883425,1.3739781,1.1426213,0.039998334,0.04,-9.826110144072075,-1.9759368153818826,-1.4868183203316323,0.044832736912605156,0.015823680855509437,-0.04577870220469876
38.91666666666574,0.04905414,-1.043234,0.37134576,-2.6090696,0.18893525,1.3733575,1.1437447,0.039998323,0.04,-9.501811731174334,-1.6865896222563659,-1.6260758009697929,0.04216658868482994,0.017340304964299814,-0.04879316017139828
38.933333333332406,0.049204927,-1.0440347,0.37249383,-2.6098506,0.18951897,1.3727465,1.144851,0.03999832,0.04,-9.369965966254915,-2.2001746553714128,-1.5328378654123769,0.041197558688339075,0.014317244796513345,-0.04831664981572717
38.94999999999907,0.049353376,-1.0448233,0.37362406,-2.6106193,0.19009365,1.3721447,1.1459402,0.03999831,0.04,-9.71963727075504,-1.9190138420330298,-1.3062220981221768,0.045896722851755646,0.015524351911814411,-0.039930525227350924
38.96666666666574,0.049499493,-1.0455998,0.37473634,-2.611376,0.19065928,1.3715526,1.1470121,0.039998308,0.04,-9.776932238072275,-1.8450697926015878,-1.7396332899987077,0.04001688731998946,0.01397497852379176,-0.04619614779585705
38.9833333333324,0.04964325,-1.0463635,0.3758307,-2.612121,0.19121581,1.3709699,1.1480668,0.03999829,0.04,-9.743673520265295,-2.048516681085443,-1.7053488467663132,0.03764199742556164,0.015385304682325155,-0.038313587056115934
38.99999999999907,0.049784645,-1.0471147,0.37690726,-2.6128538,0.19176324,1.370397,1.1491044,0.039998278,0.04,-9.955777004797953,-2.2025387368925413,-1.494936780862214,0.04525870669804405,0.01427164663595568,-0.04096754791210617
39.016666666665735,0.049923677,-1.0478536,0.37796578,-2.613574,0.19230153,1.3698337,1.1501242,0.039998278,0.04,-9.177925452340567,-1.8798294018994526,-1.6775491391450437,0.048031237551260236,0.011362826678190826,-0.036547777095389554
39.0333333333324,0.050060343,-1.0485798,0.37900633,-2.6142826,0.19283068,1.3692797,1.1511271,0.03999827,0.04,-9.483973313403387,-1.7579252320453715,-1.4749180785452167,0.045640237205795145,0.013978418116853868,-0.042694553926111385
39.049999999999066,0.050194647,-1.0492936,0.38002893,-2.6149786,0.19335066,1.3687354,1.1521127,0.039998267,0.04,-9.498069477189432,-1.7219297979495363,-1.6710746005640744,0.03749203921831573,0.015183835361528604,-0.042630092411548026
39.06666666666573,0.050326586,-1.0499948,0.3810335,-2.6156619,0.19386142,1.3682005,1.1530808,0.03999827,0.04,-9.501850229033264,-2.277382759405179,-1.342274077217343,0.04415099420552604,0.006616074676541068,-0.03822801911197692
39.0833333333324,0.050456144,-1.0506831,0.38202012,-2.616333,0.1943631,1.3676754,1.1540318,0.039998267,0.04,-9.622190588875716,-1.8334004968516573,-1.5308368985577556,0.04177984169260385,0.008524316234829384,-0.03846310574637056
39.09999999999906,0.05058334,-1.0513595,0.3829887,-2.616992,0.19485559,1.3671598,1.1549654,0.039998256,0.04,-10.018467323335827,-2.097775891316089,-1.7442414851829482,0.03596212597936526,0.012708955992467364,-0.0366418186941804
39.11666666666573,0.05070816,-1.0520233,0.38393927,-2.6176388,0.19533892,1.3666538,1.1558814,0.03999825,0.04,-9.372330002427049,-1.7782057433763419,-1.4893641345598436,0.03548411804864408,0.012322731165201524,-0.03864047278024801
39.133333333332395,0.050830625,-1.0526739,0.38487175,-2.6182735,0.19581303,1.3661577,1.1567802,0.03999824,0.04,-9.667388030450653,-2.3214100868338767,-1.881018109402368,0.036588874360080965,0.009405854128778209,-0.029665542906116147
39.14999999999906,0.050950706,-1.0533123,0.38578624,-2.618896,0.19627802,1.3656707,1.1576618,0.039998237,0.04,-9.419927482665749,-1.9530081596281665,-1.4990493105659128,0.042407374949538994,0.008825999563200274,-0.03266364219889256
39.166666666665726,0.05106843,-1.0539382,0.38668275,-2.619506,0.19673386,1.3651935,1.1585257,0.039998237,0.04,-9.629723947718789,-2.2497843970804765,-1.3332919273526502,0.03688876952432613,0.01291289041640776,-0.03162320589546284
39.18333333333239,0.051183786,-1.0545514,0.3875613,-2.620104,0.19718061,1.364726,1.1593722,0.03999823,0.04,-9.487124497463181,-2.0598463093638597,-1.3538258098128746,0.03272259502313012,0.008600122625442888,-0.036385957054825876
39.19999999999906,0.051296793,-1.0551522,0.3884219,-2.6206896,0.1976182,1.3642677,1.1602018,0.039998215,0.04,-9.613560959343637,-2.2200121152263605,-1.3760536770836937,0.03939328028956987,0.0056583233988363076,-0.03412351948106358
39.21666666666572,0.051407438,-1.0557402,0.38926464,-2.621263,0.19804668,1.3638191,1.161014,0.039998207,0.04,-9.414462512967082,-2.018818808708274,-1.5278629533419712,0.03477735831696507,0.006731394691542375,-0.03409117141246714
39.23333333333239,0.05151572,-1.0563158,0.39008942,-2.6218245,0.198466,1.36338,1.1618086,0.039998204,0.04,-9.350654452939423,-2.048834788983403,-1.5950300833911402,0.035398835389306584,0.008413909437961074,-0.03166486206399433
39.249999999999055,0.051621657,-1.056879,0.3908963,-2.622374,0.19887629,1.3629504,1.1625857,0.039998204,0.04,-9.560413332492617,-1.8490081260773015,-1.663266324760823,0.033398820503396924,0.012039411157880984,-0.03368489922891315
39.26666666666572,0.05172526,-1.0574299,0.39168552,-2.6229107,0.19927755,1.3625305,1.1633464,0.039998196,0.04,-9.022594833918683,-2.0148219414999597,-1.4024220336633746,0.032137202537385584,0.008469002143784696,-0.03502181857781432
39.283333333332386,0.051826533,-1.0579684,0.39245692,-2.623436,0.19966973,1.3621197,1.1640897,0.039998192,0.04,-9.304349573211567,-1.927975116307994,-1.9699503170584372,0.03403576284469084,0.00527486448510543,-0.026535157047831718
39.29999999999905,0.051925484,-1.0584947,0.39321068,-2.6239488,0.20005298,1.3617184,1.1648161,0.03999819,0.04,-9.383584849321856,-1.9407718229483286,-1.5244687616826456,0.03089972275126996,0.009866333034948643,-0.029027193024322977
39.31666666666572,0.05202211,-1.0590085,0.3939468,-2.62445,0.20042728,1.3613265,1.1655256,0.039998192,0.04,-9.119356988622714,-1.6965390521175792,-1.6896960900176246,0.03086131461972597,0.002923805076108401,-0.028050105803213227
39.333333333332384,0.052116428,-1.0595102,0.3946653,-2.624939,0.20079261,1.3609442,1.1662179,0.03999818,0.04,-9.272147119037038,-2.1808577180786375,-1.628602415613068,0.03421425667951111,0.0050381333689862836,-0.025660414937889498
39.34999999999905,0.052208453,-1.0599996,0.39536634,-2.625416,0.20114906,1.3605708,1.1668938,0.039998166,0.04,-9.304392550911324,-1.934340215552476,-1.537768268581133,0.031883348296301746,0.007221373745467068,-0.02094264302231508
39.366666666665715,0.052298177,-1.0604767,0.39604998,-2.6258812,0.20149663,1.3602071,1.1675527,0.039998163,0.04,-9.199256356329572,-2.4936850740701244,-1.3121136522394568,0.033817233662282196,0.007018618838881786,-0.02226047628338168
39.38333333333238,0.05238563,-1.0609419,0.39671642,-2.6263344,0.20183548,1.3598522,1.168195,0.03999816,0.04,-9.588260668679702,-2.264594707808829,-1.776918400215106,0.02532056318760944,0.00012902901026804305,-0.023108570675110615
39.39999999999905,0.052470822,-1.061395,0.39736554,-2.6267757,0.20216553,1.3595066,1.1688205,0.03999816,0.04,-9.536728037898953,-2.2917295265850393,-1.7486703707780853,0.023345356959392386,0.006918693254456691,-0.02529827128633363
39.41666666666571,0.05255376,-1.0618361,0.3979975,-2.627206,0.2024868,1.3591702,1.1694297,0.03999815,0.04,-9.390956638939981,-1.7586364689789322,-1.609260278788807,0.029079253921103977,0.0038171571936552132,-0.02479853521307211
39.43333333333238,0.052634466,-1.0622653,0.39861238,-2.627624,0.2027995,1.3588426,1.1700221,0.03999815,0.04,-9.580277978370601,-2.3913193659996463,-1.8127370815933062,0.02713399175075533,0.007896605345610045,-0.02295860159439933
39.449999999999044,0.052712943,-1.0626827,0.39921045,-2.628031,0.20310354,1.3585244,1.1705985,0.03999815,0.04,-9.490415440393669,-1.901898928465699,-1.1360899908867534,0.028653630727981657,0.0010970018454887368,-0.0203755544912709
39.46666666666571,0.05278922,-1.0630887,0.39979172,-2.6284263,0.20339906,1.3582151,1.1711587,0.039998148,0.04,-9.192376294440644,-2.2385607169408566,-1.3378968073250024,0.026046878346584312,-0.0026117030916386055,-0.01712094164954443
39.483333333332375,0.0528633,-1.0634829,0.4003563,-2.6288106,0.2036861,1.3579144,1.1717024,0.03999814,0.04,-9.329202899884521,-1.9894694635209267,-1.9218909039241465,0.026324898575056717,0.001893281361903345,-0.022379499694673524
39.49999999999904,0.052935205,-1.0638655,0.40090433,-2.6291833,0.20396473,1.357623,1.1722307,0.039998136,0.04,-9.246799492596475,-1.6580710620686383,-1.6038604496953037,0.02263966743948993,-0.002102723316912065,-0.015829898919784507
39.51666666666571,0.053004954,-1.0642368,0.40143597,-2.629545,0.204235,1.3573401,1.1727432,0.039998133,0.04,-9.87097768855073,-2.228978816687125,-1.704744040430021,0.01780395770278872,0.0022779266664616753,-0.025461892636788563
39.53333333333237,0.05307256,-1.0645967,0.4019513,-2.6298957,0.20449698,1.3570657,1.1732397,0.03999813,0.04,-9.301015939221584,-2.5327284891984903,-1.7994377056407351,0.01828846289294374,0.0022924009725138013,-0.023215811278975693
39.54999999999904,0.05313805,-1.0649453,0.4024505,-2.6302352,0.20475075,1.3568001,1.1737207,0.03999812,0.04,-9.752377569692753,-2.333975946951971,-1.5686761388164452,0.020592559009312724,0.0075773350216073055,-0.01056136118388035
39.566666666665704,0.05320144,-1.0652828,0.40293375,-2.6305637,0.20499644,1.3565428,1.1741865,0.03999812,0.04,-9.44349682149456,-1.9379613428650457,-1.7172331538319154,0.02219402723220496,0.0067998551274598825,-0.013436529091208288
39.58333333333237,0.053262755,-1.0656093,0.40340117,-2.6308818,0.20523405,1.356294,1.1746368,0.039998118,0.04,-9.560697396314643,-2.4501169292069473,-1.3742110558468914,0.019394724647155526,0.004322618616799232,-0.01714088818402948
39.599999999999035,0.053322013,-1.0659251,0.4038529,-2.631189,0.2054637,1.3560538,1.1750723,0.039998114,0.04,-9.177711968729616,-2.1919779436396367,-1.6706347762706213,0.02425762177042758,-0.004023411709804279,-0.013876087939292632
39.6166666666657,0.053379234,-1.06623,0.40428922,-2.631486,0.20568554,1.3558216,1.1754929,0.039998107,0.04,-9.176032110852681,-2.0014267090590594,-1.344259531597877,0.023923188479262288,0.002924393377397336,-0.01012565986998145
39.63333333333237,0.053434443,-1.066524,0.40471032,-2.6317723,0.2058996,1.3555975,1.1758988,0.039998103,0.04,-9.436426880064111,-1.902164867778693,-1.3418563063451299,0.02053767656895139,0.0010832245454059197,-0.0122203424835359
39.64999999999903,0.05348767,-1.0668074,0.40511626,-2.6320484,0.20610599,1.3553813,1.17629,0.0399981,0.04,-9.469554712569039,-2.006945058185826,-1.697006122629158,0.01914231675111237,0.0024532927768226684,-0.014317007909380397
39.6666666666657,0.05353893,-1.0670803,0.40550724,-2.632314,0.20630474,1.3551731,1.1766669,0.039998095,0.04,-9.440021370635634,-2.119216058751408,-1.2918498020062887,0.019597068478240904,-0.0018258615588519311,-0.013818576890516547
39.683333333332364,0.05358828,-1.0673432,0.40588346,-2.6325696,0.20649599,1.354973,1.1770294,0.039998095,0.04,-9.472500513008765,-2.3083944123123676,-1.401365009169906,0.01682079865560683,-0.006285329841250674,-0.016272672006914186
39.69999999999903,0.053635705,-1.067596,0.40624514,-2.632816,0.20667987,1.3547803,1.1773779,0.039998095,0.04,-9.445248341315471,-2.304087936528622,-1.6266555478948246,0.015205085294260033,-9.094734275549344e-06,-0.00788850950829778
39.716666666665695,0.053681247,-1.0678383,0.40659258,-2.633052,0.2068565,1.3545955,1.1777127,0.03999809,0.04,-9.380632617137751,-2.150262213564486,-1.7550513196911874,0.013532136241884561,-0.006840554329861334,-0.014266123303178746
39.73333333333236,0.053724956,-1.0680712,0.40692583,-2.6332786,0.20702599,1.3544183,1.178034,0.03999809,0.04,-9.517564775346155,-2.230888111471877,-1.7623997224470338,0.01744792733575252,-0.0031074405140182533,-0.007514085544986204
39.74999999999903,0.05376682,-1.0682944,0.40724528,-2.6334958,0.20718846,1.3542483,1.1783416,0.039998088,0.04,-9.510926410337348,-2.1331200036623468,-1.4703642804886217,0.01656318221807364,-0.003254062616965706,-0.007656886527314255
39.76666666666569,0.053806916,-1.068508,0.40755117,-2.6337037,0.20734398,1.3540854,1.1786362,0.039998084,0.04,-9.195579320488498,-2.4575753410009797,-1.534754893744184,0.013263840312018323,-0.0040494700443858035,-0.006399739419164863
39.78333333333236,0.053845245,-1.0687124,0.4078436,-2.6339023,0.20749263,1.3539296,1.1789179,0.039998084,0.04,-9.113474950068117,-2.300262550635515,-1.4452614799946106,0.006614257956202026,-0.0013368965303081652,-0.014864852241201295
39.799999999999024,0.053881846,-1.0689079,0.40812293,-2.6340926,0.2076346,1.353781,1.1791869,0.03999808,0.04,-9.541203419178485,-2.393586186240928,-1.7286809404064107,0.0098773807341556,4.857502061013811e-05,-0.0042689619445499295
39.81666666666569,0.05391676,-1.0690938,0.4083894,-2.6342742,0.20777003,1.3536391,1.1794437,0.039998073,0.04,-9.262644329040903,-2.2698716573318634,-1.539050263964314,0.011796351887065671,-0.0021495208768074403,-0.005609680118215186
39.833333333332355,0.053950008,-1.0692712,0.40864325,-2.6344469,0.2078991,1.3535038,1.1796883,0.03999807,0.04,-9.327217525337913,-2.2651353507469176,-1.578472883071322,0.011875998972051938,-0.0012554038774193028,-0.010706077381516457
39.84999999999902,0.053981636,-1.0694401,0.40888473,-2.6346111,0.2080218,1.3533754,1.1799209,0.039998073,0.04,-9.50066797684466,-2.4339672710065368,-1.799393517150685,0.006307674639423482,-0.0018771667616390409,-0.010777722051452086
39.86666666666569,0.054011688,-1.0696003,0.40911415,-2.6347666,0.20813838,1.3532534,1.1801418,0.039998077,0.04,-9.543689328921843,-2.505209482475123,-1.5931184999394699,0.013678065749885662,-0.004087245713189324,-0.00784332656025873
39.88333333333235,0.05404018,-1.0697523,0.4093318,-2.6349137,0.208249,1.3531376,1.1803514,0.039998077,0.04,-9.17319663202224,-2.298521810885259,-1.6627376130951985,0.008154434195775932,-0.002377368469433077,-0.004819820088940955
39.89999999999902,0.054067165,-1.0698966,0.4095379,-2.6350527,0.20835374,1.3530279,1.1805499,0.039998073,0.04,-9.176319104946343,-2.5079871743584743,-1.803554476523908,0.011008279568572749,-0.008560515228591057,-0.006316812897273976
39.916666666665684,0.054092683,-1.070033,0.40973282,-2.6351843,0.20845282,1.3529243,1.1807376,0.039998066,0.04,-9.407436102835918,-1.7414406372049096,-1.2318346350458906,0.009970951357793169,-0.003369809049743457,-0.007371244567639116
39.93333333333235,0.054116756,-1.0701617,0.4099168,-2.635309,0.20854634,1.3528264,1.1809146,0.039998066,0.04,-9.46714097598149,-2.1792906606205578,-1.7336198586067568,0.010244255478935734,-0.004105025769603464,-0.006022452361311629
39.949999999999015,0.05413947,-1.070283,0.4100902,-2.635428,0.20863445,1.3527342,1.1810818,0.039998066,0.04,-9.267772999350328,-2.3029194137220754,-1.7150763242442972,0.01264344779774368,-0.007323261541599921,-0.001984202924761951
39.96666666666568,0.054160785,-1.0703974,0.41025338,-2.6355405,0.20871735,1.3526471,1.181239,0.039998066,0.04,-9.510957190897294,-2.2622585718556705,-1.5170203939311588,0.014881595236550811,-0.004576596103232011,-0.0017688649468011752
39.98333333333235,0.05418082,-1.0705044,0.41040656,-2.6356459,0.20879519,1.3525656,1.1813864,0.039998066,0.04,-9.331952155662727,-2.2019694455765286,-1.9549703122280806,0.006591637011719054,-0.0033561180356988067,-0.0028858074436423804
39.99999999999901,0.054199584,-1.0706046,0.41055018,-2.635744,0.20886815,1.3524894,1.181525,0.039998062,0.04,-9.637573920481247,-2.063208465225124,-1.8531305948642336,0.009987884678020684,-0.009643697107962099,-0.0001722660027633648
40.01666666666568,0.05421713,-1.0706985,0.41068453,-2.6358347,0.20893642,1.352418,1.1816542,0.039998066,0.04,-9.164325154527225,-2.194280578175515,-1.5689653007452347,0.009412337448807838,-0.0017915255649068008,0.00044254468042919753
40.033333333332344,0.054233514,-1.0707864,0.41080993,-2.6359181,0.20900019,1.3523511,1.1817749,0.039998066,0.04,-9.660225770474161,-2.1130556201180877,-1.648510374295548,0.00735150053691434,-0.005266474827502382,-0.0010663521421475854
40.04999999999901,0.05424878,-1.0708679,0.41092673,-2.6359997,0.20905963,1.352289,1.1818874,0.039998066,0.04,-9.516145023885478,-2.0239625296066395,-1.6056930426936384,0.007600107521797559,-0.007634757041581871,-0.007391019516936205
40.066666666665675,0.05426296,-1.0709441,0.41103536,-2.636074,0.2091149,1.3522311,1.1819922,0.039998066,0.04,-9.674309329058161,-1.8286648655420392,-1.624794784536018,0.005654512421303232,-0.005831730862695313,-0.0012807758009108748
40.08333333333234,0.054276112,-1.0710143,0.41113618,-2.6361418,0.20916618,1.3521775,1.1820894,0.039998066,0.04,-9.582074443387723,-2.4531334235985027,-1.773810648969176,0.01094250872557871,-0.005426201656873952,0.002206341440039262
40.09999999999901,0.054288294,-1.0710801,0.4112296,-2.6362047,0.20921369,1.3521278,1.1821797,0.03999807,0.04,-9.2152567704958,-2.097436218096887,-1.7348946098387394,0.005095846495516757,-0.011238583037703826,0.0033248215110342648
40.11666666666567,0.054299552,-1.0711405,0.411316,-2.6362638,0.20925765,1.3520818,1.1822628,0.03999807,0.04,-9.367076008808562,-2.578954091219638,-1.809619554069827,0.0003984141846208738,-0.0045244668725725,0.003036064103031232
40.13333333333234,0.05430992,-1.0711962,0.41139582,-2.6363165,0.20929816,1.3520393,1.1823395,0.03999807,0.04,-9.622931050754747,-2.239184827217832,-1.6999264258378197,0.004081531507105871,-0.008764267784535155,0.002644232275799745
40.149999999999004,0.054319467,-1.0712475,0.4114693,-2.6363676,0.2093355,1.3520001,1.1824108,0.03999807,0.04,-9.305870716489457,-1.9652503854642331,-1.482071279611691,0.0058573426696759455,-0.00386471180274239,0.009705742671042414
40.16666666666567,0.054328255,-1.0712949,0.41153705,-2.6364121,0.20936991,1.3519644,1.1824751,0.03999807,0.04,-9.322230776600462,-2.354271340709218,-1.8176749399677676,0.004129135051144197,-0.008554838484964168,-0.006182848527005089
40.183333333332335,0.054336336,-1.0713385,0.41159925,-2.6364555,0.20940156,1.3519312,1.1825349,0.03999807,0.04,-9.481518934316204,-2.170389859248465,-1.4927360672963896,0.0031309061456141316,-0.0017174520993051496,-0.0013221052370408946
40.199999999999,0.05434376,-1.0713786,0.41165653,-2.6364927,0.20943072,1.3519006,1.1825908,0.03999807,0.04,-9.525386136141762,-2.320497203160419,-1.8016043184379433,0.004565440895302899,-0.009090460333063504,0.00012639030790621958
40.21666666666567,0.05435058,-1.0714155,0.41170904,-2.6365285,0.20945756,1.3518726,1.1826428,0.03999807,0.04,-9.333846449271412,-2.117280213699537,-1.4372828062794125,0.008054880140047349,-0.008837200830449083,0.006403529190939689
40.23333333333233,0.054356858,-1.0714498,0.41175768,-2.636562,0.20948221,1.3518467,1.1826903,0.03999807,0.04,-9.607079865655688,-2.418863043558542,-1.7453247197440143,0.0008390570830748428,-0.00718285999114847,-0.0005892168231659846
40.249999999999,0.054362617,-1.0714812,0.4118024,-2.636591,0.2095049,1.351823,1.1827343,0.03999807,0.04,-9.75647931386884,-2.191634532844168,-1.4022061218106197,0.0019779054045855836,-0.0034833752393379504,0.0033137554230143152
40.266666666665664,0.054367915,-1.07151,0.41184354,-2.636619,0.20952581,1.3518012,1.1827749,0.03999807,0.04,-9.838869940115998,-2.6529719295956258,-1.6084646019317865,0.004952426822725447,-0.0057399098570564255,0.002271280203737961
40.28333333333233,0.05437278,-1.0715367,0.41188133,-2.6366456,0.209545,1.3517811,1.1828117,0.03999807,0.04,-9.094284133003004,-1.8730475431615954,-1.609840767149764,0.004369703714947845,-0.008978536728192784,0.00726284869818125
40.299999999998995,0.054377258,-1.0715611,0.4119161,-2.6366677,0.20956269,1.3517624,1.1828448,0.03999807,0.04,-9.313839843393904,-2.273710119325611,-1.6633160200713446,0.007054619882151573,-0.010222406714752634,0.0015455664338607416
40.31666666666566,0.05438137,-1.0715835,0.41194808,-2.636689,0.20957896,1.3517456,1.1828741,0.03999807,0.04,-9.011748802927903,-2.362090328184915,-1.9332122523606743,0.005193219632509662,-0.008680415224838546,0.0016716626491058194
40.33333333333233,0.054385144,-1.0716043,0.41197753,-2.6367095,0.20959388,1.3517298,1.1829033,0.03999807,0.04,-9.407656817757863,-2.2284137453389885,-1.368403532693261,0.003998285056631137,-0.005393042969974409,0.000322614164577018
40.34999999999899,0.054388613,-1.0716234,0.41200462,-2.6367292,0.20960763,1.3517152,1.1829287,0.03999807,0.04,-9.408324597127589,-2.4352878333674433,-1.6276052984870883,0.00812376046642671,-0.006641357211058766,0.0054555655886879975
40.36666666666566,0.054391794,-1.071641,0.4120296,-2.6367464,0.20962034,1.3517021,1.1829531,0.03999807,0.04,-9.399552467199229,-2.3081562993983358,-1.4717908330969018,0.006789583043922969,-0.00849020217658561,0.008567984373340545
40.383333333332324,0.05439473,-1.0716571,0.41205248,-2.6367607,0.209632,1.3516899,1.1829747,0.03999807,0.04,-9.759585268186923,-2.243530011714345,-1.77742901139085,0.0034259332162332335,-0.003108513588243386,0.002538159464663189
40.39999999999899,0.05439743,-1.0716718,0.41207358,-2.6367743,0.20964274,1.3516784,1.1829954,0.03999807,0.04,-9.495542943861365,-2.0312745342597887,-1.808018783330415,-0.0011008209443440142,-0.004895906378898502,0.0002778404888269249
40.416666666665655,0.054399904,-1.0716856,0.41209304,-2.6367872,0.20965263,1.3516681,1.1830132,0.03999807,0.04,-9.611013157884306,-2.2676937922972353,-1.7223738840987408,0.006289972149250572,-0.005851948459588027,0.0037062932843777516
40.43333333333232,0.05440217,-1.0716981,0.41211092,-2.6367998,0.20966166,1.3516589,1.183031,0.03999807,0.04,-9.621131492895453,-2.2091025861191462,-1.5180791268039513,0.004642015201304361,-0.0051327746944677234,0.0032741394617139615
40.44999999999899,0.054404262,-1.0717099,0.41212738,-2.6368124,0.20967004,1.3516504,1.1830467,0.03999807,0.04,-9.450949632910701,-2.5517299782581433,-1.4908418871097378,0.001973186683699194,-0.007074707544985361,0.002688191332009318
40.46666666666565,0.054406174,-1.0717205,0.41214252,-2.6368232,0.20967767,1.3516423,1.1830606,0.03999807,0.04,-9.222237281596836,-2.3373577900043907,-1.5366770012268778,0.0017635227305856237,-0.0005967243054834818,-0.0020737943358360633
40.48333333333232,0.054407943,-1.0717304,0.41215643,-2.6368327,0.20968476,1.3516345,1.1830745,0.03999807,0.04,-9.405576892999386,-2.4085699217737435,-1.4723417488471542,0.004619271105077734,-0.011468633500029093,0.00769497897723728
40.499999999998984,0.054409575,-1.0717394,0.41216928,-2.6368406,0.20969129,1.3516275,1.1830868,0.03999807,0.04,-9.24539616520858,-2.3457885274099612,-1.717621756200838,7.679154713542586e-05,-0.006738095116796563,0.006793634791989166
40.51666666666565,0.05441107,-1.0717477,0.4121811,-2.6368477,0.2096973,1.3516214,1.1830972,0.03999807,0.04,-9.702876352124253,-2.0706503954475934,-1.395998136096881,-0.0007111751090733345,-0.002392325091027603,0.003852523141621466
40.533333333332315,0.054412443,-1.071755,0.412192,-2.6368542,0.20970285,1.3516159,1.1831074,0.039998073,0.04,-9.286378405878278,-1.8425373556163709,-1.2518956579646812,0.0051490341387191415,-0.003934261709095947,0.010952415622989242
40.54999999999898,0.0544137,-1.0717621,0.41220197,-2.6368601,0.20970793,1.3516108,1.1831174,0.03999807,0.04,-9.267766149706047,-2.2036646506886353,-1.9558766590169212,0.0021137456793108448,-0.013896825251113621,0.003604355337756222
40.56666666666565,0.054414872,-1.0717684,0.41221112,-2.6368656,0.20971258,1.351606,1.1831264,0.03999807,0.04,-9.479652904655612,-2.281644480227087,-1.664053161697276,0.003268783092243009,-0.009687442976629759,0.0031248679024015675
40.58333333333231,0.054415938,-1.0717744,0.41221958,-2.6368709,0.20971684,1.3516015,1.1831346,0.03999807,0.04,-9.092035118172507,-1.8908618031605784,-1.6492059775711694,0.006222898269595017,-0.00868609411415919,0.0012863648474888557
40.59999999999898,0.054416906,-1.07178,0.41222736,-2.636876,0.20972079,1.3515973,1.1831416,0.03999807,0.04,-9.530197950193669,-1.956805657221528,-1.7185061516271751,0.0005531278046087612,0.0045939761866795005,0.0015224388370358903
40.616666666665644,0.054416906,-1.07178,0.41222736,-2.636876,0.20972079,1.3515973,1.1831416,0.03999807,0.04,-9.346275609776661,-2.2062941556499287,-1.4903845651549985,-0.0021191692125871898,-0.0036450170314657475,0.0037300739192332676
40.63333333333231,0.054416906,-1.07178,0.41222736,-2.636876,0.20972079,1.3515973,1.1831416,0.03999807,0.04,-9.314787105195752,-2.1791769604070197,-1.6813328829696286,-0.0019055183112718333,-0.0003598326123760567,0.0005116623954433768
40.649999999998975,0.054416906,-1.07178,0.41222736,-2.636876,0.20972079,1.3515973,1.1831416,0.03999807,0.04,-9.085643428758795,-2.614889729586449,-1.642520191228436,0.0035977285746582083,0.0020389868796804496,-0.00023582622247418037
40.66666666666564,0.054416906,-1.07178,0.41222736,-2.636876,0.20972079,1.3515973,1.1831416,0.03999807,0.04,-9.558823609150656,-2.338516424749696,-1.7000906007401377,0.00206618823289137,0.003693384657008605,-0.003343663089799312
40.68333333333231,0.054416906,-1.07178,0.41222736,-2.636876,0.20972079,1.3515973,1.1831416,0.03999807,0.04,-9.422982740048194,-2.222401581233953,-1.4332720503079566,0.0002793112545141478,-0.0006671634212478086,-0.0018956009551384218
40.69999999999897,0.054416906,-1.07178,0.41222736,-2.636876,0.20972079,1.3515973,1.1831416,0.03999807,0.04,-9.488840137199148,-2.3731138571814605,-1.6229363570555602,0.0014688567622648983,-0.0004164129206000422,-0.0028856320330980915
40.71666666666564,0.054416906,-1.07178,0.41222736,-2.636876,0.20972079,1.3515973,1.1831416,0.03999807,0.04,-9.197069444576949,-2.3177133361544535,-1.635945498902644,0.000508746524604477,0.001564798995014341,-0.00270023219895638
40.733333333332304,0.054416906,-1.07178,0.41222736,-2.636876,0.20972079,1.3515973,1.1831416,0.03999807,0.04,-9.537120196590184,-2.4673019213917113,-1.622408777202756,-0.004263405959814678,0.0032589569400853164,-0.004373045293682504
40.74999999999897,0.054416906,-1.07178,0.41222736,-2.636876,0.20972079,1.3515973,1.1831416,0.03999807,0.04,-9.788989261166835,-2.48893572456962,-1.5827506021520223,-0.0005747607182131776,-0.0007171122993259724,-0.00016403710657305663
40.766666666665635,0.054416906,-1.07178,0.41222736,-2.636876,0.20972079,1.3515973,1.1831416,0.03999807,0.04,-9.3487183874987,-2.3830245506897407,-1.4365872484693294,-0.0003430231601539302,0.005123538996251474,0.0016177266203498241
40.7833333333323,0.054416906,-1.07178,0.41222736,-2.636876,0.20972079,1.3515973,1.1831416,0.03999807,0.04,-9.226952393895356,-2.370356412825585,-1.409540857707756,-0.00178024997354121,0.0006749544151760492,-0.003339262345532184
40.79999999999897,0.054416906,-1.07178,0.41222736,-2.636876,0.20972079,1.3515973,1.1831416,0.03999807,0.04,-9.364508617148973,-2.471408010490375,-1.4796412527155003,-0.0025466700695893152,-0.006941883422790787,0.0006588537169852049
40.81666666666563,0.054416906,-1.07178,0.41222736,-2.636876,0.20972079,1.3515973,1.1831416,0.03999807,0.04,-9.29792766216457,-2.333703623861445,-1.6255110576890042,0.009577178659913005,-0.002557293879271081,0.001578352885708774
40.8333333333323,0.054416906,-1.07178,0.41222736,-2.636876,0.20972079,1.3515973,1.1831416,0.03999807,0.04,-8.991499156491846,-2.3446766545479933,-1.5658049457152792,-0.002001828446855733,0.0018592294655959305,0.004393221182500309
40.849999999998964,0.054416906,-1.07178,0.41222736,-2.636876,0.20972079,1.3515973,1.1831416,0.03999807,0.04,-9.412238581886097,-1.6695243275154033,-1.742289405047795,-0.0029828438270111442,0.0024651958232778303,-0.004548953795093303
40.86666666666563,0.054416906,-1.07178,0.41222736,-2.636876,0.20972079,1.3515973,1.1831416,0.03999807,0.04,-9.617839295500712,-2.463915849394666,-1.741369945703936,-7.754882815164494e-05,0.005758333177619674,-0.0019304098640131064
40.883333333332295,0.054416906,-1.07178,0.41222736,-2.636876,0.20972079,1.3515973,1.1831416,0.03999807,0.04,-9.190158260360958,-1.891507295472334,-1.9089112955867236,0.0018161351515637982,-0.0003721643300759158,0.0023659841832656347
40.89999999999896,0.054416906,-1.07178,0.41222736,-2.636876,0.20972079,1.3515973,1.1831416,0.03999807,0.04,-9.441812292077453,-2.2314085999481144,-1.8074464294356896,0.0018488383095771343,0.0003907115694785512,-0.004509369852845277
40.91666666666563,0.054416906,-1.07178,0.41222736,-2.636876,0.20972079,1.3515973,1.1831416,0.03999807,0.04,-9.449008745982082,-2.3660174601110846,-1.6725991956192818,-0.005069627138865107,0.0030649895399984224,-0.004687296213426126
40.93333333333229,0.054416906,-1.07178,0.41222736,-2.636876,0.20972079,1.3515973,1.1831416,0.03999807,0.04,-9.190957212648943,-2.1650968720444297,-1.7249057124776925,0.004508149080403861,-0.0020608779957723574,-0.0004113863008913995
40.94999999999896,0.054416906,-1.07178,0.41222736,-2.636876,0.20972079,1.3515973,1.1831416,0.03999807,0.04,-9.11090788480214,-2.5551717574066024,-1.3573897999031188,0.005447412326815164,0.0010674567313020292,0.0031593608798500955
40.966666666665624,0.054416906,-1.07178,0.41222736,-2.636876,0.20972079,1.3515973,1.1831416,0.03999807,0.04,-9.435567338338194,-2.5476125680420676,-1.5102475169439709,-0.0003727720013587569,0.00016539230440582888,0.004671668660743702
40.98333333333229,0.054416906,-1.07178,0.41222736,-2.636876,0.20972079,1.3515973,1.1831416,0.03999807,0.04,-9.440440253590749,-2.195617967698133,-1.5460729624423502,-0.004971071544243854,-0.000909673922762594,0.0005078016302868882
40.999999999998956,0.054416906,-1.07178,0.41222736,-2.636876,0.20972079,1.3515973,1.1831416,0.03999807,0.04,-9.578157048734063,-2.6248650214473783,-1.5104122723521305,-0.001547732152481718,0.0030543154802656486,-0.0009723348385081084
41.01666666666562,0.054416906,-1.07178,0.41222736,-2.636876,0.20972079,1.3515973,1.1831416,0.03999807,0.04,-9.264968271751053,-2.021845243766662,-1.5606894804677622,-0.00034571523862445225,-0.0003885868891637562,0.0021676422682442133
41.03333333333229,0.054416906,-1.07178,0.41222736,-2.636876,0.20972079,1.3515973,1.1831416,0.03999807,0.04,-9.219502989303296,-2.5447809483473947,-1.895063872350838,-0.0009932914602774545,0.0006015635864191034,-0.007000178373442354
41.04999999999895,0.054416906,-1.07178,0.41222736,-2.636876,0.20972079,1.3515973,1.1831416,0.03999807,0.04,-9.881668101922306,-2.182749989378148,-1.582326850958114,5.352440321122281e-06,-0.0008584444843063478,-0.0047847036888198
41.06666666666562,0.054416906,-1.07178,0.41222736,-2.636876,0.20972079,1.3515973,1.1831416,0.03999807,0.04,-9.246624660169058,-2.4425697670226465,-1.71962737439298,0.002831608351706284,-0.0022339592390004334,-0.003346231312740023
41.083333333332284,0.054416906,-1.07178,0.41222736,-2.636876,0.20972079,1.3515973,1.1831416,0.03999807,0.04,-9.609491707930028,-2.255369235770807,-1.7909656368175173,-0.003962145537050438,-0.0013123751242582026,0.0017317259614088199
41.09999999999895,0.054416906,-1.07178,0.41222736,-2.636876,0.20972079,1.3515973,1.1831416,0.03999807,0.04,-9.473396862493594,-1.937079439061158,-1.8586648734945541,-0.0002980807739520743,-0.0031142228468934614,0.006159224510623498
41.116666666665616,0.054416906,-1.07178,0.41222736,-2.636876,0.20972079,1.3515973,1.1831416,0.03999807,0.04,-9.302922015522464,-2.403276260819729,-1.218622374150758,-0.0036431625840171295,0.0023398304901208543,-0.005144882467047901
41.13333333333228,0.054416906,-1.07178,0.41222736,-2.636876,0.20972079,1.3515973,1.1831416,0.03999807,0.04,-9.750925007064405,-2.2213662640087453,-1.1529853476522318,0.0021528843361615403,-0.0015508568598439076,0.00299603802126216
41.14999999999895,0.054416906,-1.07178,0.41222736,-2.636876,0.20972079,1.3515973,1.1831416,0.03999807,0.04,-9.74954364212218,-2.0715293358630404,-1.5370476106303306,-0.004982715131622208,0.0006565864689191714,-0.0010781844435445798
41.16666666666561,0.054416906,-1.07178,0.41222736,-2.636876,0.20972079,1.3515973,1.1831416,0.03999807,0.04,-9.109360736762255,-2.500738339217814,-1.4739198058499974,-0.00023339099410414846,0.0001655893687697131,-0.0022290946639698514
41.18333333333228,0.054416906,-1.07178,0.41222736,-2.636876,0.20972079,1.3515973,1.1831416,0.03999807,0.04,-9.323837665187071,-2.3078704989957264,-1.3448820490045335,0.002259826323503233,-0.0001029755896357349,-0.005162466738302853
41.199999999998944,0.054416906,-1.07178,0.41222736,-2.636876,0.20972079,1.3515973,1.1831416,0.03999807,0.04,-9.439241509146743,-2.1962260868193835,-1.531144858581876,0.0032486804699353783,-0.0035626202603155858,0.0021730769459528
41.21666666666561,0.054416906,-1.07178,0.41222736,-2.636876,0.20972079,1.3515973,1.1831416,0.03999807,0.04,-9.277596738272818,-2.2836838126699504,-1.9531012455210313,-0.0008391469041487525,0.000206925842973045,0.0021144502816674206
41.233333333332276,0.054416906,-1.07178,0.41222736,-2.636876,0.20972079,1.3515973,1.1831416,0.03999807,0.04,-9.437493322191242,-2.294666868214494,-1.7857049430247225,-0.0026068465759030413,-0.0014119137928394613,0.0030243418923822348
41.24999999999894,0.054416906,-1.07178,0.41222736,-2.636876,0.20972079,1.3515973,1.1831416,0.03999807,0.04,-9.287600514859577,-1.9494642620619587,-1.6162954616283616,-0.003206369694898587,0.0013386638990711755,-0.006276921003576563
