rsonawane2002/My_IMU/logs_2/traj_293/imu_293.csv
time,j1,j2,j3,j4,j5,j6,j7,gripper1,gripper2,imu_ax,imu_ay,imu_az,imu_gx,imu_gy,imu_gz
465.13333333323897,0.00016700293,-0.785875,4.0107683e-05,-2.3551247,9.29385e-05,1.570997,0.786,0.04,0.04,-9.446879,-0.012268074788153172,0.09532471,-4.474784e-07,-0.0011641273740679026,6.101724e-07
465.1499999999056,0.00016701437,-0.78576016,4.0114992e-05,-2.3552213,9.2965136e-05,1.5709941,0.786,0.04,0.04,-9.834414,0.0006355802761390805,0.009100495,-6.251911e-07,-0.0022382442839443684,4.6216266e-07
465.16666666657227,0.00016708499,-0.78565425,4.012472e-05,-2.35531,9.292762e-05,1.5709913,0.786,0.04,0.04,-9.832442,0.0006811279454268515,0.007560222,-4.071305e-06,-0.0032247419003397226,-2.754879e-06
465.1833333332389,0.00016731354,-0.7855569,4.0141884e-05,-2.355391,9.272571e-05,1.5709884,0.786,0.04,0.04,-9.830599,0.0007577797514386475,0.0061863144,-1.327372e-05,-0.0041288756765425205,-1.2002122e-05
465.1999999999056,0.00016784239,-0.78546727,4.0173945e-05,-2.3554652,9.221566e-05,1.5709856,0.786,0.04,0.04,-9.828778,0.0008675272692926228,0.0049319766,-3.0287662e-05,-0.004950935486704111,-2.9868466e-05
465.2166666665722,0.00016885308,-0.7853848,4.023046e-05,-2.355532,9.121544e-05,1.5709827,0.786,0.04,0.04,-9.827211,0.0010010161204263568,0.0037441999,-5.7178015e-05,-0.0056975726038217545,-5.8693928e-05
465.2333333332389,0.00017056233,-0.7853088,4.032289e-05,-2.3555968,8.950806e-05,1.5709797,0.786,0.04,0.04,-9.825515,0.0011590155772864819,0.0026555667,-9.631986e-05,-0.006365234963595867,-0.000100551835
465.2499999999055,0.0001732184,-0.7852387,4.0464372e-05,-2.355655,8.684438e-05,1.5709767,0.786,0.04,0.04,-9.824626,0.001336173270829022,0.0016183797,-0.00014904808,-0.006981539539992809,-0.00015732841
465.2666666665722,0.00017709755,-0.78517425,4.066964e-05,-2.3557067,8.294907e-05,1.5709735,0.786,0.04,0.04,-9.823113,0.0015172758139669895,0.00062286155,-0.00021702609,-0.0075240409933030605,-0.00023070768
465.28333333323883,0.00018250105,-0.78511524,4.0954583e-05,-2.3557568,7.752864e-05,1.5709695,0.786,0.04,0.039999995,-9.82165,0.0017143365694209933,-0.0002839039,-0.00030120416,-0.007994214072823524,-0.00032141496
465.2999999999055,0.0001897525,-0.7850609,4.1336712e-05,-2.355801,7.0238944e-05,1.5709628,0.786,0.04,0.04,-9.82083,0.001900167902931571,-0.0010938011,-0.00040317033,-0.00841593835502863,-0.00043308127
465.31666666657213,0.00019919474,-0.7850108,4.183414e-05,-2.3558438,6.0746795e-05,1.5709558,0.786,0.04,0.04,-9.819557,0.0020933591295033693,-0.0018823524,-0.0005235304,-0.008779708296060562,-0.00056452653
465.3333333332388,0.00021118774,-0.78496474,4.246596e-05,-2.3558831,4.870528e-05,1.5709459,0.7860019,0.04,0.039999995,-9.818786,0.002276336308568716,-0.0026766313,-0.0006630335,-0.00909467600286007,-0.0007167569
465.34999999990544,0.00022610665,-0.78492236,4.325236e-05,-2.3559186,3.372617e-05,1.5709352,0.7860038,0.04,0.039999995,-9.817913,0.0024405333679169416,-0.003416201,-0.0008316048,-0.009363986551761627,-0.0008922716
465.3666666665721,0.0002443392,-0.78488326,4.421381e-05,-2.3559532,1.543202e-05,1.5709215,0.78600574,0.04,0.03999999,-9.816866,0.002589607611298561,-0.0041817706,-0.0010206798,-0.009574411436915398,-0.0010902797
465.38333333323874,0.0002662843,-0.7848473,4.537194e-05,-2.3559852,-6.5958097e-06,1.5709069,0.78600764,0.04,0.039999995,-9.816298,0.0027001644484698772,-0.004872031,-0.001230905,-0.009749846532940865,-0.0013137553
465.3999999999054,0.00029235013,-0.7848141,4.6748475e-05,-2.3560138,-3.2763066e-05,1.5708886,0.78600955,0.04,0.04,-9.81544,0.00279550370760262,-0.005619431,-0.0014625612,-0.00987203512340784,-0.0015616525
465.41666666657204,0.00032295226,-0.7847836,4.8365255e-05,-2.3560414,-6.346843e-05,1.5708671,0.78601146,0.04,0.039999995,-9.814607,0.00285536190494895,-0.0063110376,-0.0017158067,-0.009950402192771435,-0.0018329156
465.4333333332387,0.00035851332,-0.7847554,5.02453e-05,-2.3560684,-9.915172e-05,1.5708432,0.78601336,0.04,0.04,-9.814037,0.0028541970532387495,-0.007005971,-0.0019910152,-0.009992309845983982,-0.0021310588
465.44999999990534,0.00039946026,-0.78472936,5.2411106e-05,-2.356095,-0.0001402213,1.570816,0.7860172,0.04,0.039999995,-9.8134985,0.002820919267833233,-0.007745696,-0.0022884768,-0.009994608350098133,-0.0024532513
465.466666666572,0.00044622412,-0.7847052,5.4885815e-05,-2.3561187,-0.00018712602,1.5707849,0.786021,0.04,0.04,-9.813068,0.0027309153228998184,-0.008489681,-0.0026166153,-0.00996412429958582,-0.0028028456
465.48333333323865,0.00049923843,-0.7846829,5.7692523e-05,-2.3561409,-0.00024029065,1.5707496,0.7860248,0.04,0.04,-9.812283,0.002588355913758278,-0.009256383,-0.0029668135,-0.00988934189081192,-0.0031776538
465.4999999999053,0.00055893837,-0.7846624,6.0854556e-05,-2.356162,-0.00030014114,1.5707097,0.7860286,0.04,0.039999995,-9.81168,0.002385241212323308,-0.010013456,-0.0033391484,-0.009776757098734379,-0.0035778268
465.51666666657195,0.0006257603,-0.7846435,6.439522e-05,-2.3561826,-0.00036713114,1.5706648,0.7860343,0.04,0.04,-9.811193,0.0020975195802748203,-0.010800539,-0.0037330969,-0.009631593711674213,-0.004005759
465.5333333332386,0.00070014,-0.78462607,6.833771e-05,-2.3562026,-0.00044168884,1.5706152,0.78604,0.04,0.04,-9.810692,0.0017527067102491856,-0.011623652,-0.004157685,-0.009453634731471539,-0.004459052
465.54999999990525,0.0007825126,-0.7846097,7.270536e-05,-2.3562226,-0.00052424736,1.5705605,0.78604573,0.04,0.04,-9.810267,0.0013239430263638496,-0.012475543,-0.0046038,-0.009244032204151154,-0.0049384986
465.5666666665719,0.00087331136,-0.7845946,7.752127e-05,-2.3562427,-0.0006152408,1.5704999,0.7860524,0.04,0.04,-9.809882,0.0008146562613546848,-0.013408394,-0.005071048,-0.009004160761833191,-0.0054440196
465.58333333323856,0.0009729681,-0.7845807,8.280854e-05,-2.3562627,-0.0007151079,1.5704339,0.78606004,0.04,0.04,-9.809538,0.0002002776600420475,-0.014342871,-0.005563927,-0.008738462813198566,-0.005976263
465.5999999999052,0.0010819105,-0.78456765,8.85899e-05,-2.3562827,-0.0008242534,1.5703615,0.78606766,0.04,0.039999995,-9.809168,-0.00046693114563822746,-0.01536088,-0.006081429,-0.008442586287856102,-0.0065319664
465.61666666657186,0.0012005646,-0.78455544,9.4888244e-05,-2.3563027,-0.0009431275,1.5702827,0.78607666,0.04,0.04,-9.80882,-0.0012673125602304935,-0.016435925,-0.0066195037,-0.008121052756905556,-0.0071156737
465.6333333332385,0.0013293506,-0.78454405,0.00010172584,-2.3563228,-0.0010721331,1.5701972,0.7860862,0.04,0.04,-9.808461,-0.002153798472136259,-0.017564645,-0.0071836323,-0.007772097829729319,-0.0077232337
465.64999999990516,0.0014686865,-0.78453326,0.00010912534,-2.3563428,-0.001211715,1.5701048,0.78609616,0.04,0.04,-9.808111,-0.003164074383676052,-0.018749764,-0.0077699884,-0.0073971557430922985,-0.008358298
465.6666666665718,0.0016189843,-0.7845233,0.0001171084,-2.356363,-0.0013622573,1.5700053,0.7861076,0.04,0.04,-9.807778,-0.004259885288774967,-0.020020673,-0.00837689,-0.006996117066591978,-0.0090159355
465.68333333323847,0.0017806514,-0.7845139,0.000125697,-2.3563843,-0.0015241734,1.5698984,0.78611904,0.04,0.04,-9.807452,-0.005492383614182472,-0.021334065,-0.009009485,-0.006569447461515665,-0.009699038
465.6999999999051,0.0019540899,-0.7845049,0.00013491242,-2.356406,-0.0016978756,1.5697837,0.78613216,0.039999995,0.04,-9.807257,-0.006859252229332924,-0.022730509,-0.009660287,-0.0061224158853292465,-0.010407297
465.71666666657177,0.0021396952,-0.78449637,0.00014477607,-2.3564284,-0.0018837588,1.5696607,0.7861455,0.03999999,0.04,-9.806962,-0.008315241895616055,-0.02423104,-0.010336338,-0.005651939194649458,-0.011139581
465.7333333332384,0.0023378585,-0.7844885,0.00015530873,-2.356452,-0.002082225,1.5695295,0.7861603,0.039999984,0.04,-9.8067465,-0.009916437789797783,-0.025778383,-0.011030669,-0.005162857007235289,-0.011896339
465.74999999990507,0.002548963,-0.7844809,0.00016653081,-2.3564775,-0.002293645,1.56939,0.78617555,0.03999998,0.04,-9.806505,-0.011646448634564877,-0.027418427,-0.011748353,-0.004651735071092844,-0.012675692
465.7666666665717,0.0027733871,-0.78447366,0.00017846264,-2.356504,-0.002518398,1.5692414,0.78619224,0.039999973,0.039999995,-9.806446,-0.013519822619855404,-0.029173631,-0.01248403,-0.004125895444303751,-0.013478124
465.7833333332384,0.0030115019,-0.7844666,0.00019112376,-2.3565304,-0.0027568482,1.569084,0.78620964,0.039999966,0.039999988,-9.806276,-0.015527825802564621,-0.031006811,-0.013242191,-0.0035841092467308044,-0.0143023785
465.799999999905,0.0032636714,-0.7844597,0.00020453386,-2.3565574,-0.0030093605,1.5689172,0.78622836,0.039999958,0.03999998,-9.805912,-0.017686165869235992,-0.032958318,-0.01401832,-0.003016670700162649,-0.015148984
465.8166666665717,0.0035302534,-0.7844531,0.0002187117,-2.356585,-0.0032762934,1.5687408,0.78624797,0.039999954,0.039999977,-9.805658,-0.01999184489250183,-0.034981593,-0.014815246,-0.0024308902211487293,-0.016017562
465.83333333323833,0.0038115971,-0.78444684,0.0002336762,-2.3566132,-0.003557997,1.5685546,0.78626883,0.03999995,0.039999973,-9.805406,-0.022473713383078575,-0.03710813,-0.015630275,-0.0018249171553179622,-0.016907727
465.849999999905,0.004108047,-0.78444064,0.0002494455,-2.3566427,-0.003854814,1.5683585,0.7862907,0.039999947,0.039999973,-9.805116,-0.025072583928704262,-0.039318014,-0.016464364,-0.0011989022605121136,-0.017819967
465.86666666657163,0.004419939,-0.7844346,0.00026603785,-2.3566747,-0.004167081,1.5681525,0.7863137,0.039999943,0.03999997,-9.804994,-0.027850963175296783,-0.041656025,-0.017316172,-0.0005587359191849828,-0.01875218
465.8833333332383,0.0047476008,-0.7844287,0.00028347055,-2.3567088,-0.004495125,1.5679361,0.78633785,0.03999994,0.039999966,-9.804984,-0.0307866670191288,-0.04410324,-0.018185183,9.223233064403757e-05,-0.019704826
465.89999999990494,0.0050913524,-0.78442293,0.0003017607,-2.356743,-0.004839268,1.5677088,0.78636324,0.03999994,0.039999966,-9.804883,-0.033891573548316956,-0.0466642,-0.019070905,0.000755699526052922,-0.020677537
465.9166666665716,0.005451508,-0.78441715,0.00032092506,-2.3567781,-0.0051998254,1.5674709,0.7863897,0.03999994,0.03999997,-9.804596,-0.037176989018917084,-0.04934628,-0.019973686,0.0014376204926520586,-0.021670755
465.93333333323824,0.005828372,-0.7844114,0.00034097987,-2.356814,-0.0055771,1.5672218,0.7864175,0.03999994,0.03999997,-9.804354,-0.040624525398015976,-0.052141074,-0.020891929,0.002136501017957926,-0.022682332
465.9499999999049,0.006222243,-0.7844056,0.00036194126,-2.356851,-0.0059713935,1.5669615,0.78644663,0.03999994,0.039999984,-9.804155,-0.044300682842731476,-0.055032503,-0.021826271,0.0028494615107774734,-0.023717104
465.96666666657154,0.006633412,-0.7843998,0.00038382463,-2.3568916,-0.0063829916,1.5666898,0.7864768,0.03999994,0.039999995,-9.803954,-0.04807520657777786,-0.058070607,-0.022776185,0.0035770204849541187,-0.024768477
465.9833333332382,0.0070621613,-0.784394,0.00040664483,-2.3569334,-0.006812173,1.5664066,0.7865084,0.03999994,0.04,-9.80405,-0.05205456539988518,-0.061228655,-0.023739377,0.004308137111365795,-0.025835445
465.99999999990484,0.0075087664,-0.78438824,0.00043041667,-2.3569758,-0.007259212,1.5661114,0.78654146,0.039999936,0.04,-9.803862,-0.05623465031385422,-0.06451699,-0.024717622,0.005052242893725634,-0.02692096
466.0166666665715,0.007973494,-0.78438246,0.0004551544,-2.3570187,-0.007724375,1.5658041,0.7865757,0.039999936,0.04,-9.803614,-0.06059974431991577,-0.06792719,-0.025710126,0.005810657981783152,-0.028022852
466.03333333323815,0.008456603,-0.7843767,0.0004808718,-2.3570633,-0.008207915,1.5654849,0.78661114,0.039999936,0.04,-9.803332,-0.06515857577323914,-0.071458295,-0.026715005,0.006583683658391237,-0.029141657
466.0499999999048,0.008958344,-0.7843709,0.00050758215,-2.3571122,-0.008710093,1.5651534,0.7866482,0.039999936,0.04,-9.803162,-0.06990984082221985,-0.07512431,-0.02773202,0.007368846330791712,-0.030276947
466.06666666657145,0.009478963,-0.7843649,0.00053529866,-2.3571618,-0.009231149,1.5648094,0.78668666,0.039999936,0.04,-9.8033695,-0.07486235350370407,-0.07893135,-0.028762134,0.00815053191035986,-0.031428374
466.0833333332381,0.010018691,-0.7843588,0.00056403404,-2.3572118,-0.009771318,1.5644528,0.78672636,0.039999936,0.04,-9.803132,-0.08003342896699905,-0.082893655,-0.029804148,0.0089454036206007,-0.032595485
466.09999999990475,0.010577757,-0.78435266,0.0005938,-2.3572626,-0.010330831,1.5640833,0.7867675,0.03999993,0.039999995,-9.802803,-0.08536608517169952,-0.08698078,-0.030856457,0.00975391361862421,-0.033778697
466.1166666665714,0.011156383,-0.78434634,0.0006246087,-2.3573163,-0.010909926,1.5637013,0.7868102,0.03999993,0.039999995,-9.802497,-0.09091273695230484,-0.09119059,-0.03191962,0.010575937107205391,-0.034975898
466.13333333323806,0.011754785,-0.78433985,0.0006564713,-2.3573732,-0.011508801,1.5633057,0.7868543,0.03999993,0.039999995,-9.802503,-0.09667977690696716,-0.095561355,-0.03299363,0.011401071213185787,-0.03618847
466.1499999999047,0.012373165,-0.7843332,0.00068939885,-2.357431,-0.012127651,1.5628972,0.78689986,0.039999925,0.039999995,-9.802595,-0.10264953970909119,-0.10006962,-0.034077007,0.01222279667854309,-0.037415154
466.16666666657136,0.013011718,-0.7843264,0.00072340167,-2.3574893,-0.012766705,1.5624753,0.78694695,0.03999992,0.04,-9.802242,-0.10883686691522598,-0.10473781,-0.035169363,0.0130579499527812,-0.038657114
466.183333333238,0.013670636,-0.7843195,0.00075849023,-2.3575492,-0.013426159,1.5620399,0.7869955,0.03999992,0.04,-9.801963,-0.11523552238941193,-0.10954097,-0.0362708,0.01390338409692049,-0.039913073
466.19999999990466,0.014350098,-0.7843126,0.00079467363,-2.3576133,-0.014106146,1.5615909,0.7870455,0.03999992,0.04,-9.801763,-0.12185171246528625,-0.11445609,-0.037380423,0.01475521270185709,-0.041178677
466.2166666665713,0.015050273,-0.78430563,0.0008319614,-2.3576787,-0.01480686,1.5611281,0.7870971,0.039999917,0.04,-9.801851,-0.12865841388702393,-0.11956448,-0.038497288,0.01560269296169281,-0.04245862
466.23333333323797,0.015771337,-0.7842986,0.00087036233,-2.3577447,-0.015528473,1.5606517,0.78715026,0.039999917,0.04,-9.801592,-0.13569754362106323,-0.12480131,-0.039621897,0.016456926241517067,-0.04374986
466.2499999999046,0.016513444,-0.78429127,0.0009098853,-2.3578115,-0.01627114,1.5601609,0.78720504,0.039999913,0.04,-9.801233,-0.14296378195285797,-0.13020425,-0.040753227,0.017321648076176643,-0.04505371
466.26666666657127,0.017276743,-0.7842838,0.0009505379,-2.357883,-0.017035011,1.559657,0.7872613,0.039999913,0.04,-9.800882,-0.1504405289888382,-0.13574377,-0.041891526,0.01819402538239956,-0.046368066
466.2833333332379,0.018061379,-0.78427625,0.0009923278,-2.357956,-0.017820226,1.5591385,0.78731906,0.03999991,0.04,-9.801026,-0.1581583470106125,-0.14146161,-0.043034963,0.019059471786022186,-0.047693677
466.29999999990457,0.018867493,-0.7842685,0.0010352625,-2.3580296,-0.018626941,1.5586061,0.78737843,0.039999906,0.04,-9.8007345,-0.1660972535610199,-0.14731184,-0.04418323,0.01992890052497387,-0.049031477
466.3166666665712,0.019695219,-0.7842606,0.0010793494,-2.3581045,-0.0194553,1.5580595,0.78743947,0.03999992,0.04,-9.800333,-0.1743055135011673,-0.1533358,-0.04533669,0.02080710232257843,-0.05038799
466.3333333332379,0.020544672,-0.7842522,0.001124594,-2.3581839,-0.020305349,1.5574983,0.78750217,0.03999992,0.04,-9.800024,-0.18265503644943237,-0.15947807,-0.04649478,0.0216900072991848,-0.05174354
466.3499999999045,0.02141596,-0.78424364,0.0011710025,-2.3582644,-0.021177243,1.5569228,0.78756636,0.039999917,0.04,-9.8000765,-0.19124993681907654,-0.16582733,-0.04765696,0.022561674937605858,-0.0531097
466.3666666665712,0.02230919,-0.78423494,0.0012185806,-2.3583457,-0.0220711,1.5563328,0.78763217,0.039999913,0.04,-9.799734,-0.20009589195251465,-0.17232673,-0.048821986,0.023436713963747025,-0.05448586
466.38333333323783,0.023224471,-0.7842262,0.0012673342,-2.3584297,-0.022987014,1.5557282,0.7876996,0.039999906,0.04,-9.799229,-0.20916898548603058,-0.17897677,-0.049990207,0.024320289492607117,-0.055870973
466.3999999999045,0.024161888,-0.7842173,0.0013172678,-2.358517,-0.023925094,1.5551088,0.7877687,0.0399999,0.04,-9.799032,-0.21848516166210175,-0.18576029,-0.051160373,0.02519957907497883,-0.057264477
466.41666666657113,0.025121525,-0.7842082,0.0013683859,-2.3586051,-0.024885388,1.5544747,0.78783953,0.039999895,0.04,-9.798877,-0.2280179262161255,-0.19271675,-0.052333027,0.026071831583976746,-0.058664624
466.4333333332378,0.026103472,-0.7841989,0.0014206924,-2.3586943,-0.02586799,1.553826,0.7879119,0.03999989,0.04,-9.798356,-0.2377910166978836,-0.1998573,-0.0535077,0.026950176805257797,-0.06007347
466.44999999990443,0.027107794,-0.78418946,0.0014741917,-2.3587887,-0.026872972,1.5531623,0.78798586,0.039999887,0.04,-9.797897,-0.24782952666282654,-0.2071244,-0.05468269,0.02783067896962166,-0.061489742
466.4666666665711,0.02813455,-0.7841799,0.0015288866,-2.358884,-0.02790041,1.5524839,0.7880615,0.039999884,0.04,-9.797907,-0.2580608129501343,-0.21458986,-0.055857852,0.028695465996861458,-0.06291423
466.48333333323774,0.02918381,-0.78417003,0.0015847811,-2.35898,-0.02895036,1.5517908,0.7881388,0.03999988,0.04,-9.797325,-0.2685387432575226,-0.22220387,-0.057033405,0.02956395596265793,-0.06434535
466.4999999999044,0.030255621,-0.78415984,0.0016418778,-2.3590767,-0.030022867,1.551083,0.7882178,0.039999876,0.04,-9.79672,-0.27924829721450806,-0.2299969,-0.058208935,0.030437102541327477,-0.06578287
466.51666666657104,0.03135002,-0.78414947,0.0017001781,-2.359179,-0.031117968,1.5503602,0.7882985,0.039999876,0.04,-9.796133,-0.2902003228664398,-0.23792523,-0.05938383,0.031312357634305954,-0.0672264
466.5333333332377,0.032467037,-0.7841389,0.0017596846,-2.359282,-0.032235708,1.5496227,0.78838086,0.03999987,0.04,-9.796092,-0.3014064431190491,-0.24602583,-0.060557358,0.03216826543211937,-0.068675935
466.54999999990434,0.03360673,-0.7841282,0.0018203991,-2.3593855,-0.03337612,1.5488698,0.7884648,0.03999986,0.04,-9.795427,-0.31282761693000793,-0.2542957,-0.06172945,0.03302720934152603,-0.070130885
466.566666666571,0.03476911,-0.7841174,0.0018823222,-2.3594904,-0.03453924,1.5481019,0.78855044,0.039999858,0.04,-9.794654,-0.32449769973754883,-0.26270133,-0.06289909,0.03388923034071922,-0.071591616
466.58333333323765,0.03595418,-0.78410643,0.0019454558,-2.3596003,-0.03572508,1.5473193,0.78863776,0.039999858,0.04,-9.794004,-0.33642250299453735,-0.27124915,-0.06406669,0.03474980592727661,-0.07305618
466.5999999999043,0.037161972,-0.7840953,0.0020097995,-2.3597114,-0.03693362,1.5465215,0.78872675,0.03999985,0.04,-9.793793,-0.34855347871780396,-0.28000754,-0.06523076,0.03559296950697899,-0.07452539
466.61666666657095,0.03839248,-0.78408396,0.0020753543,-2.3598228,-0.038164902,1.545709,0.7888174,0.039999846,0.04,-9.793041,-0.3609355092048645,-0.2889215,-0.06639138,0.03643468767404556,-0.07599874
466.6333333332376,0.039645694,-0.7840724,0.00214212,-2.35994,-0.039418906,1.5448813,0.78890973,0.039999846,0.04,-9.792129,-0.37354379892349243,-0.2979778,-0.06754873,0.03728028014302254,-0.0774749
466.64999999990425,0.04092162,-0.7840603,0.002210095,-2.360058,-0.040695623,1.5440387,0.7890038,0.039999843,0.04,-9.791957,-0.3864288330078125,-0.30721864,-0.068701036,0.03810083121061325,-0.0789556
466.6666666665709,0.042220235,-0.784048,0.0022792793,-2.3601768,-0.04199503,1.543181,0.78909945,0.03999984,0.04,-9.791034,-0.39952465891838074,-0.31665573,-0.06984936,0.038921043276786804,-0.08043942
466.68333333323756,0.043541517,-0.7840355,0.002349672,-2.360296,-0.043317117,1.542308,0.7891968,0.039999835,0.04,-9.790106,-0.4128608703613281,-0.3262143,-0.07099222,0.03973991423845291,-0.08192593
466.6999999999042,0.044885453,-0.78402287,0.0024212725,-2.360421,-0.044661887,1.5414202,0.78929585,0.039999828,0.04,-9.789123,-0.4264662563800812,-0.33590093,-0.07213008,0.0405566543340683,-0.08341643
466.71666666657086,0.046252005,-0.7840102,0.0024940763,-2.3605468,-0.046029292,1.5405176,0.7893966,0.039999824,0.04,-9.788706,-0.4402710199356079,-0.3457928,-0.07326174,0.041351355612277985,-0.08490838
466.7333333332375,0.04764113,-0.78399724,0.0025680836,-2.3606734,-0.04741931,1.5395999,0.789499,0.03999984,0.04,-9.787633,-0.4543696939945221,-0.35583428,-0.07438727,0.0421450100839138,-0.08641123
466.74999999990416,0.04905279,-0.7839841,0.0026432914,-2.3608012,-0.048831824,1.5386673,0.789603,0.039999835,0.04,-9.786542,-0.4685859680175781,-0.36603203,-0.07550634,0.04293489083647728,-0.087903954
466.7666666665708,0.050486926,-0.78397095,0.0027196966,-2.3609343,-0.050266836,1.5377198,0.7897086,0.039999828,0.04,-9.785419,-0.48312216997146606,-0.3763753,-0.07661843,0.04372166842222214,-0.08940027
466.78333333323747,0.051943474,-0.7839575,0.0027972981,-2.361068,-0.051724274,1.5367577,0.7898159,0.039999828,0.04,-9.784801,-0.49789565801620483,-0.38688013,-0.077722065,0.04448453336954117,-0.090896845
466.7999999999041,0.053422384,-0.78394365,0.0028760908,-2.3612022,-0.053204075,1.5357805,0.78992486,0.03999982,0.04,-9.783525,-0.5128883719444275,-0.39757183,-0.07881825,0.045245587825775146,-0.09239479
466.81666666657077,0.054923594,-0.78392965,0.0029560705,-2.3613403,-0.05470618,1.5347891,0.7900355,0.039999813,0.04,-9.782244,-0.5281156301498413,-0.40840456,-0.079906456,0.04600169137120247,-0.09389286
466.8333333332374,0.05644701,-0.78391546,0.0030372343,-2.361481,-0.056230497,1.5337825,0.79014784,0.039999805,0.04,-9.781262,-0.5436151027679443,-0.41938695,-0.080986224,0.046742092818021774,-0.095389366
466.84999999990407,0.05799257,-0.7839011,0.0031195777,-2.3616223,-0.05777695,1.5327617,0.79026175,0.0399998,0.04,-9.7801,-0.5592954754829407,-0.43053648,-0.08205703,0.0474683903157711,-0.09688644
466.8666666665707,0.059560183,-0.7838867,0.0032030959,-2.3617647,-0.059345476,1.5317262,0.7903773,0.039999798,0.04,-9.778593,-0.5752244591712952,-0.44184506,-0.0831182,0.04819324612617493,-0.09838352
466.8833333332374,0.061149765,-0.78387195,0.0032877848,-2.3619118,-0.060935996,1.5306765,0.7904944,0.039999783,0.04,-9.77713,-0.5913810729980469,-0.45327383,-0.08417082,0.048911456018686295,-0.09988035
466.899999999904,0.0627612,-0.7838569,0.003373638,-2.3620603,-0.06254841,1.5296123,0.7906131,0.039999783,0.04,-9.7760725,-0.607791543006897,-0.4648868,-0.08521161,0.049606747925281525,-0.101374835
466.9166666665707,0.06439442,-0.78384185,0.0034606517,-2.3622096,-0.064182565,1.5285336,0.79073346,0.039999776,0.04,-9.774499,-0.6244038939476013,-0.4766597,-0.08624265,0.05029413849115372,-0.10286625
466.93333333323733,0.06604928,-0.7838265,0.003548819,-2.36236,-0.06583838,1.5274405,0.79085535,0.039999764,0.04,-9.772815,-0.6412571668624878,-0.48854756,-0.08726297,0.050975680351257324,-0.104357295
466.949999999904,0.067725696,-0.78381085,0.0036381346,-2.3625152,-0.06751579,1.5263331,0.79097885,0.03999976,0.04,-9.771126,-0.6583568453788757,-0.50058234,-0.088272795,0.05164870619773865,-0.105845995
466.96666666657063,0.06942356,-0.78379494,0.0037285916,-2.3626711,-0.0692146,1.5252115,0.7911039,0.039999757,0.04,-9.769809,-0.6756572127342224,-0.5128034,-0.08927016,0.05229616165161133,-0.107331395
466.9833333332373,0.07114271,-0.7837789,0.0038201835,-2.362828,-0.070934765,1.5240757,0.79123056,0.039999753,0.04,-9.767942,-0.6931860446929932,-0.5251559,-0.090255864,0.0529361329972744,-0.108815506
466.99999999990393,0.07288307,-0.78376275,0.003912904,-2.362987,-0.07267611,1.5229264,0.7913588,0.03999975,0.04,-9.765997,-0.7109262347221375,-0.53764683,-0.09123025,0.05356866866350174,-0.11029622
467.0166666665706,0.074644454,-0.7837465,0.0040067458,-2.3631501,-0.07443853,1.521763,0.79148865,0.039999742,0.04,-9.764118,-0.7289035320281982,-0.550286,-0.09219212,0.05419093742966652,-0.11177263
467.03333333323724,0.07642675,-0.78373003,0.0041017025,-2.3633134,-0.07622189,1.5205855,0.79161996,0.039999757,0.04,-9.762454,-0.7471668124198914,-0.56306076,-0.09314105,0.05478937551379204,-0.11325419
467.0499999999039,0.07822983,-0.7837134,0.0041977656,-2.3634777,-0.078026004,1.5193944,0.7917529,0.039999753,0.04,-9.760205,-0.7655054330825806,-0.57597625,-0.094077155,0.05538249760866165,-0.11472174
467.06666666657054,0.08005354,-0.7836966,0.0042949277,-2.3636441,-0.07985075,1.5181901,0.7918873,0.039999746,0.04,-9.758016,-0.7841336131095886,-0.5890245,-0.09500073,0.05596580728888512,-0.11618483
467.0833333332372,0.081897706,-0.7836796,0.004393178,-2.3638148,-0.08169598,1.516972,0.7920232,0.03999974,0.04,-9.755821,-0.8030032515525818,-0.60221416,-0.09591075,0.05653830245137215,-0.117643885
467.09999999990384,0.0837622,-0.78366226,0.004492511,-2.3639858,-0.083561525,1.5157405,0.7921605,0.03999973,0.04,-9.753912,-0.8220714926719666,-0.6155575,-0.096805416,0.05708368495106697,-0.11909805
467.1166666665705,0.08564686,-0.7836447,0.004592918,-2.3641577,-0.085447244,1.5144956,0.79229945,0.039999727,0.04,-9.751374,-0.841326117515564,-0.6290404,-0.0976864,0.05762237682938576,-0.12054671
467.13333333323715,0.0875515,-0.783627,0.0046943887,-2.3643317,-0.08735299,1.5132377,0.7924399,0.039999716,0.04,-9.748853,-0.8608028888702393,-0.6426392,-0.09855382,0.05815061926841736,-0.12198963
467.1499999999038,0.08947595,-0.78360903,0.004796915,-2.3645093,-0.089278534,1.5119667,0.79258174,0.039999712,0.04,-9.746376,-0.8804896473884583,-0.6563639,-0.099406466,0.05866473540663719,-0.12342555
467.16666666657045,0.091420054,-0.7835909,0.00490049,-2.3646877,-0.091223724,1.5106828,0.792725,0.0399997,0.04,-9.744009,-0.9004222750663757,-0.67023915,-0.100243546,0.059156566858291626,-0.12485699
467.1833333332371,0.093383625,-0.78357273,0.0050051,-2.3648667,-0.09318843,1.509386,0.7928697,0.039999697,0.04,-9.741179,-0.9205111265182495,-0.68423086,-0.10106552,0.059639498591423035,-0.12628081
467.19999999990375,0.0953665,-0.7835544,0.0051107374,-2.3650482,-0.09517243,1.5080763,0.79301584,0.039999686,0.04,-9.738293,-0.9408291578292847,-0.69831645,-0.10187238,0.06011209264397621,-0.12769838
467.2166666665704,0.09736847,-0.7835359,0.0052173915,-2.3652325,-0.09717553,1.5067538,0.79316336,0.03999968,0.04,-9.7355,-0.9613204598426819,-0.7125567,-0.10266352,0.0605674609541893,-0.12910771
467.23333333323706,0.09938935,-0.7835173,0.005325054,-2.3654182,-0.09919754,1.5054189,0.7933122,0.03999967,0.04,-9.732702,-0.9820414781570435,-0.72691154,-0.103438064,0.061002008616924286,-0.13050972
467.2499999999037,0.101428956,-0.78349847,0.0054337117,-2.3656046,-0.10123824,1.504072,0.7934626,0.03999966,0.04,-9.72959,-1.002936601638794,-0.7413933,-0.10419616,0.061424314975738525,-0.13190381
467.26666666657036,0.10348706,-0.7834794,0.005543354,-2.3657923,-0.10329752,1.5027124,0.79361415,0.03999965,0.04,-9.726326,-1.0240331888198853,-0.75600016,-0.10493909,0.06183718517422676,-0.13329051
467.283333333237,0.10556347,-0.7834601,0.0056539723,-2.3659828,-0.1053751,1.501341,0.7937672,0.03999965,0.04,-9.723045,-1.0453096628189087,-0.7706923,-0.1056646,0.062234580516815186,-0.1346675
467.29999999990366,0.107657984,-0.7834406,0.0057655545,-2.3661761,-0.1074708,1.4999577,0.79392153,0.039999645,0.04,-9.719857,-1.0668209791183472,-0.7855402,-0.106373586,0.06261217594146729,-0.13603811
467.3166666665703,0.10977041,-0.78342104,0.0058780895,-2.3663697,-0.10958438,1.4985628,0.79407716,0.03999965,0.04,-9.716568,-1.0885350704193115,-0.8004886,-0.10706463,0.06296949088573456,-0.13740368
467.33333333323696,0.11190049,-0.7834014,0.0059915646,-2.366564,-0.111715704,1.4971561,0.79423416,0.039999645,0.04,-9.712826,-1.1103543043136597,-0.81552684,-0.10773883,0.06331958621740341,-0.13875495
467.3499999999036,0.114048034,-0.7833816,0.0061059687,-2.3667603,-0.11386445,1.4957379,0.7943924,0.03999964,0.04,-9.709057,-1.1323374509811401,-0.8306629,-0.10839655,0.06365849822759628,-0.1400938
467.36666666657027,0.11621282,-0.78336155,0.0062212907,-2.3669596,-0.11603043,1.494308,0.79455197,0.03999963,0.04,-9.705369,-1.15457284450531,-0.8459166,-0.1090361,0.06397926062345505,-0.1414243
467.3833333332369,0.1183946,-0.7833413,0.006337518,-2.3671606,-0.11821342,1.4928669,0.7947127,0.039999623,0.04,-9.701698,-1.1769793033599854,-0.86128837,-0.10965753,0.06427724659442902,-0.1427438
467.39999999990357,0.12059315,-0.78332084,0.006454638,-2.3673618,-0.120413184,1.4914149,0.79487467,0.03999961,0.04,-9.697741,-1.1995482444763184,-0.87676835,-0.11026053,0.06455846130847931,-0.14405252
467.4166666665702,0.122808255,-0.78330034,0.0065726396,-2.367564,-0.12262952,1.4899523,0.7950378,0.039999604,0.04,-9.693536,-1.2222816944122314,-0.8923263,-0.11084573,0.06482964754104614,-0.14535086
467.4333333332369,0.12503968,-0.7832796,0.0066915075,-2.367768,-0.124862194,1.4884789,0.7952023,0.0399996,0.04,-9.689239,-1.2451753616333008,-0.9079697,-0.11141305,0.06509047001600266,-0.14663702
467.4499999999035,0.12728718,-0.7832587,0.006811233,-2.3679748,-0.12711094,1.486994,0.79536784,0.039999582,0.04,-9.685005,-1.2682868242263794,-0.92371696,-0.111962415,0.06533271819353104,-0.14791317
467.4666666665702,0.12955053,-0.7832376,0.006931798,-2.368183,-0.1293755,1.4854978,0.7955346,0.03999958,0.04,-9.680731,-1.291515588760376,-0.9395521,-0.11249129,0.06555178016424179,-0.1491749
467.4833333332368,0.1318294,-0.78321636,0.0070531936,-2.3683918,-0.13165563,1.483993,0.7957026,0.039999567,0.04,-9.676255,-1.3149387836456299,-0.95547956,-0.11300183,0.06574928015470505,-0.15042627
467.4999999999035,0.13412362,-0.7831951,0.007175404,-2.3686016,-0.13395111,1.4824773,0.7958717,0.039999567,0.04,-9.671471,-1.338479995727539,-0.9715276,-0.113494724,0.0659424215555191,-0.15166408
467.51666666657013,0.13643296,-0.7831737,0.007298417,-2.3688126,-0.1362617,1.4809523,0.79604185,0.039999556,0.04,-9.666688,-1.3621935844421387,-0.98760366,-0.11396828,0.06611800938844681,-0.15288906
467.5333333332368,0.13875708,-0.78315216,0.007422218,-2.3690262,-0.13858709,1.479417,0.79621315,0.039999537,0.04,-9.661759,-1.3860729932785034,-1.003787,-0.11442302,0.06628218293190002,-0.15410218
467.54999999990343,0.14109577,-0.7831306,0.007546795,-2.3692415,-0.14092709,1.4778725,0.7963856,0.039999533,0.04,-9.656916,-1.4101133346557617,-1.0200402,-0.11485785,0.06642290204763412,-0.15530124
467.5666666665701,0.14344878,-0.78310883,0.0076721315,-2.3694572,-0.14328134,1.4763179,0.79655904,0.03999952,0.04,-9.651833,-1.4343018531799316,-1.0363822,-0.115273654,0.06654844433069229,-0.15648696
467.58333333323674,0.1458158,-0.78308684,0.007798213,-2.3696735,-0.14564963,1.4747545,0.79673344,0.039999515,0.04,-9.646501,-1.4585968255996704,-1.0527743,-0.11567013,0.06665921956300735,-0.15765677
467.5999999999034,0.14819656,-0.7830648,0.007925026,-2.3698912,-0.14803176,1.4731821,0.7969089,0.0399995,0.04,-9.641019,-1.4830451011657715,-1.0692669,-0.116047144,0.06676008552312851,-0.15881442
467.61666666657004,0.15059082,-0.7830425,0.008052556,-2.3701103,-0.15042733,1.4716007,0.7970854,0.03999949,0.04,-9.635576,-1.507620930671692,-1.0858037,-0.11640516,0.06684443354606628,-0.15995471
467.6333333332367,0.15299833,-0.7830202,0.008180792,-2.3703315,-0.15283614,1.4700103,0.7972628,0.03999949,0.04,-9.630001,-1.5323835611343384,-1.1024134,-0.116743535,0.06691110134124756,-0.16108416
467.64999999990334,0.15541878,-0.7829977,0.008309718,-2.370554,-0.15525797,1.4684116,0.7974412,0.03999948,0.04,-9.624374,-1.5572794675827026,-1.119079,-0.11706084,0.06695776432752609,-0.1621998
467.66666666657,0.15785192,-0.78297514,0.0084393155,-2.3707771,-0.15769246,1.4668046,0.7976205,0.03999948,0.04,-9.618499,-1.5822559595108032,-1.1358275,-0.11735883,0.06699033826589584,-0.16329746
467.68333333323665,0.16029747,-0.78295225,0.008569575,-2.3710012,-0.16013929,1.4651893,0.79780066,0.03999947,0.04,-9.612468,-1.6073644161224365,-1.1526071,-0.117636785,0.0670093446969986,-0.16437742
467.6999999999033,0.16275507,-0.7829293,0.008700474,-2.371226,-0.16259828,1.4635661,0.79798174,0.03999946,0.04,-9.606315,-1.6326087713241577,-1.1694634,-0.117894925,0.0670132040977478,-0.1654423
467.71666666656995,0.16522451,-0.78290635,0.008832003,-2.371452,-0.16506912,1.4619349,0.79816383,0.03999945,0.04,-9.600037,-1.657942295074463,-1.1863468,-0.11813381,0.06700382381677628,-0.16648902
467.7333333332366,0.16770549,-0.7828833,0.008964144,-2.3716798,-0.16755147,1.4602962,0.7983467,0.03999944,0.04,-9.593676,-1.683434247970581,-1.2032796,-0.11835328,0.06697867810726166,-0.16752054
467.74999999990325,0.17019768,-0.78286016,0.009096881,-2.371909,-0.17004503,1.4586499,0.7985304,0.039999433,0.04,-9.587252,-1.7090226411819458,-1.2202705,-0.11855195,0.06693550199270248,-0.16853265
467.7666666665699,0.17270088,-0.78283703,0.009230203,-2.3721387,-0.17254956,1.4569964,0.7987149,0.03999942,0.04,-9.580664,-1.7347426414489746,-1.237311,-0.118730225,0.06687551736831665,-0.1695301
467.78333333323656,0.17521472,-0.7828138,0.009364088,-2.372369,-0.17506477,1.4553361,0.7989002,0.039999403,0.04,-9.573849,-1.7605369091033936,-1.2543586,-0.11888879,0.06680324673652649,-0.17050879
467.7999999999032,0.17773892,-0.7827905,0.009498525,-2.3726,-0.17759034,1.4536688,0.79908615,0.039999396,0.04,-9.5669155,-1.7864230871200562,-1.2714684,-0.11902804,0.0667177066206932,-0.17146814
467.81666666656986,0.18027316,-0.78276706,0.009633496,-2.372832,-0.18012601,1.451995,0.7992729,0.03999938,0.04,-9.559843,-1.8124486207962036,-1.2886024,-0.11914711,0.06661929190158844,-0.17241329
467.8333333332365,0.18281715,-0.78274363,0.009768988,-2.3730648,-0.18267141,1.4503148,0.7994604,0.03999937,0.04,-9.552664,-1.8385370969772339,-1.3057673,-0.119246475,0.06650729477405548,-0.17333734
467.84999999990316,0.18537061,-0.78272,0.009904977,-2.373299,-0.1852263,1.4486282,0.7996486,0.039999362,0.04,-9.545369,-1.8647215366363525,-1.3229605,-0.11932646,0.06638205796480179,-0.17424227
467.8666666665698,0.18793325,-0.78269637,0.010041452,-2.373534,-0.18779029,1.4469359,0.79983747,0.039999347,0.04,-9.538029,-1.8910248279571533,-1.340187,-0.11938571,0.06623884290456772,-0.17512901
467.88333333323646,0.19050469,-0.7826726,0.010178399,-2.37377,-0.19036323,1.4452374,0.800027,0.039999332,0.04,-9.530483,-1.917407751083374,-1.3574411,-0.1194252,0.06608282029628754,-0.17599712
467.8999999999031,0.19308467,-0.7826487,0.010315797,-2.3740072,-0.19294462,1.4435333,0.80021703,0.039999325,0.04,-9.522825,-1.943846344947815,-1.3746989,-0.119444884,0.06591006368398666,-0.17684312
467.91666666656977,0.19567287,-0.78262484,0.010453637,-2.3742447,-0.1955343,1.4418237,0.8004078,0.039999314,0.04,-9.515054,-1.970409870147705,-1.3920019,-0.11944378,0.0657225251197815,-0.1776731
467.9333333332364,0.19826905,-0.7826008,0.01059189,-2.3744824,-0.1981319,1.4401093,0.80059916,0.03999929,0.04,-9.507049,-1.9970028400421143,-1.4092807,-0.11942429,0.06552305072546005,-0.17848171
467.94999999990307,0.20087276,-0.78257674,0.010730547,-2.3747208,-0.20073707,1.4383895,0.800791,0.03999929,0.04,-9.498877,-2.0236551761627197,-1.426603,-0.119385116,0.06531441956758499,-0.17926785
467.9666666665697,0.20348375,-0.7825526,0.010869593,-2.3749597,-0.2033495,1.4366649,0.8009834,0.039999276,0.04,-9.490674,-2.0504021644592285,-1.4439086,-0.11932719,0.06509104371070862,-0.1800355
467.9833333332364,0.20610175,-0.78252834,0.011009007,-2.375199,-0.20596893,1.4349358,0.80117637,0.039999254,0.04,-9.482338,-2.0772271156311035,-1.461229,-0.11924933,0.0648547112941742,-0.18078399
467.999999999903,0.20872638,-0.78250384,0.011148775,-2.3754396,-0.20859502,1.4332023,0.8013697,0.03999925,0.04,-9.473817,-2.1040658950805664,-1.4785484,-0.119152285,0.06460708379745483,-0.18150815
468.0166666665697,0.21135737,-0.78247935,0.011288879,-2.3756812,-0.21122748,1.4314642,0.80156356,0.039999235,0.04,-9.465296,-2.131030559539795,-1.4958917,-0.119035214,0.06434325128793716,-0.18221332
468.0333333332363,0.21399437,-0.7824548,0.011429301,-2.375923,-0.21386595,1.4297223,0.80175793,0.039999217,0.04,-9.456601,-2.158025026321411,-1.5132086,-0.11889873,0.0640639066696167,-0.18289772
468.049999999903,0.2166371,-0.78243023,0.011570025,-2.3761656,-0.21651012,1.4279767,0.8019527,0.039999202,0.04,-9.447683,-2.1850380897521973,-1.5305259,-0.11874402,0.0637740045785904,-0.18355912
468.06666666656963,0.2192852,-0.7824057,0.011711033,-2.376409,-0.21915966,1.4262273,0.8021479,0.039999194,0.04,-9.43874,-2.212127923965454,-1.5478481,-0.118569404,0.0634712427854538,-0.1841975
468.0833333332363,0.2219384,-0.78238094,0.01185231,-2.3766532,-0.2218143,1.4244751,0.8023434,0.039999176,0.04,-9.429622,-2.2392547130584717,-1.5651385,-0.11837628,0.06315366178750992,-0.18481573
468.09999999990293,0.2245963,-0.7823562,0.011993835,-2.3768976,-0.22447371,1.4227196,0.80253917,0.039999157,0.04,-9.420408,-2.2664377689361572,-1.5824686,-0.11816349,0.06282556056976318,-0.18541172
468.1166666665696,0.2272586,-0.7823315,0.012135595,-2.3771422,-0.22713748,1.4209611,0.8027354,0.039999153,0.04,-9.411007,-2.2936019897460938,-1.5997212,-0.11793198,0.062485333532094955,-0.18598142
468.13333333323624,0.22992496,-0.7823068,0.012277569,-2.3773868,-0.22980532,1.4192,0.8029319,0.039999135,0.04,-9.401434,-2.3208372592926025,-1.6169581,-0.117683515,0.06213625147938728,-0.18653171
468.1499999999029,0.23259513,-0.78228205,0.012419739,-2.3776314,-0.23247689,1.4174364,0.8031287,0.03999912,0.04,-9.391782,-2.3480865955352783,-1.6341822,-0.11741653,0.061776116490364075,-0.18705824
468.16666666656954,0.2352687,-0.7822573,0.012562092,-2.3778763,-0.23515196,1.4156703,0.8033258,0.039999094,0.04,-9.381965,-2.3753702640533447,-1.6513728,-0.11713213,0.061407335102558136,-0.1875636
468.1833333332362,0.23794536,-0.7822325,0.012704609,-2.3781214,-0.23783009,1.4139024,0.803523,0.03999909,0.04,-9.372027,-2.402625560760498,-1.6685205,-0.11683023,0.06102871522307396,-0.18804136
468.19999999990284,0.24062479,-0.7822078,0.012847272,-2.3783667,-0.24051104,1.4121326,0.8037204,0.03999908,0.04,-9.362038,-2.42997145652771,-1.6856687,-0.11650984,0.06063941866159439,-0.1884986
468.2166666665695,0.24330668,-0.7821831,0.012990062,-2.378612,-0.24319443,1.4103612,0.803918,0.03999906,0.04,-9.351866,-2.457288980484009,-1.7027516,-0.11617276,0.060241226106882095,-0.18893181
468.23333333323615,0.24599065,-0.7821584,0.013132962,-2.3788576,-0.24587992,1.4085883,0.8041157,0.03999904,0.04,-9.341617,-2.484638214111328,-1.7198073,-0.11581773,0.05983272194862366,-0.1893412
468.2499999999028,0.24867646,-0.78213364,0.013275957,-2.3791034,-0.24856724,1.4068145,0.80431366,0.039999038,0.04,-9.331217,-2.5119576454162598,-1.7368202,-0.11544583,0.05941513553261757,-0.18972528
468.26666666656945,0.25136372,-0.7821089,0.013419026,-2.3793495,-0.25125596,1.4050395,0.8045118,0.039999016,0.04,-9.320734,-2.539339780807495,-1.7538093,-0.11505701,0.05898822844028473,-0.1900878
468.2833333332361,0.25405213,-0.78208405,0.013562154,-2.3795955,-0.25394592,1.4032639,0.8047099,0.039999,0.04,-9.310123,-2.566667079925537,-1.7707336,-0.11465195,0.05855138972401619,-0.19042385
468.29999999990275,0.25674134,-0.78205913,0.013705321,-2.3798416,-0.25663662,1.401488,0.8049081,0.039998982,0.04,-9.299383,-2.594014883041382,-1.7876307,-0.11422962,0.058105457574129105,-0.19073479
468.3166666665694,0.2594309,-0.7820342,0.0138485115,-2.3800876,-0.25932777,1.3997114,0.80510634,0.039998975,0.04,-9.288541,-2.6213512420654297,-1.8044723,-0.11379081,0.05765131860971451,-0.19102137
468.33333333323606,0.26212066,-0.78200924,0.013991707,-2.3803341,-0.2620191,1.3979348,0.8053046,0.039998956,0.04,-9.277563,-2.6486454010009766,-1.8212506,-0.113336354,0.05718717351555824,-0.19128409
468.3499999999027,0.26481026,-0.7819843,0.014134892,-2.3805807,-0.2647102,1.3961583,0.8055028,0.03999894,0.04,-9.266568,-2.6759865283966064,-1.8380007,-0.11286508,0.056712858378887177,-0.19152054
468.36666666656936,0.26749933,-0.7819595,0.014278045,-2.380827,-0.2674007,1.3943824,0.805701,0.03999892,0.04,-9.2553625,-2.703265428543091,-1.8546658,-0.11237777,0.05623091384768486,-0.19173217
468.383333333236,0.2701876,-0.7819346,0.014421152,-2.3810732,-0.27009043,1.3926069,0.80589914,0.0399989,0.04,-9.244045,-2.730526924133301,-1.8712686,-0.11187566,0.05574290081858635,-0.1919187
468.39999999990266,0.27287456,-0.78190976,0.014564194,-2.3813195,-0.27277896,1.3908321,0.8060972,0.039998885,0.04,-9.232654,-2.7577710151672363,-1.8878231,-0.11135811,0.055246610194444656,-0.1920811
468.4166666665693,0.2755601,-0.7818849,0.014707154,-2.3815658,-0.27546597,1.3890582,0.8062951,0.039998863,0.04,-9.221167,-2.784970283508301,-1.9043103,-0.11082527,0.05474137142300606,-0.19221747
468.43333333323596,0.27824378,-0.78186005,0.014850013,-2.3818114,-0.2781511,1.3872856,0.80649287,0.039998848,0.04,-9.209566,-2.8121449947357178,-1.920743,-0.110276975,0.05422883480787277,-0.19232792
468.4499999999026,0.28092527,-0.7818353,0.014992756,-2.3820567,-0.28083414,1.3855145,0.8066904,0.039998837,0.04,-9.197767,-2.839233875274658,-1.9370778,-0.10971497,0.053711868822574615,-0.19241188
468.46666666656927,0.2836043,-0.7818106,0.015135362,-2.382302,-0.2835147,1.3837451,0.80688775,0.039998826,0.04,-9.185979,-2.8663392066955566,-1.9533476,-0.10913854,0.05318858101963997,-0.19247001
468.4833333332359,0.28628042,-0.7817859,0.015277813,-2.3825474,-0.28619248,1.3819774,0.8070849,0.039998803,0.04,-9.174102,-2.8934059143066406,-1.9695623,-0.10854728,0.0526580736041069,-0.19250306
468.49999999990257,0.2889534,-0.7817612,0.015420095,-2.3827925,-0.28886703,1.3802121,0.807282,0.039998785,0.04,-9.162116,-2.9203946590423584,-1.9856815,-0.10794277,0.05211983621120453,-0.19250982
468.5166666665692,0.29162288,-0.78173655,0.015562191,-2.383037,-0.29153812,1.378449,0.80747867,0.039998766,0.04,-9.150019,-2.9473612308502197,-2.0017438,-0.10732471,0.05157630145549774,-0.19249114
468.5333333332359,0.29428864,-0.7817119,0.01570408,-2.3832817,-0.29420534,1.3766882,0.8076752,0.039998755,0.04,-9.137815,-2.9742281436920166,-2.0177174,-0.106693305,0.05102749541401863,-0.19244531
468.5499999999025,0.29695016,-0.78168726,0.01584575,-2.383526,-0.29686844,1.3749303,0.8078714,0.039998736,0.04,-9.125574,-3.0010948181152344,-2.0336058,-0.106048286,0.0504709929227829,-0.19237415
468.5666666665692,0.29960722,-0.78166276,0.015987178,-2.38377,-0.299527,1.3731754,0.8080672,0.03999872,0.04,-9.113221,-3.027852773666382,-2.0494063,-0.10539045,0.0499086007475853,-0.19227596
468.5833333332358,0.3022595,-0.7816382,0.01612835,-2.3840137,-0.30218077,1.3714236,0.80826265,0.0399987,0.04,-9.100724,-3.0545427799224854,-2.0651371,-0.10472032,0.049343593418598175,-0.192153
468.5999999999025,0.30490673,-0.78161365,0.016269244,-2.3842561,-0.3048295,1.3696754,0.80845773,0.03999869,0.04,-9.088248,-3.081209182739258,-2.0807636,-0.104037166,0.04877117648720741,-0.19200324
468.61666666656913,0.3075484,-0.78158927,0.01640985,-2.3844984,-0.30747274,1.3679305,0.8086524,0.039998673,0.04,-9.075531,-3.1077322959899902,-2.0962965,-0.10334318,0.048198603093624115,-0.1918264
468.6333333332358,0.3101843,-0.78156495,0.016550144,-2.3847399,-0.31011024,1.3661895,0.8088466,0.039998643,0.04,-9.062872,-3.1342170238494873,-2.1117334,-0.1026374,0.04762046039104462,-0.1916224
468.64999999990243,0.31281418,-0.7815406,0.016690118,-2.3849814,-0.31274167,1.3644525,0.8090404,0.039998617,0.04,-9.050089,-3.160618543624878,-2.1270678,-0.10192034,0.047038763761520386,-0.19139306
468.6666666665691,0.31543767,-0.78151625,0.016829746,-2.3852224,-0.31536674,1.3627195,0.8092338,0.039998602,0.04,-9.037296,-3.186955690383911,-2.1423457,-0.10119145,0.04645087197422981,-0.19113587
468.68333333323574,0.31805462,-0.781492,0.016969014,-2.3854628,-0.31798503,1.360991,0.80942667,0.039998587,0.04,-9.024414,-3.213222026824951,-2.1574988,-0.10045143,0.045858148485422134,-0.19085415
468.6999999999024,0.32066435,-0.7814679,0.017107904,-2.3857026,-0.3205963,1.3592672,0.809619,0.039998572,0.04,-9.011407,-3.239351511001587,-2.172566,-0.09970021,0.045261941850185394,-0.19054416
468.71666666656904,0.3232668,-0.7814439,0.017246403,-2.3859415,-0.32320023,1.3575482,0.8098108,0.039998546,0.04,-8.998376,-3.2654190063476562,-2.1875117,-0.09893915,0.044663865119218826,-0.19020934
468.7333333332357,0.32586157,-0.7814199,0.017384486,-2.3861792,-0.32579654,1.3558345,0.810002,0.039998535,0.04,-8.985226,-3.2913615703582764,-2.2023575,-0.098168835,0.044063907116651535,-0.18984765
468.74999999990234,0.32844836,-0.781396,0.017522149,-2.3864162,-0.32838485,1.3541261,0.8101927,0.039998513,0.04,-8.972013,-3.3172192573547363,-2.2171023,-0.09738914,0.04346361756324768,-0.18946068
468.766666666569,0.33102688,-0.78137213,0.017659374,-2.3866527,-0.33096486,1.352423,0.8103828,0.03999849,0.04,-8.958771,-3.3429758548736572,-2.2317286,-0.09660026,0.042861856520175934,-0.18904854
468.78333333323565,0.33359683,-0.78134835,0.017796138,-2.3868883,-0.3335363,1.3507257,0.81057215,0.03999848,0.04,-8.94556,-3.3686411380767822,-2.2462575,-0.09580156,0.042254894971847534,-0.18860789
468.7999999999023,0.3361577,-0.7813247,0.017932422,-2.3871233,-0.3360988,1.3490341,0.81076086,0.03999846,0.04,-8.9321575,-3.3941702842712402,-2.2606735,-0.09499433,0.04164930060505867,-0.188142
468.81666666656895,0.3387095,-0.7813011,0.018068213,-2.3873572,-0.3386521,1.3473485,0.8109489,0.039998434,0.04,-8.918848,-3.4196338653564453,-2.274977,-0.09417839,0.041038479655981064,-0.18765208
468.8333333332356,0.34125176,-0.7812776,0.018203495,-2.3875904,-0.3411959,1.3456694,0.81113625,0.03999842,0.04,-8.90537,-3.4449028968811035,-2.289176,-0.09335437,0.04042737931013107,-0.1871334
468.84999999990225,0.34378415,-0.78125435,0.018338261,-2.387823,-0.34372985,1.3439966,0.81132287,0.039998405,0.04,-8.891915,-3.4701390266418457,-2.303247,-0.09252233,0.03981626778841019,-0.18658915
468.8666666665689,0.34630647,-0.7812311,0.018472478,-2.388055,-0.34625366,1.3423305,0.8115088,0.039998382,0.04,-8.878447,-3.4952285289764404,-2.3172061,-0.09168247,0.03920198231935501,-0.1860194
468.88333333323556,0.34881842,-0.781208,0.01860614,-2.3882856,-0.34876704,1.3406714,0.8116938,0.039998367,0.04,-8.864943,-3.520205020904541,-2.3310678,-0.09083423,0.038584452122449875,-0.1854239
468.8999999999022,0.35131964,-0.781185,0.018739233,-2.388515,-0.35126978,1.3390194,0.81187814,0.03999835,0.04,-8.851289,-3.545013666152954,-2.3447928,-0.08997929,0.037970419973134995,-0.18480276
468.91666666656886,0.35380983,-0.78116214,0.018871734,-2.3887432,-0.3537615,1.3373746,0.8120617,0.039998326,0.04,-8.837658,-3.569719076156616,-2.3583972,-0.08911871,0.03735620528459549,-0.18415637
468.9333333332355,0.3562887,-0.7811394,0.019003633,-2.3889704,-0.3562419,1.3357371,0.8122444,0.039998308,0.04,-8.82398,-3.5942723751068115,-2.3718727,-0.08825209,0.03674338012933731,-0.18348557
468.94999999990216,0.35875604,-0.78111666,0.019134916,-2.3891962,-0.35871065,1.3341075,0.81242615,0.03999829,0.04,-8.810327,-3.618685483932495,-2.3852386,-0.08737907,0.036129288375377655,-0.18278794
468.9666666665688,0.36121145,-0.7810942,0.019265564,-2.3894215,-0.36116755,1.3324856,0.81260717,0.039998267,0.04,-8.796603,-3.6429848670959473,-2.3984826,-0.086500004,0.03551805019378662,-0.18206438
468.98333333323546,0.3636547,-0.7810717,0.019395564,-2.3896463,-0.36361235,1.3308718,0.8127872,0.03999825,0.04,-8.782965,-3.667158842086792,-2.4116013,-0.08561525,0.03490424528717995,-0.18131466
468.9999999999021,0.3660855,-0.7810493,0.019524898,-2.38987,-0.3660446,1.3292663,0.81296635,0.039998215,0.04,-8.769313,-3.691221237182617,-2.424624,-0.08472348,0.03428853675723076,-0.180542
469.01666666656877,0.36850363,-0.7810269,0.019653553,-2.390092,-0.3684641,1.327669,0.81314456,0.039998192,0.04,-8.755564,-3.7150774002075195,-2.4375112,-0.08382716,0.033673979341983795,-0.17974463
469.0333333332354,0.3709087,-0.7810045,0.019781513,-2.3903122,-0.37087065,1.3260804,0.8133219,0.03999819,0.04,-8.741765,-3.7387757301330566,-2.4502535,-0.082926266,0.03306178003549576,-0.17892048
469.04999999990207,0.3733005,-0.7809823,0.019908765,-2.3905315,-0.37326387,1.324501,0.8134981,0.039998163,0.04,-8.727982,-3.762345314025879,-2.4628751,-0.08202169,0.03245127201080322,-0.1780741
469.0666666665687,0.37567866,-0.7809602,0.02003529,-2.3907497,-0.37564352,1.3229302,0.8136734,0.039998144,0.04,-8.714222,-3.7857561111450195,-2.475369,-0.08111239,0.03184462711215019,-0.17720316
469.0833333332354,0.3780431,-0.78093845,0.02016108,-2.3909667,-0.3780094,1.3213683,0.8138476,0.039998125,0.04,-8.700494,-3.809006690979004,-2.4877436,-0.080199465,0.03123674914240837,-0.17630908
469.099999999902,0.38039333,-0.7809168,0.020286119,-2.3911831,-0.38036114,1.319816,0.81402075,0.039998107,0.04,-8.686726,-3.8321175575256348,-2.4999359,-0.07928314,0.03063111938536167,-0.17538966
469.1166666665687,0.3827293,-0.7808952,0.020410392,-2.3913975,-0.38269854,1.3182733,0.81419283,0.039998088,0.04,-8.673075,-3.855109214782715,-2.5120819,-0.07836135,0.03002411313354969,-0.17444791
469.1333333332353,0.38505054,-0.7808738,0.020533891,-2.3916104,-0.38502127,1.31674,0.81436384,0.039998066,0.04,-8.659243,-3.877861976623535,-2.5240514,-0.07743803,0.029423296451568604,-0.17348371
469.149999999902,0.38735697,-0.7808525,0.02065659,-2.3918216,-0.3873292,1.3152168,0.8145338,0.03999805,0.04,-8.645515,-3.9004507064819336,-2.5358832,-0.07651219,0.028824033215641975,-0.17249446
469.16666666656863,0.38964826,-0.7808314,0.020778483,-2.3920314,-0.38962188,1.3137035,0.81470263,0.039998036,0.04,-8.631761,-3.9228851795196533,-2.5475898,-0.07558438,0.028229620307683945,-0.17148167
469.1833333332353,0.3919242,-0.7808105,0.020899555,-2.3922408,-0.39189923,1.3122003,0.8148703,0.039998017,0.04,-8.618036,-3.9451591968536377,-2.5591536,-0.07465427,0.027638781815767288,-0.17044783
469.19999999990193,0.39418438,-0.78078973,0.021019798,-2.3924484,-0.3941609,1.3107079,0.8150369,0.039997995,0.04,-8.60448,-3.967292547225952,-2.570623,-0.07372066,0.02704588510096073,-0.16939144
469.2166666665686,0.39642885,-0.78076905,0.021139191,-2.3926544,-0.39640668,1.3092242,0.8152022,0.039997976,0.04,-8.590826,-3.989225387573242,-2.581946,-0.072785765,0.026458200067281723,-0.16831094
469.23333333323524,0.39865702,-0.78074855,0.021257726,-2.3928585,-0.39863634,1.307752,0.81536645,0.03999796,0.04,-8.577195,-4.010974407196045,-2.5930798,-0.07184892,0.025866707786917686,-0.16720961
469.2499999999019,0.4008689,-0.7807281,0.021375392,-2.3930612,-0.40084955,1.3062912,0.8155294,0.039997935,0.04,-8.563554,-4.032502174377441,-2.6041431,-0.07091258,0.025283705443143845,-0.16608417
469.26666666656854,0.4030642,-0.78070784,0.021492163,-2.3932629,-0.4030463,1.3048419,0.8156911,0.039997917,0.04,-8.549985,-4.0539093017578125,-2.615084,-0.06997469,0.024706630036234856,-0.16493729
469.2833333332352,0.40524265,-0.7806877,0.021608038,-2.3934634,-0.4052261,1.3034035,0.8158516,0.039997898,0.04,-8.536531,-4.075148582458496,-2.6258862,-0.06903479,0.024132857099175453,-0.16376951
469.29999999990184,0.407404,-0.78066766,0.021723004,-2.3936617,-0.4073888,1.3019762,0.81601095,0.039997872,0.04,-8.523112,-4.096215724945068,-2.636543,-0.068093434,0.023559166118502617,-0.1625816
469.3166666665685,0.40954807,-0.7806479,0.021837054,-2.3938584,-0.40953425,1.3005601,0.81616896,0.03999785,0.04,-8.509607,-4.117015838623047,-2.6470382,-0.067153625,0.02299124002456665,-0.16137345
469.33333333323515,0.41167468,-0.78062826,0.021950169,-2.3940535,-0.41166213,1.2991555,0.8163256,0.03999783,0.04,-8.496211,-4.137632846832275,-2.6574137,-0.06621348,0.022426867857575417,-0.16014402
469.3499999999018,0.41378352,-0.78060865,0.02206234,-2.3942468,-0.41377223,1.2977625,0.816481,0.039997816,0.04,-8.482884,-4.1581196784973145,-2.6676426,-0.06527323,0.021865615621209145,-0.15889443
469.36666666656845,0.41587436,-0.7805892,0.02217356,-2.3944385,-0.41586447,1.2963811,0.81663513,0.03999781,0.04,-8.469582,-4.1783833503723145,-2.6777635,-0.064333774,0.021308500319719315,-0.15762463
469.3833333332351,0.41794705,-0.78057015,0.022283802,-2.3946292,-0.4179385,1.2950122,0.81678784,0.039997786,0.04,-8.456389,-4.1984758377075195,-2.6877434,-0.06339489,0.020752888172864914,-0.15633625
469.39999999990175,0.4200014,-0.7805513,0.022393065,-2.394818,-0.41999412,1.2936555,0.8169391,0.039997764,0.04,-8.443269,-4.218393325805664,-2.6976082,-0.06245577,0.020202618092298508,-0.15502958
469.4166666665684,0.42203715,-0.78053266,0.022501336,-2.3950043,-0.42203116,1.2923108,0.8170892,0.03999775,0.04,-8.430109,-4.238046646118164,-2.7073045,-0.061518252,0.01965840347111225,-0.1537034
469.43333333323505,0.42405418,-0.7805141,0.02260861,-2.395189,-0.42404947,1.2909786,0.8172379,0.03999773,0.04,-8.416998,-4.2574968338012695,-2.7168436,-0.06058399,0.019120408222079277,-0.15235889
469.4499999999017,0.4260522,-0.78049564,0.022714876,-2.395373,-0.4260488,1.289659,0.8173851,0.039997723,0.04,-8.404057,-4.276767253875732,-2.726312,-0.059650637,0.01858571171760559,-0.15099445
469.46666666656836,0.42803106,-0.7804773,0.022820115,-2.3955553,-0.42802897,1.2883519,0.8175309,0.0399977,0.04,-8.391254,-4.295948028564453,-2.7356498,-0.058716606,0.018051842227578163,-0.14961423
469.483333333235,0.42999053,-0.78045905,0.02292433,-2.3957348,-0.42998978,1.2870579,0.8176753,0.039997686,0.04,-8.378433,-4.314825534820557,-2.7448325,-0.05778445,0.01752159558236599,-0.1482149
469.49999999990166,0.43193045,-0.7804412,0.023027502,-2.3959122,-0.43193105,1.2857765,0.8178182,0.039997667,0.04,-8.365577,-4.333451747894287,-2.7538714,-0.05685628,0.017000554129481316,-0.14679775
469.5166666665683,0.4338507,-0.7804236,0.023129625,-2.3960886,-0.43385252,1.2845082,0.81795967,0.03999765,0.04,-8.352852,-4.35189151763916,-2.7627373,-0.0559317,0.016486184671521187,-0.14536378
469.53333333323496,0.43575105,-0.780406,0.023230689,-2.396264,-0.43575412,1.283253,0.8180997,0.039997615,0.04,-8.3403635,-4.370227336883545,-2.7715492,-0.055007238,0.015972567722201347,-0.14391488
469.5499999999016,0.43763146,-0.78038853,0.023330683,-2.3964365,-0.43763572,1.282011,0.81823814,0.0399976,0.04,-8.327945,-4.3883256912231445,-2.7802277,-0.054083902,0.015459445305168629,-0.14244847
469.56666666656827,0.43949148,-0.7803715,0.023429604,-2.3966064,-0.43949702,1.2807823,0.8183753,0.03999758,0.04,-8.315394,-4.406116962432861,-2.7887259,-0.05316481,0.014957079663872719,-0.14096637
469.5833333332349,0.4413313,-0.78035456,0.023527438,-2.3967752,-0.44133788,1.2795672,0.81851083,0.039997574,0.04,-8.303023,-4.423696041107178,-2.7970846,-0.052251436,0.014461246319115162,-0.13946906
469.59999999990157,0.44315046,-0.78033787,0.023624178,-2.3969436,-0.4431582,1.2783657,0.81864494,0.03999756,0.04,-8.290834,-4.441198348999023,-2.8053586,-0.051338762,0.013968837447464466,-0.13795653
469.6166666665682,0.44494894,-0.78032136,0.023719816,-2.3971086,-0.44495788,1.2771777,0.81877756,0.039997533,0.04,-8.278827,-4.458482265472412,-2.8135138,-0.050428085,0.013476585038006306,-0.13643073
469.6333333332349,0.44672656,-0.78030497,0.023814345,-2.397271,-0.44673675,1.2760034,0.8189085,0.039997518,0.04,-8.266666,-4.475433349609375,-2.8214777,-0.049523197,0.012992547824978828,-0.13489193
469.6499999999015,0.44848326,-0.78028876,0.023907756,-2.397432,-0.44849458,1.2748432,0.81903774,0.03999751,0.04,-8.254636,-4.492160797119141,-2.8293307,-0.048623476,0.012517419643700123,-0.13333803
469.6666666665682,0.4502188,-0.78027284,0.024000049,-2.3975923,-0.45023122,1.273697,0.8191655,0.039997496,0.04,-8.242873,-4.508798599243164,-2.8371043,-0.04772441,0.012045606039464474,-0.13177183
469.6833333332348,0.45193318,-0.78025705,0.0240912,-2.3977497,-0.45194674,1.2725646,0.81929195,0.039997473,0.04,-8.231221,-4.525196552276611,-2.844725,-0.04682867,0.011575562879443169,-0.1301927
469.6999999999015,0.45362613,-0.7802413,0.024181232,-2.3979044,-0.45364082,1.2714463,0.81941676,0.039997462,0.04,-8.219534,-4.541283130645752,-2.852206,-0.045939073,0.011112496256828308,-0.12860005
469.71666666656813,0.4552976,-0.7802259,0.024270117,-2.398058,-0.4553133,1.2703422,0.81953996,0.039997447,0.04,-8.2079315,-4.557186603546143,-2.8595395,-0.04505487,0.01065736636519432,-0.12699561
469.7333333332348,0.45694742,-0.7802108,0.024357839,-2.3982103,-0.45696414,1.2692524,0.81966156,0.039997432,0.04,-8.196608,-4.572941780090332,-2.8667963,-0.044173658,0.010204792954027653,-0.12537974
469.74999999990143,0.4585755,-0.7801958,0.024444405,-2.3983598,-0.4585934,1.2681769,0.81978136,0.03999741,0.04,-8.185393,-4.5884928703308105,-2.8739133,-0.043295424,0.009755066595971584,-0.12375548
469.7666666665681,0.46018174,-0.780181,0.02452981,-2.3985064,-0.46020073,1.2671161,0.81989956,0.0399974,0.04,-8.174143,-4.603693962097168,-2.880893,-0.042423084,0.009313061833381653,-0.12211725
469.78333333323474,0.4617661,-0.78016645,0.024614044,-2.3986518,-0.46178615,1.2660697,0.8200163,0.03999738,0.04,-8.163,-4.618710517883301,-2.8877335,-0.041556746,0.008880509063601494,-0.12047163
469.7999999999014,0.4633284,-0.7801521,0.024697108,-2.3987963,-0.46334952,1.2650379,0.8201316,0.03999736,0.04,-8.152151,-4.633563995361328,-2.8944833,-0.040695015,0.008450600318610668,-0.1188126
469.81666666656804,0.46486858,-0.78013784,0.024778994,-2.398938,-0.46489078,1.2640207,0.82024527,0.039997347,0.04,-8.141456,-4.6482439041137695,-2.9011412,-0.039836515,0.008021369576454163,-0.11714416
469.8333333332347,0.46638662,-0.78012383,0.024859702,-2.3990765,-0.4664098,1.263018,0.82035714,0.03999733,0.04,-8.130691,-4.662566661834717,-2.907633,-0.038984425,0.0076004499569535255,-0.115467444
469.84999999990134,0.46788225,-0.78011006,0.02493922,-2.3992136,-0.46790656,1.2620299,0.82046735,0.039997317,0.04,-8.119996,-4.676701545715332,-2.913951,-0.038139813,0.007189868483692408,-0.11378451
469.866666666568,0.4693556,-0.7800964,0.025017556,-2.39935,-0.46938097,1.2610569,0.8205759,0.03999731,0.04,-8.109668,-4.690677642822266,-2.9202247,-0.037299052,0.006780201569199562,-0.11209213
469.88333333323465,0.47080648,-0.78008294,0.02509469,-2.3994827,-0.47083288,1.2600988,0.82068276,0.0399973,0.04,-8.099499,-4.704493999481201,-2.92641,-0.03646037,0.006371861789375544,-0.11039184
469.8999999999013,0.4722349,-0.78006977,0.025170634,-2.399613,-0.47226223,1.2591554,0.82078785,0.03999728,0.04,-8.089161,-4.717905521392822,-2.9323916,-0.035631057,0.005975625943392515,-0.10868676
469.91666666656795,0.47364083,-0.7800568,0.02524538,-2.3997421,-0.4736691,1.2582268,0.8208911,0.039997265,0.04,-8.079097,-4.731164932250977,-2.93826,-0.034807395,0.005586107261478901,-0.106976025
469.9333333332346,0.47502413,-0.7800441,0.025318919,-2.3998709,-0.47505343,1.2573131,0.8209932,0.039997257,0.04,-8.069297,-4.744256019592285,-2.9440825,-0.03398635,0.005197721999138594,-0.10525523
469.94999999990125,0.4763848,-0.7800316,0.025391255,-2.3999949,-0.476415,1.2564145,0.8210936,0.039997242,0.04,-8.059706,-4.757174968719482,-2.9497988,-0.03317126,0.004808491095900536,-0.10353153
469.9666666665679,0.47772276,-0.7800193,0.025462383,-2.4001172,-0.477754,1.2555307,0.8211924,0.039997224,0.04,-8.049827,-4.769689559936523,-2.9552777,-0.032366857,0.0044350335374474525,-0.10180571
469.98333333323455,0.479038,-0.78000724,0.025532305,-2.4002385,-0.4790702,1.254662,0.8212895,0.039997213,0.04,-8.04038,-4.782076358795166,-2.9607234,-0.031567942,0.004064735025167465,-0.10007323
469.9999999999012,0.48033047,-0.77999544,0.025601013,-2.4003596,-0.48036358,1.2538083,0.8213848,0.039997205,0.04,-8.0311575,-4.794318199157715,-2.9660814,-0.030773167,0.0036960432771593332,-0.09833713
470.01666666656786,0.48160025,-0.7799837,0.025668507,-2.4004745,-0.48163438,1.2529696,0.8214783,0.039997194,0.04,-8.022162,-4.806366443634033,-2.9713604,-0.029980179,0.0033239363692700863,-0.09659627
470.0333333332345,0.4828473,-0.77997214,0.02573479,-2.4005885,-0.48288226,1.2521458,0.82157,0.039997194,0.04,-8.0126915,-4.817861557006836,-2.9763718,-0.029201256,0.002974076196551323,-0.09485386
470.04999999990116,0.48407143,-0.77996093,0.025799876,-2.400702,-0.4841073,1.2513372,0.8216598,0.03999718,0.04,-8.003922,-4.829448699951172,-2.9813845,-0.028425122,0.0026230276562273502,-0.09310958
470.0666666665678,0.4852729,-0.77994984,0.025863739,-2.4008129,-0.48530966,1.2505436,0.8217479,0.039997168,0.04,-7.9953012,-4.8408122062683105,-2.9863183,-0.027652161,0.002272768644616008,-0.091363795
470.08333333323446,0.4864516,-0.77993906,0.025926387,-2.40092,-0.48648918,1.249765,0.821835,0.039997157,0.04,-7.98665,-4.851827144622803,-2.991113,-0.026886234,0.0019291926873847842,-0.08961623
470.0999999999011,0.48760754,-0.7799284,0.025987826,-2.401026,-0.48764583,1.2490017,0.82192045,0.039997146,0.04,-7.978012,-4.862598419189453,-2.995719,-0.02613371,0.0015978551236912608,-0.087869674
470.11666666656777,0.48874065,-0.7799181,0.026048051,-2.4011319,-0.48877987,1.248253,0.8220043,0.039997134,0.04,-7.96983,-4.873301982879639,-3.000333,-0.025385134,0.0012671755393967032,-0.086122535
470.1333333332344,0.4898513,-0.77990794,0.026107073,-2.4012318,-0.48989108,1.2475193,0.8220863,0.03999712,0.04,-7.961872,-4.8838090896606445,-3.0048277,-0.024640357,0.000931599352043122,-0.08437419
470.14999999990107,0.49093905,-0.7798979,0.026164886,-2.4013307,-0.4909795,1.2468008,0.8221663,0.039997112,0.04,-7.953441,-4.89378023147583,-3.0090873,-0.023908399,0.0006181365461088717,-0.0826296
470.1666666665677,0.49200416,-0.7798882,0.026221495,-2.4014292,-0.49204534,1.2460973,0.8222446,0.039997105,0.04,-7.945704,-4.903790473937988,-3.0133767,-0.023181016,0.00030605384381487966,-0.080886036
470.1833333332344,0.4930466,-0.77987856,0.0262769,-2.401527,-0.49308863,1.2454088,0.82232106,0.039997093,0.04,-7.938168,-4.913637638092041,-3.0175767,-0.02245634,-7.793943041178863e-06,-0.07914221
470.199999999901,0.49406654,-0.779869,0.026331102,-2.401619,-0.4941093,1.244735,0.8223963,0.039997086,0.04,-7.9307795,-4.923234939575195,-3.0217083,-0.021735206,-0.0003237108758185059,-0.07740004
470.2166666665677,0.49506396,-0.7798598,0.02638411,-2.40171,-0.49510747,1.2440761,0.82246995,0.039997067,0.04,-7.9229975,-4.932389736175537,-3.0255704,-0.021030279,-0.0006201453506946564,-0.075666554
470.2333333332343,0.49603894,-0.7798507,0.026435927,-2.4018006,-0.49608323,1.2434322,0.8225419,0.03999706,0.04,-7.9158587,-4.941535472869873,-3.0294318,-0.020331413,-0.0009157037129625678,-0.07393466
470.249999999901,0.49699157,-0.779842,0.026486551,-2.40189,-0.49703652,1.242803,0.8226121,0.039997045,0.04,-7.9089527,-4.950535774230957,-3.0332623,-0.0196355,-0.0012135226279497147,-0.07220601
470.26666666656763,0.49792185,-0.77983356,0.026535995,-2.4019737,-0.4979677,1.2421883,0.8226806,0.039997034,0.04,-7.90208,-4.959255695343018,-3.0369458,-0.018945059,-0.0015086750499904156,-0.07048279
470.2833333332343,0.49883,-0.7798254,0.02658426,-2.402057,-0.4988765,1.2415885,0.8227474,0.039997026,0.04,-7.894937,-4.9674973487854,-3.0404108,-0.018269688,-0.0017854140605777502,-0.068766944
470.29999999990093,0.49971604,-0.7798174,0.026631344,-2.40214,-0.4997632,1.2410034,0.8228124,0.03999702,0.04,-7.8884625,-4.9758477210998535,-3.0439258,-0.017598523,-0.002062741667032242,-0.067056246
470.3166666665676,0.5005801,-0.7798095,0.026677258,-2.4022205,-0.5006278,1.2404329,0.8228762,0.039997008,0.04,-7.882164,-4.984023094177246,-3.047372,-0.0169296,-0.002341164741665125,-0.06535389
470.33333333323424,0.50142205,-0.7798017,0.026722016,-2.4022963,-0.5014706,1.2398766,0.8229383,0.039997004,0.04,-7.875853,-4.991817951202393,-3.0506961,-0.01627054,-0.002615791279822588,-0.06365668
470.3499999999009,0.5022425,-0.779794,0.026765605,-2.4023716,-0.50229156,1.2393348,0.82299876,0.039996993,0.04,-7.8693953,-4.999295711517334,-3.0538023,-0.015625564,-0.0028749180492013693,-0.061970986
470.36666666656754,0.5030411,-0.77978647,0.026808038,-2.402446,-0.5030909,1.2388073,0.82305753,0.03999699,0.04,-7.8635564,-5.006828784942627,-3.0569718,-0.0149827115,-0.003136498387902975,-0.06029169
470.3833333332342,0.5038183,-0.7797793,0.026849335,-2.4025173,-0.5038688,1.2382938,0.8231146,0.03999699,0.04,-7.8577905,-5.0140886306762695,-3.0600317,-0.01434678,-0.0033968891948461533,-0.05862135
470.39999999990084,0.504574,-0.77977234,0.026889492,-2.4025853,-0.5046252,1.2377946,0.82317036,0.03999698,0.04,-7.8520103,-5.021059989929199,-3.062932,-0.013719494,-0.003650146070867777,-0.05696116
470.4166666665675,0.50530845,-0.7797658,0.026928518,-2.402653,-0.50536025,1.2373095,0.82322466,0.039996974,0.04,-7.8462915,-5.027791500091553,-3.065749,-0.013105134,-0.0038910049479454756,-0.055315014
470.43333333323415,0.506022,-0.7797592,0.026966425,-2.4027195,-0.5060742,1.2368382,0.8232773,0.03999697,0.04,-7.8411098,-5.034509658813477,-3.0685441,-0.012495804,-0.00413542753085494,-0.053677786
470.4499999999008,0.50671464,-0.7797529,0.027003221,-2.402783,-0.50676733,1.2363809,0.82332826,0.039996963,0.04,-7.8359184,-5.0409698486328125,-3.0712678,-0.011891262,-0.004377510864287615,-0.05205325
470.46666666656745,0.5073865,-0.77974683,0.027038913,-2.4028432,-0.50743973,1.2359371,0.8233775,0.039996956,0.04,-7.830723,-5.04714298248291,-3.0738482,-0.011296786,-0.004610219970345497,-0.050440907
470.4833333332341,0.50803775,-0.7797408,0.027073508,-2.4029033,-0.5080916,1.2355068,0.8234255,0.039996944,0.04,-7.825671,-5.053103446960449,-3.0763106,-0.010712301,-0.004835232626646757,-0.048843514
470.49999999990075,0.50866854,-0.7797349,0.027107013,-2.4029622,-0.508723,1.2350901,0.823472,0.039996948,0.04,-7.8210673,-5.05902099609375,-3.0788064,-0.0101341,-0.00506392540410161,-0.047256615
470.5166666665674,0.5092793,-0.7797291,0.027139448,-2.4030187,-0.5093342,1.2346866,0.8235171,0.03999694,0.04,-7.816492,-5.064723491668701,-3.0812066,-0.009562503,-0.005290120840072632,-0.04568524
470.53333333323405,0.50987,-0.7797237,0.027170826,-2.4030714,-0.50992525,1.2342964,0.8235604,0.03999693,0.04,-7.8119545,-5.070176601409912,-3.0834844,-0.0089999195,-0.005511059891432524,-0.044130716
470.5499999999007,0.51044077,-0.77971846,0.027201146,-2.4031239,-0.51049656,1.2339194,0.82360256,0.039996922,0.04,-7.807425,-5.075314044952393,-3.0856297,-0.008448875,-0.005719348322600126,-0.042593073
470.56666666656736,0.5109921,-0.7797135,0.027230432,-2.403175,-0.5110483,1.2335548,0.82364315,0.039996922,0.04,-7.8033795,-5.080483436584473,-3.0877972,-0.007905081,-0.005929373204708099,-0.04107163
470.583333333234,0.51152396,-0.7797088,0.027258685,-2.403226,-0.5115806,1.2332035,0.8236824,0.03999692,0.04,-7.799405,-5.0854034423828125,-3.089869,-0.0073677558,-0.006138940807431936,-0.039565586
470.59999999990066,0.51203686,-0.77970415,0.027285919,-2.4032712,-0.51209384,1.2328646,0.82372016,0.03999691,0.04,-7.7956142,-5.090211391448975,-3.091905,-0.0068374434,-0.006348419934511185,-0.038077142
470.6166666665673,0.5125308,-0.7796997,0.027312145,-2.4033163,-0.5125884,1.2325383,0.8237566,0.03999691,0.04,-7.7914696,-5.094536304473877,-3.093714,-0.0063229157,-0.00653883907943964,-0.036609765
470.63333333323396,0.5130062,-0.7796954,0.027337387,-2.4033601,-0.513064,1.2322243,0.82379156,0.03999691,0.04,-7.7879963,-5.098985195159912,-3.0956092,-0.005814748,-0.0067306626588106155,-0.035159662
470.6499999999006,0.5134634,-0.7796912,0.027361654,-2.4034035,-0.5135215,1.2319224,0.82382524,0.03999691,0.04,-7.784565,-5.103221416473389,-3.0973876,-0.005313984,-0.006920896470546722,-0.033730302
470.66666666656727,0.5139023,-0.7796871,0.027384961,-2.4034436,-0.5139609,1.2316322,0.82385755,0.03999691,0.04,-7.7813373,-5.107322692871094,-3.0991516,-0.004819216,-0.007112013641744852,-0.032319717
470.6833333332339,0.5143236,-0.7796832,0.02740732,-2.403481,-0.51438224,1.2313539,0.82388854,0.039996907,0.04,-7.7779827,-5.111074447631836,-3.100756,-0.00433766,-0.0072947158478200436,-0.030932212
470.69999999990057,0.5147272,-0.7796793,0.027428754,-2.4035177,-0.51478636,1.2310873,0.8239183,0.0399969,0.04,-7.7747955,-5.114715576171875,-3.1023097,-0.0038666937,-0.00746808759868145,-0.029569982
470.7166666665672,0.51511365,-0.7796758,0.027449273,-2.4035537,-0.5151731,1.2308321,0.8239468,0.039996892,0.04,-7.771928,-5.118278980255127,-3.1038454,-0.0034044525,-0.0076404232531785965,-0.028228188
470.7333333332339,0.515483,-0.7796724,0.027468879,-2.4035892,-0.5155429,1.2305881,0.82397395,0.039996892,0.04,-7.7692075,-5.121703147888184,-3.1053112,-0.0029493938,-0.007812113966792822,-0.0269083
470.7499999999005,0.51583594,-0.7796693,0.027487608,-2.4036212,-0.51589644,1.2303549,0.824,0.039996892,0.04,-7.766607,-5.124954700469971,-3.1067443,-0.0025023618,-0.007983485236763954,-0.02561253
470.7666666665672,0.51617247,-0.7796663,0.027505472,-2.403651,-0.5162334,1.2301325,0.8240248,0.039996892,0.04,-7.7638535,-5.1278862953186035,-3.1080043,-0.0020701524,-0.00814330205321312,-0.024341503
470.7833333332338,0.51649314,-0.7796635,0.02752249,-2.4036798,-0.51655453,1.2299206,0.8240484,0.039996885,0.04,-7.7613463,-5.130754470825195,-3.1092553,-0.0016491616,-0.008297013118863106,-0.023099132
470.7999999999005,0.5167981,-0.77966076,0.027538674,-2.4037082,-0.51685995,1.229719,0.82407105,0.03999688,0.04,-7.759058,-5.13352108001709,-3.1104743,-0.0012373305,-0.008446882478892803,-0.021881608
470.81666666656713,0.51708776,-0.77965814,0.027554043,-2.403736,-0.51715,1.2295276,0.82409245,0.03999688,0.04,-7.7569776,-5.136191368103027,-3.1116648,-0.00083427865,-0.008597920648753643,-0.020689923
470.8333333332338,0.5173625,-0.77965564,0.027568623,-2.4037614,-0.5174252,1.229346,0.82411265,0.039996877,0.04,-7.755012,-5.138720512390137,-3.112822,-0.0004381794,-0.0087499488145113,-0.01952623
470.84999999990043,0.51762277,-0.77965325,0.027582427,-2.4037848,-0.51768583,1.229174,0.8241319,0.03999687,0.04,-7.7528825,-5.140963077545166,-3.1138387,-5.607056e-05,-0.008891215547919273,-0.018392622
470.8666666665671,0.51786894,-0.779651,0.02759548,-2.4038064,-0.51793224,1.2290112,0.82415,0.039996866,0.04,-7.750971,-5.143117904663086,-3.1148243,0.0003143245,-0.009026541374623775,-0.017287375
470.88333333323374,0.51810133,-0.77964884,0.027607799,-2.4038277,-0.51816493,1.2288578,0.8241672,0.039996866,0.04,-7.7491703,-5.145145416259766,-3.1157544,0.0006732475,-0.009155984036624432,-0.016213184
470.8999999999004,0.51832026,-0.77964675,0.027619405,-2.4038484,-0.51838416,1.228713,0.8241833,0.039996866,0.04,-7.7476163,-5.147132873535156,-3.1166873,0.0010230723,-0.009284187108278275,-0.015168503
470.91666666656704,0.5185262,-0.77964485,0.027630322,-2.4038687,-0.5185903,1.2285771,0.8241986,0.039996866,0.04,-7.746143,-5.148970603942871,-3.1175792,0.0013633509,-0.009411362931132317,-0.014154834
470.9333333332337,0.5187197,-0.77964294,0.027640574,-2.4038866,-0.51878405,1.2284492,0.8242128,0.03999687,0.04,-7.7447686,-5.150693893432617,-3.118425,0.0016932813,-0.009536508470773697,-0.013174008
470.94999999990034,0.518901,-0.77964133,0.027650183,-2.4039028,-0.5189656,1.2283294,0.8242262,0.03999687,0.04,-7.7433057,-5.152175426483154,-3.1191654,0.002009754,-0.009653699584305286,-0.012225737
470.966666666567,0.5190707,-0.77963984,0.02765916,-2.4039178,-0.5191356,1.2282174,0.82423866,0.03999687,0.04,-7.741996,-5.153600215911865,-3.1198697,0.0023129878,-0.009763706475496292,-0.011312253
470.98333333323365,0.51922905,-0.77963835,0.027667541,-2.4039314,-0.5192943,1.2281128,0.82425034,0.03999687,0.04,-7.7408066,-5.154915809631348,-3.1205432,0.002604222,-0.009867854416370392,-0.0104327565
470.9999999999003,0.5193766,-0.779637,0.027675351,-2.4039445,-0.51944214,1.2280153,0.8242612,0.03999687,0.04,-7.7397027,-5.156128406524658,-3.1211872,0.0028818962,-0.00996640045195818,-0.009589214
471.01666666656695,0.5195138,-0.7796358,0.027682604,-2.4039576,-0.51957935,1.2279246,0.82427126,0.03999687,0.04,-7.7387543,-5.157291889190674,-3.1218095,0.0031486165,-0.010062280111014843,-0.008781727
471.0333333332336,0.519641,-0.7796347,0.027689334,-2.4039702,-0.51970685,1.2278407,0.82428074,0.039996866,0.04,-7.737946,-5.158385276794434,-3.1224036,0.0034054392,-0.010158268734812737,-0.008011833
471.04999999990025,0.51975876,-0.7796337,0.027695568,-2.4039824,-0.51982504,1.2277626,0.8242894,0.039996866,0.04,-7.737134,-5.159323215484619,-3.1229727,0.0036487929,-0.010249204002320766,-0.0072786743
471.0666666665669,0.51986784,-0.77963275,0.027701328,-2.4039924,-0.5199341,1.2276906,0.82429737,0.039996866,0.04,-7.7364106,-5.160186767578125,-3.1234965,0.0038803064,-0.01033855602145195,-0.006583029
471.08333333323355,0.5199684,-0.77963185,0.027706638,-2.4040015,-0.520035,1.2276238,0.82430476,0.039996866,0.04,-7.7355995,-5.160889148712158,-3.1239624,0.004097244,-0.010417685844004154,-0.0059284214
471.0999999999002,0.52006114,-0.7796311,0.027711531,-2.4040098,-0.52012783,1.2275628,0.82431155,0.039996866,0.04,-7.734944,-5.161544322967529,-3.124408,0.004299015,-0.01049198117107153,-0.005313356
471.11666666656686,0.5201465,-0.77963036,0.027716031,-2.4040167,-0.52021337,1.2275062,0.8243178,0.039996866,0.04,-7.734371,-5.162161350250244,-3.124848,0.0044881515,-0.010559375397861004,-0.0047395476
471.1333333332335,0.52022487,-0.77962965,0.027720168,-2.404023,-0.52029216,1.2274541,0.82432365,0.039996866,0.04,-7.7337956,-5.162642002105713,-3.1252122,0.004661245,-0.010620146058499813,-0.0042084726
471.14999999990016,0.5202972,-0.779629,0.027723974,-2.404029,-0.5203645,1.227406,0.82432896,0.039996866,0.04,-7.7333417,-5.163099765777588,-3.1255884,0.004819394,-0.010676243342459202,-0.0037190465
471.1666666665668,0.52036387,-0.7796284,0.027727472,-2.4040344,-0.52043116,1.2273619,0.82433385,0.039996862,0.04,-7.732947,-5.163574695587158,-3.1259394,0.0049667847,-0.010728761553764343,-0.0032692626
471.18333333323346,0.52042496,-0.77962786,0.027730687,-2.4040399,-0.5204925,1.2273214,0.8243384,0.03999686,0.04,-7.7325654,-5.163977146148682,-3.126265,0.005102426,-0.010776379145681858,-0.002855198
471.1999999999001,0.52048135,-0.77962744,0.027733644,-2.4040453,-0.520549,1.2272842,0.82434255,0.03999686,0.04,-7.732272,-5.1643452644348145,-3.1265795,0.0052270857,-0.010822196491062641,-0.0024734645
471.21666666656677,0.520533,-0.779627,0.027736362,-2.4040508,-0.5206009,1.2272497,0.8243464,0.03999686,0.04,-7.7319713,-5.164717674255371,-3.1268609,0.0053430633,-0.010864795185625553,-0.0021214683
471.2333333332334,0.5205806,-0.7796266,0.02773886,-2.4040558,-0.5206487,1.227218,0.82434994,0.03999686,0.04,-7.731725,-5.165043354034424,-3.1271307,0.005449955,-0.010907500982284546,-0.0017976621
471.24999999990007,0.52062434,-0.7796262,0.027741157,-2.4040608,-0.52069265,1.2271894,0.8243531,0.03999686,0.04,-7.7314363,-5.1653242111206055,-3.1273685,0.0055485,-0.010946718975901604,-0.0014995728
471.2666666665667,0.5206646,-0.77962583,0.027743263,-2.4040658,-0.52073306,1.2271624,0.8243561,0.03999686,0.04,-7.7312007,-5.165610313415527,-3.1276226,0.0056404527,-0.010981918312609196,-0.0012252629
471.2833333332334,0.5207015,-0.7796255,0.0277452,-2.4040706,-0.52077025,1.2271383,0.82435876,0.039996855,0.04,-7.731013,-5.165868282318115,-3.1278126,0.005725462,-0.011019274592399597,-0.0009725458
471.2999999999,0.5207357,-0.7796251,0.027746983,-2.4040742,-0.5208046,1.2271154,0.8243613,0.039996855,0.04,-7.7307844,-5.166088581085205,-3.1280344,0.0058040866,-0.011050782166421413,-0.0007399075
471.3166666665667,0.52076685,-0.7796249,0.027748622,-2.404077,-0.5208361,1.2270951,0.8243637,0.039996855,0.04,-7.730497,-5.16624641418457,-3.128167,0.005874666,-0.011079567484557629,-0.000525838
471.3333333332333,0.52079576,-0.7796247,0.027750129,-2.4040797,-0.520865,1.2270752,0.8243659,0.039996855,0.04,-7.7302666,-5.16638708114624,-3.128317,0.0059375013,-0.01110097486525774,-0.00033007714
471.3499999999,0.52082247,-0.7796245,0.027751513,-2.404082,-0.52089167,1.2270585,0.8243679,0.039996855,0.04,-7.730112,-5.166574954986572,-3.1284215,0.0059960946,-0.011125782504677773,-0.00014981595
471.36666666656663,0.5208471,-0.77962434,0.027752787,-2.4040842,-0.5209163,1.2270421,0.82436967,0.039996855,0.04,-7.729918,-5.166738510131836,-3.128594,0.0060506593,-0.011140759103000164,1.5895293e-05
471.3833333332333,0.52086973,-0.77962416,0.027753958,-2.404086,-0.520939,1.2270266,0.8243713,0.039996855,0.04,-7.729795,-5.1668829917907715,-3.1286788,0.0061008483,-0.011159276589751244,0.00016915212
471.39999999989993,0.5208907,-0.779624,0.027755033,-2.4040878,-0.5209598,1.2270138,0.8243728,0.039996855,0.04,-7.7296658,-5.167011737823486,-3.1287808,0.006146937,-0.011177769862115383,0.0003104989
471.4166666665666,0.52090985,-0.7796238,0.027756022,-2.4040895,-0.52097887,1.2270012,0.82437414,0.039996855,0.04,-7.729501,-5.167148590087891,-3.1289217,0.0061895847,-0.011187314055860043,0.0004398413
471.43333333323324,0.52092713,-0.7796236,0.02775693,-2.404091,-0.5209965,1.2269887,0.82437545,0.039996855,0.04,-7.729438,-5.167259693145752,-3.1289887,0.0062291035,-0.01120120007544756,0.00055876956
471.4499999998999,0.5209427,-0.7796235,0.027757766,-2.4040923,-0.52101266,1.2269781,0.82437664,0.039996855,0.04,-7.729361,-5.167329788208008,-3.1290524,0.0062635,-0.011218491941690445,0.00066804053
471.46666666656654,0.5209578,-0.7796234,0.027758535,-2.4040935,-0.5210277,1.2269692,0.8243778,0.039996855,0.04,-7.7292686,-5.167420387268066,-3.12916,0.0062941965,-0.011231369338929653,0.00076775945
471.4833333332332,0.5209713,-0.77962327,0.027759243,-2.4040947,-0.5210413,1.2269604,0.82437885,0.039996855,0.04,-7.729113,-5.16755485534668,-3.1292458,0.0063247913,-0.011236333288252354,0.00086109166
471.49999999989984,0.5209839,-0.77962315,0.027759895,-2.4040956,-0.52105385,1.2269516,0.8243798,0.039996855,0.04,-7.729084,-5.1676177978515625,-3.1292906,0.0063517303,-0.01124576199799776,0.00094544713
471.5166666665665,0.5209954,-0.77962303,0.02776049,-2.4040966,-0.5210654,1.2269429,0.8243806,0.039996855,0.04,-7.729008,-5.167691230773926,-3.1293347,0.00637691,-0.011256692931056023,0.0010237177
471.53333333323314,0.52100617,-0.7796229,0.027761038,-2.4040976,-0.52107614,1.2269355,0.82438135,0.039996855,0.04,-7.728968,-5.1677632331848145,-3.1293848,0.0064004897,-0.011269963346421719,0.0010958315
471.5499999998998,0.52101576,-0.7796228,0.027761543,-2.404098,-0.521086,1.2269304,0.8243821,0.039996855,0.04,-7.547788,-5.024710655212402,-2.9610622,0.0,-0.0,0.0
471.56666666656645,0.52101576,-0.7796228,0.027761543,-2.404098,-0.521086,1.2269304,0.8243821,0.039996855,0.04,-7.729092,-5.167457580566406,-3.1296368,0.0,-0.0,0.0
471.5833333332331,0.52101576,-0.7796228,0.027761543,-2.404098,-0.521086,1.2269304,0.8243821,0.039996855,0.04,-7.729092,-5.167457580566406,-3.1296368,0.0,-0.0,0.0
471.59999999989975,0.52101576,-0.7796228,0.027761543,-2.404098,-0.521086,1.2269304,0.8243821,0.039996855,0.04,-7.729092,-5.167457580566406,-3.1296368,0.0,-0.0,0.0
471.6166666665664,0.52101576,-0.7796228,0.027761543,-2.404098,-0.521086,1.2269304,0.8243821,0.039996855,0.04,-7.729092,-5.167457580566406,-3.1296368,0.0,-0.0,0.0
471.63333333323305,0.52101576,-0.7796228,0.027761543,-2.404098,-0.521086,1.2269304,0.8243821,0.039996855,0.04,-7.729092,-5.167457580566406,-3.1296368,0.0,-0.0,0.0
471.6499999998997,0.52101576,-0.7796228,0.027761543,-2.404098,-0.521086,1.2269304,0.8243821,0.039996855,0.04,-7.729092,-5.167457580566406,-3.1296368,0.0,-0.0,0.0
471.66666666656636,0.52101576,-0.7796228,0.027761543,-2.404098,-0.521086,1.2269304,0.8243821,0.039996855,0.04,-7.729092,-5.167457580566406,-3.1296368,0.0,-0.0,0.0
471.683333333233,0.52101576,-0.7796228,0.027761543,-2.404098,-0.521086,1.2269304,0.8243821,0.039996855,0.04,-7.729092,-5.167457580566406,-3.1296368,0.0,-0.0,0.0
471.69999999989966,0.52101576,-0.7796228,0.027761543,-2.404098,-0.521086,1.2269304,0.8243821,0.039996855,0.04,-7.729092,-5.167457580566406,-3.1296368,0.0,-0.0,0.0
471.7166666665663,0.52101576,-0.7796228,0.027761543,-2.404098,-0.521086,1.2269304,0.8243821,0.039996855,0.04,-7.729092,-5.167457580566406,-3.1296368,0.0,-0.0,0.0
471.73333333323296,0.52101576,-0.7796228,0.027761543,-2.404098,-0.521086,1.2269304,0.8243821,0.039996855,0.04,-7.729092,-5.167457580566406,-3.1296368,0.0,-0.0,0.0
471.7499999998996,0.52101576,-0.7796228,0.027761543,-2.404098,-0.521086,1.2269304,0.8243821,0.039996855,0.04,-7.729092,-5.167457580566406,-3.1296368,0.0,-0.0,0.0
471.76666666656627,0.52101576,-0.7796228,0.027761543,-2.404098,-0.521086,1.2269304,0.8243821,0.039996855,0.04,-7.729092,-5.167457580566406,-3.1296368,0.0,-0.0,0.0
471.7833333332329,0.52101576,-0.7796228,0.027761543,-2.404098,-0.521086,1.2269304,0.8243821,0.039996855,0.04,-7.729092,-5.167457580566406,-3.1296368,0.0,-0.0,0.0
471.79999999989957,0.52101576,-0.7796228,0.027761543,-2.404098,-0.521086,1.2269304,0.8243821,0.039996855,0.04,-7.729092,-5.167457580566406,-3.1296368,0.0,-0.0,0.0
471.8166666665662,0.52101576,-0.7796228,0.027761543,-2.404098,-0.521086,1.2269304,0.8243821,0.039996855,0.04,-7.729092,-5.167457580566406,-3.1296368,0.0,-0.0,0.0
471.8333333332329,0.52101576,-0.7796228,0.027761543,-2.404098,-0.521086,1.2269304,0.8243821,0.039996855,0.04,-7.729092,-5.167457580566406,-3.1296368,0.0,-0.0,0.0
471.8499999998995,0.52101576,-0.7796228,0.027761543,-2.404098,-0.521086,1.2269304,0.8243821,0.039996855,0.04,-7.729092,-5.167457580566406,-3.1296368,0.0,-0.0,0.0
471.8666666665662,0.52101576,-0.7796228,0.027761543,-2.404098,-0.521086,1.2269304,0.8243821,0.039996855,0.04,-7.729092,-5.167457580566406,-3.1296368,0.0,-0.0,0.0
471.8833333332328,0.52101576,-0.7796228,0.027761543,-2.404098,-0.521086,1.2269304,0.8243821,0.039996855,0.04,-7.729092,-5.167457580566406,-3.1296368,0.0,-0.0,0.0
471.8999999998995,0.52101576,-0.7796228,0.027761543,-2.404098,-0.521086,1.2269304,0.8243821,0.039996855,0.04,-7.729092,-5.167457580566406,-3.1296368,0.0,-0.0,0.0
471.91666666656613,0.52101576,-0.7796228,0.027761543,-2.404098,-0.521086,1.2269304,0.8243821,0.039996855,0.04,-7.729092,-5.167457580566406,-3.1296368,0.0,-0.0,0.0
471.9333333332328,0.52101576,-0.7796228,0.027761543,-2.404098,-0.521086,1.2269304,0.8243821,0.039996855,0.04,-7.729092,-5.167457580566406,-3.1296368,0.0,-0.0,0.0
471.94999999989943,0.52101576,-0.7796228,0.027761543,-2.404098,-0.521086,1.2269304,0.8243821,0.039996855,0.04,-7.729092,-5.167457580566406,-3.1296368,0.0,-0.0,0.0
471.9666666665661,0.52101576,-0.7796228,0.027761543,-2.404098,-0.521086,1.2269304,0.8243821,0.039996855,0.04,-7.729092,-5.167457580566406,-3.1296368,0.0,-0.0,0.0
471.98333333323274,0.52101576,-0.7796228,0.027761543,-2.404098,-0.521086,1.2269304,0.8243821,0.039996855,0.04,-7.729092,-5.167457580566406,-3.1296368,0.0,-0.0,0.0
471.9999999998994,0.52101576,-0.7796228,0.027761543,-2.404098,-0.521086,1.2269304,0.8243821,0.039996855,0.04,-7.729092,-5.167457580566406,-3.1296368,0.0,-0.0,0.0
472.01666666656604,0.52101576,-0.7796228,0.027761543,-2.404098,-0.521086,1.2269304,0.8243821,0.039996855,0.04,-7.729092,-5.167457580566406,-3.1296368,0.0,-0.0,0.0
472.0333333332327,0.52101576,-0.7796228,0.027761543,-2.404098,-0.521086,1.2269304,0.8243821,0.039996855,0.04,-7.729092,-5.167457580566406,-3.1296368,0.0,-0.0,0.0
472.04999999989934,0.52101576,-0.7796228,0.027761543,-2.404098,-0.521086,1.2269304,0.8243821,0.039996855,0.04,-7.729092,-5.167457580566406,-3.1296368,0.0,-0.0,0.0
472.066666666566,0.52101576,-0.7796228,0.027761543,-2.404098,-0.521086,1.2269304,0.8243821,0.039996855,0.04,-7.729092,-5.167457580566406,-3.1296368,0.0,-0.0,0.0
472.08333333323264,0.52101576,-0.7796228,0.027761543,-2.404098,-0.521086,1.2269304,0.8243821,0.039996855,0.04,-7.729092,-5.167457580566406,-3.1296368,0.0,-0.0,0.0
472.0999999998993,0.52101576,-0.7796228,0.027761543,-2.404098,-0.521086,1.2269304,0.8243821,0.039996855,0.04,-7.729092,-5.167457580566406,-3.1296368,0.0,-0.0,0.0
472.11666666656595,0.52101576,-0.7796228,0.027761543,-2.404098,-0.521086,1.2269304,0.8243821,0.039996855,0.04,-7.729092,-5.167457580566406,-3.1296368,0.0,-0.0,0.0
472.1333333332326,0.52101576,-0.7796228,0.027761543,-2.404098,-0.521086,1.2269304,0.8243821,0.039996855,0.04,-7.729092,-5.167457580566406,-3.1296368,0.0,-0.0,0.0
472.14999999989925,0.52101576,-0.7796228,0.027761543,-2.404098,-0.521086,1.2269304,0.8243821,0.039996855,0.04,-7.729092,-5.167457580566406,-3.1296368,0.0,-0.0,0.0
472.1666666665659,0.52101576,-0.7796228,0.027761543,-2.404098,-0.521086,1.2269304,0.8243821,0.039996855,0.04,-7.729092,-5.167457580566406,-3.1296368,0.0,-0.0,0.0
472.18333333323255,0.52101576,-0.7796228,0.027761543,-2.404098,-0.521086,1.2269304,0.8243821,0.039996855,0.04,-7.729092,-5.167457580566406,-3.1296368,0.0,-0.0,0.0
472.1999999998992,0.52101576,-0.7796228,0.027761543,-2.404098,-0.521086,1.2269304,0.8243821,0.039996855,0.04,-7.729092,-5.167457580566406,-3.1296368,0.0,-0.0,0.0
472.21666666656586,0.52101576,-0.7796228,0.027761543,-2.404098,-0.521086,1.2269304,0.8243821,0.039996855,0.04,-7.729092,-5.167457580566406,-3.1296368,0.0,-0.0,0.0
472.2333333332325,0.52101576,-0.7796228,0.027761543,-2.404098,-0.521086,1.2269304,0.8243821,0.039996855,0.04,-7.729092,-5.167457580566406,-3.1296368,0.0,-0.0,0.0
472.24999999989916,0.52101576,-0.7796228,0.027761543,-2.404098,-0.521086,1.2269304,0.8243821,0.039996855,0.04,-7.729092,-5.167457580566406,-3.1296368,0.0,-0.0,0.0
472.2666666665658,0.52101576,-0.7796228,0.027761543,-2.404098,-0.521086,1.2269304,0.8243821,0.039996855,0.04,-7.729092,-5.167457580566406,-3.1296368,0.0,-0.0,0.0
472.28333333323246,0.52101576,-0.7796228,0.027761543,-2.404098,-0.521086,1.2269304,0.8243821,0.039996855,0.04,-7.729092,-5.167457580566406,-3.1296368,0.0,-0.0,0.0
472.2999999998991,0.52101576,-0.7796228,0.027761543,-2.404098,-0.521086,1.2269304,0.8243821,0.039996855,0.04,-7.729092,-5.167457580566406,-3.1296368,0.0,-0.0,0.0
472.31666666656577,0.52101576,-0.7796228,0.027761543,-2.404098,-0.521086,1.2269304,0.8243821,0.039996855,0.04,-7.729092,-5.167457580566406,-3.1296368,0.0,-0.0,0.0
472.3333333332324,0.52101576,-0.7796228,0.027761543,-2.404098,-0.521086,1.2269304,0.8243821,0.039996855,0.04,-7.729092,-5.167457580566406,-3.1296368,0.0,-0.0,0.0
472.34999999989907,0.52101576,-0.7796228,0.027761543,-2.404098,-0.521086,1.2269304,0.8243821,0.039996855,0.04,-7.729092,-5.167457580566406,-3.1296368,0.0,-0.0,0.0
472.3666666665657,0.52101576,-0.7796228,0.027761543,-2.404098,-0.521086,1.2269304,0.8243821,0.039996855,0.04,-7.729092,-5.167457580566406,-3.1296368,0.0,-0.0,0.0
472.3833333332324,0.52101576,-0.7796228,0.027761543,-2.404098,-0.521086,1.2269304,0.8243821,0.039996855,0.04,-7.729092,-5.167457580566406,-3.1296368,0.0,-0.0,0.0
472.399999999899,0.52101576,-0.7796228,0.027761543,-2.404098,-0.521086,1.2269304,0.8243821,0.039996855,0.04,-7.729092,-5.167457580566406,-3.1296368,0.0,-0.0,0.0
472.4166666665657,0.52101576,-0.7796228,0.027761543,-2.404098,-0.521086,1.2269304,0.8243821,0.039996855,0.04,-7.729092,-5.167457580566406,-3.1296368,0.0,-0.0,0.0
472.4333333332323,0.52101576,-0.7796228,0.027761543,-2.404098,-0.521086,1.2269304,0.8243821,0.039996855,0.04,-7.729092,-5.167457580566406,-3.1296368,0.0,-0.0,0.0
472.449999999899,0.52101576,-0.7796228,0.027761543,-2.404098,-0.521086,1.2269304,0.8243821,0.039996855,0.04,-7.729092,-5.167457580566406,-3.1296368,0.0,-0.0,0.0
472.46666666656563,0.52101576,-0.7796228,0.027761543,-2.404098,-0.521086,1.2269304,0.8243821,0.039996855,0.04,-7.729092,-5.167457580566406,-3.1296368,0.0,-0.0,0.0
472.4833333332323,0.52101576,-0.7796228,0.027761543,-2.404098,-0.521086,1.2269304,0.8243821,0.039996855,0.04,-7.729092,-5.167457580566406,-3.1296368,0.0,-0.0,0.0
472.49999999989893,0.52101576,-0.7796228,0.027761543,-2.404098,-0.521086,1.2269304,0.8243821,0.039996855,0.04,-7.729092,-5.167457580566406,-3.1296368,0.0,-0.0,0.0
472.5166666665656,0.52101576,-0.7796228,0.027761543,-2.404098,-0.521086,1.2269304,0.8243821,0.039996855,0.04,-7.729092,-5.167457580566406,-3.1296368,0.0,-0.0,0.0
472.53333333323224,0.52101576,-0.7796228,0.027761543,-2.404098,-0.521086,1.2269304,0.8243821,0.039996855,0.04,-7.729092,-5.167457580566406,-3.1296368,0.0,-0.0,0.0
472.5499999998989,0.52101576,-0.7796228,0.027761543,-2.404098,-0.521086,1.2269304,0.8243821,0.039996855,0.04,-7.729092,-5.167457580566406,-3.1296368,0.0,-0.0,0.0
472.56666666656554,0.52101576,-0.7796228,0.027761543,-2.404098,-0.521086,1.2269304,0.8243821,0.039996855,0.04,-7.729092,-5.167457580566406,-3.1296368,0.0,-0.0,0.0
472.5833333332322,0.52101576,-0.7796228,0.027761543,-2.404098,-0.521086,1.2269304,0.8243821,0.039996855,0.04,-7.729092,-5.167457580566406,-3.1296368,0.0,-0.0,0.0
472.59999999989884,0.52101576,-0.7796228,0.027761543,-2.404098,-0.521086,1.2269304,0.8243821,0.039996855,0.04,-7.729092,-5.167457580566406,-3.1296368,0.0,-0.0,0.0
472.6166666665655,0.52101576,-0.7796228,0.027761543,-2.404098,-0.521086,1.2269304,0.8243821,0.039996855,0.04,-7.729092,-5.167457580566406,-3.1296368,0.0,-0.0,0.0
472.63333333323214,0.52101576,-0.7796228,0.027761543,-2.404098,-0.521086,1.2269304,0.8243821,0.039996855,0.04,-7.729092,-5.167457580566406,-3.1296368,0.0,-0.0,0.0
472.6499999998988,0.52101576,-0.7796228,0.027761543,-2.404098,-0.521086,1.2269304,0.8243821,0.039996855,0.04,-7.729092,-5.167457580566406,-3.1296368,0.0,-0.0,0.0
472.66666666656545,0.52101576,-0.7796228,0.027761543,-2.404098,-0.521086,1.2269304,0.8243821,0.039996855,0.04,-7.729092,-5.167457580566406,-3.1296368,0.0,-0.0,0.0
472.6833333332321,0.52101576,-0.7796228,0.027761543,-2.404098,-0.521086,1.2269304,0.8243821,0.039996855,0.04,-7.729092,-5.167457580566406,-3.1296368,0.0,-0.0,0.0
472.69999999989875,0.52101576,-0.7796228,0.027761543,-2.404098,-0.521086,1.2269304,0.8243821,0.039996855,0.04,-7.729092,-5.167457580566406,-3.1296368,0.0,-0.0,0.0
472.7166666665654,0.52101576,-0.7796228,0.027761543,-2.404098,-0.521086,1.2269304,0.8243821,0.039996855,0.04,-7.729092,-5.167457580566406,-3.1296368,0.0,-0.0,0.0
472.73333333323205,0.52101576,-0.7796228,0.027761543,-2.404098,-0.521086,1.2269304,0.8243821,0.039996855,0.04,-7.729092,-5.167457580566406,-3.1296368,0.0,-0.0,0.0
472.7499999998987,0.52101576,-0.7796228,0.027761543,-2.404098,-0.521086,1.2269304,0.8243821,0.039996855,0.04,-7.729092,-5.167457580566406,-3.1296368,0.0,-0.0,0.0
472.76666666656536,0.52101576,-0.7796228,0.027761543,-2.404098,-0.521086,1.2269304,0.8243821,0.039996855,0.04,-7.729092,-5.167457580566406,-3.1296368,0.0,-0.0,0.0
472.783333333232,0.52101576,-0.7796228,0.027761543,-2.404098,-0.521086,1.2269304,0.8243821,0.039996855,0.04,-7.729092,-5.167457580566406,-3.1296368,0.0,-0.0,0.0
472.79999999989866,0.52101576,-0.7796228,0.027761543,-2.404098,-0.521086,1.2269304,0.8243821,0.039996855,0.04,-7.729092,-5.167457580566406,-3.1296368,0.0,-0.0,0.0
472.8166666665653,0.52101576,-0.7796228,0.027761543,-2.404098,-0.521086,1.2269304,0.8243821,0.039996855,0.04,-7.729092,-5.167457580566406,-3.1296368,0.0,-0.0,0.0
472.83333333323196,0.52101576,-0.7796228,0.027761543,-2.404098,-0.521086,1.2269304,0.8243821,0.039996855,0.04,-7.729092,-5.167457580566406,-3.1296368,0.0,-0.0,0.0
472.8499999998986,0.52101576,-0.7796228,0.027761543,-2.404098,-0.521086,1.2269304,0.8243821,0.039996855,0.04,-7.729092,-5.167457580566406,-3.1296368,0.0,-0.0,0.0
472.86666666656527,0.52101576,-0.7796228,0.027761543,-2.404098,-0.521086,1.2269304,0.8243821,0.039996855,0.04,-7.729092,-5.167457580566406,-3.1296368,0.0,-0.0,0.0
472.8833333332319,0.52101576,-0.7796228,0.027761543,-2.404098,-0.521086,1.2269304,0.8243821,0.039996855,0.04,-7.729092,-5.167457580566406,-3.1296368,0.0,-0.0,0.0
472.89999999989857,0.52101576,-0.7796228,0.027761543,-2.404098,-0.521086,1.2269304,0.8243821,0.039996855,0.04,-7.729092,-5.167457580566406,-3.1296368,0.0,-0.0,0.0
472.9166666665652,0.52101576,-0.7796228,0.027761543,-2.404098,-0.521086,1.2269304,0.8243821,0.039996855,0.04,-7.729092,-5.167457580566406,-3.1296368,0.0,-0.0,0.0
472.9333333332319,0.52101576,-0.7796228,0.027761543,-2.404098,-0.521086,1.2269304,0.8243821,0.039996855,0.04,-7.729092,-5.167457580566406,-3.1296368,0.0,-0.0,0.0
472.9499999998985,0.52101576,-0.7796228,0.027761543,-2.404098,-0.521086,1.2269304,0.8243821,0.039996855,0.04,-7.729092,-5.167457580566406,-3.1296368,0.0,-0.0,0.0
472.9666666665652,0.52101576,-0.7796228,0.027761543,-2.404098,-0.521086,1.2269304,0.8243821,0.039996855,0.04,-7.729092,-5.167457580566406,-3.1296368,0.0,-0.0,0.0
472.9833333332318,0.52101576,-0.7796228,0.027761543,-2.404098,-0.521086,1.2269304,0.8243821,0.039996855,0.04,-7.729092,-5.167457580566406,-3.1296368,0.0,-0.0,0.0
472.9999999998985,0.52101576,-0.7796228,0.027761543,-2.404098,-0.521086,1.2269304,0.8243821,0.039996855,0.04,-7.729092,-5.167457580566406,-3.1296368,0.0,-0.0,0.0
473.01666666656513,0.52101576,-0.7796228,0.027761543,-2.404098,-0.521086,1.2269304,0.8243821,0.039996855,0.04,-7.729092,-5.167457580566406,-3.1296368,0.0,-0.0,0.0
473.0333333332318,0.52101576,-0.7796228,0.027761543,-2.404098,-0.521086,1.2269304,0.8243821,0.039996855,0.04,-7.729092,-5.167457580566406,-3.1296368,0.0,-0.0,0.0
473.04999999989843,0.52101576,-0.7796228,0.027761543,-2.404098,-0.521086,1.2269304,0.8243821,0.039996855,0.04,-7.729092,-5.167457580566406,-3.1296368,0.0,-0.0,0.0
473.0666666665651,0.52101576,-0.7796228,0.027761543,-2.404098,-0.521086,1.2269304,0.8243821,0.039996855,0.04,-7.729092,-5.167457580566406,-3.1296368,0.0,-0.0,0.0
473.08333333323174,0.52101576,-0.7796228,0.027761543,-2.404098,-0.521086,1.2269304,0.8243821,0.039996855,0.04,-7.729092,-5.167457580566406,-3.1296368,0.0,-0.0,0.0
473.0999999998984,0.52101576,-0.7796228,0.027761543,-2.404098,-0.521086,1.2269304,0.8243821,0.039996855,0.04,-7.729092,-5.167457580566406,-3.1296368,0.0,-0.0,0.0
473.11666666656504,0.52101576,-0.7796228,0.027761543,-2.404098,-0.521086,1.2269304,0.8243821,0.039996855,0.04,-7.729092,-5.167457580566406,-3.1296368,0.0,-0.0,0.0
473.1333333332317,0.52101576,-0.7796228,0.027761543,-2.404098,-0.521086,1.2269304,0.8243821,0.039996855,0.04,-7.729092,-5.167457580566406,-3.1296368,0.0,-0.0,0.0
473.14999999989834,0.52101576,-0.7796228,0.027761543,-2.404098,-0.521086,1.2269304,0.8243821,0.039996855,0.04,-7.729092,-5.167457580566406,-3.1296368,0.0,-0.0,0.0
