rsonawane2002/My_IMU/logs_2/traj_465/clean_465.csv
time,j1,j2,j3,j4,j5,j6,j7,gripper1,gripper2,imu_ax,imu_ay,imu_az,imu_gx,imu_gy,imu_gz,quat_x,quat_y,quat_z,quat_w
2365.733333335845,0.00016700293,-0.785875,4.0107683e-05,-2.3551247,9.29385e-05,1.570997,0.786,0.04,0.04,0.0,-0.0,0.0,2.875329272945135e-08,-0.0011641195053377316,4.421952117202833e-08,0.9999995971961153,0.00020320632366974898,0.0008736418299892524,3.263050917662294e-05
2365.750000002512,0.00016701061,-0.78576016,4.0122683e-05,-2.3552213,9.2964154e-05,1.5709941,0.786,0.04,0.04,-0.29199846116525485,-4.283786682893957e-05,0.020128406077901673,-6.010818853807679e-07,-0.002238666426501683,-8.170897238012136e-07,0.9999996850601004,0.00020320192486882282,0.0007665025216404768,3.259696401614283e-05
2365.766666669179,0.00016705203,-0.78565425,4.0192892e-05,-2.35531,9.291893e-05,1.5709913,0.786,0.04,0.04,0.023262842209348378,-4.9982075594286104e-05,-0.001636591132014864,-3.719877399554587e-06,-0.0032285786457155294,-6.984907850823744e-06,0.9999997558776149,0.00020316076519544198,0.0006677674771020573,3.251169913843137e-05
2365.783333335846,0.0001671857,-0.78555685,4.0410334e-05,-2.355391,9.269175e-05,1.5709884,0.786,0.04,0.04,0.02239484749704257,-0.00014075713867455712,-0.001491120852392669,-1.2599180209053024e-05,-0.004142574535038147,-2.3328797784401445e-05,0.9999998123426521,0.00020302105811113248,0.0005771089058715603,3.2286547635646414e-05
2365.8000000025127,0.00016749735,-0.78546715,4.0907136e-05,-2.3554652,9.2124166e-05,1.5709856,0.786,0.04,0.04,0.020255402898561314,-0.00027364152413760965,-0.0013238236622914457,-2.906485111849703e-05,-0.004984693128691652,-5.424912130755241e-05,0.9999998570567253,0.00020269325159837906,0.0004937519959997352,3.179530136117895e-05
2365.8166666691795,0.00016809742,-0.78538454,4.185163e-05,-2.355532,9.101457e-05,1.5709827,0.786,0.04,0.04,0.020405853647820216,-0.0004446433956692105,-0.0007615104269165229,-5.517138506666802e-05,-0.00576086537099433,-0.00010369114696248983,0.9999998918982239,0.0002020625567860116,0.000417637203611494,3.087765880637872e-05
2365.8333333358464,0.00016911779,-0.7853085,4.3444375e-05,-2.3555968,8.913311e-05,1.5709832,0.786,0.04,0.039999995,0.011551089422967564,-0.0006559211177785981,-0.00041332011513350864,-9.240627344334553e-05,-0.006475545041219131,-0.00017442088114254437,0.9999999190188714,0.0002009922941917569,0.00034742349517747,2.9347287296044843e-05
2365.8500000025133,0.00017071074,-0.7852383,4.5915465e-05,-2.355655,8.618192e-05,1.5709838,0.78600127,0.04,0.04,0.017908137296673843,-0.0008745817787491803,-0.0003001141039682409,-0.00014225908805194767,-0.00713914640590425,-0.00027196514660946403,0.9999999394435193,0.00019995053879126644,0.0002835579783820954,2.6974300304948948e-05
2365.86666666918,0.00017304538,-0.7851737,4.9520182e-05,-2.3557067,8.186773e-05,1.5709846,0.7860032,0.04,0.04,0.01714453524548354,-0.0011446964993621278,-0.00010789566959878982,-0.0002117305361741135,-0.007750030180078137,-0.00039678036048702923,0.9999999545359667,0.0001984643590405422,0.00022580234425509065,2.3521562729232865e-05
2365.883333335847,0.00017630645,-0.7851142,5.4537202e-05,-2.3557568,7.587429e-05,1.5709854,0.7860051,0.04,0.03999999,0.008503517641433866,-0.0014418780858664495,-0.00217832948519181,-0.0002990932706803069,-0.008309296996451533,-0.0005506648417336598,0.9999999659169808,0.00019601502556116108,0.00017144470575250112,1.87312525430224e-05
2365.900000002514,0.00018069321,-0.78505915,6.1265855e-05,-2.355801,6.781454e-05,1.5709864,0.786007,0.04,0.039999995,0.014638387113863338,-0.0017281376516642204,0.00013488313166387655,-0.00040185769682166573,-0.008843863510532207,-0.0007397368844530544,0.999999973947932,0.00019239680343243991,0.00012221374114183183,1.2304752919771974e-05
2365.916666669181,0.00018641654,-0.78500825,7.002335e-05,-2.3558435,5.730484e-05,1.5709907,0.7860108,0.04,0.04,0.00891188439304802,-0.0020501295221129795,0.0009631504839680005,-0.000520909506166965,-0.009337473074786311,-0.0009642330967083714,0.9999999792371407,0.00018834570431566902,7.769237761056814e-05,3.938042292637977e-06
2365.9333333358477,0.00019369775,-0.7849611,8.11424e-05,-2.355883,4.3967168e-05,1.5709953,0.7860146,0.04,0.04,0.009531444196309025,-0.00240603136845735,-0.00048424503147348474,-0.0006651840793018245,-0.009796137685590055,-0.001223029240031669,0.9999999826155033,0.0001826794765801948,3.677814227760688e-05,-6.676097739568797e-06
2365.9500000025146,0.00020276803,-0.7849175,9.496993e-05,-2.3559184,2.7372966e-05,1.5710001,0.78601986,0.04,0.04,0.010407628563768867,-0.0027523297193052776,-0.00020357894610079086,-0.0008261768625894253,-0.010228533493411658,-0.0015213286380588872,0.9999999843364337,0.00017587486726034296,-4.0949929578000886e-07,-1.987450277673952e-05
2365.9666666691814,0.00021386577,-0.784877,0.000111864174,-2.3559527,7.125886e-06,1.5710082,0.7860256,0.04,0.03999999,0.006575312434531355,-0.0031440221932024174,0.001223457979726561,-0.001010868303105516,-0.010637523363481696,-0.0018557725553720657,0.9999999848036699,0.000167208933628005,-3.375103959279758e-05,-3.598193772233093e-05
2365.9833333358483,0.00022723731,-0.7848393,0.00013219424,-2.3559844,-1.7250632e-05,1.5710167,0.7860332,0.04,0.039999995,0.0076007602999528245,-0.0034972132410818397,-0.00011804267243675781,-0.0012148554399837096,-0.011018942879469336,-0.0022338113454942864,0.999999984057547,0.00015714292777769867,-6.422953822473042e-05,-5.536761398072558e-05
2366.000000002515,0.000243134,-0.7848039,0.00015633753,-2.3560128,-4.620706e-05,1.5710255,0.78604144,0.04,0.04,0.008420986828849841,-0.003885751384896056,0.00040684729065709746,-0.0014443040740310035,-0.011384207248828559,-0.0026531276295202067,0.999999982248215,0.00014476174771718865,-9.16657343643523e-05,-7.839004519466679e-05
2366.016666669182,0.0002618123,-0.7847709,0.00018467852,-2.3560405,-8.019437e-05,1.5710379,0.786051,0.04,0.04,0.0049182458172092325,-0.004287946981058861,0.0016634103116919263,-0.0016932065133148126,-0.011732424986537532,-0.0031137313471730948,0.9999999792699581,0.00013015838399485488,-0.00011579081410285635,-0.00010541046290328426
2366.033333335849,0.00028353214,-0.7847399,0.00021760743,-2.3560672,-0.000119662756,1.5710526,0.7860624,0.04,0.039999995,0.004579023676232197,-0.004700982034545279,0.0009624071465763606,-0.001964767450945158,-0.012060687495627526,-0.0036155250377320316,0.9999999747942172,0.00011336247973981823,-0.00013728948839751898,-0.00013679221269322157
2366.050000002516,0.00030855733,-0.7847106,0.00025551938,-2.356093,-0.00016511181,1.5710688,0.7860758,0.04,0.039999995,0.003957854307490294,-0.005087356338999752,0.00063210993339613,-0.0022610073481075005,-0.01237693829568086,-0.004162903013527089,0.9999999683438667,9.410194682287821e-05,-0.0001566973084183763,-0.0001729249626744406
2366.0666666691827,0.00033715376,-0.78468275,0.00029881316,-2.3561158,-0.00021702467,1.5710887,0.786091,0.039999995,0.04,0.0076811074884552966,-0.005495281463357461,0.0031895338610254953,-0.0025816481015058217,-0.012686627207013247,-0.004754579224186172,0.9999999596568877,7.210205176188607e-05,-0.00017207606100047673,-0.00021418997695223408
2366.0833333358496,0.00036958855,-0.7846563,0.0003478896,-2.3561375,-0.00027587908,1.5711102,0.7861082,0.03999999,0.04,0.004073086611589005,-0.005907375635961641,0.0009973372084193244,-0.0029263420287498226,-0.012970506161760887,-0.005390072120148049,0.9999999476651276,4.708705523504235e-05,-0.00018533183194053223,-0.0002609687019166841
2366.1000000025165,0.00040613016,-0.784631,0.00040315115,-2.356158,-0.00034213398,1.5711341,0.7861276,0.039999988,0.039999995,0.0040654566709097395,-0.0063390166326195195,0.0015426935580986623,-0.003294399655924328,-0.013249294510251376,-0.006067081816178046,0.999999931379695,1.895849977864107e-05,-0.00019625446434898,-0.0003136325328181688
2366.1166666691834,0.0004470477,-0.78460664,0.00046500127,-2.356178,-0.00041629034,1.5711617,0.78614944,0.039999984,0.04,0.003012854447725921,-0.006741957187555558,0.0025446913004767424,-0.0036867052378865297,-0.013521299818460984,-0.00679062353420366,0.9999999095908813,-1.2502354969102187e-05,-0.0002045739272032646,-0.0003725740581115387
2366.1333333358502,0.00049261,-0.7845831,0.00053384306,-2.356198,-0.0004988199,1.5711932,0.7861737,0.039999977,0.03999999,0.0021387419497420623,-0.007165159655834548,0.002363612521105729,-0.004103535595680794,-0.013783581018203463,-0.007556493605746893,0.9999998807056966,-4.7543663988863955e-05,-0.00021055634293601895,-0.0004381714496666511
2366.150000002517,0.0005430854,-0.78456014,0.00061007927,-2.3562179,-0.0005902056,1.5712279,0.7862007,0.039999973,0.03999999,0.0020940299828131614,-0.007579563722089873,0.0021606383955985464,-0.004544288533759202,-0.014039720194213467,-0.008367139819776513,0.9999998428095703,-8.629404068344679e-05,-0.000214497231746902,-0.0005108082913960388
2366.166666669184,0.0005987412,-0.7845377,0.0006941106,-2.3562374,-0.0006909257,1.5712659,0.7862303,0.03999997,0.039999988,0.0020028195909738145,-0.007994304669456019,0.002316049069128745,-0.005009407085080209,-0.014291584709287458,-0.009220656952426737,0.9999997936941368,-0.00012908964115722669,-0.00021639380166324384,-0.0005908648500866219
2366.183333335851,0.0006598437,-0.78451556,0.00078633626,-2.356257,-0.00080145866,1.5713077,0.7862629,0.039999966,0.039999988,0.0015824349181015052,-0.008406611216156438,0.0025417825977980257,-0.005497915049459834,-0.014541410058537525,-0.010118519163303962,0.9999997307956366,-0.00017602749441895715,-0.00021624271008409117,-0.0006787209041494831
2366.2000000025178,0.0007266569,-0.78449374,0.0008871525,-2.3562765,-0.00092227734,1.5713532,0.7862984,0.039999958,0.03999998,0.0015581272829967574,-0.008817345557803601,0.0026630936639904235,-0.006010457261891811,-0.014789244177502204,-0.01105871171797269,0.9999996511145617,-0.0002274408679881522,-0.00021401048733204342,-0.0007747521654671864
2366.2166666691846,0.000799443,-0.78447205,0.0009969525,-2.356296,-0.0010538533,1.5714029,0.7863372,0.039999954,0.039999977,0.0014780479762110943,-0.009224407373414944,0.0030292926265440556,-0.00654569698445585,-0.015035325478203573,-0.01204258923396365,0.9999995512728977,-0.00028336339064033753,-0.00020960333141138455,-0.0008793324942200945
2366.2333333358515,0.0008784622,-0.78445035,0.0011161261,-2.3563156,-0.0011966517,1.5714567,0.7863792,0.03999995,0.039999977,0.0013135815549292218,-0.0096297692925931,0.0030061698938155246,-0.007105290163556427,-0.015279594730004545,-0.013068008327229128,0.9999994272998861,-0.00034412447824445707,-0.0002031357196670002,-0.000992831366716904
2366.2500000025184,0.0009639718,-0.78442854,0.0012450593,-2.3563352,-0.0013511344,1.571515,0.78642464,0.03999995,0.039999977,0.0013384344350830801,-0.01003169314700205,0.0034270647989442793,-0.0076872910219366155,-0.0155227666822706,-0.014135473396052686,0.9999992747913425,-0.0004099022703108507,-0.0001944233902681732,-0.0011156148363514575
2366.2666666691853,0.0010562256,-0.78440636,0.0013841339,-2.3563547,-0.001517758,1.5715781,0.7864737,0.03999995,0.03999998,0.0011944689977116951,-0.010429343274438504,0.003826217069979876,-0.008292244035894344,-0.015763533539201752,-0.015245106039638658,0.999999088769248,-0.0004808422366098529,-0.00018340058994341903,-0.0012480447270726564
2366.283333335852,0.0011554755,-0.78438395,0.0015337267,-2.3563747,-0.0016969728,1.571646,0.7865265,0.03999995,0.03999998,0.00044782568293655345,-0.010821344222193465,0.003364199723199235,-0.008920021737737071,-0.016002601932623664,-0.016394873890162226,0.999998863567235,-0.0005571463474650848,-0.00017035854465945663,-0.001390478389706217
2366.300000002519,0.0012619685,-0.7843611,0.0016942094,-2.3563948,-0.001889224,1.5717186,0.7865831,0.039999954,0.039999988,0.0011061845233806267,-0.011209992881644837,0.0037659404428902477,-0.00957055953878853,-0.016244718526679965,-0.017585839718869588,0.9999985929480449,-0.0006390428057309956,-0.00015508113821394208,-0.0015432679817318834
2366.316666669186,0.0013759496,-0.78433794,0.0018659488,-2.356415,-0.002094949,1.5717964,0.7866437,0.039999958,0.03999999,0.0009269116556298584,-0.011596257950075971,0.003977385558107116,-0.010242640602309444,-0.01648475604657475,-0.018815703523379423,0.9999982699768757,-0.000726727638265479,-0.00013741103026379962,-0.0017067596211249399
2366.333333335853,0.0014976594,-0.7843139,0.002049306,-2.3564363,-0.0023145815,1.5718796,0.78670835,0.03999996,0.04,-0.0007683106235223391,-0.0119715933573788,0.004010389029662775,-0.010936692326514414,-0.01672444454939328,-0.02008554746225127,0.9999978869132705,-0.0008203636110814172,-0.00011787542688982716,-0.00188129687273101
2366.3500000025197,0.0016273345,-0.78428924,0.0022446373,-2.3564584,-0.002548538,1.5719678,0.78677714,0.039999966,0.04,-0.0006729729629562087,-0.012351266834723096,0.0036390514457806944,-0.011652303781816064,-0.016969050815919234,-0.021392127111622736,0.9999974352699811,-0.0009201984657857774,-9.655377689537043e-05,-0.002067212038362227
2366.3666666691865,0.001765208,-0.78426397,0.0024522904,-2.3564816,-0.002797216,1.5720621,0.7868502,0.03999997,0.039999995,-0.0002554985501168616,-0.012735594198884327,0.004400809358529045,-0.012388757023953985,-0.017219160894368892,-0.022735890754750326,0.9999969058923117,-0.0010263872849791032,-7.286879652328987e-05,-0.002264823410945027
2366.3833333358534,0.0019115087,-0.78423786,0.0026726106,-2.3565066,-0.0030610529,1.5721617,0.78692776,0.039999966,0.039999995,-0.0023912379266688433,-0.013073458426979224,0.0034797939893582708,-0.013145634764519243,-0.017469007588893776,-0.024119197279892902,0.9999962885913399,-0.0011390815353746584,-4.782163949472155e-05,-0.0024744716390159207
2366.4000000025203,0.0020664614,-0.784211,0.0029059357,-2.3565333,-0.0033404708,1.5722678,0.7870099,0.039999954,0.039999995,-0.0014907174658684852,-0.013422945623989182,0.004525743162431262,-0.013923043739445567,-0.017730575561096643,-0.025540342385732002,0.999995572408098,-0.0012584598283670754,-2.0594534614912144e-05,-0.0026964826953012346
2366.416666669187,0.0022302868,-0.78418297,0.0031525954,-2.35656,-0.0036358566,1.5723796,0.78709674,0.039999947,0.039999995,0.0007011266837109176,-0.013785711743309337,0.004852075439831793,-0.014720984001138408,-0.017995555733399355,-0.026996404785543535,0.9999947454002505,-0.0013846938251822268,9.065113639934516e-06,-0.0029311623500920345
2366.433333335854,0.0024032001,-0.7841541,0.0034129145,-2.3565872,-0.003947585,1.5724977,0.7871884,0.039999943,0.039999995,0.0004258976293636252,-0.01414194833482308,0.004907558298539172,-0.015538495640989683,-0.018262779945597697,-0.028486390819360358,0.9999937946205271,-0.0015179526263567797,4.138123701517076e-05,-0.0031788091884064683
2366.450000002521,0.0025854143,-0.78412414,0.00368721,-2.3566148,-0.0042760437,1.5726222,0.78728503,0.039999936,0.039999995,0.00011418114773675825,-0.014478161508500991,0.005069801418877695,-0.016375884907044645,-0.018531070930845748,-0.030011315383856593,0.9999927060641861,-0.0016584018395327603,7.622137580601637e-05,-0.0034397255801631027
2366.466666669188,0.0027771343,-0.784093,0.0039757923,-2.3566427,-0.0046216045,1.5727532,0.7873866,0.03999993,0.039999995,0.0006143819609061296,-0.014814256562879768,0.0053483167087087224,-0.01723238392084602,-0.018800397809870223,-0.03156952113124127,0.9999914645461246,-0.0018062606835139718,0.00011384150869234475,-0.0037142021149633494
2366.4833333358547,0.0029785635,-0.7840607,0.004278968,-2.3566718,-0.0049846317,1.5728909,0.78749335,0.03999992,0.039999995,-0.0010141174745958992,-0.015140895679773177,0.005034066499254308,-0.018107256849010222,-0.019071134189272743,-0.03316018807040248,0.9999900540192372,-0.0019616279437024813,0.00015381388615362605,-0.004002526664747444
2366.5000000025216,0.0031899004,-0.78402716,0.0045970306,-2.356703,-0.0053654695,1.573035,0.78760535,0.039999917,0.039999995,-0.002754892641609885,-0.015458287179393078,0.00445260440038453,-0.019000849225593096,-0.019347164994757568,-0.03478183405322922,0.9999884572776266,-0.0021246845120250473,0.00019553294296499344,-0.004304973182827731
2366.5166666691885,0.003411337,-0.7839924,0.004930273,-2.356737,-0.00576445,1.5731863,0.7877227,0.039999917,0.039999995,-0.0032495413829769504,-0.015787822251082766,0.004728483945193318,-0.01991245090798598,-0.019634209538228843,-0.03643316286703097,0.9999866559170346,-0.0022955804555405447,0.00023916945408484412,-0.0046218065959662945
2366.5333333358553,0.0036430627,-0.78395635,0.005278977,-2.3567712,-0.0061819335,1.5733446,0.78784543,0.039999917,0.04,0.0002538484920266981,-0.01609862419942147,0.005665248998321104,-0.02084230143961475,-0.01993041537219782,-0.038116133666474886,0.9999846298750974,-0.0024745175192448505,0.0002857000694499438,-0.0049532970920183545
2366.550000002522,0.0038852608,-0.7839189,0.0056434195,-2.356806,-0.006618233,1.57351,0.78797376,0.03999992,0.04,0.00025246844974624594,-0.016419765125149244,0.00577837840975981,-0.021788793925296132,-0.020230672377937114,-0.03982719778543611,0.999982358305884,-0.0026615757850908884,0.00033517952169657126,-0.005299693012906555
2366.566666669189,0.0041381107,-0.7838803,0.0060238694,-2.3568413,-0.0070736734,1.5736827,0.7881077,0.039999917,0.04,0.0004791091129829894,-0.016717865738471397,0.005667650521701262,-0.02275277535857633,-0.020531484018086434,-0.0415676203715444,0.9999798187006161,-0.00285694924187189,0.00038772312855132,-0.005661245736387078
2366.583333335856,0.0044017867,-0.7838402,0.006420586,-2.3568776,-0.0075485767,1.5738627,0.78824735,0.039999917,0.04,-0.000555748083752583,-0.017000281470378777,0.005788078514878947,-0.023733208245831545,-0.0208338691476486,-0.043334817509415396,0.9999769874753174,-0.003060769067223287,0.0004430904356537551,-0.006038201998281672
2366.600000002523,0.0046764566,-0.7837986,0.006833826,-2.3569167,-0.008043249,1.5740503,0.78839284,0.039999917,0.04,-0.0036917250664458834,-0.017267193553749307,0.005094279461270723,-0.024729930236066032,-0.021140763595032266,-0.04512883534978204,0.9999738399962907,-0.0032731637430306196,0.0005004763594589422,-0.0064308044284859395
2366.6166666691897,0.004962287,-0.7837554,0.0072638365,-2.3569586,-0.008557952,1.5742455,0.7885442,0.039999913,0.04,-0.003762878523572155,-0.017570306027939967,0.005026660643725478,-0.025742768964387028,-0.021460555586811186,-0.04694881350070289,0.999970349969653,-0.0034943151603266096,0.0005598219918692874,-0.00683926476073428
2366.6333333358566,0.005259437,-0.78371084,0.0077108582,-2.357001,-0.00909301,1.5744485,0.78870153,0.039999913,0.04,0.0005728756199419038,-0.01785304430993867,0.006288752594674207,-0.026771130845059582,-0.021794787802017018,-0.04879387462886052,0.9999664888855939,-0.0037243100954016477,0.000622590763613411,-0.0072638144849447054
2366.6500000025235,0.0055680606,-0.78366476,0.008175121,-2.357044,-0.009648692,1.5746592,0.78886503,0.03999991,0.04,0.0005063582307451853,-0.018124760455251986,0.006220487822838905,-0.027814752082261706,-0.022129030636802625,-0.05066485922349778,0.999962227500299,-0.003963259191572461,0.0006887275999268735,-0.007704661155034703
2366.6666666691904,0.0058883084,-0.78361696,0.008656854,-2.3570876,-0.010225267,1.5748776,0.7890346,0.039999906,0.04,-0.00016205629658205822,-0.01839269025855038,0.006144786134920643,-0.028873455094073536,-0.022465200785079964,-0.0525592778807865,0.9999575348187584,-0.004211362893948338,0.0007579699078636573,-0.008162013439457098
2366.6833333358572,0.0062203263,-0.78356755,0.009156275,-2.3571336,-0.010822998,1.5751042,0.78921044,0.0399999,0.04,-0.002638484576822364,-0.01863055039171054,0.005753542957465108,-0.029946519389158724,-0.02280779044649782,-0.054476248938874386,0.9999523789889726,-0.004468699075014524,0.0008298789235136222,-0.008636074562169221
2366.700000002524,0.006564255,-0.78351647,0.009673593,-2.3571832,-0.011442155,1.5753392,0.7893926,0.03999989,0.04,-0.004651996967641736,-0.018847951685896196,0.00532222600651,-0.0310342805206473,-0.023158782939701555,-0.0564157392104768,0.9999467265213899,-0.004735399562945122,0.0009039278901023086,-0.009127049057903536
2366.716666669191,0.0069202306,-0.7834636,0.010209016,-2.3572333,-0.012082981,1.5755821,0.78958106,0.039999884,0.04,0.00041932274132960856,-0.019146144523996163,0.0065058341172319345,-0.03213573924694799,-0.023527449703905023,-0.05837576164586525,0.9999405407480858,-0.005011617041992779,0.0009814690059984795,-0.009635111916350261
2366.733333335858,0.007288381,-0.78340894,0.010762739,-2.3572838,-0.012745679,1.5758334,0.78977597,0.03999988,0.04,0.000579537275768871,-0.01941586770588862,0.006754941148234828,-0.03325050865669613,-0.02389842431167918,-0.060354194933568514,0.9999337845937571,-0.005297442360358543,0.001062724160035373,-0.010160420749360341
2366.7500000025248,0.0076688356,-0.7833528,0.011334947,-2.357335,-0.013430504,1.5760931,0.78997743,0.039999876,0.04,0.0005538599239240938,-0.019626055963044113,0.006461881817831916,-0.03437834222127015,-0.024271464993484856,-0.062352634785341074,0.999926419212937,-0.005592961219267136,0.0011477684283548615,-0.010703157124332598
2366.7666666691916,0.008061716,-0.783295,0.011925828,-2.357389,-0.0141376695,1.5763613,0.7901854,0.039999872,0.04,-0.0027635241892864926,-0.019832258229248237,0.005859953281017738,-0.03551955499713548,-0.024648426830017937,-0.0643693771103186,0.9999184047626157,-0.0058983526710720355,0.0012357240738638936,-0.011263491411041016
2366.7833333358585,0.008467138,-0.78323543,0.012535558,-2.3574464,-0.014867381,1.5766381,0.79039997,0.03999987,0.04,-0.00440060002278031,-0.020036395027671176,0.005442808548861144,-0.036672757532291114,-0.025035579375753264,-0.06640356744074541,0.9999097000402977,-0.006213697411461939,0.0013261333686089883,-0.01184158351275091
2366.8000000025254,0.008885212,-0.78317416,0.013164299,-2.3575046,-0.015619822,1.5769235,0.7906213,0.039999865,0.04,0.0005225084245275013,-0.020323071047123956,0.006714600810364679,-0.03783834838956837,-0.025440373900743954,-0.06845330915392836,0.9999002601037864,-0.006539063223279582,0.0014204774393068184,-0.012437553633508803
2366.8166666691923,0.009316044,-0.78311104,0.01381222,-2.3575633,-0.016395189,1.5772177,0.7908493,0.039999865,0.04,0.0009290242986903507,-0.020556920068892648,0.007045773415303991,-0.039015964249266996,-0.025848924916869687,-0.07051891886269371,0.9998900389400891,-0.006874583642604505,0.0015189871631536185,-0.013051544204652184
2366.833333335859,0.009759741,-0.78304607,0.01447947,-2.3576226,-0.017193666,1.5775205,0.79108423,0.03999986,0.04,0.000506263474342461,-0.020759824974660515,0.006738555491603293,-0.04020488503428999,-0.026258374830804787,-0.07260057984249679,0.9998789898809678,-0.007220324578829115,0.0016214788474640785,-0.01368368787787515
2366.850000002526,0.010216398,-0.7829792,0.015166196,-2.3576858,-0.018015448,1.577832,0.7913261,0.039999858,0.04,-0.004737490607809036,-0.02086483460983536,0.005436957804572096,-0.04140531418942688,-0.026673425862523872,-0.07469718325037111,0.9998670664530976,-0.007576352776603132,0.001726489524613109,-0.014334138795298918
2366.866666669193,0.01068611,-0.78291047,0.01587254,-2.3577511,-0.018860692,1.5781525,0.79157466,0.039999854,0.04,-0.0016541729899843816,-0.02112619528062236,0.006399230088227625,-0.042617261550914505,-0.02710801475537349,-0.0768101338775514,0.9998542154393654,-0.007942936009963186,0.001835117746949804,-0.015002998984451904
2366.88333333586,0.01116897,-0.78283983,0.016598638,-2.3578172,-0.019729597,1.5784822,0.7918302,0.03999986,0.04,0.0007809935196556594,-0.02134283766225334,0.007055074563155905,-0.04383907790450963,-0.027551247745542712,-0.07893802386682224,0.9998403839818203,-0.008320040632459964,0.0019481109944313375,-0.015690390260076424
2366.9000000025267,0.011665051,-0.78276736,0.017344613,-2.3578842,-0.020622248,1.5788207,0.79209274,0.03999986,0.04,0.00046881111432917066,-0.021557735705220182,0.006798292497345315,-0.045070876447130544,-0.027998062068573703,-0.08106903291014271,0.9998255188385442,-0.008707737963568,0.0020653817418375305,-0.016396383047927884
2366.9166666691935,0.012174437,-0.7826929,0.018110579,-2.3579533,-0.021538805,1.5791684,0.79236233,0.039999854,0.04,-0.0015485084980282338,-0.021699927241047162,0.006476795997722995,-0.04631292495182353,-0.028451504938019772,-0.08321354416884943,0.9998095648279952,-0.009106139770158924,0.002186457229299066,-0.017121089384888936
2366.9333333358604,0.012697203,-0.78261656,0.01889666,-2.3580263,-0.022479398,1.5795251,0.79263896,0.039999846,0.04,-0.004331145797609182,-0.021830906790459847,0.0054822853576830255,-0.04756461137223042,-0.028914384114981283,-0.08536636860047053,0.9997924660936014,-0.009515353029681874,0.0023104791271440577,-0.017864615456214514
2366.9500000025273,0.013233422,-0.7825382,0.019702958,-2.3581,-0.023444181,1.5798912,0.79292274,0.039999835,0.04,0.0010410769352597882,-0.022102186711699112,0.007277527922089355,-0.048825981569479635,-0.029396713955340395,-0.08753047138436111,0.9997741602288222,-0.009935414312015632,0.002439244248406509,-0.01862702790836126
2366.966666669194,0.013783163,-0.7824579,0.020529568,-2.3581743,-0.024433253,1.5802662,0.7932137,0.03999983,0.04,0.001095827260133575,-0.02227505067413718,0.006825675292776445,-0.050096036522464665,-0.029881693884596612,-0.08970132783842051,0.9997545868358197,-0.010366381783100053,0.0025726434355625976,-0.0194083934219213
2366.983333335861,0.014346481,-0.7823756,0.021376587,-2.35825,-0.025446737,1.5806507,0.79351175,0.03999982,0.04,0.0003805292453140652,-0.022433114674029128,0.007000605151574746,-0.05137535520986345,-0.030373116333714336,-0.0918806043555421,0.9997336818977748,-0.010808439531431666,0.0027106864182417124,-0.020208787523154057
2367.000000002528,0.014923437,-0.7822913,0.022244101,-2.3583305,-0.026484733,1.5810443,0.7938171,0.039999817,0.04,-0.006051768372228317,-0.022439879569329316,0.005030401125449835,-0.0526625277601125,-0.030870227790846583,-0.09406590573279691,0.9997113870136579,-0.011261533464660887,0.0028514527195592047,-0.021028308458852406
2367.016666669195,0.015514079,-0.7822051,0.02313219,-2.3584118,-0.027547324,1.5814474,0.79412967,0.039999817,0.04,0.0014833127364388687,-0.0227783531728587,0.007083079714553797,-0.053958598384804005,-0.03139335707319656,-0.09625651858103279,0.9996876301310325,-0.011725794545445749,0.0029973100823314992,-0.021866962238694488
2367.0333333358617,0.016118461,-0.782117,0.024040928,-2.358494,-0.028634587,1.5818597,0.7944495,0.03999981,0.04,0.0011211901733032548,-0.022937148982897504,0.006851850116884606,-0.05526247906959766,-0.03191880610797014,-0.09845262284801018,0.9996623438634283,-0.012201273624207604,0.0031481568887564756,-0.02272479464435037
2367.0500000025286,0.016736615,-0.782027,0.024970377,-2.3585773,-0.02974663,1.5822816,0.79477656,0.0399998,0.04,0.001282982814987399,-0.023059734077850516,0.006994532707826906,-0.05657386029517268,-0.032450647883944125,-0.10065475136940005,0.9996354574095978,-0.01268806897454769,0.003304189993267287,-0.023601854242617987
2367.0666666691955,0.017368603,-0.7819349,0.025920592,-2.3586655,-0.03088351,1.5827128,0.79511094,0.03999979,0.04,-0.005817514328265716,-0.023039079492883155,0.005044506089646461,-0.05789233566256906,-0.032987122469204086,-0.10285973217590409,0.9996069062985089,-0.013186213370633283,0.003463256424061011,-0.024498214469822033
2367.0833333358623,0.018014448,-0.7818406,0.02689164,-2.3587544,-0.032045305,1.5831535,0.79545265,0.039999783,0.04,0.0015297766279731562,-0.023375662747116693,0.007194812137467643,-0.059218025972502766,-0.033548336659825005,-0.10506685971198054,0.9995766112902442,-0.01369576280372449,0.0036276429666286807,-0.02541386332777278
2367.100000002529,0.018674176,-0.7817444,0.027883563,-2.3588445,-0.03323205,1.5836037,0.7958018,0.03999978,0.04,0.0011377154194747163,-0.02350223853990127,0.006771710965969291,-0.06055053196532088,-0.0341161307880785,-0.10727523972206121,0.9995444989034865,-0.014216715832188913,0.003797345029381957,-0.02634881161366821
2367.116666669196,0.019347817,-0.78164625,0.028896393,-2.3589354,-0.034443792,1.5840632,0.7961583,0.039999776,0.04,0.0018611022087444695,-0.02363351105774472,0.00671617614882436,-0.061889842504979434,-0.03468934818598494,-0.10948570148409062,0.9995104919682773,-0.014749181822527217,0.0039724761349996165,-0.027303067854274995
2367.133333335863,0.020035403,-0.78154606,0.029930174,-2.359031,-0.03568058,1.5845324,0.7965219,0.03999977,0.04,-0.004835168295946879,-0.023597187286235333,0.0053129856588229885,-0.06323550831680741,-0.0352682155435811,-0.11169623851240551,0.9994745159484809,-0.015293367649942028,0.0041513622506394055,-0.02827668769388359
2367.15000000253,0.02073694,-0.7814438,0.03098494,-2.3591275,-0.036942452,1.5850106,0.7968929,0.039999757,0.04,0.0014687996287232608,-0.02387672967455387,0.0065023482967996316,-0.06458620399385225,-0.035871284990545406,-0.11390655439530742,0.9994364889112587,-0.015849148925616213,0.00433561531488802,-0.02926963530538485
2367.1666666691967,0.02145246,-0.7813393,0.032060716,-2.3592253,-0.03822944,1.5854992,0.7972715,0.039999746,0.04,0.001408188450446879,-0.024069857466468836,0.0073008128185003685,-0.06594230964055542,-0.03648204383952678,-0.11611668148704815,0.9993963295796493,-0.01641648446577959,0.004525746231689835,-0.03028189362566393
2367.1833333358636,0.022181954,-0.7812328,0.0331575,-2.3593237,-0.039541587,1.5859967,0.7976573,0.039999742,0.04,0.0021367668032956644,-0.02409540998854834,0.0064896362605759705,-0.067304809633883,-0.0370978325823415,-0.11832421223916645,0.999353953157928,-0.016995588713932194,0.004721572400248556,-0.0313134639725157
2367.2000000025305,0.022925442,-0.7811243,0.0342753,-2.3594239,-0.040878862,1.586504,0.79805064,0.039999735,0.04,0.0008642024120320002,-0.024231102204405608,0.006417466762398405,-0.06867158498361114,-0.03772030445824292,-0.12052920721541449,0.999309278970635,-0.01758637018723079,0.004923041857312366,-0.032364304498914004
2367.2166666691974,0.023682924,-0.7810138,0.03541413,-2.359528,-0.04224125,1.5870209,0.7984513,0.03999973,0.04,-0.003173945418089019,-0.02421474520384534,0.005321074797381975,-0.07004392844143673,-0.03835276540728178,-0.122731146702897,0.9992622249293758,-0.018188969251953017,0.0051290248058846605,-0.03343441836320137
2367.2333333358642,0.024454398,-0.7809013,0.036574,-2.3596337,-0.043628804,1.587547,0.7988595,0.039999723,0.04,0.001318557998386538,-0.024426987049687432,0.00607602974633803,-0.07142085431713549,-0.0390044507176216,-0.12492951556522129,0.9992127006196031,-0.018803314868117732,0.0053407234929363995,-0.03452377359185709
2367.250000002531,0.025239857,-0.78078693,0.037754882,-2.35974,-0.045041483,1.588083,0.799275,0.039999716,0.04,0.0029761458040011846,-0.02463359793302075,0.006933920336904542,-0.07280252741790595,-0.03966583286669442,-0.12712129872672615,0.9991606133049817,-0.019429528101584857,0.005559035276876037,-0.035632280091975825
2367.266666669198,0.026039297,-0.78067064,0.038956776,-2.359847,-0.0464793,1.5886283,0.79969794,0.039999716,0.04,0.0028126554159735306,-0.024685686285420838,0.006265123829729546,-0.0741877634577904,-0.04033058485091299,-0.12931460417500734,0.9991058754729444,-0.02006756685447616,0.005783644695905789,-0.036759921246025506
2367.283333335865,0.026852705,-0.78055245,0.040179674,-2.3599591,-0.047942236,1.5891832,0.8001282,0.039999723,0.04,-0.004258784572996888,-0.024515085088963606,0.0046188460818052945,-0.0755770848053993,-0.04100155404756575,-0.13150125042762956,0.9990484027894265,-0.02071754670716467,0.006012743374446219,-0.03790671522890262
2367.3000000025318,0.027680065,-0.780432,0.041423522,-2.3600726,-0.04943021,1.5897475,0.8005659,0.039999712,0.04,0.0014732441420806097,-0.024856773545105237,0.006209321667238754,-0.07697025752936702,-0.041697604662047,-0.13367486978211113,0.9989880990576266,-0.02137943354046507,0.006247921387941162,-0.03907251260219143
2367.3166666691986,0.02852135,-0.7803096,0.04268832,-2.3601866,-0.050943214,1.5903213,0.8010109,0.039999705,0.04,0.0036106054266404897,-0.025023337434661175,0.006385636728789557,-0.07836680576999774,-0.04240230991502129,-0.13584089757572956,0.9989248658877533,-0.02205326708761588,0.006489935565220575,-0.0402572534862427
2367.3333333358655,0.029376538,-0.78018534,0.043974023,-2.3603015,-0.052481186,1.5909051,0.80146337,0.039999697,0.04,0.003095120662965911,-0.025130925780262464,0.006552064996956375,-0.0797660658811279,-0.04311189900819605,-0.1379980346292352,0.9988586096687609,-0.02273901223929252,0.006738950186163516,-0.04146084614861976
2367.3500000025324,0.03024561,-0.78005916,0.045280572,-2.3604214,-0.054044105,1.5914979,0.8019231,0.03999969,0.04,-0.0040303454841517095,-0.024784378422895714,0.003952821701558307,-0.08116860474984751,-0.04382536534935457,-0.14014764952242337,0.9987892451523058,-0.02343676754451376,0.006992565152585635,-0.04268331908062566
2367.3666666691993,0.031128522,-0.7799309,0.046607938,-2.3605428,-0.055631902,1.5921003,0.80239016,0.03999968,0.04,0.002141066039862416,-0.02520537647838772,0.005966179997241028,-0.08257398484254387,-0.04456651252826353,-0.14228791524306994,0.9987166666486471,-0.024146504206388912,0.007252821999124957,-0.043924510991871106
2367.383333335866,0.032025263,-0.77980053,0.047956053,-2.3606644,-0.057244506,1.5927119,0.80286455,0.03999967,0.04,0.004210356201084231,-0.025386298839030763,0.0062682934427016335,-0.08398152362495183,-0.04531438812563239,-0.14441639843802692,0.9986407741088498,-0.024868217344611535,0.007520303167137984,-0.045184301407155444
2367.400000002533,0.032935765,-0.7796683,0.049324885,-2.360787,-0.05888188,1.593333,0.80334634,0.03999966,0.04,0.003338729093194104,-0.02538819608459142,0.005870640007921146,-0.0853910437988378,-0.04606760680771128,-0.14653500062191255,0.998561469222225,-0.025601872294512832,0.007794908682649431,-0.0464626271146609
2367.4166666692,0.033859987,-0.77953404,0.050714355,-2.360915,-0.060543906,1.5939634,0.80383515,0.039999645,0.04,-0.00440657333062866,-0.02505025014397852,0.0036976245385567097,-0.08680304721621829,-0.046827189844513874,-0.14864130387214097,0.9984786621361947,-0.02634766382197272,0.008074384606297436,-0.04775946171250819
2367.433333335867,0.034797907,-0.7793977,0.052124385,-2.361044,-0.062230542,1.5946032,0.8043312,0.03999964,0.04,0.003355997937748434,-0.02552293452423443,0.005841116254279299,-0.08821644735674843,-0.04761461319677917,-0.15073481138664038,0.9983922411332644,-0.027105480695368025,0.008361106818172653,-0.04907461313088312
2367.4500000025337,0.035749465,-0.77925944,0.05355492,-2.3611732,-0.063941695,1.595252,0.8048345,0.039999638,0.04,0.004707648201063286,-0.02564582733828452,0.00576687577171775,-0.08963070973819463,-0.048407584104497366,-0.15281632544304521,0.9983021039883554,-0.027875265199263238,0.00865542371472045,-0.050407959716815484
2367.4666666692005,0.036714617,-0.77911913,0.055005867,-2.361303,-0.06567726,1.5959104,0.805345,0.039999615,0.04,0.004090304178960835,-0.025716973902118606,0.005866397737985807,-0.09104595720635238,-0.04920554775674452,-0.15488455944432034,0.99820814755663,-0.02865704740596667,0.008957412712883275,-0.05175937154781136
2367.4833333358674,0.037693284,-0.77897686,0.056477156,-2.3614388,-0.06743714,1.5965779,0.8058627,0.03999961,0.04,-0.004455411056292213,-0.02521354700555506,0.003144751054962036,-0.09246265230574989,-0.05000829502070957,-0.1569363459178103,0.9981102862283063,-0.02945082145976773,0.00926447468008935,-0.05312885420837788
2367.5000000025343,0.038685437,-0.7788327,0.057968706,-2.3615754,-0.06922123,1.5972546,0.8063875,0.039999608,0.04,0.003957419736511092,-0.02580998591415473,0.005372925463542622,-0.09388089115256631,-0.05084041528023506,-0.15897334263679508,0.9980083974806445,-0.030256645049423995,0.009579245850759473,-0.054516163083985665
2367.516666669201,0.039690994,-0.7786865,0.0594804,-2.361712,-0.071029395,1.5979403,0.8069194,0.039999593,0.04,0.005516219943024758,-0.02590060623284124,0.005503302529485943,-0.09529839463263981,-0.05167809225803732,-0.16099580388184462,0.9979023787998902,-0.031074398209521886,0.009902106167429828,-0.05592112708883402
2367.533333335868,0.040709894,-0.7785384,0.061012153,-2.361849,-0.07286152,1.5986354,0.8074583,0.039999586,0.04,0.004965207977369879,-0.025988137621453522,0.00556128524631383,-0.09671635488602949,-0.05251864752277697,-0.16300093808019764,0.9977921214074171,-0.0319041659519976,0.010233161013188212,-0.05734360529188832
2367.550000002535,0.041742057,-0.7783883,0.06256385,-2.361991,-0.07471753,1.5993394,0.8080042,0.039999574,0.04,-0.0024641179878548414,-0.025437622791606163,0.0031096997962665185,-0.09813345985571229,-0.05336337601717209,-0.16499417057456728,0.9976775376046771,-0.03274589152680054,0.010570083341400695,-0.05878359367492605
2367.566666669202,0.04278743,-0.77823627,0.0641354,-2.362135,-0.07659729,1.6000526,0.8085572,0.039999574,0.04,0.0022890136804010197,-0.02585346414189782,0.0045673598141560134,-0.0995514175827605,-0.05423293555220798,-0.1669712619372945,0.9975585113166945,-0.03359951952727744,0.010914533742341616,-0.060240864372482154
2367.5833333358687,0.043845937,-0.7780823,0.06572667,-2.3622792,-0.07850063,1.6007744,0.809117,0.03999958,0.04,0.005495620410544966,-0.026043828004158887,0.004791292673611558,-0.1009689058256017,-0.05511147724595748,-0.16892513796891762,0.9974349300237938,-0.034465111810140024,0.011267237688325587,-0.061715199029240116
2367.6000000025356,0.04491749,-0.77792645,0.06733755,-2.362424,-0.08042736,1.6015058,0.80968374,0.039999563,0.04,0.005501580332500922,-0.026216560652331244,0.0052977030534417935,-0.10238496560260361,-0.055996095388760506,-0.1708590752941207,0.9973066864781894,-0.035342598280687566,0.01162866382147665,-0.06320639232222874
2367.6166666692025,0.04600202,-0.7777687,0.06896792,-2.3625712,-0.082377404,1.602245,0.8102574,0.039999552,0.04,0.001393322712606171,-0.02577460141712229,0.003025673206580315,-0.10379918246357085,-0.05688130204417628,-0.17277553543994384,0.9971736888782397,-0.03623190225248404,0.011997021928148275,-0.06471441055117295
2367.6333333358693,0.047099434,-0.777609,0.07061766,-2.3627229,-0.08435062,1.6029936,0.81083775,0.03999954,0.04,-0.0008550191784584271,-0.025734463384449735,0.0033269708735961245,-0.10521354770647576,-0.05778618473604913,-0.17467313978011034,0.9970358257025737,-0.03713312612079439,0.012372355965448667,-0.06623909735155509
2367.650000002536,0.04820963,-0.7774474,0.07228665,-2.3628747,-0.08634682,1.6037508,0.811425,0.039999533,0.04,0.005918581068642403,-0.026221764364729727,0.0044570338453953084,-0.10662626494492601,-0.05870835743227735,-0.1765477318717197,0.9968929828174616,-0.03804609402700933,0.012756385077407525,-0.06778016065449485
2367.666666669203,0.049332544,-0.77728397,0.073974736,-2.3630269,-0.08836586,1.6045167,0.8120189,0.039999522,0.04,0.006132570654293623,-0.026261194930379816,0.004424455567519914,-0.10803728683005197,-0.05963460335754206,-0.17840284036990814,0.996745048577786,-0.03897084642526987,0.01314930246377992,-0.06933741493076534
2367.68333333587,0.050468072,-0.7771186,0.0756818,-2.363181,-0.09040755,1.6052912,0.81261945,0.039999507,0.04,0.0028557611889246104,-0.026054698877447935,0.0034188729659323513,-0.10944553679176046,-0.060562595047017234,-0.18023644148390705,0.9965919254318701,-0.039907340897309566,0.013550175252897421,-0.07091072596666384
2367.700000002537,0.05161612,-0.7769515,0.07740767,-2.3633382,-0.09247175,1.6060742,0.8132267,0.039999496,0.04,0.0018290481427429839,-0.025910743047241613,0.0028569268660794123,-0.11085179114942575,-0.06150229800357605,-0.1820485591527482,0.996433510126577,-0.04085550844775066,0.013958755400003738,-0.07249993430333083
2367.7166666692037,0.052776583,-0.7767826,0.079152204,-2.3634977,-0.09455827,1.6068658,0.8138404,0.039999478,0.04,0.00278367654167333,-0.025990154050377356,0.0030687098220516518,-0.11225635927008668,-0.06245672785903152,-0.1838384040278897,0.9962696902947337,-0.041815394863384384,0.01437543789801628,-0.07410481588732856
2367.7333333358706,0.053949356,-0.7766119,0.08091526,-2.3636572,-0.09666692,1.6076655,0.81446064,0.03999947,0.04,0.006920726786452391,-0.026336985846098226,0.003751700048826301,-0.11365742071068949,-0.06342251516731146,-0.1856030844444089,0.9961003541367917,-0.04278683940369647,0.014801374479801687,-0.07572509607725417
2367.7500000025375,0.055134367,-0.7764395,0.08269666,-2.3638184,-0.09879749,1.6084739,0.8150873,0.03999946,0.04,0.004202557456833844,-0.026189512209021104,0.0031968330712617288,-0.11505535884286303,-0.06439019274275644,-0.187345941922092,0.9959253995472783,-0.04376987056032591,0.015235982052492901,-0.07736059603326874
2367.7666666692044,0.05633147,-0.7762655,0.08449627,-2.363981,-0.10094977,1.6092902,0.81572044,0.039999444,0.04,0.004778267211702492,-0.026142206987356253,0.002639722923247767,-0.11644971570213775,-0.06536405457187108,-0.18906344227901434,0.99574472489579,-0.044764362620237835,0.015679304248810737,-0.07901110111676989
2367.7833333358712,0.05754057,-0.77608967,0.08631393,-2.3641467,-0.10312363,1.6101149,0.8163599,0.03999943,0.04,0.0017923731878699556,-0.025937946210925766,0.0022226900498134583,-0.11784113146541353,-0.06634627369195473,-0.1907591265680365,0.995558226205308,-0.04577035530588281,0.016130640822465108,-0.08067648502984562
2367.800000002538,0.05876155,-0.7759121,0.08814941,-2.3643138,-0.105318874,1.6109476,0.81700563,0.03999942,0.04,0.004769103762702898,-0.026036371364403232,0.0025550116436567905,-0.11922893248436278,-0.06734335255744925,-0.19242874073215435,0.9953657970785497,-0.046787701051014756,0.01659080587017095,-0.08235645813852552
2367.816666669205,0.059994295,-0.7757328,0.09000257,-2.364482,-0.10753525,1.6117884,0.81765765,0.039999407,0.04,0.0057086743102674475,-0.02621531037687308,0.0027465058217712723,-0.12061324186538508,-0.06834691795644882,-0.19407213129882228,0.9951673311027252,-0.047816355634762185,0.017060194036910555,-0.08405075263858042
2367.833333335872,0.061238702,-0.7755518,0.091873266,-2.3646507,-0.10977256,1.612637,0.8183157,0.039999396,0.04,0.006128162106766588,-0.026283462648699074,0.002572890607166478,-0.1219929026734522,-0.06935506129789207,-0.19569272272587163,0.994962717606605,-0.048856358892769604,0.01753889801749245,-0.08575916175518486
2367.8500000025388,0.062494628,-0.7753691,0.09376129,-2.3648212,-0.11203058,1.6134937,0.81897974,0.039999377,0.04,0.004680894404884839,-0.026074271854774345,0.0020994057578382908,-0.12336700397811945,-0.0703672512294217,-0.19728804065493177,0.9947518616776571,-0.049907605904171384,0.018026626383955524,-0.08748145690923759
2367.8666666692056,0.063761964,-0.7751848,0.09566646,-2.3649945,-0.11430915,1.6143581,0.81964993,0.039999377,0.04,0.002712686565975453,-0.02580379046201592,0.0012591936731309872,-0.12473651682099846,-0.07138670149473574,-0.19885573663469375,0.9945346695212934,-0.050969956623971364,0.01852280223346593,-0.08921748953732131
2367.8833333358725,0.06504058,-0.7749989,0.0975886,-2.3651698,-0.11660796,1.61523,0.8203262,0.039999366,0.04,0.004341174054434127,-0.025963914057199056,0.0013999869803438258,-0.12610166630879033,-0.07241729488837294,-0.2003939344129272,0.9943110415979072,-0.052043317542622,0.019027872082290766,-0.09096694861136513
2367.9000000025394,0.06633036,-0.77481127,0.09952748,-2.3653457,-0.118926786,1.6161095,0.82100827,0.039999347,0.04,0.006370665103250239,-0.026151863691817323,0.0019792382746741666,-0.12746251616659476,-0.07345763676846018,-0.2019028651005533,0.9940808671608692,-0.05312772406515204,0.019542508985359846,-0.09272952508725993
2367.9166666692063,0.06763115,-0.7746221,0.10148292,-2.3655229,-0.12126542,1.6169966,0.82169604,0.03999934,0.04,0.005832033403607717,-0.026032534925286843,0.0015582101726918651,-0.12881706983317037,-0.07450006312249907,-0.20338445438158043,0.9938440475233956,-0.05422309522146284,0.020066653426054803,-0.0945049975778915
2367.933333335873,0.06894287,-0.7744312,0.10345476,-2.365701,-0.12362366,1.6178912,0.8223896,0.03999933,0.04,0.006104680791274575,-0.02609190974813269,0.0014423825428044879,-0.1301649427979759,-0.07554655593749297,-0.2048404354737549,0.9936004845070392,-0.05532932290873653,0.020600344751935066,-0.09629314103267832
2367.95000000254,0.070265315,-0.77423906,0.1054428,-2.3658812,-0.1260012,1.6187931,0.8230888,0.039999314,0.04,0.004522134791629107,-0.025808516057393427,0.0005990078890905082,-0.13150698311893122,-0.07659685420678664,-0.2062633835347934,0.9933500898020242,-0.05644631955873813,0.021143243210477933,-0.09809370706179718
2367.966666669207,0.07159838,-0.7740453,0.10744677,-2.366064,-0.1283978,1.6197022,0.8237937,0.039999302,0.04,0.003353052505050691,-0.02558448163875182,0.0002764236463725922,-0.13284284236200763,-0.07765428363889443,-0.20765841460122095,0.9930927790287276,-0.05757397101423242,0.021694930933153337,-0.09990645662046418
2367.983333335874,0.07294194,-0.7738499,0.109466486,-2.3662477,-0.13081324,1.6206185,0.8245041,0.039999284,0.04,0.006699386834885246,-0.02594719109851873,0.0010067753666742618,-0.13417302882343288,-0.07872162240729491,-0.20902436027343368,0.9928284415975431,-0.058712240866362106,0.022256435741221898,-0.10173106406374215
2368.0000000025407,0.074295826,-0.77365303,0.11150175,-2.3664317,-0.13324723,1.6215417,0.8252199,0.03999927,0.04,0.007258028274992334,-0.025977880232452844,0.0008362790679949939,-0.13549571014978645,-0.07979215467664065,-0.2103594396163041,0.9925569891529348,-0.05986098828203566,0.022827955032505967,-0.10356722374666968
2368.0166666692076,0.07565994,-0.7734547,0.113552354,-2.366617,-0.13569957,1.6224719,0.82594126,0.03999925,0.04,0.0061260025488341086,-0.025753374396680906,0.00028721742184600885,-0.1368107926586721,-0.08086133319872199,-0.21166704678463347,0.9922783328686657,-0.06102010673716793,0.023409188422362,-0.1054147361167899
2368.0333333358744,0.07703409,-0.77325505,0.11561804,-2.366804,-0.13816997,1.623409,0.8266682,0.03999923,0.04,0.005422803857157987,-0.025561706200816214,-7.219616664499995e-05,-0.13811890842160127,-0.08193329310366843,-0.21294124618216628,0.9919923968281914,-0.062189387297655434,0.024000007719753212,-0.10727331621635451
2368.0500000025413,0.07841813,-0.7730539,0.117698625,-2.3669932,-0.14065816,1.6243529,0.8274002,0.039999213,0.04,0.004062099728985302,-0.02536539648713143,-0.0005283044969495165,-0.13942107329304596,-0.08300974000871647,-0.2141871640061381,0.9916990859917852,-0.06336897939126934,0.02459998500938416,-0.10914273238060695
2368.066666669208,0.079811916,-0.7728512,0.11979386,-2.3671842,-0.14316389,1.6253035,0.82813686,0.039999213,0.04,0.005307382456720688,-0.025412714301498163,-0.0004142191102118886,-0.1407154284851791,-0.08409413041327261,-0.2153975274289084,0.9913982984343856,-0.06455894818478553,0.025209468956263626,-0.11102269473230206
2368.083333335875,0.08121533,-0.77264726,0.121903524,-2.3673756,-0.14568682,1.6262609,0.82887924,0.03999919,0.04,0.007633227745684756,-0.02571870363496931,-4.144960634722139e-05,-0.14199888439191977,-0.08518338336328703,-0.21658032315857345,0.9910899820345646,-0.06575861481301629,0.02582932584444056,-0.11291278942184303
2368.100000002542,0.08262817,-0.77244186,0.12402739,-2.367568,-0.14822672,1.6272244,0.8296262,0.039999172,0.04,0.006528007928419122,-0.02536135414876739,-0.0007217144553983701,-0.1432762625082104,-0.08626930401181948,-0.2177308085507464,0.9907740291138433,-0.06696836190946576,0.02645896935045588,-0.11481282453452514
2368.116666669209,0.08405031,-0.7722351,0.12616524,-2.367761,-0.15078336,1.6281943,0.83037823,0.03999915,0.04,0.007499128785748432,-0.025472817841917794,-0.000589748390122935,-0.14454302368440916,-0.08735740280936029,-0.21884962942639613,0.9904503683666265,-0.06818783456701881,0.027098821523733406,-0.11672249522478437
2368.1333333358757,0.0854816,-0.7720272,0.1283168,-2.3679554,-0.1533564,1.6291705,0.831135,0.03999913,0.04,0.005747685591472873,-0.025087487685659937,-0.0013687541943863124,-0.1458016990709671,-0.08844460384233342,-0.21993573737342276,0.9901189240880576,-0.06941704936616988,0.027748444545518242,-0.11864153254786561
2368.1500000025426,0.08692186,-0.77181786,0.13048184,-2.368152,-0.15594555,1.6301526,0.8318968,0.03999912,0.04,0.004863199161375675,-0.024866240729129463,-0.0017697740700928222,-0.1470503760041629,-0.08953151526941898,-0.22098866517874788,0.9897796467103855,-0.07065567314593921,0.028407416547861487,-0.12056967071048585
2368.1666666692095,0.08837092,-0.77160716,0.13266014,-2.3683503,-0.15855058,1.6311405,0.83266294,0.039999094,0.04,0.004963857857553933,-0.02474931511955991,-0.0019217494983347905,-0.14829183837757312,-0.0906252612778685,-0.22201041719797526,0.9894324363162913,-0.07190390680868368,0.029075783710172415,-0.1225066567680947
2368.1833333358763,0.08982865,-0.7713954,0.13485144,-2.3685493,-0.16117115,1.6321349,0.8334336,0.03999908,0.04,0.007613487906121819,-0.025148398051710874,-0.0012003015499528757,-0.14952236812440706,-0.09172461435010484,-0.22299518545510183,0.9890772127028199,-0.07316153286882542,0.029754702654705426,-0.12445205940535718
2368.200000002543,0.09129487,-0.7711823,0.13705552,-2.3687491,-0.16380697,1.6331346,0.83420914,0.039999053,0.04,0.006922162215827754,-0.02479141431803722,-0.002124376836842856,-0.15074170438498086,-0.09281654562859384,-0.223949608998249,0.9887139399784072,-0.07442817665778503,0.030443476967271024,-0.12640564117916406
2368.21666666921,0.0927694,-0.77096796,0.13927208,-2.3689494,-0.1664577,1.6341403,0.8349887,0.03999904,0.04,0.0076422267000664235,-0.024886955194897142,-0.001678447600306221,-0.15195249333156416,-0.09390921927447134,-0.22487033732163075,0.9883425221313972,-0.0757040764580817,0.031142599371958332,-0.12836701390519092
2368.233333335877,0.09425205,-0.77075255,0.14150089,-2.369151,-0.16912304,1.6351514,0.8357727,0.039999023,0.04,0.006061244691557555,-0.024413322657831915,-0.0026533070544676463,-0.15315050378750014,-0.09499839075970144,-0.22575757539791927,0.9879629210822692,-0.07698886482568383,0.031851517365846925,-0.13033595858755073
2368.250000002544,0.0957427,-0.7705359,0.14374167,-2.369354,-0.1718027,1.636168,0.83656085,0.039999,0.04,0.006271857278927762,-0.024395179671243827,-0.0025826210318324883,-0.15433874845211876,-0.09608710430476408,-0.2266123249708023,0.9875750702888905,-0.07828251757106837,0.0325702881642581,-0.1323121472712373
2368.2666666692107,0.097241186,-0.7703181,0.14599428,-2.3695583,-0.17449644,1.6371899,0.8373531,0.03999899,0.04,0.0059303227426754646,-0.02425924080880215,-0.00305825794648662,-0.15551490363971862,-0.09717328499307444,-0.2274316326118449,0.9871789020353365,-0.07958492356731411,0.03329877981753092,-0.1342953706564596
2368.2833333358776,0.09874732,-0.7700993,0.1482583,-2.3697639,-0.17720388,1.638217,0.8381493,0.039998967,0.04,0.006466878937749776,-0.024051063659957794,-0.0031383498667825194,-0.15667989392415888,-0.09826159683956323,-0.2282182256680571,0.986774371821339,-0.08089592726401051,0.034037178388478764,-0.13628521033497565
2368.3000000025445,0.10026089,-0.7698793,0.1505336,-2.3699706,-0.17992477,1.6392491,0.83894956,0.039998945,0.04,0.006183667118153657,-0.023935924978094048,-0.003337572851092041,-0.15783238682339054,-0.09934610481411243,-0.22896993311587055,0.9863614268841069,-0.08221532046295145,0.034785326078585845,-0.1382814438958799
2368.3166666692114,0.10178175,-0.76965827,0.15281978,-2.3701777,-0.18265872,1.6402861,0.83975375,0.039998934,0.04,0.007561814283740809,-0.023887843329806202,-0.0033419268000933755,-0.158973883926096,-0.10043017752289504,-0.22968529840008683,0.9859400271834096,-0.08354291355567835,0.03554361578801754,-0.14028362616114398
2368.3333333358783,0.10330971,-0.7694362,0.15511669,-2.370386,-0.18540542,1.641328,0.8405617,0.03999891,0.04,0.006653623138452858,-0.02375672507133053,-0.003659507149511576,-0.1601031541994669,-0.10150736468731125,-0.23036653341325,0.9855101155566252,-0.08487867218518913,0.03631180100509019,-0.14229151855052077
2368.350000002545,0.104844615,-0.76921314,0.15742397,-2.3705945,-0.18816458,1.6423748,0.84137326,0.039998893,0.04,0.007602641603066118,-0.02363460514688276,-0.0036394067159939425,-0.16121935894848388,-0.10258174109423408,-0.23101279304990152,0.9850716472389152,-0.08622242857192282,0.037090185680873786,-0.14430474955221692
2368.366666669212,0.10638627,-0.76898915,0.15974143,-2.370804,-0.19093588,1.643426,0.8421884,0.039998867,0.04,0.006599151870956277,-0.023312455004220745,-0.004314229261237479,-0.16232257389642935,-0.10364844034977715,-0.23162665970201818,0.9846245860245395,-0.0875740287091436,0.03787831758020806,-0.14632309164635332
2368.383333335879,0.10793448,-0.7687642,0.16206874,-2.3710146,-0.19371895,1.6444817,0.84300715,0.03999885,0.04,0.006601363229452595,-0.023151005161875515,-0.004359068933612598,-0.1634120770098756,-0.1047102727900821,-0.23220287869002387,0.9841689048890803,-0.08893327240311208,0.038676262079193995,-0.14834617103479142
2368.4000000025458,0.10948907,-0.7685383,0.16440567,-2.3712265,-0.19651353,1.6455417,0.8438291,0.039998826,0.04,0.005678129902664253,-0.022796658993617935,-0.004851384584059204,-0.16448881561346393,-0.10576771902019001,-0.23274878423778178,0.9837045560288978,-0.09030015447369176,0.039483656394494054,-0.15037376575632475
2368.4166666692126,0.11104989,-0.7683116,0.16675194,-2.3714392,-0.19931921,1.6466062,0.84465426,0.039998803,0.04,0.007146112871248,-0.02297930968269135,-0.004634158903815688,-0.16555144748611525,-0.10682254464073737,-0.2332548670884632,0.9832315061549594,-0.09167448942448132,0.04030106270600702,-0.1524054383471178
2368.4333333358795,0.11261672,-0.768084,0.16910721,-2.3716528,-0.20213574,1.6476746,0.84548277,0.03999879,0.04,0.006269934641878194,-0.02240538816013493,-0.005227819582631632,-0.16659909538922962,-0.10786834146618228,-0.2337276056809848,0.9827497504293032,-0.09305595663703026,0.04112793721747547,-0.15444095876983155
2368.4500000025464,0.11418938,-0.76785547,0.17147122,-2.3718674,-0.20496276,1.648747,0.84631425,0.03999876,0.04,0.006366017028325288,-0.02231961169393004,-0.005231055989574074,-0.1676336587676197,-0.1089112891226671,-0.23416672926439813,0.9822592489608016,-0.09444455653095164,0.04196439679918725,-0.1564799762714525
2368.4666666692133,0.11576768,-0.76762617,0.17384374,-2.3720827,-0.20779999,1.6498232,0.8471488,0.03999874,0.04,0.006798638189220441,-0.02216598070012843,-0.0054908360554328794,-0.16865302086664336,-0.10994576467160513,-0.23456794033766348,0.9817599785134399,-0.09584004829336805,0.042810508679733884,-0.15852220689542904
2368.48333333588,0.11735147,-0.76739615,0.17622449,-2.3722982,-0.21064694,1.6509031,0.84798616,0.039998714,0.04,0.007566293590466344,-0.022230988082080905,-0.005568140497680396,-0.1696576175411814,-0.1109736233817607,-0.23493409406161406,0.9812519239899256,-0.09724231109038577,0.043666450553565356,-0.1605672310775865
2368.500000002547,0.118940495,-0.76716536,0.17861311,-2.3725142,-0.21350335,1.6519865,0.8488262,0.039998688,0.04,0.006964194467506957,-0.02170856870304938,-0.005888462112113579,-0.17064589261170085,-0.1119909351477318,-0.23526644982603784,0.9807350769722643,-0.0986511666323373,0.04453192703141428,-0.1626147705257871
2368.516666669214,0.12053459,-0.76693374,0.18100934,-2.3727312,-0.21636894,1.6530733,0.84966904,0.039998665,0.04,0.006028564409277237,-0.021342592623957435,-0.006168001603468198,-0.17161876413241667,-0.11299929335116878,-0.23556355436693072,0.9802094286405717,-0.10006641772767386,0.04540667153206536,-0.16466457490199182
2368.533333335881,0.12213357,-0.7667015,0.18341294,-2.3729486,-0.21924323,1.6541636,0.8505144,0.039998636,0.04,0.007021882550017899,-0.02145841549347771,-0.006271250100220449,-0.1725755857143387,-0.11399980209500979,-0.23582628886947637,0.9796749686200299,-0.10148793374962119,0.046290994507752294,-0.16671622293603916
2368.5500000025477,0.123737246,-0.76646864,0.18582362,-2.3731666,-0.22212595,1.6552572,0.8513622,0.03999861,0.04,0.00686363792521405,-0.021161166737768133,-0.0064283107936713435,-0.1735162187195337,-0.11498955006188251,-0.23605289025204199,0.9791316861780585,-0.10291556588103629,0.04718478232881925,-0.16876943958572643
2368.5666666692146,0.12534542,-0.766235,0.18824099,-2.3733852,-0.22501682,1.6563538,0.8522126,0.03999859,0.04,0.0061404883783700015,-0.020591111326767608,-0.006788563535509162,-0.17443960431125405,-0.11596830749620582,-0.2362461631051687,0.9785796056228069,-0.10434899432207417,0.04808766576614731,-0.17082394224536154
2368.5833333358814,0.12695792,-0.76600087,0.1906649,-2.3736045,-0.22791533,1.6574534,0.8530652,0.03999857,0.04,0.0063642912388139905,-0.020636035176008205,-0.007136768082705025,-0.1753471981002629,-0.11693803759261842,-0.23640379777312737,0.9780187122210531,-0.10578821186241984,0.04899972906469075,-0.17287937797207495
2368.6000000025483,0.1285745,-0.76576614,0.19309498,-2.3738246,-0.23082124,1.6585556,0.85391986,0.039998543,0.04,0.006051929918804433,-0.020084781058979373,-0.007383930638726888,-0.17623745643913216,-0.11789729875087636,-0.23652518504906506,0.9774490208585546,-0.10723299436346942,0.04992069325998897,-0.17493547646757984
2368.616666669215,0.13019502,-0.7655308,0.19553092,-2.3740451,-0.2337342,1.6596606,0.8547765,0.039998513,0.04,0.0064206878965578085,-0.01997977216025293,-0.0073256040591607174,-0.17711013219510005,-0.11884721577412069,-0.23661255017048072,0.9768705336664611,-0.10868320574854952,0.050850688865553176,-0.17699188875290428
2368.633333335882,0.13181923,-0.76529485,0.19797239,-2.3742666,-0.2366538,1.6607679,0.8556351,0.039998494,0.04,0.005299934381763904,-0.01941183246935152,-0.007833241096366628,-0.17796447060101572,-0.1197832400992388,-0.23666452398952642,0.976283294667025,-0.11013858036476339,0.05178922375778867,-0.17904831183761238
2368.650000002549,0.13344698,-0.76505846,0.20041916,-2.3744886,-0.2395797,1.661878,0.85649556,0.03999846,0.04,0.006425798330633725,-0.01953545692932046,-0.0076686644064905,-0.17880163727562629,-0.12071338272596552,-0.2366836665717677,0.9756872948297682,-0.11159899960178261,0.05273677578302208,-0.18110438557821137
2368.666666669216,0.13507803,-0.76482165,0.202871,-2.3747108,-0.2425116,1.66299,0.8573578,0.03999843,0.04,0.006476531112808992,-0.01910045855569864,-0.008239117808606089,-0.1796195212923753,-0.12162715901216438,-0.23666775402318274,0.9750825634661436,-0.11306419871835677,0.053693009201199765,-0.183159881402532
2368.6833333358827,0.13671222,-0.7645844,0.20532747,-2.374934,-0.24544917,1.6641041,0.85822177,0.039998412,0.04,0.005232332525850758,-0.01849346861049206,-0.008439278352545543,-0.18041934181701288,-0.12252867416355713,-0.23661666457486466,0.9744691372759815,-0.11453399456193585,0.054657625249464215,-0.18521449346198543
2368.7000000025496,0.13834931,-0.7643468,0.20778832,-2.375157,-0.2483919,1.6652204,0.8590872,0.03999839,0.04,0.006724878479880125,-0.01866686405859186,-0.008197251538755168,-0.18120113160965934,-0.12341900330934896,-0.23652856857354937,0.973847044346016,-0.1160082405099956,0.055630997857115685,-0.18726776131978892
2368.7166666692165,0.13998914,-0.76410866,0.21025328,-2.3753803,-0.2513395,1.6663383,0.85995424,0.039998356,0.04,0.006407093963178845,-0.018279305607360463,-0.008587881498534067,-0.18196294947639444,-0.12429437286326762,-0.2364113945574164,0.9732163240896277,-0.1174866804783167,0.05661282529024403,-0.18931945079234444
2368.7333333358833,0.14163148,-0.7638701,0.21272205,-2.3756037,-0.25429165,1.6674579,0.86082244,0.039998326,0.04,0.005962967607486824,-0.017823885945378315,-0.008796913169706322,-0.1827057644921905,-0.12515356138695946,-0.23625913797547654,0.972576997545074,-0.11896924757144932,0.05760292149701109,-0.19136929067512715
2368.75000000255,0.14327614,-0.76363134,0.2151943,-2.375827,-0.25724807,1.6685795,0.8616919,0.039998293,0.04,0.006561601183596721,-0.01762853745829185,-0.008729573775245747,-0.1834282760173082,-0.12599999302306297,-0.23607325035660656,0.9719291001681807,-0.12045567740573031,0.05860154578552169,-0.19341694046423266
2368.766666669217,0.14492296,-0.7633923,0.21766967,-2.376051,-0.2602082,1.6697018,0.8625625,0.039998274,0.04,0.005219356231211947,-0.01685842434780982,-0.009746580446923225,-0.18412934944322043,-0.1268254907394912,-0.23585119952988154,0.971272729104171,-0.121945700435506,0.05960784643370289,-0.19546211010670503
2368.783333335884,0.14657165,-0.76315296,0.22014794,-2.3762753,-0.26317176,1.6708263,0.86343414,0.039998233,0.04,0.005396624404152561,-0.016967971654285874,-0.008889962352065517,-0.18481207139282518,-0.12764148256668598,-0.2356010394573564,0.9706078901187835,-0.1234392551867381,0.06062232186973112,-0.19750445060613084
2368.800000002551,0.14822209,-0.7629134,0.22262879,-2.3764997,-0.26613846,1.6719517,0.86430675,0.03999821,0.04,0.005896881632194706,-0.01637701833895333,-0.009754201070455437,-0.18547273322040847,-0.12843891757208514,-0.23531605050340965,0.9699346519537324,-0.12493603017408934,0.0616445809684024,-0.19954374192382282
2368.8166666692177,0.14987403,-0.7626736,0.22511192,-2.3767242,-0.2691079,1.6730781,0.8651801,0.03999819,0.04,0.005348821842443563,-0.01602603775111011,-0.009736347844957471,-0.18611344722553846,-0.12922035355079514,-0.234998330196023,0.9692530642456988,-0.12643592849085583,0.06267447917643715,-0.2015796693541811
2368.8333333358846,0.15152727,-0.76243365,0.22759698,-2.3769488,-0.27207953,1.6742054,0.8660541,0.039998166,0.04,0.005599779154374929,-0.01580879029678406,-0.009868006451574374,-0.18673243123827882,-0.1299841688594476,-0.23464522742063348,0.9685632206657322,-0.1279386685125902,0.0637119956312276,-0.20361180291313224
2368.8500000025515,0.15318164,-0.7621935,0.23008378,-2.3771737,-0.2750533,1.6753335,0.8669287,0.039998133,0.04,0.005063030552210357,-0.01524019764697071,-0.010152710216337901,-0.1873297329710197,-0.13073213681076434,-0.23426498193187653,0.967865137742337,-0.12944414653582445,0.06475683250995214,-0.20564007565136055
2368.8666666692184,0.15483691,-0.7619533,0.23257187,-2.3773985,-0.27802876,1.6764618,0.86780375,0.03999811,0.04,0.005308386316515978,-0.014648880157847044,-0.010481709957188556,-0.1879049984570665,-0.13146253593791898,-0.2338487296569966,0.9671589201890274,-0.13095201965517847,0.06580881562276432,-0.20766413131148434
2368.8833333358853,0.15649287,-0.761713,0.23506103,-2.3776233,-0.2810054,1.677591,0.86867917,0.039998073,0.04,0.005302040101162753,-0.01471856368669422,-0.010222455914354889,-0.1884590406792566,-0.13217512416865151,-0.23340237107103937,0.9664446301440021,-0.13246220155811453,0.06686811307315325,-0.20968356511237704
2368.900000002552,0.15814936,-0.76147276,0.23755096,-2.3778484,-0.2839829,1.6787204,0.86955494,0.039998055,0.04,0.004625850201289694,-0.014033839536614634,-0.010793012598853124,-0.18898992395584657,-0.13286876551869586,-0.23292272025960553,0.9657223645764971,-0.13397440138353703,0.06793425427674958,-0.21169816113174927
2368.916666669219,0.1598061,-0.76123244,0.2400413,-2.3780735,-0.28696093,1.67985,0.87043077,0.039998014,0.04,0.0048369207629184174,-0.013606080376621366,-0.010686270054449665,-0.18949869752788664,-0.13354538926039222,-0.23241459230420952,0.9649921907989288,-0.13548848069753922,0.06900718694915149,-0.21370763075922466
2368.933333335886,0.16146296,-0.760992,0.24253178,-2.3782985,-0.2899392,1.6809796,0.8713066,0.039997984,0.04,0.004554575568493924,-0.013208275679887915,-0.01086917397286058,-0.1899844926873093,-0.13420203135007702,-0.23187333004221491,0.9642541871163492,-0.1370042532975859,0.07008666972876897,-0.215711742687527
2368.9500000025528,0.16311973,-0.7607516,0.24502213,-2.3785236,-0.29291734,1.6821092,0.8721823,0.039997958,0.04,0.004609809443367752,-0.012861251689094688,-0.01103173644354527,-0.1904471478170888,-0.1348413409280943,-0.2313007560203988,0.9635084293584065,-0.13852153370690623,0.07117267013016931,-0.21771022548636773
2368.9666666692196,0.16477618,-0.76051134,0.24751201,-2.3787487,-0.29589474,1.6832387,0.87305796,0.039997924,0.04,0.004405389746597876,-0.0124646274202167,-0.011219685062013873,-0.1908855008134094,-0.1354603013599085,-0.23069714403483843,0.9627550620989795,-0.14003999028407715,0.07226501846202185,-0.21970265958952162
2368.9833333358865,0.16643211,-0.76027113,0.25000104,-2.3789737,-0.29887128,1.6843678,0.87393326,0.0399979,0.04,0.004141292180581679,-0.011724925376849216,-0.011382845388463458,-0.1913007640043073,-0.13605906267676862,-0.23006313529715933,0.9619941555470691,-0.14155948690997108,0.07336338666990037,-0.22168890332037297
2369.0000000025534,0.16808733,-0.760031,0.252489,-2.3791988,-0.30184644,1.6854963,0.87480825,0.03999786,0.04,0.003924749252193216,-0.011495031860225824,-0.01147060564112845,-0.19169272651387056,-0.1366382129987323,-0.22939906343169864,0.9612258272960325,-0.14307977681608333,0.07446765270412135,-0.2236686278986308
2369.0166666692203,0.16974159,-0.75979084,0.25497565,-2.3794236,-0.30482003,1.686624,0.8756827,0.039997827,0.04,0.004030995107906499,-0.010979124970866838,-0.011572246146540621,-0.19206081938250702,-0.13719886762272634,-0.22870603901852068,0.9604501551901494,-0.14460069570597395,0.07557760031909043,-0.22564167285006126
2369.033333335887,0.17139475,-0.7595509,0.25746053,-2.3796484,-0.30779153,1.6877508,0.8765565,0.039997794,0.04,0.0036643512192569005,-0.010380049280112047,-0.011906276819062533,-0.1924039822260495,-0.13773887289047718,-0.22798253686806458,0.9596672761501608,-0.14612200989685914,0.07669301476571687,-0.2276076861540021
2369.050000002554,0.17304654,-0.75931114,0.25994346,-2.3798728,-0.31076062,1.6888767,0.87742966,0.039997764,0.04,0.00421392641700713,-0.010237866116569183,-0.01161105546529928,-0.19272346324879439,-0.13825900875484537,-0.2272293006950726,0.9588772916324906,-0.14764348606815186,0.07781399954315253,-0.22956637839257107
2369.066666669221,0.17469682,-0.7590716,0.26242402,-2.3800967,-0.31372696,1.6900017,0.8783019,0.03999773,0.04,0.004164940175743759,-0.00968525770913553,-0.011751917012525759,-0.19301815275998505,-0.13875724757983116,-0.22644770907832404,0.9580803098259502,-0.14916496506301288,0.07894039775497701,-0.23151748686405407
2369.083333335888,0.1763454,-0.7588324,0.26490209,-2.3803205,-0.3166902,1.6911256,0.87917334,0.039997697,0.04,0.0032615494237386855,-0.009177102903801249,-0.01212073947529646,-0.1932865798244386,-0.1392331636761696,-0.22564012826474772,0.957276441994177,-0.15068623147161672,0.08007186684976503,-0.23346085193677513
2369.1000000025547,0.17799199,-0.75859356,0.26737708,-2.3805442,-0.31964996,1.6922485,0.88004386,0.039997663,0.04,0.0035093166039112944,-0.00843675888201334,-0.011939267592175895,-0.19353009473751548,-0.1396871265329767,-0.22480171263607024,0.9564658564135042,-0.152206929599099,0.08120834104514853,-0.23539609478895682
2369.1166666692216,0.17963646,-0.75835496,0.2698488,-2.3807676,-0.3226059,1.6933696,0.8809132,0.039997637,0.04,0.0030076283319857566,-0.00791200601505393,-0.01227252454700789,-0.19374905391704897,-0.14011675003915844,-0.2239354636869626,0.9556486608755135,-0.15372697014397693,0.08234932639254217,-0.23732307949267184
2369.1333333358884,0.18127859,-0.7581167,0.27231708,-2.3809905,-0.32555765,1.6944892,0.88178134,0.039997607,0.04,0.00339813251317711,-0.00776891787127032,-0.012219175862737686,-0.19394232623389338,-0.14052583667882634,-0.22304295748578368,0.9548249687124837,-0.1552461388638328,0.0834949152923694,-0.23924154031312383
2369.1500000025553,0.18291816,-0.7578788,0.2747816,-2.3812132,-0.3285047,1.6956068,0.882648,0.03999757,0.04,0.0025486904109195407,-0.007023032277730934,-0.012560064681510497,-0.19410964551445228,-0.14091352439520047,-0.2221254415107991,0.9539949328696765,-0.15676428406228246,0.08464454346204324,-0.2411512566078056
2369.166666669222,0.184555,-0.75764126,0.27724195,-2.3814356,-0.33144692,1.6967227,0.8835133,0.03999755,0.04,0.0026933343451496228,-0.006422922417476107,-0.012300802029363567,-0.19425067221676764,-0.14127925221699283,-0.22117941718275025,0.9531586897311207,-0.15828109244736993,0.08579830721546021,-0.24305196654765418
2369.183333335889,0.18618886,-0.75740427,0.27969778,-2.381658,-0.3343838,1.6978366,0.8843768,0.039997518,0.04,0.002092343985471423,-0.005693349425056615,-0.012653065968981636,-0.194365730142139,-0.14162205506369654,-0.22020769511412286,0.9523163863143892,-0.15979642880449818,0.08695577043711582,-0.24494345405852266
2369.200000002556,0.1878196,-0.75716776,0.28214893,-2.3818798,-0.33731505,1.6989485,0.8852389,0.039997485,0.04,0.003091219925632771,-0.005712417816772231,-0.012377861492773867,-0.19445460437877035,-0.14194446000162594,-0.21920923047859336,0.9514681547370422,-0.16130998289931783,0.08811715183371659,-0.24682545956814034
2369.216666669223,0.189447,-0.7569317,0.28459513,-2.382101,-0.34024027,1.700058,0.8860991,0.039997444,0.04,0.00235040748883808,-0.005019081681267856,-0.012657912720381859,-0.19451650160956752,-0.14224176861564095,-0.21818852971605107,0.950614142050032,-0.162821651677247,0.08928196058114024,-0.24869779692301738
2369.2333333358897,0.19107087,-0.75669616,0.28703603,-2.3823218,-0.34315914,1.7011651,0.8869575,0.039997417,0.04,0.0021889357148863198,-0.0044243504117857935,-0.012577433769478397,-0.19455182562446027,-0.1425152679280116,-0.21713872021312486,0.9497545110148597,-0.16433114922183126,0.09045004662376642,-0.25056023481014605
2369.2500000025566,0.192691,-0.75646126,0.28947124,-2.3825421,-0.3460714,1.7022698,0.88781387,0.039997384,0.04,0.0022581101444707485,-0.0037343062948391736,-0.01256895254015955,-0.19455981137775802,-0.14276494534907613,-0.21606651655421844,0.9488893965368235,-0.16583831941115176,0.09162129735392727,-0.25241256471509327
2369.2666666692235,0.19430721,-0.75622696,0.29190055,-2.382762,-0.34897646,1.7033716,0.88866824,0.039997354,0.04,0.0017703264234558702,-0.0032569374977475807,-0.012842863766060475,-0.19454089840069874,-0.14299015146767416,-0.21496679347563946,0.9480190042361096,-0.16734284652483672,0.09279530160942136,-0.25425454041837015
2369.2833333358903,0.1959193,-0.7559932,0.29432362,-2.382981,-0.35187417,1.7044706,0.8895202,0.039997313,0.04,0.001986529071040799,-0.0027447658441093203,-0.012610357852538279,-0.19449490816745352,-0.1431929253869487,-0.21384489257353323,0.9471434462099266,-0.16884468338777808,0.09397194509629518,-0.2560859986959139
2369.300000002557,0.19752705,-0.75576013,0.29674017,-2.3831997,-0.35476404,1.7055665,0.89037,0.039997287,0.04,0.0014875631996202898,-0.001984606135330136,-0.012865420038710162,-0.19442120964735268,-0.1433711456125808,-0.21269882814426436,0.9462629361178311,-0.1703434360278985,0.09515092370035041,-0.2579067103641172
2369.316666669224,0.19913027,-0.7555277,0.2991499,-2.3834174,-0.35764575,1.7066597,0.89121747,0.039997254,0.04,0.0020905458660180898,-0.0019028765646689205,-0.012358989955640887,-0.19432043163204774,-0.14352577416639947,-0.21153024350886185,0.9453776203191286,-0.17183897595512124,0.09633239555386212,-0.259716366271536
2369.333333335891,0.20072879,-0.75529575,0.30155256,-2.383634,-0.3605191,1.7077497,0.8920623,0.039997213,0.04,0.001778900352022994,-0.0012314748086272864,-0.012433194352667876,-0.19419182811651237,-0.1436555676409162,-0.21033991069184468,0.9444876274195264,-0.17333120802479357,0.09751598629444783,-0.2615149066365447
2369.350000002558,0.2023224,-0.7550648,0.30394793,-2.38385,-0.36338362,1.7088363,0.8929047,0.039997175,0.04,0.0015177069583094394,-0.00047070865865084244,-0.01290581917954281,-0.19403391849970977,-0.14375904631484002,-0.20912839940588246,0.9435931747462071,-0.1748197164947059,0.09870145010583047,-0.2633021288255959
2369.3666666692247,0.20391092,-0.7548345,0.30633557,-2.3840654,-0.36623904,1.7099192,0.8937444,0.039997146,0.04,0.0009471726261311986,0.000326870626066178,-0.012704116051143188,-0.19384882915641014,-0.14383599405596592,-0.20789390273573427,0.9426944408234844,-0.17630435936561784,0.09988833297713967,-0.26507788486447753
2369.3833333358916,0.20549415,-0.75460494,0.30871528,-2.3842797,-0.36908492,1.7109987,0.89458144,0.039997116,0.04,0.0013388979648976118,0.0004964240894356209,-0.012505007729712858,-0.19363667479981794,-0.14388989454701623,-0.2066348091486616,0.9417916018219766,-0.17778492764862408,0.101076735172744,-0.26684188547787635
2369.4000000025585,0.20707193,-0.7543761,0.31108674,-2.3844938,-0.37192088,1.7120744,0.8954154,0.03999708,0.04,-0.00024107375156123823,0.0015318573880873654,-0.012709811577393815,-0.19339558054031494,-0.14391844295953504,-0.2053600748546362,0.9408848406304782,-0.17926136026842399,0.10226594313859431,-0.2685940398825853
2369.4166666692254,0.20864399,-0.7541483,0.31344968,-2.3847072,-0.37474674,1.7131461,0.89624643,0.039997056,0.04,0.0007147242387928188,0.0021887997457004094,-0.01274721821438174,-0.1931272079409176,-0.14392448553385032,-0.2040596475934031,0.9399743350060615,-0.18073326144046223,0.10345600629625026,-0.2703342236939973
2369.4333333358923,0.2102102,-0.7539213,0.31580392,-2.3849204,-0.37756202,1.7142138,0.8970743,0.03999701,0.04,-0.000617259728130648,0.002628298361700976,-0.012653178410237942,-0.19283031036522177,-0.14390681153100016,-0.20274297593647944,0.939060264062842,-0.18220062275113508,0.10464643577467381,-0.2720622667827735
2369.450000002559,0.21177039,-0.75369513,0.31814894,-2.385133,-0.38036653,1.7152777,0.8978989,0.039996985,0.04,-0.00016211981557212596,0.003431482372651118,-0.012381697229502109,-0.1925055618246601,-0.14386757922429683,-0.20140465313045702,0.9381428261037028,-0.18366313997129777,0.105837209739128,-0.27377796456376285
2369.466666669226,0.21332435,-0.75346994,0.32048464,-2.3853438,-0.3831598,1.7163371,0.8987204,0.03999695,0.04,0.001972234072256107,0.003139534694118762,-0.012237713211193935,-0.1921526121044052,-0.14380331213855851,-0.20004396013733916,0.9372222276218628,-0.18512047808407542,0.10702865116930381,-0.27548098387060443
2369.483333335893,0.21487193,-0.7532456,0.32281068,-2.3855536,-0.3859415,1.7173918,0.8995384,0.03999693,0.04,-4.379531517439972e-05,0.004417654271393623,-0.012390607735834891,-0.19177036373241896,-0.14370931951150598,-0.19866682753265086,0.936298658830242,-0.18657256268557257,0.10821991600669109,-0.2771713370915781
2369.50000000256,0.21641289,-0.7530224,0.32512674,-2.3857625,-0.38871133,1.7184422,0.9003529,0.039996892,0.04,0.00020214413862795766,0.0049844747742278095,-0.012242314329080628,-0.19136098297720605,-0.14359359672533595,-0.19727111985474932,0.9353723170029915,-0.18801915126324031,0.10941104900890347,-0.27884879360950626
2369.5166666692267,0.21794705,-0.7528001,0.3274327,-2.3859704,-0.39146912,1.7194879,0.9011639,0.039996848,0.04,-0.00021594687498183163,0.005534722591538088,-0.012118701499708173,-0.19092194469325988,-0.14345027440719307,-0.19585764806983497,0.9344433646301835,-0.1894600774476153,0.11060171206220748,-0.28051334841870584
2369.5333333358935,0.21947426,-0.7525788,0.32972822,-2.3861775,-0.3942144,1.7205293,0.9019711,0.03999682,0.04,-0.0007612737710216422,0.006014005380095,-0.011844268361094201,-0.1904552264969563,-0.14328296413978908,-0.19442596813500485,0.9335120043774482,-0.19089528028152414,0.11179171228035088,-0.2821647439260698
2369.5500000025604,0.22099437,-0.75235856,0.33201313,-2.3863833,-0.39694676,1.7215655,0.9027745,0.039996784,0.04,0.00013103781300038975,0.006484363562897499,-0.012131688836314325,-0.1899586037091254,-0.14309114068424145,-0.19297645509375708,0.9325784566097667,-0.19232443351440234,0.11298083246982137,-0.2838028647408902
2369.5666666692273,0.2225071,-0.75213945,0.33428708,-2.386588,-0.399666,1.7225965,0.9035741,0.039996747,0.04,-0.0007080627628219816,0.007554852837821091,-0.011933126469765298,-0.18943260546341342,-0.1428734380056579,-0.19151126422232798,0.9316429364487522,-0.19374727300534167,0.11416873052174918,-0.2854276338044233
2369.583333335894,0.22401237,-0.7519213,0.33654955,-2.386792,-0.40237185,1.7236226,0.9043697,0.039996717,0.04,-0.001036383932673246,0.008238703198110153,-0.011505139396583708,-0.18887955439344928,-0.14263168316757746,-0.19002689393533898,0.9307056679222637,-0.19516366905065005,0.11535515238608621,-0.2870388315159542
2369.600000002561,0.22551005,-0.7517043,0.33880058,-2.3869958,-0.4050639,1.7246432,0.9051612,0.03999668,0.04,-0.0027996522528273005,0.009130425883652205,-0.012007983494544128,-0.18829821389470325,-0.14236698009700313,-0.18853080184192883,0.9297668262983612,-0.19657355027676177,0.1165393909650771,-0.2886365507002733
2369.616666669228,0.22699976,-0.75148827,0.34103978,-2.3871984,-0.40774179,1.7256589,0.90594864,0.039996646,0.04,-0.0009694445802121976,0.009139630417936973,-0.011103708872362006,-0.18768924383931473,-0.142081919855324,-0.18701436276261646,0.9288266580302684,-0.19797656659753907,0.11772189764310363,-0.2902203873367268
2369.633333335895,0.22848155,-0.7512735,0.343267,-2.3873994,-0.41040552,1.7266693,0.9067319,0.03999662,0.04,2.0865580863116406e-05,0.009352871284851183,-0.011086339646304566,-0.18705143469086546,-0.14177022754070145,-0.18548134776896436,0.9278852763734331,-0.19937261508562718,0.11890278411287554,-0.291790339410891
2369.6500000025617,0.22995518,-0.7510601,0.34548184,-2.3875988,-0.41305438,1.7276738,0.9075108,0.039996587,0.04,-0.0003522784136400503,0.010350227097788434,-0.011352937865205526,-0.1863832001895934,-0.14143189812398274,-0.18393778418644788,0.9269430029094066,-0.20076136175353915,0.12008149772922548,-0.2933461758524603
2369.6666666692286,0.23142041,-0.75084794,0.34768426,-2.3877966,-0.41568825,1.7286726,0.9082853,0.03999656,0.04,-0.0010020966354717942,0.010776091506325969,-0.010892349050117822,-0.18568818599051426,-0.14106771995869263,-0.18237837357227,0.9259999843976525,-0.20214275973758508,0.12125783817869787,-0.29488789439624163
2369.6833333358954,0.23287717,-0.7506369,0.34987384,-2.3879936,-0.41830683,1.7296658,0.90905535,0.039996535,0.04,-0.0020763388650424375,0.011781232641550066,-0.010780746867622426,-0.18496335315292498,-0.1406774013674141,-0.18080697166576276,0.9250564641876864,-0.20351663390236102,0.1224312962223023,-0.2964154103533669
2369.7000000025623,0.23432523,-0.750427,0.35205033,-2.3881898,-0.4209098,1.7306527,0.9098207,0.039996497,0.04,-0.0027224582384466345,0.01278751479175666,-0.010874019208872987,-0.1842101488181341,-0.1402652129315216,-0.17922311332619278,0.9241126663416085,-0.2048828077648274,0.12360134319847225,-0.29792872125549924
2369.716666669229,0.23576446,-0.7502186,0.35421354,-2.3883858,-0.42349684,1.7316338,0.9105815,0.039996468,0.04,-0.003317834324279012,0.013411693318021722,-0.010719432656913774,-0.18343060941326256,-0.1398341307978637,-0.17762458078842536,0.9231688108697574,-0.2062410360279825,0.12476788033382581,-0.2994277170410696
2369.733333335896,0.23719469,-0.75001144,0.35636315,-2.38858,-0.42606783,1.7326088,0.91133744,0.039996438,0.04,-0.0011595666143282557,0.013355149377491937,-0.010107676577919555,-0.1826238614164072,-0.13937752228398378,-0.17600823571831622,0.9222250581603296,-0.20759124423744466,0.12593118370031312,-0.30091220378868694
2369.750000002563,0.23861577,-0.7498055,0.35849902,-2.388773,-0.42862222,1.7335773,0.9120886,0.039996404,0.04,-0.0021221494439727095,0.014068373118958366,-0.010202574939888187,-0.18178800159608147,-0.13889691056653103,-0.17438110331131065,0.921281699121726,-0.20893314432907148,0.127090692174537,-0.30238208946091705
2369.76666666923,0.2400275,-0.749601,0.36062098,-2.3889635,-0.43115985,1.7345394,0.91283476,0.039996356,0.04,-0.00022443773199931627,0.013961247159854917,-0.009707495254840381,-0.180924969183812,-0.13839728951433902,-0.17274621662194795,0.920338883451453,-0.21026659182192173,0.12824688744993498,-0.30383718638496154
2369.7833333358967,0.24142976,-0.74939793,0.3627286,-2.3891528,-0.4336806,1.7354956,0.91357607,0.039996337,0.04,-0.0022543466125846123,0.015301809421053303,-0.009438605936029631,-0.18003245023240963,-0.13786575074202276,-0.1710982229514731,0.9193968425385075,-0.2115914377671658,0.1293991853224215,-0.3052775134721523
2369.8000000025636,0.24282242,-0.74919623,0.36482176,-2.389341,-0.43618396,1.736445,0.91431206,0.0399963,0.04,-0.0032136633388413216,0.016200961731160923,-0.009732321764688301,-0.17911211738625876,-0.13731064524452022,-0.169441066265619,0.9184558057831195,-0.21290762991627066,0.13054681988253328,-0.30670311665399563
2369.8166666692305,0.24420527,-0.748996,0.36690024,-2.3895288,-0.43866977,1.7373874,0.915043,0.039996263,0.04,-0.003612230092042701,0.017128044710945645,-0.009567816160149789,-0.1781640217195559,-0.136736832286569,-0.1677724334836308,0.917516018826253,-0.21421481816078775,0.13168953779069165,-0.3081139927267789
2369.8333333358974,0.24557814,-0.74879724,0.3689638,-2.3897161,-0.44113767,1.7383233,0.9157687,0.03999624,0.04,-0.004595975310128786,0.01770265006864058,-0.009208209841227166,-0.17719115012775846,-0.13614173171681257,-0.16608947880974273,0.916577687275605,-0.21551300266812892,0.13282702485411274,-0.30951004884797384
2369.8500000025642,0.246941,-0.74859995,0.37101218,-2.389901,-0.44358745,1.7392522,0.9164891,0.039996214,0.04,-0.0006516071238582555,0.017028913225025644,-0.008658166854269567,-0.17619138590830832,-0.1355266315193726,-0.1643947145763899,0.9156410300334319,-0.21680182646413973,0.1339600678055907,-0.31089093327829675
2369.866666669231,0.24829361,-0.7484042,0.3730452,-2.3900833,-0.4460188,1.7401744,0.91720414,0.039996184,0.04,-0.0010707778264062995,0.0174992659790707,-0.00829425531856387,-0.1751638796915167,-0.13488773343143645,-0.16269583584750513,0.914706243196971,-0.21808123939900673,0.13508851663101357,-0.31225655213799663
2369.883333335898,0.24963583,-0.74820995,0.37506258,-2.3902643,-0.44843158,1.7410895,0.9179135,0.039996155,0.04,-0.002964459219700899,0.01907151842091004,-0.008329455365041483,-0.1741075505478594,-0.13421958409002277,-0.16098748693603032,0.9137735389822564,-0.21935114206739267,0.136211481127404,-0.3136071241835107
2369.900000002565,0.25096762,-0.7480171,0.3770642,-2.3904443,-0.45082545,1.7419974,0.9186173,0.03999612,0.04,-0.0041380410905844656,0.019604069516332423,-0.008193498458908266,-0.17302451073635,-0.13353216104000382,-0.15927313735265536,0.9128431547347235,-0.22061143156703117,0.13732852980710444,-0.3149426074968611
2369.9166666692317,0.25228873,-0.74782586,0.3790499,-2.390624,-0.45320016,1.742898,0.9193155,0.039996102,0.04,-0.005160712672003243,0.020773846284083408,-0.008236108091930205,-0.17191554550564628,-0.13282376442494676,-0.1575452509861005,0.911915307031074,-0.2218619087592327,0.13843921914415205,-0.3162631006723505
2369.9333333358986,0.25359905,-0.7476363,0.38101935,-2.3908029,-0.4555555,1.7437911,0.92000806,0.03999606,0.04,-0.004085292743294389,0.021115932885529265,-0.007833345907326539,-0.17078121914637004,-0.13209907113644623,-0.15581032752125482,0.9109902302126944,-0.22310233847731517,0.13954359823167792,-0.3175684669729217
2369.9500000025655,0.2548985,-0.7474483,0.38297242,-2.3909783,-0.4578913,1.744677,0.92069507,0.039996043,0.04,-0.00017596190744484375,0.01983400928285972,-0.006878015473965604,-0.16962251502383335,-0.1313550307724389,-0.15406462059644183,0.9100681058711093,-0.22433248862688612,0.1406427149081574,-0.31885828194654464
2369.9666666692324,0.25618684,-0.74726194,0.38490868,-2.3911517,-0.46020713,1.7455552,0.9213761,0.039996013,0.04,-0.0024011157734094013,0.02163113927278193,-0.006922986329804814,-0.16843598166819926,-0.13058389291353487,-0.15231707225259739,0.9091492112092869,-0.2255522696390118,0.1417355796865,-0.32013264574103306
2369.9833333358993,0.25746405,-0.7470771,0.38682827,-2.391324,-0.46250287,1.7464257,0.92205137,0.039995983,0.04,-0.004669611937524465,0.022418760917786162,-0.007001215368251934,-0.16722386403847878,-0.1297892319466009,-0.1505647135457972,0.9082337089086087,-0.22676167664747102,0.14282152171691018,-0.3213917935178285
2370.000000002566,0.2587298,-0.746894,0.3887308,-2.3914955,-0.4647783,1.7472886,0.92272055,0.039995957,0.04,-0.004535524290538717,0.023559300552722373,-0.006606210872139862,-0.16598725090980357,-0.12897665085285084,-0.14880320224086924,0.9073218423589898,-0.2279604781733097,0.14390030684419775,-0.32263570239424877
2370.016666669233,0.25998417,-0.7467125,0.39061615,-2.3916662,-0.4670331,1.7481436,0.9233837,0.039995927,0.04,-0.0053108102939347646,0.023811170193865916,-0.006527280755097564,-0.16472728514605997,-0.12814579086420388,-0.14703427121778506,0.9064138230943914,-0.2291486578460721,0.14497159260454723,-0.32386434081024434
2370.0333333359,0.26122686,-0.7465327,0.39248413,-2.3918345,-0.46926707,1.7489905,0.9240405,0.039995898,0.04,-0.0024711338359573176,0.023581610002609832,-0.005823905184110245,-0.16344347400521725,-0.12729966208482826,-0.14525769014742504,0.9055098331613095,-0.23032601880654074,0.14603589756585925,-0.32507750419098563
2370.050000002567,0.26245797,-0.7463546,0.39433452,-2.3920007,-0.47148004,1.7498298,0.9246909,0.039995868,0.04,-0.0028444949375927564,0.02387739078867357,-0.005567880736268016,-0.16213420644381646,-0.12643405103814023,-0.14347925371968995,0.9046100546805107,-0.2314925506014484,0.14709311000043043,-0.3262751369279621
2370.0666666692337,0.26367736,-0.74617815,0.3961672,-2.392165,-0.47367194,1.7506609,0.92533505,0.03999584,0.04,-0.003458115979171339,0.024749646765820366,-0.0053867323381862064,-0.16079850841517127,-0.12554379507429486,-0.1416948333910566,0.9037147004758435,-0.23264803990231334,0.14814282055119055,-0.32745737797857916
2370.0833333359005,0.26488483,-0.7460034,0.39798197,-2.3923285,-0.47584233,1.7514838,0.92597324,0.039995816,0.04,-0.005747887755358505,0.026073031895201826,-0.005363270959346522,-0.15943854615187963,-0.12463565969109552,-0.1399068620446331,0.9028240819747015,-0.2337922226619348,0.14918426088466075,-0.32862429906144675
2370.1000000025674,0.2660802,-0.74583036,0.39977863,-2.392491,-0.47799116,1.7522986,0.92660517,0.039995782,0.04,-0.005240353856050817,0.026552494757114964,-0.004837309629057707,-0.1580581732937624,-0.12371207543827596,-0.13811177214667675,0.9019383537807397,-0.23492505475641362,0.15021742596031165,-0.32977590810252255
2370.1166666692343,0.26726338,-0.74565923,0.40155718,-2.392652,-0.48011816,1.7531049,0.9272305,0.039995763,0.04,-0.004039933323074507,0.02651375667487299,-0.00476289455075829,-0.1566560651361592,-0.12277173817502644,-0.1363111654098802,0.9010576720984634,-0.23604650446278724,0.1512423806967371,-0.3309121659361897
2370.133333335901,0.26843432,-0.7454899,0.4033172,-2.3928092,-0.48222312,1.7539032,0.9278493,0.039995734,0.04,-0.0004650074117762415,0.025501961103346904,-0.0037246664350787384,-0.15523024398617957,-0.12181529403682029,-0.13450790943114485,0.9001822660225065,-0.23715630574622953,0.152260084540437,-0.3320325906279763
2370.150000002568,0.26959294,-0.74532235,0.40505868,-2.3929653,-0.48430592,1.7546933,0.9284616,0.039995704,0.04,-0.00546326598720448,0.02771553635434465,-0.003965366409230953,-0.15377941938133144,-0.12083450707446194,-0.13270864524061046,0.8993123246975613,-0.23825455168646806,0.15326906693438966,-0.33313766579120074
2370.166666669235,0.2707391,-0.7451565,0.4067814,-2.3931203,-0.48636642,1.7554741,0.9290676,0.039995685,0.04,-0.0054720857301404635,0.028845489347217868,-0.004020770351065295,-0.1523074421647858,-0.1198367266077105,-0.1309019630298884,0.8984481316811911,-0.23934080776065322,0.1542687858923035,-0.33422757833304195
2370.183333335902,0.27187282,-0.7449925,0.40848526,-2.3932738,-0.48840433,1.756247,0.92966664,0.039995663,0.04,-0.0047754977964054035,0.028025076479176736,-0.003143859823273587,-0.15081713437410232,-0.11882468333405849,-0.1290917689670787,0.8975897348232494,-0.24041553691288578,0.1552597440149628,-0.3353020271922404
2370.2000000025687,0.2729938,-0.74483025,0.41017014,-2.3934262,-0.4904194,1.7570109,0.9302594,0.039995637,0.04,-0.005602278232519353,0.029493187804985332,-0.003318482890279917,-0.14930254148176575,-0.11779760235213366,-0.12727939302734345,0.8967375147081729,-0.2414780421045183,0.15624125980188217,-0.3363611951933497
2370.2166666692356,0.27410197,-0.74466985,0.41183585,-2.3935752,-0.49241155,1.7577662,0.930845,0.03999561,0.04,-0.0017316740789308227,0.028237631770144933,-0.0023908213498957664,-0.14777089774121238,-0.11675756759590364,-0.12546438437756044,0.8958914980826498,-0.24252856733151074,0.15721430141879986,-0.33740477341132735
2370.2333333359024,0.2751974,-0.74451137,0.41348225,-2.3937228,-0.4943806,1.7585129,0.9314243,0.039995592,0.04,-0.005062762279806066,0.02984758530253373,-0.0025618898956247804,-0.14621634363810615,-0.11569712272578048,-0.12364957858352393,0.8950519938933301,-0.24356677177126787,0.15817796698598405,-0.3384329869806993
2370.2500000025693,0.27627984,-0.7443548,0.4151092,-2.3938694,-0.49632654,1.7592505,0.9319964,0.03999557,0.04,-0.005915096765196637,0.03095971545120646,-0.0022679806287007054,-0.14464298101092954,-0.11462147424210921,-0.12183572108143029,0.8942190794359515,-0.24459288839580642,0.15913165394070347,-0.33944612773312416
2370.266666669236,0.2773493,-0.74420017,0.4167167,-2.394015,-0.49824908,1.7599794,0.93256176,0.039995547,0.04,-0.005968022599311951,0.030970993148282666,-0.002070231940876077,-0.14305082000287705,-0.11353456468256895,-0.12001812658429561,0.893392978877155,-0.24560669580925482,0.1600753996450189,-0.34044412565816273
2370.283333335903,0.27840567,-0.74404746,0.41830465,-2.394158,-0.5001481,1.7606993,0.93312025,0.03999552,0.04,-0.0028491337189517907,0.03010698280191404,-0.0014444162336202382,-0.14144063065414922,-0.11243607173343091,-0.11819819804949452,0.8925738517854382,-0.24660803823588895,0.16100987721650029,-0.3414267330264
2370.30000000257,0.27944887,-0.7438967,0.41987258,-2.3942978,-0.50202346,1.7614105,0.93367136,0.039995506,0.04,-0.0027333810674878833,0.030769661856044905,-0.0008636004275697218,-0.13981050073908696,-0.11131682388975951,-0.11637689380160401,0.8917618839756016,-0.24759696885298818,0.16193494520094792,-0.3423938621322877
2370.316666669237,0.28047886,-0.74374795,0.42142066,-2.3944368,-0.5038749,1.7621124,0.93421584,0.03999548,0.04,-0.006283662742534446,0.03239985464980055,-0.0012872926776541505,-0.138159211345115,-0.11018249803542253,-0.1145632179366298,0.8909573381890328,-0.2485731794955483,0.16284950311018886,-0.34334594114297023
2370.3333333359037,0.28149557,-0.74360114,0.42294878,-2.3945749,-0.50570256,1.7628053,0.93475306,0.039995443,0.04,-0.0061299759080757354,0.03264844670354261,-0.0007104271311231258,-0.1364931373230317,-0.10903935859462455,-0.11274956548760984,0.8901602411175211,-0.24953694514997907,0.163753506403222,-0.3442830917710933
2370.3500000025706,0.28249884,-0.74345624,0.42445672,-2.3947122,-0.5075062,1.7634889,0.9352832,0.039995436,0.04,-0.006809942795271695,0.03363950163056684,-0.0005089076851927388,-0.1348102882669898,-0.10788319044615113,-0.1109299910168213,0.8893708705461384,-0.25048797377598414,0.16464648661169182,-0.34520539402511075
2370.3666666692375,0.2834887,-0.7433133,0.42594448,-2.3948448,-0.5092857,1.7641635,0.93580645,0.039995413,0.04,0.00026358508495860633,0.03058140813043675,0.0004523689071334047,-0.13311387886300247,-0.10672214583062382,-0.10910923576846301,0.8885893376219597,-0.25142600818093813,0.16553052762834244,-0.34611211463606434
2370.3833333359044,0.28446501,-0.74317235,0.4274119,-2.3949764,-0.5110406,1.7648288,0.93632257,0.039995395,0.04,-0.006536791667954844,0.03383976076064554,4.0251451971506924e-05,-0.13139662157874715,-0.10553600131475005,-0.10729936908937049,0.8878158924327743,-0.25235121306574876,0.1664034697114099,-0.3470038784740676
2370.4000000025712,0.28542778,-0.74303335,0.42885894,-2.3951063,-0.51277125,1.765485,0.93683136,0.039995372,0.04,-0.005129601360875924,0.03358267107410606,0.0006477214514744034,-0.12966624084665054,-0.10434395133983115,-0.10549026321100333,0.887050580353024,-0.2532636304686147,0.1672656695434519,-0.347880722618258
2370.416666669238,0.2863769,-0.7428963,0.43028554,-2.3952358,-0.5144775,1.7661315,0.93733287,0.03999535,0.04,-0.0073679537690996,0.035147635921317644,0.0004903376690679195,-0.12792009519424724,-0.10313949250523594,-0.10368055079937014,0.8862935887389348,-0.2541631269647178,0.1681161901875909,-0.348743065950545
2370.433333335905,0.28731236,-0.7427613,0.43169165,-2.3953617,-0.51615906,1.766769,0.9378273,0.039995328,0.04,-0.0019159111485311797,0.032575783458321794,0.00144431070723261,-0.1261619496644376,-0.10193201040097097,-0.10187042030906106,0.8855450630166241,-0.25504954325354023,0.16895676582610156,-0.3495901645278764
2370.450000002572,0.2882341,-0.74262834,0.43307704,-2.3954852,-0.517816,1.7673973,0.9383145,0.03999531,0.04,-0.003976690620799417,0.034163032201461885,0.0015614685424658603,-0.12438665237115482,-0.10070690572798688,-0.10006887000131177,0.8848051641388087,-0.2559228358922856,0.1697865763775242,-0.35042237666014586
2370.4666666692387,0.289142,-0.74249727,0.43444175,-2.3956072,-0.5194483,1.7680161,0.9387943,0.039995287,0.04,-0.005821292728258598,0.03517123850610426,0.0017725703704840612,-0.12259764125740033,-0.09946915099890195,-0.09827146850851753,0.8840740156348026,-0.2567830814310586,0.17060494679145027,-0.35123999786529375
2370.4833333359056,0.29003605,-0.74236816,0.43578568,-2.395729,-0.52105564,1.7686255,0.9392667,0.039995264,0.04,-0.007883004885256284,0.0362215192808546,0.0018258808673010662,-0.12079647797847873,-0.09822351484011714,-0.09647555891482709,0.8833517884935508,-0.257630325643906,0.17141122814763593,-0.3520432131696038
2370.5000000025725,0.29091632,-0.742241,0.43710876,-2.3958502,-0.52263796,1.7692256,0.9397318,0.03999525,0.04,-0.007076879079148668,0.035926964916355164,0.0021600146903111295,-0.11898554500095841,-0.09697790756923486,-0.09467895450325031,0.8826386327225328,-0.2584644883800335,0.17220565004410368,-0.3528319236761791
2370.5166666692394,0.29178268,-0.74211603,0.438411,-2.3959656,-0.52419543,1.769816,0.94018966,0.03999523,0.04,0.0017266671404669864,0.032938146061245455,0.002917968501425783,-0.11716401401072316,-0.09572685027089117,-0.09288380391287035,0.8819346207967059,-0.25928509439237846,0.17299043747795742,-0.35360553305525466
2370.5333333359063,0.2926351,-0.74199307,0.4396924,-2.39608,-0.5257279,1.7703973,0.9406402,0.039995223,0.04,-0.006534101164934469,0.036130821997870655,0.0027943592188162114,-0.11532722272361344,-0.0944529123768562,-0.09110196734776418,0.8812398644764141,-0.2600925865740705,0.17376341337866114,-0.3543648174379017
2370.550000002573,0.29347366,-0.7418722,0.44095278,-2.396194,-0.5272353,1.7709688,0.9410834,0.039995205,0.04,-0.007422620419905712,0.037215908604237846,0.0027861121377981135,-0.11347965813376744,-0.09317557053516144,-0.08932564357926434,0.8805545585597061,-0.2608868333221921,0.17452402812289153,-0.3551099733978196
2370.56666666924,0.29429817,-0.74175334,0.4421922,-2.396307,-0.5287174,1.7715305,0.9415192,0.039995186,0.04,-0.0068060908161360345,0.03698531998024279,0.003103802572357317,-0.11162573817633564,-0.09189507911630757,-0.0875480736999219,0.8798788570715695,-0.26166775003564674,0.1752723806879675,-0.3558409448583494
2370.583333335907,0.29510868,-0.7416364,0.44341052,-2.3964148,-0.53017443,1.7720832,0.9419475,0.039995156,0.04,0.0007256060668314745,0.03376010186496581,0.004362121066958657,-0.10976461334508432,-0.09061462609799663,-0.08577622086491477,0.8792127389979456,-0.2624352878600824,0.17601065710261982,-0.35655704712686587
2370.600000002574,0.2959053,-0.74152154,0.4446078,-2.3965213,-0.53160626,1.7726256,0.9423685,0.03999515,0.04,-0.0063392526312266995,0.03739373855480288,0.0033873558394237335,-0.10788970021668377,-0.08931410263962994,-0.08401540704016743,0.8785564164996515,-0.2631894174469879,0.17673653915174906,-0.3572592186352483
2370.6166666692407,0.29668787,-0.7414086,0.44578403,-2.3966274,-0.533013,1.7731589,0.9427821,0.039995138,0.04,-0.00745767683927312,0.0374265347858338,0.00425500721676908,-0.10600944026884004,-0.08801139148599996,-0.08225958175409342,0.8779099072914379,-0.2639304088999383,0.1774500362216098,-0.3579475081382737
2370.6333333359075,0.29745632,-0.7412976,0.44693926,-2.396732,-0.5343944,1.7736827,0.9431883,0.03999511,0.04,-0.00596856176802163,0.03717961741788178,0.004348956232935741,-0.10412217052803391,-0.0867108031455896,-0.08050783477946978,0.8772733793372262,-0.2646580680278718,0.17815132231721928,-0.35862184999052144
2370.6500000025744,0.29821077,-0.74118865,0.4480733,-2.3968322,-0.5357506,1.774197,0.9435871,0.039995093,0.04,-0.00046064563283820803,0.03519441095006792,0.0049702899116432775,-0.10222982323379631,-0.08540744749797621,-0.0787613505520688,0.876646891890209,-0.2653721923521331,0.17884184217848942,-0.3592818141120742
2370.6666666692413,0.29895115,-0.7410818,0.44918624,-2.396931,-0.53708166,1.7747017,0.9439785,0.03999508,0.04,-0.005722078885117554,0.03752769665851252,0.004789547191452748,-0.10032777794080486,-0.0840880533406024,-0.07702802780025042,0.876030538489126,-0.2660729878708811,0.17952011538663618,-0.35992803298921106
2370.683333335908,0.2996775,-0.7409768,0.45027813,-2.3970294,-0.5383876,1.7751967,0.9443624,0.03999507,0.04,-0.007982319018573492,0.03858581662845584,0.004891472557200238,-0.09842081050397311,-0.08276679042373809,-0.07529985139932371,0.8754243876483957,-0.266760555853924,0.1801853946018672,-0.3605609115296696
2370.700000002575,0.3003898,-0.7408739,0.45134896,-2.3971264,-0.53966814,1.7756823,0.94473886,0.039995056,0.04,-0.005816057442853406,0.03746788481323593,0.005286151411598716,-0.09651262087367207,-0.08145064063170909,-0.07357627630929556,0.8748285559340893,-0.2674348746905239,0.18083838757480575,-0.3611800978748474
2370.716666669242,0.30108812,-0.740773,0.4523986,-2.3972232,-0.54092366,1.7761583,0.94510806,0.03999505,0.04,-0.007646176017939155,0.038913209306423724,0.005358561467549983,-0.09460035736411149,-0.0801320174253812,-0.07185720771456632,0.8742431179486229,-0.26809585618407844,0.181478461745421,-0.361786056308023
2370.733333335909,0.30177245,-0.7406742,0.4534273,-2.3973143,-0.54215413,1.7766248,0.9454698,0.039995033,0.04,0.0016409621573565403,0.03459059838771816,0.006069503784766894,-0.09268775289180023,-0.07881930040650809,-0.07014575205002202,0.8736680400651948,-0.26874335864949095,0.1821081390277474,-0.36237796380337867
2370.7500000025757,0.30244282,-0.74057734,0.45443505,-2.3974044,-0.5433592,1.7770817,0.9458241,0.03999502,0.04,-0.006740839743590854,0.038089471553315324,0.005719511117319165,-0.09076737695456302,-0.0774896390256948,-0.06844855984581637,0.8731035096979497,-0.2693776828693773,0.1827250824960566,-0.3629565670322782
2370.7666666692426,0.30309913,-0.74048245,0.45542175,-2.3974936,-0.54453903,1.7775291,0.94617105,0.03999501,0.04,-0.006657977136015347,0.03844601866035413,0.006083624765351736,-0.08884640917593196,-0.0761633632211691,-0.06676022442479876,0.8725496245456273,-0.26999871040891604,0.18332926293271978,-0.3635219806770322
2370.7833333359094,0.3037416,-0.7403895,0.45638755,-2.3975825,-0.54569393,1.7779671,0.9465107,0.039994996,0.04,-0.007693356073401603,0.038660426965164696,0.006134052865447437,-0.08692673844527603,-0.07484170395137903,-0.06507987920533326,0.8720063111600558,-0.2706066773514572,0.18392047964922767,-0.36407454818406965
2370.8000000025763,0.30437016,-0.7402986,0.45733246,-2.3976657,-0.5468239,1.7783954,0.9468429,0.039994985,0.04,0.0017165579785594076,0.034967427417897934,0.006789239536764136,-0.08500754827550563,-0.0735242565880593,-0.06340417888930917,0.8714736342102158,-0.2712011755683677,0.18450113863010867,-0.36461343514874484
2370.816666669243,0.30498493,-0.74020976,0.45825657,-2.3977478,-0.5479289,1.7788147,0.9471679,0.039994974,0.04,-0.005931735495590118,0.037746171316777044,0.006623532495675377,-0.0830852368461325,-0.0721941980930321,-0.06174566356468264,0.8709516418439962,-0.27178263238191713,0.1850693920398891,-0.3651393685085035
2370.83333333591,0.30558583,-0.7401229,0.45915988,-2.397829,-0.54900926,1.779224,0.94748527,0.03999496,0.04,-0.006763210596361091,0.03893240264394304,0.006596715885942572,-0.08116308779720764,-0.07086734753111006,-0.06009857156312244,0.870440360078808,-0.2723510300611642,0.1856246257900333,-0.3656528329861645
2370.850000002577,0.3061729,-0.740038,0.46004254,-2.3979104,-0.5500647,1.7796243,0.9477954,0.039994948,0.04,-0.008092879689591825,0.03866938870871195,0.0069230752492766,-0.07924562635220728,-0.06954584310442084,-0.05845577424779652,0.869939865882801,-0.2729065306493321,0.18616680149866585,-0.36615376182215553
