rsonawane2002/My_IMU/logs_2/traj_465/imu_400hz_465.csv
time,j1,j2,j3,j4,j5,j6,j7,gripper1,gripper2,imu_ax,imu_ay,imu_az,imu_gx,imu_gy,imu_gz
0.0,0.00016700293,-0.785875,4.0107683e-05,-2.3551247,9.29385e-05,1.570997,0.786,0.04,0.04,-9.496054,0.0291548855602741,0.10769146,-3.87621e-08,-0.0011641276068985,-1.9984673e-08
0.0025,0.00016700408199999997,-0.7858577740000002,4.010993299999998e-05,-2.35513919,9.294234809999995e-05,1.570996565,0.786,0.04,0.04,-9.546821349999354,0.024878673098337308,0.09289754500018838,-1.450769024986463e-07,-0.0013253155862891525,-3.080961800215233e-09
0.005,0.00016700523399999998,-0.7858405480000005,4.0112182999999945e-05,-2.35515368,9.29461961999999e-05,1.57099613,0.786,0.04,0.04,-9.597588699998708,0.02060246063640052,0.07810363000037673,-2.513917049972926e-07,-0.0014865035656798052,1.3822749399569535e-08
0.0075,0.00016700638599999996,-0.7858233220000007,4.011443299999992e-05,-2.35516817,9.295004429999985e-05,1.5709956950000001,0.786,0.04,0.04,-9.64835604999806,0.01632624817446373,0.06330971500056512,-3.577065074959389e-07,-0.0016476915450704577,3.07264605993543e-08
0.01,0.00016700753799999993,-0.785806096000001,4.011668299999989e-05,-2.3551826599999997,9.29538923999998e-05,1.5709952600000001,0.786,0.04,0.04,-9.699123399997415,0.012050035712526937,0.04851580000075348,-4.640213099945852e-07,-0.0018088795244611102,4.763017179913907e-08
0.0125,0.0001670086899999999,-0.7857888700000011,4.011893299999986e-05,-2.355197149999999,9.295774049999975e-05,1.570994825,0.786,0.04,0.04,-9.749890749996768,0.007773823250590145,0.03372188500094185,-5.703361124932315e-07,-0.001970067503851763,6.453388299892386e-08
0.015,0.00016700984199999991,-0.7857716440000013,4.012118299999983e-05,-2.355211639999999,9.29615885999997e-05,1.57099439,0.786,0.04,0.04,-9.800658099996122,0.003497610788653356,0.018927970001130223,-6.766509149918777e-07,-0.002131255483242415,8.143759419870861e-08
0.0175,0.00016701268099999944,-0.7857548645000014,4.0126193449999063e-05,-2.355225734999999,9.29618928000006e-05,1.57099396,0.786,0.04,0.04,-9.834404750000026,0.0006508695601939925,0.008990397025020044,-9.07073597457339e-07,-0.0022882052115031763,-1.9535880167297436e-07
0.02,0.00016701889399999936,-0.7857389780000017,4.0136724799998926e-05,-2.355239039999999,9.295510920000069e-05,1.5709935400000001,0.786,0.04,0.04,-9.83411000000003,0.0006630707997815772,0.008765508100022908,-1.3857120399512443e-06,-0.002436678437500916,-1.0595554119119704e-06
0.0225,0.00016702510699999928,-0.7857230915000019,4.0147256149998795e-05,-2.3552523449999985,9.294832560000077e-05,1.57099312,0.786,0.04,0.04,-9.833815250000033,0.0006752720393691618,0.008540619175025771,-1.8643504824451497e-06,-0.0025851516634986553,-1.923752022150966e-06
0.025,0.0001670313199999992,-0.785707205000002,4.015778749999866e-05,-2.3552656499999984,9.294154200000086e-05,1.5709927000000001,0.786,0.04,0.04,-9.833520500000038,0.0006874732789567465,0.008315730250028635,-2.3429889249390558e-06,-0.002733624889496395,-2.7879486323899636e-06
0.0275,0.00016703753299999912,-0.7856913185000023,4.016831884999853e-05,-2.355278954999998,9.293475840000095e-05,1.57099228,0.786,0.04,0.04,-9.833225750000041,0.000699674518544331,0.008090841325031498,-2.821627367432961e-06,-0.0028820981154941347,-3.6521452426289594e-06
0.03,0.00016704374599999904,-0.7856754320000024,4.017885019999839e-05,-2.355292259999998,9.292797480000104e-05,1.5709918600000001,0.786,0.04,0.04,-9.832931000000045,0.0007118757581319157,0.007865952400034362,-3.300265809926866e-06,-0.003030571341491874,-4.516341852867955e-06
0.0325,0.00016704995899999897,-0.7856595455000026,4.018938154999825e-05,-2.3553055649999974,9.292119120000113e-05,1.57099144,0.786,0.04,0.04,-9.832636250000048,0.0007240769977195004,0.007641063475037225,-3.778904252420772e-06,-0.0031790445674896137,-5.380538463106952e-06
0.035,0.00016706539699999642,-0.7856445100000026,4.021463619999418e-05,-2.3553180999999976,9.289621200000608e-05,1.57099101,0.786,0.04,0.04,-9.832356100000048,0.0007435178908012192,0.007433213710035532,-4.833972159760548e-06,-0.0033199449768045283,-7.264829399573186e-06
0.0375,0.00016708544749999616,-0.7856299000000028,4.024725249999377e-05,-2.3553302499999975,9.286213500000651e-05,1.5709905750000002,0.786,0.04,0.04,-9.832083250000052,0.0007665786106327705,0.007233883525038071,-6.177254799743441e-06,-0.003457058977775137,-9.659167499542695e-06
0.04,0.00016710549799999592,-0.785615290000003,4.027986879999335e-05,-2.3553423999999974,9.282805800000694e-05,1.5709901400000001,0.786,0.04,0.04,-9.831810400000055,0.0007896393304643219,0.007034553340040608,-7.520537439726339e-06,-0.0035941729787457464,-1.2053505599512211e-05
0.0425,0.00016712554849999565,-0.7856006800000032,4.031248509999294e-05,-2.3553545499999973,9.279398100000737e-05,1.5709897050000001,0.786,0.04,0.04,-9.831537550000059,0.0008127000502958733,0.006835223155043146,-8.863820079709235e-06,-0.0037312869797163557,-1.4447843699481727e-05
0.045,0.0001671455989999954,-0.7855860700000034,4.034510139999252e-05,-2.355366699999997,9.275990400000781e-05,1.57098927,0.786,0.04,0.04,-9.831264700000062,0.0008357607701274247,0.006635892970045685,-1.020710271969213e-05,-0.0038684009806869645,-1.6842181799451235e-05
0.0475,0.00016716564949999514,-0.7855714600000036,4.037771769999211e-05,-2.355378849999997,9.272582700000825e-05,1.570988835,0.786,0.04,0.04,-9.830991850000066,0.000858821489958976,0.0064365627850482224,-1.1550385359675027e-05,-0.004005514981657574,-1.9236519899420752e-05
0.05,0.0001671856999999949,-0.7855568500000037,4.0410333999991694e-05,-2.355390999999997,9.269175000000867e-05,1.5709884,0.786,0.04,0.04,-9.83071900000007,0.0008818822097905275,0.006237232600050761,-1.2893667999657925e-05,-0.004142628982628183,-2.1630857999390267e-05
0.0525,0.0001672324474999875,-0.7855433950000036,4.0484854299980076e-05,-2.355402129999997,9.260661240002276e-05,1.5709879800000002,0.786,0.04,0.04,-9.83041885000008,0.0009139300760494007,0.006072618910044016,-1.5375399249336405e-05,-0.004268938605639776,-2.621537279877414e-05
0.055,0.0001672791949999869,-0.7855299400000038,4.0559374599979124e-05,-2.3554132599999966,9.252147480002385e-05,1.57098756,0.786,0.04,0.04,-9.830118700000085,0.0009459779423105627,0.0059080052200461124,-1.785713049930481e-05,-0.0043952482286486174,-3.0799887598715766e-05
0.0575,0.0001673259424999863,-0.7855164850000039,4.063389489997818e-05,-2.3554243899999965,9.243633720002494e-05,1.5709871400000002,0.786,0.04,0.04,-9.829818550000088,0.0009780258085717245,0.005743391530048208,-2.033886174927321e-05,-0.00452155785165746,-3.53844023986574e-05
0.06,0.00016737268999998572,-0.7855030300000041,4.070841519997723e-05,-2.3554355199999963,9.235119960002601e-05,1.57098672,0.786,0.04,0.04,-9.829518400000092,0.0010100736748328864,0.0055787778400503045,-2.2820592999241605e-05,-0.004647867474666301,-3.996891719859902e-05
0.0625,0.0001674194374999851,-0.7854895750000043,4.0782935499976276e-05,-2.355446649999996,9.22660620000271e-05,1.5709863000000002,0.786,0.04,0.04,-9.829218250000096,0.0010421215410940485,0.0054141641500524,-2.530232424921001e-05,-0.004774177097675143,-4.455343199854065e-05
0.065,0.00016746618499998453,-0.7854761200000044,4.085745579997533e-05,-2.355457779999996,9.218092440002819e-05,1.57098588,0.786,0.04,0.04,-9.8289181000001,0.0010741694073552104,0.005249550460054497,-2.778405549917841e-05,-0.004900486720683985,-4.913794679848228e-05
0.0675,0.00016752735349996904,-0.7854630195000043,4.095436069995129e-05,-2.3554685399999964,9.206868620005723e-05,1.5709854550000002,0.786,0.04,0.04,-9.828650900000069,0.0011091004998748687,0.005081241900060403,-3.0747529598649964e-05,-0.0050235038157151225,-5.46498809974674e-05
0.07,0.0001676173639999679,-0.7854506280000044,4.109603479994949e-05,-2.3554785599999963,9.190224680005934e-05,1.5709850200000002,0.786,0.04,0.04,-9.828449600000072,0.0011497980449203305,0.00490554360006264,-3.467448939859996e-05,-0.00513993585478079,-6.20166539973736e-05
0.0725,0.00016770737449996675,-0.7854382365000045,4.123770889994769e-05,-2.3554885799999963,9.173580740006146e-05,1.5709845850000002,0.786,0.04,0.04,-9.828248300000075,0.0011904955899657921,0.004729845300064878,-3.8601449198549944e-05,-0.0052563678938464566,-6.938342699727978e-05
0.075,0.0001677973849999656,-0.7854258450000048,4.1379382999945884e-05,-2.3554985999999962,9.156936800006359e-05,1.5709841500000001,0.786,0.04,0.04,-9.828047000000076,0.0012311931350112541,0.004554147000067115,-4.252840899849995e-05,-0.0053727999329121244,-7.675019999718598e-05
0.0775,0.00016788739549996448,-0.7854134535000049,4.152105709994408e-05,-2.355508619999996,9.14029286000657e-05,1.5709837150000001,0.786,0.04,0.04,-9.82784570000008,0.001271890680056716,0.0043784487000693515,-4.645536879844995e-05,-0.005489231971977792,-8.411697299709218e-05
0.08,0.00016797740599996334,-0.785401062000005,4.166273119994227e-05,-2.355518639999996,9.123648920006782e-05,1.5709832800000003,0.786,0.04,0.04,-9.827644400000082,0.0013125882251021777,0.004202750400071589,-5.038232859839995e-05,-0.005605664011043459,-9.148374599699839e-05
0.0825,0.0001680674164999622,-0.7853886705000053,4.180440529994047e-05,-2.355528659999996,9.107004980006995e-05,1.5709828450000003,0.786,0.04,0.04,-9.827443100000083,0.0013532857701476395,0.004027052100073826,-5.430928839834995e-05,-0.005722096050109127,-9.885051899690459e-05
0.085,0.00016819945699993375,-0.7853769360000049,4.201090449989657e-05,-2.355538479999996,9.082642400012218e-05,1.57098275,0.786,0.04,0.0399999995,-9.8272193000001,0.0013995311222757688,0.0038710979300632417,-5.934836349757777e-05,-0.00583237484092831,-0.00010834890399542658
0.08750000000000001,0.0001683525124999318,-0.7853655300000051,4.224981624989353e-05,-2.355548199999996,9.054420500012577e-05,1.570982825,0.786,0.04,0.03999999875,-9.826984250000104,0.0014485503779505297,0.0037250158250651017,-6.494349624750654e-05,-0.005939577007618375,-0.00011891309499529209
0.09,0.00016850556799992983,-0.7853541240000053,4.2488727999890484e-05,-2.3555579199999954,9.026198600012937e-05,1.5709829,0.786,0.04,0.039999998,-9.826749200000107,0.0014975696336252903,0.003578933720066962,-7.053862899743527e-05,-0.00604677917430844,-0.00012947728599515754
0.0925,0.0001686586234999279,-0.7853427180000053,4.2727639749887444e-05,-2.3555676399999954,8.997976700013296e-05,1.570982975,0.786,0.04,0.03999999725,-9.82651415000011,0.0015465888893000511,0.003432851615068822,-7.613376174736402e-05,-0.006153981340998505,-0.00014004147699502303
0.095,0.00016881167899992594,-0.7853313120000055,4.2966551499884404e-05,-2.3555773599999954,8.969754800013655e-05,1.57098305,0.786,0.04,0.0399999965,-9.826279100000113,0.001595608144974812,0.003286769510070682,-8.172889449729279e-05,-0.00626118350768857,-0.00015060566799488851
0.0975,0.000168964734499924,-0.7853199060000057,4.320546324988136e-05,-2.355587079999995,8.941532900014014e-05,1.570983125,0.786,0.04,0.03999999575,-9.826044050000116,0.001644627400649573,0.003140687405072542,-8.732402724722155e-05,-0.006368385674378635,-0.00016116985899475403
0.1,0.00016911778999992205,-0.7853085000000057,4.344437499987832e-05,-2.355596799999995,8.913311000014373e-05,1.5709832,0.786,0.04,0.039999995,-9.825809000000119,0.001693646656324334,0.002994605300074402,-9.29191599971503e-05,-0.0064755878410687005,-0.0001717340499946195
0.10250000000000001,0.00016935673249987527,-0.7852979700000055,4.381503849980649e-05,-2.355605529999995,8.86904315002311e-05,1.5709832899999998,0.7860001904999999,0.04,0.03999999575,-9.825668000000073,0.0017448169528239516,0.002850602465075176,-0.00010040394549609259,-0.006575130065851054,-0.00018632508249238281
0.105,0.00016959567499987222,-0.7852874400000056,4.418570199980177e-05,-2.3556142599999954,8.824775300023673e-05,1.57098338,0.7860003809999999,0.04,0.0399999965,-9.825527000000076,0.0017959872493246648,0.0027065996300770106,-0.00010788873099599725,-0.006674672290629506,-0.00020091611499219696
0.1075,0.00016983461749986916,-0.7852769100000058,4.455636549979705e-05,-2.355622989999995,8.780507450024238e-05,1.5709834699999998,0.7860005714999999,0.04,0.03999999725,-9.825386000000076,0.0018471575458253783,0.002562596795078844,-0.00011537351649590195,-0.006774214515407959,-0.00021550714749201118
0.11,0.00017007355999986614,-0.7852663800000058,4.492702899979234e-05,-2.355631719999995,8.736239600024801e-05,1.57098356,0.7860007619999999,0.04,0.039999998,-9.825245000000079,0.001898327842326092,0.0024185939600806774,-0.00012285830199580667,-0.006873756740186411,-0.0002300981799918254
0.1125,0.00017031250249986308,-0.785255850000006,4.529769249978762e-05,-2.355640449999995,8.691971750025365e-05,1.57098365,0.7860009524999999,0.04,0.03999999875,-9.82510400000008,0.0019494981388268053,0.0022745911250825106,-0.00013034308749571136,-0.006973298964964864,-0.00024468921249163966
0.115,0.00017055144499986005,-0.7852453200000061,4.56683559997829e-05,-2.355649179999995,8.647703900025929e-05,1.57098374,0.7860011429999999,0.04,0.0399999995,-9.824963000000082,0.0020006684353275185,0.0021305882900843442,-0.00013782787299561607,-0.007072841189743316,-0.00025928024499145385
0.11750000000000001,0.00017082747199979043,-0.7852350700000057,4.6095700849676415e-05,-2.3556575849999954,8.596621050038727e-05,1.57098384,0.7860013664999999,0.04,0.04,-9.824789200000144,0.002052683255137376,0.0019982814200651794,-0.0001462920094937625,-0.007169750193079032,-0.0002752358664888182
0.12,0.00017117766799978597,-0.7852253800000059,4.663640839966953e-05,-2.3556653399999954,8.531908200039552e-05,1.57098396,0.7860016559999998,0.04,0.04,-9.824549800000145,0.002106387121570037,0.0018893664800665668,-0.00015671484799362976,-0.00726139275351519,-0.0002939206659885802
0.1225,0.0001715278639997815,-0.785215690000006,4.7177115949662644e-05,-2.3556730949999953,8.467195350040376e-05,1.57098408,0.7860019454999998,0.04,0.04,-9.824310400000149,0.0021600909880026982,0.0017804515400679534,-0.00016713768649349704,-0.007353035313951348,-0.0003126054654883423
0.125,0.00017187805999977705,-0.7852060000000062,4.771782349965576e-05,-2.355680849999995,8.4024825000412e-05,1.5709842,0.7860022349999998,0.04,0.04,-9.824071000000153,0.0022137948544353595,0.0016715366000693403,-0.00017756052499336435,-0.007444677874387506,-0.0003312902649881044
0.1275,0.0001722282559997726,-0.7851963100000062,4.8258531049648874e-05,-2.3556886049999948,8.337769650042023e-05,1.57098432,0.7860025244999999,0.04,0.04,-9.823831600000156,0.002267498720868021,0.001562621660070727,-0.00018798336349323163,-0.007536320434823665,-0.0003499750644878665
0.13,0.00017257845199976813,-0.7851866200000064,4.879923859964199e-05,-2.3556963599999947,8.273056800042847e-05,1.57098444,0.7860028139999998,0.04,0.04,-9.823592200000158,0.002321202587300682,0.0014537067200721138,-0.00019840620199309893,-0.007627962995259823,-0.0003686598639876286
0.1325,0.0001729286479997637,-0.7851769300000065,4.93399461496351e-05,-2.3557041149999947,8.208343950043672e-05,1.57098456,0.7860031034999998,0.04,0.04,-9.823352800000162,0.0023749064537333434,0.0013447917800735005,-0.00020882904049296624,-0.0077196055556959815,-0.0003873446634873907
0.135,0.00017337148699966368,-0.7851677500000062,5.0021883999482564e-05,-2.3557117099999947,8.126838600061814e-05,1.57098468,0.7860033899999999,0.04,0.039999999,-9.823154000000123,0.002435859781645468,0.0012323926230784806,-0.00022103619099099326,-0.007806091057078908,-0.0004089405009841505
0.1375,0.00017386064749965745,-0.7851588250000062,5.0774436999472984e-05,-2.3557192249999948,8.03693700006296e-05,1.5709848,0.7860036749999998,0.04,0.0399999975,-9.822975500000124,0.0025004378403084004,0.0011182513575799338,-0.00023413549749082648,-0.00788999802892734,-0.000431991857483857
0.14,0.00017434980799965123,-0.7851499000000064,5.15269899994634e-05,-2.3557267399999944,7.947035400064104e-05,1.57098492,0.7860039599999998,0.04,0.039999996,-9.822797000000127,0.0025650158989713335,0.0010041100920813871,-0.0002472348039906597,-0.007973905000775772,-0.0004550432139835635
0.14250000000000002,0.00017483896849964498,-0.7851409750000065,5.227954299945382e-05,-2.3557342549999944,7.857133800065248e-05,1.57098504,0.7860042449999998,0.04,0.039999994500000004,-9.822618500000129,0.002629593957634266,0.0008899688265828404,-0.0002603341104904929,-0.008057811972624203,-0.00047809457048327
0.145,0.00017532812899963876,-0.7851320500000065,5.303209599944423e-05,-2.3557417699999945,7.767232200066394e-05,1.57098516,0.7860045299999998,0.04,0.039999993,-9.822440000000132,0.0026941720162971983,0.0007758275610842949,-0.000273433416990326,-0.008141718944472633,-0.0005011459269829762
0.1475,0.00017581728949963253,-0.7851231250000067,5.378464899943465e-05,-2.355749284999994,7.677330600067539e-05,1.57098528,0.7860048149999997,0.04,0.0399999915,-9.822261500000133,0.002758750074960131,0.0006616862955857481,-0.0002865327234901592,-0.008225625916321064,-0.0005241972834826828
0.15,0.0001763064499996263,-0.7851142000000068,5.453720199942507e-05,-2.355756799999994,7.587429000068683e-05,1.5709854,0.7860050999999998,0.04,0.03999999,-9.822083000000136,0.002823328133623064,0.0005475450300872014,-0.00029963202998999246,-0.008309532888169496,-0.0005472486399823893
0.1525,0.00017696446399948892,-0.7851059425000064,5.554649994921607e-05,-2.3557634299999948,7.466532750093901e-05,1.57098555,0.7860053849999998,0.04,0.03999999075,-9.821978750000081,0.002881536225277349,0.0004557415725713046,-0.0003150334494880376,-0.00838972898193919,-0.0005755845639779912
0.155,0.00017762247799948055,-0.7850976850000065,5.655579789920322e-05,-2.355770059999995,7.345636500095441e-05,1.5709857,0.7860056699999998,0.04,0.0399999915,-9.821874500000082,0.002939744316926768,0.0003639381150724735,-0.0003304348689878415,-0.008469925075706049,-0.0006039204879776304
0.1575,0.00017828049199947215,-0.7850894275000067,5.756509584919037e-05,-2.3557766899999946,7.22474025009698e-05,1.57098585,0.7860059549999998,0.04,0.03999999225,-9.821770250000084,0.0029979524085761867,0.00027213465757364234,-0.0003458362884876454,-0.008550121169472909,-0.0006322564119772697
0.16,0.00017893850599946378,-0.7850811700000068,5.857439379917752e-05,-2.3557833199999947,7.103844000098518e-05,1.570986,0.7860062399999997,0.04,0.039999993000000005,-9.821666000000086,0.0030561605002256058,0.0001803312000748112,-0.0003612377079874493,-0.008630317263239767,-0.0006605923359769088
0.1625,0.0001795965199994554,-0.7850729125000069,5.9583691749164665e-05,-2.3557899499999944,6.982947750100058e-05,1.57098615,0.7860065249999998,0.04,0.039999993750000004,-9.821561750000086,0.003114368591875025,8.852774257598001e-05,-0.0003766391274872532,-0.008710513357006627,-0.0006889282599765481
0.165,0.00018025453399944704,-0.785064655000007,6.059298969915182e-05,-2.3557965799999945,6.862051500101597e-05,1.5709863,0.7860068099999997,0.04,0.039999994500000004,-9.821457500000088,0.0031725766835244435,-3.2757149228511287e-06,-0.0003920405469870571,-0.008790709450773485,-0.0007172641839761874
0.1675,0.0001809793764992676,-0.7850566050000065,6.170372974887934e-05,-2.3558031249999947,6.728905500134487e-05,1.5709866149999994,0.7860071899999995,0.04,0.03999999525,-9.821327650000155,0.0032314467010505434,-9.344103392587478e-05,-0.00040825288698478565,-0.00886885616922015,-0.0007473741899712862
0.17,0.00018183787599925668,-0.7850489700000066,6.301735399886262e-05,-2.3558094999999946,6.571260000136494e-05,1.5709872599999994,0.7860077599999995,0.04,0.039999996,-9.821146600000157,0.003291640570335062,-0.0001803300759247685,-0.00042608706798455854,-0.008942904137010767,-0.0007810323599708576
0.17250000000000001,0.00018269637549924575,-0.7850413350000067,6.433097824884589e-05,-2.3558158749999945,6.413614500138501e-05,1.5709879049999995,0.7860083299999995,0.04,0.03999999675,-9.82096555000016,0.0033518344396195805,-0.0002672191179236622,-0.00044392124898433153,-0.009016952104801383,-0.000814690529970429
0.17500000000000002,0.00018355487499923482,-0.7850337000000068,6.564460249882917e-05,-2.3558222499999943,6.255969000140509e-05,1.5709885499999994,0.7860088999999995,0.04,0.0399999975,-9.820784500000162,0.0034120283089040995,-0.00035410815992255594,-0.0004617554299841044,-0.009091000072592,-0.0008483486999700005
0.1775,0.00018441337449922387,-0.7850260650000069,6.695822674881243e-05,-2.3558286249999942,6.0983235001425175e-05,1.5709891949999994,0.7860094699999995,0.04,0.03999999825,-9.820603450000164,0.003472222178188617,-0.0004409972019214487,-0.0004795896109838772,-0.009165048040382618,-0.0008820068699695716
0.18,0.00018527187399921294,-0.7850184300000069,6.827185099879571e-05,-2.355834999999994,5.940678000144525e-05,1.5709898399999995,0.7860100399999995,0.04,0.039999999,-9.820422400000165,0.0035324160474731357,-0.0005278862439203425,-0.0004974237919836501,-0.009239096008173233,-0.0009156650399691431
0.1825,0.000186130373499202,-0.785010795000007,6.958547524877898e-05,-2.3558413749999945,5.783032500146532e-05,1.5709904849999994,0.7860106099999995,0.04,0.03999999975,-9.820241350000169,0.0035926099167576542,-0.0006147752859192361,-0.0005152579729834231,-0.00931314397596385,-0.0009493232099687146
0.185,0.00018714466099895103,-0.7850035350000067,7.113525499839815e-05,-2.3558474499999944,5.597107280192148e-05,1.5709911599999995,0.7860111799999995,0.04,0.04,-9.820096700000121,0.0036470783175404265,-0.0006958667299249016,-0.0005356054599792508,-0.009383693523638872,-0.0009864154999627264
0.1875,0.00018823684249890733,-0.784996462500007,7.28031124983314e-05,-2.3558533749999944,5.397042200200154e-05,1.5709918499999993,0.7860117499999995,0.04,0.04,-9.819970250000127,0.0036986839840602963,-0.0007740593749217727,-0.0005572095999783863,-0.009452493861248744,-0.0010252248499611734
0.19,0.00018932902399886362,-0.7849893900000073,7.447096999826466e-05,-2.355859299999994,5.1969771202081596e-05,1.5709925399999993,0.7860123199999994,0.04,0.04,-9.81984380000013,0.003750289650580166,-0.0008522520199186436,-0.0005788137399775218,-0.009521294198858615,-0.0010640341999596204
0.1925,0.00019042120549881992,-0.7849823175000076,7.613882749819792e-05,-2.355865224999994,4.996912040216166e-05,1.5709932299999994,0.7860128899999994,0.04,0.04,-9.819717350000136,0.003801895317100036,-0.0009304446649155146,-0.0006004178799766572,-0.009590094536468486,-0.0011028435499580674
0.195,0.0001915133869987762,-0.7849752450000079,7.780668499813118e-05,-2.3558711499999934,4.796846960224172e-05,1.5709939199999994,0.7860134599999994,0.04,0.04,-9.819590900000142,0.0038535009836199057,-0.0010086373099123854,-0.0006220220199757927,-0.00965889487407836,-0.0011416528999565144
0.1975,0.0001926055684987325,-0.7849681725000082,7.947454249806443e-05,-2.3558770749999933,4.596781880232178e-05,1.5709946099999992,0.7860140299999994,0.04,0.04,-9.819464450000147,0.0039051066501397756,-0.0010868299549092566,-0.0006436261599749282,-0.009727695211688231,-0.0011804622499549614
0.2,0.0001936977499986888,-0.7849611000000084,8.11423999979977e-05,-2.355882999999993,4.396716800240184e-05,1.5709952999999992,0.7860145999999993,0.04,0.04,-9.819338000000151,0.003956712316659646,-0.0011650225999061273,-0.0006652302999740637,-0.009796495549298102,-0.0012192715999534082
0.2025,0.00019505829199838645,-0.7849545600000077,8.321652949754013e-05,-2.355888309999994,4.1478037702952046e-05,1.5709960199999993,0.7860153889999991,0.04,0.04,-9.819232850000125,0.004018590040431479,-0.0012362388949155392,-0.0006893272539714216,-0.009861386567277166,-0.001264016974946933
0.20500000000000002,0.00019641883399840624,-0.7849480200000076,8.529065899757032e-05,-2.3558936199999936,3.898890740291583e-05,1.5709967399999993,0.7860161779999991,0.04,0.04,-9.819127700000124,0.004080467764215645,-0.0013074551899165754,-0.0007134242079717723,-0.009926277585251535,-0.0013087623499475844
0.20750000000000002,0.00019777937599842603,-0.7849414800000075,8.73647884976005e-05,-2.3558989299999937,3.64997771028796e-05,1.5709974599999992,0.7860169669999991,0.04,0.04,-9.819022550000122,0.00414234548799981,-0.0013786714849176119,-0.000737521161972123,-0.009991168603225905,-0.0013535077249482354
0.21,0.00019913991799844582,-0.7849349400000075,8.943891799763066e-05,-2.355904239999994,3.40106468028434e-05,1.5709981799999992,0.7860177559999991,0.04,0.04,-9.818917400000121,0.004204223211783975,-0.0014498877799186476,-0.0007616181159724734,-0.010056059621200273,-0.001398253099948886
0.2125,0.0002005004599984656,-0.7849284000000074,9.151304749766085e-05,-2.355909549999994,3.1521516502807184e-05,1.5709988999999993,0.7860185449999991,0.04,0.04,-9.81881225000012,0.00426610093556814,-0.0015211040749196839,-0.0007857150699728241,-0.010120950639174642,-0.0014429984749495374
0.215,0.0002018610019984854,-0.7849218600000073,9.358717699769104e-05,-2.355914859999994,2.9032386202770958e-05,1.5709996199999992,0.7860193339999991,0.04,0.04,-9.818707100000118,0.004327978659352306,-0.0015923203699207203,-0.0008098120239731747,-0.010185841657149012,-0.0014877438499501885
0.2175,0.00020332291699817108,-0.7849154750000067,9.581464219721582e-05,-2.3559201149999947,2.636061200333673e-05,1.5710005049999987,0.7860201469999991,0.04,0.0399999995,-9.818596250000136,0.004387132055067116,-0.0016578631799404567,-0.0008350879619696395,-0.01024955869645582,-0.0015342996199448726
0.22,0.00020498757799819532,-0.7849094000000066,9.83487787972527e-05,-2.3559252599999945,2.332355000329253e-05,1.5710017199999986,0.7860210079999991,0.04,0.039999998,-9.818474000000133,0.004440836794616158,-0.0017120590199412454,-0.0008627218679700415,-0.010310927778415848,-0.0015844761799456027
0.2225,0.00020665223899821953,-0.7849033250000066,0.00010088291539728957,-2.3559304049999947,2.0286488003248334e-05,1.5710029349999988,0.786021868999999,0.04,0.0399999965,-9.818351750000131,0.004494541534165199,-0.0017662548599420341,-0.0008903557739704437,-0.010372296860375876,-0.001634652739946333
0.225,0.00020831689999824377,-0.7848972500000064,0.00010341705199732645,-2.3559355499999945,1.7249426003204138e-05,1.5710041499999987,0.7860227299999991,0.04,0.039999995,-9.818229500000129,0.004548246273714241,-0.0018204506999428228,-0.0009179896799708458,-0.010433665942335904,-0.0016848292999470632
0.2275,0.00020998156099826798,-0.7848911750000064,0.00010595118859736333,-2.355940694999995,1.4212364003159939e-05,1.5710053649999989,0.7860235909999991,0.04,0.039999993500000004,-9.818107250000127,0.004601951013263282,-0.0018746465399436113,-0.000945623585971248,-0.010495035024295933,-0.0017350058599477935
0.23,0.0002116462219982922,-0.7848851000000063,0.0001084853251974002,-2.3559458399999946,1.1175302003115743e-05,1.5710065799999988,0.7860244519999992,0.04,0.039999992,-9.817985000000125,0.004655655752812324,-0.0019288423799444002,-0.0009732574919716502,-0.01055640410625596,-0.0017851824199485236
0.2325,0.00021331088299831645,-0.7848790250000062,0.00011101946179743708,-2.355950984999995,8.138240003071544e-06,1.5710077949999988,0.7860253129999991,0.04,0.0399999905,-9.817862750000124,0.004709360492361365,-0.0019830382199451887,-0.0010008913979720523,-0.010617773188215988,-0.001835358979949254
0.23500000000000001,0.0002152029239979277,-0.7848732300000059,0.0001138971805968493,-2.355955869999995,4.688234203777801e-06,1.5710090499999987,0.7860263599999988,0.04,0.0399999905,-9.81775080000011,0.004746488854259212,-0.002037583029943465,-0.001030442489968478,-0.0106763774528508,-0.0018899029199413902
0.23750000000000002,0.00021720865499784745,-0.7848675750000061,0.00011694669049672728,-2.355960624999995,1.0317565039241209e-06,1.5710103249999987,0.7860274999999988,0.04,0.03999999125,-9.817644000000115,0.004775329027293923,-0.002092302324941275,-0.001060952174967257,-0.01073359930881674,-0.00194663054993912
0.24,0.00021921438599776716,-0.7848619200000063,0.0001199962003966052,-2.355965379999995,-2.6247211959295174e-06,1.5710115999999985,0.7860286399999987,0.04,0.039999992,-9.81753720000012,0.004804169200328634,-0.002147021619939085,-0.0010914618599660358,-0.01079082116478268,-0.0020033581799368495
0.2425,0.0002212201169976869,-0.7848562650000066,0.00012304571029648318,-2.3559701349999944,-6.281198895783197e-06,1.5710128749999985,0.7860297799999987,0.04,0.03999999275,-9.817430400000124,0.004833009373363345,-0.002201740914936895,-0.0011219715449648148,-0.01084804302074862,-0.002060085809934579
0.245,0.00022322584799760664,-0.7848506100000068,0.00012609522019636115,-2.3559748899999944,-9.937676595636874e-06,1.5710141499999986,0.7860309199999986,0.04,0.039999993500000004,-9.817323600000128,0.004861849546398056,-0.0022564602099347055,-0.001152481229963594,-0.01090526487671456,-0.0021168134399323093
0.2475,0.00022523157899752638,-0.784844955000007,0.00012914473009623912,-2.3559796449999943,-1.3594154295490554e-05,1.5710154249999984,0.7860320599999986,0.04,0.039999994250000004,-9.817216800000132,0.004890689719432767,-0.002311179504932516,-0.001182990914962373,-0.0109624867326805,-0.002173541069930039
0.25,0.0002272373099974461,-0.7848393000000072,0.00013219423999611708,-2.355984399999994,-1.7250631995344234e-05,1.5710166999999984,0.7860331999999985,0.04,0.039999995,-9.817110000000136,0.004919529892467477,-0.002365898799930326,-0.0012135005999611521,-0.01101970858864644,-0.002230268699927769
0.2525,0.00022962181349693345,-0.7848339900000069,0.00013581573349534266,-2.3559886599999946,-2.15940961944142e-05,1.5710180199999983,0.7860344359999984,0.04,0.03999999575,-9.817026300000107,0.004968831059459507,-0.0024084477099452807,-0.0012478075799558803,-0.011074528051469692,-0.0022931993249190696
0.255,0.0002320063169969031,-0.7848286800000069,0.00013943722699529654,-2.3559929199999945,-2.5937560394358897e-05,1.5710193399999983,0.7860356719999984,0.04,0.0399999965,-9.816942600000107,0.005018132226477589,-0.002450996619944739,-0.0012821145599554436,-0.011129347514289883,-0.0023561299499182684
0.2575,0.00023439082049687274,-0.784823370000007,0.00014305872049525043,-2.3559971799999944,-3.0281024594303594e-05,1.5710206599999983,0.7860369079999984,0.04,0.03999999725,-9.81685890000011,0.0050674333934956715,-0.0024935455299441973,-0.0013164215399550068,-0.011184166977110076,-0.002419060574917467
0.26,0.00023677532399684237,-0.7848180600000071,0.00014668021399520434,-2.3560014399999942,-3.4624488794248294e-05,1.5710219799999983,0.7860381439999984,0.04,0.039999998,-9.81677520000011,0.005116734560513754,-0.0025360944399436557,-0.00135072851995457,-0.011238986439930267,-0.002481991199916666
0.2625,0.00023915982749681203,-0.784812750000007,0.00015030170749515823,-2.356005699999994,-3.8967952994192995e-05,1.5710232999999982,0.7860393799999983,0.04,0.03999999875,-9.816691500000111,0.005166035727531836,-0.002578643349943114,-0.0013850354999541332,-0.011293805902750458,-0.0025449218249158647
0.265,0.00024154433099678166,-0.7848074400000071,0.0001539232009951121,-2.356009959999994,-4.3311417194137695e-05,1.5710246199999982,0.7860406159999983,0.04,0.0399999995,-9.816607800000112,0.005215336894549919,-0.0026211922599425723,-0.0014193424799536964,-0.011348625365570651,-0.0026078524499150635
0.2675,0.00024406791499618285,-0.7848022500000067,0.00015775457949420815,-2.356014184999994,-4.790642549305427e-05,1.5710261199999975,0.786041917999998,0.04,0.04,-9.816516150000146,0.005257676821163298,-0.0026611606399525776,-0.0014546139149493177,-0.011402592249143398,-0.002672852219905805
0.27,0.0002468696599961472,-0.7847973000000068,0.00016200572799415403,-2.356018339999994,-5.3004521992989356e-05,1.5710279799999973,0.786043351999998,0.04,0.04,-9.816408600000148,0.005286094266882181,-0.0026959679599521348,-0.001491814259948844,-0.011454853974210833,-0.002741990279904925
0.2725,0.0002496714049961115,-0.7847923500000069,0.00016625687649409992,-2.356022494999994,-5.8102618492924445e-05,1.5710298399999973,0.786044785999998,0.04,0.04,-9.816301050000149,0.005314511712601065,-0.0027307752799516916,-0.0015290146049483705,-0.011507115699278267,-0.0028111283399040446
0.275,0.0002524731499960758,-0.7847874000000069,0.00017050802499404577,-2.3560266499999942,-6.320071499285953e-05,1.5710316999999974,0.786046219999998,0.04,0.04,-9.81619350000015,0.005342929158319948,-0.0027655825999512483,-0.0015662149499478966,-0.011559377424345702,-0.0028802663999031642
0.2775,0.00025527489499604017,-0.784782450000007,0.00017475917349399166,-2.3560308049999943,-6.829881149279462e-05,1.5710335599999974,0.786047653999998,0.04,0.04,-9.816085950000152,0.005371346604038831,-0.002800389919950805,-0.0016034152949474232,-0.011611639149413136,-0.002949404459902284
0.28,0.0002580766399960045,-0.7847775000000071,0.00017901032199393754,-2.3560349599999943,-7.339690799272972e-05,1.5710354199999974,0.786049087999998,0.04,0.04,-9.815978400000153,0.005399764049757715,-0.002835197239950362,-0.0016406156399469494,-0.011663900874480571,-0.003018542519901404
0.28250000000000003,0.0002608783849959688,-0.7847725500000071,0.00018326147049388343,-2.3560391149999944,-7.849500449266481e-05,1.5710372799999974,0.786050521999998,0.04,0.04,-9.815870850000154,0.005428181495476598,-0.0028700045599499187,-0.001677815984946476,-0.011716162599548005,-0.0030876805799005236
0.28500000000000003,0.0002639842839952709,-0.7847678000000068,0.00018797141099283037,-2.356043169999994,-8.41412085914065e-05,1.571039369999997,0.7860521399999976,0.04,0.0399999995,-9.815787400000104,0.005450063059079442,-0.0029062164599464174,-0.0017172653199411054,-0.011766420956629532,-0.0031609470498906544
0.28750000000000003,0.00026724225999522945,-0.7847631500000068,0.00019291074749276747,-2.3560471749999943,-9.006146649133112e-05,1.5710415749999969,0.7860538499999975,0.04,0.03999999875,-9.815716000000105,0.005468676681603044,-0.0029431306499459473,-0.0017578391499405888,-0.0118156776297116,-0.0032362777248896952
0.29,0.00027050023599518787,-0.7847585000000069,0.00019785008399270446,-2.3560511799999944,-9.598172439125561e-05,1.5710437799999968,0.7860555599999975,0.04,0.039999998,-9.815644600000105,0.005487290304126647,-0.0029800448399454767,-0.0017984129799400712,-0.011864934302793667,-0.0033116083998887347
0.2925,0.0002737582119951464,-0.784753850000007,0.0002027894204926416,-2.356055184999994,-0.00010190198229118024,1.5710459849999967,0.7860572699999975,0.04,0.03999999725,-9.815573200000106,0.00550590392665025,-0.0030169590299450066,-0.0018389868099395548,-0.011914190975875736,-0.0033869390748877755
0.295,0.00027701618799510494,-0.784749200000007,0.0002077287569925787,-2.356059189999994,-0.00010782224019110486,1.5710481899999966,0.7860589799999975,0.04,0.0399999965,-9.815501800000108,0.005524517549173854,-0.0030538732199445365,-0.0018795606399390381,-0.011963447648957803,-0.0034622697498868163
0.2975,0.00028027416399506347,-0.7847445500000071,0.0002126680934925158,-2.356063194999994,-0.00011374249809102948,1.5710503949999968,0.7860606899999975,0.04,0.03999999575,-9.815430400000109,0.005543131171697456,-0.0030907874099440668,-0.0019201344699385215,-0.012012704322039871,-0.003537600424885857
0.3,0.00028353213999502194,-0.7847399000000072,0.00021760742999245292,-2.356067199999994,-0.0001196627559909541,1.5710525999999967,0.7860623999999974,0.04,0.039999995,-9.81535900000011,0.005561744794221059,-0.0031277015999435966,-0.001960708299938005,-0.012061960995121938,-0.003612931099884898
0.3025,0.0002872859184942166,-0.7847355050000068,0.00022329422249123843,-2.3560710699999943,-0.00012648011408949658,1.5710550299999964,0.7860644099999969,0.04,0.039999995,-9.815285350000114,0.00554741662929175,-0.0031502551649652518,-0.0020049554949318287,-0.012109419330881343,-0.0036951146448733806
0.305,0.0002910396969941688,-0.7847311100000068,0.00022898101499116603,-2.356074939999994,-0.00013329747218940977,1.5710574599999962,0.7860664199999969,0.04,0.039999995,-9.815211700000114,0.005533088464312107,-0.003172808729964965,-0.0020492026899312657,-0.012156877666637998,-0.003777298189872334
0.3075,0.00029479347549412103,-0.7847267150000069,0.0002346678074910936,-2.356078809999994,-0.000140114830289323,1.5710598899999961,0.7860684299999968,0.04,0.039999995,-9.815138050000115,0.005518760299332465,-0.003195362294964678,-0.0020934498849307023,-0.012204336002394654,-0.0038594817348712876
0.31,0.0002985472539940732,-0.784722320000007,0.00024035459999102122,-2.356082679999994,-0.00014693218838923619,1.5710623199999962,0.7860704399999968,0.04,0.039999995,-9.815064400000116,0.005504432134352822,-0.0032179158599643905,-0.002137697079930139,-0.012251794338151309,-0.003941665279870241
0.3125,0.0003023010324940254,-0.784717925000007,0.0002460413924909488,-2.356086549999994,-0.00015374954648914938,1.5710647499999961,0.7860724499999968,0.04,0.039999995,-9.814990750000117,0.00549010396937318,-0.0032404694249641036,-0.0021819442749295755,-0.012299252673907966,-0.004023848824869195
0.315,0.0003060548109939776,-0.7847135300000071,0.0002517281849908764,-2.356090419999994,-0.00016056690458906257,1.571067179999996,0.7860744599999968,0.04,0.039999995,-9.81491710000012,0.0054757758043935375,-0.003263022989963816,-0.002226191469929012,-0.012346711009664621,-0.004106032369868149
0.3175,0.00030998715149306355,-0.7847092075000068,0.00025768406898949857,-2.3560941399999944,-0.0001677074529874079,1.5710697949999952,0.7860765599999963,0.03999999975,0.03999999525,-9.81485180000008,0.00546950837595648,-0.0032841480249704595,-0.0022716485799225794,-0.012393852835445827,-0.00419043632985633
0.32,0.00031427661599300893,-0.7847050300000068,0.0002641781359894159,-2.3560975599999945,-0.00017549438198730878,1.571072779999995,0.7860788399999963,0.039999999,0.039999996,-9.81480320000008,0.0054793624207216,-0.003302415999970227,-0.00231952551992197,-0.01244036164127154,-0.004279281119855199
0.3225,0.00031856608049295437,-0.7847008525000069,0.0002706722029893332,-2.3561009799999946,-0.00018328131098720963,1.5710757649999951,0.7860811199999962,0.03999999825,0.03999999675,-9.81475460000008,0.005489216465486719,-0.003320683974969994,-0.0023674024599213603,-0.012486870447097252,-0.0043681259098540684
0.325,0.00032285554499289975,-0.784696675000007,0.00027716626998925054,-2.356104399999994,-0.00019106823998711047,1.571078749999995,0.7860833999999962,0.0399999975,0.0399999975,-9.814706000000081,0.005499070510251839,-0.0033389519499697614,-0.0024152793999207504,-0.012533379252922966,-0.004456970699852937
0.3275,0.00032714500949284513,-0.784692497500007,0.00028366033698916783,-2.3561078199999943,-0.00019885516898701135,1.571081734999995,0.7860856799999962,0.03999999675,0.03999999825,-9.814657400000081,0.005508924555016959,-0.0033572199249695288,-0.002463156339920141,-0.012579888058748679,-0.004545815489851806
0.33,0.0003314344739927905,-0.784688320000007,0.0002901544039890852,-2.3561112399999944,-0.0002066420979869122,1.5710847199999949,0.7860879599999961,0.039999996,0.039999999,-9.814608800000082,0.005518778599782078,-0.003375487899969296,-0.0025110332799195313,-0.012626396864574391,-0.004634660279850674
0.3325,0.0003357239384927359,-0.7846841425000071,0.00029664847098900246,-2.356114659999994,-0.00021442902698681304,1.571087704999995,0.7860902399999962,0.03999999525,0.03999999975,-9.814560200000082,0.005528632644547198,-0.003393755874969064,-0.002558910219918922,-0.012672905670400105,-0.004723505069849543
0.335,0.0003403972389916989,-0.7846801050000067,0.00030372080398743983,-2.3561179699999943,-0.00022291011098493735,1.5710908499999945,0.7860927199999956,0.039999994500000004,0.04,-9.814471600000186,0.005517367553003087,-0.0034124354299677776,-0.0026091725299122073,-0.012716808915065485,-0.0048167422998371704
0.3375,0.00034526245749163696,-0.7846761375000068,0.0003110822699873461,-2.3561212249999945,-0.00023173827248482496,1.5710940749999944,0.7860952999999956,0.039999993750000004,0.04,-9.814363000000187,0.00549554289322369,-0.003431320774967537,-0.002660627524911552,-0.012759409379140748,-0.004912175749835956
0.34,0.00035012767599157504,-0.7846721700000069,0.0003184437359872524,-2.3561244799999943,-0.00024056643398471253,1.5710972999999944,0.7860978799999956,0.039999993000000005,0.04,-9.814254400000188,0.005473718233444293,-0.003450206119967297,-0.002712082519910897,-0.01280200984321601,-0.0050076091998347404
0.3425,0.0003549928944915131,-0.7846682025000069,0.00032580520198715864,-2.3561277349999945,-0.00024939459548460017,1.5711005249999943,0.7861004599999956,0.039999992250000005,0.04,-9.814145800000189,0.005451893573664896,-0.0034690914649670563,-0.002763537514910242,-0.012844610307291273,-0.005103042649833526
0.34500000000000003,0.00035985811299145117,-0.7846642350000069,0.00033316666798706494,-2.3561309899999943,-0.00025822275698448774,1.5711037499999942,0.7861030399999955,0.0399999915,0.04,-9.814037200000191,0.005430068913885499,-0.0034879768099668157,-0.002814992509909587,-0.012887210771366535,-0.005198476099832311
0.34750000000000003,0.0003647233314913892,-0.784660267500007,0.0003405281339869712,-2.356134244999994,-0.0002670509184843753,1.5711069749999942,0.7861056199999955,0.03999999075,0.04,-9.813928600000192,0.005408244254106102,-0.0035068621549665755,-0.0028664475049089318,-0.012929811235441797,-0.005293909549831096
0.35000000000000003,0.00036958854999132723,-0.7846563000000071,0.00034788959998687744,-2.3561374999999942,-0.00027587907998426295,1.5711101999999941,0.7861081999999955,0.03999999,0.04,-9.813820000000193,0.005386419594326705,-0.003525747499966335,-0.0029179024999082767,-0.01297241169951706,-0.005389342999829881
0.3525,0.00037506979149015923,-0.7846525050000068,0.0003561788324851179,-2.3561405749999946,-0.0002858173149821574,1.5711137849999934,0.7861111099999948,0.0399999897,0.03999999925,-9.813763450000101,0.005350618250732261,-0.0035255529350003492,-0.0029728279999013895,-0.01301428363650964,-0.005491021774817451
0.355,0.00038055103299008947,-0.7846487100000068,0.00036446806498501233,-2.3561436499999946,-0.0002957555499820308,1.5711173699999934,0.7861140199999948,0.0399999894,0.0399999985,-9.813706900000103,0.005314816907112902,-0.0035253583700003517,-0.0030277534999006905,-0.013056155573500922,-0.005592700549816157
0.3575,0.00038603227449001966,-0.7846449150000069,0.0003727572974849068,-2.3561467249999946,-0.0003056937849819043,1.5711209549999934,0.7861169299999947,0.0399999891,0.03999999775,-9.813650350000103,0.005279015563493543,-0.003525163805000354,-0.003082678999899991,-0.013098027510492204,-0.005694379324814862
0.36,0.0003915135159899499,-0.784641120000007,0.0003810465299848013,-2.3561497999999945,-0.0003156320199817778,1.5711245399999934,0.7861198399999947,0.0399999888,0.039999997,-9.813593800000103,0.0052432142198741835,-0.0035249692400003566,-0.0031376044998992917,-0.013139899447483486,-0.005796058099813568
0.3625,0.0003969947574898801,-0.7846373250000069,0.00038933576248469576,-2.3561528749999945,-0.00032557025498165126,1.5711281249999933,0.7861227499999947,0.0399999885,0.03999999625,-9.813537250000104,0.005207412876254825,-0.003524774675000359,-0.0031925299998985922,-0.013181771384474766,-0.005897736874812273
0.365,0.0004024759989898103,-0.784633530000007,0.00039762499498459023,-2.3561559499999944,-0.0003355084899815247,1.5711317099999933,0.7861256599999946,0.0399999882,0.0399999955,-9.813480700000104,0.005171611532635466,-0.0035245801100003615,-0.003247455499897893,-0.013223643321466048,-0.005999415649810979
0.3675,0.00040817603698845614,-0.7846297820000069,0.0004062436559825505,-2.3561589999999946,-0.0003458417979790786,1.5711354799999924,0.7861286919999939,0.039999987800000004,0.03999999525,-9.813421075000123,0.00512072336875246,-0.003523892665003147,-0.0033035810648899227,-0.013265166245324079,-0.0061034276247955935
0.37,0.0004143136679882105,-0.784626128000007,0.0004155211739821792,-2.3561619999999945,-0.00035696525197863343,1.571139619999992,0.7861319679999937,0.0399999872,0.039999996,-9.813355300000126,0.005039661564088588,-0.003522219460003214,-0.0033621067598875805,-0.013305991142909741,-0.0062121059997912445
0.3725,0.0004204512989879649,-0.7846224740000072,0.00042479869198180795,-2.356164999999994,-0.0003680887059781883,1.571143759999992,0.7861352439999936,0.0399999866,0.03999999675,-9.813289525000128,0.004958599759424717,-0.003520546255003281,-0.0034206324548852387,-0.013346816040495403,-0.006320784374786895
0.375,0.0004265889299877193,-0.7846188200000073,0.0004340762099814367,-2.356167999999994,-0.0003792121599777432,1.5711478999999917,0.7861385199999934,0.039999986,0.0399999975,-9.813223750000132,0.004877537954760845,-0.003518873050003348,-0.0034791581498828964,-0.013387640938081063,-0.006429462749782546
0.3775,0.0004327265609874737,-0.7846151660000075,0.00044335372798106547,-2.356170999999994,-0.00039033561397729805,1.5711520399999916,0.7861417959999933,0.0399999854,0.03999999825,-9.813157975000134,0.004796476150096975,-0.003517199845003415,-0.0035376838448805546,-0.013428465835666726,-0.006538141124778197
0.38,0.0004388641919872281,-0.7846115120000076,0.0004526312459806942,-2.3561739999999936,-0.00040145906797685294,1.5711561799999914,0.7861450719999932,0.039999984800000006,0.039999999,-9.813092200000137,0.004715414345433103,-0.003515526640003482,-0.003596209539878213,-0.013469290733252386,-0.006646819499773849
0.3825,0.0004450018229869825,-0.7846078580000078,0.00046190876398032293,-2.3561769999999935,-0.00041258252197640783,1.5711603199999913,0.786148347999993,0.039999984200000005,0.03999999975,-9.813026425000139,0.004634352540769232,-0.0035138534350035487,-0.0036547352348758706,-0.013510115630838048,-0.0067554978747695
0.385,0.0004516039299854799,-0.7846042860000075,0.00047188544897806107,-2.3561799999999935,-0.00042454329597369894,1.57116484999999,0.7861518659999922,0.03999998330000001,0.039999999,-9.812973550000098,0.004575122986091485,-0.0035115263700056386,-0.003715689519867918,-0.013549980148589316,-0.006868421429755575
0.3875,0.00045843827498557937,-0.7846007550000075,0.0004822117174782113,-2.3561829999999935,-0.0004369227299738791,1.57116957499999,0.7861555049999923,0.03999998225,0.0399999975,-9.812927125000098,0.004526809556511642,-0.0035088723750056,-0.003777858099868823,-0.013589364476418774,-0.00698346757475725
0.39,0.00046527261998567887,-0.7845972240000074,0.0004925379859783616,-2.3561859999999935,-0.00044930216397405927,1.57117429999999,0.7861591439999923,0.03999998120000001,0.039999996,-9.812880700000097,0.0044784961269317995,-0.0035062183800055615,-0.0038400266798697276,-0.013628748804248232,-0.007098513719758924
0.3925,0.0004721069649857783,-0.7845936930000074,0.0005028642544785118,-2.356188999999994,-0.00046168159797423943,1.5711790249999902,0.7861627829999924,0.03999998015,0.039999994500000004,-9.812834275000096,0.004430182697351956,-0.003503564385005523,-0.0039021952598706326,-0.01366813313207769,-0.007213559864760598
0.395,0.00047894130998587777,-0.7845901620000073,0.0005131905229786622,-2.356191999999994,-0.0004740610319744196,1.57118374999999,0.7861664219999924,0.0399999791,0.039999993000000005,-9.812787850000095,0.0043818692677721136,-0.0035009103900054844,-0.003964363839871537,-0.013707517459907148,-0.007328606009762272
0.3975,0.0004857756549859772,-0.7845866310000073,0.0005235167914788124,-2.356194999999994,-0.00048644046597459976,1.5711884749999903,0.7861700609999925,0.03999997805,0.039999991500000005,-9.812741425000095,0.00433355583819227,-0.0034982563950054454,-0.004026532419872442,-0.013746901787736606,-0.007443652154763947
0.4,0.0004926099999860767,-0.7845831000000072,0.0005338430599789627,-2.356197999999994,-0.0004988198999747799,1.5711931999999904,0.7861736999999925,0.039999977,0.03999999,-9.812695000000094,0.004285242408612428,-0.003495602400005407,-0.004088700999873346,-0.013786286115566064,-0.007558698299765621
0.4025,0.0005001813099844789,-0.784579656000007,0.0005452784914765574,-2.356200984999994,-0.000512527754971899,1.5711984049999892,0.7861777499999917,0.0399999764,0.03999999,-9.812657650000077,0.004190906603082663,-0.003486371760018923,-0.0041544186998652794,-0.013824754720474834,-0.007680481754750345
0.405,0.0005077526199843825,-0.784576212000007,0.0005567139229764119,-2.356203969999994,-0.0005262356099717245,1.5712036099999893,0.7861817999999916,0.039999975800000004,0.03999999,-9.812620300000077,0.0040965707974591386,-0.0034771411200190403,-0.004220136399864443,-0.01386322332538174,-0.007802265209748794
0.40750000000000003,0.0005153239299842861,-0.7845727680000071,0.0005681493544762663,-2.3562069549999936,-0.00053994346497155,1.5712088149999892,0.7861858499999915,0.0399999752,0.03999999,-9.812582950000078,0.004002234991835615,-0.003467910480019158,-0.004285854099863606,-0.013901691930288645,-0.007924048664747243
0.41000000000000003,0.0005228952399841897,-0.7845693240000071,0.0005795847859761207,-2.3562099399999936,-0.0005536513199713754,1.571214019999989,0.7861898999999916,0.0399999746,0.03999999,-9.812545600000078,0.003907899186212091,-0.003458679840019275,-0.004351571799862769,-0.013940160535195551,-0.008045832119745694
0.41250000000000003,0.0005304665499840933,-0.7845658800000072,0.0005910202174759751,-2.3562129249999937,-0.0005673591749712009,1.571219224999989,0.7861939499999915,0.039999974,0.03999999,-9.812508250000079,0.003813563380588567,-0.003449449200019393,-0.004417289499861932,-0.013978629140102455,-0.008167615574744143
0.41500000000000004,0.0005380378599839969,-0.7845624360000072,0.0006024556489758295,-2.3562159099999938,-0.0005810670299710264,1.571224429999989,0.7861979999999914,0.0399999734,0.03999999,-9.81247090000008,0.003719227574965043,-0.0034402185600195105,-0.004483007199861095,-0.01401709774500936,-0.008289399029742591
0.4175,0.0005458681899822481,-0.7845590180000072,0.0006142808364731973,-2.3562188749999935,-0.0005952416049678742,1.5712297999999878,0.7862021799999905,0.03999997285,0.0399999899,-9.812430450000099,0.003618407296258742,-0.003427932085039122,-0.004549929609852572,-0.014055348420435196,-0.008413333124727319
0.42,0.0005542165599821418,-0.7845556520000072,0.0006268855359730369,-2.3562217999999935,-0.0006103496199676818,1.5712354999999878,0.7862066199999905,0.0399999724,0.0399999896,-9.812383800000099,0.0035046180712630308,-0.003409533940039356,-0.004619261439851689,-0.014093163236894728,-0.008541568499725687
0.4225,0.0005625649299820354,-0.7845522860000073,0.0006394902354728764,-2.3562247249999935,-0.0006254576349674896,1.5712411999999878,0.7862110599999904,0.039999971950000004,0.0399999893,-9.8123371500001,0.0033908288462673195,-0.0033911357950395906,-0.004688593269850806,-0.014130978053354263,-0.008669803874724054
0.425,0.0005709132999819291,-0.7845489200000073,0.0006520949349727159,-2.3562276499999935,-0.0006405656499672972,1.5712468999999876,0.7862154999999904,0.0399999715,0.039999989,-9.8122905000001,0.0032770396212716086,-0.0033727376500398247,-0.004757925099849924,-0.014168792869813795,-0.008798039249722422
0.4275,0.0005792616699818228,-0.7845455540000074,0.0006646996344725554,-2.3562305749999934,-0.0006556736649671049,1.5712525999999876,0.7862199399999904,0.039999971050000006,0.0399999887,-9.812243850000101,0.0031632503962758973,-0.003354339505040059,-0.004827256929849041,-0.01420660768627333,-0.008926274624720789
0.43,0.0005876100399817165,-0.7845421880000074,0.000677304333972395,-2.3562334999999934,-0.0006707816799669125,1.5712582999999876,0.7862243799999903,0.039999970600000004,0.0399999884,-9.812197200000101,0.003049461171280186,-0.003335941360040293,-0.004896588759848159,-0.014244422502732862,-0.009054509999719157
0.4325,0.0005959584099816102,-0.7845388220000075,0.0006899090334722345,-2.3562364249999934,-0.0006858896949667201,1.5712639999999873,0.7862288199999903,0.03999997015,0.0399999881,-9.812150550000103,0.0029356719462844748,-0.0033175432150405275,-0.004965920589847276,-0.014282237319192396,-0.009182745374717523
0.435,0.0006048514499796939,-0.7845354860000073,0.0007033331659693508,-2.3562393599999933,-0.0007019789959632666,1.5712700799999861,0.7862335599999892,0.039999969600000004,0.039999988,-9.812108750000087,0.002786194906009385,-0.003298959540041378,-0.005037562239838717,-0.014319855999118362,-0.009315431149701101
0.4375,0.0006140168249795772,-0.7845321650000074,0.0007171670149691747,-2.3562422999999932,-0.0007185589399630555,1.571276349999986,0.7862384499999892,0.039999969,0.039999988,-9.812069375000087,0.002618873957917385,-0.003280283100041616,-0.00511035879983779,-0.01435737661077657,-0.009450342124699383
0.44,0.0006231821999794605,-0.7845288440000074,0.0007310008639689984,-2.356245239999993,-0.0007351388839628444,1.5712826199999859,0.7862433399999891,0.0399999684,0.039999988,-9.812030000000087,0.0024515530098253853,-0.003261606660041854,-0.0051831553598368635,-0.014394897222434776,-0.009585253099697667
0.4425,0.0006323475749793438,-0.7845255230000074,0.0007448347129688223,-2.356248179999993,-0.0007517188279626333,1.571288889999986,0.786248229999989,0.0399999678,0.039999988,-9.811990625000089,0.0022842320617333855,-0.0032429302200420915,-0.005255951919835937,-0.014432417834092983,-0.009720164074695949
0.445,0.0006415129499792271,-0.7845222020000076,0.0007586685619686462,-2.3562511199999934,-0.0007682987719624222,1.5712951599999858,0.7862531199999889,0.0399999672,0.039999988,-9.811951250000089,0.002116911113641386,-0.0032242537800423296,-0.00532874847983501,-0.014469938445751191,-0.009855075049694231
0.4475,0.0006506783249791104,-0.7845188810000076,0.0007725024109684701,-2.3562540599999933,-0.0007848787159622111,1.5713014299999857,0.7862580099999888,0.0399999666,0.039999988,-9.811911875000089,0.0019495901655493864,-0.0032055773400425673,-0.005401545039834083,-0.014507459057409399,-0.009989986024692513
0.45,0.0006598436999789937,-0.7845155600000077,0.000786336259968294,-2.356256999999993,-0.0008014586599620001,1.5713076999999855,0.7862628999999888,0.039999966,0.039999988,-9.81187250000009,0.0017822692174573867,-0.0031869009000428054,-0.005474341599833156,-0.014544979669067606,-0.010124896999690795
0.4525,0.0006698656799769029,-0.7845122870000075,0.000801458695965148,-2.356259924999993,-0.0008195814619582332,1.5713145249999843,0.7862682249999877,0.0399999648,0.039999986800000005,-9.811841675000071,0.0016516488514125398,-0.00315779470506708,-0.005550697869824026,-0.014582203701052626,-0.010266179299674393
0.455,0.0006798876599767753,-0.7845090140000076,0.0008165811319649555,-2.356262849999993,-0.0008377042639580025,1.571321349999984,0.7862735499999877,0.0399999636,0.0399999856,-9.811810850000072,0.0015210284854518079,-0.00312868851006745,-0.005627054139823053,-0.014619427733036967,-0.010407461599672594
0.4575,0.0006899096399766476,-0.7845057410000077,0.0008317035679647629,-2.356265774999993,-0.0008558270659577718,1.5713281749999841,0.7862788749999876,0.039999962400000005,0.0399999844,-9.811780025000072,0.001390408119491076,-0.003099582315067821,-0.005703410409822081,-0.014656651765021308,-0.010548743899670796
0.46,0.00069993161997652,-0.7845024680000077,0.0008468260039645704,-2.356268699999993,-0.000873949867957541,1.571334999999984,0.7862841999999874,0.0399999612,0.0399999832,-9.811749200000072,0.001259787753530344,-0.0030704761200681914,-0.005779766679821109,-0.01469387579700565,-0.010690026199668997
0.4625,0.0007099535999763924,-0.7844991950000078,0.0008619484399643778,-2.356271624999993,-0.0008920726699573103,1.5713418249999838,0.7862895249999874,0.03999996,0.039999982,-9.811718375000073,0.0011291673875696122,-0.003041369925068562,-0.005856122949820137,-0.01473109982898999,-0.010831308499667198
0.465,0.0007199755799762648,-0.7844959220000078,0.0008770708759641853,-2.356274549999993,-0.0009101954719570796,1.5713486499999838,0.7862948499999873,0.039999958800000006,0.0399999808,-9.811687550000073,0.00099854702160888,-0.0030122637300689327,-0.005932479219819165,-0.014768323860974332,-0.010972590799665399
0.4675,0.0007302962049740039,-0.7844926555000078,0.0008926424999607841,-2.356277474999993,-0.0009288561379530068,1.5713556849999821,0.786300339999986,0.039999957800000006,0.03999997985,-9.811655500000082,0.0008496487051938301,-0.002981836860078737,-0.006009955429810193,-0.014805462863208215,-0.011116065699647938
0.47000000000000003,0.000741214119973865,-0.7844894020000078,0.0009091124999605744,-2.356280399999993,-0.0009485925319527556,1.5713631399999821,0.786306159999986,0.039999957200000005,0.039999979399999996,-9.811621000000082,0.0006641944874791563,-0.0029487686400791577,-0.006089671519809177,-0.014842431805939364,-0.011263925799646057
0.47250000000000003,0.0007521320349737259,-0.7844861485000079,0.0009255824999603647,-2.356283324999993,-0.0009683289259525042,1.571370594999982,0.7863119799999859,0.039999956600000004,0.03999997895,-9.811586500000082,0.0004787402697644825,-0.002915700420079579,-0.0061693876098081624,-0.014879400748670514,-0.011411785899644174
0.47500000000000003,0.0007630499499735869,-0.7844828950000079,0.000942052499960155,-2.356286249999993,-0.0009880653199522528,1.5713780499999819,0.7863177999999859,0.039999956,0.0399999785,-9.811552000000082,0.0002932860520498087,-0.00288263220008,-0.006249103699807148,-0.014916369691401664,-0.011559645999642291
0.47750000000000004,0.000773967864973448,-0.7844796415000079,0.0009585224999599453,-2.356289174999993,-0.0010078017139520017,1.5713855049999819,0.7863236199999858,0.0399999554,0.03999997805,-9.811517500000084,0.00010783183433513491,-0.0028495639800804207,-0.006328819789806132,-0.014953338634132812,-0.011707506099640408
0.48,0.0007848857799733087,-0.784476388000008,0.0009749924999597352,-2.3562920999999926,-0.00102753810795175,1.5713929599999819,0.7863294399999857,0.0399999548,0.0399999776,-9.811483000000084,-7.762238337953478e-05,-0.0028164957600808425,-0.006408535879805116,-0.01499030757686396,-0.011855366199638524
0.4825,0.0007958036949731697,-0.784473134500008,0.0009914624999595254,-2.3562950249999925,-0.0010472745019514988,1.5714004149999816,0.7863352599999857,0.0399999542,0.03999997715,-9.811448500000084,-0.0002630766010942086,-0.0027834275400812638,-0.0064882519698041,-0.01502727651959511,-0.01200322629963664
0.485,0.0008073449199707211,-0.7844698800000081,0.0010088698599558426,-2.3562979599999925,-0.001068133139947089,1.57140827999998,0.7863413999999844,0.0399999536,0.039999977,-9.811413100000088,-0.00048784166514098426,-0.0027502965100819174,-0.0065703714297941805,-0.015064071677534475,-0.012155256849619305
0.4875,0.0008191977999705702,-0.7844666250000081,0.0010267458999556152,-2.356300899999993,-0.0010895528999468164,1.57141634999998,0.7863476999999843,0.039999953,0.039999977,-9.811377250000088,-0.0007322621525715472,-0.0027171340750823396,-0.0066536925747931195,-0.015100779943076981,-0.012309372624617343
0.49,0.0008310506799704193,-0.7844633700000081,0.0010446219399553875,-2.3563038399999927,-0.0011109726599465436,1.5714244199999798,0.7863539999999842,0.0399999524,0.039999977,-9.811341400000089,-0.0009766826400021103,-0.002683971640082762,-0.0067370137197920585,-0.015137488208619489,-0.01246348839961538
0.4925,0.0008429035599702684,-0.7844601150000081,0.00106249797995516,-2.3563067799999926,-0.001132392419946271,1.5714324899999796,0.7863602999999841,0.0399999518,0.039999977,-9.811305550000089,-0.0012211031274326732,-0.002650809205083184,-0.006820334864790998,-0.015174196474161997,-0.012617604174613418
0.495,0.0008547564399701174,-0.7844568600000081,0.0010803740199549323,-2.3563097199999925,-0.0011538121799459981,1.5714405599999797,0.786366599999984,0.0399999512,0.039999977,-9.81126970000009,-0.0014655236148632365,-0.0026176467700836066,-0.006903656009789937,-0.015210904739704505,-0.012771719949611456
0.4975,0.0008666093199699665,-0.7844536050000082,0.0010982500599547049,-2.3563126599999924,-0.0011752319399457255,1.5714486299999795,0.7863728999999839,0.0399999506,0.039999977,-9.81123385000009,-0.0017099441022937994,-0.002584484335084029,-0.006986977154788876,-0.015247613005247011,-0.012925835724609494
0.5,0.0008784621999698155,-0.7844503500000083,0.0011161260999544773,-2.3563155999999923,-0.0011966516999454527,1.5714566999999793,0.7863791999999838,0.03999995,0.039999977,-9.81119800000009,-0.0019543645897243623,-0.002551321900084451,-0.007070298299787815,-0.01528432127078952,-0.013079951499607532
0.5025000000000001,0.0008912886399671733,-0.7844470785000084,0.0011354660799505034,-2.356318539999992,-0.001219824104940695,1.5714654449999776,0.7863860159999825,0.03999995,0.039999977,-9.811164700000084,-0.002159929787213988,-0.002505487000117305,-0.0071569309047782815,-0.015320843178685345,-0.013240401624589362
0.505,0.0009041150799670097,-0.7844438070000084,0.0011548060599502568,-2.3563214799999925,-0.0012429965099403995,1.5714741899999776,0.7863928319999824,0.03999995,0.039999977,-9.811131400000086,-0.002365494984604656,-0.0024596521001178898,-0.007243563509777177,-0.015357365086580694,-0.013400851749587316
0.5075000000000001,0.0009169415199668467,-0.7844405355000084,0.0011741460399500108,-2.3563244199999924,-0.0012661689149401048,1.5714829349999773,0.7863996479999824,0.03999995,0.039999977,-9.811098100000086,-0.0025710601819953337,-0.002413817200118472,-0.0073301961147760756,-0.015393886994476044,-0.013561301874585275
0.51,0.0009297679599666831,-0.7844372640000085,0.0011934860199497642,-2.3563273599999923,-0.0012893413199398093,1.5714916799999772,0.7864064639999823,0.03999995,0.039999977,-9.811064800000086,-0.002776625379386002,-0.002367982300119057,-0.007416828719774971,-0.015430408902371394,-0.01372175199958323
0.5125,0.0009425943999665196,-0.7844339925000084,0.0012128259999495176,-2.356330299999992,-0.0013125137249395138,1.571500424999977,0.7864132799999822,0.03999995,0.039999977,-9.811031500000087,-0.00298219057677667,-0.0023221474001196415,-0.007503461324773865,-0.015466930810266743,-0.013882202124581184
0.515,0.0009554208399663566,-0.7844307210000085,0.0012321659799492718,-2.3563332399999926,-0.0013356861299392193,1.571509169999977,0.7864200959999821,0.03999995,0.039999977,-9.810998200000087,-0.003187755774167347,-0.002276312500120224,-0.007590093929772765,-0.015503452718162093,-0.014042652249579143
0.5175,0.0009685844899635267,-0.7844274310000087,0.0012520130299450156,-2.3563361749999925,-0.0013594655799341237,1.571518154999975,0.7864270929999806,0.03999995,0.03999997715,-9.810964400000092,-0.0034137785427686483,-0.002230574180120045,-0.007677857799762715,-0.015539860958138101,-0.014205218849560362
0.52,0.0009824225599633508,-0.7844241040000087,0.0012728742199447504,-2.3563390999999925,-0.0013844591199338062,1.571527619999975,0.7864344519999805,0.03999995,0.0399999776,-9.810929600000092,-0.0036807164542757304,-0.0021850290201206237,-0.00776788419976157,-0.015576041862272736,-0.014372018399558241
0.5225,0.0009962606299631742,-0.7844207770000088,0.0012937354099444842,-2.3563420249999925,-0.0014094526599334873,1.5715370849999748,0.7864418109999805,0.03999995,0.039999978049999996,-9.810894800000092,-0.003947654365782801,-0.0021394838601212045,-0.007857910599760423,-0.01561222276640737,-0.014538817949556113
0.525,0.0010100986999629984,-0.7844174500000088,0.0013145965999442192,-2.356344949999992,-0.0014344461999331697,1.5715465499999748,0.7864491699999804,0.03999995,0.0399999785,-9.810860000000092,-0.004214592277289883,-0.0020939387001217835,-0.007947936999759278,-0.015648403670542006,-0.014705617499553994
0.5275,0.0010239367699628218,-0.7844141230000089,0.001335457789943953,-2.356347874999992,-0.0014594397399328508,1.5715560149999745,0.7864565289999803,0.03999995,0.039999978949999994,-9.810825200000094,-0.004481530188796954,-0.0020483935401223643,-0.00803796339975813,-0.015684584574676638,-0.014872417049551867
0.53,0.0010377748399626459,-0.784410796000009,0.0013563189799436878,-2.356350799999992,-0.0014844332799325332,1.5715654799999745,0.7864638879999801,0.03999995,0.039999979399999996,-9.810790400000094,-0.004748468100304036,-0.0020028483801229433,-0.008127989799756987,-0.015720765478811273,-0.015039216599549746
0.5325,0.0010516129099624695,-0.784407469000009,0.0013771801699434217,-2.356353724999992,-0.0015094268199322143,1.5715749449999743,0.7864712469999801,0.03999995,0.03999997985,-9.810755600000094,-0.005015406011811107,-0.001957303220123524,-0.008218016199755838,-0.01575694638294591,-0.01520601614954762
0.535,0.001066150589959434,-0.7844041190000092,0.0013990931799388576,-2.3563566999999916,-0.0015356794799267503,1.5715848899999723,0.7864789799999785,0.03999995,0.03999998,-9.810724100000082,-0.005301582253663377,-0.0019079173001398011,-0.008310292899745495,-0.015792955458066246,-0.015376847699529019
0.5375,0.0010810380749592442,-0.7844007575000091,0.0014215320999385714,-2.3563596999999916,-0.0015625616999264075,1.571595074999972,0.7864868999999783,0.03999995,0.03999998,-9.81069425000008,-0.005597377660805809,-0.0018566110001404556,-0.008403694749744305,-0.01582887861867838,-0.015549695249526815
0.54,0.001095925559959055,-0.7843973960000092,0.0014439710199382863,-2.3563626999999916,-0.0015894439199260657,1.571605259999972,0.7864948199999783,0.03999995,0.03999998,-9.810664400000082,-0.0058931730679482545,-0.0018053047001411076,-0.008497096599743117,-0.01586480177929052,-0.01572254279952462
0.5425,0.0011108130449588652,-0.7843940345000093,0.0014664099399380002,-2.3563656999999916,-0.0016163261399257229,1.571615444999972,0.7865027399999781,0.03999995,0.03999998,-9.810634550000081,-0.006188968475090687,-0.001753998400141762,-0.008590498449741926,-0.015900724939902657,-0.015895390349522413
0.545,0.0011257005299586758,-0.7843906730000093,0.0014888488599377149,-2.3563686999999915,-0.0016432083599253813,1.5716256299999718,0.786510659999978,0.03999995,0.03999998,-9.810604700000082,-0.006484763882233132,-0.0017026921001424141,-0.008683900299740739,-0.015936648100514796,-0.016068237899520214
0.5475,0.001140588014958486,-0.7843873115000094,0.0015112877799374287,-2.3563716999999915,-0.0016700905799250385,1.5716358149999716,0.786518579999978,0.03999995,0.03999998,-9.810574850000084,-0.0067805592893755645,-0.0016513858001430686,-0.008777302149739548,-0.015972571261126934,-0.016241085449518012
0.55,0.0011554754999582968,-0.7843839500000095,0.0015337266999371436,-2.3563746999999915,-0.0016969727999246967,1.5716459999999717,0.7865264999999778,0.03999995,0.03999998,-9.810545000000083,-0.00707635469651801,-0.0016000795001437206,-0.00887070399973836,-0.016008494421739072,-0.016413932999515813
0.5525,0.0011714494499550495,-0.7843805225000097,0.0015577991049322607,-2.3563777149999914,-0.0017258104799188513,1.5716568899999694,0.7865349899999762,0.0399999506,0.03999998119999999,-9.810524825000057,-0.007444401270605499,-0.0015451055951546955,-0.008967462849727723,-0.016044867690550236,-0.016592986949496145
0.555,0.0011874233999548465,-0.7843770950000097,0.0015818715099319548,-2.3563807299999913,-0.0017546481599184848,1.5716677799999692,0.786543479999976,0.039999951199999995,0.039999982399999995,-9.810504650000057,-0.007812447844895396,-0.0014901316901553942,-0.009064221699726493,-0.016081240959362666,-0.01677204089949387
0.5575,0.0012033973499546429,-0.7843736675000098,0.0016059439149316479,-2.356383744999991,-0.001783485839918117,1.5716786699999692,0.7865519699999759,0.039999951799999996,0.0399999836,-9.810484475000056,-0.008180494419185277,-0.0014351577851560954,-0.00916098054972526,-0.016117614228175092,-0.016951094849491585
0.56,0.0012193712999544399,-0.7843702400000098,0.0016300163199313418,-2.3563867599999915,-0.0018123235199177504,1.571689559999969,0.7865604599999758,0.0399999524,0.0399999848,-9.810464300000056,-0.008548540993475174,-0.001380183880156794,-0.009257739399724029,-0.01615398749698752,-0.01713014879948931
0.5625,0.001235345249954236,-0.7843668125000098,0.0016540887249310349,-2.3563897749999914,-0.0018411611999173826,1.571700449999969,0.7865689499999756,0.039999953,0.039999985999999994,-9.810444125000057,-0.008916587567765056,-0.001325209975157495,-0.009354498249722796,-0.016190360765799945,-0.017309202749487027
0.5650000000000001,0.001251319199954033,-0.7843633850000099,0.0016781611299307288,-2.3563927899999912,-0.001869998879917016,1.5717113399999687,0.7865774399999755,0.0399999536,0.039999987199999996,-9.810423950000057,-0.009284634142054953,-0.0012702360701581938,-0.009451257099721565,-0.01622673403461237,-0.017488256699484752
0.5675,0.0012676675549505828,-0.78435994200001,0.0017027963699255415,-2.356395809999991,-0.0018995102499108065,1.5717224899999664,0.7865861299999737,0.03999995419999999,0.0399999881,-9.810398375000105,-0.009636185689839814,-0.0012105852401994492,-0.009549076549711134,-0.016263007372513412,-0.01766926539946552
0.5700000000000001,0.0012847647199503655,-0.7843564680000101,0.001728557279925214,-2.3563988399999913,-0.0019303689999104145,1.5717341599999661,0.7865952199999736,0.039999954799999994,0.0399999884,-9.810362000000106,-0.00995474718418619,-0.0011415805602003261,-0.009649017199709864,-0.016299080848589078,-0.01785418359946317
0.5725,0.0013018618849501475,-0.7843529940000101,0.0017543181899248854,-2.356401869999991,-0.001961227749910021,1.571745829999966,0.7866043099999734,0.039999955399999995,0.039999988699999996,-9.810325625000106,-0.010273308678532551,-0.0010725758802012063,-0.009748957849708589,-0.01633515432466474,-0.01803910179946081
0.5750000000000001,0.0013189590499499302,-0.7843495200000102,0.001780079099924558,-2.3564048999999914,-0.0019920864999096286,1.571757499999966,0.7866133999999734,0.039999955999999996,0.039999989,-9.810289250000107,-0.010591870172878928,-0.0010035712002020834,-0.009848898499707319,-0.01637122780074041,-0.018224019999458458
0.5775,0.001336056214949712,-0.7843460460000102,0.0018058400099242294,-2.356407929999991,-0.002022945249909235,1.5717691699999656,0.7866224899999732,0.0399999566,0.0399999893,-9.810252875000108,-0.01091043166722529,-0.0009345665202029635,-0.009948839149706044,-0.016407301276816073,-0.0184089381994561
0.58,0.0013531533799494941,-0.7843425720000102,0.0018316009199239008,-2.356410959999991,-0.0020538039999088414,1.5717808399999655,0.7866315799999731,0.0399999572,0.0399999896,-9.810216500000108,-0.011228993161571652,-0.0008655618402038436,-0.01004877979970477,-0.01644337475289174,-0.01859385639945374
0.5825,0.0013702505449492768,-0.7843390980000103,0.0018573618299235733,-2.356413989999991,-0.0020846627499084493,1.5717925099999654,0.786640669999973,0.0399999578,0.0399999899,-9.810180125000109,-0.011547554655918028,-0.0007965571602047206,-0.010148720449703498,-0.016479448228967405,-0.01877877459945139
0.585,0.0013881205799456044,-0.7843355360000107,0.0018842845199180526,-2.3564171299999908,-0.00211691224990184,1.5718047199999627,0.7866501649999711,0.0399999582,0.03999999099999999,-9.810148400000088,-0.011915571800194149,-0.000726286880211257,-0.010250820899692571,-0.016515485197198313,-0.01896770789943109
0.5875,0.0014063770499453724,-0.7843319300000108,0.001911788099917703,-2.3564203249999904,-0.0021498571249014215,1.5718171999999626,0.7866598624999709,0.0399999585,0.0399999925,-9.810119000000089,-0.012308316769765768,-0.0006553838002121582,-0.01035400124969126,-0.0165515039115066,-0.019158648749428662
0.59,0.0014246335199451397,-0.7843283240000108,0.0019392916799173521,-2.3564235199999906,-0.0021828019999010012,1.5718296799999625,0.7866695599999708,0.0399999588,0.039999994,-9.810089600000088,-0.012701061739337369,-0.0005844807202130625,-0.010457181599689945,-0.016587522625814886,-0.019349589599426224
0.5925,0.0014428899899449077,-0.7843247180000109,0.0019667952599170023,-2.3564267149999902,-0.0022157468749005827,1.5718421599999624,0.7866792574999707,0.0399999591,0.039999995499999996,-9.81006020000009,-0.013093806708908987,-0.0005135776402139637,-0.010560361949688634,-0.01662354134012317,-0.0195405304494238
0.595,0.0014611464599446748,-0.784321112000011,0.0019942988399166517,-2.3564299099999904,-0.0022486917499001625,1.5718546399999622,0.7866889549999706,0.0399999594,0.039999996999999995,-9.810030800000089,-0.013486551678480587,-0.00044267456021486804,-0.010663542299687318,-0.01665956005443146,-0.019731471299421363
0.5975,0.0014794029299444427,-0.7843175060000109,0.0020218024199163023,-2.35643310499999,-0.0022816366248997436,1.5718671199999619,0.7866986524999704,0.0399999597,0.039999998499999995,-9.81000140000009,-0.013879296648052205,-0.0003717714802157692,-0.010766722649686006,-0.016695578768739745,-0.019922412149418936
0.6,0.0014976593999442098,-0.784313900000011,0.0020493059999159512,-2.35643629999999,-0.0023145814998993238,1.5718795999999617,0.7867083499999703,0.03999996,0.039999999999999994,-9.80997200000009,-0.014272041617623805,-0.00030086840021667353,-0.01086990299968469,-0.01673159748304803,-0.020113352999416502
0.6025,0.0015171106649397809,-0.7843102010000115,0.002078605694909291,-2.3564396149999896,-0.0023496749748913542,1.571892829999959,0.786718668499968,0.0399999609,0.04,-9.809966600000017,-0.014696726108517737,-0.00022973628972021833,-0.010976257199670738,-0.016768366936480397,-0.020309836799391707
0.605,0.001536561929939002,-0.7843065020000116,0.0021079053899081177,-2.3564429299999894,-0.002384768449889949,1.5719060599999584,0.7867289869999676,0.0399999618,0.04,-9.809961200000018,-0.015121410599509253,-0.0001586041792230664,-0.01108261139966648,-0.016805136389915053,-0.02050632059938384
0.6075,0.001556013194938224,-0.7843028030000118,0.0021372050849069457,-2.3564462449999897,-0.0024198619248885452,1.571919289999958,0.7867393054999672,0.039999962699999995,0.04,-9.809955800000017,-0.015546095090500787,-8.747206872591128e-05,-0.011188965599662226,-0.016841905843349714,-0.02070280439937598
0.61,0.001575464459937445,-0.7842991040000119,0.002166504779905773,-2.3564495599999895,-0.0024549553998871403,1.5719325199999574,0.7867496239999668,0.039999963599999994,0.04,-9.809950400000018,-0.015970779581492303,-1.633995822875934e-05,-0.011295319799657968,-0.01687867529678437,-0.020899288199368114
0.6125,0.0015949157249366673,-0.784295405000012,0.002195804474904601,-2.3564528749999893,-0.0024900488748857367,1.571945749999957,0.7867599424999664,0.0399999645,0.04,-9.809945000000019,-0.016395464072483837,5.4792152268395714e-05,-0.011401673999653713,-0.01691544475021903,-0.021095771999360254
0.615,0.0016143669899358884,-0.7842917060000122,0.0022251041699034276,-2.356456189999989,-0.0025251423498843313,1.5719589799999563,0.7867702609999659,0.0399999654,0.04,-9.809939600000018,-0.016820148563475353,0.00012592426276554768,-0.011508028199649457,-0.016952214203653688,-0.021292255799352386
0.6175,0.0016342281749313842,-0.7842879765000126,0.0022550199548966566,-2.3564595599999887,-0.00256097189987624,1.571972514999953,0.7867807929999636,0.039999966199999994,0.03999999975,-9.809931250000048,-0.017271440008843973,0.00019845688625005673,-0.011615403524636973,-0.016989258397245795,-0.021490609999329485
0.62,0.0016549091999316847,-0.7842841860000125,0.0022861679198971094,-2.356463039999989,-0.002598273599876782,1.5719866599999532,0.7867917519999638,0.039999966799999995,0.039999999,-9.809917000000047,-0.017775945363762393,0.00027379053575115133,-0.011724821099638563,-0.017026852071161017,-0.021692704999332423
0.6225,0.001675590224931986,-0.7842803955000125,0.002317315884897563,-2.3564665199999886,-0.0026355752998773255,1.5720008049999534,0.786802710999964,0.039999967399999996,0.03999999825,-9.809902750000047,-0.018280450718680837,0.00034912418525224933,-0.011834238674640158,-0.01706444574507624,-0.021894799999335367
0.625,0.0016962712499322867,-0.7842766050000124,0.002348463849898016,-2.3564699999999887,-0.0026728769998778674,1.5720149499999536,0.7868136699999642,0.039999968,0.0399999975,-9.809888500000048,-0.018784956073599257,0.00042445783475334397,-0.011943656249641747,-0.017102039418991462,-0.022096894999338305
0.6275000000000001,0.001716952274932588,-0.7842728145000124,0.0023796118148984697,-2.356473479999989,-0.002710178699878411,1.5720290949999538,0.7868246289999643,0.0399999686,0.03999999675,-9.809874250000046,-0.0192894614285177,0.000499791484254442,-0.012053073824643342,-0.017139633092906684,-0.02229898999934125
0.63,0.0017376332999328886,-0.7842690240000123,0.0024107597798989225,-2.3564769599999886,-0.002747480399878953,1.572043239999954,0.7868355879999644,0.0399999692,0.039999996,-9.809860000000047,-0.01979396678343612,0.0005751251337555366,-0.012162491399644933,-0.017177226766821905,-0.022501084999344185
0.6325000000000001,0.0017583143249331901,-0.7842652335000123,0.0024419077448993762,-2.356480439999989,-0.0027847820998794966,1.5720573849999542,0.7868465469999647,0.0399999698,0.03999999525,-9.809845750000047,-0.020298472138354565,0.0006504587832566346,-0.012271908974646526,-0.017214820440737126,-0.022703179999347133
0.635,0.001779838069929026,-0.7842613590000127,0.0024743224198931174,-2.356484099999988,-0.0028235996898720063,1.5720720599999516,0.7868579559999624,0.039999969600000004,0.039999995,-9.809826800000069,-0.020769356189689742,0.0007362283797057317,-0.012383330649636403,-0.017252391017851917,-0.022909249199327113
0.6375000000000001,0.0018017831749287472,-0.7842574425000127,0.0025073704498926974,-2.3564878499999877,-0.0028631752248715033,1.5720869999999514,0.7868695899999623,0.039999969,0.039999995,-9.809805500000069,-0.021223429588989307,0.0008272159497045752,-0.012495754374634975,-0.017289950046566326,-0.02311730549932447
0.64,0.0018237282799284673,-0.7842535260000127,0.0025404184798922757,-2.3564915999999876,-0.0029027507598709985,1.5721019399999512,0.7868812239999621,0.0399999684,0.039999995,-9.80978420000007,-0.02167750298828885,0.0009182035197034148,-0.01260817809963354,-0.01732750907528073,-0.023325361799321816
0.6425,0.0018456733849281873,-0.7842496095000128,0.0025734665098918544,-2.3564953499999874,-0.002942326294870494,1.5721168799999512,0.7868928579999619,0.0399999678,0.039999995,-9.80976290000007,-0.022131576387588395,0.0010091910897022543,-0.012720601824632107,-0.017365068103995136,-0.02353341809931916
0.645,0.0018676184899279083,-0.7842456930000128,0.0026065145398914344,-2.3564990999999877,-0.0029819018298699908,1.572131819999951,0.7869044919999618,0.0399999672,0.039999995,-9.80974160000007,-0.02258564978688796,0.0011001786597010978,-0.012833025549630677,-0.017402627132709545,-0.023741474399316516
0.6475,0.0018895635949276283,-0.7842417765000129,0.0026395625698910127,-2.3565028499999876,-0.0030214773648694865,1.5721467599999508,0.7869161259999616,0.0399999666,0.039999995,-9.80972030000007,-0.023039723186187504,0.0011911662296999375,-0.012945449274629244,-0.01744018616142395,-0.023949530699313864
0.65,0.0019115086999273495,-0.7842378600000129,0.0026726105998905927,-2.3565065999999875,-0.0030610528998689835,1.5721616999999506,0.7869277599999615,0.039999966,0.039999995,-9.809699000000071,-0.023493796585487066,0.001282153799698781,-0.013057872999627814,-0.01747774519013836,-0.02415758699931122
0.6525,0.0019347516049227566,-0.7842338310000133,0.0027076093648836885,-2.3565106049999867,-0.0031029655848607116,1.5721776149999471,0.786940080999959,0.0399999642,0.039999995,-9.809709649999965,-0.02402881067068392,0.0013737151496957135,-0.013173300699616398,-0.017517056595403358,-0.024371356949289578
0.655,0.0019579945099224613,-0.7842298020000134,0.0027426081298832436,-2.3565146099999867,-0.0031448782698601787,1.572193529999947,0.7869524019999589,0.039999962400000005,0.039999995,-9.809720299999965,-0.024563824756148756,0.0014652764996945498,-0.013288728399614931,-0.017556368000674158,-0.02458512689928686
0.6575,0.001981237414922165,-0.7842257730000135,0.002777606894882797,-2.3565186149999864,-0.003186790954859644,1.5722094449999469,0.7869647229999588,0.0399999606,0.039999995,-9.809730949999965,-0.025098838841613565,0.001556837849693382,-0.013404156099613459,-0.017595679405944958,-0.024798896849284133
0.66,0.0020044803199218693,-0.7842217440000135,0.0028126056598823525,-2.3565226199999865,-0.0032287036398591113,1.5722253599999465,0.7869770439999586,0.039999958800000006,0.039999995,-9.809741599999965,-0.025633852927078402,0.0016483991996922183,-0.013519583799611991,-0.017634990811215757,-0.025012666799281418
0.6625,0.002027723224921573,-0.7842177150000136,0.002847604424881906,-2.3565266249999866,-0.003270616324858577,1.5722412749999464,0.7869893649999584,0.039999957,0.039999995,-9.809752249999965,-0.02616886701254321,0.0017399605496910505,-0.013635011499610519,-0.017674302216486554,-0.02522643674927869
0.665,0.0020509661299212777,-0.7842136860000136,0.002882603189881461,-2.3565306299999866,-0.0033125290098580443,1.5722571899999462,0.7870016859999583,0.039999955200000006,0.039999995,-9.809762899999964,-0.02670388109800805,0.0018315218996898868,-0.013750439199609053,-0.017713613621757357,-0.025440206699275974
0.6675,0.0020746526699164567,-0.7842095985000143,0.0029182686848742145,-2.3565346349999867,-0.003355240089849367,1.572273389999943,0.7870142419999557,0.03999995365,0.039999995,-9.809769550000006,-0.02725077867313923,0.0019232382896871379,-0.013866873649597312,-0.017753099463744596,-0.025655734499255317
0.67,0.002099226479916144,-0.7842053940000143,0.0029552676398737444,-2.3565386399999864,-0.0033995479598488035,1.5722901599999428,0.7870272679999556,0.0399999526,0.039999995,-9.809768200000004,-0.027821443227966338,0.0020152647596859683,-0.013985321599595807,-0.01779293417917005,-0.025874777999252533
0.6725,0.002123800289915831,-0.7842011895000144,0.0029922665948732725,-2.3565426449999864,-0.0034438558298482383,1.5723069299999426,0.7870402939999553,0.03999995155,0.039999995,-9.809766850000004,-0.02839210778279342,0.0021072912296847945,-0.014103769549594296,-0.0178327688945955,-0.02609382149924974
0.675,0.0021483740999155183,-0.7841969850000144,0.0030292655498728024,-2.356546649999986,-0.0034881636998476753,1.5723236999999424,0.7870533199999552,0.039999950500000006,0.039999995,-9.809765500000005,-0.028962772337620526,0.0021993176996836245,-0.014222217499592791,-0.017872603610020955,-0.026312864999246954
0.6775,0.002172947909915205,-0.7841927805000145,0.0030662645048723305,-2.356550654999986,-0.00353247156984711,1.5723404699999421,0.7870663459999551,0.03999994945,0.039999995,-9.809764150000005,-0.02953343689244761,0.002291344169682451,-0.01434066544959128,-0.017912438325446405,-0.026531908499244163
0.68,0.0021975217199148925,-0.7841885760000146,0.00310326345987186,-2.3565546599999863,-0.003576779439846547,1.572357239999942,0.7870793719999548,0.039999948400000006,0.039999995,-9.809762800000005,-0.03010410144727472,0.002383370639681281,-0.014459113399589774,-0.01795227304087186,-0.02675095199924138
0.6825,0.002222095529914579,-0.7841843715000146,0.003140262414871388,-2.356558664999986,-0.003621087309845982,1.5723740099999417,0.7870923979999547,0.03999994735,0.039999995,-9.809761450000005,-0.030674766002101797,0.0024753971096801077,-0.014577561349588264,-0.01799210775629731,-0.026969995499238585
0.685,0.002247578129909511,-0.7841800830000152,0.00317862730986377,-2.3565627199999857,-0.003667029439836866,1.5723914099999383,0.787105905999952,0.0399999466,0.039999995,-9.809741550000101,-0.03130404948958456,0.002568259569674563,-0.014697923299576742,-0.018032157793500897,-0.02719245179921794
0.6875,0.00227351512490918,-0.7841757525000151,0.0032176751748632716,-2.3565667999999858,-0.00371378869983627,1.5724091249999381,0.7871196549999518,0.039999946,0.039999995,-9.809712375000103,-0.031962642443854154,0.0026615400246733736,-0.014819242249575194,-0.018072315491595235,-0.02741661449921508
0.6900000000000001,0.0022994521199088507,-0.7841714220000152,0.0032567230398627754,-2.356570879999986,-0.0037605479598356757,1.5724268399999377,0.7871334039999517,0.03999994540000001,0.039999995,-9.809683200000103,-0.03262123539812377,0.0027548204796721877,-0.014940561199573653,-0.018112473189689577,-0.027640777199212232
0.6925,0.0023253891149085195,-0.7841670915000153,0.0032957709048622775,-2.3565749599999855,-0.003807307219835079,1.5724445549999375,0.7871471529999515,0.039999944800000006,0.039999995,-9.809654025000103,-0.03327982835239336,0.0028481009346709983,-0.015061880149572104,-0.018152630887783912,-0.027864939899209372
0.6950000000000001,0.00235132610990819,-0.7841627610000154,0.0033348187698617813,-2.3565790399999855,-0.003854066479834485,1.5724622699999373,0.7871609019999514,0.039999944200000005,0.039999995,-9.809624850000104,-0.03393842130666298,0.0029413813896698128,-0.015183199099570563,-0.018192788585878254,-0.028089102599206526
0.6975,0.002377263104907859,-0.7841584305000153,0.0033738666348612834,-2.3565831199999856,-0.0039008257398338887,1.5724799849999371,0.7871746509999512,0.039999943600000004,0.039999995,-9.809595675000104,-0.03459701426093257,0.003034661844668623,-0.015304518049569015,-0.018232946283972592,-0.028313265299203666
0.7000000000000001,0.0024032000999075296,-0.7841541000000154,0.003412914499860787,-2.3565871999999852,-0.003947584999833294,1.572497699999937,0.7871883999999509,0.039999943,0.039999995,-9.809566500000106,-0.03525560721520219,0.0031279422996674374,-0.015425836999567474,-0.01827310398206693,-0.028537427999200816
0.7025,0.002430532229902207,-0.784149606000016,0.003454058824852788,-2.356591339999985,-0.003996853804823719,1.5725163749999331,0.7872028944999482,0.039999941950000006,0.039999995,-9.809542875000085,-0.03585780728392899,0.0032421609545913318,-0.015550074049555485,-0.018313440214698173,-0.028766868299179075
0.705,0.0024578643599018585,-0.7841451120000161,0.003495203149852263,-2.356595479999985,-0.0040461226098230905,1.5725350499999329,0.787217388999948,0.0399999409,0.039999995,-9.809519250000086,-0.03646000735245474,0.0033563796095898747,-0.0156743110995539,-0.018353776447330054,-0.028996308599176148
0.7075,0.002485196489901511,-0.7841406180000161,0.00353634747485174,-2.3565996199999852,-0.004095391414822464,1.5725537249999328,0.7872318834999478,0.039999939850000006,0.039999995,-9.809495625000086,-0.037062207420980514,0.0034705982645884233,-0.01579854814955232,-0.018394112679961938,-0.02922574889917323
0.71,0.0025125286199011625,-0.7841361240000162,0.003577491799851215,-2.356603759999985,-0.004144660219821836,1.5725723999999326,0.7872463779999476,0.0399999388,0.039999995,-9.809472000000087,-0.037664407489506266,0.0035848169195869663,-0.01592278519955074,-0.01843444891259382,-0.02945518919917031
0.7125,0.002539860749900815,-0.7841316300000163,0.0036186361248506924,-2.356607899999985,-0.00419392902482121,1.5725910749999323,0.7872608724999475,0.039999937750000006,0.039999995,-9.809448375000086,-0.038266607558032045,0.003699035574585515,-0.016047022249549157,-0.0184747851452257,-0.029684629499167392
0.715,0.0025671928799004665,-0.7841271360000164,0.0036597804498501676,-2.356612039999985,-0.004243197829820581,1.572609749999932,0.7872753669999473,0.0399999367,0.039999995,-9.809424750000087,-0.03886880762655779,0.003813254229584058,-0.016171259299547575,-0.01851512137785758,-0.029914069799164465
0.7175,0.0025950002998949085,-0.784122583000017,0.003701639114841813,-2.356616194999985,-0.004293321739810581,1.5726287499999283,0.7872901084999444,0.0399999357,0.039999995,-9.809400050000098,-0.039500386079113214,0.003926704799591027,-0.016296432199535735,-0.0185555116271982,-0.03014518449914319
0.72,0.002623758299894542,-0.7841179120000171,0.003744926459841261,-2.3566203799999847,-0.004345155859809919,1.572648399999928,0.7873053439999442,0.039999934800000005,0.039999995,-9.809373200000099,-0.04019072130069302,0.004038619199589599,-0.016423476799534115,-0.018596009909958067,-0.0303796479991402
0.7225,0.002652516299894176,-0.7841132410000172,0.003788213804840711,-2.3566245649999846,-0.004396989979809261,1.5726680499999277,0.7873205794999439,0.039999933900000006,0.039999995,-9.8093463500001,-0.04088105652227285,0.004150533599588177,-0.0165505213995325,-0.01863650819271794,-0.03061411149913722
0.725,0.0026812742998938094,-0.7841085700000172,0.003831501149840159,-2.3566287499999845,-0.004448824099808599,1.5726876999999275,0.7873358149999438,0.039999933,0.039999995,-9.809319500000099,-0.04157139174385265,0.004262447999586749,-0.01667756599953088,-0.018677006475477806,-0.03084857499913423
0.7275,0.002710032299893444,-0.7841038990000173,0.003874788494839609,-2.3566329349999844,-0.004500658219807941,1.5727073499999271,0.7873510504999436,0.0399999321,0.039999995,-9.8092926500001,-0.04226172696543248,0.004374362399585327,-0.016804610599529264,-0.018717504758237677,-0.03108303849913125
0.73,0.0027387902998930774,-0.7840992280000174,0.003918075839839057,-2.3566371199999847,-0.0045524923398072795,1.572726999999927,0.7873662859999434,0.039999931200000005,0.039999995,-9.8092658000001,-0.04295206218701228,0.0044862767995839,-0.016931655199527645,-0.018758003040997544,-0.03131750199912826
0.7325,0.0027675482998927117,-0.7840945570000175,0.003961363184838506,-2.3566413049999846,-0.004604326459806621,1.5727466499999267,0.7873815214999432,0.03999993030000001,0.039999995,-9.8092389500001,-0.04364239740859211,0.004598191199582478,-0.017058699799526032,-0.018798501323757415,-0.03155196549912528
0.735,0.0027972772198868933,-0.7840897700000182,0.00400610986982976,-2.3566456099999837,-0.004657907219796152,1.5727669699999227,0.7873972749999401,0.03999992900000001,0.039999995,-9.809214300000088,-0.04439604505602586,0.00471043869957918,-0.017187538599514336,-0.018839142471399433,-0.03178969439910395
0.7375,0.002827491599886509,-0.7840849250000183,0.004051586224829182,-2.356649974999984,-0.00471236129979546,1.5727876249999224,0.7874132874999399,0.03999992750000001,0.039999995,-9.809190750000088,-0.045181348916918676,0.004822852749577751,-0.017317274499512685,-0.018879855051483724,-0.03202905599910091
0.74,0.002857705979886124,-0.7840800800000183,0.004097062579828602,-2.3566543399999835,-0.004766815379794766,1.5728082799999221,0.7874292999999397,0.039999926000000005,0.039999995,-9.809167200000088,-0.04596665277781145,0.004935266799576317,-0.01744701039951103,-0.018920567631568016,-0.032268417599097855
0.7425,0.0028879203598857397,-0.7840752350000184,0.004142538934828024,-2.3566587049999836,-0.004821269459794073,1.5728289349999218,0.7874453124999394,0.039999924500000006,0.039999995,-9.809143650000088,-0.04675195663870427,0.0050476808495748884,-0.017576746299509383,-0.018961280211652307,-0.03250777919909482
0.745,0.0029181347398853546,-0.7840703900000184,0.004188015289827444,-2.3566630699999833,-0.004875723539793379,1.5728495899999215,0.7874613249999393,0.03999992300000001,0.039999995,-9.809120100000088,-0.04753726049959704,0.005160094899573454,-0.01770648219950773,-0.0190019927917366,-0.032747140799091766
0.7475,0.0029483491198849703,-0.7840655450000185,0.004233491644826866,-2.3566674349999834,-0.004930177619792686,1.5728702449999215,0.787477337499939,0.03999992150000001,0.039999995,-9.80909655000009,-0.04832256436048986,0.005272508949572026,-0.017836218099506078,-0.01904270537182089,-0.03298650239908872
0.75,0.002978563499884585,-0.7840607000000186,0.004278967999826286,-2.356671799999983,-0.0049846316997919915,1.5728908999999212,0.7874933499999388,0.03999992000000001,0.039999995,-9.80907300000009,-0.04910786822138263,0.0053849229995705915,-0.017965953999504423,-0.01908341795190518,-0.03322586399908567
0.7525000000000001,0.003010264034878505,-0.7840556690000193,0.00432667738981715,-2.356676479999982,-0.005041757369781061,1.5729125149999172,0.7875101499999356,0.039999919550000006,0.039999995,-9.809061750000042,-0.0498295288505314,0.005518545999487878,-0.018098421399492307,-0.01912491787209102,-0.03346991819906464
0.755,0.0030419645698781007,-0.7840506380000194,0.004374386779816541,-2.356681159999982,-0.005098883039780332,1.5729341299999169,0.7875269499999353,0.0399999191,0.039999995,-9.809050500000044,-0.05055118947943703,0.0056521689994861735,-0.018230888799490617,-0.019166417792279858,-0.03371397239906153
0.7575000000000001,0.003073665104877698,-0.7840456070000195,0.004422096169815935,-2.3566858399999817,-0.005156008709779606,1.5729557449999165,0.7875437499999351,0.03999991865,0.039999995,-9.809039250000044,-0.051272850108342684,0.005785791999484475,-0.018363356199488933,-0.0192079177124687,-0.03395802659905843
0.76,0.0031053656398772936,-0.7840405760000194,0.004469805559815326,-2.3566905199999817,-0.005213134379778877,1.5729773599999164,0.787560549999935,0.039999918200000005,0.039999995,-9.809028000000044,-0.05199451073724831,0.005919414999482771,-0.018495823599487243,-0.019249417632657542,-0.03420208079905532
0.7625000000000001,0.0031370661748768907,-0.7840355450000195,0.00451751494981472,-2.3566951999999817,-0.005270260049778152,1.572998974999916,0.7875773499999348,0.03999991775,0.039999995,-9.809016750000044,-0.05271617136615397,0.006053037999481073,-0.01862829099948556,-0.019290917552846384,-0.03444613499905221
0.765,0.003168766709876486,-0.7840305140000196,0.004565224339814111,-2.3566998799999817,-0.005327385719777423,1.5730205899999157,0.7875941499999345,0.03999991730000001,0.039999995,-9.809005500000044,-0.053437831995059595,0.006186660999479369,-0.018760758399483872,-0.019332417473035227,-0.0346901891990491
0.7675000000000001,0.0032009722298701614,-0.7840254220000203,0.004613692719804605,-2.35670469999998,-0.005385418524766059,1.5730425649999114,0.7876112174999311,0.039999917,0.039999995,-9.809001149999963,-0.05419127270259972,0.006320127424479507,-0.018894097499471966,-0.01937447031943014,-0.034935739649028456
0.77,0.0032341877198697375,-0.7840202080000204,0.004663679079803967,-2.35670979999998,-0.005445265599765296,1.5730652599999109,0.787628819999931,0.039999917,0.039999995,-9.809010599999963,-0.05500827356852558,0.006453280699477809,-0.019029179999470243,-0.019417629018256624,-0.035184282599025285
0.7725,0.003267403209869314,-0.7840149940000205,0.00471366543980333,-2.35671489999998,-0.005505112674764533,1.5730879549999106,0.7876464224999308,0.039999917,0.039999995,-9.809020049999964,-0.05582527443445144,0.00658643397447611,-0.01916426249946852,-0.01946078771708311,-0.035432825549022114
0.775,0.003300618699868892,-0.7840097800000205,0.004763651799802694,-2.3567199999999797,-0.005564959749763771,1.5731106499999103,0.7876640249999305,0.039999917,0.039999995,-9.809029499999964,-0.05664227530037734,0.006719587249474418,-0.0192993449994668,-0.019503946415909596,-0.035681368499018956
0.7775,0.003333834189868468,-0.7840045660000207,0.004813638159802056,-2.35672509999998,-0.005624806824763008,1.57313334499991,0.7876816274999303,0.039999917,0.039999995,-9.809038949999962,-0.0574592761663032,0.00685274052447272,-0.019434427499465078,-0.01954710511473608,-0.035929911449015785
0.78,0.003367049679868046,-0.7839993520000207,0.004863624519801421,-2.3567301999999795,-0.005684653899762248,1.5731560399999098,0.78769922999993,0.039999917,0.039999995,-9.809048399999963,-0.058276277032229096,0.0069858937994710275,-0.01956950999946336,-0.019590263813562565,-0.03617845439901262
0.7825,0.0034002651698676225,-0.7839941380000208,0.004913610879800783,-2.3567352999999795,-0.005744500974761485,1.5731787349999096,0.7877168324999299,0.039999917,0.039999995,-9.809057849999963,-0.05909327789815495,0.007119047074469329,-0.01970459249946164,-0.019633422512389052,-0.03642699734900945
0.785,0.0034345095698603972,-0.7839887950000217,0.004965143399789924,-2.356740419999979,-0.005806198349748488,1.5732021299999046,0.787734972999926,0.039999917,0.0399999955,-9.809068199999956,-0.059941658001647975,0.00725384264945532,-0.01984144699944679,-0.019677506759583827,-0.03667874109898249
0.7875,0.003469268424859006,-0.7839833875000219,0.00501744899978783,-2.356745549999979,-0.005868820874745981,1.5732258749999035,0.7877533824999253,0.039999917,0.03999999625,-9.809078999999956,-0.060805727724206206,0.0073894593744498905,-0.019979187499441275,-0.01972205378097105,-0.036932085248972346
0.79,0.0035040272798576157,-0.7839779800000222,0.005069754599785738,-2.356750679999979,-0.005931443399743476,1.5732496199999026,0.7877717919999245,0.039999917,0.039999997,-9.809089799999954,-0.06166979744676447,0.007525076099444467,-0.020116927999435767,-0.01976660080235828,-0.037185429398962216
0.7925,0.0035387861348562238,-0.7839725725000224,0.005122060199783643,-2.356755809999979,-0.005994065924740969,1.5732733649999018,0.7877902014999238,0.039999917,0.03999999775,-9.809100599999955,-0.0625338671693227,0.007660692824439036,-0.02025466849943025,-0.019811147823745507,-0.03743877354895207
0.795,0.0035735449898548336,-0.7839671650000226,0.005174365799781552,-2.3567609399999783,-0.0060566884497384645,1.5732971099999007,0.787808610999923,0.039999917,0.0399999985,-9.809111399999955,-0.06339793689188096,0.007796309549433613,-0.020392408999424745,-0.019855694845132735,-0.037692117698941936
0.7975,0.003608303844853442,-0.7839617575000227,0.005226671399779457,-2.356766069999978,-0.006119310974735957,1.5733208549998998,0.7878270204999224,0.039999917,0.03999999925,-9.809122199999953,-0.06426200661443919,0.007931926274428182,-0.02053014949941923,-0.01990024186651996,-0.03794546184893179
0.8,0.003643062699852052,-0.783956350000023,0.005278976999777365,-2.356771199999978,-0.006181933499733453,1.573344599999899,0.7878454299999216,0.039999917,0.04,-9.809132999999953,-0.06512607633699746,0.008067542999422759,-0.02066788999941372,-0.019944788887907187,-0.03819880599892166
0.8025,0.0036793924148458934,-0.7839507325000238,0.005333643374768111,-2.356776419999978,-0.0062473784247223905,1.5733694099998947,0.7878646794999183,0.03999991745,0.04,-9.809115000000075,-0.06608826182374497,0.008202892799425862,-0.02080805689940543,-0.019989935774164597,-0.038456395898907335
0.805,0.003715722129846423,-0.7839451150000237,0.005388309749768908,-2.3567816399999777,-0.006312823349723344,1.5733942199998951,0.7878839289999185,0.0399999179,0.04,-9.809097000000076,-0.06705044731091014,0.008338242599427835,-0.020948223799407473,-0.020035082660424558,-0.03871398579891109
0.8075,0.003752051844846951,-0.7839394975000237,0.005442976124769703,-2.356786859999978,-0.006378268274724295,1.5734190299998954,0.7879031784999189,0.039999918350000004,0.04,-9.809079000000075,-0.06801263279807528,0.0084735923994298,-0.021088390699409508,-0.02008022954668452,-0.03897157569891483
0.81,0.0037883815598474804,-0.7839338800000235,0.005497642499770499,-2.356792079999978,-0.006443713199725249,1.5734438399998958,0.7879224279999192,0.0399999188,0.04,-9.809061000000076,-0.06897481828524045,0.008608942199431775,-0.02122855759941155,-0.020125376432944483,-0.039229165598918585
0.8125,0.0038247112748480082,-0.7839282625000235,0.005552308874771293,-2.3567972999999784,-0.0065091581247262,1.5734686499998962,0.7879416774999194,0.03999991925,0.04,-9.809043000000075,-0.06993700377240558,0.00874429199943374,-0.02136872449941359,-0.020170523319204443,-0.039486755498922325
0.8150000000000001,0.003861040989848538,-0.7839226450000234,0.00560697524977209,-2.3568025199999783,-0.006574603049727154,1.5734934599998964,0.7879609269999197,0.0399999197,0.04,-9.809025000000075,-0.07089918925957076,0.008879641799435713,-0.02150889139941563,-0.020215670205464407,-0.03974434539892608
0.8175,0.003897903294842083,-0.783916970000024,0.00566244199476239,-2.3568077649999783,-0.006641005019715555,1.5735186349998922,0.7879804569999164,0.03999991985,0.04,-9.809002400000132,-0.07183960564061095,0.009022153399346991,-0.021649909999405755,-0.02026084549706213,-0.04000341554890899
0.8200000000000001,0.0039358307798416006,-0.7839111800000241,0.005719509479761665,-2.356813059999978,-0.006709321079714687,1.5735445399998917,0.788000547999916,0.0399999194,0.04,-9.808970600000134,-0.07273648380858642,0.009178988599344998,-0.021792631999403938,-0.02030607759933645,-0.04026544619890566
0.8225,0.003973758264841117,-0.7839053900000242,0.005776576964760937,-2.356818354999978,-0.006777637139713816,1.5735704449998915,0.7880206389999158,0.039999918950000005,0.04,-9.808938800000133,-0.07363336197656185,0.009335823799342998,-0.021935353999402118,-0.02035130970161077,-0.040527476848902316
0.8250000000000001,0.004011685749840635,-0.7838996000000243,0.0058336444497602115,-2.3568236499999777,-0.006845953199712947,1.573596349999891,0.7880407299999156,0.0399999185,0.04,-9.808907000000135,-0.07453024014453731,0.009492658999341003,-0.022078075999400305,-0.02039654180388509,-0.04078950749889899
0.8275,0.004049613234840151,-0.7838938100000243,0.005890711934759484,-2.356828944999978,-0.006914269259712075,1.5736222549998908,0.7880608209999153,0.039999918050000006,0.04,-9.808875200000134,-0.07542711831251274,0.009649494199339003,-0.022220797999398485,-0.020441773906159408,-0.041051538148895644
0.8300000000000001,0.004087540719839669,-0.7838880200000244,0.005947779419758758,-2.3568342399999778,-0.0069825853197112075,1.5736481599998904,0.788080911999915,0.039999917600000004,0.04,-9.808843400000136,-0.07632399648048821,0.00980632939933701,-0.02236351999939667,-0.02048700600843373,-0.041313568798892315
