rsonawane2002/My_IMU/logs_3/traj_255/clean_255.csv
time,j1,j2,j3,j4,j5,j6,j7,gripper1,gripper2,imu_ax,imu_ay,imu_az,imu_gx,imu_gy,imu_gz,quat_x,quat_y,quat_z,quat_w
45.23333333333205,0.00016700293,-0.785875,4.0107683e-05,-2.3551247,9.29385e-05,1.570997,0.786,0.04,0.04,0.0,-0.0,0.0,2.875329272945135e-08,-0.0011641195053377316,4.421952117202833e-08,0.9999995971961153,0.00020320632366974898,0.0008736418299892524,3.263050917662294e-05
45.249999999998714,0.00016700572,-0.78576016,4.010784e-05,-2.3552213,9.298466e-05,1.5709941,0.786,0.04,0.04,-0.2919984589538238,-3.5149742208951795e-05,0.020128408722186464,9.096104364706724e-07,-0.002238182887235464,9.761305079295146e-07,0.9999996850580372,0.0002032096136582293,0.000766502515860784,3.261245961707953e-05
45.26666666666538,0.00016700763,-0.7856543,4.0060735e-05,-2.35531,9.310126e-05,1.5709913,0.786,0.04,0.04,0.02332873263086732,4.202906745385832e-06,-0.0016704318008819996,7.161469290756427e-06,-0.003226317065526555,7.1548337891872605e-06,0.999999755839256,0.000203229663795208,0.000667797228012931,3.264956834170082e-05
45.283333333332045,0.0001670058,-0.785557,3.9889346e-05,-2.355391,9.340839e-05,1.5709884,0.786,0.04,0.04,0.022394889912114024,8.964153198442841e-06,-0.0014910407106993873,2.346089975365666e-05,-0.0041327134770557505,2.339834557961968e-05,0.9999998122350261,0.0002032951448499771,0.0005771683083555148,3.2828956680629035e-05
45.29999999999871,0.00016699499,-0.78546745,3.9483435e-05,-2.3554654,9.407784e-05,1.5709856,0.786,0.04,0.04,0.019981995626339177,1.7144955923335467e-05,-0.0014978832678202991,5.4874127743710565e-05,-0.004962299206628267,5.404978281457984e-05,0.9999998568409272,0.00020344770515432148,0.0004937812469037856,3.327516274484858e-05
45.31666666666538,0.00016696776,-0.7853852,3.870226e-05,-2.355533,9.533878e-05,1.5709827,0.7860019,0.04,0.039999995,0.019793202167273094,2.091716537063154e-05,-0.0010760233288387155,0.00010631580680772646,-0.005719092111671229,0.00010377077443381896,0.9999998913191879,0.0002046945318000642,0.0004174869389856795,3.4152847667677676e-05
45.33333333333204,0.00016691488,-0.78530943,3.737841e-05,-2.3555982,9.744035e-05,1.5709798,0.7860038,0.04,0.039999995,0.010831537515110234,4.391970867692954e-05,-0.0027594811270015285,0.00017296824947418327,-0.006404762132406482,0.0001744933305767375,0.9999999184267933,0.0002061459800476684,0.0003455137312267649,3.5644119560846866e-05
45.34999999999871,0.00016682532,-0.7852402,3.5320136e-05,-2.3556573,0.0001006697,1.57098,0.78600764,0.04,0.04,0.01866505526377793,6.785889207166595e-05,0.0012800161336867788,0.00026798381795803156,-0.0070421870570960355,0.0002694168340748868,0.9999999378878162,0.00020882904342247672,0.0002813781813092312,3.7962000223457564e-05
45.366666666665374,0.00016668627,-0.7851767,3.2313663e-05,-2.3557146,0.00010537966,1.5709804,0.78601146,0.04,0.039999995,0.009747895557943309,7.255988910301152e-05,-0.002181956939129037,0.0003868461561000194,-0.007599303714814919,0.00039365124662796665,0.9999999522206707,0.00021187226363777016,0.00022126552764088292,4.1356574649682767e-05
45.38333333333204,0.00016648401,-0.7851185,2.8126631e-05,-2.355766,0.00011190929,1.5709809,0.7860172,0.04,0.04,0.015590026671619128,0.0001091151948419823,-0.00046549040222387816,0.0005419379873369454,-0.008108986020514672,0.000546555569691368,0.9999999616527565,0.00021631833656525512,0.00016666574631554778,4.6080277707650955e-05
45.399999999998705,0.00016620316,-0.7850653,2.2509063e-05,-2.3558166,0.000120667035,1.5709815,0.78602487,0.04,0.039999995,0.007128768668973606,0.00011764898322710752,-0.002304926681517827,0.0007282649792947115,-0.008558160530091882,0.0007334693384210315,0.9999999672974744,0.00022229347397557738,0.00011507531343616731,5.242455043493863e-05
45.41666666666537,0.00016582776,-0.7850169,1.5196453e-05,-2.3558662,0.00013203557,1.5709821,0.78603595,0.039999995,0.04,0.0069593084647046055,0.00016253168459699784,-0.002323526434255818,0.0009495188739201837,-0.008965939005063527,0.0009523569813279585,0.999999969364966,0.00023061461439414688,6.637484521317953e-05,6.067410213208609e-05
45.43333333333204,0.00016534043,-0.784973,5.9107156e-06,-2.3559127,0.00014646351,1.5709829,0.7860493,0.03999999,0.039999995,0.010351810519182436,0.00017562948053423573,-0.0010124389942411938,0.0012024492318365378,-0.009335375546658566,0.0012089970970802812,0.9999999682374953,0.0002408226747438319,2.1607287603363036e-05,7.115175941737582e-05
45.4499999999987,0.00016472331,-0.7849333,-5.6377608e-06,-2.3559568,0.00016439853,1.5709838,0.7860665,0.03999999,0.039999995,0.008665472749957992,0.0002039034752810288,-0.0013051949473208424,0.00149524826767125,-0.009653578412654587,0.0015031949007433794,0.9999999640506532,0.00025380408287663307,-1.9883248209036545e-05,8.418334784728676e-05
45.46666666666537,0.0001639578,-0.7848975,-1.9748193e-05,-2.3560007,0.00018630498,1.5709847,0.7860872,0.03999999,0.03999999,0.004727797868597783,0.00023187778117010746,-0.0020077786115679785,0.001824248023298343,-0.009925928572417505,0.0018370856244647362,0.9999999569035798,0.0002695550612436655,-5.925926487119292e-05,0.00010010617797852609
45.483333333332034,0.00016302463,-0.7848654,-3.6728336e-05,-2.3560448,0.00021265862,1.5709857,0.78611207,0.03999999,0.03999999,0.0036825370792747947,0.0002619229468672833,-0.002207865867132064,0.0021939420452622015,-0.010163404680121469,0.002210046064856746,0.9999999465867937,0.00028846254406642664,-9.690846958800816e-05,0.0001192665873025138
45.4999999999987,0.00016190388,-0.78483677,-5.6893532e-05,-2.35609,0.00024394793,1.5709866,0.7861416,0.039999988,0.039999988,0.001864990611544215,0.00029202896373099643,-0.002533513294755707,0.0026043774515511634,-0.01036732722228559,0.0026238547228028255,0.9999999326831936,0.0003109165286481862,-0.0001333974348590019,0.00014201987407201335
45.516666666665365,0.0001605756,-0.7848117,-8.0564634e-05,-2.356138,0.0002806699,1.570991,0.7861762,0.039999984,0.039999984,0.0005294628301788507,0.0003222342875868801,-0.0005983893732519618,0.003056098680583954,-0.010542158442251407,0.003079283641020247,0.9999999148227892,0.0003372795083367518,-0.00016771326671377707,0.0001687282075462918
45.53333333333203,0.00015901917,-0.7847899,-0.0001080677,-2.3561876,0.00032332956,1.5709957,0.7862164,0.039999977,0.039999973,0.0009339616580117394,0.0003531722305750182,-0.002467187577837038,0.003549863665719471,-0.01067853266736305,0.0035778083477027763,0.9999998921620114,0.00036788578584247863,-0.00020107830926601583,0.00019975867369749064
45.5499999999987,0.0001572138,-0.7847712,-0.00013973236,-2.3562381,0.00037243642,1.5710003,0.78626263,0.03999997,0.039999966,0.0017454330716759614,0.0003850780034070605,-0.0021542018612930036,0.004086121916706338,-0.010784898060219456,0.0041182064585973035,0.999999863778146,0.0004031308106891297,-0.00023340369594829235,0.000235482384907025
45.56666666666536,0.00015513855,-0.7847556,-0.00017589147,-2.3562894,0.00042850635,1.5710051,0.7863155,0.03999996,0.039999958,0.002255372936210698,0.00041616364325448244,-0.001990884355973499,0.0046655473596224645,-0.010862158131019867,0.0047017129175794155,0.9999998285540929,0.0004434112645666885,-0.0002644814504646021,0.00027627485855388247
45.58333333333203,0.00015277223,-0.78474283,-0.00021687966,-2.3563466,0.0004920577,1.5710099,0.7863753,0.039999958,0.039999954,-0.00695597705255846,0.0004462065003265898,-0.004301478281365512,0.005287425981944563,-0.010904848488451958,0.005328571170265915,0.9999997842913303,0.0004890058352092728,-0.00029711370677768846,0.0003225120640029958
45.599999999998694,0.00015009366,-0.78473306,-0.00026303326,-2.3564053,0.00056361046,1.5710181,0.78644264,0.03999996,0.039999958,0.001967759586474216,0.0004796210619089172,0.00024426420905943047,0.00595344982816273,-0.0109391112851593,0.005998971578844357,0.999999730299957,0.0005403725032082328,-0.00032724824008795834,0.00037457463918975545
45.61666666666536,0.00014708158,-0.7847259,-0.0003146888,-2.35647,0.0006436859,1.5710266,0.786518,0.03999996,0.039999958,-0.007544955956606536,0.0005082591968987667,-0.004096042393664234,0.00666227692687503,-0.010925806446950221,0.006712950136524419,0.9999996631509657,0.0005978499990999062,-0.00035905837341435075,0.0004328399453337375
45.633333333332025,0.00014371469,-0.7847216,-0.00037218296,-2.3565364,0.00073280506,1.5710351,0.78660184,0.039999966,0.03999996,0.0007848521358821969,0.0005407261324370046,-0.0021749981935492713,0.007414993957104961,-0.01090460141014606,0.007470518422567007,0.9999995810498519,0.0006618361265507157,-0.0003901014975523128,0.0004976885410870419
45.64999999999869,0.00013997169,-0.78472,-0.0004358518,-2.3566093,0.00083148817,1.5710438,0.7866947,0.03999997,0.039999966,-0.008320844201459288,0.0005684247832637816,-0.0044327621703255105,0.008210774850131618,-0.010850127930682093,0.008271556866861082,0.999999479908492,0.0007326998758531464,-0.0004230909732976134,0.0005694977311011969
45.66666666666536,0.00013583143,-0.7847209,-0.00050602993,-2.3566844,0.0009402532,1.5710561,0.7867971,0.039999973,0.03999997,0.00027407265457135566,0.0006023705757349771,0.0002839994489578501,0.009049541585451373,-0.010788017871850825,0.009115938656697459,0.9999993577837836,0.0008108394420632181,-0.0004541242659846476,0.0006486467224948569
45.68333333333202,0.00013127278,-0.7847246,-0.00058305083,-2.3567662,0.0010596159,1.5710685,0.78690946,0.039999973,0.03999997,-0.008181356368175408,0.0006275542889929602,-0.004499402447422085,0.009931214165391104,-0.010680072843495557,0.010003409088768386,0.9999992089665228,0.0008965921420344619,-0.0004870476288910095,0.00073550898482715
45.69999999999869,0.00012627487,-0.78473085,-0.0006672452,-2.356855,0.0011900885,1.5710809,0.7870322,0.039999977,0.03999997,-0.008882533710963258,0.0006544018248957396,-0.0045610760496472835,0.010855462267554752,-0.010561769276172504,0.010934522035040858,0.9999990285021901,0.0009902946737606767,-0.000522161071922886,0.0008304570729266317
45.716666666665354,0.000120816956,-0.7847396,-0.0007589411,-2.3569508,0.0013321784,1.5710969,0.7871659,0.03999998,0.039999973,-0.008217701775059538,0.0006842891642622976,-0.001968615301772836,0.011822450172196268,-0.010434647088880322,0.01190724771717092,0.9999988117244378,0.001092373877789594,-0.0005578277916027655,0.0009338614343053479
45.73333333333202,0.0001148784,-0.78475106,-0.0008584646,-2.3570492,0.00148639,1.5711131,0.787311,0.039999977,0.03999997,-0.0013733892593181807,0.0007137131017165049,-0.0025164837911484383,0.012831167508689952,-0.010282936195403334,0.01292208465111008,0.9999985529701062,0.001203192271749389,-0.000593364910651646,0.0010460899262349716
45.749999999998685,0.00010843886,-0.7847652,-0.00096613733,-2.357155,0.0016532212,1.5711294,0.78746796,0.03999998,0.039999973,-0.009504433003826307,0.0007337775758373502,-0.004752688999154486,0.013881231000610682,-0.010100213215924397,0.013978546384544955,0.9999982440115885,0.0013230541530412383,-0.0006312190403628536,0.0011675033064312756
45.76666666666535,0.00010147819,-0.7847818,-0.0010822782,-2.3572683,0.0018331654,1.5711493,0.7876373,0.039999984,0.039999977,-0.008602200406793159,0.000762209711899762,-0.0020738365456907104,0.014972514720419305,-0.009907321651190319,0.015076197613887824,0.9999978780015203,0.0014523835861973858,-0.0006697543436722127,0.001298461972603304
45.78333333333202,9.3976596e-05,-0.7848013,-0.0012072021,-2.3573895,0.00202671,1.5711694,0.78781945,0.039999988,0.03999998,-0.010100215382058408,0.0007803985168825336,-0.0050675609728489945,0.01610425928515759,-0.009688758262567973,0.016214518499309376,0.9999974451336852,0.00159150942118401,-0.000710762518300694,0.001439319459712845
45.79999999999868,8.591435e-05,-0.78482306,-0.001341219,-2.3575182,0.002234336,1.5711908,0.7880148,0.039999984,0.039999973,-0.009929857927115648,0.0008032646166082277,-0.0036456940418538863,0.017275780616100828,-0.009461313626989685,0.017393786754191495,0.9999969360567509,0.0017407621088058433,-0.0007537706674038904,0.0015904257832420718
45.81666666666535,7.7272125e-05,-0.78484774,-0.0014846349,-2.3576553,0.002456515,1.5712146,0.7882239,0.039999984,0.039999973,-0.010146274839106795,0.0008257137018999024,-0.0037149409334746863,0.01848713449083214,-0.009218597919567435,0.01861175825678718,0.9999963403540246,0.0019004997906055957,-0.0007983957600080756,0.0017521253705952734
45.833333333332014,6.803091e-05,-0.7848749,-0.0016377524,-2.3578024,0.0026937146,1.5712386,0.78844714,0.039999988,0.039999977,-0.014032139952391276,0.0008377459924772696,-0.00565518999928738,0.01973706549249009,-0.008955594169174713,0.019868618947005645,0.9999956446272705,0.0020710482941759516,-0.0008466393431243678,0.0019247564198102462
45.84999999999868,5.8171892e-05,-0.7849047,-0.0018008676,-2.3579597,0.002946395,1.5712658,0.7886849,0.039999988,0.039999977,-0.013426942986249912,0.0008576806844070662,-0.003785485546425882,0.021025406318097423,-0.008693128822781584,0.021163799874926323,0.9999948368873898,0.0022527347271940187,-0.0008971953758043354,0.0021086548482854126
45.866666666665346,4.7676698e-05,-0.78493726,-0.0019742725,-2.3581257,0.003215006,1.5712935,0.78893775,0.039999984,0.039999973,-0.011273577281500913,0.0008735479999019864,-0.005053841730107145,0.02235159213392156,-0.008415696238714169,0.02249662387460883,0.9999939024128371,0.002445938139211024,-0.0009504869730452347,0.002304148059081445
45.88333333333201,3.652727e-05,-0.78497255,-0.0021582532,-2.3583,0.0034999938,1.5713236,0.78920585,0.03999998,0.03999997,-0.010213798289337994,0.0008913480034168815,-0.0034332844011775165,0.023714355417681774,-0.00812740544747298,0.02386646238996221,0.9999928270677418,0.002650861982823453,-0.0010053876579431023,0.0025115611620718133
45.89999999999868,2.4705798e-05,-0.7850106,-0.002353093,-2.3584833,0.0038017929,1.5713551,0.78948987,0.039999988,0.039999977,-0.011787680544261825,0.0009022799764079855,-0.004644216952609526,0.025114238518285426,-0.00781699642645153,0.025272641731526393,0.9999915928248357,0.002867944025047944,-0.0010628582091243657,0.0027312101978227204
45.91666666666534,1.2194793e-05,-0.7850514,-0.0025590665,-2.3586771,0.0041208314,1.5713886,0.78979015,0.03999999,0.039999977,-0.013907487264619434,0.0009082645586629395,-0.004790356815820296,0.026549165554830813,-0.007493395811491695,0.026715271594966422,0.9999901810690368,0.003097472778479069,-0.0011232338055778884,0.0029634057635483085
45.93333333333201,-1.0226648e-06,-0.78509504,-0.0027764456,-2.358882,0.004457526,1.5714239,0.790107,0.039999995,0.039999984,-0.01477244420189372,0.0009166737253263335,-0.0051833344418605876,0.028019173422415857,-0.007157170894578213,0.02819103511377493,0.9999885717013699,0.003339704072741811,-0.0011868799165626347,0.0032084512501122167
45.949999999998674,-1.4963397e-05,-0.7851415,-0.003005495,-2.3590963,0.0048122886,1.5714613,0.7904408,0.04,0.039999984,-0.0121429186162203,0.0009294277577311365,-0.0043007528546468166,0.029523443929231428,-0.006814359043661907,0.029702746216552098,0.999986744506459,0.003594920939695564,-0.0012528812059232454,0.003466647298906902
45.96666666666534,-2.9643757e-05,-0.7851909,-0.0032464743,-2.359322,0.0051855203,1.5715005,0.79079205,0.04,0.039999984,-0.01547162479591524,0.00092523473889548,-0.00543049283281416,0.03106177077953959,-0.006451419081375819,0.03124701627153271,0.9999846748592114,0.0038634947831464404,-0.001322379664896825,0.003738283937847325
45.983333333332006,-4.507974e-05,-0.785243,-0.0034996376,-2.3595588,0.0055776127,1.5715418,0.7911611,0.04,0.039999988,-0.014693376220931142,0.0009323526692472505,-0.004968442945663121,0.03263255115739755,-0.0060824580758664926,0.03282407395714436,0.9999823384067664,0.004145705524826368,-0.001395087189193736,0.004023646601167148
45.99999999999867,-6.1287006e-05,-0.7852982,-0.0037652324,-2.3598068,0.0059889513,1.5715849,0.79154813,0.04,0.039999988,-0.014648455382082481,0.0009295337796668985,-0.005397937076723203,0.03423527109782601,-0.00570231580682466,0.034433004292892005,0.9999797092695412,0.004441710224702052,-0.001470984091456618,0.004323015762909651
46.01666666666534,-7.828072e-05,-0.7853563,-0.004043503,-2.3600664,0.006419911,1.5716302,0.7919536,0.04,0.03999999,-0.01574939918660423,0.0009290398793575759,-0.005234576343182695,0.03586993105410183,-0.005310249161525123,0.03607309855352822,0.9999767584035564,0.00475187593220526,-0.0015503800584214175,0.004636663618906644
46.033333333332,-9.607581e-05,-0.7854173,-0.004334682,-2.3603375,0.0068708574,1.5716773,0.792378,0.04,0.03999999,-0.015229165296637426,0.0009202531185347265,-0.005491567179394252,0.03753549233231512,-0.0049076980517732405,0.037743602333752346,0.9999734555520962,0.005076502748537433,-0.0016332575316858348,0.004964854567792806
46.04999999999867,-0.00011468688,-0.7854815,-0.004639,-2.360621,0.007342147,1.5717269,0.79282147,0.04,0.039999995,-0.016393892417787548,0.0009125837138300539,-0.005489779938239181,0.03923035417111533,-0.004496608082053906,0.0394440575778941,0.999969768995098,0.005415774763873848,-0.0017196587675592776,0.005307848275957861
46.066666666665334,-0.00013412788,-0.78554887,-0.004956684,-2.360916,0.007834125,1.5717787,0.7932844,0.04,0.04,-0.01485274164658712,0.0009135042339312137,-0.005320399496766548,0.04095472972439761,-0.004073274158716291,0.04117198889675097,0.9999656650416228,0.0057699896302297665,-0.0018092995674324382,0.0056658973347049725
46.083333333332,-0.00015441266,-0.78561914,-0.0052879527,-2.361224,0.008347131,1.5718325,0.7937671,0.04,0.04,-0.0179129372189335,0.0008900740467517217,-0.005945204663171388,0.0427076649998376,-0.003636706175830946,0.04292714945392082,0.9999611061602138,0.006139357175638414,-0.0019031477809679956,0.006039245717422536
46.099999999998666,-0.00017555465,-0.78569275,-0.005633019,-2.3615441,0.008881497,1.5718888,0.79426986,0.04,0.04,-0.01571993391698001,0.000883960112232126,-0.005563503535666037,0.044488316759239435,-0.0031944789669587814,0.04471384556749089,0.9999560555317928,0.00652414075216677,-0.002000414123885576,0.006428136283341879
46.11666666666533,-0.00019756681,-0.7857695,-0.005992086,-2.361877,0.009437537,1.5719472,0.79479307,0.04,0.04,-0.01676094030147457,0.0008639351882638868,-0.005856374804702469,0.046296134521645896,-0.002738760619166268,0.04652451613556083,0.9999504718867325,0.006924602127269995,-0.00210156189398395,0.006832795656673668
46.133333333332,-0.00022046172,-0.78584933,-0.006365357,-2.3622231,0.010015564,1.5720079,0.79533696,0.04,0.04,-0.01802613363177663,0.0008398537290496555,-0.006025236954565472,0.048129820198971066,-0.002273935213322068,0.04836143564918775,0.9999443120969908,0.007340944605530525,-0.0022069655093131576,0.007253450242145338
46.14999999999866,-0.00024425169,-0.7859326,-0.0067530256,-2.3625827,0.010615877,1.5720711,0.7959018,0.04,0.04,-0.01744593699204433,0.0008226504985563848,-0.006077349858557568,0.049988846623416835,-0.0018021122984913708,0.050222813810058206,0.999937532281211,0.007773366306055245,-0.002316314821898692,0.00769031841213529
46.16666666666533,-0.0002689484,-0.786019,-0.0071552787,-2.362956,0.011238765,1.5721364,0.79648787,0.04,0.04,-0.018648398651888165,0.0007903712075678013,-0.006394126404751788,0.051872925256663066,-0.0013198940065350753,0.052106605436234674,0.9999300838050994,0.008222123203369364,-0.0024301951080482474,0.00814360751092874
46.183333333331994,-0.00029456348,-0.7861087,-0.0075723007,-2.3633425,0.011884516,1.5722044,0.79709554,0.04,0.04,-0.01716907926350153,0.0007748062214357927,-0.00574091236609231,0.05378080884329726,-0.0008312295351163394,0.054017045121723666,0.999921918558104,0.008687440968900784,-0.0025480003701972916,0.008613527187272152
46.19999999999866,-0.00032110795,-0.78620183,-0.008004267,-2.3637424,0.0125533985,1.5722748,0.7977251,0.04,0.04,-0.017230393627887253,0.0007454938023578571,-0.00610099883933124,0.05571164022587838,-0.00033219374627561395,0.05595009979875232,0.9999129846346642,0.009169539808093518,-0.00266978125376072,0.00910027289495914
46.216666666665326,-0.0003485926,-0.7862984,-0.008451345,-2.364156,0.013245679,1.5723474,0.79837656,0.04,0.04,-0.018228106752604667,0.0007006580283768458,-0.006516861167704668,0.05766403086585134,0.00017759710658188724,0.0579036737555627,0.9999032275333066,0.009668519388098186,-0.0027960353212096293,0.00960403497500059
46.23333333333199,-0.0003770278,-0.7863982,-0.008913709,-2.3645842,0.013961609,1.5724227,0.7990503,0.04,0.04,-0.019395212547812513,0.0006757436154878303,-0.006298029075058054,0.05963878335075368,0.0006965487718685786,0.05987741107510332,0.9998925898860789,0.01018460526718165,-0.002926934340460294,0.01012499688039717
46.24999999999866,-0.00040642318,-0.7865014,-0.009391507,-2.3650267,0.014701433,1.5725006,0.7997463,0.04,0.04,-0.01874246417385983,0.0006299296190795389,-0.006495388448701789,0.061634493893102105,0.001220852850661978,0.061872159433360746,0.9998810139282502,0.010717888197777812,-0.003062381685343719,0.0106633332878374
46.26666666666532,-0.00043678866,-0.78660804,-0.009884896,-2.3654835,0.015465389,1.5725807,0.80046487,0.04,0.04,-0.01881991999022059,0.0005883988848169944,-0.006636647766544712,0.0636512267053498,0.0017534460886105708,0.0638858430514046,0.9998684372974996,0.011268581940506481,-0.003202551124309284,0.01121921671073031
46.28333333333199,-0.0004681333,-0.7867183,-0.010394017,-2.3659549,0.016253706,1.5726638,0.8012063,0.04,0.04,-0.018673621981513122,0.0005465629975344097,-0.006339715545933267,0.06568787210710433,0.0022928898056540662,0.065918570436054,0.9998547969403968,0.01183686970236842,-0.0033471106156836984,0.011792811431268651
46.299999999998654,-0.0005004661,-0.7868323,-0.01091902,-2.3664408,0.017066592,1.5727493,0.801971,0.04,0.04,-0.01872651646750434,0.0005099628520513141,-0.006813237883074308,0.06774368996597498,0.00284383450192806,0.06796880470016237,0.9998400237933202,0.012423048915769203,-0.00349635645641626,0.012384270997486428
46.31666666666532,-0.00053379557,-0.7869497,-0.011460031,-2.3669415,0.01790426,1.5728371,0.80275923,0.04,0.04,-0.01932300773048734,0.00044902605961585906,-0.0067871357740001415,0.06981662084474254,0.0034022539098221647,0.07003596311081034,0.9998240477356858,0.01302726664493277,-0.0036505546277853748,0.012993742497850565
46.333333333331986,-0.0005681295,-0.7870704,-0.012017181,-2.3674572,0.01876692,1.572928,0.803571,0.04,0.04,-0.019665275143898597,0.0003928897161609157,-0.006349012462969483,0.07190596835380764,0.003966702540770542,0.07211936494365367,0.9998067977340586,0.0136496141006251,-0.0038096436053927005,0.013621374940565516
46.34999999999865,-0.0006034757,-0.7871948,-0.012590596,-2.3679876,0.019654736,1.5730213,0.80440646,0.04,0.04,-0.01887487126375209,0.0003626394253043036,-0.0068195674533422235,0.07401172284134475,0.00453931784495366,0.07421434636403898,0.9997881997802609,0.01429022968581412,-0.003973563571416887,0.014267295056020987
46.36666666666532,-0.00063984183,-0.7873227,-0.013180389,-2.3685334,0.020567913,1.573117,0.8052657,0.04,0.04,-0.019838501085489568,0.00027344591603840895,-0.0070259979162656805,0.07613289560471828,0.005120626659009776,0.07633283795608692,0.9997681758889329,0.014949194460984014,-0.0041427318231117205,0.01493163881578784
46.38333333333198,-0.0006772345,-0.7874543,-0.013786674,-2.3690941,0.021506622,1.5732157,0.806149,0.04,0.04,-0.018970994303280087,0.00023249211927207913,-0.006561971637464303,0.07826928754014963,0.005706518876862559,0.07845478087698379,0.9997466476670003,0.01562668046131911,-0.004316674000078536,0.015614533676408958
46.39999999999865,-0.0007156607,-0.78758955,-0.014409553,-2.36967,0.022471014,1.5733172,0.8070564,0.04,0.04,-0.019027226061130165,0.0001770064418272696,-0.00670100044932731,0.0804202200814159,0.00630290757578902,0.08059790554488015,0.9997235325760522,0.016322792590654257,-0.004495571518618396,0.016316086921274234
46.416666666665314,-0.0007551266,-0.78772855,-0.015049131,-2.370261,0.023461249,1.5734212,0.80798817,0.04,0.04,-0.01925077860420732,0.00010519835010758954,-0.006959461879985085,0.08258488275613046,0.006907405546520095,0.082751915073316,0.9996987447251394,0.01703766486780478,-0.00467957764812219,0.01703641170752236
46.43333333333198,-0.0007956384,-0.7878712,-0.015705494,-2.3708673,0.024477491,1.5735279,0.8089443,0.04,0.04,-0.01929189684821697,1.8082892363179004e-05,-0.00688695017174723,0.08476218442887093,0.007520815978262199,0.08492037677798563,0.9996721966540323,0.017771369052063446,-0.004868786191325647,0.01777561813103231
46.449999999998646,-0.0008372013,-0.7880175,-0.016378742,-2.3714888,0.025519848,1.5736376,0.809925,0.04,0.04,-0.019024441315695917,-9.589707515578194e-06,-0.006644581740022915,0.08695191318934967,0.008143256155798043,0.08709911898373468,0.9996437981344143,0.018524070625516736,-0.0050630253174780765,0.01853379166543478
46.46666666666531,-0.00087982055,-0.78816754,-0.017068945,-2.3721268,0.02658846,1.5737501,0.81093043,0.04,0.04,-0.020987212116785336,-0.00013642507437957446,-0.007284612145497249,0.08915295629528977,0.008773256048936341,0.08928652720821623,0.9996134533423098,0.01929583738860317,-0.005262987073944043,0.01931102078073177
46.48333333333198,-0.0009235013,-0.7883213,-0.017776197,-2.37278,0.027683461,1.5738652,0.81196076,0.04,0.04,-0.01891311448734001,-0.00017863161612396983,-0.007018162623251278,0.09136479697509009,0.009407672306325887,0.09148441250700003,0.9995810672390768,0.02008682253078928,-0.005468263695375256,0.020107403362014536
46.49999999999864,-0.000968248,-0.78847885,-0.018500552,-2.3734496,0.028804928,1.5739831,0.81301594,0.04,0.04,-0.020319797523393746,-0.00026972613743295876,-0.007190378060961677,0.09358619361456906,0.010051258279382375,0.09368871480367548,0.9995465418409246,0.020897030977210202,-0.005679190561446305,0.02092299177347943
46.51666666666531,-0.0010140646,-0.78864014,-0.01924208,-2.374135,0.029952982,1.5741037,0.8140961,0.04,0.04,-0.01984864283572918,-0.0003544906773934875,-0.007159249977450877,0.09581737600355396,0.01069998702313836,0.09590391839544182,0.9995097759450156,0.021726553994954944,-0.005895748368392583,0.021757867382300566
46.533333333331974,-0.001060955,-0.7888052,-0.020000853,-2.3748364,0.031127702,1.5742273,0.81520146,0.04,0.04,-0.01966984891885737,-0.00040733203916717975,-0.006972168261731859,0.09805690806507301,0.011355218011238984,0.09811725423179789,0.9994706648319372,0.022575546699227338,-0.006117860637768514,0.022612089970918767
46.54999999999864,-0.0011089231,-0.7889739,-0.020776918,-2.3755536,0.03232922,1.5743537,0.816332,0.04,0.04,-0.019294484292675662,-0.0005316684972996727,-0.0069957856481783764,0.10030427214069815,0.012017016278030422,0.10034764983431221,0.9994291031781185,0.02344400218818427,-0.006345597934277916,0.023485737562160706
46.566666666665306,-0.001157972,-0.78914666,-0.021570323,-2.3762863,0.033557586,1.5744828,0.8174877,0.04,0.04,-0.018453360686310205,-0.0005935702426324019,-0.0070330944472285495,0.10255871757963506,0.012686119068924594,0.10258426506637576,0.9993849844430452,0.024331969581721163,-0.00657873499837363,0.024378850913641295
46.58333333333197,-0.0012081044,-0.78932303,-0.022381118,-2.3770354,0.034812845,1.5746148,0.8186688,0.04,0.04,-0.020311681481355315,-0.0006858325370086987,-0.007192659650478994,0.10482006347348324,0.0133656670037063,0.10482637538864345,0.9993381928652645,0.02523954336063257,-0.0068179124490402405,0.025291457086760425
46.59999999999864,-0.0012593225,-0.78950334,-0.023209333,-2.3778005,0.03609507,1.5747497,0.81987524,0.04,0.04,-0.019023584103794455,-0.0007769196960584479,-0.007026645495056272,0.10708735955067333,0.014049130993956913,0.1070733363653266,0.9992886173225171,0.026166767458794697,-0.007062728652778786,0.026223604526962152
46.6166666666653,-0.001311629,-0.7896874,-0.024055015,-2.3785825,0.037404336,1.5748874,0.821107,0.04,0.04,-0.02078793499997733,-0.0009129776904138326,-0.007551871260536025,0.10935945482768718,0.014742279606160513,0.1093243427984246,0.9992361383744983,0.027113609115232855,-0.007313912845315841,0.027175331572182788
46.63333333333197,-0.0013650253,-0.78987527,-0.024918187,-2.3793802,0.03874067,1.5750276,0.8223643,0.04,0.04,-0.01865493450414757,-0.00096788213086417,-0.007183638197294506,0.11163686225553222,0.015436929735455051,0.1115762410392391,0.9991806375936898,0.028080221983955524,-0.007571008851404765,0.028146659058779385
46.649999999998634,-0.0014195135,-0.7900671,-0.02579887,-2.380194,0.040104117,1.575171,0.823647,0.04,0.04,-0.018585004541327166,-0.0010628767122589783,-0.006811665272832279,0.11391787015343108,0.016139363990279175,0.11383260877878039,0.9991219975586378,0.02906656940579983,-0.007833764877274496,0.02913761598454482
46.6666666666653,-0.0014750946,-0.7902627,-0.026697088,-2.381024,0.041494705,1.5753174,0.8249554,0.04,0.04,-0.01906578239425638,-0.0011673910505147211,-0.007027418576854849,0.1162019516481557,0.0168509270948323,0.11609040462767867,0.9990600902013453,0.0300727544904301,-0.008102530038729952,0.030148210746403246
46.683333333331966,-0.0015317694,-0.7904621,-0.027612854,-2.3818693,0.042912457,1.5754663,0.8262893,0.04,0.04,-0.017935837966831514,-0.0012589619384058282,-0.00699601727129906,0.11848789863133892,0.01756875252884293,0.11835135530830201,0.998994792400268,0.03109871699936848,-0.008377262779579994,0.031178454523280226
46.69999999999863,-0.0015895391,-0.79066527,-0.028546173,-2.3827317,0.044357397,1.575618,0.8276487,0.04,0.04,-0.020050870749543925,-0.0014210974307440893,-0.007432370160920243,0.1207761034007461,0.018295293070451177,0.12061316578964018,0.9989259713616049,0.03214447636813705,-0.008658520373596415,0.032228347820399454
46.7166666666653,-0.0016484029,-0.7908723,-0.029497055,-2.3836105,0.045829512,1.5757729,0.8290337,0.04,0.04,-0.019037729367754608,-0.0014807358169860452,-0.007011353718211488,0.12306548421194363,0.019025886079636335,0.12287428128930974,0.9988534984133316,0.033210070687727904,-0.008945997790774034,0.033297883354532466
46.73333333333196,-0.0017083618,-0.79108316,-0.030465486,-2.3845053,0.04732882,1.5759305,0.83044434,0.04,0.04,-0.01813684481999367,-0.0016061727143114324,-0.007065617948720515,0.12535544664581347,0.019761694772460772,0.12513720338331216,0.9987772396276596,0.03429554889796861,-0.00923966035877459,0.03438705576222394
46.74999999999863,-0.0017694144,-0.79129785,-0.031451467,-2.3854163,0.048855245,1.5760909,0.8318807,0.04,0.04,-0.01843368957377134,-0.0016656136501098928,-0.007044896439412085,0.12764483911423105,0.020505403807108392,0.12738959795856958,0.9986970595510758,0.03540091871705774,-0.00953965096155133,0.03549582028289091
46.766666666665294,-0.0018315612,-0.79151636,-0.03245499,-2.3863435,0.05040885,1.576254,0.83334213,0.04,0.04,-0.01836065596940717,-0.0018417491072949405,-0.007206082973731931,0.12993274370700164,0.02125436433511683,0.1296494376453382,0.9986128290212335,0.036525877703698584,-0.009846132994603605,0.03662419469743602
46.78333333333196,-0.0018948006,-0.7917386,-0.033476047,-2.3872864,0.051989574,1.5764202,0.8348292,0.04,0.04,-0.01733403256432009,-0.0018692768305957758,-0.006568926405225994,0.13222118047167059,0.022009912783646255,0.1319035410192631,0.9985244034805558,0.03767069955380096,-0.010158724281719952,0.037772137481155946
46.799999999998626,-0.0019591313,-0.79196477,-0.034514606,-2.388246,0.05359739,1.5765892,0.8363419,0.04,0.04,-0.0187431290442186,-0.0020636593368587863,-0.007256248836595702,0.13450702362008954,0.022773679566433214,0.13415489447890752,0.998431635950076,0.038835373792780584,-0.010478017834736869,0.038939609893844804
46.81666666666529,-0.0020245528,-0.7921946,-0.03557063,-2.389222,0.055232257,1.5767611,0.83788,0.04,0.04,-0.01798459379980244,-0.0021626043732229927,-0.006913301949507122,0.13678927022414106,0.02354135340907805,0.13640531071934414,0.9983343889190609,0.0400197696018547,-0.01080391731634071,0.04012656617804926
46.83333333333196,-0.002091061,-0.79242826,-0.0366441,-2.3902137,0.056894127,1.5769358,0.83944345,0.04,0.04,-0.017337723590005183,-0.002257112528393501,-0.006929768251628943,0.13906881449951689,0.02431446458899025,0.13865095596702837,0.9982325188419617,0.04122384428722004,-0.011136360495996473,0.04133297065925492
46.84999999999862,-0.0021586563,-0.7926659,-0.037734997,-2.3912215,0.058582965,1.5771133,0.84103227,0.04,0.04,-0.016954863831708522,-0.002368470898449909,-0.006912702697658979,0.14134449890549566,0.025095072479442912,0.14089204032140684,0.9981258777447245,0.04244761712796679,-0.01147525885332929,0.04255878770277514
46.86666666666529,-0.002227336,-0.79290724,-0.038843267,-2.3922455,0.060298696,1.5772936,0.8426465,0.04,0.04,-0.01753049970127929,-0.0025004766019805225,-0.006854878927087249,0.14361526674361685,0.025882337986772835,0.14312946706274018,0.9980143133812811,0.043691077413272356,-0.011820940229704056,0.04380394288923384
46.883333333331954,-0.0022970964,-0.7931521,-0.039968852,-2.393285,0.06204124,1.5774767,0.8442857,0.04,0.04,-0.016397929177514037,-0.002592489051939789,-0.0064795559054253715,0.14588028741357234,0.026675057627068156,0.14535881282451232,0.9978976854669913,0.0449540185922538,-0.012173248673232079,0.045068365499191444
46.89999999999862,-0.002367935,-0.7934009,-0.041111726,-2.3943408,0.06381056,1.5776628,0.8459503,0.04,0.04,-0.016922462212320966,-0.002741377954552926,-0.006846113149583388,0.1481404230429355,0.027475034286852686,0.14758463478456757,0.997775832267413,0.046236579059638135,-0.012532282671586485,0.046352013882598304
46.916666666665286,-0.002439849,-0.7936534,-0.042271823,-2.3954127,0.06560654,1.5778515,0.84764,0.04,0.04,-0.017066599961457207,-0.002883263278367909,-0.007001437535536503,0.1503933341356042,0.028280095043426833,0.14980324844020243,0.9976486021518812,0.04753860835007402,-0.012898366854696875,0.0476547948586204
46.93333333333195,-0.0025128338,-0.7939098,-0.043449085,-2.3965006,0.067429096,1.5780431,0.8493547,0.04,0.04,-0.016369093380563804,-0.0029690933665421637,-0.0067129523154241255,0.15263904177281062,0.029089817316187653,0.15200659899845353,0.9975158433527027,0.04886005341125843,-0.013271294804821655,0.048976628867234605
46.94999999999862,-0.0025868868,-0.7941698,-0.04464346,-2.3976042,0.069278166,1.5782377,0.85109437,0.04,0.04,-0.01596147169455886,-0.0030874080522408365,-0.006388800837364705,0.15487691760027464,0.02990569071501798,0.15420661198646457,0.997377398872584,0.0502008668121101,-0.013651039668143914,0.05031745527597533
46.96666666666528,-0.0026620033,-0.7944336,-0.045854893,-2.3987234,0.071153596,1.578435,0.8528588,0.04,0.04,-0.015276995922097747,-0.003159085942326667,-0.006517360977698061,0.15710596436152985,0.03072743086478758,0.1563997683502047,0.9972331181811025,0.05156088856704684,-0.014037570157980045,0.051677165141207966
46.98333333333195,-0.0027381787,-0.79470116,-0.047083303,-2.3998578,0.073055305,1.5786347,0.8546479,0.04,0.04,-0.014844291202242843,-0.0033023293891681904,-0.006520125625009143,0.15932652358556512,0.03155552577495281,0.15858646960182837,0.997082841912593,0.052940047596264826,-0.01443097947114644,0.05305567411234751
46.999999999998614,-0.0028154089,-0.7949725,-0.048328605,-2.4010084,0.07498315,1.5788375,0.8564614,0.04,0.04,-0.01615039924816042,-0.003464892836708977,-0.006613688099776915,0.16153796896042927,0.03239166014355316,0.16076140892423813,0.9969264115451231,0.05433820650710738,-0.014831565172951876,0.05445285990538499
47.01666666666528,-0.0028936889,-0.79524744,-0.049590737,-2.4021742,0.07693707,1.579043,0.8582997,0.04,0.04,-0.014569907740091814,-0.003555414923429173,-0.006226899127526053,0.1637397632421313,0.03323055174633367,0.1629270528309124,0.9967636582731065,0.055755471465694734,-0.015239103942675861,0.05586865542212659
47.033333333331946,-0.0029730145,-0.795526,-0.050869614,-2.4033556,0.07891689,1.5792512,0.86016226,0.04,0.04,-0.014844329668872724,-0.003669218099412036,-0.006410471620332814,0.16592976298684398,0.034077144899714876,0.16508295888490093,0.9965944282586502,0.057191592502380276,-0.01565382947057141,0.0573029225586459
47.04999999999861,-0.00305338,-0.79580826,-0.052165143,-2.4045522,0.080922514,1.579462,0.862049,0.04,0.04,-0.014236269288825376,-0.003801017017291547,-0.006171743016847309,0.16810879918084007,0.034927970653476206,0.16722704972257088,0.9964185632461092,0.05864643714068131,-0.01607562557224734,0.058755565623390085
47.06666666666528,-0.0031347787,-0.7960941,-0.053477224,-2.4057643,0.08295379,1.5796756,0.86395997,0.04,0.04,-0.014505178806478725,-0.0039576064005703016,-0.006353745169596081,0.170275888361075,0.035785940193959406,0.16935962165433563,0.9962358917125145,0.06012001504370187,-0.01650474219614179,0.06022645050104543
47.08333333333194,-0.0032172056,-0.79638356,-0.05480579,-2.4069917,0.085010566,1.5798918,0.86589485,0.04,0.04,-0.013963749809042802,-0.004019772082666101,-0.006085013705714459,0.1724302381034623,0.03664673492506656,0.17147544284172875,0.996046258240666,0.061612113589490314,-0.016941088113445996,0.06171546351877184
47.09999999999861,-0.0033006554,-0.7966764,-0.05615072,-2.4082344,0.08709266,1.5801105,0.8678536,0.04,0.04,-0.014059761493245837,-0.004156941838251438,-0.006147239502629631,0.1745716460194407,0.03751320040080593,0.17358114260056637,0.9958494959617507,0.06312264458635171,-0.017384937845885177,0.0632224411838613
47.116666666665274,-0.00338512,-0.79697293,-0.05751192,-2.4094918,0.08919992,1.5803322,0.869836,0.04,0.04,-0.012658858190683908,-0.004214097511589382,-0.005753150975218446,0.17669974412246073,0.038381657581518056,0.1756746869709942,0.9956454506793989,0.06465146490396764,-0.017835789965104917,0.06474727193873323
47.13333333333194,-0.0034705945,-0.79727286,-0.058889277,-2.4107642,0.09133224,1.5805564,0.87184197,0.04,0.04,-0.013276658995398094,-0.004412239082271507,-0.005872999263512035,0.17881349697152252,0.039259214461059955,0.1777567037473389,0.9954339476251433,0.06619849552895073,-0.018294099127655696,0.0662898260839053
47.149999999998606,-0.0035570718,-0.7975763,-0.060282692,-2.4120517,0.09348937,1.5807831,0.8738713,0.04,0.04,-0.013018330734015926,-0.004481837119036519,-0.005993653198554938,0.18091230078118986,0.04013862303035012,0.17982451532724103,0.9952148278355137,0.06776355389018296,-0.01875992676075241,0.06784992533844252
47.16666666666527,-0.0036445444,-0.7978834,-0.061692048,-2.4133537,0.095671184,1.5810124,0.87592393,0.04,0.04,-0.011910687614591353,-0.004596128916756204,-0.005773577430745469,0.18299536302849934,0.04102351937058166,0.1818775406742644,0.994987929791666,0.0693465106962722,-0.019233042007214873,0.0694274521950452
47.18333333333194,-0.0037330056,-0.7981939,-0.06311722,-2.41467,0.09787752,1.5812443,0.8779996,0.04,0.04,-0.011525934418687989,-0.00468983768117312,-0.005319313127372105,0.18506299290250083,0.041912530675279114,0.18391721624026797,0.9947530911538184,0.07094722686411753,-0.019713390116894117,0.07102225630261065
47.1999999999986,-0.0038224473,-0.7985076,-0.064558096,-2.416001,0.100108154,1.5814788,0.880098,0.04,0.04,-0.012421872825552072,-0.004847409860234131,-0.00562512928496961,0.18711350198023102,0.04280860149533603,0.1859396072339835,0.9945101475108845,0.07256546521629677,-0.020201474787181848,0.07263415293265178
47.21666666666527,-0.0039128624,-0.7988247,-0.06601454,-2.4173467,0.10236293,1.5817157,0.88221914,0.04,0.04,-0.011623101124769164,-0.004979309589666497,-0.005674265594590722,0.18914808416766107,0.043706868052316175,0.18794861134698765,0.994258929943551,0.07420117122790218,-0.0206971908805809,0.07426299687977306
47.233333333331935,-0.004004242,-0.79914534,-0.06748645,-2.4187057,0.10464161,1.5819552,0.8843629,0.04,0.04,-0.009384533064649148,-0.004902052447189331,-0.004841915025122212,0.19116432618566911,0.044608107376793195,0.18993994118276358,0.9939992899768186,0.07585418393176727,-0.021199888292379107,0.07590862297536781
47.2499999999986,-0.0040965793,-0.7994695,-0.06897369,-2.420079,0.10694402,1.5821974,0.886529,0.04,0.04,-0.010717944542681934,-0.005121334643465314,-0.005237892514720066,0.19316156788024838,0.0455182575307566,0.1919113537900942,0.9937310547661532,0.07752435994620739,-0.021710019445640803,0.07757086736623078
47.266666666665266,-0.004189864,-0.79979676,-0.07047611,-2.4214666,0.10926989,1.5824418,0.8887168,0.04,0.04,-0.011109591559499421,-0.005270510148276675,-0.00548150973311845,0.19513985058087158,0.04643437207718622,0.19386907443400267,0.9934540808011488,0.07921122095300838,-0.022228099462882928,0.07924950100124545
47.28333333333193,-0.004284091,-0.80012727,-0.07199356,-2.422869,0.11161907,1.5826887,0.8909267,0.04,0.04,-0.011568398037709038,-0.005455833019338274,-0.005453942908095755,0.19710172532530001,0.04735036580665564,0.1958114634291602,0.9931681757249494,0.08091494755812582,-0.022754248814132676,0.08094436453358549
47.2999999999986,-0.004379248,-0.8004612,-0.07352592,-2.4242842,0.11399133,1.5829384,0.8931583,0.04,0.04,-0.007905650211070814,-0.0052880429766283266,-0.004235153449538842,0.19904258671475045,0.048266221228725766,0.1977348094336554,0.9928732141115872,0.08263523743045634,-0.02328730254240638,0.08265530699741427
47.31666666666526,-0.004475327,-0.8007982,-0.07507304,-2.4257135,0.11638649,1.58319,0.8954113,0.04,0.04,-0.010356916942866334,-0.005675212326633483,-0.005486528129416968,0.20096306943686584,0.04919281219752067,0.19964183365306593,0.9925690138404807,0.0843718446063983,-0.02382859787637623,0.08438212206797974
47.33333333333193,-0.004572321,-0.8011384,-0.07663477,-2.4271562,0.11880425,1.5834441,0.89768577,0.04,0.04,-0.008635992188166242,-0.005569195228070922,-0.004504162326912642,0.2028634951337946,0.05011781469487945,0.20152842152720712,0.9922554241499224,0.0861247338824325,-0.024377375516368722,0.08612460172141098
47.349999999998595,-0.004670218,-0.8014817,-0.07821096,-2.4286118,0.121244386,1.5837008,0.89998144,0.04,0.04,-0.00783424262182919,-0.005628565680974862,-0.004246479302594253,0.20474166915001152,0.05104717044616402,0.20339724757024064,0.9919322932682516,0.08789369036435002,-0.024933577155664747,0.08788254374985692
47.36666666666526,-0.0047690105,-0.8018282,-0.079801485,-2.4300811,0.12370669,1.5839593,0.9022978,0.04,0.04,-0.009367143547822643,-0.005895054297760938,-0.0051889786155889794,0.20659757601155104,0.05198201070169434,0.20524791104154516,0.991599459241582,0.0896783597373925,-0.02549799405397481,0.08965576682978246
47.383333333331926,-0.0048686867,-0.8021779,-0.081406154,-2.4315634,0.12619096,1.5842205,0.90463495,0.04,0.04,-0.007338175195492624,-0.005879532459321379,-0.004131404020690788,0.20843182872062888,0.05291498925805978,0.20707793106529965,0.9912567719906071,0.09147870960050876,-0.026069840970337783,0.09144408709352717
47.39999999999859,-0.004969238,-0.8025305,-0.083024785,-2.4330583,0.12869677,1.5844841,0.90699226,0.04,0.04,-0.007188995472517945,-0.005858426461372024,-0.004012776110795535,0.21024207871323508,0.05385585882421072,0.2088849990747455,0.9909041058988662,0.09329431208122063,-0.02664930340275817,0.09324719231273378
47.41666666666526,-0.005070652,-0.80288625,-0.08465726,-2.434566,0.13122402,1.5847496,0.9093697,0.04,0.04,-0.007348883219560065,-0.006104633060842468,-0.004536227942475435,0.21202984717877166,0.054799542299636864,0.210671593449254,0.9905412855298211,0.09512505966660147,-0.02723672090524191,0.09506495526052067
47.43333333333192,-0.0051729223,-0.8032448,-0.08630342,-2.4360867,0.13377245,1.5850177,0.91176707,0.04,0.04,-0.007252459041917625,-0.0061005491477722495,-0.003847205998974701,0.21379438711375603,0.05574339181976166,0.21244200347239603,0.990168163795534,0.09697078683267174,-0.027831914005355184,0.09689715408427524
47.44999999999859,-0.0052760346,-0.8036064,-0.08796304,-2.4376197,0.13634175,1.5852877,0.9141842,0.04,0.04,-0.006372723442549244,-0.006249885681973433,-0.004148987119467762,0.2155343486474945,0.0566899744347965,0.21418971045578752,0.9897845968288975,0.09883126208216853,-0.028435004733772647,0.09874352647790664
47.466666666665255,-0.0053799786,-0.80397093,-0.08963595,-2.4391656,0.13893165,1.58556,0.9166207,0.04,0.04,-0.006923603071862239,-0.0063398474729400855,-0.004097761650601051,0.21724914637980813,0.0576379308997046,0.21591569952792516,0.9893904470936248,0.10070617721883633,-0.029046098619909522,0.10060384299224445
47.48333333333192,-0.0054847477,-0.80433834,-0.091322035,-2.4407234,0.14154188,1.5858345,0.91907626,0.04,0.04,-0.005301992420703172,-0.006254426321013196,-0.003487845214844576,0.2189394911922889,0.058586138759889404,0.2176216168165761,0.9889855768957824,0.10259534439460938,-0.02966483800820274,0.10247790682198418
47.499999999998586,-0.0055903257,-0.8047084,-0.093021095,-2.442293,0.14417219,1.5861108,0.92155075,0.04,0.04,-0.005074765100943068,-0.006376623935565318,-0.0035950748676016886,0.22060392187466232,0.05953692725302116,0.21930567632677567,0.9885698432721057,0.10449851234578483,-0.030291485451163395,0.104365472258042
47.51666666666525,-0.0056967023,-0.8050813,-0.09473295,-2.443874,0.14682236,1.5863897,0.9240439,0.04,0.04,-0.0042003100469756305,-0.0063919667962972215,-0.0029354134668979626,0.22224243293646576,0.06048867183558183,0.22096891613678782,0.9881431154786814,0.10641548070706537,-0.030925563786720366,0.10626635545855052
47.53333333333192,-0.0058038686,-0.8054569,-0.09645739,-2.445467,0.14949197,1.5866703,0.9265554,0.04,0.04,-0.005597171762872222,-0.006574353548161049,-0.0037786460572508673,0.22385391073841854,0.061445249284189436,0.22260716205236625,0.9877052513627008,0.10834596372436747,-0.031567892787169385,0.108180204844323
47.54999999999858,-0.0059118113,-0.8058353,-0.09819426,-2.447071,0.15218087,1.586953,0.9290849,0.04,0.04,-0.003153823484769447,-0.0065202853051532506,-0.00289068157350858,0.22543842970276343,0.06240007395951903,0.2242241584597475,0.9872561388010345,0.11028966487179244,-0.03221766098267586,0.11010689598270261
47.56666666666525,-0.0060205203,-0.8062164,-0.09994335,-2.4486873,0.15488869,1.5872377,0.9316322,0.04,0.04,-0.0052764494679502505,-0.0067576030917254615,-0.003606510047604594,0.22699587727566217,0.06335915087758494,0.22581518659397426,0.9867956245475392,0.11224639578725164,-0.03287572412844146,0.11204610109073099
47.583333333331915,-0.006129983,-0.8066003,-0.10170446,-2.4503143,0.15761517,1.5875244,0.9341971,0.04,0.04,-0.0026533984585519477,-0.006616760550270939,-0.0027182771695555275,0.2285253555102146,0.06431456596663664,0.22738179970395794,0.986323604805541,0.11421589340679232,-0.03354133190868809,0.11399761116129653
47.59999999999858,-0.0062401867,-0.8069867,-0.10347745,-2.4519522,0.16036,1.5878128,0.9367793,0.04,0.04,-0.0032083221467527068,-0.006718710464556632,-0.0029988426502036702,0.2300268572535395,0.0652734424175412,0.2289279550220381,0.985839945599735,0.11619789522305364,-0.0342149160124732,0.1159611587036934
47.616666666665246,-0.0063511194,-0.8073755,-0.105262086,-2.4536002,0.16312282,1.5881033,0.9393784,0.04,0.04,-0.0015617479325769068,-0.0065515875345242836,-0.001995293040191193,0.23149933284754873,0.06623007210811593,0.2304500113394791,0.9853445562883245,0.11819208546860074,-0.034895890645953984,0.11793647926563564
47.63333333333191,-0.006462769,-0.8077669,-0.10705817,-2.4552586,0.16590336,1.5883955,0.9419943,0.04,0.04,-0.0021025920057038405,-0.006781078260521822,-0.0026826208838315324,0.23294286114846094,0.06719097583345073,0.2319477022521405,0.984837295355924,0.12019830332223176,-0.03558467545156645,0.11992331060928839
47.64999999999858,-0.006575122,-0.8081609,-0.10886549,-2.4569283,0.1687013,1.5886898,0.9446264,0.04,0.04,-0.003114748963151115,-0.006901763921249304,-0.002654997857964858,0.2343566440938521,0.06815104151562258,0.23342160226387124,0.9843180654963991,0.12221611638805516,-0.036281439064565914,0.12192138455517942
47.66666666666524,-0.006688168,-0.80855715,-0.110683866,-2.4586074,0.17151637,1.5889858,0.9472746,0.04,0.04,-0.0006511530898478668,-0.00673760340315771,-0.0019154496646800467,0.23574109880816246,0.06910951506967515,0.23486912194925097,0.9837867574206661,0.12424535581229149,-0.03698579289588604,0.12393045875276601
47.68333333333191,-0.0068018916,-0.8089558,-0.112513065,-2.460297,0.17434825,1.5892835,0.9499387,0.04,0.04,-0.0020003999738671396,-0.006985171407929147,-0.0024607254959674307,0.23709527960123716,0.07006899043024599,0.23629312854200624,0.9832432513438896,0.1262857498196985,-0.03769819540684311,0.1259502447089356
47.699999999998575,-0.0069162813,-0.80935675,-0.11435292,-2.4619966,0.17719658,1.5895827,0.95261836,0.04,0.04,-0.000800077929907772,-0.006858456629421639,-0.002090901366247344,0.2384188003778145,0.07102588278556178,0.23769122821585653,0.9826874551334205,0.12833701207296697,-0.03841841751369059,0.12798047527388198
47.71666666666524,-0.007031324,-0.80976,-0.11620321,-2.4637058,0.18006106,1.589884,0.95531315,0.04,0.04,-0.0006015572921791446,-0.006843133411314761,-0.0015764581118515864,0.23971170073802572,0.0719792195038655,0.23906504918770313,0.9821192803699731,0.1303988455127264,-0.03914622489533555,0.130020895593586
47.733333333331906,-0.0071470067,-0.81016535,-0.11806374,-2.4654238,0.18294139,1.590187,0.9580227,0.04,0.04,0.000812305075403863,-0.006798477117239687,-0.001399371128774085,0.24097279433645313,0.07293292733045886,0.24041247031654242,0.9815386446983618,0.13247089113913776,-0.03988152945748703,0.13207125187805818
47.74999999999857,-0.007263317,-0.81057286,-0.11993423,-2.4671516,0.18583721,1.5904914,0.9607469,0.04,0.04,-0.0006863825152247927,-0.00705502859239121,-0.0019035373513442977,0.24220249842936156,0.07388698364274487,0.24173373583305408,0.9809454392655852,0.13455292404418306,-0.0406248491514394,0.13413119490495604
47.76666666666524,-0.007380239,-0.8109827,-0.121814504,-2.4688888,0.18874817,1.5907977,0.9634853,0.04,0.04,0.00044629727573575195,-0.0069225661707347785,-0.0014988066244114862,0.24340059132394892,0.07483650502784515,0.24302895510113603,0.9803395934901173,0.13664463556334697,-0.04137577073108699,0.1362004794551036
47.7833333333319,-0.007497759,-0.81139475,-0.12370439,-2.4706345,0.19167392,1.5911051,0.96623766,0.04,0.04,0.0014451806361615027,-0.006854128781091928,-0.0014577748286503933,0.24456614481138744,0.07578403204183876,0.24429369988983904,0.979721028103532,0.1387457030121277,-0.04213432375145988,0.13827883333842464
47.79999999999857,-0.007615866,-0.8118088,-0.1256036,-2.4723885,0.19461416,1.5914145,0.9690036,0.04,0.04,0.0019177696994443494,-0.0068021981109653296,-0.0006694109608629262,0.24569943617567208,0.07672916090950105,0.2455343436152247,0.9790896801040663,0.14085584862839787,-0.04290015091810182,0.14036596906691862
47.816666666665235,-0.0077345455,-0.81222475,-0.12751196,-2.4741507,0.19756849,1.591725,0.97178286,0.04,0.04,0.002014693391916289,-0.0068136066346535795,-0.000966966717097506,0.24679917002012713,0.077674748935006,0.246749767660028,0.9784454700204979,0.14297475108417618,-0.043673603233828004,0.14246157071069718
47.8333333333319,-0.007853782,-0.8126427,-0.1294292,-2.475921,0.20053664,1.5920371,0.9745752,0.04,0.04,0.0023770308795301176,-0.006869790449191837,-0.0007357677715091882,0.24786643914510753,0.07861584514300228,0.24793743498731097,0.9777883264066725,0.14510217765908,-0.04445445440779105,0.14456537712999296
47.849999999998566,-0.007973562,-0.8130625,-0.13135512,-2.4776995,0.2035183,1.5923506,0.9773802,0.04,0.04,0.0018426802461890546,-0.006975578789654435,-0.0008514593552222394,0.24889926941714882,0.07955489082134995,0.24909655388268612,0.9771181805014931,0.14723776585552037,-0.045242984458427005,0.14667710795015382
47.86666666666523,-0.008093871,-0.81348413,-0.13328949,-2.4794862,0.206513,1.5926654,0.9801974,0.04,0.04,0.0022454389279946696,-0.0068722716313390775,-0.0007868938113109181,0.2498988984957586,0.08048872583900332,0.2502307768330861,0.9764349937695589,0.14938114878032577,-0.04603914638782641,0.1487964123599495
47.8833333333319,-0.008214698,-0.8139075,-0.13523209,-2.4812808,0.20952049,1.5929816,0.9830265,0.04,0.04,0.00259567182148146,-0.006882240508450377,-0.0005641044663384776,0.25086533449837606,0.08141720511577438,0.25133471276214975,0.9757387068930183,0.15153201672618571,-0.046842899785846694,0.15092304833022968
47.89999999999856,-0.008336029,-0.81433266,-0.13718274,-2.4830825,0.21254027,1.593299,0.9858675,0.04,0.04,0.003865795796675897,-0.006601674769021737,-0.00016151942523467966,0.2517976319446672,0.08233970495295838,0.2524116148078306,0.9750292660762786,0.15369023676131843,-0.04765390423415241,0.15305667848952478
47.91666666666523,-0.008457843,-0.81475955,-0.13914108,-2.4848914,0.21557207,1.5936178,0.98871976,0.04,0.04,0.003868042674159966,-0.006804422762640705,-0.00010228979763216017,0.2526942704764226,0.08325732189984184,0.25346117642634747,0.9743066572794543,0.15585530204270373,-0.04847218388468424,0.1551970031784205
47.933333333331895,-0.00858013,-0.8151881,-0.141107,-2.4867067,0.21861556,1.5939376,0.99158293,0.04,0.04,0.004978402896327339,-0.006575736615246908,0.00018480264938336433,0.2535566288637803,0.08417167608287746,0.2544832301284585,0.9735708435463517,0.158026892381405,-0.04929754216756647,0.15734378353452072
47.94999999999856,-0.008702873,-0.8156183,-0.14308019,-2.488529,0.22167036,1.594259,0.99445677,0.04,0.04,0.004273439738677887,-0.006641712802685218,0.0003158254338053723,0.25438461815756885,0.08508204396002385,0.2554758710325643,0.9728217804837009,0.16020477974369354,-0.05013003074247865,0.15949668329327354
47.966666666665226,-0.008826065,-0.81605,-0.14506046,-2.4903579,0.22473611,1.5945814,0.99734116,0.04,0.04,0.004496611583482135,-0.006661323351370152,5.250568140269252e-05,0.2551766513358934,0.08598882047882304,0.25644081160468063,0.9720594168639837,0.16238871434331506,-0.05096988172930998,0.16165539488825403
47.98333333333189,-0.008949684,-0.8164832,-0.1470476,-2.4921935,0.22781248,1.5949049,1.0002351,0.04,0.04,0.004525994402260203,-0.006633372227729528,0.00028025989888824654,0.2559320882311933,0.08688660275125874,0.2573768227780708,0.9712837792948658,0.16457807717696812,-0.05181696230379921,0.16381965391558173
47.99999999999856,-0.009073716,-0.8169179,-0.14904131,-2.4940352,0.230899,1.5952295,1.0031387,0.04,0.04,0.0052789181306245325,-0.0064883118899877745,0.00047741918598465105,0.2566541399402101,0.08777782167097181,0.25828178113467504,0.9704948364583613,0.16677273851922683,-0.05267113436724733,0.16598908909601176
48.01666666666522,-0.009198146,-0.81735384,-0.15104137,-2.495883,0.23399536,1.5955551,1.0060514,0.04,0.04,0.00542297518091317,-0.006477430164666953,0.0006468247233826219,0.2573403391888544,0.08866203531837938,0.2591590708850995,0.9696925803555926,0.16897231742409308,-0.053532448228504816,0.1681634102125265
48.03333333333189,-0.00932296,-0.8177912,-0.15304753,-2.4977355,0.23710123,1.5958817,1.0089735,0.04,0.04,0.007621583733330439,-0.006182969434592733,0.0013860864959802655,0.2579907989624009,0.0895391386008356,0.26000675787434296,0.9688769995453811,0.17117667693832286,-0.05440020775505492,0.17034236824847615
48.049999999998555,-0.009448141,-0.81822985,-0.15505959,-2.4995944,0.2402161,1.5962092,1.0119038,0.04,0.04,0.004602055330016341,-0.006502210390413321,0.00030060878546400716,0.25860365399822477,0.09041218327494716,0.26082537338196826,0.968048107609173,0.17338519233473823,-0.055275382795968796,0.17252555894737454
48.06666666666522,-0.009573675,-0.81866974,-0.15707727,-2.5014582,0.24333976,1.596538,1.0148419,0.04,0.04,0.007490730805836954,-0.006098026091982955,0.0016685288029227863,0.25918203116283445,0.09127254183903272,0.2616143869519042,0.967205951221145,0.17559752390591596,-0.05615690809180974,0.17471279058523226
48.083333333331886,-0.0096995495,-0.8191109,-0.15910032,-2.5033264,0.24647172,1.5968673,1.0177878,0.04,0.04,0.0076842542355182175,-0.006069702794250786,0.0012748562811415454,0.2597244150146633,0.0921296955305869,0.2623734838067326,0.9663505307398333,0.17781338764691537,-0.05704502816926515,0.17690369038982126
48.09999999999855,-0.0098257465,-0.819553,-0.16112852,-2.5052,0.24961162,1.5971972,1.0207413,0.04,0.04,0.006222362702490436,-0.006266470037449845,0.0008682812463023382,0.26023147989468315,0.09297999937680326,0.2631017877479947,0.9654818106705824,0.18003259933131163,-0.0579402867495912,0.17909790510678836
48.11666666666522,-0.009952252,-0.8199963,-0.16316162,-2.5070777,0.25275916,1.5975279,1.0237019,0.04,0.04,0.007996034848445355,-0.005961268425092037,0.0016720299401029592,0.26070168798953713,0.09381697557902723,0.2638021216483273,0.96459985792886,0.18225471502638405,-0.058841947658379544,0.18129522368237697
48.13333333333188,-0.010079048,-0.8204407,-0.16519934,-2.5089598,0.25591394,1.5978596,1.0266701,0.04,0.04,0.008013769611703303,-0.005901771346028539,0.0018560517802690413,0.2611355497926379,0.09464719793020085,0.2644698406552921,0.9637046207181029,0.18447987570365482,-0.05974996917693013,0.18349528781496646
48.14999999999855,-0.010206119,-0.820886,-0.16724148,-2.5108466,0.25907546,1.5981922,1.029645,0.04,0.04,0.006862600593193768,-0.00590829649897151,0.001476148690482404,0.2615283589858828,0.09546916576785958,0.2651092717283884,0.9627961664770616,0.18670749253308605,-0.06066475034632655,0.185697717041702
48.166666666665215,-0.01033345,-0.8213322,-0.1692878,-2.5127363,0.2622434,1.5985252,1.0326252,0.04,0.04,0.009863731210013604,-0.005486290289594131,0.002265437223814004,0.2618837910042026,0.09627704641407095,0.26571740789040277,0.961874671868881,0.18893667555517982,-0.061585473303003485,0.18790230899415303
48.18333333333188,-0.010461025,-0.8217793,-0.17133795,-2.51463,0.26541737,1.5988588,1.0356117,0.04,0.04,0.007944079654698122,-0.005811879115619201,0.0018245738697908465,0.2622048403433991,0.09707929048768409,0.26629616541103923,0.9609400347656823,0.19116776998106735,-0.0625126595828021,0.19010865497625223
48.199999999998546,-0.010588835,-0.82222736,-0.17339174,-2.5165272,0.26859692,1.5991931,1.0386032,0.04,0.04,0.009075846643624708,-0.005456772033629598,0.002129233754111226,0.26248605189762186,0.09786883794070114,0.2668418461214228,0.9599924294342123,0.193399916525853,-0.06344585856829868,0.19231648589583714
48.21666666666521,-0.010716858,-0.822676,-0.17544898,-2.5184271,0.27178177,1.5995278,1.0415994,0.04,0.04,0.009434406049790844,-0.005342043743486458,0.002474485744508037,0.2627325183348417,0.09864932688717278,0.26735873095118157,0.9590318753182636,0.19563292333054977,-0.06438506649419856,0.1945255372572333
48.23333333333188,-0.010845078,-0.8231253,-0.17750941,-2.5203307,0.2749715,1.5998632,1.0446,0.04,0.04,0.008268391005272768,-0.005442661577101382,0.002096715183474984,0.2629424681973474,0.09942075491539558,0.26784434154138725,0.9580584211661702,0.197866490428183,-0.06533052383436347,0.19673544737475887
48.24999999999854,-0.010973482,-0.8235753,-0.17957264,-2.5222368,0.27816567,1.6001991,1.0476048,0.04,0.04,0.009816926280881155,-0.005246254907823045,0.0026395158688741205,0.26311619172827283,0.10017757020076144,0.2682983158379192,0.9570721739923796,0.2001002766282354,-0.06628171139502005,0.19894589163225
48.26666666666521,-0.011102051,-0.8240258,-0.18163851,-2.5241446,0.2813639,1.6005356,1.0506135,0.04,0.04,0.011042669745608968,-0.004803621699936422,0.003295254603985498,0.26325330031666827,0.10092329183156151,0.2687220495206684,0.9560732103067516,0.20233403301301625,-0.06723825186437883,0.201156588519123
48.283333333331875,-0.0112307705,-0.82447684,-0.18370682,-2.5260553,0.28456596,1.6008724,1.0536258,0.04,0.04,0.009042130660019687,-0.0052280194960174775,0.0022886004263700244,0.2633518655707289,0.10166103750597588,0.2691157969332366,0.9550615448376951,0.20456745163818463,-0.06820085521703063,0.20336727035135232
48.29999999999854,-0.011359625,-0.8249284,-0.18577725,-2.5279677,0.2877712,1.6012094,1.0566415,0.04,0.04,0.010828407294427578,-0.0047312834630858225,0.0029686866473088713,0.2634136372928947,0.10238346932398623,0.26947583347417914,0.9540373266080687,0.20680020121858744,-0.06916890039415366,0.20557752657512093
48.316666666665206,-0.011488599,-0.8253804,-0.18784958,-2.529882,0.29097942,1.6015466,1.0596604,0.04,0.04,0.010273636177382528,-0.004821904637400398,0.002874478006420489,0.26343756459156437,0.10309434943674126,0.2698058112225649,0.9530005700830272,0.20903216749031378,-0.07014256917877523,0.2077871178988903
48.33333333333187,-0.011617673,-0.8258326,-0.18992352,-2.5317974,0.29419008,1.6018842,1.0626807,0.04,0.04,0.011131187815682786,-0.0044628721360961965,0.0034292168862526395,0.26342198256746474,0.10378907962718797,0.2701043837728805,0.9519515888336458,0.2112622256595541,-0.07112131726368287,0.2099957208067519
48.34999999999854,-0.01174684,-0.82628536,-0.19199882,-2.533714,0.2974029,1.6022218,1.0657036,0.04,0.04,0.011284710166314937,-0.004536939772645243,0.0030417178178199222,0.26337393292785116,0.1044738026890608,0.2703720945797851,0.9508903093239575,0.21349078764075965,-0.07210531041365666,0.21220303352324318
48.3666666666652,-0.011876075,-0.8267383,-0.19407526,-2.5356317,0.30061743,1.60256,1.0687276,0.04,0.04,0.01129860842545849,-0.004217736131476024,0.0037401001943493384,0.2632866010336227,0.10514463322489895,0.2706076764900296,0.9498169650265733,0.21571706925158088,-0.07309414165589687,0.21440878115600942
48.38333333333187,-0.0120053645,-0.8271914,-0.19615255,-2.5375502,0.30383334,1.6028984,1.0717541,0.04,0.04,0.011091264760620945,-0.0043000548472449385,0.003361245566679827,0.26316412453906984,0.10580402559731134,0.27081257223295474,0.9487314730303803,0.21794154872673482,-0.07408818924166415,0.21661258881950593
48.399999999998535,-0.012134697,-0.82764477,-0.19823048,-2.5394697,0.30705017,1.6032367,1.074781,0.04,0.04,0.010984687522186398,-0.004212373941933634,0.003214399421036518,0.26299944540672066,0.10644649128942232,0.27098476297069696,0.9476341518712982,0.22016304749237395,-0.07508724031032853,0.21881419759379245
48.4166666666652,-0.012264052,-0.82809794,-0.20030874,-2.5413895,0.31026745,1.603575,1.0778081,0.04,0.04,0.011555855703138107,-0.0038880405171914934,0.0037640382422932106,0.26280041026320794,0.10707436947289295,0.27112413129803364,0.9465251151589665,0.22238143235468383,-0.07609112278101225,0.22101322573798432
48.433333333331866,-0.012393414,-0.82855123,-0.20238712,-2.5433092,0.31348494,1.6039134,1.0808355,0.04,0.04,0.012181306722114371,-0.0037816964282316734,0.0038783030872791002,0.262566340262273,0.10768564468158665,0.27123364286930574,0.9454044804987202,0.22459643449622244,-0.0770994836868679,0.22320949684040692
48.44999999999853,-0.012522765,-0.8290047,-0.20446536,-2.5452287,0.3167022,1.6042519,1.0838627,0.04,0.04,0.012440838407257182,-0.0036396908806607398,0.0038728315970182337,0.26229562420841385,0.1082825805155192,0.27131150016994793,0.9442723927035451,0.22680776641959247,-0.07811219072015803,0.2254026866090444
48.4666666666652,-0.012652093,-0.8294579,-0.2065431,-2.5471473,0.31991878,1.6045903,1.0868895,0.04,0.04,0.012945833453037459,-0.003386560752252632,0.004446213478592753,0.2619874164347818,0.10886594339035058,0.27135579273624066,0.9431290073916079,0.2290151807166908,-0.07912907024260886,0.22759242663226348
48.48333333333186,-0.01278138,-0.829911,-0.2086202,-2.5490658,0.3231344,1.6049286,1.0899159,0.04,0.04,0.011486094417190174,-0.0036160894941655863,0.003649759107537953,0.2616419710805666,0.10943471078293897,0.2713695121455938,0.9419743940882802,0.23121850674683816,-0.08015050978526896,0.22977845591121263
48.49999999999853,-0.012910609,-0.830364,-0.21069643,-2.5509837,0.32634848,1.6052667,1.0929396,0.04,0.04,0.012349776330178308,-0.003224585341393693,0.0039626206759901805,0.26125875490368444,0.10998446143491242,0.2713504183785338,0.9408089557013667,0.23341656742530287,-0.08117596792917321,0.23196050774701854
48.516666666665195,-0.013039766,-0.8308167,-0.21277148,-2.5529,0.32956076,1.6056048,1.0959625,0.04,0.04,0.01322595196582288,-0.002938086184045563,0.004615830363130513,0.26084511890053363,0.11051845857380355,0.2712998779529628,0.9396326220715558,0.23561008645311154,-0.08220524490418904,0.2341382506356711
48.53333333333186,-0.013168836,-0.83126926,-0.21484503,-2.554816,0.33277085,1.6059426,1.0989825,0.04,0.04,0.011655040035085662,-0.003345307683466636,0.0037366570156072143,0.26039186326015945,0.11103696260626136,0.27121600987870975,0.9384457439926741,0.23779789150230285,-0.08323856893866437,0.23631142380371423
48.549999999998526,-0.013297804,-0.83172125,-0.21691687,-2.55673,0.33597836,1.6062801,1.1020011,0.04,0.04,0.013267944340200621,-0.002744176387325936,0.004654398990822095,0.25990713284320166,0.11153764452321369,0.27110026698325906,0.9372482886813569,0.2399806362543126,-0.08427568273655292,0.23847966136786403
48.56666666666519,-0.0134266475,-0.83217293,-0.21898684,-2.5586421,0.33918273,1.6066171,1.1050162,0.04,0.04,0.013314430515509734,-0.002530647103496375,0.0043882931938243885,0.25938234975677965,0.11201806384671692,0.27095251214133853,0.9360406649446743,0.24215715605813512,-0.0853162160798263,0.24064274062100546
48.58333333333186,-0.013555358,-0.8326241,-0.22105455,-2.5605521,0.3423838,1.6069539,1.108028,0.04,0.04,0.01337190783501363,-0.0025434821720793366,0.004772627119109529,0.25882500619095755,0.11248325972858357,0.27077240371179767,0.9348229924796346,0.24432740578560536,-0.08636003641121119,0.2428004028508839
48.59999999999852,-0.013683913,-0.8330746,-0.22311991,-2.56246,0.34558108,1.6072899,1.1110362,0.04,0.04,0.013001633673481727,-0.0024090230039047755,0.004370555368815587,0.25823348818379593,0.11293143890106999,0.27055963587281895,0.9335954439956818,0.24649107838921983,-0.08740732302201579,0.24495235272834273
48.61666666666519,-0.013812305,-0.8335247,-0.22518246,-2.564365,0.3487741,1.6076256,1.1140404,0.04,0.04,0.014095202847497212,-0.0021052526111398073,0.004967979044545601,0.257608398120733,0.11335914227431301,0.2703145475395685,0.932358283513015,0.2486478911682438,-0.08845742488280678,0.2470982423356187
48.633333333331855,-0.0139405085,-0.8339742,-0.22724211,-2.5662677,0.35196254,1.6079609,1.1170403,0.04,0.04,0.012635039011055227,-0.0021818919990257424,0.004508306469341861,0.25694865897696295,0.11377210987742703,0.2700384528580098,0.9311116379214619,0.25079764542700317,-0.08951067512202664,0.24923783383483883
48.64999999999852,-0.014068513,-0.8344229,-0.22929856,-2.5681677,0.35514593,1.6082956,1.120036,0.04,0.04,0.013304257058033286,-0.00195160464723787,0.004678978968275516,0.25625492152936635,0.11416306720602346,0.2697292782172077,0.9298556917906613,0.2529402142762648,-0.09056694975508159,0.25137077805196106
48.666666666665186,-0.014196302,-0.8348708,-0.23135157,-2.5700638,0.35832396,1.6086298,1.1230271,0.04,0.04,0.014696731979602085,-0.001435261418039624,0.005486916881247694,0.25552540875683083,0.1145323227449378,0.26938880458083864,0.9285907017418833,0.2550752782870389,-0.0916255098182706,0.25349689740872283
48.68333333333185,-0.014323862,-0.835318,-0.23340085,-2.5719569,0.36149633,1.6089637,1.1260117,0.04,0.04,0.013409131087294135,-0.001717779669557773,0.004958597419468802,0.2547601646455958,0.11488523489603433,0.26901629359302487,0.9273170310343302,0.25720190968509976,-0.09268641526006219,0.25561598157050364
48.69999999999852,-0.014451175,-0.83576435,-0.23544618,-2.5738459,0.36466256,1.6092969,1.1289914,0.04,0.04,0.014434354797621118,-0.0012921963703560468,0.005271484707147778,0.2539651122567812,0.11522083959821255,0.2686141114304843,0.9260347139718862,0.25932060727339123,-0.09374958552757189,0.25772765931458536
48.71666666666518,-0.014578226,-0.8362098,-0.2374873,-2.575731,0.36782223,1.609629,1.1319642,0.04,0.04,0.013743231548590806,-0.0014111676871042533,0.004776342899792674,0.2531337182646423,0.11553656631395609,0.2681762717585251,0.9247441586102526,0.261430390603215,-0.09481503347538141,0.25983167900071086
48.73333333333185,-0.014705002,-0.8366542,-0.23952398,-2.5776126,0.37097502,1.6099607,1.1349316,0.04,0.04,0.01311474816485525,-0.0012740016173018454,0.005038240922661252,0.2522731942665116,0.11583219952427272,0.26770653890732193,0.9234453487015978,0.2635318781486416,-0.09588277132235688,0.2619277215652797
48.749999999998515,-0.014831482,-0.8370976,-0.24155591,-2.57949,0.37412053,1.6102915,1.1378919,0.04,0.04,0.013954026085616356,-0.00106935031572164,0.0051453497458719966,0.2513756737420708,0.11610512299348116,0.26720363361813027,0.9221387180849798,0.2656241603764036,-0.09695236833496063,0.2640155834551494
48.76666666666518,-0.014957655,-0.83754,-0.2435829,-2.5813625,0.37725827,1.6106217,1.1408447,0.04,0.04,0.014455315318340212,-0.000617477142292322,0.005523626261583203,0.25044689770929207,0.11635624187534394,0.2666678886135466,0.9208245568278309,0.2677069459103541,-0.09802335627277543,0.2660949985986209
48.783333333331846,-0.015083506,-0.83798116,-0.24560471,-2.5832303,0.38038796,1.6109507,1.1437898,0.04,0.04,0.013966702141421372,-0.0007804935132693647,0.005077572182310419,0.24948723937777806,0.1165889109632639,0.26610305375192256,0.9195030686194635,0.26977997395596637,-0.09909602317905788,0.26816571488876834
48.79999999999851,-0.015209015,-0.8384212,-0.24762109,-2.5850923,0.38350922,1.6112789,1.1467272,0.04,0.04,0.015342214802593901,-0.00019990203577457955,0.005842280068324435,0.24849690786907253,0.1168011107672938,0.26550278922423,0.9181744878403612,0.2718432136887447,-0.1001696632132034,0.27022752565610264
48.81666666666518,-0.015334168,-0.83886003,-0.24963178,-2.5869498,0.38662162,1.6116062,1.1496568,0.04,0.04,0.013032832756998403,-0.0006263443081439002,0.005026564964660807,0.24747366021336137,0.11699360315538537,0.26487319833690526,0.9168389993282653,0.2738965197507492,-0.10124483142166596,0.2722800578257084
48.833333333331844,-0.015458953,-0.8392976,-0.25163653,-2.5888011,0.38972494,1.6119326,1.1525767,0.04,0.04,0.01546395156926117,3.4313405342101255e-05,0.005936199277534193,0.24641872921661379,0.11716222704114387,0.26421148160042024,0.9154971161033127,0.2759389107229026,-0.1023204678209041,0.2743232943453521
48.84999999999851,-0.015583355,-0.83973384,-0.2536351,-2.5906475,0.39281857,1.6122581,1.1554879,0.04,0.04,0.013138819621683062,-0.0002800676304620664,0.005064692746992172,0.24533561548374255,0.11731532312742023,0.26351669930041055,0.914148896627362,0.2779707889671384,-0.10339724901314597,0.2763567335392368
48.866666666665175,-0.015707359,-0.84016883,-0.25562727,-2.5924876,0.39590243,1.6125823,1.1583903,0.04,0.04,0.014900872762879658,6.731798291303992e-05,0.005584913805822822,0.2442226002913611,0.11744258632040146,0.26279205353860036,0.9127945892029716,0.27999193843462516,-0.1044746117601546,0.2783803294612684
48.88333333333184,-0.015830949,-0.84060234,-0.25761276,-2.5943213,0.3989761,1.6129057,1.1612827,0.04,0.04,0.014788545709620848,0.0003511776905024133,0.005975359769583299,0.24307715782509626,0.11754952177840623,0.26203315090354284,0.9114345919470742,0.2820018056105401,-0.10555215030922228,0.2803938476496314
48.899999999998506,-0.015954107,-0.84103423,-0.2595914,-2.596149,0.40203896,1.613228,1.1641647,0.04,0.04,0.013483509102640845,0.0002825467494221856,0.005309019673083171,0.24190331631251263,0.11763676428831224,0.2612421556329888,0.9100691750670158,0.2840001465940177,-0.1066302024549154,0.2823969072986484
48.91666666666517,-0.016076824,-0.84146464,-0.2615629,-2.59797,0.40509063,1.613549,1.167037,0.04,0.04,0.01443144041968214,0.0006612343697337542,0.005618733939516396,0.2407023164178992,0.11770015008224105,0.2604242045293631,0.908698521051217,0.28598716488714676,-0.10770839618922623,0.2843892416205076
48.93333333333184,-0.016199078,-0.84189343,-0.2635271,-2.5997841,0.40813097,1.6138687,1.1698983,0.04,0.04,0.014481278240752182,0.000666842969068715,0.0056636227689699226,0.23946985249278724,0.11773964556960523,0.25957165603076293,0.9073230276027876,0.28796213961427425,-0.10878646992201636,0.2863707975551744
48.949999999998504,-0.01632086,-0.8423205,-0.26548362,-2.6015916,0.41115952,1.6141876,1.1727483,0.04,0.04,0.013700580554654174,0.0007546324755081102,0.005772516227819935,0.23821071301672325,0.11775799958503438,0.2586878846463413,0.9059429629402298,0.2899250278482477,-0.10986427935469384,0.28834123230669584
48.96666666666517,-0.016442152,-0.842746,-0.26743242,-2.603392,0.41417605,1.6145048,1.1755872,0.04,0.04,0.014298186289152248,0.0008281831127138206,0.005333736840396064,0.2369221736641833,0.11775582909440914,0.25777095996271543,0.9045585429801937,0.2918756420020313,-0.11094184543383162,0.2903004630709138
48.983333333331835,-0.016562944,-0.8431698,-0.26937303,-2.6051848,0.41718006,1.614821,1.1784143,0.04,0.04,0.01420240107059545,0.001048677034035106,0.0058434226901216135,0.23560742700801074,0.11772955046387878,0.25682386490903564,0.9031701506770742,0.2938137525728178,-0.11201870422565875,0.2922481268180079
48.9999999999985,-0.016683213,-0.8435918,-0.27130556,-2.60697,0.4201711,1.6151359,1.1812295,0.04,0.04,0.014175325714838038,0.0015349825724736421,0.005810204773104566,0.23426489280555576,0.11768030606001187,0.2558450786898613,0.9017780359009802,0.2957392080483555,-0.11309470084633765,0.2941840978536731
49.01666666666517,-0.01680296,-0.8440119,-0.2732295,-2.608747,0.42314893,1.615449,1.1840317,0.04,0.04,0.014813048568163012,0.0013992069556240105,0.00568592913112731,0.23289505441156466,0.11760866713861737,0.25483725591877715,0.900382644687182,0.2976513929239729,-0.11416968256978653,0.29610813061861146
49.03333333333183,-0.016922157,-0.8444299,-0.2751446,-2.6105156,0.42611337,1.6157608,1.1868217,0.04,0.04,0.014496726655099934,0.0015238473447587442,0.006189263000111467,0.23150136627747653,0.1175166116782122,0.2537971339800738,0.8989841011256301,0.2995506545952405,-0.1152434184609993,0.2980200425413179
49.0499999999985,-0.017040793,-0.8448461,-0.27705064,-2.6122763,0.42906386,1.6160712,1.1895984,0.04,0.04,0.013610264192065458,0.0014103501404738594,0.0054583730121793295,0.23007981565762425,0.11740118546940495,0.25272597729888807,0.8975828247204858,0.3014364571979804,-0.11631589742636987,0.2999195676254251
49.066666666665164,-0.017158858,-0.84526044,-0.2789475,-2.614028,0.4320001,1.61638,1.1923622,0.04,0.04,0.015055426595611543,0.0020140601261264823,0.005990512120557234,0.2286340175176585,0.1172625422942209,0.25162522789226727,0.8961790618211681,0.3033088266173138,-0.11738666534524142,0.3018065864895656
49.08333333333183,-0.017276337,-0.84567267,-0.280835,-2.6157713,0.4349217,1.6166874,1.195112,0.04,0.04,0.01345556630616418,0.0019023551087404833,0.005720600014691435,0.22716154764657262,0.11710209043702526,0.2504940709241233,0.8947731592500093,0.3051674184751087,-0.11845576635550059,0.30368087131745075
49.099999999998495,-0.017393216,-0.8460827,-0.28271294,-2.6175058,0.43782842,1.616993,1.1978477,0.04,0.04,0.013732328405402505,0.0019438689505296702,0.005527991846276947,0.22566649569885514,0.11691709150166446,0.24933552411396956,0.8933654010536888,0.30701205019075856,-0.1195232103949875,0.30554224489376997
49.11666666666516,-0.017509481,-0.8464906,-0.28458098,-2.6192315,0.44071996,1.617297,1.2005692,0.04,0.04,0.013615393522026231,0.002003121290414245,0.005728926458026251,0.22414729829258134,0.11670881610282055,0.24814409207297164,0.8919560998032627,0.3088426157038117,-0.12058860918212609,0.30739053675170325
49.13333333333183,-0.017625116,-0.84689647,-0.28643903,-2.6209476,0.4435959,1.6175997,1.2032759,0.04,0.04,0.014377586615865745,0.0025645634648407967,0.006055291291984233,0.2226038189947484,0.116477450799665,0.24692058264669273,0.8905456045074314,0.31065892681850493,-0.12165147692326488,0.30922560638287516
49.14999999999849,-0.017740112,-0.84729993,-0.28828686,-2.6226544,0.44645596,1.6179006,1.2059678,0.04,0.04,0.013379818101055818,0.0022990411917223064,0.005628843124405591,0.22103675033462822,0.11622594977352796,0.245669103700164,0.8891341739993527,0.31246084481166836,-0.12271212140948325,0.31104722526531525
49.16666666666516,-0.017854456,-0.8477012,-0.29012427,-2.6243513,0.44929975,1.6182001,1.2086446,0.04,0.04,0.014362092221498202,0.002858312994541423,0.006159434587571511,0.21944650328762438,0.11594733135920113,0.2443867572307182,0.8877221554437598,0.3142482962755655,-0.12376984375834582,0.3128552521506141
49.183333333331824,-0.017968128,-0.8481002,-0.29195097,-2.6260388,0.45212692,1.6184974,1.2113061,0.04,0.04,0.012759352401636725,0.002253280665104329,0.005061097537462089,0.21783192798148845,0.11564951263457893,0.24307441945189018,0.8863098510481338,0.3160210031499309,-0.12482522170094333,0.3146493882569242
49.19999999999849,-0.01808112,-0.8484969,-0.29376668,-2.6277153,0.4549372,1.618793,1.2139513,0.04,0.04,0.015126466996573384,0.0031714379435610063,0.00637949730801779,0.21619688880942223,0.1153245907056432,0.2417331051539819,0.8848977634694319,0.31777857118708264,-0.12587700461911586,0.31642962504988786
49.216666666665155,-0.018193427,-0.8488912,-0.2955713,-2.6293824,0.45773032,1.619087,1.2165804,0.04,0.04,0.012417107712647812,0.0025608056449355487,0.005395701311150525,0.21454070465650157,0.11498148390421781,0.2403634482252609,0.8834860256055216,0.31952110902837755,-0.1269258953346037,0.3181957267760594
49.23333333333182,-0.018305026,-0.8492829,-0.29736462,-2.6310387,0.46050587,1.6193792,1.2191932,0.04,0.04,0.013769898408910741,0.0031983038203342584,0.005971344541433332,0.21286442480697093,0.11461281513719426,0.23896420660248985,0.8820749964281659,0.3212485470935226,-0.12797133473871494,0.319947509994599
49.24999999999849,-0.018415907,-0.849672,-0.2991464,-2.632684,0.46326363,1.6196693,1.221789,0.04,0.04,0.013777211674304013,0.003181180236083714,0.0058658233598407605,0.21116661690759736,0.11422159604672438,0.23753855647556668,0.8806650820827603,0.3229604636075695,-0.12901313349945195,0.3216848823479297
49.26666666666515,-0.01852606,-0.85005856,-0.30091652,-2.6343193,0.4660033,1.6199576,1.2243679,0.04,0.04,0.012038109503231809,0.0028000257881299895,0.005186814829638564,0.20944992211142174,0.11380981999693013,0.23608301752693023,0.8792564673698094,0.32465697139928207,-0.13005161361142337,0.323407627163111
49.28333333333182,-0.018635476,-0.85044277,-0.30267477,-2.635943,0.46872452,1.620244,1.2269294,0.04,0.04,0.014550415855185683,0.0037627687696162315,0.006154485107745522,0.20771500306482443,0.11336937949333178,0.2346018054235947,0.8778496021115985,0.326337829571862,-0.13108565590557658,0.3251157453563874
49.299999999998484,-0.018744132,-0.85082424,-0.30442092,-2.6375556,0.47142693,1.6205285,1.2294735,0.04,0.04,0.012635867772914366,0.0033159560088258377,0.005500672436142828,0.20595799312817317,0.11291367007616689,0.23308869750476513,0.8764447506667514,0.32800297552899915,-0.13211578382456315,0.32680891471506734
49.31666666666515,-0.018852023,-0.8512031,-0.3061548,-2.6391566,0.47411036,1.6208109,1.2319995,0.04,0.04,0.01360199493298797,0.0036607613803807393,0.005828951868380727,0.20418346605683818,0.11243152203092249,0.23155001234863876,0.8750422896373915,0.3296521641541292,-0.13314143931231126,0.328487136966574
49.333333333331815,-0.01895914,-0.85157907,-0.3078762,-2.640746,0.4767745,1.6210912,1.2345074,0.04,0.04,0.012664531055062156,0.0035678617501422316,0.005616069776825938,0.2023911001599249,0.11192962639019408,0.22998390806923957,0.8736424787568984,0.33128540327516626,-0.13416274123965619,0.3301502078620787
49.34999999999848,-0.019065462,-0.8519525,-0.3095849,-2.6423235,0.47941902,1.6213694,1.2369969,0.04,0.04,0.013696570983379175,0.0038255264507180975,0.005678087100102758,0.2005801614343841,0.11140439050002214,0.2283885840451199,0.8722457510615825,0.3329024024784322,-0.13517917560909581,0.33179802690906557
49.36666666666515,-0.019170983,-0.8523229,-0.31128082,-2.6438897,0.4820437,1.6216453,1.2394676,0.04,0.04,0.011479130925806658,0.003466663716239493,0.00517991224773251,0.19875326736006527,0.11085971364121337,0.22676792575425775,0.8708522679844687,0.33450325167107325,-0.136191244890205,0.33343042270171147
49.38333333333181,-0.019275697,-0.85269064,-0.31296378,-2.6454437,0.4846482,1.6219193,1.2419193,0.04,0.04,0.013019887829868182,0.004056981951433558,0.00561478249794245,0.19691069856563934,0.11028859099887223,0.2251196757207929,0.8694624742548825,0.33608771910166985,-0.13719809569342556,0.33504736003990887
49.39999999999848,-0.01937959,-0.8530555,-0.3146335,-2.6469853,0.48723227,1.6221913,1.244352,0.04,0.04,0.012806450274238657,0.004094579376656693,0.005828094945248274,0.19505200145378887,0.109697035440875,0.22344558677891663,0.8680766299405602,0.33765590859911665,-0.1381996269068182,0.33664865225032614
49.416666666665144,-0.019482646,-0.8534173,-0.31628987,-2.6485157,0.4897957,1.6224612,1.2467651,0.04,0.04,0.010531352432718855,0.003439497856227991,0.004796387498373633,0.19317543432429568,0.10908470967793596,0.22174484187747173,0.8666949857386146,0.33920763792367503,-0.13919640431445116,0.3382341512853359
49.43333333333181,-0.019584864,-0.85377634,-0.31793267,-2.6500337,0.49233818,1.622729,1.2491585,0.04,0.04,0.012318496527230494,0.0040499148063644075,0.005341068741882005,0.19128555218112986,0.1084455967856118,0.22001760635822848,0.8653179875922888,0.34074270939466544,-0.1401875856980906,0.3398038068647177
49.449999999998475,-0.019686224,-0.85413224,-0.31956172,-2.651538,0.49485934,1.6229943,1.2515321,0.04,0.04,0.013757317201834596,0.004787626675156753,0.006094074313978126,0.18938291993464143,0.10778498621480873,0.21826903671726472,0.8639459791906555,0.34226111576133006,-0.14117268201831124,0.34135750691886885
49.46666666666514,-0.019786712,-0.85448515,-0.32117695,-2.65303,0.4973591,1.6232574,1.2538853,0.04,0.04,0.011125506755460535,0.0039047634342925797,0.004938693895839563,0.1874630164869447,0.10710688649535584,0.2164915477748829,0.8625791845810437,0.3437627115506697,-0.14215219844758503,0.342895174873242
49.48333333333181,-0.019886333,-0.8548351,-0.32277808,-2.6545093,0.49983707,1.6235181,1.2562181,0.04,0.04,0.011476443876823339,0.004108199675745272,0.005009370317554662,0.18553042469959893,0.10640677808498353,0.21468905221839205,0.8612179515904697,0.3452474692877838,-0.14312586410772987,0.34441662537123835
49.49999999999847,-0.01998507,-0.85518193,-0.32436505,-2.6559753,0.50229305,1.6237764,1.2585304,0.04,0.04,0.012181910512332195,0.004558617132377485,0.0054003429032611905,0.18358562552394678,0.1056838009053753,0.21286174410099018,0.8598625736361197,0.34671538179872313,-0.14409328401855845,0.34592184664282366
49.51666666666514,-0.020082911,-0.8555255,-0.3259377,-2.657428,0.50472677,1.6240327,1.2608215,0.04,0.04,0.011708860805526022,0.0046824647761178895,0.005576972811960346,0.18162844903941772,0.10493844890605222,0.21101126019475974,0.8585134305599084,0.34816627172982345,-0.14505416329212456,0.3474107460767923
49.533333333331804,-0.020179847,-0.8558659,-0.32749584,-2.6588674,0.5071381,1.6242863,1.2630914,0.04,0.04,0.011516131993616341,0.0043688816752318615,0.004924657267380006,0.17965812950793852,0.10417643330349412,0.20913667012195306,0.857170765418128,0.3496000788552057,-0.1460087229998484,0.348883242052249
49.54999999999847,-0.02027587,-0.8562033,-0.32903942,-2.6602926,0.5095266,1.6245377,1.2653402,0.04,0.04,0.012483480080649478,0.0051021764973957495,0.005621063805216764,0.17767649099341787,0.10339207942596718,0.20723703708161942,0.8558349213216544,0.351016858063132,-0.146956154833205,0.35033932316895805
49.566666666665135,-0.020370973,-0.8565375,-0.33056802,-2.6617048,0.5118922,1.6247867,1.2675672,0.04,0.04,0.010465185875285776,0.004211685694249789,0.004770343510407393,0.17568204488819933,0.10259126268723369,0.20531504015602267,0.8545062402616335,0.3524163786470682,-0.14789694920453894,0.3517787285087086
49.5833333333318,-0.020465141,-0.85686827,-0.33208165,-2.6631026,0.5142346,1.6250333,1.2697725,0.04,0.04,0.011768069272455328,0.004982935871772343,0.005420823710311495,0.17367982295831652,0.10176896808416103,0.20337296771620722,0.8531849622376889,0.3537987934104734,-0.14883064683990954,0.35320146170985844
49.59999999999847,-0.020558374,-0.8571958,-0.33358023,-2.664487,0.5165536,1.6252775,1.2719558,0.04,0.04,0.010617164869874962,0.004719567201100228,0.004924930576155617,0.17166613193156754,0.1009271359842593,0.20140903800393015,0.851871382668448,0.35516399855655767,-0.1497572165791629,0.3546074697497584
49.61666666666513,-0.020650653,-0.8575201,-0.33506367,-2.6658568,0.51884884,1.6255192,1.274117,0.04,0.04,0.011369198435495775,0.005049870336343298,0.0050042990053844605,0.1696439452842943,0.1000649061795206,0.19942584622555798,0.8505658369968813,0.3565119008533433,-0.1506763720662896,0.3559967027721908
49.6333333333318,-0.020741979,-0.8578409,-0.33653167,-2.6672125,0.5211204,1.6257583,1.2762556,0.04,0.04,0.010916384572889903,0.004819048291965222,0.005110163658228473,0.16761183769107446,0.09918497543398569,0.19741952730933127,0.8492685998153637,0.35784244653806774,-0.15158805362371508,0.35736912404665794
49.649999999998464,-0.020832337,-0.85815847,-0.33798414,-2.668554,0.5233681,1.6259949,1.278372,0.04,0.04,0.010548812532085172,0.004713887047103071,0.00474119560931463,0.16557043292937876,0.09828709443208652,0.19539126020409614,0.847979860028385,0.35915580758963234,-0.15249223385095464,0.3587246596988074
49.66666666666513,-0.02092172,-0.85847265,-0.339421,-2.6698813,0.5255917,1.6262289,1.2804656,0.04,0.04,0.010435335029690407,0.004840465222094581,0.00474129343126517,0.16351989013119284,0.09736960600629853,0.19334071571278888,0.8466999943167257,0.3604517430942616,-0.15338872063391878,0.36006327347655853
49.683333333331795,-0.021010121,-0.8587833,-0.3408422,-2.671194,0.5277909,1.6264606,1.2825363,0.04,0.04,0.010433011163191175,0.005104994781501837,0.004992196519171266,0.16146196321931344,0.09643496638201592,0.19126963070500674,0.8454292286670115,0.36173038443026984,-0.1542772631359744,0.3613849393302168
49.69999999999846,-0.02109754,-0.8590905,-0.3422475,-2.6724923,0.5299654,1.6266894,1.2845839,0.04,0.04,0.010081135442030487,0.004988169051961533,0.004552900714438479,0.15939591372019313,0.09548056966217314,0.18917916905223248,0.8441679041440733,0.36299164454697297,-0.15515788661432786,0.36268946196913676
49.71666666666513,-0.021183958,-0.85939413,-0.34363678,-2.6737754,0.5321152,1.6269157,1.2866083,0.04,0.04,0.010555011251622837,0.005163715201078611,0.0049270540141810315,0.1573239031405516,0.09450858658163791,0.18707025602955946,0.8429162761880893,0.3642355040095066,-0.15603025146231156,0.36397693551206417
49.73333333333179,-0.021269375,-0.85969436,-0.34501004,-2.6750438,0.53424,1.6271393,1.2886091,0.04,0.04,0.010017416886398678,0.005170311697577645,0.004569172544321987,0.15524495736453126,0.0935200065560794,0.18494232610496175,0.84167465686924,0.36546187524694523,-0.1568942463118966,0.36524729321277005
49.74999999999846,-0.021353789,-0.859991,-0.34636703,-2.6762974,0.5363398,1.6273603,1.2905865,0.04,0.04,0.009689454957984012,0.004931817546399708,0.004558009182487055,0.15316086307054624,0.09251408995588943,0.1827968998124106,0.840443225577386,0.36667088138424075,-0.15774990399172284,0.36650050084083796
49.766666666665124,-0.021437183,-0.86028415,-0.3477077,-2.6775358,0.53841436,1.6275787,1.2925397,0.04,0.04,0.010161015690646202,0.005286325400272185,0.004719401555153269,0.1510716666182518,0.09149099867039115,0.1806333964589739,0.8392223755095614,0.36786231303070605,-0.15859677983730766,0.3677365694638273
49.78333333333179,-0.021519557,-0.8605737,-0.34903198,-2.6787593,0.5404634,1.6277944,1.2944694,0.04,0.04,0.009080436613029264,0.005037494973308965,0.004214747937858476,0.14897791801982693,0.09045347469436654,0.17845295529328098,0.838012204391785,0.36903646396573575,-0.15943519464798944,0.3689553526670198
49.799999999998455,-0.021600895,-0.86085975,-0.3503398,-2.6799676,0.54248685,1.6280073,1.2963747,0.04,0.04,0.009671387430509881,0.0052255374508980434,0.004428601287087552,0.14687972679775727,0.08939818878675654,0.17625616415613427,0.8368130913682118,0.37019306404542845,-0.1602646944601289,0.3701569574613389
49.81666666666512,-0.021681203,-0.8611421,-0.351631,-2.6811604,0.5444847,1.6282176,1.2982562,0.04,0.04,0.009664883408389002,0.005316679715083872,0.004637656309980365,0.14477936997066054,0.08832690740378901,0.17404461034146912,0.8356251588961947,0.3713324235553586,-0.16108520375916374,0.3713413283841185
49.83333333333179,-0.02176047,-0.86142087,-0.35290545,-2.6823378,0.5464565,1.6284254,1.3001132,0.04,0.04,0.009441452554570517,0.0054355143729978295,0.004536765620177796,0.14267325648221763,0.08724085377773308,0.17181521724627144,0.8344487850989811,0.3724543649417171,-0.16189642674399152,0.3725084134489101
49.84999999999845,-0.021838691,-0.8616959,-0.35416308,-2.6834993,0.54840255,1.6286299,1.3019456,0.04,0.04,0.009527213908189225,0.0051015618727445755,0.004213579727729844,0.14056371075659357,0.08614321067067385,0.1695723516482287,0.8332841835822454,0.3735587350242702,-0.16269855074732528,0.373658296393186
49.86666666666512,-0.021915875,-0.86196727,-0.35540393,-2.684645,0.55032235,1.6288319,1.3037531,0.04,0.04,0.00966967013100728,0.005725856047850142,0.004600710172231182,0.13845332701323618,0.08502976284360403,0.1673135091220182,0.8321316196860432,0.37464568021845046,-0.1634910319281373,0.3747909607920254
49.883333333331784,-0.021991996,-0.86223483,-0.3566278,-2.6857753,0.552216,1.6290312,1.3055365,0.04,0.04,0.00826556231559028,0.0050511967866928575,0.004118180604728572,0.1363388063720924,0.08390821307868186,0.1650366516609903,0.8309911152025321,0.37571555388186906,-0.1642743478802141,0.3759062750929048
49.89999999999845,-0.02206706,-0.8624988,-0.35783464,-2.6868901,0.55408335,1.6292278,1.3072947,0.04,0.04,0.008648674221589658,0.005172111040652183,0.004033727368524254,0.1342256288443075,0.08276571464776586,0.16275596559062583,0.8298630734564743,0.3767679707174513,-0.1650480902071182,0.37700438123954366
49.916666666665115,-0.02214106,-0.86275905,-0.35902435,-2.6879892,0.5559242,1.6294214,1.3090283,0.04,0.04,0.008548553222897937,0.005207981467930667,0.003952610755297847,0.1321082989889873,0.08161501272889486,0.16045227423482683,0.8287476472695086,0.3778031673387409,-0.16581234432157888,0.3780851363974145
49.93333333333178,-0.022213992,-0.8630155,-0.360197,-2.6890724,0.5577385,1.6296123,1.310737,0.04,0.04,0.00872546541679231,0.005561607599607887,0.004320586740980126,0.12999290689933674,0.0804489940946443,0.15814166222144324,0.827644988387155,0.3788212782606271,-0.16656677862343564,0.37914867874439745
49.94999999999845,-0.022285858,-0.8632682,-0.36135253,-2.6901395,0.559526,1.6298007,1.3124204,0.04,0.04,0.008569551382708873,0.005581538943033593,0.004167182091197041,0.12787581235725054,0.07926992368779201,0.15581879174884922,0.8265554414110747,0.3798221095670241,-0.1673111582449405,0.3801950074429379
49.96666666666511,-0.022356646,-0.8635172,-0.36249065,-2.6911905,0.56128705,1.629986,1.3140786,0.04,0.04,0.008885726601115529,0.005222570577301244,0.004059573001358174,0.12575816988867458,0.07808170032574652,0.15348516904186002,0.8254791542626737,0.3808057086145734,-0.16804553016966,0.38122418332830305
49.98333333333178,-0.022426356,-0.8637624,-0.36361143,-2.692226,0.56302106,1.6301684,1.3157117,0.04,0.04,0.007238247795138264,0.005030107966952357,0.0034668762053158275,0.12364259807422032,0.07688376048948276,0.15114156122379105,0.8244162655955111,0.38177229346973374,-0.16877025568380438,0.3822359713015433
49.999999999998444,-0.022494987,-0.8640038,-0.36471483,-2.6932445,0.56472826,1.6303482,1.3173194,0.04,0.04,0.009495507634982303,0.005944160651194519,0.004615544324337861,0.12152989204306588,0.07567022384718719,0.14878879417240887,0.8233670850176357,0.38272174042066953,-0.1694842958908599,0.3832307218443148
50.01666666666511,-0.022562532,-0.86424136,-0.36580086,-2.6942472,0.56640846,1.6305252,1.3189017,0.04,0.04,0.007392751174029044,0.005212072326532535,0.003657494278641593,0.11941581505157621,0.07445291786855662,0.14642641468748452,0.8223316768571471,0.38365422640381297,-0.17018826506925205,0.3842082797552941
50.033333333331775,-0.022628993,-0.86447513,-0.36686942,-2.6952338,0.56806165,1.6306993,1.3204583,0.04,0.04,0.007972867458239108,0.005321926450829739,0.003747134992893031,0.11730555092496579,0.07322316787598088,0.1440574218768583,0.8213102883440608,0.3845696552522114,-0.17088193973965496,0.38516873340161395
50.04999999999844,-0.022694366,-0.8647051,-0.36792052,-2.6962042,0.5696877,1.6308703,1.3219904,0.04,0.04,0.007780864741913085,0.005354540103458261,0.0036629966108314704,0.11519844554737424,0.07198521531700483,0.14167885776394257,0.8203028739470268,0.3854685547101,-0.17156546823833035,0.38611200244503874
50.06666666666511,-0.022758652,-0.8649312,-0.3689541,-2.6971588,0.57128674,1.6310388,1.3234961,0.04,0.04,0.006966477531644699,0.005106072474586609,0.0035532710581875904,0.11309306108066985,0.07073444152466894,0.13929649327172577,0.81930986717423,0.38635036387904115,-0.1722385252855291,0.3870382775500947
50.08333333333177,-0.022821842,-0.8651535,-0.3699701,-2.6980968,0.57285875,1.6312044,1.3249769,0.04,0.04,0.00825247450295663,0.005535268665673998,0.0039950775787556125,0.11099345610280867,0.0694758322963821,0.13690615550231444,0.8183311906743316,0.38721566642061983,-0.1729010132019551,0.3879475862558026
50.09999999999844,-0.022883942,-0.86537206,-0.37096855,-2.699019,0.57440346,1.6313671,1.3264321,0.04,0.04,0.006701991024948839,0.005023504225198927,0.0031869601273992743,0.10889406504803728,0.06821177155995116,0.1345080525047729,0.8173671260156993,0.3880642609255467,-0.1735531117774953,0.38883984890118145
50.116666666665104,-0.022944946,-0.8655867,-0.37194946,-2.699925,0.57592094,1.6315267,1.3278612,0.04,0.04,0.007100105664203937,0.005227563665843871,0.0033677387562658367,0.10680017857399612,0.06693712492515774,0.13210413191809772,0.8164178835505337,0.3888960208733098,-0.17419466067798245,0.3897152095557162
50.13333333333177,-0.023004862,-0.86579746,-0.37291282,-2.7008147,0.57741135,1.6316835,1.3292645,0.04,0.04,0.007139554939450399,0.005213634201012285,0.0035086888042989983,0.10471391319798268,0.06565623505042233,0.12969716486735816,0.8154834820289492,0.3897112139701275,-0.17482555683329817,0.39057378934306053
50.149999999998435,-0.023063684,-0.8660044,-0.37385857,-2.701688,0.57887435,1.6318374,1.3306426,0.04,0.04,0.00724988317160058,0.0054448430708620155,0.0035114540575253983,0.10263253000608319,0.064370488861243,0.1272851700190256,0.8145640695688489,0.3905100824859111,-0.17544568719303755,0.3914154607187167
50.1666666666651,-0.02312141,-0.8662076,-0.37478662,-2.7025447,0.5803101,1.6319888,1.331995,0.04,0.04,0.007650301056250086,0.005570885077593735,0.0038919689171468264,0.10055635605091359,0.06307767885956127,0.1248703707786907,0.813659833173893,0.391292597862803,-0.17605464557274936,0.3922404116220879
50.18333333333177,-0.023178043,-0.866407,-0.3756971,-2.703386,0.5817186,1.6321371,1.3333218,0.04,0.04,0.005319505271872416,0.00452106719326939,0.00250145479909758,0.09848531859898302,0.0617817422759947,0.12245695044934823,0.8127707453834314,0.39205882172831946,-0.1766533693484543,0.3930485756897
50.19999999999843,-0.02323358,-0.86660236,-0.37659004,-2.704211,0.5830999,1.6322825,1.3346227,0.04,0.04,0.006841605287499775,0.005360142305160798,0.0034611480617563473,0.09642330002050256,0.0604767148151384,0.12003862595794444,0.8118970360545901,0.3928087668118672,-0.1772411607280634,0.3938401281043877
50.2166666666651,-0.02328802,-0.86679393,-0.37746543,-2.7050192,0.5844539,1.6324251,1.335898,0.04,0.04,0.0072405576932110804,0.005522038289579312,0.003509171169246983,0.09436807683900954,0.059168957566181,0.11761978098223647,0.8110388171655936,0.3935425643464246,-0.17781783144090965,0.39461513645567037
50.233333333331764,-0.023341374,-0.86698174,-0.37832326,-2.705811,0.585781,1.6325648,1.3371478,0.04,0.04,0.0070596739110584394,0.0051815472313809785,0.0033910305865303414,0.09232174563973214,0.057858847450805634,0.11520456385862005,0.8101960641373727,0.39426034129934195,-0.17838347546498115,0.3953738188295616
50.24999999999843,-0.023393637,-0.86716574,-0.37916353,-2.7065868,0.5870808,1.6327015,1.338372,0.04,0.04,0.005956256731831644,0.004977347723778003,0.002862092059752186,0.09028131343328327,0.05654713094441858,0.11278661106173904,0.8093689612830453,0.39496213258104035,-0.1789383126141736,0.3961159913679746
50.266666666665095,-0.023444815,-0.8673459,-0.37998644,-2.707347,0.5883535,1.6328355,1.3395708,0.04,0.04,0.005642842859376884,0.0049606350980446745,0.0028917467992162216,0.08825105145767623,0.05523200539480361,0.11037042267768621,0.8085574335730926,0.3956482080637062,-0.17948237241362056,0.3968418451504963
50.28333333333176,-0.023494909,-0.86752224,-0.3807918,-2.7080908,0.58959913,1.6329668,1.340744,0.04,0.04,0.006165310740535723,0.005149426693851211,0.0031620657974018584,0.0862301845304119,0.053912628303248056,0.10795656801618109,0.8077616912631191,0.396318555080628,-0.1800153814722759,0.3975513997710731
50.29999999999843,-0.023543919,-0.86769474,-0.38157985,-2.7088184,0.59081787,1.6330951,1.3418921,0.04,0.04,0.006271315264694266,0.005133225521247731,0.0030873001105602427,0.08421934834134218,0.05259128810405026,0.10554727906207848,0.8069816659921619,0.3969733857519992,-0.1805374180664695,0.3982448523647255
50.31666666666509,-0.023591852,-0.86786336,-0.3823503,-2.7095294,0.5920097,1.6332206,1.343015,0.04,0.04,0.006822501568493067,0.005182439519674231,0.0032887651478130664,0.08221667711687103,0.05126974018921351,0.10314113368070771,0.8062175768952782,0.39761264464858376,-0.18104826475307953,0.3989222096481518
50.33333333333176,-0.023638703,-0.8680282,-0.3831035,-2.710225,0.59317476,1.6333432,1.3441125,0.04,0.04,0.004755661827737789,0.004575530378081449,0.0024591083891190024,0.08022509836793333,0.04994894303754163,0.100740712915807,0.8054693038036602,0.3982365531708823,-0.18154842726186804,0.3995835543504812
50.349999999998424,-0.023684474,-0.8681893,-0.38383937,-2.7109041,0.5943131,1.6334631,1.3451846,0.039999984,0.04,0.006825501320339988,0.00539664389780925,0.0034149896542601255,0.07824461264178947,0.0486262676878249,0.0983444442921663,0.804737081110218,0.3988450191123099,-0.18203716495450573,0.4002291238663596
50.36666666666509,-0.023729187,-0.8683466,-0.38455808,-2.7115676,0.59542465,1.6335801,1.3462317,0.03999997,0.04,0.004984569781729675,0.004668743485714,0.0023974363480450123,0.0762767907823319,0.04730667872831745,0.09595624533168604,0.8040207631108436,0.3994383759176688,-0.18251521231832138,0.4008588200393122
50.383333333331755,-0.023772828,-0.8685001,-0.3852597,-2.712216,0.5965097,1.6336942,1.3472537,0.039999958,0.04,0.004680819788971391,0.004481194796435162,0.0023459289365090896,0.07432116367139151,0.04598667617573934,0.09357494201225419,0.8033203907589168,0.4000166336973614,-0.1829825666792167,0.4014728170721625
50.39999999999842,-0.023815408,-0.86864996,-0.3859442,-2.7128484,0.59756833,1.6338056,1.348251,0.03999995,0.04,0.005445005299842265,0.004836816135012079,0.0028064744570288624,0.07237985962745104,0.044666613541689555,0.09120090251634741,0.8026359585303053,0.4005800687699364,-0.18343893667334799,0.4020712413124851
50.41666666666509,-0.023856936,-0.8687962,-0.38661164,-2.7134645,0.5986006,1.6339145,1.3492235,0.039999936,0.04,0.006598297394666552,0.0053274403956804495,0.003232927842833355,0.07045066731779187,0.043348164148112794,0.08883645058796358,0.8019676068206869,0.40112865293759997,-0.18388387799855355,0.40265429442013856
50.43333333333175,-0.023897413,-0.86893874,-0.38726228,-2.714065,0.5996067,1.6340203,1.3501712,0.039999917,0.04,0.004996836883663924,0.004685740149540374,0.0024079695303713677,0.06853421976419849,0.042036822811876665,0.0864834031985434,0.8013152352905611,0.4016624906517984,-0.1843180607349933,0.40322201053702184
50.44999999999842,-0.023936843,-0.86907756,-0.3878961,-2.71465,0.6005868,1.6341233,1.3510947,0.03999991,0.04,0.005471460929329375,0.004757690191115049,0.0026589211072902685,0.06663304319078575,0.04072909697973325,0.08414135078218682,0.8006787731079142,0.40218187683493106,-0.1847413963081616,0.4037745122343017
50.466666666665084,-0.023975236,-0.86921275,-0.38851306,-2.7152197,0.6015411,1.6342242,1.3519937,0.039999895,0.04,0.0045181055434939665,0.004481031469882879,0.0026901233862508533,0.06474545259450329,0.03942383184584035,0.08180907106860444,0.8000582339193788,0.40268690513074956,-0.18515379654976596,0.40431194688907107
50.48333333333175,-0.024012588,-0.86934435,-0.3891135,-2.7157743,0.6024696,1.634322,1.3528686,0.03999989,0.04,0.004858591027701031,0.004541735984847639,0.002223815458979317,0.0628711556294092,0.03812494373743637,0.0794884918333057,0.7994535725389551,0.4031776683705972,-0.18555556587831623,0.4048343921327935
