rsonawane2002/My_IMU/logs_2/traj_2001/clean_2001.csv
time,j1,j2,j3,j4,j5,j6,j7,gripper1,gripper2,imu_ax,imu_ay,imu_az,imu_gx,imu_gy,imu_gz,quat_x,quat_y,quat_z,quat_w
12.083333333333513,0.00016700293,-0.785875,4.0107683e-05,-2.3551247,9.29385e-05,1.570997,0.786,0.04,0.04,0.0,-0.0,0.0,2.875329272945135e-08,-0.0011641195053377316,4.421952117202833e-08,0.9999995971961153,0.00020320632366974898,0.0008736418299892524,3.263050917662294e-05
12.10000000000018,0.00016700721,-0.78576016,4.0107927e-05,-2.3552213,9.2971306e-05,1.5709941,0.786,0.04,0.04,-0.2919984596035041,-2.6944855768226998e-05,0.02012841019520817,-2.8369271459710997e-07,-0.0022387073317272385,1.987529037295311e-07,0.9999996850584102,0.00020320884442558073,0.00076650251850828,3.260575363965752e-05
12.116666666666848,0.00016702167,-0.7856543,4.0061586e-05,-2.35531,9.298252e-05,1.5709913,0.786,0.04,0.04,0.023328728134663912,5.9746506950826214e-05,-0.001670421923782861,-2.6499246377350016e-06,-0.0032291529898068154,1.024531534329441e-06,0.999999755842669,0.00020322236947341822,0.0006677972515529223,3.258990037628371e-05
12.133333333333516,0.00016706144,-0.78555703,3.989259e-05,-2.355391,9.295093e-05,1.5709884,0.786,0.04,0.039999995,0.022460754597419808,0.00014879447599944065,-0.0015248605240492097,-9.499985132076881e-06,-0.004143195858920993,3.904092962820436e-06,0.9999998122311631,0.00020326626091910199,0.000577198201312994,3.259910997980595e-05
12.150000000000183,0.00016714742,-0.7854678,3.9492403e-05,-2.3554652,9.2821705e-05,1.5709856,0.786,0.04,0.039999995,0.02065072240868826,0.0002949533945104197,-0.0015266101800692766,-2.2549188696030237e-05,-0.004986077268763105,7.832734998519093e-06,0.9999998567305137,0.00020336849589243478,0.0004940795188798296,3.264407708826959e-05
12.16666666666685,0.00016730542,-0.78538626,3.8722465e-05,-2.355532,9.252687e-05,1.5709827,0.7859981,0.04,0.04,0.021064730594622105,0.0004807557234648896,-0.0010992678247667698,-4.4442009870818395e-05,-0.005762601776222502,1.3369443799870958e-05,0.999999891366877,0.00020261148415116312,0.0004185008381946796,3.27394141936438e-05
12.183333333333518,0.00016756558,-0.785312,3.7417518e-05,-2.3555968,9.20067e-05,1.5709798,0.7859962,0.04,0.04,0.011282615470298296,0.0006879955754867664,-0.0033048901141752296,-6.859474375921348e-05,-0.00647423087484834,2.195017062569852e-05,0.9999999186756994,0.00020199245421537916,0.00034751169154655304,3.291302580485143e-05
12.200000000000186,0.00016796205,-0.7852449,3.53883e-05,-2.355655,9.118716e-05,1.5709769,0.7859927,0.04,0.04,0.01921680503385037,0.0009284701720258263,-0.0011866846009844778,-0.00010606161386788023,-0.007149380005834126,3.411241185671796e-05,0.9999999391461701,0.00020075645409985346,0.0002833770740154098,3.3195425051003844e-05
12.216666666666853,0.00016853257,-0.78518426,3.242448e-05,-2.3557067,8.998603e-05,1.5709739,0.78598887,0.04,0.04,0.018123839936823316,0.0011965333378235836,-0.000824877957938952,-0.00015179579385810014,-0.007767106906355645,5.0959893814696544e-05,0.9999999540394467,0.00019961466254180297,0.00022570952518088163,3.361995435740838e-05
12.23333333333352,0.00016931814,-0.7851305,2.829663e-05,-2.3557568,8.830562e-05,1.5709705,0.78598315,0.04,0.04,0.010301492288400382,0.0014957905204339775,-0.003422741133318752,-0.0002142609524995585,-0.00833346037520721,7.085724029200381e-05,0.9999999650340817,0.0001978231703176395,0.00017212487825353444,3.421775718649379e-05
12.250000000000188,0.00017036244,-0.78508323,2.2758439e-05,-2.355801,8.605638e-05,1.5709639,0.7859755,0.04,0.039999995,0.015849183874117045,0.0018050747486364938,-0.003620988401320524,-0.0002882795469098748,-0.008869231773512211,9.573033763193603e-05,0.9999999727244901,0.00019544707027603856,0.00012298074960722606,3.5031368173918535e-05
12.266666666666856,0.00017171193,-0.7850424,1.5549116e-05,-2.3558435,8.310705e-05,1.5709571,0.78596514,0.04,0.04,0.010320929975460302,0.002159693203879562,-0.002893437330730997,-0.0003766839788285756,-0.009372758475904932,0.00012346829985782092,0.9999999778522495,0.0001921382666467974,7.794932332978097e-05,3.608725638310486e-05
12.283333333333523,0.00017341481,-0.7850081,6.3945213e-06,-2.355883,7.9358426e-05,1.57095,0.7859518,0.04,0.04,0.012374466600206802,0.0025040535347127567,-0.0024784685751733093,-0.00047743263034989616,-0.009847372774540307,0.00015671122307630076,0.9999999809487494,0.00018785032920894874,3.759683582249912e-05,3.7433041429490554e-05
12.30000000000019,0.00017552162,-0.78498036,-4.990513e-06,-2.3559184,7.467995e-05,1.5709395,0.7859353,0.03999999,0.03999999,0.012701507313117588,0.002882643206991877,-0.004620505501606864,-0.000592370203829057,-0.010290189785001175,0.00019515343302138475,0.9999999825693972,0.00018256931606260563,7.311904849198671e-07,3.91039076532172e-05
12.316666666666858,0.00017808418,-0.7849592,-1.8901352e-05,-2.3559532,6.896334e-05,1.5709287,0.7859152,0.039999988,0.039999984,0.008350689192537786,0.0032548063488179856,-0.0036641548998961326,-0.0007225768851838425,-0.010711659761155644,0.00023898194532016794,0.9999999831023293,0.00017616522303727156,-3.267741889882555e-05,4.115023148129199e-05
12.333333333333526,0.00018115593,-0.78494483,-3.564151e-05,-2.3559852,6.208271e-05,1.5709144,0.7858911,0.039999984,0.03999998,0.01127825473812294,0.003648173831996061,-0.005144537631895929,-0.0008688897534995749,-0.011113273177054149,0.00028740372352460003,0.9999999828673579,0.00016850988263133576,-6.298662051681057e-05,4.3616381905932365e-05
12.350000000000193,0.0001847915,-0.78493726,-5.5521574e-05,-2.3560138,5.3910808e-05,1.5708992,0.78586245,0.039999977,0.039999973,0.01291864278851751,0.004049210163260922,-0.002974098556229876,-0.0010316452105005095,-0.011497831646399807,0.00034113694574196057,0.9999999822852376,0.00015938777946663838,-8.864668891848143e-05,4.6549164961637426e-05
12.36666666666686,0.00018904629,-0.78493685,-7.885817e-05,-2.3560414,4.4318196e-05,1.570881,0.7858289,0.03999997,0.03999996,0.008544869129267774,0.004458580663208696,-0.005932504701089414,-0.0012106681013358813,-0.011853575834088895,0.00040114680742525004,0.9999999814393303,0.00014873403563064094,-0.00011180339114375474,4.9995275961839804e-05
12.383333333333528,0.00019397677,-0.78494364,-0.000105972475,-2.3560681,3.317191e-05,1.5708591,0.78578985,0.03999996,0.039999954,0.008421415835280222,0.004874425940429304,-0.006409432371246027,-0.0014063681323733248,-0.012199346687371526,0.0004658038692393385,0.9999999804402103,0.00013633583002349567,-0.0001327249385156577,5.4001955639050606e-05
12.400000000000196,0.00019963998,-0.7849578,-0.00013718955,-2.3560948,2.0338886e-05,1.5708354,0.7857449,0.039999958,0.03999995,0.007601662703704548,0.005293988939370563,-0.005516311113296091,-0.0016189053304285106,-0.012540138799185464,0.0005360367468764804,0.9999999794541988,0.00012207084890628845,-0.00015084507883460669,5.8618017942649265e-05
12.416666666666863,0.00020609322,-0.78497976,-0.0001728377,-2.3561184,5.6848885e-06,1.5708084,0.7856936,0.039999958,0.039999947,0.012808972769451366,0.0057186664120436465,-0.005393376542572881,-0.0018484756578742113,-0.012869858270855267,0.0006127460959682268,0.9999999787259546,0.00010578796228747283,-0.00016515052008574295,6.389290466219783e-05
12.43333333333353,0.00021339458,-0.7850097,-0.00021324666,-2.3561404,-1.0926848e-05,1.5707778,0.7856354,0.03999996,0.03999995,0.010489400268975935,0.006145523751164587,-0.006525407425006513,-0.0020952961606533664,-0.013181471162038098,0.0006942595911708277,0.999999978173115,8.733608294774717e-05,-0.0001764757097364571,6.98749040613077e-05
12.450000000000198,0.00022160185,-0.7850478,-0.00025874792,-2.3561616,-2.963203e-05,1.5707433,0.78556997,0.039999966,0.039999954,0.009092955581091466,0.006573793785753491,-0.0071773277775077915,-0.0023590670586293,-0.01348073710665619,0.0007814670381154055,0.9999999776912182,6.659465052065498e-05,-0.00018523786034512318,7.661364627677345e-05
12.466666666666866,0.00023077326,-0.78509444,-0.0003096734,-2.3561816,-5.056671e-05,1.5707047,0.7854967,0.03999997,0.039999958,0.010051143644784766,0.007002516018036996,-0.007365334703735016,-0.002640322216462644,-0.013774030820223921,0.0008743823503918834,0.999999977227742,4.3383414295140255e-05,-0.00019125812825053712,8.415891527326067e-05
12.483333333333533,0.00024096688,-0.78514975,-0.00036635506,-2.3562016,-7.38674e-05,1.5706617,0.7854153,0.039999973,0.03999996,0.008211091431187256,0.007431205095826871,-0.008213761435205136,-0.002938807116969648,-0.014061007849174197,0.0009730140606812748,0.9999999765228615,1.7611501720547552e-05,-0.00019513253111561458,9.256028664708669e-05
12.5000000000002,0.00025224066,-0.7852143,-0.00042912413,-2.3562217,-9.966966e-05,1.5706139,0.78532493,0.039999973,0.039999958,0.00868745201016985,0.00785858065192593,-0.008785050267845484,-0.003255103279284447,-0.014345747238787256,0.0010782179570271303,0.9999999753912131,-1.1020825529279836e-05,-0.0001967716068838694,0.00010186780348849006
12.516666666666868,0.00026465236,-0.78528833,-0.0004983108,-2.3562417,-0.00012811013,1.5705607,0.7852255,0.039999977,0.03999996,0.00875846567771621,0.008285474565112874,-0.009365783519732496,-0.003587611425050696,-0.014629366446453547,0.0011882691648372004,0.9999999735333667,-4.248583469911953e-05,-0.0001963541371938591,0.00011213060589182354
12.533333333333536,0.00027825948,-0.78537214,-0.00057424325,-2.3562613,-0.00015932266,1.5705031,0.7851163,0.03999998,0.03999996,0.010195303447080306,0.008708829728883453,-0.008611788186563274,-0.003938039825704159,-0.014913110109025973,0.0013048605937270414,0.9999999707901716,-7.70542581968185e-05,-0.00019301578391303198,0.00012339855907094895
12.550000000000203,0.0002931192,-0.78546613,-0.0006572479,-2.3562808,-0.0001934424,1.5704403,0.784997,0.039999984,0.039999966,0.009576893574769763,0.009130263517305523,-0.00968625806783141,-0.004305099967107026,-0.015191023115387456,0.0014262505923496684,0.9999999666757217,-0.00011481883906237398,-0.00018720351987820154,0.00013572041812220554
12.56666666666687,0.00030928807,-0.7855705,-0.0007476485,-2.3563006,-0.00023060187,1.5703716,0.784867,0.03999998,0.03999996,0.009174894870844774,0.009547175390072377,-0.010341541825287237,-0.004689154804700876,-0.015465158629162859,0.0015532763502605017,0.9999999606512728,-0.00015596238442494275,-0.0001792450867145774,0.00014914552006121043
12.583333333333538,0.0003268222,-0.7856856,-0.00084576587,-2.3563206,-0.00027093268,1.5702971,0.7847259,0.03999998,0.03999996,0.009563286005498384,0.00996064995417934,-0.010547375823533045,-0.005089779163720144,-0.01574242439988093,0.0016858909899139696,0.9999999522014628,-0.00020060892349368646,-0.00016896158210117192,0.00016372267944020724
12.600000000000206,0.00034577725,-0.7858118,-0.00095191767,-2.3563406,-0.0003145649,1.5702165,0.7845733,0.039999984,0.03999996,0.010280328857192877,0.010369607993494312,-0.010824699804112825,-0.005507062064687731,-0.016020160101429468,0.0018249199008032843,0.9999999407231307,-0.0002488834973085631,-0.0001561740914737272,0.00017950039832765471
12.616666666666873,0.0003662083,-0.78594935,-0.0010664179,-2.3563607,-0.0003616286,1.5701299,0.7844086,0.039999984,0.03999996,0.010600992319176328,0.010774734277786439,-0.010998129659589573,-0.005940886040954675,-0.016296088616586768,0.0019685962484137223,0.999999925484816,-0.0003010016041051564,-0.00014073347217035128,0.00019652604576012993
12.63333333333354,0.00038816952,-0.7860988,-0.0011895772,-2.3563807,-0.00041225043,1.5700364,0.7842316,0.039999988,0.03999996,0.010891544324231894,0.011173760557504084,-0.011806605914532753,-0.0063905332496370605,-0.01657162494289729,0.0021185892849848,0.9999999056605082,-0.00035700093325457204,-0.00012275881925447396,0.0002148478080182658
12.650000000000208,0.00041171449,-0.7862603,-0.0013217006,-2.356402,-0.00046655672,1.5699364,0.78404164,0.039999988,0.03999996,0.00919448062666195,0.011564808797326605,-0.012303349133091501,-0.00685674436470899,-0.01684714315980602,0.002273142690854647,0.9999998802515658,-0.000417099987246729,-0.00010260759527131511,0.00023451254972939705
12.666666666666876,0.00043689596,-0.7864343,-0.0014630911,-2.356424,-0.0005246712,1.5698296,0.7838384,0.03999999,0.03999996,0.009907115240381792,0.0119535550074061,-0.012583087841089302,-0.0073385257964648605,-0.01712470916716302,0.002433911662877614,0.999999848262392,-0.0004813983221797849,-8.010082653931343e-05,0.0002555674200050612
12.683333333333543,0.00046376607,-0.786621,-0.0016140456,-2.356447,-0.00058671634,1.5697155,0.78362143,0.03999999,0.03999996,0.010411405575272425,0.012334816644924652,-0.012973901570667579,-0.007836082037219347,-0.01740645385464954,0.0025991331384601726,0.9999998085511488,-0.0005500271640577303,-5.523832861928159e-05,0.0002780584679940537
12.70000000000021,0.0004923761,-0.7868207,-0.0017748567,-2.356471,-0.0006528122,1.5695939,0.7833902,0.039999995,0.039999966,0.00990627118655496,0.012708460655167777,-0.0135750559759229,-0.008349267248262567,-0.01769124658884411,0.0027695401828532313,0.9999997598147853,-0.0006231788901362331,-2.8198691636664058e-05,0.00030203191297384526
12.716666666666878,0.0005227764,-0.7870339,-0.0019458123,-2.3564968,-0.0007230768,1.5694646,0.7831445,0.039999995,0.03999996,0.009465414044562692,0.01307503192436786,-0.014210356281685321,-0.008877215498604235,-0.01797997064103338,0.0029452143784505277,0.9999997007102632,-0.0007009281973949571,8.692866285094733e-07,0.00032753364781816063
12.733333333333546,0.00055501657,-0.78726095,-0.002127195,-2.3565235,-0.00079762575,1.5693274,0.78288376,0.04,0.03999996,0.011020133387029674,0.013437388570248067,-0.014191615848679895,-0.009420335623887034,-0.018275373019448128,0.003126895429372249,0.9999996297342371,-0.0007834103577505599,3.2442696395460455e-05,0.0003546083354417644
12.750000000000213,0.0005891451,-0.78750205,-0.0023192826,-2.3565505,-0.00087657437,1.569182,0.7826077,0.04,0.03999996,0.012404007303490339,0.013795036818957298,-0.014195854136800357,-0.009978262386451303,-0.01857531746853574,0.0033136051512489967,0.9999995451912379,-0.000870761924896352,6.687944309801212e-05,0.0003832990055551722
12.76666666666688,0.00062520965,-0.7877575,-0.0025223475,-2.3565776,-0.00096003414,1.5690286,0.78231585,0.04,0.039999966,0.012712431483685727,0.014142725767553044,-0.014376734129784019,-0.0105503937497087,-0.018874315972921694,0.003505187457902799,0.9999994452320686,-0.0009630915479544182,0.00010432883376983712,0.00041364927148088815
12.783333333333548,0.0006632572,-0.78802747,-0.0027366565,-2.3566055,-0.0010481147,1.5688667,0.78200793,0.04,0.039999966,0.011898759780870627,0.014480508047009805,-0.014935886225808659,-0.011137177517729809,-0.01917150953129957,0.003701331981991772,0.9999993279028687,-0.0010605101294204997,0.00014443356384198828,0.00044570284020947613
12.800000000000216,0.000703333,-0.7883126,-0.0029624715,-2.3566341,-0.0011409221,1.5686959,0.78168344,0.04,0.03999996,0.012512164392775027,0.01481274620830279,-0.015710648363254087,-0.011738302696157766,-0.01947301209920882,0.003902874581606699,0.9999991909903027,-0.001163189102705975,0.00018731322566056623,0.00047950350054296655
12.816666666666883,0.00074548245,-0.7886129,-0.003200047,-2.3566642,-0.0012385644,1.5685164,0.7813421,0.04,0.039999966,0.011281717568545346,0.015134660445580931,-0.01583142076353461,-0.012352785596678902,-0.01977506753908789,0.004108896016620161,0.9999990322729413,-0.001271213712696171,0.00023269996947504823,0.0005150918383174691
12.83333333333355,0.0007897494,-0.7889289,-0.003449634,-2.3566964,-0.001341144,1.5683277,0.78098345,0.04,0.039999973,0.010544695962200201,0.015447672745181034,-0.016857496571653918,-0.012980907020240231,-0.020082344235343434,0.00431860515967566,0.9999988493432775,-0.00138473000666229,0.0002802962130639953,0.0005525115043428054
12.850000000000218,0.00083617616,-0.7892608,-0.0037114788,-2.3567307,-0.0014487575,1.5681298,0.78060734,0.04,0.039999966,0.010646745669684599,0.015755176594141763,-0.016940129375253576,-0.01362207579382719,-0.020397554131787073,0.004535060132780488,0.9999986397232746,-0.0015037652342109857,0.0003301619772955409,0.0005918063784157009
12.866666666666886,0.00088480505,-0.78960884,-0.003985818,-2.3567655,-0.0015615091,1.5679225,0.7802131,0.04,0.039999973,0.013702943917959232,0.016065479342101778,-0.016563843344719054,-0.014276649349283506,-0.020720171540742377,0.004751669983030363,0.999998400093071,-0.0016285869822133302,0.0003831620974041631,0.0006330107003379627
12.883333333333553,0.0009356767,-0.78997326,-0.0042728847,-2.356801,-0.0016794862,1.5677056,0.77980065,0.04,0.03999996,0.01348914843823934,0.016351670577202833,-0.016913078657787572,-0.01494307353267407,-0.021042620349960642,0.004980398984979683,0.9999981275442915,-0.001759196992179763,0.0004392374526919715,0.0006761688500005645
12.90000000000022,0.000988831,-0.7903545,-0.0045729065,-2.356837,-0.0018027892,1.5674789,0.7793696,0.04,0.039999954,0.014203962270165071,0.016643653746356568,-0.01733189955734904,-0.015622292996449535,-0.021366618618866157,0.005209777038724081,0.9999978187061581,-0.0018957176322528567,0.0004985376211449491,0.0007213167298909756
12.916666666666888,0.0010443069,-0.7907527,-0.0048861043,-2.3568745,-0.001931508,1.5672423,0.77891946,0.04,0.039999958,0.012742803050347362,0.016913405658470354,-0.01787668021273614,-0.016313694498149973,-0.021689379684701013,0.005443474792998195,0.9999974701223591,-0.0020383343328819596,0.0005606758507831624,0.0007684950351833849
12.933333333333556,0.001102142,-0.79116833,-0.0052126953,-2.3569152,-0.002065729,1.5669957,0.7784503,0.04,0.039999947,0.009921428390247122,0.01716840909280603,-0.018977030494227165,-0.017015980015215704,-0.022016151388528096,0.0056817109759893045,0.9999970789723654,-0.002186967034601905,0.0006249076210492655,0.0008177483668430413
12.950000000000223,0.001162373,-0.7916014,-0.0055528875,-2.3569577,-0.0022055393,1.5667388,0.7779614,0.04,0.039999932,0.01262789660319008,0.017436629392468105,-0.018651217782617024,-0.017731135592185157,-0.022352561745427227,0.005924404001971391,0.9999966406145805,-0.002341951311834214,0.0006918596632427411,0.0008691109325289875
12.96666666666689,0.0012250356,-0.79205245,-0.005906885,-2.3570008,-0.0023510247,1.5664713,0.77745277,0.04,0.03999994,0.014650646339497975,0.01769771259880603,-0.018705317673983757,-0.01845638052496631,-0.02269590242329196,0.006171069351670402,0.9999961510123625,-0.0025031774569034197,0.0007621285935064519,0.0009226175191218446
12.983333333333558,0.0012901647,-0.79252124,-0.006274884,-2.3570445,-0.0025022624,1.5661933,0.776924,0.04,0.039999936,0.014849856782839232,0.017939522171498638,-0.018436701299640035,-0.019193085156782856,-0.023038063782045756,0.006422372518080888,0.9999956054803381,-0.0026708368787410008,0.0008358047050223116,0.0009783051029353873
13.000000000000226,0.0013577935,-0.7930083,-0.006657079,-2.357089,-0.002659334,1.5659046,0.776375,0.039999995,0.039999925,0.014502829978146892,0.018176560735895,-0.019158330415702807,-0.01994069909529074,-0.023379176803281554,0.006677362785596117,0.9999949996660583,-0.002844944181574861,0.000912799364282503,0.0010362107914770936
13.016666666666893,0.001427955,-0.793514,-0.0070536514,-2.3571374,-0.0028223153,1.5656049,0.7758053,0.04,0.03999993,0.009841689318701441,0.018369278825395782,-0.02078771450575445,-0.020699394848341574,-0.023721196970631724,0.006938045002978109,0.9999943298671496,-0.003025672134265558,0.0009917128829432789,0.0010963791516442232
13.03333333333356,0.0015006806,-0.7940384,-0.0074647837,-2.3571877,-0.00299128,1.5652944,0.77521473,0.04,0.039999932,0.013194653782577781,0.018607275426544417,-0.019958593039470784,-0.02146824916711395,-0.024076715862973913,0.007200844613647018,0.9999935903015832,-0.0032130649310166946,0.0010736190472318478,0.001158840644754894
13.050000000000228,0.0015760007,-0.7945815,-0.007890649,-2.3572388,-0.003166299,1.5649729,0.77460295,0.04,0.039999925,0.015058404505130518,0.018828075351826935,-0.019523184115954884,-0.02224696942034917,-0.0244369757450349,0.0074680681253040514,0.9999927749626678,-0.003407259932151366,0.001159025566051076,0.0012236265587573997
13.066666666666896,0.0016539452,-0.79514396,-0.008331415,-2.3572903,-0.0033474418,1.56464,0.7739697,0.03999999,0.03999991,0.016137076795219585,0.019032735485556215,-0.020163357100178025,-0.023035255866083307,-0.024795812057831886,0.007739715688609967,0.9999918777891822,-0.0036083391487478846,0.0012482613478022285,0.0012907702585434782
13.083333333333563,0.0017345418,-0.79572564,-0.0087872455,-2.3573437,-0.0035347748,1.5642958,0.77331495,0.039999995,0.03999991,0.013344723566577343,0.01921145253461591,-0.02077367195143509,-0.02383281375962053,-0.025151170298085036,0.008015685707631627,0.999990894282919,-0.0038162992457589136,0.0013404333928400468,0.0013603123295941278
13.10000000000023,0.0018178184,-0.7963267,-0.009258294,-2.3574011,-0.0037283623,1.56394,0.7726383,0.04,0.039999913,0.009829890352097692,0.019363974224920026,-0.021841269066946722,-0.02464013628126968,-0.025510696036437793,0.008295425931878356,0.9999898195742365,-0.004031292383696077,0.0014345595807650048,0.0014322948063069517
13.116666666666898,0.0019038012,-0.7969471,-0.009744711,-2.357459,-0.003928267,1.5635726,0.7719397,0.04,0.03999992,0.015758740665594573,0.019586360812752328,-0.020500250757149452,-0.025455961658926374,-0.025885400085449463,0.00857796673378717,0.999988645379624,-0.004253337521712349,0.0015323099787949296,0.0015067374953103038
13.133333333333566,0.0019925162,-0.7975881,-0.010246642,-2.357518,-0.004134548,1.5631936,0.771219,0.04,0.03999991,0.016178517513476542,0.019749044122674073,-0.021431706606400702,-0.026280905132663127,-0.02625880105944294,0.008865084021559428,0.9999873647388849,-0.004482437254203427,0.0016340434509782213,0.0015836732121196752
13.150000000000233,0.0020839868,-0.79824907,-0.010764227,-2.3575773,-0.0043472615,1.5628027,0.7704758,0.04,0.039999906,0.01622332350459388,0.01992035405446891,-0.02101381780583722,-0.027115461278793787,-0.026627242541181012,0.009156262413551563,0.9999859701859042,-0.004718798748462515,0.0017396424157303649,0.0016631337867948955
13.1666666666669,0.0021782375,-0.7989302,-0.011297593,-2.3576417,-0.0045664622,1.5623999,0.7697095,0.039999995,0.0399999,0.008674283148968343,0.01999081718026558,-0.023232700781594673,-0.027958005257335362,-0.026993338328715137,0.009450208737112253,0.9999844574354632,-0.004962681722597947,0.0018469034778780546,0.0017451719588525195
13.183333333333568,0.002275289,-0.7996316,-0.011846872,-2.3577073,-0.004792201,1.561985,0.76892054,0.039999995,0.039999895,0.015033092476457455,0.020198313385934655,-0.021716138465066592,-0.028806347582528407,-0.02737614216918037,0.009748565810541242,0.9999828172961929,-0.005213869427353614,0.001957675427710875,0.0018298046024575534
13.200000000000236,0.0023751638,-0.8003536,-0.012412184,-2.3577738,-0.0050245286,1.5615584,0.7681085,0.04,0.039999902,0.015884264760712696,0.020337606764282007,-0.0217216846463808,-0.029663067940162505,-0.027760755404637568,0.010050433798972754,0.9999810405966887,-0.005472519200308991,0.0020724070984518977,0.001917057532807143
13.216666666666903,0.002477882,-0.8010964,-0.012993643,-2.3578408,-0.005263493,1.5611193,0.76727325,0.04,0.039999895,0.016609942547374246,0.02047083951817394,-0.022111575853500653,-0.03052700709541096,-0.02814046596339569,0.010355602936854556,0.9999791191470335,-0.005738669500521283,0.0021911299999395548,0.002006960789421713
13.23333333333357,0.0025834625,-0.80186003,-0.013591359,-2.3579118,-0.0055091395,1.560668,0.76641476,0.04,0.039999895,0.010548935472143306,0.020523997728363885,-0.023632087372593702,-0.03139817364035995,-0.028517550050268792,0.010664548740966067,0.9999770484896027,-0.00601234493931953,0.002312147331434927,0.002099565924413598
13.250000000000238,0.0026919243,-0.8026445,-0.01420544,-2.3579853,-0.0057615107,1.5602045,0.7655327,0.04,0.039999895,0.013262294054761092,0.02066539203699723,-0.022839411996256054,-0.032276629573181795,-0.028906359745946013,0.010976525147199647,0.999974817721277,-0.006293701742869164,0.002436325455391849,0.0021948940625531664
13.266666666666906,0.0028032847,-0.8034501,-0.014835981,-2.3580594,-0.0060206465,1.5597286,0.7646269,0.04,0.039999887,0.01631101403423152,0.020796958189113826,-0.022562231550660172,-0.033161062460354024,-0.029298931699174722,0.01129221835620765,0.9999724159920284,-0.0065827503269814775,0.0025645603101576092,0.002292963936513151
13.283333333333573,0.0029175596,-0.8042768,-0.015483072,-2.358134,-0.006286583,1.5592401,0.7636975,0.04,0.039999895,0.016473845917808205,0.020892756818439995,-0.02265762727837739,-0.03405195361299375,-0.02968673791071047,0.011611513574664053,0.999969834358376,-0.006879477733070512,0.0026968240700913407,0.002393804364883042
13.30000000000024,0.0030347635,-0.8051248,-0.016146807,-2.3582125,-0.0065593612,1.558739,0.7627442,0.04,0.03999989,0.010896629736323327,0.02091701660232488,-0.024225305128910968,-0.03494960230913142,-0.030071607723046723,0.01193322004246802,0.9999670670134088,-0.007184004900281059,0.00283153980292223,0.0024974676249947883
13.316666666666908,0.0031549125,-0.805994,-0.016827257,-2.3582933,-0.006839011,1.558225,0.76176685,0.04,0.039999887,0.013051400342267705,0.02100552998205059,-0.023688071022909263,-0.03585325600065925,-0.0304675496158474,0.012259173273560572,0.9999641027617971,-0.007496381620892287,0.002969305839375596,0.002603972584385348
13.333333333333576,0.0032780187,-0.8068849,-0.017524505,-2.3583753,-0.007125565,1.5576987,0.76076555,0.04,0.03999988,0.015725043378433945,0.021116963674445988,-0.023320117233671667,-0.03676226222179517,-0.03086951271989162,0.012588187664783416,0.9999609290358124,-0.007816563514650389,0.0031111971645091724,0.0027133353755223618
13.350000000000243,0.0034040948,-0.80779725,-0.018238626,-2.3584578,-0.007419051,1.5571595,0.75974,0.04,0.039999884,0.016349428797202137,0.02120033836273995,-0.02325961676463706,-0.03767759771012458,-0.03126611385450153,0.012920318213354973,0.9999575345220951,-0.008144689248479163,0.00325718676867641,0.0028255838144629194
13.36666666666691,0.0035331533,-0.8087314,-0.01896968,-2.3585443,-0.007719497,1.5566076,0.75868994,0.04,0.039999876,0.010521914490491113,0.021153254049725845,-0.024896867748025464,-0.03859810829538264,-0.03165881016723815,0.013255356491261371,0.999953912673982,-0.008480896788155558,0.003405698367133547,0.002940771377599561
13.383333333333578,0.0036652049,-0.8096872,-0.01971772,-2.3586328,-0.008026928,1.5560428,0.75761557,0.04,0.039999876,0.01394163767192147,0.021247133808598856,-0.024107552814212063,-0.03952270131125109,-0.032061442956978874,0.013593854352780002,0.9999500505398271,-0.008825086690566825,0.0035577176615871585,0.0030589075405411943
13.400000000000245,0.0038002585,-0.81066483,-0.020482808,-2.3587227,-0.008341365,1.5554651,0.7565167,0.04,0.03999987,0.01475590917594527,0.02130774182984123,-0.024037701056633942,-0.04045249237155117,-0.03246621760842641,0.013935461176871788,0.9999459352527965,-0.009177343983015724,0.0037135457107791295,0.003180016836694339
13.416666666666913,0.0039383234,-0.81166404,-0.021264993,-2.358813,-0.008662831,1.5548744,0.7553934,0.04,0.039999865,0.015952577465006,0.021365920845227773,-0.023653982878601987,-0.04138667963192545,-0.03286905590900396,0.014279923726992716,0.999941554513399,-0.009537636390467959,0.0038734832061093245,0.003304115201128824
13.43333333333358,0.0040794057,-0.8126855,-0.022064323,-2.3589087,-0.008991341,1.5542712,0.75424546,0.04,0.03999987,0.00858890359913822,0.021254609475487504,-0.025712284267531693,-0.04232579806487055,-0.03326754957712894,0.014627314899444618,0.9999369024324856,-0.009906084099478905,0.004035716250000023,0.0034312746741265673
13.450000000000248,0.0042235134,-0.81372887,-0.022880834,-2.3590055,-0.009326911,1.5536547,0.75307286,0.04,0.03999986,0.014744747713590911,0.02137712664785421,-0.02454248248708879,-0.04326894897694736,-0.033679475403451106,0.014977830819479145,0.9999319614292655,-0.010282701903349699,0.004201708010793402,0.00356148895558166
13.466666666666915,0.0043706535,-0.81479436,-0.023714555,-2.3591032,-0.009669556,1.5530252,0.75187546,0.04,0.03999986,0.015358440896462433,0.021397644582852107,-0.02426095725776012,-0.044216026996019925,-0.034089649002429605,0.015331177587657039,0.9999267164699002,-0.010667556718708228,0.004371908932124334,0.003694771395699136
13.483333333333583,0.004520832,-0.81588185,-0.024565514,-2.3592012,-0.010019286,1.5523828,0.75065345,0.04,0.039999865,0.01626553900129224,0.02141813335344786,-0.024055504373055037,-0.04516645165285538,-0.034494525114646235,0.015686766826901503,0.9999211544191242,-0.011060564743145592,0.004546560493695696,0.003831140869987999
13.50000000000025,0.0046740505,-0.8169913,-0.025433742,-2.3593047,-0.010376114,1.5517274,0.7494065,0.04,0.039999865,0.007221704417870178,0.02124249929533195,-0.026255437248923208,-0.0461209855280071,-0.034893496985224245,0.016046321256952618,0.9999152718754309,-0.011461919144182067,0.004723045280533299,0.0039706829504924275
13.516666666666918,0.0048303134,-0.81812304,-0.026319258,-2.359409,-0.010740045,1.551059,0.7481348,0.04,0.03999986,0.015017844631270982,0.021384443680933646,-0.024613275747342733,-0.04707814810647799,-0.035307968462607,0.016408112779849108,0.9999090457986195,-0.01187154297586072,0.0049037502907298474,0.004113372163155152
13.533333333333585,0.004989622,-0.8192768,-0.027222073,-2.3595145,-0.011111084,1.5503775,0.7468383,0.04,0.03999986,0.014638098248132003,0.021360914504520156,-0.024666372039106044,-0.04803847435651198,-0.0357166825292611,0.016772684242459507,0.9999024628345557,-0.012289451522677438,0.005088530457278768,0.004259231908075547
13.550000000000253,0.0051519815,-0.8204527,-0.028142188,-2.3596208,-0.0114892395,1.549683,0.74551684,0.04,0.03999986,0.01458780727454645,0.021330388312595927,-0.02468363901195758,-0.04900181305682565,-0.03612226164414732,0.017139298418753057,0.9998955073693944,-0.012715724178281148,0.005277479416300751,0.004408277683390885
13.56666666666692,0.0053173904,-0.82165074,-0.02907961,-2.3597322,-0.011874509,1.5489753,0.7441705,0.04,0.039999858,0.007580982057908692,0.02113094353342268,-0.026497831554950224,-0.049967684123911185,-0.036522330777946255,0.01750956866943349,0.9998881750957228,-0.01315041085188959,0.005468546252159488,0.004560592073376273
13.583333333333588,0.005485847,-0.8228709,-0.030034337,-2.3598444,-0.01226689,1.5482548,0.74279946,0.04,0.03999991,0.014312391664228485,0.02125135019002411,-0.024725947012060878,-0.05093551273876288,-0.036937528808938615,0.017883229414565313,0.999880442272555,-0.013593379738506793,0.005663849843185424,0.00471614175766677
13.600000000000255,0.0056573534,-0.8241133,-0.031006368,-2.3599577,-0.012666384,1.5475211,0.74140346,0.04,0.039999902,0.014160623807746298,0.02120731909703369,-0.02513472512721826,-0.05190645217154263,-0.03734684218718341,0.01825771305548873,0.9998722920359188,-0.014044801560974967,0.0058632763205987,0.004874952178162898
13.616666666666923,0.005831905,-0.8253777,-0.031995695,-2.360072,-0.013072985,1.5467741,0.73998284,0.04,0.039999913,0.013741649645582221,0.021159909329915294,-0.025066756650371502,-0.05287872072107398,-0.03775152785279492,0.018635196400075726,0.9998637117852117,-0.014504517591362762,0.006066710431036934,0.005037047655793239
13.63333333333359,0.0060094986,-0.82666427,-0.033002287,-2.3601909,-0.013486684,1.5460142,0.7385369,0.04,0.039999913,0.007372514158965338,0.020902732961201875,-0.026567196414406524,-0.05385384459444166,-0.038151291853124165,0.019015550016370696,0.9998546899326411,-0.014972950990715696,0.006272461457126197,0.005202498015435392
13.650000000000258,0.0061901337,-0.8279729,-0.034026127,-2.3603113,-0.013907475,1.5452414,0.7370663,0.04,0.03999991,0.012775364256678579,0.02098764823819932,-0.025157717432278126,-0.0548281441126704,-0.03856406124681221,0.019398188268472494,0.9998452060106137,-0.015449741009573845,0.006482200639600502,0.005371275006768894
13.666666666666925,0.0063738055,-0.82930356,-0.035067204,-2.3604324,-0.014335351,1.5444554,0.7355712,0.04,0.039999902,0.013736267887742848,0.020963844838635393,-0.02512859291008418,-0.05580450966215743,-0.03897286800664309,0.01978193704581395,0.9998352423491327,-0.01593487443337696,0.0066961713792096575,0.005543394474868976
13.683333333333593,0.0065605086,-0.83065635,-0.036125485,-2.360555,-0.0147702955,1.5436566,0.7340516,0.04,0.039999902,0.012487616119361,0.020845108406511437,-0.025340627389658366,-0.05678309524906732,-0.03937673509493257,0.020168283430592876,0.9998247834666132,-0.016428359033130245,0.006914170622380605,0.005718883634359962
13.70000000000026,0.006750236,-0.8320309,-0.037200928,-2.3606822,-0.015212296,1.5428448,0.73250705,0.04,0.039999902,0.006233797653876216,0.020568867275853886,-0.026573280347763628,-0.05776386748913659,-0.039774771895874785,0.020557739810637358,0.999813820980298,-0.016930471564059208,0.007134299426330989,0.00589782002867275
13.716666666666928,0.0069429823,-0.83342713,-0.038293496,-2.3608103,-0.015661338,1.5420198,0.7309381,0.04,0.03999989,0.012822881813967513,0.020681499232271666,-0.02512514496415541,-0.05874381408538156,-0.04018675915762059,0.020949136140457247,0.9998023289185728,-0.01744096580447316,0.007358497895057695,0.0060801570319776255
13.733333333333595,0.0071387407,-0.8348454,-0.039403137,-2.360939,-0.016117401,1.5411823,0.7293447,0.04,0.0399999,0.013171409542844792,0.020580155441749653,-0.02506267381130467,-0.05972515258650073,-0.04059433837733316,0.021341932672599886,0.9997902864572291,-0.01795984858195371,0.007587188982171268,0.006265900416852861
13.750000000000263,0.007337502,-0.83628553,-0.040529825,-2.3610709,-0.016580466,1.5403316,0.72772676,0.04,0.039999902,0.008535293871680949,0.02035284348576652,-0.026254749000464983,-0.06070780593585616,-0.04099296070914043,0.02173867011621762,0.9997776838237028,-0.018487295784271312,0.007818831554665631,0.006455129419049067
13.76666666666693,0.007539258,-0.8377472,-0.041673493,-2.3612058,-0.017050512,1.5394679,0.7260845,0.04,0.0399999,0.008136321377438804,0.020214928412192606,-0.02608476821821526,-0.06168992722089725,-0.04139616740474599,0.02213506894730626,0.999764505757141,-0.019023201917508163,0.008053371659824522,0.006647858444187207
13.783333333333598,0.007743999,-0.83923066,-0.042834084,-2.3613417,-0.017527523,1.538592,0.7244179,0.04,0.039999895,0.012003634357693471,0.02023904667121379,-0.02491966663740186,-0.06267254413389425,-0.04180640725152763,0.022534405320478654,0.9997507225499959,-0.01956754970516684,0.008292334232519313,0.006844045022730465
13.800000000000265,0.007951712,-0.8407355,-0.044011544,-2.3614783,-0.018011456,1.537703,0.72272706,0.04,0.03999989,0.011604183829039272,0.02011037237664437,-0.0252185857023024,-0.06365518857030504,-0.04220766429966345,0.022935771681785903,0.9997363170968518,-0.02012040492542628,0.008535309759139787,0.007043725617545994
13.816666666666933,0.008162388,-0.842262,-0.0452058,-2.3616188,-0.018502299,1.5368016,0.72101206,0.04,0.039999902,0.006625789933911719,0.019792013994000823,-0.026272490013123928,-0.06463710938213793,-0.0426045923332392,0.02333870550127041,0.9997212800460115,-0.02068176186266207,0.008781143968114287,0.007246962124339805
13.8333333333336,0.0083760135,-0.84380984,-0.046416793,-2.3617618,-0.019000018,1.5358872,0.719273,0.04,0.039999887,0.007894419856624424,0.01971536437093968,-0.025900416921986746,-0.06561865584642482,-0.043006248643702026,0.023744521410958674,0.9997055907986385,-0.02125161909682485,0.009030052451279087,0.007453761764079406
13.850000000000268,0.008592579,-0.8453789,-0.04764444,-2.3619053,-0.019504586,1.5349605,0.71751,0.04,0.0399999,0.011424404916082764,0.01971727535889506,-0.024786274788435314,-0.0665987548244606,-0.0434117437149617,0.02415032471745595,0.9996892202516793,-0.021829904159744673,0.009283321963683228,0.007664080524393723
13.866666666666935,0.008812068,-0.84696937,-0.04888868,-2.3620493,-0.020015975,1.5340214,0.7157233,0.04,0.03999989,0.011468414861770526,0.019594640531514496,-0.025007901486628903,-0.06757858079210116,-0.043808281811059384,0.02455797983422088,0.9996721479796145,-0.02241656843753529,0.00954107877765475,0.00787793304540035
13.883333333333603,0.009034471,-0.8485809,-0.050149404,-2.3621974,-0.02053415,1.5330694,0.7139127,0.04,0.03999989,0.004619135998096269,0.019136581713163903,-0.026477659257917452,-0.06855821921689081,-0.044195999140866325,0.024968047613305257,0.9996543705351718,-0.023011781545735785,0.00980109917303305,0.00809542062039055
13.90000000000027,0.009259768,-0.85021347,-0.051426556,-2.362348,-0.021059068,1.5321053,0.7120786,0.04,0.039999887,0.007110941555987793,0.01911922932115312,-0.025397563521867283,-0.06953550415801941,-0.04459348283535457,0.02537967670750119,0.9996358596292425,-0.023615439892404822,0.010064522079381874,0.008316521947737725
13.916666666666938,0.0094879465,-0.8518669,-0.052720025,-2.362499,-0.021590691,1.5311291,0.7102212,0.04,0.039999887,0.010716400389476632,0.019095593149708046,-0.02458098461637359,-0.07051104385651319,-0.04499169981649666,0.025790994991699585,0.999616588165112,-0.024227388402102364,0.010332395590759175,0.008541189478675335
13.933333333333605,0.009718992,-0.853541,-0.054029733,-2.362651,-0.022128992,1.5301403,0.70834047,0.04,0.0399999,0.008549043865224704,0.018866112895696285,-0.025238148108597258,-0.07148618930961276,-0.04537948596513748,0.02620507231172098,0.9995965406124893,-0.024847719279876213,0.01060392497685262,0.008769470749025302
13.950000000000273,0.009952884,-0.85523576,-0.055355582,-2.3628066,-0.022673925,1.5291398,0.7064365,0.04,0.0399999,0.004962892976578814,0.01854217834870997,-0.02532330515780945,-0.07246003650779853,-0.045764777055553464,0.02662011549434469,0.9995757008352455,-0.025476484344593785,0.010878494656519792,0.009001410954714083
13.96666666666694,0.010189606,-0.85695106,-0.056697454,-2.362965,-0.023225449,1.5281267,0.70450956,0.04,0.0399999,0.0048185340633555285,0.018323803983444353,-0.02586925789462846,-0.07343137254776577,-0.04615361356174734,0.027036737851145264,0.9995540526224826,-0.02611362705116081,0.01115578551639374,0.009237035115028826
13.983333333333608,0.01042914,-0.8586867,-0.05805527,-2.3631241,-0.02378352,1.5271016,0.7025597,0.04,0.03999989,0.00895415304742464,0.01838609887215431,-0.024508160315184213,-0.07440043699952084,-0.04654698717858381,0.0274540391097716,0.9995315607027382,-0.026759089436318866,0.011437234348867554,0.009476284194587492
14.000000000000275,0.010671467,-0.86044264,-0.059428904,-2.3632839,-0.024348103,1.5260646,0.7005871,0.04,0.039999895,0.008376287392497517,0.018169356626515643,-0.024571086250646523,-0.07536741982606408,-0.04693240075224137,0.027872642530637752,0.9995082032538695,-0.027412876186147853,0.011722790316110336,0.009719158123471358
14.016666666666943,0.010916564,-0.86221874,-0.060818247,-2.3634465,-0.024919147,1.5250158,0.69859195,0.04,0.0399999,0.004388475150474136,0.017792452846217277,-0.025177304531620592,-0.07633194494744826,-0.04731092047340004,0.0282914985985711,0.9994839708856049,-0.028074960106208132,0.012011361988065917,0.009965728321094453
14.03333333333361,0.0111644175,-0.8640147,-0.062223196,-2.363612,-0.025496593,1.5239553,0.69657445,0.04,0.039999895,0.003908514218675663,0.017579806890385963,-0.024953739034305755,-0.07729383718062782,-0.04769107623564936,0.028712046835010906,0.9994588433471131,-0.028745310495233316,0.012302869816617571,0.010216015566689588
14.050000000000278,0.011415002,-0.86583036,-0.06364362,-2.363778,-0.026080403,1.5228832,0.69453454,0.04,0.03999989,0.007198830556864877,0.017561686156347678,-0.0241993847716504,-0.07825328690324962,-0.048074412251718955,0.029132552612940274,0.9994327848481399,-0.0294239791569932,0.012598334886431454,0.010469956033802333
14.066666666666945,0.011668297,-0.86766577,-0.06507941,-2.3639452,-0.026670523,1.5217993,0.6924727,0.04,0.039999887,0.006576040976558062,0.017345808125833473,-0.024341705814001635,-0.07920889311729373,-0.0484507403126289,0.029553980165812864,0.9994057785988418,-0.03011078800790465,0.012897646716139074,0.010727574654659523
14.083333333333613,0.0119242845,-0.8695207,-0.06653042,-2.3641148,-0.027266901,1.5207039,0.6903891,0.04,0.03999989,0.0038003305018907696,0.01696057189761596,-0.024677447536824992,-0.0801622131501959,-0.048820560960797565,0.029976717159116067,0.9993778104130207,-0.03080574736454228,0.013200071561558498,0.01098890777822444
14.10000000000028,0.012182938,-0.8713948,-0.06799653,-2.3642876,-0.027869487,1.5195968,0.68828386,0.04,0.039999895,0.0015079460620182061,0.016656542975428124,-0.024868151187296128,-0.08111274309283137,-0.04919190551092739,0.030399072982568102,0.9993488662892868,-0.03150887315347892,0.013504876651866832,0.011254006643556677
14.116666666666948,0.0124442335,-0.87328804,-0.069477595,-2.3644614,-0.028478233,1.5184784,0.6861568,0.04,0.03999989,0.005438283594250137,0.01665674989095034,-0.02385605254400236,-0.08205966311296592,-0.04957001068821151,0.03082171596287929,0.9993189021750759,-0.03222027526678889,0.013813441226170958,0.011522779995494278
14.133333333333615,0.012708151,-0.8752003,-0.07097351,-2.364636,-0.029093072,1.5173491,0.6840088,0.04,0.039999895,0.005658555512155772,0.016493236213489804,-0.02340689500324178,-0.08300128971056019,-0.049943142786166114,0.031244920937539458,0.9992879016854463,-0.03293958456454325,0.014126069766017322,0.011795230679333617
14.150000000000283,0.012974663,-0.8771313,-0.0724841,-2.3648117,-0.029713951,1.5162086,0.6818397,0.04,0.0399999,0.004275603518033577,0.016169785901605505,-0.023727079782531746,-0.08394120428514765,-0.050306542014374456,0.03166870882778543,0.9992558443051242,-0.03366691656529795,0.014442238446256802,0.012071375219924577
14.16666666666695,0.013243746,-0.879081,-0.07400925,-2.3649905,-0.030340815,1.5150571,0.67964953,0.04,0.039999895,0.0008152474483491545,0.01575806365689547,-0.024262799288288228,-0.0848775751081556,-0.05066593720685471,0.03209293816854671,0.9992227140180432,-0.034402402333957575,0.01476103902067951,0.012351284593039729
14.183333333333618,0.013515373,-0.8810491,-0.07554879,-2.3651717,-0.030973606,1.5138946,0.6774388,0.04,0.03999989,0.0014876384264450593,0.015566829791115178,-0.02375225908337608,-0.08580842187857371,-0.05102895722778647,0.03251619972709384,0.9991884910732003,-0.035145830325228083,0.015082717549760295,0.01263493367318437
14.200000000000285,0.013789519,-0.8830354,-0.077102594,-2.3653533,-0.031612244,1.5127217,0.6752075,0.04,0.03999989,0.00456824452546023,0.015547542740446119,-0.02267070208441524,-0.08673562991538986,-0.05139347681800216,0.03293994099396291,0.9991531333989658,-0.03589721922316893,0.015408475215396511,0.012922250678916216
14.216666666666953,0.014066161,-0.88503987,-0.07867047,-2.3655357,-0.032256678,1.5115383,0.6729561,0.04,0.039999895,0.003790038819984076,0.015238410603220232,-0.022803110491653733,-0.08765799147093567,-0.05174790685923508,0.03336315077338437,0.9991166249868138,-0.036656417543260565,0.01573808266228903,0.01321323132196218
14.23333333333362,0.014345266,-0.8870622,-0.08025233,-2.3657205,-0.03290684,1.5103444,0.6706842,0.04,0.0399999,0.0005153219982734214,0.01486036118890921,-0.023216878585241574,-0.08857671444942414,-0.052095431646309615,0.0337861148419939,0.9990789437360887,-0.03742372086292286,0.016070605980800443,0.01350795777921313
14.250000000000288,0.014626808,-0.8891023,-0.08184796,-2.3659084,-0.033562686,1.5091399,0.66839266,0.04,0.0399999,-0.0010619857085725215,0.01446692918399689,-0.02347377349538604,-0.08948840599528732,-0.05244286372624457,0.03420889462998739,0.9990400840213584,-0.038198817477322816,0.01640557659888753,0.013806444813545048
14.266666666666955,0.014910763,-0.8911597,-0.083457224,-2.3660972,-0.034224123,1.507925,0.6660817,0.04,0.03999991,0.0020051086846883948,0.01445844883326275,-0.02239932083534235,-0.09039555120286685,-0.05279502959432614,0.03463246311249863,0.9990000113399599,-0.03898157164042638,0.016743985734899196,0.014108627038512473
14.283333333333623,0.015197098,-0.8932343,-0.085079946,-2.3662868,-0.0348911,1.5067,0.66375154,0.04,0.039999936,0.0020963711390820094,0.014230596179443111,-0.022072431770725487,-0.09129849586767397,-0.053140545404913433,0.03505443360607537,0.9989586981889992,-0.039771990039459436,0.017085993140797458,0.014414470480525588
14.30000000000029,0.015485785,-0.89532596,-0.08671597,-2.3664775,-0.035563525,1.5054653,0.6614022,0.04,0.03999995,0.001082054751799788,0.0139149739453448,-0.021910253169576954,-0.0921965968351089,-0.053481951385544776,0.03547604931203834,0.9989161199767107,-0.04057009249871092,0.017431493677536988,0.014723989727299824
14.316666666666958,0.015776798,-0.89743423,-0.088365115,-2.36667,-0.036241356,1.5042202,0.6590341,0.04,0.03999995,-0.0005064399211995863,0.013570889724429103,-0.02216246159272295,-0.09308946872639852,-0.05381507615092719,0.03589535745492637,0.9988722650801432,-0.041375820157036926,0.017779814535008907,0.015037212344632383
14.333333333333625,0.0160701,-0.8995594,-0.09002719,-2.3668652,-0.03692451,1.5029656,0.65664715,0.04,0.03999996,-0.0022841155111308353,0.01313174166868436,-0.022246185633223448,-0.09397660598253124,-0.054150532232799156,0.03631441664992937,0.9988271078335178,-0.04218925389746742,0.018130792453490415,0.015354148544073968
14.350000000000293,0.016365668,-0.90170085,-0.09170206,-2.3670616,-0.037612934,1.5017014,0.6542419,0.04,0.03999995,-0.00017393035811608115,0.013112201236224752,-0.02134172314771643,-0.0948566896020135,-0.054485950369108305,0.036733141338516746,0.9987806216392677,-0.04301017369900312,0.018485059588087417,0.015674736625677213
14.36666666666696,0.016663462,-0.9038582,-0.09338953,-2.3672583,-0.038306527,1.5004271,0.65181863,0.04,0.039999954,0.0005951324525188539,0.012915492619966495,-0.021130520381440476,-0.09573127969408933,-0.05481670496857985,0.03715002203471838,0.9987327838786472,-0.04383850944160969,0.018842627921320965,0.015998964621627237
14.383333333333628,0.016963454,-0.90603167,-0.09508943,-2.3674567,-0.03900523,1.4991441,0.6493774,0.04,0.039999966,-0.001320054690756578,0.012498427591703387,-0.020879956550756695,-0.09660023477859939,-0.055141771286574714,0.03756482542574331,0.9986835659120196,-0.044674312705562415,0.0192035410942858,0.016326817539826816
14.400000000000295,0.017265612,-0.9082208,-0.09680157,-2.367657,-0.039708965,1.4978513,0.6469187,0.04,0.039999958,-0.0027163990317102815,0.01213267535163376,-0.02134989980606683,-0.0974624441307558,-0.05546122572531845,0.03797997302437765,0.9986329634945016,-0.04551743263316095,0.01956697894096678,0.016658357776163635
14.416666666666963,0.017569907,-0.9104252,-0.098525755,-2.3678594,-0.04041764,1.4965498,0.6444426,0.04,0.039999947,-0.0033677865060699474,0.011817553351839427,-0.020239067224547824,-0.09831837492642836,-0.05578268610696675,0.03839257959529411,0.9985809449755305,-0.04636791965562778,0.019933192558799943,0.016993533858492317
14.43333333333363,0.017876307,-0.9126449,-0.1002618,-2.3680632,-0.041131206,1.4952391,0.64194953,0.04,0.039999958,-0.002439880944082873,0.011614945525448284,-0.02068230387473058,-0.09916732485099636,-0.056102192124561176,0.038804274982479986,0.9985274897015951,-0.04722562888619557,0.020302281515958906,0.017332329669753784
14.450000000000298,0.01818477,-0.9148796,-0.10200956,-2.3682673,-0.041849565,1.4939197,0.63943964,0.04,0.039999954,-0.0008387732956194327,0.01155892948079551,-0.019659549139827703,-0.10000964165383852,-0.05641908758781845,0.039212871396674384,0.9984725622116132,-0.0480904880359971,0.020674941182549915,0.017674679010783255
14.466666666666965,0.018495265,-0.91712904,-0.10376874,-2.368472,-0.042572655,1.492592,0.6369133,0.04,0.039999958,-0.0019323124012871062,0.011121977982561648,-0.019378455285834484,-0.1008449095024181,-0.05672769062918549,0.039620626750732725,0.9984161435471623,-0.04896243412420193,0.021051002804811408,0.01802053356472113
14.483333333333633,0.018807758,-0.9193929,-0.105539255,-2.3686783,-0.043300368,1.4912554,0.6343708,0.04,0.03999997,-0.0037853302616408513,0.010767484846491149,-0.019734357739742414,-0.10167372063867079,-0.057028560434538356,0.040025634450908405,0.9983582247886715,-0.04984139497181659,0.021429740536251164,0.018369990871660188
14.5000000000003,0.019122219,-0.92167115,-0.10732086,-2.3688865,-0.044032637,1.4899104,0.6318124,0.04,0.03999997,-0.0046489328578758204,0.010373101691782405,-0.019591438524280136,-0.10249543330459777,-0.057327994015446915,0.04042895063857125,0.998298782547818,-0.05072735725035083,0.021811107469090447,0.01872302275039202
14.516666666666968,0.019438611,-0.9239631,-0.10911331,-2.3690968,-0.044769384,1.4885572,0.6292382,0.04,0.039999966,-0.0057862931010621566,0.009988130197699507,-0.01891216595948375,-0.10330958937672914,-0.05762598808017834,0.040830460555627904,0.9982377963134093,-0.05162035371245936,0.02219481937802416,0.019079598704531416
14.533333333333635,0.019756896,-0.9262688,-0.11091647,-2.3693082,-0.045510523,1.487196,0.6266486,0.04,0.039999966,-0.0043772696755262075,0.009893683558065414,-0.018654778020521512,-0.10411513935411829,-0.05792384033147614,0.04122858354556892,0.9981752395204893,-0.05252020555795666,0.02258136275503697,0.01943968293180728
14.550000000000303,0.020077048,-0.928588,-0.112730116,-2.3695202,-0.04625597,1.485827,0.62404406,0.04,0.039999977,-0.0034602061791844108,0.009684730539802344,-0.018043243900578432,-0.10491261411224162,-0.058219027656661385,0.04162509289001875,0.9981110858242369,-0.053426765469988494,0.02297116232072026,0.019803201453626847
14.56666666666697,0.02039902,-0.93092024,-0.11455403,-2.3697333,-0.04700564,1.4844502,0.6214248,0.04,0.03999997,-0.005173808797787061,0.009263957395749811,-0.017982985788278505,-0.10570279395432078,-0.058505598967857106,0.04201815388089588,0.9980453220417634,-0.0543400114287472,0.02336369765844611,0.0201701745208399
14.583333333333638,0.020722771,-0.93326545,-0.11638803,-2.3699474,-0.04775945,1.4830658,0.618791,0.04,0.039999977,-0.005078015553250381,0.009015041732568507,-0.01770505187039806,-0.10648535999495876,-0.05878919454967611,0.042410061054832984,0.9979779221057811,-0.05525991794083334,0.023759071017533516,0.02054056968498811
14.600000000000305,0.02104828,-0.9356233,-0.11823188,-2.3701627,-0.04851732,1.4816741,0.61614287,0.04,0.039999984,-0.0058420848195073205,0.008635170907073109,-0.017373520378138885,-0.10725894464297195,-0.05906748953867974,0.04279711192263131,0.9979088651529395,-0.05618646260468849,0.024157146574392933,0.020914362015792037
14.616666666666973,0.0213755,-0.93799347,-0.12008535,-2.37038,-0.049279157,1.480275,0.613481,0.04,0.03999998,-0.00743998450967176,0.008188219433641342,-0.01724087012695552,-0.10802365350151509,-0.059342339922276,0.04318211784637467,0.9978381450396588,-0.05711948117149307,0.024557490496712082,0.021291567227805556
14.63333333333364,0.021704393,-0.9403756,-0.12194828,-2.370598,-0.050044853,1.4788687,0.61080563,0.04,0.039999984,-0.0063460641166024345,0.008058740883809534,-0.016749304829488665,-0.10877951386587775,-0.059617564724838354,0.04356385451910482,0.9977657366358622,-0.05805885576729163,0.024960411784301428,0.021672145856975494
14.650000000000308,0.022034934,-0.94276965,-0.12382042,-2.370817,-0.050814345,1.4774554,0.6081169,0.04,0.039999984,-0.006131835871059366,0.0077684687549761655,-0.01641214176961725,-0.10952690438718761,-0.05988817939293917,0.043941864128855625,0.9976916101056521,-0.05900460949422029,0.025366099735679923,0.022056023381959708
14.666666666666975,0.022367064,-0.94517535,-0.12570156,-2.3710363,-0.051587537,1.476035,0.6054153,0.04,0.039999988,-0.006058724767887824,0.007522275552776514,-0.016217296524678737,-0.1102654576204927,-0.06015300665027602,0.04431730552446845,0.9976157484363776,-0.05995658882227019,0.025774595422427476,0.022443176230949664
14.683333333333643,0.022700753,-0.9475923,-0.1275915,-2.3712573,-0.05236434,1.4746081,0.60270125,0.04,0.039999988,-0.008420854586033144,0.007009422433129631,-0.01583912499878437,-0.11099451640180874,-0.06041202823602848,0.04468838821349326,0.9975381491248503,-0.06091464405680211,0.02618534674481078,0.022833632997289122
14.70000000000031,0.023035968,-0.9500202,-0.12948994,-2.371479,-0.05314465,1.473175,0.5999749,0.04,0.03999999,-0.007124782931233753,0.006780561249725148,-0.014992335400743073,-0.11171516028651318,-0.060670000237521074,0.04505595373327658,0.9974587741892125,-0.06187880794800817,0.026598897661352983,0.02322725905241964
14.716666666666978,0.023372658,-0.95245874,-0.13139676,-2.371702,-0.05392839,1.4717355,0.5972364,0.04,0.039999995,-0.008463660229862668,0.006465758391194232,-0.015262583714270583,-0.11242629681632028,-0.06092094434502056,0.04542001945791438,0.9973776155928148,-0.06284902798635025,0.027014671381338423,0.023624121692049437
14.733333333333645,0.02371079,-0.95490766,-0.13331166,-2.371926,-0.05471546,1.4702895,0.5944863,0.04,0.039999995,-0.0088225606912129,0.006061995764361505,-0.014929528739671127,-0.11312705731038818,-0.06116990878678867,0.04578067131131719,0.9972946607746082,-0.06382516443750806,0.027432588063168003,0.02402417713764115
14.750000000000313,0.02405033,-0.9573668,-0.13523443,-2.3721511,-0.055505764,1.4688382,0.5917249,0.04,0.039999988,-0.00824797886389561,0.005852575535303384,-0.013887689308944573,-0.11381779442086667,-0.06141768776486439,0.04613652799673673,0.997209875799067,-0.06480712461957769,0.027853308996193697,0.024427308188063816
14.76666666666698,0.024391236,-0.95983565,-0.13716488,-2.3723764,-0.05629921,1.4673799,0.5889525,0.04,0.04,-0.008362877120804413,0.005580947248814971,-0.014596542962519443,-0.11449869305252756,-0.06165755748690113,0.04648857035412069,0.9971232652542181,-0.06579478646354413,0.02827601658978295,0.02483358308414227
14.783333333333648,0.024733465,-0.9623142,-0.13910276,-2.3726027,-0.057095714,1.4659175,0.5861694,0.04,0.04,-0.008613577030835984,0.0053004492583802465,-0.012667422663414918,-0.11516941963923036,-0.061895928932102384,0.04683617723648931,0.9970347834210915,-0.06678807259497765,0.028701815294483617,0.02524281692495083
14.800000000000315,0.02507697,-0.9648019,-0.14104784,-2.3728297,-0.05789517,1.4644486,0.58337605,0.04,0.04,-0.009617992363342154,0.004849222234684647,-0.013854016893688481,-0.11583008400351757,-0.062124390570438254,0.04717878752244285,0.9969444447861336,-0.06778690137802654,0.029129445016727283,0.025655125114699726
14.816666666666983,0.02542172,-0.9672986,-0.14299987,-2.3730576,-0.058697503,1.4629747,0.5805725,0.04,0.04,-0.009783319614031782,0.00456725459929419,-0.012693126604590432,-0.11648063467882447,-0.06235099491116983,0.047517178139984184,0.9968522132648798,-0.06879128475626203,0.029559419298591266,0.026070381301843335
14.83333333333365,0.02576767,-0.9698038,-0.14495863,-2.3732862,-0.05950258,1.4614967,0.57775927,0.04,0.04,-0.00963450207773775,0.004309518876879914,-0.011538061676386047,-0.11711913551741146,-0.06257352828002556,0.04785086634001423,0.9967580722628442,-0.06980100457344651,0.029992071286403955,0.026488503154155317
14.850000000000318,0.026114775,-0.97231716,-0.14692385,-2.3735158,-0.060310338,1.4600126,0.5749367,0.04,0.04,-0.011156716652127585,0.0037847518206707287,-0.012884122317435853,-0.11774750860003663,-0.06278589396207428,0.04818015061153093,0.9966620371744548,-0.07081603499410662,0.03042608090949025,0.026909597608814166
14.866666666666985,0.026462996,-0.97483855,-0.14889537,-2.3737464,-0.06112067,1.4585234,0.5721052,0.04,0.04,-0.010945789150262897,0.0035831953918985526,-0.011883589171701736,-0.11836425570843785,-0.06300265828471482,0.048507320801212235,0.9965640851954725,-0.07183618160019646,0.030861989893102536,0.027333581753089604
14.883333333333653,0.0268123,-0.9773679,-0.15087289,-2.3739781,-0.061933465,1.4570303,0.56926507,0.04,0.04,-0.01114869762388615,0.0032056854096990106,-0.011002781828839403,-0.11896988353063817,-0.0632162325937054,0.048828880259301134,0.9964641853543833,-0.07286144470698369,0.03130016416018407,0.02776034770642765
14.90000000000032,0.027162636,-0.9799047,-0.15285622,-2.3742104,-0.06274864,1.4555331,0.56641656,0.04,0.04,-0.01046946979870178,0.003081690539052939,-0.010615770567501404,-0.11956390180355973,-0.06342383460146407,0.04914058736574212,0.9963623248792024,-0.07389166851060823,0.03174069928079417,0.02818983673587389
14.916666666666988,0.02751396,-0.98244864,-0.1548451,-2.3744428,-0.06356608,1.4540321,0.5635601,0.04,0.04,-0.01047795770188209,0.0027806663104590346,-0.010140764968147309,-0.12014648671576522,-0.0636241508296114,0.049450914310798844,0.9962584942746882,-0.07492670760690513,0.03218357297708839,0.02862199684069523
14.933333333333655,0.027866237,-0.9849995,-0.15683928,-2.3746755,-0.064385675,1.4525268,0.56069607,0.04,0.04,-0.010790587914000227,0.0023889603387006186,-0.010126244831754061,-0.12071762005394737,-0.06381840030432112,0.049750928266951495,0.9961526830293549,-0.07596650285679693,0.03262858834262059,0.029056802299867228
14.950000000000323,0.028219419,-0.9875568,-0.15883853,-2.3749087,-0.06520737,1.4510177,0.5578248,0.04,0.04,-0.011498239883422912,0.002084304672805848,-0.009567487414718912,-0.12127690834553209,-0.0640047748758237,0.05004776535136834,0.9960448867755021,-0.07701091140751602,0.03307560159121052,0.02949419658069408
14.96666666666699,0.028573459,-0.99012023,-0.1608426,-2.3751426,-0.06603101,1.4495049,0.5549465,0.04,0.04,-0.012316358844799424,0.00165467171474587,-0.009254326750618436,-0.12182462355254889,-0.06418597755223553,0.05033902746063008,0.9959350948306099,-0.07805992705630382,0.033524303125211985,0.029934190696884966
14.983333333333658,0.028928328,-0.99268955,-0.16285124,-2.375377,-0.06685654,1.4479884,0.5520616,0.04,0.04,-0.012049691210425095,0.0014094393172819908,-0.008846615059110441,-0.12235945356898825,-0.06436456353051263,0.05062262094068066,0.9958232980858369,-0.07911337468908422,0.033974841622801025,0.030376686314616482
15.000000000000325,0.029283967,-0.9952644,-0.16486424,-2.3756118,-0.06768387,1.4464684,0.5491706,0.04,0.04,-0.012414647229030962,0.0011117493389639632,-0.008536029411909674,-0.12288242681986283,-0.06453788361659363,0.05090154103042713,0.995709495014877,-0.08017110152499224,0.03442704658737982,0.030821656035299475
15.016666666666993,0.02964035,-0.9978446,-0.16688132,-2.375847,-0.06851289,1.4449445,0.54627377,0.04,0.04,-0.01274685145955523,0.0007148051675315292,-0.00846467181218058,-0.12339264769641602,-0.0647086215163491,0.05117514419275579,0.9955936792057491,-0.08123305083750688,0.03488068971131632,0.03126907197941711
15.03333333333366,0.029997425,-1.0004299,-0.16890225,-2.3760831,-0.06934348,1.443419,0.54337144,0.04,0.04,-0.012562131079763006,0.000498458835707094,-0.006758192636613369,-0.12389035531929396,-0.06487654901198388,0.051440929429106975,0.9954758180942689,-0.08229908058832074,0.03533663242802066,0.03171875364055134
15.050000000000328,0.030355146,-1.0030196,-0.17092673,-2.3763194,-0.07017555,1.4418907,0.54046375,0.04,0.04,-0.012799381340800053,0.00016037693046089263,-0.006888035811625226,-0.12437550684684845,-0.06503387065194098,0.051699150196555584,0.9953559143922651,-0.08336919686851495,0.03579423199682987,0.032170695572116485
15.066666666666995,0.030713476,-1.0056134,-0.17295456,-2.3765569,-0.07100897,1.4403591,0.537551,0.04,0.04,-0.014813625722887025,-0.0004650517041959734,-0.007218453164403726,-0.12484690473601838,-0.06518631914100721,0.051954420399539396,0.9952339785839094,-0.08444338255313132,0.036252618640710534,0.03262500048612015
15.083333333333663,0.03107236,-1.0082117,-0.17498551,-2.3767946,-0.07184366,1.438826,0.53463405,0.04,0.04,-0.012426351786354317,-0.0003369707596206917,-0.005872569013076756,-0.125302959271813,-0.06534248544795278,0.05220579587572877,0.995109987695731,-0.08552116149329136,0.03671325885354924,0.03308141395697238
15.10000000000033,0.03143177,-1.0108137,-0.17701933,-2.3770328,-0.07267952,1.4372902,0.5317131,0.04,0.04,-0.013822456761580781,-0.0008589935955038985,-0.006103896521625352,-0.12574729254505174,-0.06548615446443039,0.05244392184791411,0.9949839566225029,-0.0866025537503655,0.0371751577830466,0.03353999689251357
15.116666666666998,0.031791653,-1.0134188,-0.17905572,-2.3772712,-0.07351646,1.4357529,0.5287884,0.04,0.04,-0.013545115366131455,-0.0010567294182695086,-0.004805826218678977,-0.12617831448779554,-0.06562852737844384,0.05267686009946773,0.9948558658929328,-0.08768749532484348,0.03763867046980561,0.03400058451473742
15.133333333333665,0.03215196,-1.0160266,-0.18109447,-2.3775096,-0.07435435,1.4342134,0.52586013,0.04,0.04,-0.013671754155986093,-0.001366053925178079,-0.00487401642795815,-0.1265955767725397,-0.06576383043402391,0.052907628338159304,0.9947257192052691,-0.08877589343335941,0.03810345133676127,0.03446318750342492
15.150000000000333,0.032512654,-1.0186378,-0.18313536,-2.3777483,-0.0751931,1.4326727,0.5229289,0.04,0.04,-0.01322381379877946,-0.0016123862619316087,-0.004550434749006627,-0.1269984146284308,-0.0658959839519971,0.05312846762717374,0.9945934970161613,-0.08986754343216163,0.038570152575867156,0.0349276918920488
15.166666666667,0.032873683,-1.0212511,-0.18517807,-2.377987,-0.07603263,1.4311302,0.5199949,0.04,0.04,-0.014061039159818378,-0.0020079918626597637,-0.00412433101271148,-0.12738744357474935,-0.06601749373600463,0.05334107044834578,0.9944592208420552,-0.09096239049890449,0.03903794646511598,0.03539407199975662
15.183333333333668,0.03323502,-1.0238667,-0.1872224,-2.3782258,-0.076872796,1.4295866,0.5170588,0.04,0.04,-0.01399647732793774,-0.002296462713166636,-0.0034650541386183065,-0.1277621577693737,-0.0661349305693877,0.05354904829937934,0.9943228831197767,-0.09206019626339967,0.03950725014529355,0.035862258075537286
15.200000000000335,0.033596594,-1.026484,-0.18926811,-2.3784647,-0.07771354,1.4280422,0.51412076,0.04,0.04,-0.013978963967575808,-0.0024969687530379536,-0.0030294012367648726,-0.1281230360247933,-0.06624682694493571,0.05374479285609243,0.994184485443319,-0.0931608660563258,0.03997794422860504,0.03633216088663949
15.216666666667003,0.03395838,-1.0291026,-0.1913149,-2.3787038,-0.07855473,1.4264969,0.511181,0.04,0.04,-0.014773534812295708,-0.002961760191949603,-0.0024636491736673705,-0.128469893675807,-0.06635155031777645,0.05393604522399384,0.9940440282093687,-0.0942643992585243,0.04044968183260212,0.036803753251028554
15.23333333333367,0.034320325,-1.0317224,-0.19336255,-2.378943,-0.07939623,1.4249507,0.5082396,0.04,0.04,-0.014248909169367607,-0.003200418257209847,-0.002430473071601824,-0.1288017965246599,-0.06645126469305085,0.05412407468131637,0.993901493551024,-0.09537078129787278,0.04092264843459925,0.037276963888911566
15.250000000000338,0.034682404,-1.0343431,-0.19541077,-2.379182,-0.08023799,1.423404,0.50529784,0.04,0.04,-0.014506494476052012,-0.00350601032051423,-0.0018380346622715038,-0.1291165452318987,-0.0665451025065072,0.054297710027708376,0.9937569272572329,-0.09647947847259525,0.04139670604742142,0.03775172168712383
15.266666666667005,0.035044555,-1.0369643,-0.19745937,-2.3794212,-0.0810799,1.4218569,0.5023556,0.04,0.04,-0.014668743459900213,-0.0037448251463789717,-0.0013392768776987474,-0.12941831194431158,-0.0666346401243812,0.054467085153929826,0.9936103155967975,-0.0975905485255737,0.041871804926321574,0.03822796790730946
15.283333333333672,0.035406724,-1.0395855,-0.19950807,-2.3796604,-0.08192182,1.4203098,0.4994131,0.04,0.04,-0.014859476107575986,-0.004066589508433527,-0.0006612552503559854,-0.12970572204919534,-0.0667163970120384,0.05463076060383654,0.9934616598773686,-0.09870390443283149,0.04234788842947961,0.0387056320059843
15.30000000000034,0.03576889,-1.0422068,-0.2015566,-2.379899,-0.082763664,1.4187627,0.49647057,0.04,0.04,-0.013916519888867995,-0.0042761660026424675,-0.000597427180026866,-0.12997726141952304,-0.0667942617548136,0.05478423293611026,0.9933109427055216,-0.09981952145176293,0.04282525147319708,0.039184589762643086
15.316666666667007,0.03613099,-1.0448275,-0.20360476,-2.380138,-0.08360536,1.4172162,0.49352872,0.04,0.04,-0.015385930919720181,-0.004635858120782821,0.000327375501707472,-0.13023264268416104,-0.06686147982307163,0.0549302103745281,0.9931582035803836,-0.10093707527531331,0.04330347301836234,0.039664829766420114
15.333333333333675,0.03649299,-1.0474472,-0.20565225,-2.3803768,-0.08444677,1.4156704,0.4905878,0.04,0.04,-0.015144461177918345,-0.004950591220265199,0.0007855274161139292,-0.1304726724338346,-0.06692483377913201,0.055067103644534265,0.9930034427555103,-0.10205649964477519,0.04378255163213111,0.04014625422800407
15.350000000000342,0.036854833,-1.0500659,-0.20769879,-2.3806155,-0.08528779,1.4141252,0.48764813,0.04,0.04,-0.014801389638341433,-0.005242046470499417,0.0008999091818728822,-0.13069716852298408,-0.06698162278291594,0.055197608778256274,0.9928466646514553,-0.103177681191983,0.044262486760838805,0.04062879348531942
15.36666666666701,0.037216496,-1.0526834,-0.20974419,-2.380854,-0.086128354,1.4125811,0.48471016,0.04,0.04,-0.014649821747703129,-0.005404759739607856,0.001406218072186327,-0.13090553689372583,-0.06703137662611033,0.055318821798513836,0.9926878768612066,-0.1043004245742687,0.044743445527207014,0.04111234180597208
15.383333333333677,0.03757793,-1.0552988,-0.21178822,-2.3810923,-0.08696834,1.4110376,0.4817742,0.04,0.04,-0.01578190459716744,-0.005824969632239885,0.001713106170819767,-0.1310983824476341,-0.06707341236020585,0.05543374486701609,0.9925271132709689,-0.10542462484750459,0.045224666294680575,0.041596964508183135
15.400000000000345,0.037939068,-1.057912,-0.21383059,-2.3813307,-0.087807596,1.4094957,0.47884074,0.04,0.04,-0.015449016313029418,-0.0060981291249151415,0.002740327740324844,-0.13127486239771732,-0.06711137371566171,0.05553752061706303,0.9923643750474217,-0.10655008791438787,0.04570655410223233,0.0420825000953613
15.416666666667012,0.03829988,-1.060523,-0.21587104,-2.3815687,-0.08864612,1.4079553,0.47591004,0.04,0.04,-0.014569016117516043,-0.006200591849769843,0.002612971345195003,-0.13143549157267673,-0.06714480587683742,0.055633617710985094,0.9921996661026502,-0.10767669310867639,0.046189271095653996,0.04256880997422548
15.43333333333368,0.038660333,-1.0631312,-0.21790928,-2.3818061,-0.08948371,1.4064158,0.4729824,0.04,0.04,-0.01517163877569061,-0.006677840710150873,0.0028709917078706404,-0.13158027658279686,-0.06716864222298603,0.05572164972842926,0.9920330131183603,-0.10880436359106695,0.046672235023327416,0.04305593832187683
15.450000000000347,0.03902037,-1.0657367,-0.21994512,-2.3820436,-0.09032033,1.4048789,0.47005817,0.04,0.04,-0.015174410506935132,-0.006835503687024902,0.003932690875652067,-0.13170810481588255,-0.06718921592205451,0.055800833792654374,0.9918644070571356,-0.10993295412278604,0.04715602245340557,0.0435436925100284
15.466666666667015,0.03937995,-1.0683385,-0.2219783,-2.3822803,-0.091155834,1.4033432,0.46713772,0.04,0.04,-0.014974025850467143,-0.007073014523173438,0.003807754045670464,-0.13181935050354768,-0.06719922586885688,0.055873135618058775,0.9916938908366273,-0.11106229008670816,0.04763998196084966,0.04403211006501441
15.483333333333682,0.039739024,-1.0709369,-0.2240086,-2.382517,-0.09199009,1.4018108,0.46422148,0.04,0.04,-0.015193453161588266,-0.007399925009354824,0.005121494316839836,-0.13191396011506087,-0.06720440514349363,0.055935254945965386,0.9915214545439265,-0.11219221087414868,0.04812475499308802,0.0445210170045804
15.50000000000035,0.04009755,-1.0735309,-0.2260357,-2.3827538,-0.092823036,1.4002801,0.4613098,0.04,0.04,-0.016296956973116394,-0.007892769647654951,0.004863792221376784,-0.13199174902352617,-0.06720058342762475,0.05598948725303493,0.991347159265188,-0.11332262040841969,0.04860915574784406,0.045010482091318464
15.516666666667017,0.040455494,-1.0761209,-0.22805937,-2.3829901,-0.09365462,1.3987521,0.45840296,0.04,0.04,-0.014808657959486382,-0.007863799746526956,0.005321539367664219,-0.13205213566829013,-0.06719529398835888,0.056034745336577534,0.9911709908233226,-0.11445335855652654,0.04909399166211848,0.04550028184664265
15.533333333333685,0.040812794,-1.0787059,-0.23007938,-2.383226,-0.09448469,1.3972273,0.45550135,0.04,0.04,-0.01507090048957771,-0.008096387075323674,0.006409645687810439,-0.13209548926258033,-0.06718167424810581,0.0560709574905167,0.99099297635145,-0.11558424471656466,0.04957913772341148,0.045990350053013225
15.550000000000352,0.04116942,-1.0812861,-0.23209554,-2.3834615,-0.09531315,1.395705,0.45260537,0.04,0.04,-0.015568690181444467,-0.008496283668163462,0.005971373145952086,-0.13212178673537012,-0.06716105684892965,0.05609950013795627,0.9908131502358767,-0.11671515055316005,0.05006412165634168,0.04648073443686418
15.56666666666702,0.04152534,-1.083861,-0.23410751,-2.3836968,-0.09613991,1.394185,0.4497153,0.04,0.04,-0.015740148219611783,-0.008887790505063276,0.0061494841973597225,-0.13213099236074152,-0.06713526004665386,0.05611758180060337,0.9906315376414554,-0.11784601161552863,0.05054863872785919,0.04697136680147829
15.583333333333687,0.041880496,-1.0864302,-0.23611511,-2.3839312,-0.096964836,1.3926687,0.4468315,0.04,0.04,-0.014219209896726426,-0.008702939010601929,0.007691737378523467,-0.13212151471646588,-0.06710829997097902,0.056128332248745576,0.9904481396117786,-0.11897654033586216,0.051033551168031516,0.0474620084325939
15.600000000000355,0.04223484,-1.0889937,-0.23811807,-2.384165,-0.0977879,1.3911563,0.4439544,0.04,0.04,-0.014801617425330704,-0.009111778152093297,0.007747123351431462,-0.13209537962604695,-0.06707013558308565,0.05612908583685047,0.9902629877401483,-0.12010660877649619,0.05151860736814389,0.04795258840783712
15.616666666667022,0.042588342,-1.0915507,-0.24011616,-2.3843975,-0.09860896,1.3896477,0.44108427,0.04,0.04,-0.013633573406224286,-0.009065379199912904,0.008366171339302397,-0.13205192574289892,-0.0670231122351117,0.05612124062862837,0.9900761032605039,-0.12123604325065393,0.05200391188978802,0.048443004836411764
15.63333333333369,0.04294094,-1.0941014,-0.24210913,-2.3846295,-0.0994279,1.388143,0.4382215,0.04,0.04,-0.014872955211808758,-0.009678359751580379,0.008319138406853721,-0.13199193288453787,-0.06696575303397234,0.056105321066348454,0.9898875211940075,-0.12236473818116568,0.052489051093028524,0.04893327854938456
15.650000000000357,0.04329261,-1.0966454,-0.24409673,-2.3848612,-0.10024462,1.386642,0.43536636,0.04,0.04,-0.015408293548269114,-0.010056042568551415,0.00873019405667197,-0.13191397318058598,-0.0669015511458849,0.05607972394834467,0.9896972705746158,-0.12349264537228814,0.0529736643324039,0.049423375474646494
15.666666666667025,0.043643303,-1.0991822,-0.24607868,-2.3850925,-0.10105901,1.3851448,0.43251932,0.04,0.04,-0.014999353818589967,-0.010244212085869231,0.008982465988516264,-0.13181765133006382,-0.06683335881723566,0.05604641326335566,0.9895053895273812,-0.12461952367970411,0.05345773375291778,0.0499132158462209
15.683333333333692,0.043992978,-1.1017115,-0.24805483,-2.385323,-0.10187101,1.3836517,0.42968068,0.04,0.04,-0.014782080943298581,-0.010322178021576756,0.009644953434417847,-0.13170314960477034,-0.06675967201909462,0.0560026875891468,0.9893119119283561,-0.12574520217733628,0.05394118285926607,0.050402716571476845
15.70000000000036,0.04434157,-1.104233,-0.25002494,-2.3855524,-0.10268052,1.3821648,0.42685077,0.04,0.04,-0.01310146070792051,-0.010125174181485619,0.011323629208903618,-0.1315706389843179,-0.06668103745101804,0.05595006959227653,0.9891168270147218,-0.1268694236915045,0.05442521421692726,0.050891530788099416
15.716666666667027,0.044689078,-1.1067468,-0.25198865,-2.385781,-0.1034874,1.3806828,0.4240299,0.04,0.04,-0.014095162529548233,-0.0108669930785954,0.010476956085592182,-0.13142208849388828,-0.06658640726208005,0.05588921037248659,0.9889201813657272,-0.12799220678393292,0.05490894451142411,0.05137974019783999
15.733333333333695,0.045035433,-1.1092522,-0.2539459,-2.3860095,-0.10429159,1.3792048,0.42121848,0.04,0.04,-0.015475006146914438,-0.011211284703954716,0.01025632844323665,-0.1312547483759323,-0.06648290542420533,0.05581784772590876,0.988722051372612,-0.12911336148829985,0.05539137559380151,0.05186752861426831
15.750000000000362,0.0453806,-1.1117489,-0.25589636,-2.3862367,-0.10509299,1.3777312,0.4184168,0.04,0.04,-0.01375435961605831,-0.011100512941142338,0.011021650641351854,-0.13106908312937643,-0.06637850699249394,0.05573919028411621,0.9885224497899764,-0.13023270750674226,0.055873063781273456,0.05235464545176926
15.76666666666703,0.045724533,-1.1142365,-0.25783977,-2.3864632,-0.10589147,1.3762643,0.4156252,0.04,0.04,-0.01379300268080641,-0.011351366000367236,0.012940366899028,-0.13086526616066904,-0.06626866625754553,0.05565082869467786,0.9883213916975976,-0.13135005218870946,0.05635456713225825,0.0528408295381793
15.783333333333697,0.0460672,-1.116715,-0.25977588,-2.3866887,-0.10668699,1.3748019,0.41284397,0.04,0.04,-0.013949505963939401,-0.011742736560027556,0.01131990779063008,-0.13064415985340494,-0.06614599271147445,0.05555333077145479,0.9881189349415876,-0.13246536585794688,0.056834944599011436,0.05332622554100588
15.800000000000365,0.046408545,-1.1191837,-0.26170453,-2.3869135,-0.10747943,1.373346,0.41007352,0.04,0.04,-0.013813149920682832,-0.011736882639928892,0.013387492197614037,-0.13040369287061418,-0.06601969475909619,0.0554464771349707,0.9879151083655981,-0.13357835280971597,0.05731475182161848,0.053810608129416015
15.816666666667032,0.046748545,-1.1216422,-0.26362538,-2.3871377,-0.1082687,1.3718952,0.40731415,0.04,0.04,-0.014318025502424447,-0.012289440271129326,0.01270924021793407,-0.13014565930545477,-0.065884923218507,0.05533111035326471,0.9877099753531652,-0.13468897233988555,0.05779309765803218,0.054294043696933116
15.8333333333337,0.04708715,-1.1240911,-0.26553842,-2.387361,-0.10905469,1.3704509,0.40456608,0.04,0.04,-0.013311513510672057,-0.012122225116356633,0.013332521520703633,-0.12986901380545873,-0.06574679766088823,0.05520728257875477,0.9875035268605333,-0.13579705212908164,0.058270853650569804,0.05477638803255757
15.850000000000367,0.047424328,-1.1265298,-0.26744327,-2.3875833,-0.10983734,1.3690121,0.40182984,0.04,0.04,-0.012997861303665204,-0.012412588614502118,0.013233567000725532,-0.12957377312356178,-0.06559839577633493,0.05507351706124844,0.9872958392008869,-0.13690235909882087,0.0587475150344233,0.05525757366256882
15.866666666667035,0.047760036,-1.1289574,-0.2693398,-2.3878043,-0.110616535,1.3675799,0.3991056,0.04,0.04,-0.012997484723697994,-0.012445895693646847,0.014537217406451752,-0.12926050067385575,-0.06544339460344861,0.05493066554674953,0.9870869479068691,-0.13800474572603105,0.059223122052838986,0.05573750302363545
15.883333333333702,0.048094217,-1.1313741,-0.27122754,-2.388024,-0.11139221,1.3661543,0.39639372,0.04,0.04,-0.012495698809678046,-0.012856601048671923,0.014436632730963073,-0.1289292964861502,-0.06528062058413114,0.05477886091950749,0.9868768839109544,-0.13910412369243175,0.05969775962674471,0.05621597877394575
15.90000000000037,0.04842685,-1.1337795,-0.2731066,-2.3882427,-0.11216422,1.3647356,0.39369446,0.04,0.04,-0.01253259284190733,-0.012760368007935785,0.0150467995638226,-0.12857992074329438,-0.06510905228972064,0.05461948610978977,0.986665690560474,-0.14020027147308226,0.060171368752159435,0.05669308010849573
15.916666666667037,0.048757892,-1.1361734,-0.27497658,-2.3884604,-0.112932526,1.3633236,0.39100823,0.04,0.04,-0.012837052118097603,-0.013243677396046483,0.015111039226811673,-0.12821230026671615,-0.06492838606281481,0.054450138018361786,0.986453426970663,-0.14129307692164195,0.06064356571004113,0.05716870446163597
15.933333333333705,0.049087312,-1.1385555,-0.27683732,-2.388677,-0.113696985,1.3619187,0.38833532,0.04,0.04,-0.01211411359545167,-0.013270775460288986,0.015572054795132129,-0.12782657943198267,-0.0647406442479649,0.05427272577062354,0.9862401220545347,-0.14238236099947577,0.06111462590210541,0.05764275693369572
15.950000000000372,0.049415067,-1.1409255,-0.27868855,-2.388893,-0.11445756,1.3605208,0.38567597,0.04,0.04,-0.013320139743600024,-0.013788942441861352,0.01588229665973051,-0.1274230609295297,-0.06454417331651457,0.05408633764415157,0.986025838170809,-0.14346808199412392,0.06158388594726808,0.05811523810598145
15.96666666666704,0.049741108,-1.1432831,-0.28053007,-2.3891082,-0.11521415,1.3591301,0.3830307,0.04,0.04,-0.012785557099448397,-0.013888280283963494,0.01617178479959014,-0.12699996527049498,-0.06434355116394222,0.05389068804392183,0.9858106357614971,-0.14454995335724183,0.06205137654241966,0.058586074054533074
15.983333333333707,0.050065402,-1.1456283,-0.2823617,-2.3893216,-0.11596665,1.357747,0.38039955,0.04,0.04,-0.010523725594158151,-0.013520538281913685,0.01642762526969932,-0.12655850801526616,-0.06413921816171045,0.05368604863073359,0.9855945168942577,-0.14562785661779137,0.06251783076726933,0.05905502926117222
16.000000000000373,0.05038791,-1.1479604,-0.2841832,-2.389534,-0.116714984,1.3563716,0.37778303,0.04,0.04,-0.012079250088570248,-0.014064263719038017,0.017243668769073572,-0.12609963573135113,-0.0639214004961722,0.05347393491531062,0.9853775682073852,-0.14670159331202684,0.06298258154207512,0.0595221388704117
16.01666666666704,0.05070862,-1.1502793,-0.2859944,-2.3897448,-0.11745907,1.3550042,0.37518123,0.04,0.04,-0.010761858517938094,-0.013967827651856224,0.01734475431430793,-0.12562283492364126,-0.06369805835668717,0.053251426629659794,0.9851598137474069,-0.14777106881124613,0.06344589528360432,0.05998725674023236
16.033333333333704,0.051027473,-1.1525849,-0.28779504,-2.3899536,-0.118198864,1.3536446,0.37259462,0.04,0.04,-0.010092602383426907,-0.014058060368105085,0.017358831031899502,-0.12512770722931071,-0.06346427983555714,0.05302055545362186,0.9849413122874344,-0.14883603285015362,0.06390785121017142,0.06045025416516561
16.05000000000037,0.051344436,-1.1548766,-0.2895849,-2.3901615,-0.11893423,1.3522929,0.37002343,0.04,0.04,-0.011766779801725136,-0.014665397626190124,0.017929111170711387,-0.1246158470850131,-0.06321995806389728,0.05278268829451883,0.9847221331363447,-0.14989646478522162,0.06436762668339355,0.06091123863005243
16.066666666667036,0.051659457,-1.1571546,-0.29136384,-2.390369,-0.1196651,1.3509496,0.36746782,0.04,0.04,-0.011840421330999717,-0.014905147687943598,0.01821998415670878,-0.1240854371441179,-0.06297119478350302,0.0525357929430893,0.9845023022142607,-0.15095229855604142,0.06482538003351146,0.061370111609634494
16.0833333333337,0.051972523,-1.1594182,-0.29313168,-2.390576,-0.12039138,1.3496145,0.36492825,0.04,0.04,-0.012088517705644009,-0.015131180628158436,0.018424093987046142,-0.12353608687328725,-0.06271524854822866,0.05228120275773599,0.9842819016163075,-0.15200332103224048,0.06528062238847303,0.061826926871136084
16.100000000000367,0.05228361,-1.1616673,-0.29488817,-2.3907807,-0.121113,1.348288,0.362405,0.04,0.04,-0.00911782287271734,-0.014568616903354314,0.018966666616571093,-0.12296719661209986,-0.062459146437841985,0.0520166728342267,0.9840609627277227,-0.15304921457130116,0.06573428584862857,0.06228132319135559
16.116666666667033,0.052592654,-1.1639017,-0.29663312,-2.3909833,-0.12182988,1.3469703,0.3598984,0.04,0.04,-0.008985806398165153,-0.014705609457454916,0.01913643103059748,-0.12238217865329962,-0.062190300276852774,0.051744384931518776,0.9838395450473039,-0.15408981080242057,0.06618623194319276,0.06273326477356357
16.1333333333337,0.052899633,-1.1661211,-0.29836637,-2.3911848,-0.12254195,1.3456614,0.35740852,0.04,0.04,-0.010203791510932092,-0.015241025254203455,0.019369818591674637,-0.12178059501931887,-0.061910694338554804,0.05146417950339216,0.9836176955414534,-0.1551251433701132,0.06663598439943853,0.06318278638395299
16.150000000000365,0.053204514,-1.1683252,-0.30008772,-2.391385,-0.1232491,1.3443618,0.35493582,0.04,0.04,-0.010032085647804223,-0.015355417331813781,0.02005817355980044,-0.12116081351135266,-0.061625581305282576,0.051175693658697535,0.9833954814512512,-0.15615497639423417,0.0670835117608884,0.06362981108257906
16.16666666666703,0.05350727,-1.1705141,-0.30179694,-2.3915842,-0.12395126,1.343071,0.35248044,0.04,0.04,-0.009744168398961861,-0.015605940015162023,0.019576183083369614,-0.1205239478811015,-0.061331665034402884,0.0508797969549776,0.9831729426707194,-0.1571792791087386,0.06752867978566686,0.0640743039405068
16.183333333333696,0.053807847,-1.1726866,-0.3034938,-2.3917823,-0.12464838,1.3417896,0.35004273,0.04,0.04,-0.01040603590736211,-0.015835176115713834,0.020943448175414492,-0.11986867874898019,-0.06103206263608868,0.05057587299261097,0.9829501779551745,-0.15819783630840528,0.06797097748619178,0.06451618761831347
16.20000000000036,0.05410622,-1.1748438,-0.3051782,-2.391979,-0.12534034,1.3405174,0.3476229,0.04,0.04,-0.008727970578670252,-0.015707105313600422,0.019911550622409013,-0.11919535141210794,-0.06072987282084438,0.0502639761469323,0.9827271889341771,-0.1592105297015039,0.06841109648171838,0.06495537883705835
16.216666666667027,0.054402374,-1.1769844,-0.30684996,-2.392173,-0.1260271,1.3392551,0.34522128,0.04,0.04,-0.00716277860823844,-0.015252454720476871,0.021266596615721056,-0.11850459836352642,-0.06041807429191126,0.049944132633183466,0.9825040572823891,-0.1602170070657876,0.0688492645117994,0.06539164202487574
16.233333333333693,0.054696262,-1.179109,-0.30850893,-2.392366,-0.1267086,1.3380022,0.34283805,0.04,0.04,-0.008950084396408542,-0.016026699711446657,0.02068428393574573,-0.1177986526882234,-0.060094727906049056,0.04961465849722724,0.9822808333455889,-0.1612173486225811,0.06928478967304895,0.06582513854874794
16.25000000000036,0.05498786,-1.1812165,-0.31015486,-2.3925574,-0.12738475,1.3367594,0.34047347,0.04,0.04,-0.008576142440208656,-0.016063507462543702,0.021853970383545196,-0.1170751121880658,-0.059765396019498256,0.049281277766719256,0.9820575912510418,-0.1622113558366253,0.06971762214224063,0.06625569157949619
16.266666666667025,0.055277128,-1.1833078,-0.3117877,-2.3927472,-0.12805551,1.3355263,0.33812785,0.04,0.04,-0.0076220973940444026,-0.015974400130980282,0.020896894988708947,-0.11633515245244203,-0.05942882776416935,0.0489393331224743,0.9818343651380708,-0.16319886513035695,0.07014804029545545,0.06668329848464338
16.28333333333369,0.055564046,-1.1853815,-0.31340718,-2.3929365,-0.12872076,1.3343031,0.33580136,0.04,0.04,-0.009827853896293703,-0.016781233683149654,0.022093737510098244,-0.11557819036102077,-0.05908480868244147,0.04858956828853736,0.9816112528121914,-0.16417989115921255,0.0705749219963746,0.0671080626797925
16.300000000000356,0.055848576,-1.1874381,-0.3150131,-2.3931236,-0.12938045,1.3330905,0.33349428,0.04,0.04,-0.006463563744629752,-0.016045326561459072,0.022210808690847905,-0.11480354128461422,-0.05873898984669787,0.04823213747028947,0.9813882730116729,-0.16515410225383678,0.07099954455548808,0.06752958445606387
16.31666666666702,0.0561307,-1.1894774,-0.31660536,-2.3933086,-0.13003457,1.3318882,0.3312069,0.04,0.04,-0.006400300917253077,-0.016134407728751743,0.022028788592254323,-0.1140127148268829,-0.058383283370114794,0.047867748654387754,0.9811654980613944,-0.16612134623841707,0.0714216447054831,0.06794786534862882
16.333333333333687,0.05641039,-1.1914991,-0.31818372,-2.3934917,-0.13068298,1.3306962,0.32893935,0.04,0.04,-0.006613854909742756,-0.016442097582897164,0.022383049436713875,-0.11320743534938121,-0.05801637812139262,0.04749714478205884,0.980942984035748,-0.16708157197213552,0.07184097293922276,0.06836289187496483
16.350000000000353,0.0566876,-1.1935029,-0.31974813,-2.3936737,-0.13132557,1.3295145,0.32669178,0.04,0.04,-0.0076260066805389215,-0.016830576983495327,0.022503560728459604,-0.11238566022317226,-0.05764192951052413,0.047118597238317225,0.9807207921588972,-0.16803476262536066,0.07225700684360442,0.06877478708558349
16.36666666666702,0.056962315,-1.1954886,-0.32129833,-2.3938541,-0.13196243,1.3283436,0.32446456,0.04,0.04,-0.006855558023266539,-0.016747187640414607,0.023060344672110045,-0.11154671826177869,-0.05726322917367579,0.046733214411526385,0.9804989955426714,-0.16898067174523168,0.07266996642104877,0.06918329492519387
16.383333333333685,0.057234496,-1.197456,-0.3228344,-2.3940334,-0.13259335,1.3271837,0.32225806,0.04,0.04,-0.007014721709897032,-0.01683690577378716,0.023221451707022833,-0.11069196112174444,-0.05687959603772704,0.04634105085343342,0.9802776566064466,-0.16991909475692082,0.0730797436189115,0.06958856420243363
16.40000000000035,0.057504125,-1.1994047,-0.3243558,-2.3942106,-0.13321835,1.3260347,0.3200723,0.04,0.04,-0.005470432400667136,-0.01680070592531835,0.023403733598104104,-0.10982248897818678,-0.05648800097399263,0.04594116468889162,0.9800568330615721,-0.17084996850733597,0.07348643792560298,0.06999025411706024
16.416666666667016,0.057771176,-1.2013348,-0.3258628,-2.394385,-0.13383737,1.3248967,0.31790745,0.04,0.04,-0.004435269769453853,-0.016283503303737845,0.02338140194807492,-0.10893759887002018,-0.056091285318781804,0.04553516031871542,0.9798365656352428,-0.1717730517868946,0.07389044678091683,0.07038838823602912
16.43333333333368,0.058035627,-1.2032461,-0.32735497,-2.3945587,-0.1344503,1.3237697,0.31576377,0.04,0.04,-0.006757242167410027,-0.01744022321199523,0.02363393006329373,-0.10803917415953838,-0.055682428050711316,0.04512365727273818,0.9796169316725352,-0.17268846081316516,0.07429077336909712,0.07078307477560546
16.450000000000347,0.05829746,-1.2051382,-0.3288323,-2.3947308,-0.13505712,1.3226541,0.3136414,0.04,0.04,-0.005817668586072244,-0.01711862524953478,0.02414101704180105,-0.10712452621759969,-0.05527110491298546,0.044705079703480755,0.9793979864984792,-0.17359599823735739,0.07468766991958807,0.07117419055165108
16.466666666667013,0.058556627,-1.2070109,-0.33029473,-2.3949018,-0.13565779,1.3215499,0.31154066,0.04,0.04,-0.006102413573660925,-0.017249431923727077,0.024212290063385655,-0.10619469155578012,-0.054854575967408566,0.044280327210398075,0.9791798125057476,-0.1744954886736098,0.0750808233667191,0.07156178572633844
16.48333333333368,0.05881312,-1.2088646,-0.3317419,-2.3950698,-0.13625225,1.320457,0.30946162,0.04,0.04,-0.0029263549707447822,-0.016708097487400098,0.023706239957366204,-0.10524993482212971,-0.05443529737240737,0.04384719896560718,0.9789624224603627,-0.1753867714775375,0.07547121748723441,0.07194547332681071
16.500000000000345,0.05906693,-1.2106988,-0.33317384,-2.3952355,-0.13684045,1.3193758,0.30740452,0.04,0.04,-0.0035667147059825766,-0.016849255862039225,0.02429868754965092,-0.10429258909847959,-0.05400314866563424,0.04341286134338168,0.9787458898367302,-0.17626971048016862,0.07585854734282504,0.07232532813600737
16.51666666666701,0.05931801,-1.2125131,-0.33459035,-2.3954003,-0.1374223,1.318306,0.3053696,0.04,0.04,-0.005843365463098493,-0.01773704469203996,0.02467779676217363,-0.10332216791075093,-0.05356066780492005,0.04297071499038648,0.9785303127365327,-0.17714433989590295,0.07624170250701477,0.07270153160298841
16.533333333333676,0.05956634,-1.2143077,-0.33599135,-2.3955638,-0.13799778,1.317248,0.30335695,0.04,0.04,-0.004878958308163206,-0.017536627898379065,0.024615300710739696,-0.10233646013533368,-0.05311979098676136,0.04252264403904262,0.9783157213887782,-0.17801053706244652,0.07662111755354019,0.07307395105740903
16.55000000000034,0.059811912,-1.216082,-0.33737677,-2.3957253,-0.13856675,1.3162017,0.30136675,0.04,0.04,-0.003555566990032233,-0.017237432744027226,0.024825222169755357,-0.10133677806062721,-0.052672893516426206,0.04206755135267693,0.97810218013998,-0.17886810400338748,0.07699688284372308,0.07344253949858762
16.566666666667007,0.0600547,-1.2178365,-0.33874634,-2.395884,-0.13912933,1.3151673,0.29939917,0.04,0.04,-0.0021588663301042033,-0.017002308127100907,0.024566139334569748,-0.10032391356013776,-0.0522208275614989,0.0416072431833971,0.97788973045245,-0.17971689437844204,0.07736950913448723,0.073806991585425
16.583333333333673,0.060294684,-1.2195704,-0.3401001,-2.396041,-0.13968533,1.3141451,0.29745442,0.04,0.04,-0.003399320466712652,-0.017348607379924497,0.025356778794971557,-0.09929921277041046,-0.05175807817429606,0.041143257571341074,0.9776784562617364,-0.18055681258147044,0.07773836654709293,0.07416751282520777
16.60000000000034,0.060531836,-1.2212843,-0.3414378,-2.3961966,-0.1402348,1.313135,0.29553258,0.04,0.04,-0.00378855040659154,-0.01782073444571708,0.024996999121318364,-0.09826241899678478,-0.05128943536769214,0.04067426346075203,0.9774683920309032,-0.18138792742236962,0.07810336634798438,0.0745239996984198
16.616666666667005,0.060766157,-1.2229772,-0.34275952,-2.396351,-0.14077768,1.3121368,0.29363382,0.04,0.04,-0.00430480605762007,-0.01775470122842293,0.025368004465864402,-0.097211929106759,-0.050817105762404086,0.04019956001396935,0.9772596342416163,-0.18221009220438425,0.07846386158384729,0.07487664526514767
16.63333333333367,0.06099762,-1.2246495,-0.34406504,-2.3965027,-0.1413139,1.311151,0.2917584,0.04,0.04,-0.000920672856752347,-0.017008545825208943,0.02530764881458758,-0.09614808917763139,-0.050345181585453695,0.03971993708266751,0.9770522039391918,-0.18302297882649327,0.07882117443158088,0.07522501219854366
16.650000000000336,0.061226193,-1.2263011,-0.3453543,-2.396652,-0.14184345,1.3101773,0.28990635,0.04,0.04,-0.0017841368098903132,-0.017288625598033125,0.02522873229366951,-0.09507467957779615,-0.04986090028121434,0.039235975231601744,0.9768461772723628,-0.18382658566585053,0.07917465413236983,0.07556921657544897
16.666666666667002,0.06145188,-1.2279317,-0.34662715,-2.3967993,-0.14236622,1.309216,0.28807765,0.04,0.04,-0.0020741953191016904,-0.017607058338209303,0.025513887544081904,-0.0939907268754252,-0.04937052693002768,0.03874869047348681,0.9766415769685602,-0.18462098933935378,0.07952424190114395,0.07590925754985764
16.683333333333668,0.061674643,-1.2295413,-0.34788355,-2.3969462,-0.14288226,1.3082674,0.28627267,0.04,0.04,-0.004020452492925486,-0.01819612113475033,0.025969505981160435,-0.09289395353325297,-0.04887548148223381,0.038254768888888,0.9764385030400988,-0.18540609984055456,0.07986921449905615,0.07624523918271343
16.700000000000333,0.06189449,-1.23113,-0.34912345,-2.397091,-0.14339146,1.307331,0.28449154,0.04,0.04,-0.0012811988801875174,-0.017491060054680707,0.02531628346498227,-0.09178557786211891,-0.04837963715761988,0.03775883770313235,0.9762369846326019,-0.1861816862614419,0.08021029376315232,0.07657700902176648
16.716666666667,0.0621114,-1.2326968,-0.3503467,-2.3972316,-0.14389387,1.306407,0.28273427,0.04,0.04,0.0012452902409254563,-0.016545850392540862,0.02584720711112931,-0.0906664776505725,-0.04787859703070198,0.037256413951862986,0.9760371041612194,-0.18694743425863322,0.08054786568700346,0.07690428764355949
16.733333333333665,0.06232536,-1.2342426,-0.3515532,-2.3973715,-0.14438942,1.3054959,0.281001,0.04,0.04,-0.002719167655840238,-0.018197957342735993,0.025912880633349733,-0.08954029299408546,-0.0473677950753802,0.036752261734043314,0.9758388814077271,-0.18770369129336967,0.08088103827458054,0.07722732324368908
16.75000000000033,0.06253634,-1.2357668,-0.35274294,-2.3975103,-0.14487807,1.3045975,0.27929178,0.04,0.04,-0.0021869622960579704,-0.017931220001971004,0.026129750458647738,-0.08840265046961585,-0.04685439475059665,0.03624366977037474,0.9756423864842086,-0.1884503098021359,0.08120967473466581,0.07754613568945314
16.766666666666996,0.06274432,-1.2372698,-0.35391605,-2.3976479,-0.14535978,1.3037117,0.2776068,0.04,0.04,-0.0019157862680252435,-0.017814193290949243,0.025657499595432842,-0.08725415772279291,-0.046339989698626176,0.03573138691408511,0.9754476627632342,-0.18918717162391763,0.08153383034973753,0.07786081049659138
16.783333333333662,0.06294935,-1.2387505,-0.35507205,-2.397781,-0.14583454,1.3028389,0.27594608,0.04,0.04,0.0030625176418830335,-0.016450910975762678,0.026373469031071295,-0.08609553017794597,-0.04582435175836856,0.03521477535141286,0.9752547709628485,-0.18991386008870648,0.08185476422105535,0.0781706788682588
16.800000000000328,0.06315135,-1.2402103,-0.35621107,-2.3979127,-0.14630231,1.3019783,0.2743097,0.04,0.04,-0.001309139964034145,-0.018023777934489393,0.02507856877285164,-0.08493215904819056,-0.045293734742615825,0.03469605676265028,0.9750637323023127,-0.1906307728374961,0.08217116485244529,0.07847627707055863
16.816666666666993,0.06335038,-1.2416483,-0.35733306,-2.3980434,-0.1467631,1.301131,0.27269778,0.04,0.04,-0.0012088163054535528,-0.017904802949425536,0.026469789697913804,-0.08375820529126947,-0.044762827171800454,0.0341743136997404,0.9748746171868387,-0.19133775072327658,0.08248304342433267,0.07877749336220165
16.83333333333366,0.063546345,-1.2430642,-0.358438,-2.3981733,-0.14721689,1.3002964,0.27111045,0.04,0.04,-0.002070310083368554,-0.01818935572996394,0.026381625056326463,-0.08257501794874794,-0.044229855076800266,0.033649651253971416,0.9746875100324177,-0.19203474659705116,0.08278975572235016,0.0790744600591448
16.850000000000325,0.06373927,-1.2444578,-0.35952583,-2.3982987,-0.14766362,1.299475,0.2695477,0.04,0.04,0.0038995204829195274,-0.016160430471362508,0.02604511429497025,-0.08138266081768403,-0.04370028021584396,0.03312240452074788,0.9745024197304877,-0.19272126008044793,0.0830932406713111,0.07936663787239848
16.86666666666699,0.06392916,-1.2458296,-0.36059642,-2.398422,-0.14810334,1.2986664,0.26800957,0.04,0.04,0.0006722407998260849,-0.017473801626893826,0.026017398452349294,-0.08018638039424768,-0.04315795997442095,0.03259139204725457,0.9743193961564935,-0.19339759316436575,0.08339235263576704,0.079654257597119
16.883333333333656,0.06411603,-1.2471793,-0.36164987,-2.3985445,-0.148536,1.2978709,0.26649606,0.04,0.04,-0.0012646454019993314,-0.018055170831671186,0.026423173036482783,-0.07898364729405973,-0.042610727953036304,0.032059166337480134,0.9741384812075503,-0.19406386124192543,0.0836864767029792,0.0799375431669217
16.900000000000322,0.06429985,-1.2485071,-0.3626861,-2.3986666,-0.14896153,1.2970884,0.26500747,0.04,0.04,-0.0012982335662492517,-0.01823926967324252,0.026170287267957004,-0.07777182904057732,-0.04206638863389986,0.0315249247207603,0.9739597319186447,-0.19471995139432516,0.0839755386861988,0.080216519697106
16.916666666666988,0.06448058,-1.2498127,-0.36370504,-2.3987837,-0.14937997,1.2963191,0.26354352,0.04,0.04,0.005399469403188917,-0.01581421648158554,0.025924626151807573,-0.07655200164097853,-0.04152423033399712,0.03098697263501173,0.9737831633035778,-0.19536535778079012,0.08426151509489625,0.0804905268933804
16.933333333333653,0.06465826,-1.2510961,-0.3647067,-2.398899,-0.14979135,1.2955623,0.26210457,0.04,0.04,0.0003981900337457489,-0.01761181308400639,0.025725486382532914,-0.07533057448136957,-0.04096661283006463,0.03044838787231012,0.9736088698361925,-0.19600035877922375,0.0845424775748729,0.0807601227104654
16.95000000000032,0.06483287,-1.2523574,-0.365691,-2.3990138,-0.15019557,1.294819,0.26069045,0.04,0.04,-0.00032348978136198525,-0.01796597760986285,0.02665267102379687,-0.07410322854107088,-0.04041127758435339,0.02990765852142896,0.9734368508023623,-0.1966250799811007,0.08481854522369324,0.0810252417987222
16.966666666666985,0.06500444,-1.2535964,-0.36665803,-2.3991275,-0.15059265,1.2940887,0.25930128,0.04,0.04,-5.825407156656581e-05,-0.017834507225134022,0.026162072795055114,-0.07286913511556536,-0.039857361540889175,0.029365450416701182,0.9732671615449653,-0.1972394373222141,0.08508952958595764,0.08128596790260355
16.98333333333365,0.06517292,-1.2548133,-0.36760768,-2.3992367,-0.15098271,1.2933718,0.25793698,0.04,0.04,0.005511885454456689,-0.01581751354450822,0.02578835353811426,-0.07162920044582259,-0.039304136221362876,0.028821263627065018,0.9730998237183086,-0.19784294718790263,0.08535722854747836,0.08154167561495836
17.000000000000316,0.065338336,-1.2560083,-0.36854,-2.399344,-0.15136562,1.2926677,0.2565976,0.04,0.04,0.0017737103234161111,-0.017266296944207227,0.025663890499838526,-0.07038900077392489,-0.03873935056456807,0.028277567847118802,0.9729348733671083,-0.19843595288346264,0.08562031533497631,0.0817928260381086
17.016666666666982,0.06550067,-1.2571809,-0.36945495,-2.3994503,-0.15174139,1.2919769,0.25528324,0.04,0.04,0.0004902678039542252,-0.017670436806682677,0.026255213469528194,-0.0691446362555107,-0.038172141038330665,0.02773210749151412,0.9727723695144471,-0.1990184627194539,0.08587832311518166,0.08203951624039447
17.033333333333648,0.065659925,-1.2583314,-0.3703526,-2.399556,-0.15211001,1.291299,0.25399375,0.04,0.04,0.00021207534848244336,-0.01776579130917666,0.02591874579220832,-0.06789617032429998,-0.03760750852661496,0.02718610902566916,0.9726123362340208,-0.19959056064007039,0.08613102158803426,0.08228182441453322
17.050000000000313,0.06581614,-1.2594596,-0.37123287,-2.3996563,-0.15247151,1.2906344,0.2527291,0.04,0.04,0.007132899691697503,-0.015302732685917864,0.025576172072516723,-0.06664214553117108,-0.03704822581456005,0.026637748744188155,0.972454779149299,-0.20015167125413877,0.08638066226841254,0.08251904137793782
17.06666666666698,0.06596927,-1.2605656,-0.37209585,-2.3997555,-0.1528259,1.2899827,0.25148934,0.04,0.04,0.0011943358190436015,-0.017351478895000216,0.025736794497177584,-0.06539079028798053,-0.036473147229058756,0.02609083149552381,0.9722997641952875,-0.20070223020571504,0.08662518272473815,0.08275180393288162
17.083333333333645,0.06611932,-1.2616494,-0.37294152,-2.399854,-0.15317316,1.2893441,0.25027448,0.04,0.04,0.0006972714885478126,-0.017570220779905554,0.02602384355410159,-0.06413632137957143,-0.03590096244367172,0.025543676380995504,0.9721473220960257,-0.2012422812762588,0.08686440495278884,0.082980139313279
17.10000000000031,0.06626632,-1.2627112,-0.37376994,-2.3999515,-0.15351331,1.2887183,0.24908441,0.04,0.04,0.0012577841911998178,-0.017367099857623636,0.025538532059010688,-0.06287851625005753,-0.03533421272049421,0.024996150826020462,0.9719974606572319,-0.2017718445385163,0.0870984922478023,0.08320403761583405
17.116666666666976,0.06641028,-1.2637508,-0.37458113,-2.400044,-0.1538464,1.288106,0.24791917,0.039999995,0.04,0.007345066334352168,-0.01503227288101594,0.02531483616620145,-0.06161723947419334,-0.03477299289749551,0.024447579464820592,0.9718502058497274,-0.20229031741642736,0.08732941384112101,0.08342288863117879
17.133333333333642,0.066551164,-1.2647684,-0.37537485,-2.400135,-0.15417239,1.2875063,0.24677862,0.039999995,0.04,0.002207526975217533,-0.01717997817037853,0.025370457677698077,-0.0603613991771532,-0.03419451753847426,0.02390046730941812,0.9717055951934436,-0.202798270700021,0.08755526727724992,0.08363714989671728
17.150000000000308,0.06668901,-1.2657636,-0.3761516,-2.4002254,-0.15449135,1.2869198,0.24566275,0.039999995,0.04,0.0011015519560508835,-0.017049251890477457,0.025831386839836323,-0.05910351674222316,-0.03362177925022784,0.02335446065061038,0.9715636633722925,-0.20329567007939878,0.08777578487884219,0.08384706393477473
17.166666666666973,0.06682381,-1.266737,-0.37691125,-2.400315,-0.15480326,1.286346,0.24457155,0.039999995,0.04,0.001278454341990809,-0.017154532010749124,0.025224288657610394,-0.05784458872468756,-0.03305428998613362,0.02280861959715018,0.9714244302005413,-0.20378255616425853,0.08799090226011823,0.08405264619370811
17.18333333333364,0.0669556,-1.2676885,-0.37765378,-2.4003997,-0.15510814,1.2857853,0.24350488,0.039999984,0.04,0.007960992575961612,-0.014752209571872177,0.024799881277570712,-0.056584127123537435,-0.03249501053583789,0.022263177729747667,0.9712878786809717,-0.20425841908130174,0.08820293453491712,0.08425317383490452
17.200000000000305,0.06708437,-1.2686183,-0.37837926,-2.4004827,-0.15540612,1.2852374,0.24246264,0.039999984,0.04,0.0030446864833333365,-0.0163853345335363,0.02488350742497758,-0.055330338603152354,-0.03192091483195063,0.02171882534835917,0.9711540522915975,-0.20472370742829624,0.08841014492513039,0.08444913622257989
17.21666666666697,0.06721016,-1.2695265,-0.3790878,-2.400565,-0.1556971,1.2847024,0.2414448,0.03999997,0.04,0.0017922810263915068,-0.01683405005942218,0.025107375215083216,-0.05407808521860146,-0.0313483680371715,0.02117734968661945,0.9710229651985628,-0.20517853835012928,0.08861215869327291,0.08464073362875241
17.233333333333636,0.06733293,-1.2704132,-0.37977955,-2.4006464,-0.15598114,1.2841803,0.24045123,0.039999977,0.04,0.0019782991792727245,-0.01664248935902002,0.02487814091963747,-0.05282547710634884,-0.030783507012669915,0.020635730036309655,0.9708946246987602,-0.20562292272729413,0.08880909369811239,0.08482798038771527
