rsonawane2002/My_IMU/logs_2/traj_349/clean_349.csv
time,j1,j2,j3,j4,j5,j6,j7,gripper1,gripper2,imu_ax,imu_ay,imu_az,imu_gx,imu_gy,imu_gz,quat_x,quat_y,quat_z,quat_w
1083.9333333326763,0.00016700293,-0.785875,4.0107683e-05,-2.3551247,9.29385e-05,1.570997,0.786,0.04,0.04,0.0,-0.0,0.0,2.875329272945135e-08,-0.0011641195053377316,4.421952117202833e-08,0.9999995971961153,0.00020320632366974898,0.0008736418299892524,3.263050917662294e-05
1083.949999999343,0.0001670146,-0.78576016,4.0105722e-05,-2.3552213,9.2984475e-05,1.5709941,0.786,0.04,0.04,-0.291998458787357,-4.231931737980763e-05,0.0201284066674301,-8.164836127829104e-08,-0.0022386661286283626,1.0509601155659224e-06,0.9999996850587657,0.00020320592425981213,0.0007665025154994755,3.261312034660076e-05
1083.9666666660096,0.00016708722,-0.78565425,4.004196e-05,-2.35531,9.3099516e-05,1.5709913,0.786,0.04,0.04,0.023262858616224236,-4.5906202764952686e-05,-0.0016365869373702324,-1.703002721860956e-07,-0.0032304570403657155,7.74706755639033e-06,0.9999997558657074,0.00020319651388753463,0.00066776742250621,3.2655346211202825e-05
1083.9833333326762,0.0001673199,-0.7855569,3.9815728e-05,-2.355391,9.340047e-05,1.5709884,0.786,0.04,0.04,0.022460766976717395,-0.00012348149386504385,-0.0015249526417626669,-4.195462590943859e-07,-0.004148998190426357,2.4503266399568203e-05,0.999999812278132,0.0002031641346638525,0.0005771384936728718,3.2851095213769616e-05
1083.999999999343,0.00016785404,-0.78546727,3.9282895e-05,-2.3554652,9.406118e-05,1.5709856,0.786,0.04,0.04,0.020255486984699367,-0.0002388450188649412,-0.0013237716932623655,-9.40962589949732e-07,-0.005000503230563742,5.859229329069874e-05,0.9999998568970295,0.00020308910623761877,0.0004938110143103448,3.3337929703538e-05
1084.0166666660095,0.00016886918,-0.7853847,3.8259997e-05,-2.3555322,9.529292e-05,1.570986,0.786,0.04,0.04,0.021060278940177035,-0.0003783349009857514,0.0016184610194036608,-1.2241777790704283e-06,-0.005793016725606033,0.00011168673908375318,0.999999890922754,0.00020294662349298588,0.0004192750345016148,3.428693182669413e-05
1084.0333333326762,0.00017057876,-0.78530866,3.6528298e-05,-2.355597,9.736256e-05,1.5709869,0.786,0.04,0.039999995,0.010944258887146674,-0.0005535647369335202,-0.002492815608734489,-1.799527172861714e-06,-0.006514225151927626,0.00018920532192262882,0.9999999178262547,0.00020270749053538905,0.00034923893782995007,3.5907122575444336e-05
1084.0499999993428,0.00017322708,-0.78523856,3.3837772e-05,-2.3556552,0.00010054296,1.5709878,0.786,0.04,0.04,0.01797423778355789,-0.0007320684180729599,-0.0003338044574752175,-2.0400561530927694e-06,-0.007209615919734089,0.000292237948491405,0.9999999380134594,0.00020233791654436135,0.00028558018024205843,3.842401993333225e-05
1084.0666666660095,0.00017708537,-0.7851741,2.9909894e-05,-2.3557086,0.00010516985,1.5709888,0.7860019,0.04,0.04,0.01429882959256279,-0.0009526637653532342,-0.0010663339747196687,-1.8179973417918146e-06,-0.007859202730531095,0.00042619738970199605,0.9999999527702373,0.00020275462307344394,0.00022710651956668384,4.210361968852909e-05
1084.0833333326761,0.00018244916,-0.7851148,2.4441204e-05,-2.3557591,0.00011159927,1.5709934,0.7860038,0.04,0.04,0.01183340805424038,-0.001186294375801842,0.0010410701181129411,-9.732105946760284e-06,-0.00847971714221888,0.0005929749490804587,0.9999999630565592,0.0002029637732429815,0.0001745331205592726,4.723109871460486e-05
1084.0999999993428,0.00018963564,-0.78506017,1.7106264e-05,-2.3558056,0.00012020787,1.5709982,0.78600574,0.04,0.04,0.011999930995476582,-0.0014328270284884022,-0.0007138414823248951,-1.6789591316781935e-05,-0.00906373033856013,0.0007943613721750358,0.9999999699665575,0.00020292193120834124,0.0001263399246851334,5.4109127247009546e-05
1084.1166666660095,0.00019898085,-0.78500986,7.559618e-06,-2.3558486,0.00013140401,1.5710068,0.78600764,0.039999995,0.04,0.012097060143800853,-0.0017008165982791365,0.001965085005117828,-2.2731219046108762e-05,-0.009629256086523262,0.0010335574601483526,0.9999999739619653,0.00020258356259275647,8.401688749765766e-05,6.306450380867317e-05
1084.133333332676,0.00021083732,-0.78496355,-4.561124e-06,-2.3558905,0.00014561132,1.571019,0.78600955,0.03999999,0.039999995,0.007206635322698496,-0.0019777550477015275,0.000906494851382611,-2.698628728075111e-05,-0.010162771886717022,0.001312026554260408,0.9999999757889686,0.00020190093023354886,4.6014107577009906e-05,7.443640622700081e-05
1084.1499999993428,0.00022557208,-0.78492075,-1.963324e-05,-2.355928,0.00016327146,1.5710334,0.78601336,0.039999988,0.03999999,0.01222761216259638,-0.0022670390081517893,0.001538753396901349,-2.9502083923716517e-05,-0.010683186805556869,0.0016313658695680066,0.9999999756346265,0.00020177774429970882,1.304654992409568e-05,8.857920775539674e-05
1084.1666666660094,0.00024356492,-0.78488123,-3.8047063e-05,-2.3559632,0.00018484044,1.5710498,0.7860172,0.039999984,0.039999988,0.007950310122240012,-0.00256531963509065,0.0006959707080644861,-3.841572060929861e-05,-0.011183754094372032,0.001992901572950798,0.9999999740242982,0.0002012089023022561,-1.613766763448282e-05,0.00010585818979608266
1084.183333332676,0.00026520595,-0.7848448,-6.0203973e-05,-2.355998,0.00021078788,1.5710708,0.7860229,0.03999998,0.039999984,0.005672034097603529,-0.0028724278058396505,0.0018268492886441834,-4.4560415999676405e-05,-0.011676987058128106,0.0023978297781309913,0.999999970908536,0.00020109558133977752,-4.1270727516419825e-05,0.00012664999548337924
1084.1999999993427,0.00029089442,-0.7848111,-8.651469e-05,-2.3560324,0.00024159404,1.5710967,0.7860286,0.039999977,0.03999998,0.00532421773149494,-0.0031865059292998307,0.0023306476023110534,-5.6568651366959886e-05,-0.012164472393394847,0.0028471631494669213,0.9999999665161816,0.00020043029739212468,-6.238268526622242e-05,0.00015133979090184365
1084.2166666660094,0.00032103714,-0.78477985,-0.000117397816,-2.3560646,0.00027774816,1.5711275,0.7860362,0.03999997,0.039999973,0.00800051317235706,-0.0035061861958900656,0.003270855440695719,-6.495170832920307e-05,-0.01264670300155482,0.0033417421236752705,0.9999999606314184,0.0002000821182549795,-7.866943649510599e-05,0.00018032034602836645
1084.233333332676,0.00035604706,-0.7847509,-0.00015327816,-2.3560948,0.00031974705,1.5711628,0.7860438,0.039999966,0.03999997,0.007143642462770217,-0.003830808247023694,0.002855768218301691,-7.801997607174293e-05,-0.013118109374915294,0.0038822524529053036,0.9999999531731428,0.00019910139450958527,-9.066777959612787e-05,0.0002139899543033752
1084.2499999993427,0.00039634187,-0.78472406,-0.00019458556,-2.3561242,0.00036809273,1.5712037,0.78605336,0.039999958,0.039999966,0.005769744105887931,-0.004158663907176592,0.0033843324716675838,-8.706237901852582e-05,-0.01358520939178054,0.0044683782058157675,0.9999999435524703,0.0001983561593514088,-9.831888857028203e-05,0.0002527514316325687
1084.2666666660093,0.0004423431,-0.78469914,-0.00024175379,-2.3561532,0.00042329362,1.5712504,0.786064,0.039999947,0.03999995,0.0043674789057313035,-0.004490909660752362,0.0033762353622845964,-0.00010006149316827166,-0.014050131028925182,0.005103116145643464,0.9999999312079232,0.0001974026821332162,-0.00010198103106327393,0.00029701211943119213
1084.283333332676,0.0004944747,-0.78467584,-0.00029521927,-2.356182,0.0004858585,1.5713036,0.78607565,0.039999943,0.039999947,0.004228281380225241,-0.004822918414994302,0.00398933520857625,-0.00011293133678814797,-0.014516955492455878,0.005784184102372316,0.999999915354381,0.0001960951767149417,-0.00010150599192083582,0.0003471807106081418
1084.2999999993426,0.00055316224,-0.784654,-0.00035542014,-2.3562112,0.00055629964,1.5713634,0.786089,0.039999943,0.03999995,0.003363648608245562,-0.005157150437677563,0.00402037869655647,-0.00012430303160237987,-0.014985428759173289,0.006511761644827452,0.9999998948477435,0.0001947647046125599,-9.707368791582613e-05,0.00040366806992356047
1084.3166666660093,0.0006188323,-0.7846335,-0.0004227955,-2.3562405,0.000635131,1.5714307,0.78610426,0.039999947,0.03999995,0.0033948181835663505,-0.0054925622191235755,0.004654538841752931,-0.00013772396616180689,-0.015459371313355001,0.0072885240082985366,0.9999998683893137,0.00019344439365501885,-8.841710670393507e-05,0.00046688653575903194
1084.333333332676,0.0006919108,-0.78461426,-0.00049778406,-2.3562703,0.00072286377,1.5715055,0.78612137,0.03999995,0.039999958,0.0030021628663057243,-0.005825628064520848,0.004758646511837661,-0.0001531622828695766,-0.015939201104127186,0.00811102840885898,0.9999998343863424,0.0001920485398397125,-7.556739934237678e-05,0.000537246884107112
1084.3499999993426,0.0007728234,-0.7845961,-0.00058082363,-2.3563018,0.0008200116,1.5715884,0.78614014,0.039999958,0.039999966,0.000895333417805233,-0.006161627627061074,0.004590165634588139,-0.00016975313737974725,-0.016423357658720984,0.008981757615739343,0.9999997909141322,0.00019043209201196712,-5.903271218879619e-05,0.0006151605067483165
1084.3666666660092,0.0008619938,-0.78457886,-0.00067235116,-2.356335,0.0009270837,1.5716796,0.78616077,0.039999954,0.03999996,0.000880695249927399,-0.00649282978648716,0.004923500180753493,-0.00018633735128999857,-0.01692020444228361,0.00989968412998573,0.9999997357344953,0.00018862970187841574,-3.869565905051387e-05,0.0007010366760954316
1084.3833333326759,0.0009598435,-0.78456247,-0.00077280053,-2.3563693,0.0010445875,1.5717791,0.78618336,0.039999958,0.039999966,0.0015637972518911525,-0.006823366852103754,0.005204605272957075,-0.00020337647202131495,-0.017429345384635156,0.01086459347786219,0.999999666240819,0.0001866463978860164,-1.4379497698473406e-05,0.0007952827188562008
1084.3999999993425,0.0010667918,-0.784547,-0.000882603,-2.356404,0.0011730265,1.5718887,0.786208,0.03999996,0.039999973,0.0033793917572300103,-0.0071508744318179475,0.006735518392431139,-0.00022052170729618408,-0.01795110007883413,0.01187532644560807,0.999999579397888,0.0001844584852705945,1.5135332305989102e-05,0.0008983039776105501
1084.4166666660092,0.0011832544,-0.78453207,-0.0010021873,-2.3564394,0.001312902,1.5720079,0.786235,0.039999966,0.039999973,0.002942907781866566,-0.007476137523712242,0.006636718696606536,-0.00023797230024317118,-0.01847446041452929,0.012934095473512347,0.9999994716190034,0.0001821921024327573,4.951821686523572e-05,0.0010105026956348357
1084.4333333326758,0.0013096427,-0.7845176,-0.0011319772,-2.356475,0.0014647086,1.5721371,0.78626424,0.03999997,0.039999977,0.002865699858012327,-0.007797274310573422,0.00700338308425863,-0.0002566822128170789,-0.019004891067256717,0.014037938158780721,0.999999338874478,0.0001797360689846811,8.885564327673993e-05,0.0011322765682052797
1084.4499999993425,0.0014463646,-0.7845039,-0.0012723927,-2.3565135,0.0016289378,1.572277,0.7862958,0.03999997,0.039999977,-0.00018879513632441558,-0.008118668022798009,0.006279199432412952,-0.0002757328306110436,-0.019541922170658803,0.015187234718757232,0.9999991766702923,0.00017703987819518428,0.00013254825126425942,0.0012640200078426276
1084.4666666660091,0.0015938233,-0.7844904,-0.001423849,-2.3565555,0.0018060737,1.572428,0.78632975,0.039999973,0.039999984,-0.0022055275318066947,-0.008435004975091495,0.006596014812543238,-0.0002943947721576424,-0.020092973181852526,0.016380636611059617,0.9999989800208158,0.0001741441288009553,0.00018014519765661679,0.0014061219215252216
1084.4833333326758,0.0017524173,-0.7844773,-0.0015867566,-2.3565981,0.0019965963,1.5725905,0.78636646,0.03999997,0.03999998,0.00287514485879381,-0.008742502500814795,0.00799161348976618,-0.00031311126352496967,-0.020662123991590578,0.01761933393854366,0.9999987429574189,0.00017114898551590606,0.00023325145523220333,0.0015589693279222268
1084.4999999993424,0.0019225391,-0.78446454,-0.0017615204,-2.3566415,0.0022009786,1.5727645,0.7864057,0.03999996,0.039999973,0.0029245570393410247,-0.00904749199476829,0.008078870435235253,-0.0003328279060165495,-0.021236876754045512,0.01890190858914667,0.9999984590303218,0.0001678884564544723,0.00029192221578186554,0.0017229427930360588
1084.516666666009,0.002104576,-0.7844518,-0.0019485394,-2.356688,0.0024196869,1.5729513,0.78644776,0.03999996,0.039999973,-0.001133584025048151,-0.009353499398218569,0.008094504367583966,-0.0003517272510219858,-0.02181705666854216,0.020227726694263634,0.9999981213291136,0.00016449750469822895,0.00035537726229241883,0.001898416660273857
1084.5333333326757,0.0022989097,-0.7844392,-0.002148207,-2.356738,0.0026531788,1.5731505,0.7864927,0.039999966,0.03999998,-0.0018464329893053133,-0.009650674879152811,0.0075101639335439785,-0.000371000027817855,-0.022411744539054257,0.021595304405008516,0.9999977222671063,0.0001609317996254899,0.0004232831727304673,0.0020857595525415095
1084.5499999993424,0.0025059157,-0.7844267,-0.0023609097,-2.3567889,0.0029019094,1.5733626,0.78654057,0.03999997,0.039999984,0.0030524835537226735,-0.009939360661828048,0.00921782581684294,-0.00039047416560578736,-0.023023459072792456,0.023005714532855007,0.9999972526331042,0.0001571781794228142,0.0004972430858464037,0.0022853381755896236
1084.566666666009,0.0027259642,-0.7844142,-0.0025870283,-2.3568423,0.003166321,1.5735881,0.7865915,0.039999973,0.039999988,-5.056018503868387e-05,-0.010228637859612541,0.008834624938813818,-0.00040941965831543066,-0.023639737374324565,0.024457418366081264,0.999996703262122,0.00015325622696615783,0.0005765647187114977,0.0024975088671742593
1084.5833333326757,0.0029594179,-0.78440166,-0.0028269363,-2.3569,0.00344685,1.5738274,0.78664535,0.03999997,0.039999984,-0.002795106949893267,-0.010515228738541783,0.008258108509617834,-0.00042817093649017606,-0.024268280957827383,0.025949700097819554,0.9999960643936238,0.0001490977178449578,0.0006605256021480654,0.0027226224605937013
1084.5999999993423,0.0032066323,-0.78438914,-0.0030810013,-2.3569586,0.0037439256,1.574081,0.7867025,0.039999973,0.03999999,0.003090408331440919,-0.010779986823757472,0.010201351966965255,-0.00044569383224110637,-0.024914106343756785,0.027481010642605275,0.9999953235985973,0.00014481438790716,0.0007510843660363136,0.002961027187439267
1084.616666666009,0.0034679575,-0.7843765,-0.003349583,-2.357021,0.004057968,1.5743489,0.78676295,0.03999997,0.039999988,-0.001848132406911951,-0.011060014244784928,0.009066234298105158,-0.00046317975773328256,-0.025561714372889087,0.029052301540934532,0.9999944697180506,0.00014037157091756618,0.0008468018777608807,0.0032130601794520324
1084.6333333326756,0.0037437356,-0.7843638,-0.0036330349,-2.357087,0.0043893945,1.5746317,0.7868267,0.03999997,0.04,-0.0008346314997131898,-0.011325395950001569,0.009509834706111775,-0.00048011815137439856,-0.026225148733164606,0.030659346662345238,0.9999934893803742,0.00013576613776949487,0.0009481157724987562,0.003479057473072046
1084.6499999993423,0.004034302,-0.784351,-0.003931702,-2.357154,0.004738599,1.5749297,0.7868939,0.039999966,0.039999984,0.00292638912922083,-0.011568782910496974,0.010860839806703382,-0.0004960164640470527,-0.026902018411781012,0.032309221430371356,0.9999923671845232,0.00013099566907431536,0.0010562974286484346,0.00375934150759385
1084.666666666009,0.0043399874,-0.784338,-0.0042459234,-2.3572268,0.005105983,1.5752435,0.7869646,0.03999997,0.03999999,-0.005073675616040774,-0.011846611754423976,0.009098086665049188,-0.000510858089233966,-0.027578992444272563,0.03399235428477987,0.99999109014502,0.00012609261814198748,0.0011691602665709724,0.00405423180113712
1084.6833333326756,0.004661109,-0.7843247,-0.0045760307,-2.3573012,0.0054919324,1.5755728,0.7870388,0.039999966,0.039999988,0.0024921014871726044,-0.012069085532688106,0.01111201717440835,-0.0005247508702472467,-0.028279442286855076,0.03571252148578696,0.9999896396312333,0.00012102924607113459,0.0012888384847652584,0.004364043707127108
1084.6999999993423,0.0049979803,-0.7843112,-0.004922347,-2.3573804,0.0058968244,1.5759182,0.7871167,0.03999996,0.039999984,-0.0029772636312319634,-0.01232434063291113,0.009836511367034007,-0.0005368954927396146,-0.02898168432400601,0.037467903923342954,0.9999879999788903,0.00011587166729562512,0.0014138589956270643,0.00468908036997813
1084.716666666009,0.005350911,-0.7842972,-0.0052851867,-2.3574622,0.0063210246,1.5762802,0.78719836,0.039999966,0.04,0.0007367114554401866,-0.01255030971787207,0.01143110402475056,-0.0005478320144306648,-0.02970085884172446,0.03925433879255981,0.999986150785442,0.00011062508290898491,0.0015455494859152414,0.0050296397677152245
1084.7333333326756,0.005720199,-0.7842828,-0.00566486,-2.3575456,0.0067649,1.5766586,0.7872837,0.039999954,0.04,0.0022152626357296867,-0.012773812750456644,0.011622871832783765,-0.0005576790581719882,-0.030426394372579015,0.04107617061489732,0.9999840715352872,0.0001052384455665152,0.001684164198704463,0.005386018151761713
1084.7499999993422,0.006106134,-0.78426814,-0.006061665,-2.357635,0.0072287936,1.5770545,0.78737295,0.039999954,0.039999995,-0.0044087475600251835,-0.0130126124670755,0.010436074451414257,-0.0005651754013067172,-0.031155400553664905,0.04293242625668513,0.9999817434703,9.978775619176941e-05,0.0018282571399438228,0.005758493234619448
1084.7666666660089,0.006509004,-0.78425306,-0.006475896,-2.3577259,0.007713055,1.5774678,0.78746617,0.03999996,0.03999999,0.003106653405127169,-0.013207993342629655,0.012483030287047114,-0.0005707009507414833,-0.03190203958272832,0.04482425655309011,0.9999791403189798,9.4311738036563e-05,0.001979927908725502,0.00614735046067447
1084.7833333326755,0.0069290823,-0.78423774,-0.006907836,-2.357823,0.008218026,1.5778986,0.7875633,0.039999966,0.04,-0.004735067438144114,-0.013454173243443533,0.010315465854504602,-0.0005746198126886743,-0.03264706971236403,0.046740317186195146,0.9999762425690298,8.877063473085286e-05,0.0021369245598335,0.006552859736400365
1084.7999999993422,0.0073666354,-0.7842218,-0.0073577645,-2.3579216,0.008744012,1.5783473,0.78766453,0.03999996,0.04,0.002740604588069573,-0.013605227829321422,0.012817951172072739,-0.0005759172911077373,-0.03341174574652253,0.04868930889103848,0.9999730204744333,8.321276307019673e-05,0.002301493779931585,0.0069752795826227496
1084.8166666660088,0.007821928,-0.78420544,-0.00782595,-2.3580263,0.009291332,1.5788143,0.78776985,0.039999966,0.04,-0.0042765042513215334,-0.013840478335134555,0.011074985828218864,-0.0005750141485535492,-0.03417460523014575,0.050668704328316216,0.9999694517376928,7.766129300671855e-05,0.0024717090438927023,0.007414864431933605
1084.8333333326755,0.008295215,-0.7841886,-0.008312653,-2.3581326,0.009860287,1.5792999,0.78787935,0.039999973,0.04,0.003302289744855358,-0.013992153580383998,0.01332268911991008,-0.0005712974415954903,-0.03495572758689824,0.052676798262547286,0.9999655025162224,7.213542176985976e-05,0.002649964087756088,0.007871865363013769
1084.8499999993421,0.008786738,-0.7841714,-0.008818128,-2.358245,0.010451209,1.579804,0.7879931,0.039999966,0.04,-0.004073287576633611,-0.01423147012974274,0.01111388803867186,-0.0005650522551377693,-0.03573227821458276,0.054713513530725705,0.9999611491542039,6.666625271131376e-05,0.0028339130112726946,0.008346536698505056
1084.8666666660088,0.009296734,-0.7841536,-0.009342621,-2.3583593,0.011064342,1.5803272,0.78811103,0.039999966,0.04,0.002549845924404437,-0.014338456387620602,0.01354674442222148,-0.0005556717728500077,-0.03652496622580488,0.05677564498515851,0.9999563547169957,6.12525920312626e-05,0.0030257688588226027,0.00883909678817385
1084.8833333326754,0.00982544,-0.7841353,-0.009886368,-2.3584802,0.011699973,1.5808697,0.78823346,0.03999997,0.04,-0.0045385170381884166,-0.014562765132761224,0.011623681007311149,-0.0005431625999409743,-0.03731615915061675,0.058864843102462865,0.9999510927124419,5.601538189982996e-05,0.0032234806944012027,0.00934977099629859
1084.899999999342,0.010373071,-0.7841163,-0.010449601,-2.3586047,0.012358378,1.5814316,0.7883601,0.03999997,0.04,0.00023651660150392217,-0.014691773038364754,0.013094035118776937,-0.0005277783640780503,-0.038122122082792045,0.06097941370387411,0.999945324946317,5.0842188859771143e-05,0.0034284258966629758,0.009878786815565088
1084.9166666660087,0.010939849,-0.784097,-0.011032539,-2.3587334,0.013039806,1.582013,0.78849125,0.039999977,0.04,-0.0005904887732777198,-0.014856565705836065,0.012593509388714175,-0.000508108821274068,-0.03893287512078782,0.0631186326323127,0.9999390165476499,4.585266783494481e-05,0.003640369118526965,0.010426351036313092
1084.9333333326754,0.011525979,-0.78407705,-0.011635399,-2.3588684,0.013744526,1.5826144,0.78862685,0.039999973,0.04,-0.0039202720030218074,-0.015036053725408192,0.012333557652377536,-0.00048461033227144637,-0.03974825807624732,0.06528233833461042,0.9999321334730541,4.106455590852399e-05,0.0038584788944238525,0.010992674940609886
1084.949999999342,0.012131659,-0.7840565,-0.012258385,-2.3590052,0.01447277,1.5832359,0.788767,0.039999973,0.04,0.0035336863323465195,-0.015117093342457977,0.014225763906261513,-0.00045735447718125294,-0.04057765413468496,0.06746820723184975,0.9999246287135563,3.6513809474298336e-05,0.0040849024815727275,0.011577958823318584
1084.9666666660087,0.012757086,-0.7840355,-0.012901696,-2.3591485,0.015224761,1.5838776,0.7889117,0.03999998,0.04,-0.003850689398143814,-0.015305692756451862,0.012246624240908055,-0.0004258154219179706,-0.04139972622789105,0.06967614447915246,0.9999164701220196,3.2248625684443946e-05,0.004317553963331254,0.012182383449891065
1084.9833333326753,0.013402445,-0.7840137,-0.013565528,-2.3592935,0.01600073,1.5845398,0.78906107,0.039999984,0.04,0.003971986373807468,-0.015369773142427483,0.014799841126222901,-0.00039014830012497684,-0.04223508590517477,0.0719054154132318,0.9999076058083817,2.83137907282731e-05,0.004558697240893262,0.012806144007662853
1084.999999999342,0.01406791,-0.78399146,-0.014250061,-2.359445,0.016800905,1.5852227,0.78921497,0.039999984,0.04,-0.003958151134453303,-0.015565572716889214,0.012469358268529795,-0.00034979386688388167,-0.04306256679966739,0.0741558955762423,0.9998980016811678,2.4676889703107634e-05,0.004806125823209636,0.013449415586921141
1085.0166666660086,0.014753653,-0.7839687,-0.014955469,-2.3595994,0.017625466,1.5859263,0.7893736,0.04,0.04,0.002867687566410204,-0.015607442619449893,0.014265851516892525,-0.00030454838121827914,-0.04390089531841777,0.07642436799498305,0.9998876035726054,2.1441181743005502e-05,0.005061712933972097,0.014112364234314195
1085.0333333326753,0.015459839,-0.7839451,-0.01568192,-2.3597593,0.018474624,1.5866508,0.78953695,0.04,0.04,-0.0025622059134366992,-0.01577720155428418,0.013286807653112298,-0.0002539357089884047,-0.044734528378244466,0.07871162676775134,0.9998763719725885,1.8669319933275107e-05,0.0053239039496854506,0.014795150189329845
1085.049999999342,0.01618662,-0.7839209,-0.016429575,-2.3599248,0.01934856,1.5873969,0.7897051,0.04,0.04,-0.0016532714763206613,-0.01586034403300938,0.013600372493205448,-0.0001984593592194786,-0.04557560063277082,0.08101866338631289,0.9998642561342777,1.63937137452779e-05,0.0055931400921204666,0.015497929545707893
1085.0666666660086,0.016934145,-0.78389615,-0.017198581,-2.3600929,0.020247443,1.5881639,0.7898781,0.04,0.04,0.003232932322649873,-0.01590793661254298,0.014492047231851046,-0.00013770276906766715,-0.04642228335152166,0.08334221429468062,0.9998511988331104,1.4660785169950221e-05,0.00587060585086064,0.016220849669398216
1085.0833333326752,0.01770255,-0.7838707,-0.017989092,-2.3602676,0.021171443,1.5889521,0.7900558,0.04,0.04,-0.0037298507608474196,-0.016051160021280514,0.012924550925696998,-7.125472560177808e-05,-0.04726128441333123,0.08568221745378389,0.9998371597435101,1.3491828531161573e-05,0.00615426688037377,0.016964044717185652
1085.099999999342,0.018491976,-0.7838445,-0.018801242,-2.3604455,0.022120731,1.5897622,0.79023844,0.04,0.04,0.0026411330710462977,-0.01607793554049327,0.015089887749542008,1.5166355896521072e-06,-0.048111659241446725,0.08803797460663315,0.999822072341083,1.2976046393901429e-05,0.006446198391070365,0.01772766249417146
1085.1166666660085,0.019302543,-0.78381765,-0.019635165,-2.3606284,0.023095448,1.5905942,0.7904259,0.04,0.04,-0.0003662089599565377,-0.016167365407197473,0.014023940527252421,7.989142434935113e-05,-0.04895311389622062,0.09040778562829922,0.9998058868384355,1.3128153600265288e-05,0.006745436234077186,0.018511822192132273
1085.1333333326752,0.02013437,-0.7837903,-0.020490982,-2.3608174,0.02409574,1.5914478,0.7906183,0.04,0.04,-0.002283589143181608,-0.01626509099219367,0.01334751614094909,0.00016491663654918942,-0.04979588367422337,0.09279250219887258,0.999788550708782,1.4049715957991544e-05,0.007051311252353405,0.01931664266536093
1085.1499999993418,0.02098758,-0.7837621,-0.0213688,-2.3610098,0.025121734,1.5923234,0.79081565,0.04,0.04,0.0024543283127842486,-0.01627430517043907,0.014969959290778156,0.0002563226183841614,-0.05064458743637831,0.0951891077677984,0.9997699956674474,1.5775893995347037e-05,0.007365180408656993,0.020142235024475822
1085.1666666660085,0.021862257,-0.78373325,-0.022268737,-2.361208,0.026173545,1.5932213,0.79101795,0.04,0.04,-0.0012092158776288997,-0.01633686698720993,0.014040077555366182,0.0003543624602951618,-0.0514857736452832,0.09759730069376797,0.9997501679749883,1.8373299200966796e-05,0.007686075023922738,0.020988700463141788
1085.1833333326751,0.022758523,-0.78370386,-0.023190893,-2.3614106,0.027251333,1.5941412,0.7912253,0.04,0.04,0.0009910820742087267,-0.016408589266344448,0.01431863120051613,0.0004592723190018858,-0.05232846836419034,0.10002163858500698,0.9997290011273601,2.193411053594573e-05,0.008014483523151985,0.021856163378844183
1085.1999999993418,0.023676448,-0.78367376,-0.024135353,-2.3616178,0.028355189,1.5950834,0.7914377,0.04,0.04,0.000935019520209579,-0.016421949000797534,0.014491116028736428,0.0005711699114010725,-0.05316887086482991,0.10245516847471323,0.9997064318192066,2.64902805629776e-05,0.008350329235568284,0.022744702223434658
1085.2166666660085,0.024616124,-0.7836427,-0.025102215,-2.3618302,0.02948521,1.5960479,0.791655,0.04,0.04,-0.0003723968913238451,-0.016465681242893923,0.014460930632353985,0.0006900534958971648,-0.05400416572519058,0.10489820350525479,0.9996823977836411,3.2074437474846826e-05,0.00869320609432169,0.023654401294097176
1085.233333332675,0.025577629,-0.7836111,-0.026091551,-2.3620474,0.0306415,1.5970343,0.79187745,0.04,0.04,0.0008653691131677022,-0.016489267539056968,0.014071518754410484,0.0008169800240075808,-0.05484050892696617,0.10735237556617831,0.9996568303518959,3.8820031483764087e-05,0.009043270061801889,0.02458534706680282
1085.2499999993418,0.026561035,-0.7835789,-0.02710343,-2.3622699,0.031824093,1.5980434,0.79210496,0.04,0.04,0.00025991431187311065,-0.016487281695052106,0.0144338491676832,0.0009514773591617898,-0.05567279009616204,0.10981118174701934,0.9996296612161908,4.6765532573715634e-05,0.00940052958893196,0.025537585501300294
1085.2666666660084,0.027566388,-0.78354603,-0.028137922,-2.3624966,0.03303313,1.599075,0.79233754,0.04,0.04,0.0020005368791542466,-0.01648757781934282,0.014638091014318455,0.001093694294863272,-0.05650331257047929,0.11228232284556793,0.9996008156636437,5.597900885545719e-05,0.009765318817868867,0.026511219121613076
1085.283333332675,0.028593762,-0.78351235,-0.02919509,-2.3627288,0.03426862,1.6001294,0.7925752,0.04,0.04,-4.0734088702087945e-05,-0.016498207933800246,0.01456602577214472,0.001244368016508169,-0.05732640904971064,0.11475638890758272,0.9995702273749718,6.653233807342577e-05,0.010137106346197224,0.02750627553706141
1085.2999999993417,0.029643204,-0.78347796,-0.030274987,-2.3629663,0.035530683,1.6012065,0.7928179,0.04,0.04,0.0005826013573573263,-0.016521899542937257,0.014499545727275631,0.001403046016909916,-0.0581453704442067,0.11724216966496656,0.9995378213957231,7.849225540733317e-05,0.010515955207874324,0.02852283514175011
1085.3166666660084,0.03071476,-0.7834431,-0.03137765,-2.3632078,0.036819324,1.6023062,0.79306567,0.04,0.04,0.0029378216137798674,-0.016446989248863203,0.014710781480764545,0.001570162338914733,-0.058960830736068975,0.11973042853297813,0.9995035170592994,9.191594243728155e-05,0.010902404160730723,0.029560928961494145
1085.333333332675,0.03180846,-0.7834072,-0.032503124,-2.363455,0.038134616,1.6034287,0.7933187,0.04,0.04,-0.00033063730133786606,-0.016495198278366,0.014412737410340881,0.001746607864693328,-0.05976674200576474,0.1222262955094645,0.9994672487229919,0.0001069893165063735,0.011295408634321276,0.030620598086306162
1085.3499999993417,0.03292434,-0.7833706,-0.033651415,-2.363707,0.03947659,1.6045738,0.7935769,0.04,0.04,0.0017267886876393135,-0.01646675955963295,0.014568983824947423,0.0019310501959895199,-0.060569674512633384,0.1247263844647241,0.9994289328922528,0.0001237366374302746,0.011695475297067093,0.03170187131184912
1085.3666666660083,0.034062408,-0.7833335,-0.034822576,-2.3639638,0.040845282,1.6057419,0.79384017,0.04,0.04,0.0021342345275066066,-0.016380951898159815,0.014625716204741401,0.002124314868814172,-0.0613665638785678,0.12723008957846596,0.9993884873449638,0.00014219730669268968,0.012102753259607614,0.03280479394552682
1085.383333332675,0.035222694,-0.78329545,-0.036016617,-2.364226,0.042240698,1.6069328,0.7941086,0.04,0.04,0.0006265607241040527,-0.016380781895944385,0.014481694754575614,0.00232702972382803,-0.062154289346856316,0.12973524054859456,0.9993458387882148,0.000162512456571409,0.012516641599160999,0.03392936441283286
1085.3999999993416,0.036405202,-0.7832568,-0.03723355,-2.3644934,0.043662865,1.6081463,0.79438233,0.04,0.04,0.0018319971901492593,-0.01631758545289387,0.014334512968816604,0.0025388491691036054,-0.062937035654801,0.13224324376041421,0.9993009018960566,0.0001847890383995402,0.012937343275914026,0.035075610781570225
1085.4166666660083,0.037609957,-0.7832175,-0.03847337,-2.3647652,0.04511179,1.6093826,0.7946611,0.04,0.04,0.0026882617176315904,-0.016278834399680725,0.014684745542159483,0.0027598742628899726,-0.06371320596677217,0.13475175320905342,0.9992535905147503,0.00020901227050941186,0.013365034021029825,0.03624353767042489
1085.433333332675,0.03883692,-0.78317714,-0.039736085,-2.365043,0.04658743,1.6106418,0.794945,0.04,0.04,5.600747545742024e-05,-0.016199155584522423,0.014271219735362273,0.0029911732821073234,-0.06447801722432836,0.13725770803723372,0.9992038323421454,0.0002353361275531878,0.013798842804895264,0.03743311350826652
1085.4499999993416,0.040086124,-0.7831363,-0.04102169,-2.3653247,0.048089806,1.6119239,0.7952342,0.04,0.04,0.004081967053770619,-0.016101212167695528,0.014814175385202688,0.0032319237766467897,-0.06524062207543889,0.13976830175155902,0.9991515238117344,0.00026390394129392026,0.014239918610893763,0.038644372647955005
1085.4666666660082,0.041357532,-0.7830948,-0.042330172,-2.365612,0.04961891,1.6132289,0.7955284,0.04,0.04,0.0015489835772042326,-0.01606729867659265,0.014244412767916437,0.0034821164036069677,-0.06598761866190571,0.14227810058204104,0.9990965894377646,0.00029468398645347084,0.014687393962727405,0.03987729421310718
1085.4833333326749,0.04265113,-0.7830525,-0.043661494,-2.3659043,0.051174708,1.6145567,0.7958277,0.04,0.04,0.0022609188935041047,-0.015989698493756865,0.014452121792896122,0.003742708674094042,-0.06672612656924307,0.14478580315399342,0.9990389408013848,0.00032779069980491807,0.015141286968112348,0.041131845869760555
1085.4999999993415,0.043966882,-0.7830096,-0.045015648,-2.3662012,0.052757163,1.6159071,0.7961321,0.04,0.04,0.003448083785095868,-0.015830523341872627,0.014427753362022955,0.004014137186475537,-0.06745483541890851,0.14729157529726192,0.9989784838917405,0.00036335696853127597,0.015601823015369446,0.04240801588933566
1085.5166666660082,0.04530476,-0.78296584,-0.046392597,-2.3665035,0.054366253,1.6172799,0.79644173,0.04,0.04,0.0015869620845432308,-0.015817938868740306,0.01393113095242704,0.00429578704212499,-0.06817184547870841,0.1497954497062089,0.9989151401031939,0.0004015413847608356,0.01606821167049007,0.043705768622059486
1085.5333333326748,0.046664726,-0.7829215,-0.04779229,-2.3668106,0.056001894,1.6186756,0.7967564,0.04,0.04,0.0033874340984230145,-0.015645188367948565,0.01445185191377707,0.004587564185572809,-0.06888299366747877,0.1522935495042569,0.9988488079042361,0.0004423253083848255,0.01654109909950595,0.04502505232854397
1085.5499999993415,0.048046753,-0.7828764,-0.049214687,-2.3671224,0.057664085,1.6200942,0.79707617,0.04,0.04,0.0033246297213240794,-0.015585220241652598,0.014530398119516619,0.004889972693771262,-0.06957959554829572,0.15479114704931624,0.998779395412023,0.00048587229346213083,0.017020317670053735,0.04636584966242808
1085.5666666660081,0.04945076,-0.7828305,-0.050659753,-2.3674395,0.05935275,1.6215352,0.7974011,0.04,0.04,0.002473222785770446,-0.0154380304694883,0.013944050248060336,0.0052033195057656426,-0.0702635483133495,0.1572839914078747,0.9987068182643938,0.0005323024877626262,0.01750531549635752,0.04772810215843133
1085.5833333326748,0.050876714,-0.7827841,-0.0521274,-2.3677614,0.06106781,1.622999,0.7977311,0.04,0.04,0.003894838315066096,-0.01532344181261261,0.014232998480601111,0.005527344495580885,-0.07093771154639297,0.1597715957027835,0.9986309734415328,0.0005816989748280958,0.017996580325616192,0.04911174611132189
1085.5999999993414,0.05232454,-0.78273696,-0.053617604,-2.368088,0.062809214,1.6244856,0.79806614,0.04,0.04,0.003735538084859158,-0.015144524362969286,0.014469269676609109,0.005861863926746407,-0.07159529408873465,0.16225329058073168,0.998551766506742,0.0006341489027756325,0.01849394771545385,0.05051674335635621
1085.616666666008,0.05379418,-0.782689,-0.055130266,-2.3684194,0.06457685,1.625994,0.7984061,0.04,0.04,0.003392340904184721,-0.015057580375915647,0.013606742693372809,0.006207013480682758,-0.07223854965365893,0.16472897057182223,0.9984691159357513,0.00068969031404291,0.018996715258989796,0.051942984695903575
1085.6333333326747,0.055285566,-0.78264046,-0.056665335,-2.368756,0.06637061,1.6275246,0.79875135,0.04,0.04,0.0032448541737561953,-0.014879716582715669,0.013639481860949765,0.00656471237435316,-0.0728722166240731,0.16718953471893938,0.9983829220707553,0.0007486015045189231,0.019505002631360034,0.05339040537023574
1085.6499999993414,0.056798615,-0.7825909,-0.058222707,-2.3690977,0.068190455,1.6290778,0.7991015,0.04,0.04,0.0033350661894138156,-0.014786367123446886,0.014168541529824275,0.006932545277256393,-0.07349339088845364,0.16964667953926177,0.9982930881839717,0.0008108346368023989,0.02001873809655093,0.0548589350636941
1085.666666666008,0.058333244,-0.782541,-0.05980231,-2.369444,0.07003626,1.6306529,0.79945654,0.04,0.04,0.004769642269142338,-0.014554959575092258,0.01359585936593355,0.007311733336476844,-0.07410004372687257,0.17209628334004443,0.9981995124376455,0.0008765059198451035,0.02053807609121988,0.05634849187946971
1085.6833333326747,0.05988936,-0.7824904,-0.06140404,-2.369795,0.071907945,1.63225,0.7998167,0.04,0.04,0.003806487024782257,-0.014448836845906698,0.013491743113314136,0.007702750259223973,-0.07469212960476557,0.17453576041756108,0.998102104708773,0.0009458332197453052,0.02106257122091834,0.057858984341253784
1085.6999999993413,0.061466884,-0.78243893,-0.06302782,-2.3701515,0.07380538,1.633869,0.80018187,0.04,0.04,0.0033599846844811765,-0.01427093736111329,0.0135514481598209,0.008104464749480397,-0.07526998593980222,0.1769671068063769,0.9980007710940181,0.0010188613306969846,0.02159199549126736,0.059390306852541846
1085.716666666008,0.0630657,-0.78238684,-0.064673536,-2.3705122,0.07572843,1.6355097,0.8005519,0.04,0.04,0.005185919665295913,-0.01403719085118424,0.013518715623539457,0.008517877278647754,-0.0758350293954416,0.1793854935514535,0.9978954067716721,0.0010956565703425607,0.022126594144670057,0.06094235400963615
1085.7333333326746,0.06468569,-0.78233397,-0.06634109,-2.3708782,0.07767699,1.6371725,0.8009268,0.04,0.04,0.0036899714108251658,-0.01387111366334473,0.013480604454518819,0.008942865255077495,-0.07638515914616081,0.18179723367134187,0.9977859199877538,0.0011763834685819298,0.022665984191278056,0.06251501545043005
1085.7499999993413,0.06632679,-0.78228045,-0.06803036,-2.3712487,0.079650946,1.6388569,0.8013064,0.04,0.04,0.005076660720404469,-0.013720177468314748,0.013457495357283022,0.009378794063400885,-0.07691915498207538,0.1841964351370936,0.9976722058543647,0.0012610313619660877,0.023210321543703883,0.06410819323166346
1085.766666666008,0.06798885,-0.7822263,-0.06974123,-2.371624,0.08165014,1.640563,0.80169106,0.04,0.04,0.004856883351500585,-0.013467181925805316,0.013298890983048928,0.00982747769766653,-0.07743589541626776,0.186584184987362,0.9975541681847295,0.00134989681718286,0.023759421851106296,0.06572175582831391
1085.7833333326746,0.06967177,-0.7821714,-0.07147356,-2.372004,0.08367441,1.6422905,0.80208045,0.04,0.04,0.004650662986516174,-0.013307699700910308,0.013118768455355756,0.010286790874823697,-0.07793638430320535,0.18895810237967398,0.9974317160215928,0.0014429687589827087,0.024312937173313193,0.06735555508930023
1085.7999999993413,0.0713754,-0.78211594,-0.07322726,-2.3723886,0.08572365,1.6440389,0.80247474,0.04,0.04,0.005273779138392776,-0.013046116000715868,0.012852477390556949,0.01075777734575543,-0.07842118819405955,0.19131975033424814,0.9973047475587417,0.0015404427496820618,0.024870805675930613,0.06900949614335526
1085.816666666008,0.07309962,-0.7820598,-0.07500221,-2.3727777,0.08779764,1.6458087,0.80287373,0.04,0.04,0.005445172756690653,-0.01274465031482,0.01313184103937104,0.011240347572306644,-0.07888855822404345,0.19366421975201834,0.9971731623063066,0.001642375002511765,0.02543309347353847,0.07068341203392514
1085.8333333326746,0.0748443,-0.7820029,-0.07679821,-2.3731713,0.089896254,1.6475996,0.8032774,0.04,0.04,0.005418065127948957,-0.012642213840710625,0.012969936004192384,0.011734509464630682,-0.07933875153403705,0.19598343729098566,0.9970368660062495,0.001748837868753107,0.02599956469180129,0.07237715127290927
1085.8499999993412,0.076609336,-0.7819454,-0.07861516,-2.37357,0.092019334,1.6494111,0.8036858,0.04,0.04,0.00460442065954858,-0.012455867333235893,0.012355885481363238,0.012240128267125686,-0.07976931880071111,0.1982999127216294,0.9968957710744495,0.001860009524914033,0.026569677642358226,0.07409058110466667
1085.8666666660079,0.078394555,-0.7818871,-0.08045289,-2.373973,0.09416668,1.6512434,0.8040989,0.04,0.04,0.005909865516762203,-0.012126466057554852,0.012909543426853354,0.01275779018445412,-0.08018618015170033,0.20059616396944652,0.9967497700718692,0.0019760060117296236,0.027143762529132726,0.07582352812735262
1085.8833333326745,0.08019978,-0.7818282,-0.08231128,-2.3743806,0.09633816,1.6530964,0.80451655,0.04,0.04,0.005316783957098892,-0.011878047544207349,0.012405896699529961,0.013285991074386019,-0.08058422726616057,0.20288157147739036,0.9965987702063509,0.0020968917262790144,0.02772146806906764,0.07757586271755584
1085.8999999993412,0.08202491,-0.7817688,-0.084190115,-2.3747928,0.098533556,1.6549699,0.804939,0.04,0.04,0.005866942805576869,-0.011719370126414552,0.012373801662102224,0.013826083899152283,-0.08096497177403404,0.20514971263705034,0.9964426741565966,0.002222862761868709,0.028302781790760755,0.07934739153681887
1085.9166666660078,0.083869755,-0.7817086,-0.08608928,-2.375209,0.100752726,1.6568636,0.80536586,0.04,0.04,0.006406791834656644,-0.01137110715041939,0.012459289209942881,0.014376665566576314,-0.08132506834590346,0.20739957435054973,0.9962813844112065,0.0023539359395150106,0.028887566635645966,0.08113797233819423
1085.9333333326745,0.08573416,-0.78164786,-0.08800862,-2.3756304,0.10299544,1.6587775,0.8057974,0.04,0.04,0.005158457755150003,-0.01115752072286258,0.011961098729673658,0.014938877432413716,-0.0816662016249984,0.20963215690945847,0.9961148146289422,0.0024903406015930303,0.02947542566780852,0.08294741443913413
1085.9499999993411,0.08761794,-0.7815866,-0.08994791,-2.3760557,0.10526149,1.6607113,0.8062333,0.04,0.04,0.006798268681196262,-0.010844198401999128,0.012125820163766399,0.015511757108946672,-0.08199085317521732,0.21184409210621374,0.9959428620115542,0.002632032100540765,0.030066578644263417,0.08477552042827124
1085.9666666660078,0.08952096,-0.7815245,-0.09190705,-2.3764853,0.10755068,1.6626648,0.8066737,0.04,0.04,0.00604476530829956,-0.010570040786639368,0.012003337216182075,0.016096396313011158,-0.0822937170353098,0.2140359312302677,0.9957654421095121,0.0027792548671326128,0.030660539567439714,0.08662211817004323
1085.9833333326744,0.09144303,-0.78146195,-0.093885824,-2.376919,0.10986278,1.6646379,0.80711854,0.04,0.04,0.007039897164218267,-0.010248618114136465,0.011867491616412984,0.016691523156285686,-0.08257825615722081,0.21620708134467057,0.9955824509791887,0.002932063585612445,0.031257548632955746,0.08848701576423261
1085.999999999341,0.09338395,-0.78139883,-0.09588402,-2.377357,0.11219759,1.6666304,0.8075677,0.04,0.04,0.0063773287197088635,-0.010042286061517913,0.011587583524907963,0.017297742655227953,-0.08284095687316914,0.21835333174598653,0.9953938093414392,0.003090559466176161,0.03185713203755018,0.09036999449633049
1086.0166666660077,0.095343575,-0.7813349,-0.09790147,-2.3777995,0.114554875,1.6686417,0.8080213,0.04,0.04,0.005589386568183308,-0.009799995356618574,0.011258558111393313,0.017914758543409827,-0.08308356421506312,0.2204815772508829,0.995199442288639,0.003254897741904625,0.03245871990194971,0.09227083619106534
1086.0333333326744,0.0973217,-0.7812705,-0.099938005,-2.3782463,0.11693443,1.6706723,0.808479,0.04,0.04,0.006751572706509279,-0.009419665916189646,0.011472864587358522,0.01854199774019233,-0.08331062753225987,0.22259313607785045,0.994999236947079,0.003425083871772281,0.033062797825870155,0.09418937665749429
1086.049999999341,0.09931812,-0.78120553,-0.101993375,-2.3786967,0.11933606,1.6727217,0.8089412,0.04,0.04,0.007707054050554163,-0.009131790844696397,0.011547786528209869,0.01918022618663994,-0.08351602179771515,0.22468344397886006,0.9947931022386126,0.0036014013496145246,0.03366928951821876,0.09612540033796692
1086.0666666660077,0.10133266,-0.7811398,-0.10406742,-2.379152,0.12175948,1.6747897,0.8094074,0.04,0.04,0.004920913113592995,-0.008950699610300872,0.010726472726441116,0.01982809802568474,-0.08369829320565916,0.2267504274203231,0.9945809869563932,0.0037837978796145233,0.03427714300582713,0.09807864561570567
1086.0833333326743,0.1033651,-0.78107363,-0.10615992,-2.3796105,0.12420448,1.676876,0.8098778,0.04,0.04,0.008719700738257785,-0.008432042879387425,0.011314636069070794,0.020486685805115187,-0.08386572468058401,0.22879484735727357,0.9943627625802098,0.003972427011102867,0.034887332736812854,0.10004893918480846
1086.099999999341,0.10541528,-0.78100693,-0.10827066,-2.3800735,0.12667076,1.6789807,0.8103522,0.04,0.04,0.006166451814770824,-0.008274682130568478,0.010800730920434987,0.021155402286845156,-0.08400845311081431,0.2308126321463897,0.9941383722141313,0.004167354096502039,0.03549906264926187,0.10203600640114958
1086.1166666660076,0.10748294,-0.78093946,-0.11039943,-2.3805401,0.1291582,1.681103,0.81083065,0.04,0.04,0.007289461106929629,-0.007943664588616617,0.010686187121788926,0.021834432563631594,-0.0841306018469747,0.2328085411215366,0.9939077307516532,0.004368722598794128,0.03611212480392777,0.10403966290362417
1086.1333333326743,0.10956791,-0.78087145,-0.11254602,-2.3810108,0.13166638,1.6832433,0.8113132,0.04,0.04,0.006936450646666259,-0.007560218562273346,0.01067303647122042,0.022523286819221784,-0.0842328395025444,0.2347769470903739,0.9936707575496293,0.004576698820695166,0.036726544448089475,0.1060596075400664
1086.149999999341,0.11166996,-0.7808031,-0.11471021,-2.3814852,0.13419512,1.6854012,0.81179965,0.04,0.04,0.0074963984360021385,-0.007228004587506165,0.010425281608394954,0.023221282787094885,-0.08431391098929711,0.23672202237596124,0.9934273646833923,0.004791288158952496,0.037342274600158036,0.108095648310534
1086.1666666660076,0.113788836,-0.78073406,-0.116891764,-2.3819635,0.13674419,1.6875765,0.81228983,0.04,0.04,0.0071052914192293315,-0.006933684565627041,0.010420475831018905,0.023928568596265437,-0.08437193903653217,0.23864495067228503,0.9931774836506926,0.0050125793222814035,0.0379589697244302,0.11014752214769047
1086.1833333326742,0.11592438,-0.78066456,-0.11909047,-2.3824456,0.1393133,1.689769,0.8127841,0.04,0.04,0.007264338082468846,-0.006629047132859778,0.010146636212837734,0.024646055635069573,-0.08441022703983345,0.24053460772849183,0.9929210359580093,0.005240814192715657,0.0385764931802697,0.11221499183524263
1086.199999999341,0.11807634,-0.7805945,-0.121306114,-2.382931,0.14190213,1.6919786,0.8132821,0.04,0.04,0.008017362519874283,-0.006140172600728466,0.010323218177488158,0.02537098563418691,-0.08442627082317614,0.24240439559302235,0.9926579406710524,0.005475993112830853,0.03919492645569133,0.11429778677763838
1086.2166666660075,0.12024448,-0.7805241,-0.1235384,-2.3834205,0.1445105,1.694204,0.81378394,0.04,0.04,0.00649650003972102,-0.006089104341007456,0.009062847562812948,0.02610477681593258,-0.08441795109500622,0.24424828524281203,0.9923881592391863,0.005718224922934762,0.03981328649122568,0.11639564220518597
1086.2333333326742,0.12242859,-0.7804529,-0.12578718,-2.3839133,0.14713807,1.6964463,0.8142896,0.04,0.04,0.007817144499311368,-0.00546437706465952,0.010346845510378344,0.02684724674130414,-0.08439416604007781,0.24606296709303782,0.9921115853634696,0.005967713085229084,0.040432233412452556,0.1185083249792876
1086.2499999993408,0.124628395,-0.7803814,-0.12805215,-2.3844097,0.14978456,1.6987046,0.8147988,0.04,0.04,0.007482996517627072,-0.005228211858418486,0.009350133968677454,0.027597219343329635,-0.08434483153694494,0.2478470086665412,0.9918281703500651,0.006224326657464967,0.041051291309446826,0.12063552436795096
1086.2666666660075,0.12684366,-0.7803094,-0.13033305,-2.3849096,0.1524497,1.7009785,0.81531143,0.04,0.04,0.007221444430238755,-0.004899070608575806,0.00916849305077072,0.028355787818243598,-0.08427617481306279,0.24960286792380731,0.991537854856972,0.006488219581745111,0.041670138152321984,0.12277697250974969
1086.2833333326741,0.12907419,-0.7802368,-0.1326297,-2.3854134,0.15513323,1.7032684,0.8158275,0.04,0.04,0.006801963540614686,-0.004590560596001714,0.00938720027710005,0.029122914650291543,-0.0841857002069118,0.25133392362952794,0.991240568731016,0.006759494682917558,0.04228869619510416,0.12493242296362328
1086.2999999993408,0.13131973,-0.78016365,-0.13494179,-2.38592,0.15783477,1.7055736,0.81634706,0.04,0.04,0.00827685447599702,-0.00410583889396271,0.009292286322204468,0.029897699398534143,-0.08407520339710291,0.25303301491783226,0.9909362472398481,0.00703826169232292,0.04290703024514044,0.12710154811842178
1086.3166666660074,0.13358003,-0.7800901,-0.13726906,-2.3864307,0.16055413,1.7078938,0.81687015,0.04,0.04,0.006277265806953203,-0.003992507828830261,0.008591259800372342,0.030679620105474585,-0.08394163779603514,0.25470648540029495,0.9906248487280552,0.007324664666081816,0.04352446470454256,0.12928410320774242
1086.333333332674,0.13585481,-0.7800162,-0.13961127,-2.3869438,0.16329092,1.710229,0.8173966,0.04,0.04,0.009189857146663094,-0.0032952405525754624,0.009180542709841255,0.031468378737209826,-0.08379010299727505,0.256349011049588,0.9903062821268378,0.007618705122396809,0.04414167953805103,0.13147978947327954
1086.3499999993408,0.13814381,-0.7799417,-0.1419682,-2.3874607,0.16604482,1.7125787,0.81792647,0.04,0.04,0.006164064076563669,-0.00310411823640222,0.008326406730696512,0.03226373388567785,-0.08361266697970948,0.2579592305132632,0.9899805418616187,0.007920601498847794,0.04475752531166504,0.1336882744867624
1086.3666666660074,0.14044684,-0.7798667,-0.14433956,-2.3879805,0.1688156,1.7149429,0.81845933,0.04,0.04,0.008079353686074597,-0.0027441565450231353,0.008873528517172602,0.03306507197621502,-0.08341789764736679,0.25953633767520645,0.9896475376538769,0.008230189370220348,0.04537260408509416,0.135909315343305
1086.383333332674,0.14276358,-0.7797913,-0.14672504,-2.3885038,0.17160286,1.7173213,0.8189955,0.04,0.04,0.00661099729220016,-0.0024250565819949887,0.008098466090933343,0.03387365972917414,-0.08319917259950504,0.2610838224086074,0.9893072535036498,0.008547727360826318,0.04598620678985128,0.13814254705597076
1086.3999999993407,0.1450938,-0.7797154,-0.14912443,-2.3890297,0.17440632,1.7197133,0.8195347,0.04,0.04,0.008064867355939143,-0.0019186244514760031,0.008341187158378283,0.034687815595630965,-0.08296181612397227,0.26259931247414114,0.9889596219780812,0.00887321993894181,0.04659854084851227,0.14038770621274263
1086.4166666660074,0.1474372,-0.77963924,-0.15153736,-2.3895583,0.17722575,1.722119,0.82007694,0.04,0.04,0.008215151229085116,-0.0016797493962147914,0.008160280744129444,0.03550684075290154,-0.08270145527208086,0.2640857752469049,0.9886045898804098,0.009206690166472091,0.04720957235135444,0.14264451620012494
1086.433333332674,0.14979354,-0.77956265,-0.15396364,-2.3900898,0.18006076,1.7245381,0.82062227,0.04,0.04,0.007534852243140655,-0.0012196482042189927,0.008058401389976488,0.036331838447478726,-0.0824182358122848,0.26553771151104444,0.9882421257999283,0.009548339444799303,0.04781898873910161,0.14491264376946292
1086.4499999993407,0.15216252,-0.7794857,-0.15640305,-2.3906243,0.182911,1.7269702,0.8211706,0.04,0.04,0.006939943150352512,-0.0008217962814874302,0.007600951938258049,0.037160452586825814,-0.0821118747069841,0.2669589069152215,0.9878722025589941,0.009898247961359161,0.04842640303891417,0.14719177825968977
1086.4666666660073,0.15454388,-0.7794081,-0.15885517,-2.391162,0.18577619,1.7294149,0.8217217,0.04,0.04,0.006399468225337657,-0.0006988449891276449,0.007514098608929487,0.037992947565530795,-0.08178674415022183,0.26834897961862214,0.9874948051462867,0.01025630600000901,0.049031454814070306,0.14948155215660305
1086.483333332674,0.15693742,-0.77933025,-0.16131979,-2.3917017,0.18865594,1.7318721,0.8222757,0.04,0.04,0.008426354767743227,-0.00010722152380959749,0.0075787268063232105,0.03883137339644887,-0.08144411625745004,0.2697043698724382,0.9871098619889017,0.010622686633154261,0.04963461430913692,0.15178169835434188
1086.4999999993406,0.1593428,-0.7792522,-0.16379662,-2.3922448,0.19154999,1.7343414,0.82283247,0.04,0.04,0.006150562540874205,7.470449479018981e-05,0.0068752754945222705,0.0396721821375531,-0.08107696106882509,0.27102657391588736,0.9867173752464092,0.0109974251224113,0.05023513071911573,0.15409188709710583
1086.5166666660073,0.1617597,-0.77917355,-0.16628534,-2.3927903,0.19445798,1.7368228,0.82339185,0.04,0.04,0.007408563839206295,0.0006004910483359271,0.0075115044800178055,0.04051741036454416,-0.08069102017923852,0.2723120299320173,0.9863172995527907,0.011380574889613864,0.05083328625301736,0.15641177745550752
1086.533333332674,0.16418795,-0.77909464,-0.16878572,-2.3933382,0.19737953,1.739316,0.8239539,0.04,0.04,0.007416393376624697,0.0009690558770425461,0.007062156744397363,0.04136542560289589,-0.08028472971627504,0.2735652501538226,0.9859096106467168,0.011772197701066535,0.05142889417596566,0.15874105908542938
1086.5499999993406,0.16662717,-0.7790154,-0.17129742,-2.393889,0.20031439,1.7418201,0.8245185,0.04,0.04,0.0062212543396888975,0.0011555570056082098,0.006353177762674633,0.04221560296177142,-0.07985567289079978,0.27478445916849625,0.9854943146834129,0.012172286471883308,0.0520213286409116,0.1610793982331415
1086.5666666660072,0.16907702,-0.77893597,-0.17382017,-2.394442,0.20326206,1.7443355,0.8250855,0.04,0.04,0.007148319171590423,0.001868515774031132,0.006835829196893961,0.04307002877550499,-0.07941060666841229,0.2759581328552158,0.9850713715561819,0.012580955913652157,0.052610991955667895,0.16342642385539166
1086.5833333326739,0.17153734,-0.7788562,-0.17635368,-2.3949966,0.20622231,1.7468613,0.8256549,0.04,0.04,0.008335411212057053,0.0021320823797216226,0.006655571633218393,0.04392511150817624,-0.07894336714491368,0.2771052682072255,0.9846407548228635,0.01299813610082241,0.0531978034883257,0.16578186301216288
1086.5999999993405,0.1740078,-0.7787759,-0.17889762,-2.3955538,0.20919478,1.7493976,0.8262267,0.04,0.04,0.005773114738860663,0.0022559282762096844,0.006368846296345154,0.044781342851520065,-0.07845341460460897,0.2782197710239672,0.9842024949976447,0.013423979760903927,0.05378103842868561,0.16814531070869118
1086.6166666660072,0.17648806,-0.77869505,-0.18145171,-2.3961134,0.21217906,1.751944,0.8268008,0.04,0.04,0.006030966387693404,0.002774869333935226,0.006116165613967439,0.04563962915858273,-0.07794613745602529,0.27929441905769287,0.9837565844689705,0.013858535101635686,0.05436060520492339,0.17051641598548942
1086.6333333326738,0.17897786,-0.77861416,-0.18401562,-2.3966749,0.21517496,1.7545002,0.8273772,0.04,0.04,0.0072605693001825955,0.003087504234103311,0.006035331713993841,0.04649874544473009,-0.07742193600604082,0.2803365250878402,0.9833029740127001,0.014301783018361823,0.05493683743375253,0.17289495132320187
1086.6499999993405,0.18147697,-0.77853304,-0.18658906,-2.3972385,0.21818192,1.7570659,0.82795554,0.04,0.04,0.006306363400687687,0.0034474235157816446,0.005800747862250155,0.047357685242263726,-0.07687623526337684,0.28133984950332586,0.9828416983467877,0.014753631083351617,0.05550934070620408,0.17528045942152504
1086.6666666660071,0.183985,-0.77845156,-0.18917176,-2.3978045,0.22119963,1.7596406,0.828536,0.04,0.04,0.005372427145755587,0.0037899473947666795,0.005376471225626567,0.04821778676914007,-0.0763124747837666,0.2823076052587973,0.9823727799672219,0.015214234667790568,0.05607760371054956,0.17767259384898984
1086.6833333326738,0.1865017,-0.7783699,-0.19176336,-2.3983727,0.22422777,1.7622243,0.8291183,0.04,0.04,0.00593733785576589,0.0040938123052502995,0.005485845588792948,0.04907829145674217,-0.07573168661360982,0.2832378512028196,0.9818961996926792,0.01568354115806608,0.05664186540894026,0.1800710377845731
1086.6999999993404,0.18902668,-0.77828795,-0.19436358,-2.3989418,0.22726597,1.7648166,0.8297028,0.04,0.04,0.00759540758248356,0.004824102000167141,0.005833108820563204,0.049938292019719,-0.07513300747806445,0.2841322372386343,0.9814119357405299,0.016161747117457825,0.05720238124040624,0.18247547204094197
1086.716666666007,0.19155975,-0.77820563,-0.19697209,-2.3995128,0.2303139,1.7674171,0.8302891,0.04,0.04,0.005485248327152803,0.0047426015726353965,0.005090224387394038,0.05079577091765943,-0.0745134794378389,0.2849861212035245,0.9809200453053258,0.016648710898880214,0.05775840155899008,0.18488551104116738
1086.7333333326737,0.19410057,-0.77812314,-0.19958858,-2.400086,0.23337115,1.7700255,0.8308772,0.04,0.04,0.00506310939554222,0.00510883076977886,0.004826657691925362,0.051652336392127386,-0.07387768845042855,0.2858052077066039,0.9804205446699114,0.017144435640037432,0.05830982110508964,0.1873007973246012
1086.7499999993404,0.19664879,-0.7780404,-0.2022128,-2.4006608,0.23643741,1.7726415,0.8314671,0.04,0.04,0.005551128150549367,0.005643390264947756,0.004883961191870512,0.052507289643964145,-0.07322544957238646,0.28658770973941466,0.9799134357283174,0.01764906575113135,0.05885664248904647,0.18972101779231973
1086.766666666007,0.19920415,-0.77795744,-0.2048443,-2.401237,0.23951228,1.775265,0.8320586,0.04,0.04,0.005723686782932447,0.005825081790347686,0.004834281938559393,0.05335921008843325,-0.07255637115713807,0.2873320000331047,0.9793987451921788,0.018162453143485507,0.059398864668686345,0.19214577301587243
1086.7833333326737,0.20176633,-0.7778743,-0.20748286,-2.4018145,0.24259531,1.7778957,0.8326515,0.04,0.04,0.005981729944171121,0.006403681648972648,0.004881612942275737,0.05420915481626607,-0.07187055473376534,0.2880354366857558,0.97887648692574,0.01868455756547846,0.05993658337729689,0.19457470705505445
1086.7999999993403,0.204335,-0.7777908,-0.21012814,-2.4023936,0.24568622,1.7805328,0.83324593,0.04,0.04,0.0044207364027437634,0.006459590582205688,0.004199474575683482,0.05505579266925547,-0.0711647180455454,0.2887026232055119,0.9783467301111061,0.01921548097596059,0.06046903475353639,0.19700745368575376
1086.816666666007,0.20690985,-0.77770704,-0.2127798,-2.4029744,0.2487846,1.7831765,0.833842,0.04,0.04,0.00442845370633993,0.006835231408650055,0.004245731993979263,0.055899965917613786,-0.07044543835180707,0.28932881191185283,0.9778094925417066,0.019755310930499162,0.06099631793804482,0.19944365917063045
1086.8333333326736,0.20949061,-0.77762336,-0.21543752,-2.403556,0.2518901,1.7858261,0.8344392,0.04,0.04,0.005625383562968267,0.007209653350126466,0.0039421980390086375,0.056739298854136574,-0.06971132640862729,0.2899149526227441,0.9772647912921084,0.02030375309908954,0.06151860675079283,0.20188300159826272
1086.8499999993403,0.21207695,-0.7775395,-0.218101,-2.4041395,0.25500235,1.7884814,0.8350379,0.04,0.04,0.0038061622447793653,0.007395393042478049,0.0036941599879103393,0.057574848652149624,-0.06896028449171823,0.2904676628019977,0.9767126920778296,0.020861034956995095,0.062035345092171346,0.204325109357359
1086.866666666007,0.21466851,-0.7774554,-0.22076991,-2.4047236,0.2581209,1.7911421,0.8356377,0.04,0.04,0.005136920758563868,0.008019020108640529,0.0040573330103654826,0.05840548126682932,-0.06819649991666887,0.2909781685581452,0.9761532187775124,0.02142702316524439,0.06254689558132771,0.2067695867426263
1086.8833333326736,0.217265,-0.77737117,-0.22344396,-2.405309,0.26124534,1.7938081,0.83623874,0.04,0.04,0.004128324913321713,0.008230619823565433,0.00362920544096923,0.059230742215992505,-0.06741552272083137,0.29145191268992476,0.975586428965827,0.022001800835330987,0.0630529492836457,0.20921607482299703
1086.8999999993403,0.21986614,-0.77728677,-0.22612272,-2.4058952,0.26437542,1.7964789,0.8368406,0.04,0.04,0.00413028813250893,0.008298435864248499,0.0034505307073606772,0.060050088834218585,-0.0666210741740986,0.2918866586318285,0.9750123754102086,0.02258510521876725,0.06355340036334374,0.2116642296692009
1086.916666666007,0.22247161,-0.7772023,-0.22880593,-2.4064822,0.26751062,1.7991539,0.83744377,0.04,0.04,0.0042795959580121945,0.008791486693263129,0.0032132264295325896,0.06086460385095943,-0.06581180933057929,0.2922804657176527,0.9744311099269968,0.023177130973464334,0.06404816060060724,0.21411367478505158
1086.9333333326736,0.22508109,-0.77711767,-0.2314933,-2.4070706,0.2706507,1.8018332,0.8380477,0.04,0.04,0.0026125306026525408,0.008851827277242541,0.0028896839349368264,0.061671557171988946,-0.06498824292310318,0.29263803708348146,0.9738427072876203,0.02377772349670733,0.06453681429211673,0.21656408042207057
1086.9499999993402,0.22769423,-0.77703273,-0.23418446,-2.4076595,0.2737953,1.8045163,0.8386525,0.04,0.04,0.0038791217592093474,0.009360215137652061,0.0032811523899889394,0.06247304452432904,-0.06415525544449154,0.2929551132285649,0.9732471979877015,0.024386934767558148,0.06501966580301707,0.2190150955541523
1086.9666666660069,0.2303107,-0.77694786,-0.2368791,-2.4082499,0.27694395,1.8072027,0.839258,0.04,0.04,0.002088957286150439,0.009414249533259977,0.0021574765584064792,0.06326661764000877,-0.0633077769420535,0.29323148452658143,0.9726446912775871,0.025004626402831694,0.06549610299772247,0.221466326289334
1086.9833333326735,0.2329302,-0.776863,-0.23957683,-2.4088407,0.28009623,1.8098922,0.83986425,0.04,0.04,0.003465365677013388,0.009863118302713691,0.0025865665849167385,0.0640539265025291,-0.06245041926609302,0.2934684246809046,0.972035222311182,0.025630752526690715,0.0659665302874849,0.22391741333178317
1086.9999999993402,0.23555239,-0.77677816,-0.24227738,-2.409432,0.28325176,1.8125845,0.84047127,0.04,0.04,0.0032177796721155616,0.010240060950233998,0.0024338630864706445,0.06483330101877027,-0.06158198113172764,0.2936659739314687,0.9714188532680988,0.026265366386297683,0.0664308793561683,0.22636801963142114
1087.0166666660068,0.23817703,-0.77669317,-0.24498041,-2.4100237,0.2864102,1.8152794,0.8410787,0.04,0.04,0.0025671853568942637,0.010269400174384158,0.0023319857578973924,0.06560278781146327,-0.06070076139019524,0.2938257638489104,0.9707956771003727,0.026908248792162946,0.06688891752902155,0.22881777068655249
1087.0333333326735,0.24080367,-0.7766081,-0.24768552,-2.4106154,0.28957108,1.8179761,0.84168655,0.04,0.04,0.003091450124692585,0.01078230966024274,0.0021264930510467295,0.06636503092414944,-0.05980837968314423,0.29394224269259106,0.9701657746810146,0.02755935784008831,0.06734069926773731,0.23126625706133794
1087.0499999993401,0.24343209,-0.776523,-0.25039244,-2.4112077,0.29273403,1.820675,0.84229493,0.04,0.04,0.0020973892059128474,0.010870329931189637,0.0020818796782506865,0.06711804976127836,-0.05890377978797369,0.29402260525529206,0.9695292168824049,0.02821877742266186,0.06778610881817694,0.23371316108309187
1087.0666666660068,0.24606189,-0.776438,-0.25310078,-2.4118006,0.29589877,1.8233751,0.8429037,0.04,0.04,0.0013163725903320156,0.010915220566148909,0.0012328083611956586,0.06786066803188301,-0.05798889362965376,0.29406245835906775,0.9688861106896682,0.028886329602023007,0.06822470994944939,0.23615815342072094
1087.0833333326734,0.2486928,-0.7763528,-0.25581035,-2.4123936,0.2990648,1.8260763,0.8435126,0.04,0.04,0.0019047265013227843,0.011504306083140459,0.0017188826516134625,0.06859403962467356,-0.057067795148429606,0.29406348237379604,0.9682365325184991,0.02956194665483656,0.06865672088977932,0.23860084468248016
1087.09999999934,0.25132456,-0.7762675,-0.25852066,-2.4129868,0.30223188,1.8287785,0.84412175,0.04,0.04,0.0013749808150054221,0.01130577888645845,0.0015459004006901367,0.06931728741847404,-0.05613660236333437,0.2940241543671053,0.9675805614842823,0.030245575781679645,0.06908207079958287,0.24104092946517808
1087.1166666660067,0.25395662,-0.7761822,-0.26123148,-2.4135802,0.30539945,1.8314813,0.8447309,0.04,0.04,0.0009534931228571963,0.012053021108107687,0.0012776532186231648,0.07003024338625868,-0.05519731822045869,0.29394400228651696,0.9669183134136874,0.030937180222525344,0.06950067118539942,0.24347797183706035
1087.1333333326734,0.25658885,-0.77609694,-0.26394248,-2.4141736,0.30856732,1.8341842,0.84534013,0.04,0.04,0.0012033253451670944,0.01190186929736492,0.0008668018520952003,0.07073097723022972,-0.05425032499639544,0.2938277426416629,0.9662498548835912,0.031636597211684415,0.06991244225151409,0.24591176074505516
1087.14999999934,0.25922093,-0.77601165,-0.26665324,-2.4147668,0.31173494,1.8368869,0.8459494,0.04,0.04,0.001084587363919809,0.012146444837785042,0.0010121004222707342,0.07142089410672492,-0.05329636282388463,0.29367028815488927,0.9655753063419731,0.03234377004081671,0.07031742235007349,0.24834183786908115
1087.1666666660067,0.2618525,-0.77592635,-0.2693634,-2.4153593,0.31490192,1.8395889,0.84655863,0.04,0.04,0.0015481421614671476,0.012456863784407468,0.0008261551938559819,0.07209858374075073,-0.052334330475703614,0.2934737209562447,0.9648947673113325,0.033058536659431544,0.0707156644399726,0.25076785274823343
1087.1833333326733,0.26448315,-0.77584106,-0.27207288,-2.4159515,0.31806782,1.8422898,0.8471677,0.04,0.04,0.0002614910208365018,0.012924898198732326,0.0004428644587051167,0.07276446472868892,-0.05136385236922733,0.2932371652298337,0.9642083526782171,0.033780928559421004,0.07110684595826901,0.2531894902026722
1087.19999999934,0.26711255,-0.7757558,-0.27478108,-2.4165435,0.32123238,1.8449895,0.8477763,0.04,0.04,0.00011272800952699669,0.01272523712625706,0.0002862323390306898,0.07341693420747022,-0.050389558424853334,0.29296338391124227,0.9635161752767144,0.034510696416778654,0.0714910287847558,0.25560638610226044
1087.2166666660066,0.2697406,-0.77567065,-0.27748775,-2.4171352,0.32439515,1.8476882,0.84838456,0.04,0.04,-0.0001163492564293378,0.012818312929796516,0.00036940996621659394,0.0740576695874912,-0.04940979057447013,0.2926498504072125,0.9628183332050821,0.035247778041728024,0.07186830198717542,0.258018213614444
1087.2333333326733,0.27236685,-0.7755856,-0.2801927,-2.4177265,0.32755578,1.8503847,0.84899235,0.04,0.04,-0.0002695769395710812,0.013247373912739224,-0.00020841840713270443,0.07468436511148974,-0.04842171476710115,0.2922958794481044,0.9621149464973877,0.03599206303038011,0.07223839677020863,0.26042468231182675
1087.24999999934,0.27499095,-0.7755007,-0.2828953,-2.418317,0.33071384,1.8530791,0.8495998,0.04,0.04,2.2596315818468327e-05,0.013170355543931644,-0.00017515385861699428,0.07529876556000206,-0.04743223282706854,0.29190304038291304,0.9614061356043857,0.03674344524948092,0.07260152158223633,0.26282538065678507
1087.2666666660066,0.27761263,-0.77541584,-0.28559545,-2.4189076,0.33386904,1.8557708,0.8502066,0.04,0.04,-0.001940470380978887,0.013203991454813213,-0.000690697016980657,0.07589864546058887,-0.04643581625201501,0.2914714246866896,0.9606920497305217,0.03750183337031621,0.07295710566137303,0.2652200196288903
1087.2833333326732,0.28023142,-0.775331,-0.2882928,-2.419498,0.33702075,1.8584597,0.85081285,0.04,0.04,-0.001838931727493609,0.013717964143472594,-0.0007288381538295141,0.07648556627655248,-0.04543969883330205,0.29100107903719297,0.9599728277188766,0.0382671845455695,0.07330529301708726,0.26760815877707905
1087.29999999934,0.2828471,-0.7752463,-0.29098696,-2.4200869,0.3401688,1.8611454,0.8514183,0.04,0.04,0.00010465564275197181,0.01390072922938801,-0.00044114726092114864,0.07705743524478725,-0.04444350916436397,0.29049404233437287,0.9592485223282463,0.039039219375854965,0.07364661183522596,0.2699896078125808
1087.3166666660065,0.28545934,-0.77516186,-0.2936776,-2.420675,0.3433128,1.8638276,0.85202307,0.04,0.04,-0.0013798904175299498,0.013855712451407709,-0.0010060707718917428,0.07761385210789024,-0.043440986446650204,0.28994824361499383,0.9585192861560892,0.03981791564766021,0.07398073212057059,0.2723640265071754
1087.3333333326732,0.288068,-0.7750775,-0.29636425,-2.421262,0.34645233,1.8665059,0.8526269,0.04,0.04,-0.0010769779612118668,0.0136264650069301,-0.0010897755753802585,0.07815540856945291,-0.0424370912797308,0.28936321001462423,0.9577852725578565,0.0406029148415056,0.07430769667055397,0.2747310342738202
1087.3499999993398,0.29067257,-0.77499324,-0.2990468,-2.4218485,0.34958693,1.8691802,0.8532297,0.04,0.04,-0.0027516119201154154,0.01411677885038154,-0.0013065590145799888,0.07868240762012349,-0.041430039926506734,0.2887412040088639,0.9570466296205405,0.04139428735439896,0.07462726939497792,0.2770902964180355
1087.3666666660065,0.29327282,-0.77490926,-0.30172485,-2.4224339,0.35271636,1.8718503,0.8538316,0.04,0.04,-0.0014576925019049725,0.014156365664833026,-0.0013697121461042627,0.07919391659780577,-0.04042341462808803,0.28808209857071876,0.956303439271483,0.04219188685894436,0.0749397963752476,0.27944159253778134
1087.3833333326731,0.29586825,-0.7748254,-0.30439803,-2.4230182,0.35584012,1.8745155,0.85443234,0.04,0.04,-0.00257271958037375,0.01437597391346912,-0.0016683830361241547,0.07968873937377866,-0.03941391546322731,0.28738260831724466,0.95555589071274,0.04299558517194339,0.07524501472484543,0.2817845047886099
1087.3999999993398,0.29845878,-0.7747418,-0.30706608,-2.4236012,0.35895786,1.8771755,0.8550319,0.04,0.04,-0.0019288884143930929,0.014310405752693267,-0.0019672095878275897,0.08016709477093452,-0.03840654835194518,0.2866486280222782,0.9548041012802123,0.04380507169718374,0.07554302899235142,0.2841188037472205
1087.4166666660064,0.30104393,-0.77465844,-0.30972865,-2.424183,0.36206913,1.87983,0.8556302,0.04,0.04,-0.002767953224425135,0.014570877908187674,-0.0019856452839972505,0.0806295682577923,-0.03739719269772514,0.28587699662944144,0.9540482342735406,0.044620345423028944,0.07583381304958316,0.2864441031898368
1087.433333332673,0.30362335,-0.7745752,-0.31238544,-2.4247634,0.36517367,1.8824785,0.8562275,0.04,0.04,-0.0033119353209931646,0.0145136514426214,-0.0024287981645887413,0.0810754567804006,-0.036389664916633806,0.28506674805552656,0.9532884390148909,0.04544138476211765,0.07611706913617199,0.2887601502589526
1087.4499999993398,0.30619684,-0.7744922,-0.3150362,-2.4253423,0.36827108,1.8851213,0.85682327,0.04,0.04,-0.0022673632051883885,0.014920211493796298,-0.0019645453152250525,0.08150291028275553,-0.03538642003824091,0.2842242264375685,0.9525247960773517,0.04626787131059256,0.07639351353400503,0.29106670718602556
1087.4666666660064,0.30876413,-0.7744094,-0.31768045,-2.4259202,0.37136093,1.8877574,0.85741746,0.04,0.04,-0.00440165118873459,0.014201927632032096,-0.0031235478311852916,0.08191285945144969,-0.034381223951577555,0.2833402025258896,0.9517575794881525,0.04709949906374399,0.07666228622384615,0.293363325836292
1087.483333332673,0.31132492,-0.7743269,-0.32031792,-2.4264967,0.3744429,1.8903869,0.85801023,0.04,0.04,-0.0034885987894472947,0.014600826029645408,-0.0027758388709608894,0.08230690059693288,-0.033381268960346336,0.28242297114284115,0.9509868612818357,0.047936281320904814,0.07692388236565456,0.2956498248337724
1087.4999999993397,0.31387883,-0.77424467,-0.32294828,-2.4270716,0.37751648,1.8930091,0.8586015,0.04,0.04,-0.0037092272409555704,0.0147068667884942,-0.0031853951588445284,0.08268334591116536,-0.032385003254086185,0.28146966934510387,0.9502128438068667,0.04877799063234488,0.07717814560364289,0.29792581783981226
1087.5166666660064,0.31642547,-0.77416253,-0.32557136,-2.4276445,0.3805815,1.8956239,0.859191,0.04,0.04,-0.0035453743255198233,0.01510281761044896,-0.0028645213741018694,0.08304182104589139,-0.03139423758513351,0.28048556656347223,0.9494356167309533,0.04962455132262048,0.07742536213442168,0.30019115058092
1087.533333332673,0.3189645,-0.7740806,-0.32818657,-2.428216,0.3836375,1.898231,0.8597787,0.04,0.04,-0.004722182301186706,0.014602350503792327,-0.0035403083750606967,0.08338143159019512,-0.030405220691446806,0.27946024763781624,0.948655416117065,0.05047570308949434,0.07766523616541879,0.3024453933534932
1087.5499999993397,0.3214959,-0.77399886,-0.3307938,-2.428786,0.38668412,1.9008303,0.86036456,0.04,0.04,-0.004909852198808906,0.014568322423413882,-0.003661981765623601,0.08370410831871047,-0.02942268620862179,0.2784018485630335,0.9478723712442648,0.05133126721014619,0.07789783357368919,0.30468835941483047
1087.5666666660063,0.32401907,-0.7739173,-0.3333927,-2.429354,0.38972095,1.9034214,0.86094856,0.04,0.04,-0.003992708435074377,0.015163569449808123,-0.003395336366063262,0.08400839333920201,-0.028445246796626633,0.2773081213311102,0.9470866162013771,0.05219119249420176,0.07812353858232735,0.30691975100607954
1087.583333332673,0.32653385,-0.773836,-0.33598292,-2.4299195,0.39274776,1.906004,0.86153066,0.04,0.04,-0.0037846708331290557,0.014908483796383099,-0.003685197845681998,0.08429281763385245,-0.027472640465476178,0.2761797540890196,0.9462982956630066,0.05305520826793378,0.07834238896614311,0.3091393708216614
1087.5999999993396,0.32903993,-0.77375513,-0.33856422,-2.430483,0.3957641,1.9085773,0.8621107,0.04,0.04,-0.004882337754485988,0.014831302336135166,-0.0044173191264818,0.08455779728187565,-0.026504816906943257,0.27501667097986665,0.9455076089667612,0.05392306471127688,0.07855411302615439,0.31134693800449664
1087.6166666660063,0.33153695,-0.77367467,-0.34113622,-2.4310455,0.39876944,1.9111414,0.8626887,0.04,0.04,-0.006484899584324744,0.014624515029157403,-0.004886636168710545,0.08480397953452756,-0.02554335896799051,0.27382159735645,0.9447147921065158,0.05479469871493179,0.07875844494347765,0.313542038517912
1087.633333332673,0.33402467,-0.7735944,-0.3436986,-2.431605,0.40176365,1.913696,0.8632644,0.04,0.04,-0.003864748008020058,0.015010265181053528,-0.004021518707841842,0.08503232903463506,-0.02459309547727715,0.272590916993613,0.9439199063450462,0.055669752095270225,0.07895622657753369,0.3157245688758599
1087.6499999993396,0.33650273,-0.77351457,-0.34625113,-2.432162,0.4047462,1.9162406,0.86383796,0.04,0.04,-0.004429807704653399,0.015121551395197441,-0.0047712557636803155,0.08524083913993132,-0.023646252621118496,0.2713285244894465,0.9431231379838324,0.056548164739549156,0.07914724865314882,0.317894266533315
1087.6666666660062,0.3389709,-0.77343506,-0.34879342,-2.4327173,0.407717,1.9187751,0.86440915,0.04,0.04,-0.006441464373896366,0.014410913445611628,-0.005145212971280344,0.08542932569375877,-0.02270597639418316,0.2700338234956558,0.9423246956708488,0.05742972045680825,0.07933119122323708,0.3200508666387226
1087.6833333326729,0.3414289,-0.77335584,-0.35132524,-2.43327,0.41067556,1.921299,0.86497813,0.04,0.04,-0.005126116722697915,0.014797493575319232,-0.005059503368864959,0.08559870076334831,-0.021775932571608744,0.26870699272178156,0.9415247129829658,0.058314277534920814,0.07950836181640686,0.3221941654952733
1087.6999999993395,0.34387645,-0.773277,-0.35384625,-2.43382,0.4136214,1.9238124,0.86554474,0.04,0.04,-0.00521105340518524,0.014856782695482629,-0.005051277881173988,0.08574759740544075,-0.020854338368051423,0.26734655611642455,0.940723373836963,0.05920161099900954,0.07967903255345174,0.32432384269934494
1087.7166666660062,0.34631318,-0.7731985,-0.35635617,-2.4343684,0.41655424,1.9263146,0.8661088,0.04,0.04,-0.007358564932191669,0.014366563336976057,-0.006027361384397523,0.0858764095900097,-0.019941208885874973,0.2659573453612015,0.9399209201672853,0.06009149882377599,0.07984258419801053,0.32643963814092686
1087.7333333326728,0.34873888,-0.77312016,-0.35885477,-2.4349136,0.41947386,1.9288056,0.86667025,0.04,0.04,-0.005089954406356512,0.014845511946323664,-0.005219563891500911,0.08598611219688401,-0.01904012116695121,0.2645360738056271,0.9391174237973293,0.060983789734140904,0.07999977637509569,0.32854143953216053
1087.7499999993395,0.35115322,-0.7730423,-0.3613416,-2.4354563,0.42237976,1.9312851,0.86722904,0.04,0.04,-0.00582415987397944,0.01454842357179742,-0.0058587935982679085,0.08607542287918034,-0.018147463841246242,0.26308188143285605,0.9383131020875943,0.0618781904255801,0.08015058420671249,0.33062893982791985
1087.7666666660061,0.35355595,-0.77296484,-0.3638164,-2.435996,0.42527172,1.9337524,0.8677853,0.04,0.04,-0.0059587950397954614,0.014389017427762774,-0.006247928754765653,0.08614367229452022,-0.017264007211359636,0.2616007348685905,0.9375081333017675,0.06277453330815073,0.08029480903224762,0.3327019711445277
1087.7833333326728,0.35594678,-0.7728879,-0.366279,-2.4365337,0.42814943,1.9362073,0.8683386,0.04,0.04,-0.007212635119957511,0.014139004532201516,-0.00681107133992942,0.0861917019676822,-0.016391632246539563,0.26009283368954444,0.9367027091154826,0.06367254157333548,0.0804323332224661,0.3347603351021409
1087.7999999993394,0.3583254,-0.7728113,-0.36872905,-2.4370685,0.43101233,1.9386498,0.8688891,0.04,0.04,-0.006339602846683334,0.01449558421942887,-0.006374183840351932,0.08622243102204939,-0.015532777790131583,0.25854866602555826,0.9358970051642491,0.06457212131643789,0.0805635967600175,0.3368037169485719
1087.816666666006,0.36069152,-0.7727352,-0.37116632,-2.4376001,0.43386027,1.9410796,0.8694369,0.04,0.04,-0.005892570271326392,0.014496743708283799,-0.006503295594439962,0.08623139953450512,-0.014685372889385678,0.2569802971212334,0.9350911332171432,0.06547317116295974,0.08068878353239205,0.3388320478476136
1087.8333333326727,0.36304495,-0.7726593,-0.37359044,-2.4381297,0.43669283,1.9434963,0.8699816,0.04,0.04,-0.008270004480825932,0.01370676530146886,-0.0072560166483270905,0.08621947833959505,-0.013848450296593338,0.25537937330372684,0.934285408073149,0.06637526307728135,0.08080734109091557,0.3408449417826643
1087.8499999993394,0.36538535,-0.7725839,-0.37600118,-2.4386551,0.43950975,1.9458998,0.87052333,0.04,0.04,-0.0045824170454178415,0.014624984703232036,-0.006494534277168285,0.08618863649060401,-0.013027209932815476,0.253750184011825,0.9334798359174241,0.06727829426816037,0.08092038072441296,0.3428424113778251
1087.866666666006,0.36771256,-0.77250916,-0.37839824,-2.4391785,0.4423108,1.9482894,0.871062,0.04,0.04,-0.008165723734387953,0.013370406223428555,-0.00813322256902893,0.08613496862607228,-0.012213282351693756,0.252096857430183,0.9326747146596429,0.06818194593519292,0.08102688174769561,0.3448242208970958
1087.8833333326727,0.37002617,-0.7724348,-0.38078147,-2.4396982,0.44509554,1.9506651,0.8715975,0.04,0.04,-0.006067844946500145,0.014323785948194834,-0.007114979397049304,0.08606418366900045,-0.011416140315181046,0.25041155088661604,0.9318701501296489,0.06908617580349853,0.0811276723538125,0.3467901734314946
1087.8999999993393,0.3723259,-0.7723608,-0.38315043,-2.440215,0.44786364,1.9530267,0.87213,0.04,0.04,-0.0074816667932964265,0.013655935820144904,-0.007850155095567857,0.08597149962955444,-0.010630984335276726,0.24870027825110802,0.9310663849160271,0.06999075734273735,0.08122243639179828,0.3487400128929443
1087.916666666006,0.37461162,-0.7722873,-0.3855049,-2.440729,0.4506149,1.9553738,0.8726591,0.04,0.04,-0.007105435602294818,0.013487811257822946,-0.007975841939100725,0.08585802121152167,-0.009861242919736654,0.24696503108232942,0.930263564979034,0.07089535508741585,0.08131138292082868,0.3506736478651203
1087.9333333326726,0.37688303,-0.7722142,-0.3878448,-2.441239,0.45334888,1.9577065,0.873185,0.04,0.04,-0.006553302728873334,0.013966379385149663,-0.0076393363189319885,0.08572459445200997,-0.00910513098132025,0.24520267743862142,0.9294618329076614,0.071799957997032,0.0813948588379509,0.352590901973243
1087.9499999993393,0.37914,-0.7721417,-0.39016956,-2.4417465,0.45606536,1.9600241,0.87370735,0.04,0.04,-0.007655557628227783,0.012858941365562204,-0.008745581402469504,0.08556933000398852,-0.008362053911667382,0.24341344194621103,0.92866143986399,0.0727040135068888,0.08147256384093712,0.3544915765866877
1087.966666666006,0.38138208,-0.7720696,-0.39247906,-2.44225,0.45876393,1.9623264,0.8742264,0.04,0.04,-0.006561169883800844,0.013510465896587887,-0.008281042741331568,0.08539584191302066,-0.007635301035542781,0.24160158884522553,0.9278625301661507,0.07360752577937409,0.08154484925725167,0.3563754969437711
1087.9833333326726,0.3836091,-0.77199787,-0.394773,-2.4427507,0.4614446,1.9646132,0.8747419,0.04,0.04,-0.00821802391217652,0.012727721219563115,-0.00896807784094289,0.08520109056818512,-0.006923375623861569,0.23976986613678447,0.9270652926339963,0.0745102849261688,0.08161139452637217,0.3582425727312775
1087.9999999993393,0.3858208,-0.7719268,-0.39705127,-2.4432473,0.4641068,1.9668844,0.8752539,0.04,0.04,-0.005916121415161513,0.01345185834882301,-0.008568157328037174,0.08498802972408037,-0.006227250593693952,0.23790693127490786,0.9262698218064042,0.07541204808003263,0.08167300832564904,0.3600927101819
1088.016666666006,0.38801685,-0.77185625,-0.39931345,-2.4437408,0.46675012,1.9691396,0.8757622,0.04,0.04,-0.008108047943444774,0.012802458406552253,-0.00927915838766502,0.08475318409555288,-0.005544583257734874,0.2360198287655703,0.9254764342271872,0.07631257603373989,0.08172922963122702,0.3619255357847961
1088.0333333326726,0.3901972,-0.77178633,-0.4015594,-2.4442303,0.46937448,1.9713788,0.87626696,0.04,0.04,-0.00609298324913965,0.012994467034049828,-0.008934265478632852,0.08449941148515622,-0.004878389236990216,0.2341112052027086,0.9246851580503689,0.07721169565352999,0.08178069460371322,0.36374115869090906
1088.0499999993392,0.3923615,-0.77171695,-0.4037889,-2.4447167,0.47197962,1.9736012,0.876768,0.04,0.04,-0.008322607198607557,0.012246837005264188,-0.009965545661883013,0.08422322150651405,-0.004224572495459246,0.2321819982128368,0.923896281065254,0.0781091554123882,0.08182671165119346,0.3655393425267779
1088.0666666660059,0.39450958,-0.77164793,-0.40600157,-2.445199,0.47456512,1.9758074,0.8772652,0.04,0.04,-0.006661456590340009,0.012607295719341272,-0.009057081185837035,0.08393056261168716,-0.00359151202037241,0.2302251837669379,0.9231099308306393,0.07900476941041236,0.08186814788135044,0.36731989923598884
1088.0833333326725,0.3966412,-0.7715795,-0.4081973,-2.4456778,0.47713074,1.9779967,0.87775856,0.04,0.04,-0.007500618816047577,0.012308712406167155,-0.0099267937176295,0.08361597167431578,-0.0029708935604376915,0.2282495953072094,0.9223262946038187,0.07989829378498559,0.08190472456626897,0.36908276175725346
1088.0999999993392,0.39875597,-0.7715117,-0.4103759,-2.4461522,0.4796763,1.9801687,0.8782481,0.04,0.04,-0.006284223892860652,0.012570273688500277,-0.009809594340826067,0.08328222516731254,-0.002368206370924046,0.22625416071172227,0.9215454817917382,0.08078958515792899,0.08193680628558404,0.37082789497954627
1088.1166666660058,0.40085384,-0.7714444,-0.41253698,-2.4466238,0.48220152,1.9823233,0.87873375,0.04,0.04,-0.009041951874433352,0.011370645297925641,-0.010741109766221335,0.08292863414137731,-0.0017803983003639653,0.22423631452682685,0.9207677900674666,0.08167840436873527,0.08196377403479316,0.372555035907481
1088.1333333326725,0.40293473,-0.77137774,-0.41468045,-2.4470909,0.48470607,1.9844599,0.8792154,0.04,0.04,-0.006048262275415439,0.01188866138734923,-0.01036221770549517,0.08255566167578987,-0.001212795733546719,0.22220210313359426,0.9199932889432462,0.08256432792636166,0.0819863886030528,0.37426422770188195
1088.1499999993391,0.40499815,-0.77131146,-0.41680604,-2.447554,0.48718977,1.986579,0.87969303,0.04,0.04,-0.007575959118044651,0.011783246126179092,-0.01027358869476469,0.08216483479199195,-0.0006612378496500121,0.22014794119311037,0.919222178902514,0.08344745720957837,0.08200463039273104,0.3759552477265368
1088.1666666660058,0.407044,-0.77124584,-0.4189135,-2.4480135,0.48965234,1.9886799,0.8801667,0.04,0.04,-0.0073689472180227256,0.011395791649726483,-0.010919882913507095,0.08175444242101959,-0.00012789037147380167,0.21807496288753148,0.9184546224884151,0.0843274941684506,0.08201848047621546,0.3776280564488096
1088.1833333326724,0.40907207,-0.77118087,-0.4210027,-2.448469,0.49209347,1.9907627,0.8806361,0.04,0.04,-0.006942886152394578,0.01142225871746394,-0.010844242605090315,0.08132517149076263,0.0003890178031182301,0.21597982792415304,0.917690778898685,0.08520411325389712,0.08202829272735376,0.37928254982424037
1088.199999999339,0.41108224,-0.77111644,-0.42307338,-2.4489198,0.49451298,1.992827,0.8811013,0.04,0.04,-0.0063196104197693614,0.011346426433861412,-0.010815971790800738,0.08087738052177826,0.0008891275576509081,0.21386901069973496,0.9169307897811845,0.08607714768902579,0.08203422227549305,0.3809186760617415
1088.2166666660057,0.41307423,-0.7710525,-0.42512542,-2.4493668,0.4969105,1.9948728,0.88156235,0.04,0.04,-0.00777596296073213,0.010977920383636874,-0.011278826372262962,0.08041133672140864,0.0013728797729146494,0.21173796328963373,0.9161748808137651,0.08694650436659226,0.08203603212343218,0.38253625001789937
1088.2333333326724,0.4150477,-0.7709894,-0.42715845,-2.44981,0.49928594,1.9968995,0.88201934,0.04,0.04,-0.007269611796933972,0.01072678253806747,-0.011908075849986766,0.07992645689951168,0.0018383214204589493,0.2095895398747742,0.915423178822599,0.08781194701803242,0.08203383958453127,0.38413528189721063
1088.249999999339,0.4170027,-0.77092683,-0.4291724,-2.4502487,0.50163895,1.9989072,0.8824719,0.04,0.04,-0.006499379946633965,0.010806937735147182,-0.011271526342482296,0.07942456172012047,0.002283981549532209,0.2074255579716761,0.9146758425811372,0.0886731686523054,0.08202807873030185,0.3857156549317927
1088.2666666660057,0.41893893,-0.7708647,-0.4311671,-2.4506836,0.5039694,2.0008957,0.8829202,0.04,0.04,-0.007843958159803321,0.010388681451090065,-0.011843124191135423,0.0789030990521174,0.0027145104273105444,0.20524698104350364,0.9139330638007309,0.08953013271367172,0.08201845459552089,0.3872772693224376
1088.2833333326723,0.42085618,-0.7708032,-0.43314227,-2.4511137,0.5062768,2.0028648,0.8833641,0.04,0.04,-0.006013469416421557,0.010692000324158402,-0.011630532312434383,0.07836500942555263,0.0031233476743707314,0.20305199971866322,0.9131949752400913,0.09038248535525056,0.08200558290471234,0.38882004566343464
1088.299999999339,0.42275444,-0.7707426,-0.43509763,-2.4515398,0.5085615,2.0048141,0.8838035,0.04,0.04,-0.006767742027991019,0.009546174892721693,-0.012555763894184224,0.07780814426927912,0.0035173331005764266,0.20084552967541486,0.9124616878759206,0.09122991745666093,0.08198917328242286,0.3903441376323482
1088.3166666660056,0.42463335,-0.7706824,-0.43703318,-2.451961,0.510823,2.006744,0.8842385,0.04,0.04,-0.006109571913581746,0.01034551991114796,-0.0116995817292187,0.07723609245082114,0.003891734214809664,0.1986256324434867,0.9117333489049886,0.09207252377816297,0.08196970027273458,0.3918493576577764
1088.3333333326723,0.42649278,-0.77062273,-0.43894863,-2.452378,0.51306105,2.0086534,0.8846689,0.04,0.04,-0.007014320560783105,0.009625835084914325,-0.012589405770668805,0.07664435308880281,0.004250868283784244,0.19639031945433993,0.9110102029052644,0.09290988914585509,0.08194685547029161,0.39333557629579463
1088.349999999339,0.42833245,-0.77056396,-0.44084394,-2.4527912,0.5152756,2.0105429,0.88509476,0.04,0.04,-0.007216261104270316,0.009633330837383047,-0.012888494566398734,0.07603848651603391,0.0045915813910129485,0.1941382732221678,0.9102923041792241,0.0937420315072932,0.08192080963285264,0.3948029045360004
1088.3666666660056,0.4301524,-0.7705058,-0.4427189,-2.4531994,0.5174663,2.012412,0.885516,0.04,0.04,-0.005482628826536384,0.009694608481691791,-0.012344549223630708,0.07541473309282164,0.004911713034371656,0.19187732039865943,0.9095798058545487,0.0945685762932297,0.08189207613602359,0.39625124482530655
1088.3833333326722,0.43195248,-0.7704481,-0.4445733,-2.4536035,0.51963305,2.0142605,0.8859326,0.04,0.04,-0.007453497671461307,0.00875683222824053,-0.013181992440802759,0.07477542998226122,0.005216431869424061,0.18960027058666204,0.9088729430745159,0.09538937225092962,0.08186006039450833,0.39768048923834415
1088.399999999339,0.43373242,-0.77039105,-0.44640702,-2.4540026,0.5217756,2.0160882,0.88634455,0.04,0.04,-0.005387793476963054,0.009354431530284035,-0.012791324896488376,0.07412176842373686,0.0055002381916847976,0.18731064481171109,0.9081717711544656,0.09620420265696335,0.08182551146678582,0.39909068035034073
1088.4166666660055,0.4354922,-0.770335,-0.4482199,-2.4543972,0.52389383,2.0178955,0.88675195,0.04,0.04,-0.005608426250214293,0.009000408112253,-0.0131668773865945,0.07345168897327109,0.005768259833002491,0.18501256786169357,0.9074763779662135,0.09701299245886441,0.08178853650331794,0.40048188226703063
1088.4333333326722,0.43723154,-0.77027947,-0.4500118,-2.4547877,0.52598727,2.019682,0.88715476,0.04,0.04,-0.0073288049573072556,0.008623379487432414,-0.01332183933966391,0.07276499421775831,0.006019281294967566,0.18270292361913426,0.9067870648135617,0.09781564540941094,0.08174879443829769,0.40185377092647856
1088.4499999993388,0.43895036,-0.7702243,-0.4517825,-2.4551735,0.52805614,2.0214474,0.88755256,0.04,0.04,-0.005982246396651902,0.008477708865367584,-0.01309924123851225,0.07206348473932905,0.006250175423413343,0.18038455282119564,0.9061038866399378,0.09861179968744115,0.08170667661651407,0.4032064961960399
1088.4666666660055,0.4406485,-0.7701702,-0.45353195,-2.455554,0.5301001,2.023192,0.8879458,0.04,0.04,-0.004051590067044586,0.008996143930695144,-0.013293393122681962,0.07134693769556738,0.006463858615968973,0.17805736282075738,0.9054268429729149,0.09940137305566858,0.0816627996938844,0.40454021580666744
1088.4833333326721,0.44232592,-0.7701165,-0.45526,-2.4559302,0.532119,2.0249145,0.88833404,0.04,0.04,-0.007077432914526227,0.0076432057544539855,-0.014091765083223962,0.07061277719385292,0.006665216751247101,0.17572169562791282,0.9047563090946843,0.10018400581447681,0.08161616651154477,0.4058546383821289
1088.4999999993388,0.44398233,-0.77006346,-0.45696658,-2.456302,0.53411275,2.0266156,0.88871753,0.04,0.04,-0.0059319434408511285,0.008117386232436852,-0.013813519558003584,0.06986850293624497,0.006843799820605907,0.17337932168002698,0.9040922678513964,0.10095979914933727,0.0815673567767544,0.4071499189186925
1088.5166666660054,0.4456177,-0.7700115,-0.45865133,-2.4566686,0.53608125,2.0282953,0.8890961,0.04,0.04,-0.004337440284940541,0.007944441715729278,-0.01392743988977152,0.06910949990489892,0.007003510485911274,0.17102770259196481,0.9034348000149096,0.10172832261943633,0.08151693108859775,0.4084261260558058
1088.533333332672,0.44723195,-0.7699599,-0.46031445,-2.457031,0.53802407,2.029953,0.8894697,0.04,0.04,-0.006786443585493629,0.007541198611421551,-0.014224971545284681,0.06833761333575193,0.007151160716399374,0.16866459467151343,0.9027841965108924,0.10248957148087962,0.08146422583206417,0.4096830020606551
1088.5499999993388,0.44882497,-0.769909,-0.4619556,-2.4573877,0.5399415,2.031589,0.8898384,0.04,0.04,-0.0034092435890364925,0.007846912402154071,-0.013536986129847328,0.0675539839332808,0.00727741885962796,0.1662978241291433,0.9021403620460205,0.1032433499862011,0.08141022438862784,0.41092086004009953
1088.5666666660054,0.4503966,-0.76985896,-0.4635748,-2.45774,0.54183316,2.0332034,0.89020216,0.04,0.04,-0.005815534077102669,0.007307312450732795,-0.014425461594846922,0.0667549080266002,0.0073914314227160605,0.1639223786668893,0.9015035195286901,0.1039895958748002,0.08135448208460204,0.41213955946005304
1088.583333332672,0.45194677,-0.7698095,-0.46517178,-2.458088,0.5436991,2.0347955,0.890561,0.03999999,0.04,-0.005649788980255366,0.006764895886368638,-0.01457734098491148,0.06594379566246858,0.00748707420314864,0.16154494097579047,0.9008738159816783,0.10472806542713929,0.08129692382266188,0.41333909828066157
1088.5999999993387,0.45347536,-0.76976067,-0.46674654,-2.4584308,0.5455391,2.0363653,0.89091474,0.039999973,0.04,-0.004689134630586622,0.006961030005964153,-0.014519553069058944,0.06512082186798679,0.007564551925809012,0.15916162182163526,0.9002513343912939,0.1054585341924091,0.0812378601893557,0.4145195321870103
1088.6166666660054,0.45498225,-0.7697126,-0.4682992,-2.4587681,0.54735285,2.037913,0.89126337,0.03999995,0.04,-0.0035243065537926554,0.007735610817105609,-0.013965394170889489,0.06428795840648957,0.007624880029233876,0.15677215600636674,0.89963609768252,0.10618099582086901,0.08117794194332363,0.41568092284215097
1088.633333332672,0.45646745,-0.76966536,-0.4698294,-2.459101,0.54914045,2.039438,0.89160717,0.039999943,0.04,-0.005307670164178546,0.006114926380501595,-0.01528705944451314,0.06344111210120315,0.007674427126440543,0.1543782798467849,0.8990283381901353,0.10689518730704188,0.08111631248389412,0.41682323580948716
1088.6499999993387,0.45793083,-0.76961875,-0.47133714,-2.4594297,0.5509018,2.0409403,0.891946,0.039999932,0.04,-0.0061867966753670345,0.005936846646492633,-0.015339686544191267,0.06258575889151394,0.007703850479824491,0.15198239923500395,0.8984281848958151,0.10760108314992499,0.08105295926089441,0.4179464335113121
1088.6666666660053,0.45937228,-0.76957285,-0.47282243,-2.4597526,0.5526368,2.0424216,0.8922799,0.039999917,0.04,-0.0019494630525862533,0.00768467663193606,-0.013217661913578205,0.0617205363877157,0.00771237148810671,0.14958462026939862,0.8978354351882594,0.10829888310165015,0.08098970181278366,0.4190507742977219
1088.683333332672,0.46079198,-0.7695277,-0.47428507,-2.4600708,0.55434537,2.04388,0.89260864,0.0399999,0.04,-0.005043572918506101,0.005518470144200149,-0.015406732489986474,0.06083793284466726,0.007713898114914193,0.147186336826494,0.89725047486463,0.108987875388454,0.08092511005810901,0.42013611477185536
1088.6999999993386,0.46218953,-0.7694831,-0.47572494,-2.4603841,0.5560274,2.0453155,0.89293206,0.039999884,0.04,-0.004176145685264032,0.005985138343933549,-0.015058635768339101,0.05994921162215425,0.0076964432623828835,0.14478538436919836,0.8966733640537627,0.10966802196536546,0.08085957643595955,0.4212024834367782
1088.7166666660053,0.46356502,-0.7694394,-0.47714224,-2.4606924,0.5576829,2.0467281,0.8932506,0.039999872,0.04,-0.0037134813496209063,0.006088937719078702,-0.015200710073259849,0.059051858048467125,0.007666139087514009,0.1423802870754889,0.8961040885386672,0.11033940126689744,0.08079319819351856,0.4222500895891086
1088.733333332672,0.46491852,-0.7693963,-0.47853678,-2.4609962,0.5593116,2.0481184,0.8935641,0.039999858,0.04,-0.004706552138022957,0.005421678923511752,-0.015116408759729971,0.05814567512664167,0.007619000151509528,0.13997599086122958,0.8955428234406941,0.11100190958598927,0.08072596429191568,0.4232788042664952
1088.7499999993386,0.46624985,-0.7693539,-0.47990844,-2.4612942,0.56091404,2.0494857,0.89387226,0.039999854,0.04,-0.002171030788744588,0.005758084790075113,-0.014847585933930318,0.057229699195053746,0.007555582992848458,0.13757478233508919,0.8949895060274422,0.11165519985870151,0.08065845224466803,0.42428895169066444
1088.7666666660052,0.46755892,-0.7693122,-0.4812572,-2.4615877,0.56248957,2.05083,0.89417547,0.039999843,0.04,-0.004597584151389,0.0051230931180812345,-0.015655262562508376,0.0563058822852258,0.007481746536176989,0.13517186238347323,0.8944443949544916,0.11229935091611325,0.08059002149874293,0.42528029410395357
1088.7833333326719,0.46884578,-0.7692715,-0.48258308,-2.461876,0.5640381,2.0521517,0.8944736,0.03999983,0.04,-0.002483910449324611,0.005706777272840302,-0.01503143334042889,0.05537552603121523,0.007389131116917021,0.13277361638508955,0.8939074359615375,0.11293422547304063,0.08052158248734259,0.42625301336554583
1088.7999999993385,0.47011036,-0.76923114,-0.48388612,-2.4621587,0.5655601,2.0534506,0.8947665,0.03999981,0.04,-0.002776962758144208,0.005383725410879059,-0.014823209385550484,0.054435261942404035,0.007287621370810959,0.13037401415954095,0.8933786796666087,0.11355979478479541,0.08045288592692464,0.4272072575128042
1088.8166666660052,0.47135273,-0.76919156,-0.48516625,-2.4624379,0.56705505,2.0547268,0.89505416,0.03999979,0.04,-0.005704452471189114,0.004275703536676945,-0.016065521315478115,0.05348792408938975,0.007173480245116222,0.12797393946006497,0.8928583935633512,0.11417589339957157,0.0803833874365501,0.42814280962560514
1088.8333333326718,0.47257277,-0.7691529,-0.4864234,-2.4627113,0.5685234,2.0559802,0.89533687,0.039999783,0.04,-0.0013085267153822855,0.0052344050316177615,-0.015087212804276717,0.05253494114863679,0.007040925685812188,0.1255824530809183,0.8923463492229796,0.1147824893545194,0.08031406042435381,0.4290601646204795
1088.8499999993385,0.47377053,-0.7691147,-0.48765758,-2.4629793,0.56996495,2.0572104,0.8956144,0.039999772,0.04,-0.002350398520212238,0.004784876750468792,-0.015183094441906242,0.05157484372448731,0.006897688805198501,0.12319355757576275,0.8918427550882024,0.11537937921147794,0.08024467295814323,0.42995917423785623
1088.8666666660051,0.4749459,-0.7690774,-0.48886865,-2.463243,0.5713794,2.0584173,0.8958865,0.03999976,0.04,-0.003889371636356387,0.0040355731225738545,-0.016326551610856832,0.05060827025338803,0.006742869955304709,0.12080958435274172,0.8913477877935302,0.11596626042614643,0.08017489198719782,0.43083980124078175
1088.8833333326718,0.4760991,-0.7690408,-0.49005687,-2.4635012,0.5727672,2.059601,0.8961535,0.039999753,0.04,-0.0018262913913158485,0.004521697879922293,-0.01531521409412484,0.04964090255014467,0.00657370712726426,0.11843056906971512,0.8908613066901985,0.11654331219738587,0.08010520568888228,0.431702379708332
1088.8999999993384,0.47722998,-0.7690048,-0.49122223,-2.4637547,0.57412815,2.0607624,0.8964154,0.039999742,0.04,-0.002936714892065595,0.004491182524379855,-0.015218324843302433,0.048667609465700756,0.006393078631948566,0.11605817898091808,0.8903834010125127,0.11711067751482622,0.0800356982243559,0.4325468476629427
1088.916666666005,0.47833857,-0.7689698,-0.49236462,-2.464003,0.5754622,2.061901,0.8966721,0.039999723,0.04,-0.0019328902494564204,0.004318910952522126,-0.015509259338797321,0.04768811535851157,0.006202341192351333,0.11368954476507942,0.8899141052387648,0.11766805828825082,0.07996659688673861,0.4333733456710454
1088.9333333326717,0.479425,-0.7689352,-0.4934841,-2.4642463,0.5767697,2.0630171,0.8969238,0.039999712,0.04,-0.0019294381232715097,0.00401751133141115,-0.015133634293929,0.046705201142625205,0.0060008816993998605,0.11132603884538986,0.8894534361595683,0.1182155208197238,0.07989782394722449,0.43418200477421504
1088.9499999993384,0.48048913,-0.76890147,-0.4945808,-2.4644847,0.5780504,2.0641103,0.8971703,0.039999705,0.04,-0.0023829851300227745,0.004080545055501483,-0.01570662569205794,0.04571632146539037,0.005789995125227362,0.10897120097932349,0.8890014744521794,0.11875295931452973,0.07982931541688212,0.43497286521800954
1088.966666666005,0.48153114,-0.7688684,-0.49565458,-2.4647179,0.5793043,2.0651805,0.8974117,0.039999697,0.04,-0.001562632213225612,0.003705622068744807,-0.015451733089233421,0.0447250888544895,0.00556715523510061,0.1066241766284845,0.8885582711046135,0.11928017617631323,0.07976125564313342,0.4357460045957493
1088.9833333326717,0.48255116,-0.768836,-0.49670565,-2.4649465,0.58053154,2.0662282,0.89764804,0.039999682,0.04,-0.0026271182001824656,0.0033671404748913947,-0.015710100156973716,0.04373172021648178,0.005335346273066305,0.10428646307529807,0.8881238480774114,0.11979725931731741,0.07969343942270768,0.43650154965270127
1088.9999999993383,0.48354894,-0.76880443,-0.4977339,-2.4651701,0.58173233,2.067253,0.89787924,0.039999675,0.04,-0.001435743555244784,0.0036680596509686136,-0.01547653394480264,0.04273643191344968,0.005092890622449792,0.10195646156813447,0.8876981726949694,0.12030416387714761,0.07962623403654753,0.43723966563086386
1089.016666666005,0.4845248,-0.76877356,-0.49873957,-2.4653883,0.58290654,2.0682552,0.89810526,0.039999664,0.04,-0.0007182389291315872,0.003716389637231643,-0.015318686028664708,0.04173862496298375,0.0048403130589769645,0.09963844083522395,0.8872812749862755,0.1208006926478544,0.07955975709027929,0.4379604739771204
1089.0333333326716,0.4854786,-0.7687434,-0.49972257,-2.4656022,0.5840544,2.069235,0.89832616,0.039999656,0.04,-0.0024651715888612813,0.003078843842974077,-0.015578959956474847,0.04074053886945048,0.004581196629697118,0.09732912325722395,0.8868732048306176,0.12128705215458843,0.07949380186093205,0.43866400011719037
1089.0499999993383,0.48641056,-0.76871383,-0.50068307,-2.4658105,0.585176,2.070193,0.89854217,0.03999964,0.04,-0.00028094849366944175,0.0037629335797817465,-0.014666084394932,0.03974122718902413,0.0043126071295604505,0.09502888842138563,0.8864738590941739,0.12176331209385381,0.07942897131241063,0.43935046544514983
1089.066666666005,0.48732078,-0.76868516,-0.501621,-2.4660144,0.5862714,2.0711281,0.898753,0.03999963,0.04,-0.0017217270880998115,0.00246599607379161,-0.016062113768433584,0.0387386878412872,0.004038791963587016,0.09274083746977964,0.8860833844173668,0.12222900333970739,0.07936456800391986,0.4400199676691934
1089.0833333326716,0.48820934,-0.768657,-0.5025367,-2.466213,0.58734053,2.0720408,0.89895886,0.03999962,0.04,-0.000800295074210311,0.0032938271956939325,-0.015063371518131419,0.03773810361162232,0.0037555995753658818,0.09046717150001955,0.8857017397798529,0.12268439030062848,0.0793010150126835,0.44067257407905824
1089.0999999993383,0.4890761,-0.76862967,-0.50343,-2.4664066,0.5883836,2.072931,0.8991596,0.039999608,0.04,-0.0006520575279722607,0.002972395753730872,-0.01538103979781269,0.036739296021603335,0.0034644401770003216,0.08820652934892752,0.8853289292637596,0.1231293237995981,0.07923838585908032,0.4413084350381104
1089.116666666005,0.48992136,-0.768603,-0.5043012,-2.4665968,0.5894007,2.0737996,0.8993554,0.039999604,0.04,-0.0035790141094782513,0.0021744326686223836,-0.01581728154953499,0.035741208972626386,0.0031681617213886962,0.0859588321984546,0.8849650283085099,0.12356409639722649,0.0791761162887215,0.44192754537581175
1089.1333333326716,0.49074522,-0.768577,-0.50515074,-2.4667804,0.5903923,2.074646,0.89954627,0.039999597,0.04,0.002419022539479343,0.004206277326446184,-0.01399791666918393,0.034744912664238695,0.0028602399574732124,0.08372723928862641,0.8846096710472203,0.1239886131917125,0.07911552637856696,0.44253054942497083
1089.1499999993382,0.4915478,-0.7685517,-0.50597763,-2.46696,0.59135807,2.0754704,0.8997322,0.039999586,0.04,-0.0017960035195052626,0.0011954144070125405,-0.015877297181599026,0.03374762446095608,0.002552808370958488,0.08150721273776848,0.8842633046140455,0.12440246435955538,0.07905560014463427,0.44311696769599007
1089.1666666660049,0.49232924,-0.7685271,-0.50678325,-2.4671352,0.5922985,2.076273,0.8999132,0.03999958,0.04,-0.0016775747798902785,0.002791745049934846,-0.015206236313725086,0.032756964802005545,0.002238569529551978,0.07930083772370264,0.8839256300358497,0.12480621227713712,0.07899633278041943,0.4436873554091953
