rsonawane2002/My_IMU/logs_2/traj_349/imu_400hz_349.csv
time,j1,j2,j3,j4,j5,j6,j7,gripper1,gripper2,imu_ax,imu_ay,imu_az,imu_gx,imu_gy,imu_gz
0.0,0.00016700293,-0.785875,4.0107683e-05,-2.3551247,9.29385e-05,1.570997,0.786,0.04,0.04,-9.491658,-0.0208704750984907,0.084970154,1.515472e-07,-0.0011641271412372,1.0638864e-06
0.0025,0.00016700468050000002,-0.7858577739999998,4.010738885e-05,-2.3551391900000005,9.294539625000011e-05,1.570996565,0.786,0.04,0.04,-9.543084450000748,-0.017642926715733084,0.07358358754983431,9.50391774991777e-08,-0.0013253150857076607,1.198293210001956e-06
0.005,0.00016700643100000005,-0.7858405479999995,4.010709469999999e-05,-2.355153680000001,9.29522925000002e-05,1.57099613,0.786,0.04,0.04,-9.594510900001495,-0.014415378332975466,0.06219702109966861,3.85311549983554e-08,-0.0014865030301781212,1.3327000200039118e-06
0.0075,0.00016700818150000007,-0.7858233219999993,4.010680054999999e-05,-2.3551681700000007,9.29591887500003e-05,1.570995695,0.786,0.04,0.04,-9.645937350002244,-0.011187829950217849,0.050810454649502915,-1.7976867502466903e-08,-0.0016476909746485817,1.4671068300058675e-06
0.01,0.0001670099320000001,-0.7858060959999991,4.010650639999998e-05,-2.355182660000001,9.296608500000041e-05,1.57099526,0.786,0.04,0.04,-9.697363800002993,-0.007960281567460231,0.03942388819933721,-7.448489000328921e-08,-0.0018088789191190425,1.6015136400078234e-06
0.0125,0.00016701168250000012,-0.7857888699999988,4.010621224999998e-05,-2.3551971500000013,9.29729812500005e-05,1.570994825,0.786,0.04,0.04,-9.748790250003742,-0.004732733184702614,0.028037321749171513,-1.309929125041115e-07,-0.001970066863589503,1.7359204500097792e-06
0.015,0.00016701343300000018,-0.7857716439999985,4.010591809999997e-05,-2.3552116400000016,9.29798775000006e-05,1.57099439,0.786,0.04,0.04,-9.800216700004489,-0.0015051848019449962,0.016650755299005823,-1.8750093500493382e-07,-0.0021312548080599635,1.8703272600117351e-06
0.0175,0.00016701823100000106,-0.7857548644999985,4.0102533899999064e-05,-2.3552257350000017,9.299022705000169e-05,1.57099396,0.786,0.04,0.04,-9.834393899999968,0.0006461324548579636,0.008988338484979163,-2.323641855020995e-07,-0.002288297482314996,2.3148954101036312e-06
0.02,0.00016702912400000107,-0.7857389779999985,4.009296959999906e-05,-2.3552390400000016,9.30074832000017e-05,1.57099354,0.786,0.04,0.04,-9.834072599999969,0.0006449874606912875,0.008774220939978969,-2.539378920021191e-07,-0.0024370496161427915,3.3797862401045995e-06
0.0225,0.0001670400170000011,-0.7857230914999984,4.008340529999905e-05,-2.3552523450000016,9.302473935000171e-05,1.57099312,0.786,0.04,0.04,-9.833751299999967,0.0006438424665246115,0.008560103394978773,-2.755115985021387e-07,-0.0025858017499705865,4.4446770701055674e-06
0.025,0.0001670509100000011,-0.7857072049999985,4.007384099999904e-05,-2.355265650000001,9.304199550000172e-05,1.5709927,0.786,0.04,0.04,-9.833429999999968,0.0006426974723579354,0.008345985849978579,-2.970853050021584e-07,-0.002734553883798382,5.509567900106537e-06
0.0275,0.0001670618030000011,-0.7856913184999984,4.0064276699999035e-05,-2.355278955000001,9.305925165000174e-05,1.57099228,0.786,0.04,0.04,-9.833108699999968,0.0006415524781912594,0.008131868304978383,-3.1865901150217797e-07,-0.002883306017626177,6.574458730107505e-06
0.03,0.0001670726960000011,-0.7856754319999983,4.0054712399999025e-05,-2.355292260000001,9.307650780000176e-05,1.57099186,0.786,0.04,0.04,-9.832787399999967,0.0006404074840245833,0.00791775075997819,-3.4023271800219756e-07,-0.0030320581514539724,7.639349560108472e-06
0.0325,0.00016708358900000112,-0.7856595454999984,4.0045148099999014e-05,-2.355305565000001,9.309376395000177e-05,1.57099144,0.786,0.04,0.04,-9.832466099999968,0.0006392624898579073,0.007703633214977994,-3.6180642450221725e-07,-0.003180810285281768,8.704240390109443e-06
0.035,0.00016711048800000362,-0.7856445149999984,4.001933679999648e-05,-2.355318100000001,9.312961140000468e-05,1.57099101,0.786,0.04,0.04,-9.832195799999974,0.0006392436916939964,0.007494966059978647,-3.98053684004519e-07,-0.003322250163196886,1.0772246700266423e-05
0.0375,0.00016714539000000365,-0.7856299124999985,3.9985401999996446e-05,-2.355330250000001,9.317475450000472e-05,1.570990575,0.786,0.04,0.04,-9.831950999999975,0.0006397879915312069,0.00728902409997846,-4.4163772000455854e-07,-0.003460033913157361,1.3341810750268754e-05
0.04,0.0001671802920000037,-0.7856153099999985,3.995146719999642e-05,-2.355342400000001,9.321989760000476e-05,1.57099014,0.786,0.04,0.04,-9.831706199999974,0.0006403322913684174,0.007083082139978273,-4.852217560045982e-07,-0.0035978176631178364,1.5911374800271094e-05
0.0425,0.00016721519400000371,-0.7856007074999984,3.991753239999639e-05,-2.3553545500000013,9.32650407000048e-05,1.570989705,0.786,0.04,0.04,-9.831461399999974,0.0006408765912056279,0.006877140179978085,-5.288057920046379e-07,-0.003735601413078312,1.8480938850273433e-05
0.045,0.00016725009600000376,-0.7855861049999985,3.988359759999636e-05,-2.355366700000001,9.331018380000484e-05,1.5709892699999999,0.786,0.04,0.04,-9.831216599999973,0.0006414208910428384,0.0066711982199778985,-5.723898280046774e-07,-0.003873385163038787,2.1050502900275765e-05
0.0475,0.00016728499800000378,-0.7855715024999984,3.984966279999633e-05,-2.3553788500000015,9.335532690000489e-05,1.570988835,0.786,0.04,0.04,-9.830971799999974,0.000641965190880049,0.00646525625997771,-6.159738640047171e-07,-0.004011168912999262,2.3620066950278103e-05
0.05,0.00016731990000000877,-0.7855568999999986,3.981572799999128e-05,-2.3553910000000013,9.340047000001081e-05,1.5709884,0.786,0.04,0.04,-9.83072699999997,0.0006425094907176256,0.006259314299981812,-6.595579000089901e-07,-0.00414895266295864,2.6189631000563754e-05
0.0525,0.00016740002100000884,-0.7855434554999985,3.973580304999121e-05,-2.355402130000001,9.34995765000109e-05,1.57098798,0.786,0.04,0.04,-9.830447999999969,0.0006464084290205091,0.006092665709981661,-7.419300700090649e-07,-0.004276681621572936,3.135504210056844e-05
0.055,0.0001674801420000089,-0.7855300109999985,3.9655878099991136e-05,-2.355413260000001,9.3598683000011e-05,1.57098756,0.786,0.04,0.04,-9.83016899999997,0.0006503073673233927,0.005926017119981509,-8.243022400091399e-07,-0.0044044105801872326,3.652045320057314e-05
0.0575,0.00016756026300000898,-0.7855165664999986,3.957595314999106e-05,-2.3554243900000014,9.369778950001108e-05,1.57098714,0.786,0.04,0.04,-9.829889999999969,0.0006542063056262762,0.0057593685299813565,-9.066744100092149e-07,-0.004532139538801529,4.168586430057785e-05
0.06,0.00016764038400000905,-0.7855031219999985,3.949602819999099e-05,-2.3554355200000012,9.379689600001119e-05,1.57098672,0.786,0.04,0.04,-9.829610999999968,0.0006581052439291597,0.005592719939981205,-9.890465800092896e-07,-0.004659868497415825,4.6851275400582536e-05
0.0625,0.00016772050500000912,-0.7854896774999985,3.941610324999092e-05,-2.355446650000001,9.389600250001128e-05,1.5709863,0.786,0.04,0.04,-9.829331999999969,0.0006620041822320433,0.005426071349981054,-1.0714187500093647e-06,-0.004787597456030121,5.201668650058724e-05
0.065,0.0001678006260000092,-0.7854762329999985,3.9336178299990844e-05,-2.355457780000001,9.399510900001137e-05,1.5709858799999998,0.786,0.04,0.04,-9.829052999999968,0.0006659031205349268,0.005259422759980903,-1.1537909200094397e-06,-0.004915326414644418,5.718209760059194e-05
0.0675,0.00016790479700001757,-0.7854631414999986,3.923175009998228e-05,-2.3554685500000008,9.412276700002135e-05,1.57098562,0.786,0.04,0.04,-9.828787549999973,0.0006696780212227424,0.005096019964981875,-1.2241510350053522e-06,-0.0050401023589211605,6.329659925092552e-05
0.07,0.00016805706800001772,-0.7854507559999986,3.907831539998214e-05,-2.355478600000001,9.430752800002152e-05,1.57098568,0.786,0.04,0.04,-9.828549199999973,0.0006732048466805506,0.004939108759981732,-1.2704870400053945e-06,-0.005158972274525859,7.130928200093282e-05
0.0725,0.00016820933900001786,-0.7854383704999987,3.8924880699982e-05,-2.355488650000001,9.449228900002168e-05,1.57098574,0.786,0.04,0.04,-9.828310849999973,0.0006767316721383588,0.00478219755498159,-1.3168230450054364e-06,-0.005277842190130557,7.932196475094007e-05
0.075,0.000168361610000018,-0.7854259849999986,3.877144599998186e-05,-2.355498700000001,9.467705000002185e-05,1.5709858,0.786,0.04,0.04,-9.828072499999973,0.0006802584975961671,0.004625286349981448,-1.3631590500054784e-06,-0.0053967121057352544,8.733464750094736e-05
0.0775,0.00016851388100001813,-0.7854135994999986,3.861801129998172e-05,-2.355508750000001,9.486181100002202e-05,1.57098586,0.786,0.04,0.04,-9.82783414999997,0.0006837853230539752,0.004468375144981305,-1.4094950550055207e-06,-0.005515582021339953,9.534733025095467e-05
0.08,0.00016866615200001827,-0.7854012139999985,3.8464576599981584e-05,-2.355518800000001,9.504657200002219e-05,1.57098592,0.786,0.04,0.04,-9.82759579999997,0.0006873121485117834,0.004311463939981162,-1.4558310600055628e-06,-0.005634451936944651,0.00010336001300096196
0.0825,0.00016881842300001842,-0.7853888284999986,3.831114189998144e-05,-2.355528850000001,9.523133300002236e-05,1.57098598,0.786,0.04,0.04,-9.82735744999997,0.0006908389739695917,0.004154552734981019,-1.5021670650056049e-06,-0.005753321852549349,0.00011137269575096925
0.085,0.00016904013800003126,-0.7853770959999986,3.808682709996834e-05,-2.355538680000001,9.549988400003785e-05,1.5709860900000001,0.786,0.04,0.0399999995,-9.827122499999971,0.0006961043807684877,0.003997070939980772,-1.5776656800109784e-06,-0.005865064915282755,0.00012182483700142251
0.08750000000000001,0.0001692965750000315,-0.7853656899999987,3.782707224996811e-05,-2.355548400000001,9.581033000003813e-05,1.570986225,0.786,0.04,0.03999999875,-9.82688924999997,0.0007022390782374533,0.003839303849980628,-1.6677456000110605e-06,-0.005973244551582458,0.00013349670750143313
0.09,0.0001695530120000317,-0.7853542839999986,3.7567317399967875e-05,-2.3555581200000013,9.61207760000384e-05,1.57098636,0.786,0.04,0.039999998,-9.826655999999971,0.0007083737757064188,0.0036815367599804857,-1.757825520011142e-06,-0.0060814241878821606,0.00014516857800144368
0.0925,0.00016980944900003197,-0.7853428779999986,3.7307562549967635e-05,-2.3555678400000013,9.643122200003869e-05,1.570986495,0.786,0.04,0.03999999725,-9.82642274999997,0.0007145084731753844,0.003523769669980342,-1.847905440011224e-06,-0.006189603824181864,0.00015684044850145431
0.095,0.0001700658860000322,-0.7853314719999985,3.70478076999674e-05,-2.3555775600000013,9.674166800003897e-05,1.5709866300000002,0.786,0.04,0.0399999965,-9.826189499999971,0.00072064317064435,0.0033660025799801983,-1.9379853600113064e-06,-0.006297783460481568,0.00016851231900146495
0.0975,0.00017032232300003241,-0.7853200659999986,3.678805284996716e-05,-2.3555872800000013,9.705211400003926e-05,1.570986765,0.786,0.04,0.03999999575,-9.82595624999997,0.0007267778681133156,0.0032082354899800546,-2.0280652800113883e-06,-0.006405963096781271,0.00018018418950147555
0.1,0.00017057876000005058,-0.7853086599999987,3.652829799994861e-05,-2.3555970000000013,9.736256000006075e-05,1.5709869,0.786,0.04,0.039999995,-9.825722999999982,0.0007329125655822642,0.0030504683999850704,-2.118145200005391e-06,-0.006514142733080481,0.00019185606000197332
0.10250000000000001,0.00017097600800005094,-0.7852981449999986,3.612471909994824e-05,-2.355605730000001,9.783962000006119e-05,1.5709870350000001,0.786,0.04,0.03999999575,-9.825584549999983,0.0007389148027876597,0.0029332188449849635,-2.1604827750054297e-06,-0.006618443573838371,0.00020735358300198742
0.105,0.00017137325600005132,-0.7852876299999987,3.572114019994788e-05,-2.3556144600000013,9.831668000006162e-05,1.57098717,0.786,0.04,0.0399999965,-9.825446099999983,0.0007449170399930552,0.0028159692899848575,-2.202820350005468e-06,-0.00672274441459626,0.00022285110600200146
0.1075,0.00017177050400005167,-0.7852771149999986,3.5317561299947515e-05,-2.355623190000001,9.879374000006204e-05,1.570987305,0.786,0.04,0.03999999725,-9.825307649999981,0.0007509192771984507,0.0026987197349847506,-2.2451579250055064e-06,-0.0068270452553541505,0.00023834862900201556
0.11,0.00017216775200005203,-0.7852665999999986,3.491398239994715e-05,-2.3556319200000013,9.927080000006248e-05,1.57098744,0.786,0.04,0.039999998,-9.825169199999982,0.000756921514403846,0.002581470179984644,-2.287495500005545e-06,-0.00693134609611204,0.0002538461520020297
0.1125,0.0001725650000000524,-0.7852560849999987,3.451040349994678e-05,-2.355640650000001,9.974786000006291e-05,1.570987575,0.786,0.04,0.03999999875,-9.825030749999982,0.0007629237516092415,0.0024642206249845373,-2.3298330750055836e-06,-0.00703564693686993,0.0002693436750020438
0.115,0.00017296224800005276,-0.7852455699999986,3.410682459994641e-05,-2.3556493800000013,0.00010022492000006335,1.57098771,0.786,0.04,0.0399999995,-9.82489229999998,0.000768925988814637,0.0023469710699844304,-2.3721706500056217e-06,-0.0071399477776278196,0.0002848411980020579
0.11750000000000001,0.00017341999450007738,-0.7852353369999987,3.364137809992123e-05,-2.3556578700000013,0.00010077430450009279,1.5709878499999999,0.7860000950000001,0.04,0.04,-9.824732449999972,0.0007768308598330757,0.0022304961199846344,-2.392820974996962e-06,-0.0072419643402229636,0.00030188404100269184
0.12,0.0001739987380000779,-0.7852256679999987,3.3052196399920695e-05,-2.355665880000001,0.00010146833800009342,1.570988,0.78600038,0.04,0.04,-9.824529799999972,0.0007885409984753162,0.0021155703799845306,-2.370096799996941e-06,-0.007339412346495357,0.00032201752400271006
0.1225,0.00017457748150007842,-0.7852159989999987,3.246301469992016e-05,-2.355673890000001,0.00010216237150009405,1.57098815,0.7860006650000001,0.04,0.04,-9.824327149999972,0.0008002511371175569,0.002000644639984426,-2.3473726249969205e-06,-0.007436860352767751,0.0003421510070027284
0.125,0.00017515622500007894,-0.7852063299999987,3.187383299991962e-05,-2.355681900000001,0.00010285640500009468,1.5709883,0.78600095,0.04,0.04,-9.824124499999972,0.0008119612757597975,0.0018857188999843212,-2.3246484499969e-06,-0.007534308359040144,0.0003622844900027467
0.1275,0.0001757349685000795,-0.7851966609999986,3.128465129991909e-05,-2.355689910000001,0.00010355043850009532,1.57098845,0.7860012350000001,0.04,0.04,-9.823921849999973,0.0008236714144020382,0.0017707931599842167,-2.301924274996879e-06,-0.007631756365312538,0.000382417973002765
0.13,0.00017631371200008,-0.7851869919999986,3.069546959991855e-05,-2.3556979200000008,0.00010424447200009595,1.5709886,0.7860015200000001,0.04,0.04,-9.823719199999973,0.0008353815530442788,0.001655867419984112,-2.2792000999968584e-06,-0.007729204371584932,0.00040255145600278335
0.1325,0.00017689245550008052,-0.7851773229999987,3.0106287899918013e-05,-2.355705930000001,0.00010493850550009658,1.5709887500000002,0.786001805,0.04,0.04,-9.823516549999972,0.0008470916916865196,0.0015409416799840076,-2.2564759249968377e-06,-0.007826652377857325,0.0004226849390028017
0.135,0.00017762174900012,-0.7851681699999986,2.9363024999877643e-05,-2.355713650000001,0.00010581279200014385,1.5709892600000002,0.7860020900000001,0.04,0.04,-9.823328999999973,0.0008608241274508992,0.001442291405986499,-3.051861680179655e-06,-0.00792117426173278,0.0004461010360037376
0.1375,0.0001784263175001317,-0.7851592749999985,2.8542721499865704e-05,-2.3557212250000013,0.00010677720500015789,1.5709899500000002,0.786002375,0.04,0.04,-9.82314899999997,0.0008755677117757137,0.0013517788649851819,-4.256302400197183e-06,-0.008014233084410686,0.0004711584400041022
0.14,0.00017923088600014343,-0.7851503799999984,2.7722417999853768e-05,-2.3557288000000014,0.00010774161800017192,1.5709906400000002,0.7860026600000001,0.04,0.04,-9.822968999999969,0.0008903112961005283,0.0012612663239838647,-5.460743120214711e-06,-0.008107291907088589,0.000496215844004467
0.14250000000000002,0.00018003545450015514,-0.7851414849999983,2.690211449984183e-05,-2.3557363750000015,0.00010870603100018596,1.5709913300000002,0.7860029450000001,0.04,0.04,-9.822788999999965,0.0009050548804253428,0.0011707537829825474,-6.665183840232239e-06,-0.008200350729766494,0.0005212732480048316
0.145,0.00018084002300016683,-0.7851325899999981,2.60818109998299e-05,-2.3557439500000017,0.00010967044400019998,1.5709920200000003,0.78600323,0.04,0.04,-9.822608999999963,0.0009197984647501573,0.0010802412419812313,-7.869624560249752e-06,-0.008293409552444397,0.000546330652005196
0.1475,0.00018164459150017855,-0.785123694999998,2.526150749981796e-05,-2.355751525000002,0.00011063485700021402,1.5709927100000003,0.7860035150000001,0.04,0.04,-9.822428999999959,0.0009345420490749719,0.000989728700979914,-9.07406528026728e-06,-0.008386468375122302,0.0005713880560055606
0.15,0.0001824491600002549,-0.7851147999999981,2.444120399973983e-05,-2.355759100000002,0.00011159927000030536,1.5709934000000003,0.7860038000000001,0.04,0.04,-9.822248999999967,0.0009492856334006475,0.000899216159977474,-1.0278506000256336e-05,-0.008479527197798912,0.0005964454600071521
0.1525,0.0001835271320002412,-0.7851066054999981,2.334096299975384e-05,-2.355766075000002,0.00011289056000028891,1.5709941200000002,0.7860040910000001,0.04,0.04,-9.822114299999969,0.0009676706657087084,0.0008039553419786869,-1.1362531850242533e-05,-0.00856710914524366,0.000626690851006767
0.155,0.00018460510400022747,-0.7850984109999982,2.2240721999767847e-05,-2.3557730500000016,0.00011418185000027248,1.5709948400000002,0.7860043820000001,0.04,0.04,-9.82197959999997,0.0009860556980167694,0.0007086945239798998,-1.2446557700228732e-05,-0.008654691092688412,0.0006569362420063818
0.1575,0.00018568307600021374,-0.7850902164999983,2.1140480999781855e-05,-2.3557800250000014,0.00011547314000025603,1.5709955600000003,0.7860046730000001,0.04,0.04,-9.821844899999974,0.0010044407303248302,0.0006134337059811126,-1.3530583550214929e-05,-0.00874227304013316,0.0006871816330059968
0.16,0.0001867610480002,-0.7850820219999984,2.0040239999795863e-05,-2.3557870000000016,0.0001167644300002396,1.5709962800000001,0.7860049640000001,0.04,0.04,-9.821710199999975,0.001022825762632891,0.0005181728879823256,-1.4614609400201128e-05,-0.00882985498757791,0.0007174270240056117
0.1625,0.0001878390200001863,-0.7850738274999985,1.8939998999809874e-05,-2.3557939750000014,0.00011805572000022315,1.5709970000000002,0.7860052550000001,0.04,0.04,-9.821575499999977,0.001041210794940952,0.0004229120699835384,-1.5698635250187327e-05,-0.00891743693502266,0.0007476724150052266
0.165,0.00018891699200017256,-0.7850656329999987,1.783975799982388e-05,-2.3558009500000012,0.0001193470100002067,1.57099772,0.786005546,0.04,0.04,-9.821440799999978,0.001059595827249013,0.0003276512519847513,-1.6782661100173523e-05,-0.00900501888246741,0.0007779178060048415
0.1675,0.00019010290050020654,-0.7850576544999989,1.6628931699789006e-05,-2.355807750000001,0.00012076767700024745,1.5709986300000003,0.7860058350000001,0.03999999975,0.04,-9.821300124999977,0.0010803077777419223,0.00024174046999009705,-1.781484760013681e-05,-0.009091678587732242,0.0008100532000052919
0.17,0.0001915046820001887,-0.785050107999999,1.519693479980724e-05,-2.355814200000001,0.00012244709800022607,1.5709999200000002,0.78600612,0.039999999,0.04,-9.821147499999979,0.0011056735646013543,0.00017452975999095277,-1.8743355400124986e-05,-0.009176493808638497,0.0008459686000048346
0.17250000000000001,0.00019290646350017085,-0.7850425614999991,1.3764937899825472e-05,-2.355820650000001,0.0001241265190002047,1.5710012100000001,0.7860064050000001,0.03999999825,0.04,-9.82099487499998,0.0011310393514607864,0.0001073190499918085,-1.9671863200113163e-05,-0.009261309029544753,0.0008818840000043773
0.17500000000000002,0.000194308245000153,-0.7850350149999992,1.2332940999843704e-05,-2.355827100000001,0.0001258059400001833,1.5710025,0.78600669,0.0399999975,0.04,-9.820842249999984,0.0011564051383202184,4.010833999266422e-05,-2.0600371000101343e-05,-0.009346124250451008,0.00091779940000392
0.1775,0.00019571002650013513,-0.7850274684999993,1.0900944099861952e-05,-2.3558335500000007,0.0001274853610001619,1.57100379,0.786006975,0.03999999675,0.04,-9.820689624999986,0.0011817709251796503,-2.710237000647927e-05,-2.152887880008951e-05,-0.009430939471357262,0.0009537148000034624
0.18,0.00019711180800011728,-0.7850199219999994,9.468947199880184e-06,-2.3558400000000006,0.0001291647820001405,1.57100508,0.78600726,0.039999996,0.04,-9.820536999999987,0.0012071367120390824,-9.431308000562355e-05,-2.2457386600077687e-05,-0.009515754692263517,0.000989630200003005
0.1825,0.00019851358950009944,-0.7850123754999994,8.036950299898416e-06,-2.3558464500000005,0.00013084420300011912,1.57100637,0.786007545,0.03999999525,0.04,-9.820384374999989,0.0012325024988985144,-0.00016152379000476783,-2.3385894400065864e-05,-0.009600569913169772,0.001025545600002548
0.185,0.00020016649700013586,-0.7850052289999995,6.347543799861102e-06,-2.35585279,0.0001328247410001628,1.57100802,0.786007831,0.039999994500000004,0.0399999995,-9.82023974999999,0.0012618072330974792,-0.00023033224400531777,-2.4154367300052596e-05,-0.009682188369339834,0.0010653865900031936
0.1875,0.00020194496750016174,-0.7849982824999994,4.529432499834644e-06,-2.3558590750000006,0.00013495583750019381,1.57100985,0.7860081175,0.039999993750000004,0.03999999875,-9.820099124999988,0.0012930814409656194,-0.00029993957000633075,-2.4842822750062615e-05,-0.009762208443142278,0.001107190375003802
0.19,0.00020372343800018763,-0.7849913359999993,2.7113211998081856e-06,-2.3558653600000006,0.00013708693400022484,1.57101168,0.786008404,0.039999993000000005,0.039999998,-9.819958499999984,0.0013243556488337594,-0.00036954689600734373,-2.5531278200072632e-05,-0.009842228516944723,0.0011489941600044103
0.1925,0.0002055019085002135,-0.7849843894999992,8.932098997817273e-07,-2.3558716450000006,0.00013921803050025584,1.5710135100000002,0.7860086905,0.03999999225,0.03999999725,-9.819817874999982,0.0013556298567018996,-0.0004391542220083567,-2.621973365008265e-05,-0.009922248590747166,0.0011907979450050186
0.195,0.0002072803790002394,-0.784977442999999,-9.249014002447318e-07,-2.355877930000001,0.00014134912700028687,1.5710153400000002,0.786008977,0.0399999915,0.0399999965,-9.81967724999998,0.0013869040645700399,-0.0005087615480093698,-2.690818910009267e-05,-0.010002268664549611,0.001232601730005627
0.1975,0.00020905884950026527,-0.784970496499999,-2.74301270027119e-06,-2.355884215000001,0.00014348022350031786,1.5710171700000002,0.7860092635,0.03999999075,0.03999999575,-9.819536624999978,0.0014181782724381798,-0.0005783688740103827,-2.759664455010269e-05,-0.010082288738352055,0.0012744055150062353
0.2,0.00021083732000036186,-0.784963549999999,-4.561124000370126e-06,-2.355890500000001,0.00014561132000043368,1.5710190000000004,0.7860095500000001,0.03999999,0.039999995,-9.819395999999983,0.0014494524803074053,-0.0006479762000083425,-2.8285100000072463e-05,-0.010162308812154172,0.0013162093000078472
0.2025,0.00021304753400036387,-0.7849571299999989,-6.821941400372185e-06,-2.355896125000001,0.00014826034100043608,1.5710211600000004,0.7860101215,0.0399999897,0.039999994250000004,-9.819299549999984,0.001487356476724745,-0.000698934410008389,-2.8727709500072864e-05,-0.010240326449287834,0.0013641418600078908
0.20500000000000002,0.00021525774800036589,-0.7849507099999989,-9.082758800374241e-06,-2.355901750000001,0.0001509093620004385,1.5710233200000003,0.786010693,0.0399999894,0.039999993500000004,-9.819203099999983,0.0015252604731420844,-0.0007498926200084354,-2.9170319000073268e-05,-0.010318344086421493,0.0014120744200079344
0.20750000000000002,0.0002174679620003679,-0.7849442899999989,-1.1343576200376301e-05,-2.355907375000001,0.00015355838300044091,1.5710254800000003,0.7860112645,0.0399999891,0.039999992750000005,-9.819106649999982,0.001563164469559424,-0.0008008508300084817,-2.961292850007367e-05,-0.010396361723555155,0.0014600069800079782
0.21,0.00021967817600036988,-0.7849378699999989,-1.3604393600378334e-05,-2.355913000000001,0.0001562074040004433,1.5710276400000003,0.786011836,0.0399999888,0.039999992,-9.819010199999983,0.001601068465976763,-0.0008518090400085276,-3.005553800007407e-05,-0.010474379360688815,0.0015079395400080212
0.2125,0.0002218883900003719,-0.7849314499999989,-1.5865211000380394e-05,-2.355918625000001,0.0001588564250004457,1.5710298000000003,0.7860124075000001,0.0399999885,0.03999999125,-9.818913749999982,0.0016389724623941024,-0.000902767250008574,-3.049814750007447e-05,-0.010552396997822476,0.001555872100008065
0.215,0.0002240986040003739,-0.7849250299999989,-1.812602840038245e-05,-2.355924250000001,0.0001615054460004481,1.5710319600000002,0.7860129790000001,0.0399999882,0.0399999905,-9.818817299999983,0.001676876458811442,-0.0009537254600086204,-3.0940757000074874e-05,-0.010630414634956138,0.0016038046600081086
0.2175,0.00022647172200045902,-0.784918773999999,-2.055393115046976e-05,-2.355929760000001,0.00016434990900055025,1.5710342200000003,0.7860135520000001,0.0399999878,0.0399999899,-9.818706599999976,0.001717652805390277,-0.0010007103200066394,-3.1709472000241664e-05,-0.010707452986402093,0.001653847265009229
0.22,0.00022917064800046148,-0.7849128459999989,-2.3316004600472274e-05,-2.3559350400000008,0.00016758525600055318,1.5710366800000004,0.786014128,0.0399999872,0.0399999896,-9.818567399999976,0.0017641738522877143,-0.001039748480006675,-3.3130398000242954e-05,-0.010782532766474137,0.0017081099600092782
0.2225,0.00023186957400046394,-0.7849069179999989,-2.6078078050474788e-05,-2.355940320000001,0.00017082060300055614,1.5710391400000003,0.7860147040000001,0.0399999866,0.0399999893,-9.818428199999975,0.0018106948991851517,-0.0010787866400067106,-3.455132400024425e-05,-0.01085761254654618,0.0017623726550093275
0.225,0.0002345685000004664,-0.7849009899999989,-2.8840151500477306e-05,-2.355945600000001,0.0001740559500005591,1.5710416000000003,0.7860152800000001,0.039999986,0.039999989,-9.818288999999975,0.0018572159460825892,-0.001117824800006746,-3.597225000024555e-05,-0.010932692326618225,0.001816635350009377
0.2275,0.00023726742600046886,-0.7848950619999989,-3.160222495047982e-05,-2.355950880000001,0.00017729129700056202,1.5710440600000004,0.7860158560000001,0.0399999854,0.0399999887,-9.818149799999976,0.0019037369929800266,-0.0011568629600067816,-3.739317600024684e-05,-0.011007772106690267,0.0018708980450094263
0.23,0.0002399663520004713,-0.7848891339999989,-3.4364298400482334e-05,-2.355956160000001,0.00018052664400056498,1.5710465200000003,0.786016432,0.0399999848,0.0399999884,-9.818010599999974,0.0019502580398774638,-0.001195901120006817,-3.881410200024814e-05,-0.01108285188676231,0.0019251607400094758
0.2325,0.00024266527800047375,-0.784883205999999,-3.712637185048485e-05,-2.355961440000001,0.00018376199100056793,1.5710489800000003,0.7860170080000001,0.039999984200000005,0.0399999881,-9.817871399999975,0.0019967790867749012,-0.0012349392800068528,-4.023502800024943e-05,-0.011157931666834355,0.001979423435009525
0.23500000000000001,0.0002457290230005728,-0.784877586999999,-4.0262754000586436e-05,-2.355966680000001,0.00018743518400068677,1.5710519000000005,0.7860177700000002,0.039999983600000004,0.0399999876,-9.81775069999998,0.002049580100002291,-0.0012638252400042013,-4.139335100018122e-05,-0.011232260987175578,0.0020380241300107225
0.23750000000000002,0.00024897517750057573,-0.784872122499999,-4.358629050058946e-05,-2.355971900000001,0.0001913273000006903,1.5710550500000005,0.7860186250000001,0.039999983,0.039999987,-9.81763924999998,0.0021055210963921715,-0.0012876351000042229,-4.242037250018215e-05,-0.011306215077651692,0.002098793825010778
0.24,0.0002522213320005787,-0.784866657999999,-4.6909827000592445e-05,-2.355977120000001,0.0001952194160006938,1.5710582000000006,0.7860194800000001,0.0399999824,0.0399999864,-9.81752779999998,0.002161462092782052,-0.0013114449600042442,-4.344739400018308e-05,-0.011380169168127802,0.0021595635200108328
0.2425,0.0002554674865005816,-0.784861193499999,-5.0233363500595474e-05,-2.355982340000001,0.00019911153200069735,1.5710613500000006,0.7860203350000001,0.0399999818,0.0399999858,-9.817416349999979,0.0022174030891719326,-0.001335254820004266,-4.447441550018401e-05,-0.011454123258603914,0.002220333215010888
0.245,0.0002587136410005846,-0.784855728999999,-5.35569000005985e-05,-2.355987560000001,0.0002030036480007009,1.5710645000000005,0.7860211900000001,0.0399999812,0.039999985200000004,-9.817304899999979,0.0022733440855618138,-0.0013590646800042876,-4.5501437000184944e-05,-0.011528077349080026,0.0022811029100109435
0.2475,0.0002619597955005875,-0.7848502644999991,-5.6880436500601524e-05,-2.355992780000001,0.00020689576400070443,1.5710676500000005,0.7860220450000002,0.0399999806,0.0399999846,-9.817193449999978,0.0023292850819516945,-0.0013828745400043094,-4.652845850018588e-05,-0.01160203143955614,0.002341872605010999
0.25,0.0002652059500007009,-0.7848447999999991,-6.0203973000717885e-05,-2.355998000000001,0.00021078788000084052,1.5710708000000007,0.7860229000000001,0.03999998,0.039999984,-9.817081999999987,0.002385226078343575,-0.0014066844000037628,-4.755548000035105e-05,-0.0116759855300321,0.0024026423000122663
0.2525,0.00026905922050070443,-0.7848397449999991,-6.415058055072148e-05,-2.356003160000001,0.00021540880400084474,1.5710746850000008,0.7860237550000001,0.039999979549999995,0.0399999834,-9.817016899999988,0.002452158718382066,-0.0014273713800037817,-4.948541660035281e-05,-0.011749103525666832,0.0024700754450123273
0.255,0.0002729124910007079,-0.7848346899999991,-6.809718810072507e-05,-2.356008320000001,0.00022002972800084895,1.5710785700000007,0.7860246100000001,0.0399999791,0.0399999828,-9.816951799999988,0.002519091358420557,-0.0014480583600038005,-5.1415353200354565e-05,-0.011822221521301563,0.0025375085900123887
0.2575,0.00027676576150071144,-0.784829634999999,-7.204379565072867e-05,-2.356013480000001,0.00022465065200085317,1.5710824550000007,0.7860254650000001,0.03999997865,0.0399999822,-9.816886699999987,0.002586023998459048,-0.0014687453400038194,-5.3345289800356325e-05,-0.011895339516936295,0.00260494173501245
0.26,0.0002806190320007149,-0.7848245799999991,-7.599040320073225e-05,-2.356018640000001,0.00022927157600085738,1.5710863400000008,0.7860263200000002,0.0399999782,0.0399999816,-9.816821599999988,0.002652956638497539,-0.0014894323200038383,-5.527522640035808e-05,-0.011968457512571026,0.0026723748800125116
0.2625,0.00028447230250071845,-0.7848195249999991,-7.993701075073585e-05,-2.356023800000001,0.00023389250000086157,1.5710902250000007,0.7860271750000001,0.03999997775,0.039999981,-9.816756499999988,0.00271988927853603,-0.0015101193000038571,-5.720516300035984e-05,-0.012041575508205758,0.002739808025012573
0.265,0.00028832557300072193,-0.784814469999999,-8.388361830073945e-05,-2.356028960000001,0.0002385134240008658,1.5710941100000007,0.7860280300000001,0.039999977299999996,0.039999980399999996,-9.81669139999999,0.002786821918574521,-0.001530806280003876,-5.913509960036159e-05,-0.01211469350384049,0.0028072411700126344
0.2675,0.00029240155600085123,-0.7848095374999992,-8.805884630087216e-05,-2.356034010000001,0.00024340174600102102,1.5710982400000009,0.7860289800000002,0.03999997665,0.039999979649999996,-9.816621349999986,0.0028576762066370165,-0.0015488633300024092,-6.089239680026584e-05,-0.01218753480353815,0.0028769355550139733
0.27,0.00029692296400085535,-0.7848048499999991,-9.269131520087638e-05,-2.356038840000001,0.00024882486400102597,1.571102860000001,0.7860301200000002,0.0399999756,0.0399999786,-9.816541399999986,0.002936373790740888,-0.001561660520002421,-6.230441520026713e-05,-0.012259822711362136,0.0029511524200140408
0.2725,0.0003014443720008595,-0.7848001624999991,-9.73237841008806e-05,-2.356043670000001,0.00025424798200103087,1.5711074800000009,0.7860312600000002,0.03999997455,0.039999977549999996,-9.816461449999986,0.00301507137484476,-0.0015744577100024325,-6.371643360026841e-05,-0.012332110619186121,0.003025369285014108
0.275,0.0003059657800008636,-0.784795474999999,-0.00010195625300088482,-2.356048500000001,0.00025967110000103583,1.5711121000000008,0.7860324000000002,0.0399999735,0.0399999765,-9.816381499999984,0.0030937689589486317,-0.0015872549000024443,-6.51284520002697e-05,-0.012404398527010108,0.0030995861500141757
0.2775,0.0003104871880008677,-0.7847907874999991,-0.00010658872190088903,-2.356053330000001,0.00026509421800104073,1.571116720000001,0.7860335400000001,0.039999972450000004,0.03999997545,-9.816301549999984,0.0031724665430525032,-0.0016000520900024558,-6.654047040027098e-05,-0.012476686434834093,0.0031738030150142435
0.28,0.00031500859600087184,-0.784786099999999,-0.00011122119080089326,-2.356058160000001,0.0002705173360010457,1.5711213400000008,0.7860346800000002,0.0399999714,0.0399999744,-9.816221599999984,0.003251164127156375,-0.0016128492800024676,-6.795248880027227e-05,-0.01254897434265808,0.003248019880014311
0.28250000000000003,0.00031953000400087596,-0.784781412499999,-0.00011585365970089747,-2.3560629900000007,0.00027594045400105064,1.571125960000001,0.7860358200000002,0.039999970350000004,0.03999997335,-9.816141649999985,0.0033298617112602464,-0.0016256464700024791,-6.936450720027356e-05,-0.012621262250482065,0.0033222367450143784
0.28500000000000003,0.0003245381320010222,-0.7847769549999991,-0.00012098585040104759,-2.3560676200000006,0.0002819480490012262,1.571131030000001,0.7860369600000002,0.039999969600000004,0.039999972700000004,-9.816050799999982,0.0034165042219859577,-0.001629936160000007,-7.126204300041659e-05,-0.01269248649479327,0.0034010472100157872
0.28750000000000003,0.00032978962000102696,-0.7847726124999991,-0.0001263679020010525,-2.3560721500000006,0.00028824788250123197,1.571136325000001,0.7860381000000002,0.039999969,0.03999997225,-9.81595449999998,0.00350711919601912,-0.001629972100000007,-7.340233750041854e-05,-0.012763178907348549,0.003482154475015861
0.29,0.0003350411080010316,-0.7847682699999992,-0.00013174995360105726,-2.356076680000001,0.00029454771600123756,1.571141620000001,0.7860392400000001,0.0399999684,0.0399999718,-9.815858199999981,0.0035977341700522804,-0.001630008040000007,-7.554263200042044e-05,-0.012833871319903828,0.003563261740015933
0.2925,0.0003402925960010364,-0.7847639274999991,-0.00013713200520106217,-2.356081210000001,0.0003008475495012433,1.571146915000001,0.7860403800000002,0.0399999678,0.03999997135,-9.815761899999982,0.003688349144085443,-0.0016300439800000072,-7.76829265004224e-05,-0.012904563732459106,0.003644369005016007
0.295,0.0003455440840010412,-0.7847595849999991,-0.00014251405680106708,-2.356085740000001,0.000307147383001249,1.571152210000001,0.7860415200000002,0.0399999672,0.0399999709,-9.815665599999981,0.0037789641181186053,-0.0016300799200000072,-7.982322100042434e-05,-0.012975256145014385,0.003725476270016081
0.2975,0.00035079557200104597,-0.7847552424999992,-0.00014789610840107198,-2.356090270000001,0.00031344721650125476,1.571157505000001,0.7860426600000002,0.0399999666,0.039999970450000005,-9.815569299999982,0.0038695790921517677,-0.0016301158600000073,-8.196351550042628e-05,-0.013045948557569664,0.0038065835350161543
0.3,0.00035604706000120937,-0.7847508999999993,-0.00015327816000123976,-2.356094800000001,0.000319747050001451,1.5711628000000013,0.7860438000000003,0.039999966,0.03999997,-9.815472999999981,0.003960194066187554,-0.0016301517999969546,-8.41038100003134e-05,-0.01311664097012481,0.003887690800017597
0.3025,0.0003620912815011324,-0.7847468739999993,-0.00015947427000116086,-2.356099210000001,0.00032699890200135864,1.571168935000001,0.7860452340000003,0.039999964799999996,0.0399999694,-9.815371449999981,0.004063920327481618,-0.0016149307149971484,-8.567018800029346e-05,-0.013186662411330263,0.003975637930016477
0.305,0.0003681355030010554,-0.7847428479999993,-0.00016567038000108198,-2.3561036200000007,0.00033425075400126634,1.5711750700000011,0.7860466680000002,0.0399999636,0.0399999688,-9.815269899999983,0.004167646588775682,-0.0015997096299973422,-8.723656600027352e-05,-0.013256683852535717,0.004063585060015357
0.3075,0.0003741797245009785,-0.7847388219999993,-0.00017186649000100308,-2.356108030000001,0.000341502606001174,1.571181205000001,0.7860481020000002,0.0399999624,0.0399999682,-9.815168349999984,0.004271372850069747,-0.001584488544997536,-8.880294400025357e-05,-0.013326705293741171,0.004151532190014237
0.31,0.00038022394600090154,-0.7847347959999994,-0.0001780626000009242,-2.356112440000001,0.00034875445800108167,1.571187340000001,0.7860495360000003,0.0399999612,0.0399999676,-9.815066799999984,0.004375099111363812,-0.0015692674599977299,-9.036932200023363e-05,-0.013396726734946624,0.0042394793200131176
0.3125,0.0003862681675008246,-0.7847307699999995,-0.0001842587100008453,-2.3561168500000007,0.0003560063100009893,1.571193475000001,0.7860509700000002,0.03999996,0.039999967,-9.814965249999986,0.0044788253726578756,-0.0015540463749979237,-9.193570000021368e-05,-0.013466748176152078,0.004327426450011998
0.315,0.00039231238900074765,-0.7847267439999994,-0.00019045482000076643,-2.3561212600000006,0.000363258162000897,1.5711996100000007,0.7860524040000002,0.0399999588,0.039999966399999996,-9.814863699999988,0.00458255163395194,-0.0015388252899981173,-9.350207800019375e-05,-0.013536769617357532,0.004415373580010878
0.3175,0.0003986419315008598,-0.7847228139999994,-0.0001969439715008816,-2.3561256500000005,0.00037085277450103174,1.571206035000001,0.7860538920000002,0.039999957450000005,0.0399999652,-9.81477169999999,0.004692287882805107,-0.0015210028799971312,-9.527715450027319e-05,-0.013606683071711369,0.004505751700011867
0.32,0.00040554211600105436,-0.7847190759999993,-0.00020401920600108107,-2.3561300000000007,0.0003791329080012652,1.571213040000001,0.7860554880000002,0.0399999558,0.0399999628,-9.814698799999988,0.0048140441067702445,-0.001497977819996482,-9.7469628000335e-05,-0.01367638055236209,0.0046009918000145525
0.3225,0.0004124423005012489,-0.7847153379999993,-0.00021109444050128058,-2.356134350000001,0.00038741304150149866,1.5712200450000013,0.7860570840000003,0.03999995415,0.0399999604,-9.814625899999987,0.004935800330735382,-0.0014749527599958326,-9.966210150039681e-05,-0.01374607803301281,0.004696231900017237
0.325,0.0004193424850014435,-0.7847115999999992,-0.00021816967500148005,-2.356138700000001,0.0003956931750017321,1.5712270500000016,0.7860586800000003,0.0399999525,0.039999957999999995,-9.814552999999984,0.00505755655470052,-0.0014519276999951833,-0.00010185457500045864,-0.01381577551366353,0.004791472000019923
0.3275,0.000426242669501638,-0.7847078619999991,-0.00022524490950167955,-2.356143050000001,0.0004039733085019656,1.5712340550000017,0.7860602760000004,0.03999995085,0.0399999556,-9.814480099999983,0.005179312778665658,-0.0014289026399945343,-0.00010404704850052046,-0.01388547299431425,0.004886712100022608
0.33,0.00043314285400183254,-0.784704123999999,-0.00023232014400187905,-2.356147400000001,0.000412253442002199,1.571241060000002,0.7860618720000004,0.0399999492,0.0399999532,-9.814407199999982,0.005301069002630796,-0.001405877579993885,-0.00010623952200058227,-0.013955170474964971,0.004981952200025294
0.3325,0.00044004303850202713,-0.7847003859999989,-0.00023939537850207852,-2.3561517500000013,0.0004205335755024325,1.571248065000002,0.7860634680000005,0.03999994755,0.039999950799999996,-9.81433429999998,0.005422825226595934,-0.0013828525199932357,-0.00010843199550064408,-0.01402486795561569,0.005077192300027979
0.335,0.00044755626000230435,-0.7846968099999989,-0.00024710033800236334,-2.356156080000001,0.00042955010800276554,1.5712557200000024,0.7860651650000005,0.0399999466,0.0399999497,-9.814270299999983,0.005554029950912046,-0.001351070359989344,-0.00011063385900065024,-0.014094756077995613,0.005177065160030113
0.3375,0.0004553760000022048,-0.784693314999999,-0.00025512016000226123,-2.356160400000001,0.00043893484000264604,1.5712637000000023,0.7860669125000005,0.039999946,0.03999994925,-9.814210749999983,0.0056899589253972,-0.0013149096499898043,-0.00011284041750062215,-0.014164739521240007,0.005279254400028813
0.34,0.00046319574000210523,-0.7846898199999991,-0.0002631399820021591,-2.356164720000001,0.00044831957200252654,1.5712716800000022,0.7860686600000004,0.0399999454,0.0399999488,-9.814151199999984,0.0058258878998823545,-0.0012787489399902648,-0.00011504697600059406,-0.0142347229644844,0.0053814436400275115
0.3425,0.0004710154800020057,-0.7846863249999991,-0.00027115980400205697,-2.356169040000001,0.0004577043040024071,1.571279660000002,0.7860704075000005,0.0399999448,0.03999994835,-9.814091649999984,0.005961816874367509,-0.0012425882299907252,-0.00011725353450056596,-0.014304706407728796,0.00548363288002621
0.34500000000000003,0.0004788352200019061,-0.7846828299999992,-0.00027917962600195487,-2.356173360000001,0.0004670890360022876,1.571287640000002,0.7860721550000004,0.039999944200000005,0.0399999479,-9.814032099999986,0.006097745848852663,-0.0012064275199911855,-0.00011946009300053787,-0.014374689850973189,0.005585822120024909
0.34750000000000003,0.00048665496000180656,-0.7846793349999992,-0.00028719944800185276,-2.356177680000001,0.0004764737680021681,1.571295620000002,0.7860739025000004,0.039999943600000004,0.039999947450000004,-9.813972549999987,0.006233674823337818,-0.001170266809991646,-0.00012166665150050977,-0.014444673294217582,0.005688011360023608
0.35000000000000003,0.0004944747000019216,-0.7846758399999993,-0.0002952192700019712,-2.356182000000001,0.0004858585000023065,1.571303600000002,0.7860756500000005,0.039999943,0.039999947,-9.813912999999985,0.006369603797826611,-0.0011341060999905267,-0.00012387321000044047,-0.01451465673746203,0.00579020060002383
0.3525,0.0005032778310019295,-0.7846725639999993,-0.0003042494005019792,-2.356186380000001,0.0004964246710023159,1.571312570000002,0.7860776525000005,0.039999943,0.039999947450000004,-9.813845799999985,0.006522201933000071,-0.001090708180990488,-0.00012589096800044226,-0.014584882976502598,0.0058993654100239264
0.355,0.0005120809620019375,-0.7846692879999992,-0.00031327953100198746,-2.356190760000001,0.0005069908420023255,1.571321540000002,0.7860796550000004,0.039999943,0.0399999479,-9.813778599999985,0.006674800068173535,-0.0010473102619904485,-0.0001279087260004441,-0.014655109215543166,0.006008530220024026
0.3575,0.0005208840930019454,-0.7846660119999993,-0.00032230966150199566,-2.356195140000001,0.0005175570130023352,1.5713305100000021,0.7860816575000005,0.039999943,0.03999994835,-9.813711399999985,0.006827398203346999,-0.0010039123429904091,-0.00012992648400044594,-0.014725335454583734,0.006117695030024126
0.36,0.0005296872240019535,-0.7846627359999993,-0.0003313397920020039,-2.356199520000001,0.0005281231840023447,1.571339480000002,0.7860836600000005,0.039999943,0.0399999488,-9.813644199999985,0.006979996338520464,-0.0009605144239903695,-0.00013194424200044778,-0.014795561693624304,0.006226859840024225
0.3625,0.0005384903550019615,-0.7846594599999992,-0.0003403699225020121,-2.356203900000001,0.0005386893550023544,1.5713484500000021,0.7860856625000004,0.039999943,0.03999994925,-9.813576999999986,0.007132594473693928,-0.00091711650499033,-0.0001339620000004496,-0.014865787932664873,0.006336024650024324
0.365,0.0005472934860019695,-0.7846561839999993,-0.00034940005300202034,-2.356208280000001,0.0005492555260023641,1.571357420000002,0.7860876650000005,0.039999943,0.0399999497,-9.813509799999986,0.007285192608867392,-0.0008737185859902905,-0.00013597975800045144,-0.01493601417170544,0.0064451894600244235
0.3675,0.0005564457430022128,-0.7846529749999993,-0.0003587889080022703,-2.356212665000001,0.0005602412080026564,1.5713667650000023,0.7860897630000006,0.039999943200000006,0.03999995,-9.81344949999999,0.007445017201865065,-0.0008262093914874803,-0.00013811274650053093,-0.015006516454757306,0.00655681357502618
0.37,0.0005662962520022218,-0.7846498999999992,-0.0003688952120022795,-2.356217060000001,0.0005720659120026671,1.5713768600000024,0.7860920520000005,0.0399999438,0.03999995,-9.81340299999999,0.007619294710496569,-0.0007704776459874296,-0.00014047619600053308,-0.015077570825831206,0.006673356300026287
0.3725,0.0005761467610022308,-0.7846468249999993,-0.0003790015160022887,-2.3562214550000014,0.0005838906160026779,1.5713869550000024,0.7860943410000005,0.0399999444,0.03999995,-9.81335649999999,0.007793572219128073,-0.0007147459004873788,-0.00014283964550053523,-0.015148625196905106,0.006789899025026393
0.375,0.0005859972700022397,-0.7846437499999993,-0.0003891078200022979,-2.3562258500000013,0.0005957153200026887,1.5713970500000023,0.7860966300000005,0.039999945,0.03999995,-9.81330999999999,0.007967849727759576,-0.0006590141549873281,-0.00014520309500053738,-0.015219679567979006,0.0069064417500264985
0.3775,0.0005958477790022487,-0.7846406749999992,-0.0003992141240023071,-2.3562302450000012,0.0006075400240026994,1.5714071450000024,0.7860989190000005,0.0399999456,0.03999995,-9.813263499999989,0.00814212723639108,-0.0006032824094872773,-0.00014756654450053954,-0.015290733939052906,0.007022984475026605
0.38,0.0006056982880022577,-0.7846375999999993,-0.00040932042800231633,-2.356234640000001,0.0006193647280027102,1.5714172400000024,0.7861012080000005,0.039999946200000004,0.03999995,-9.81321699999999,0.008316404745022583,-0.0005475506639872266,-0.0001499299940005417,-0.015361788310126804,0.007139527200026711
0.3825,0.0006155487970022666,-0.7846345249999993,-0.00041942673200232554,-2.356239035000001,0.000631189432002721,1.5714273350000023,0.7861034970000005,0.0399999468,0.03999995,-9.81317049999999,0.008490682253654087,-0.0004918189184871758,-0.00015229344350054384,-0.015432842681200704,0.007256069925026818
0.385,0.0006261401500025324,-0.7846315759999993,-0.00043029435600259856,-2.356243480000001,0.0006439042770030401,1.5714381800000026,0.7861059710000006,0.0399999473,0.0399999508,-9.813120699999988,0.008675024751617468,-0.0004308274589853025,-0.0001548854500006252,-0.01550446655602918,0.007377187150028509
0.3875,0.0006371019250025423,-0.7846286899999994,-0.0004415426400026088,-2.356247950000001,0.0006570641925030522,1.5714494000000025,0.7861085375000006,0.03999994775,0.039999952,-9.813069249999987,0.00886439974424157,-0.0003672061424852446,-0.00015759173500062766,-0.015576375182734652,0.007500591625028621
0.39,0.0006480637000025523,-0.7846258039999994,-0.000452790924002619,-2.356252420000001,0.0006702241080030641,1.5714606200000028,0.7861111040000006,0.0399999482,0.0399999532,-9.813017799999988,0.009053774736865673,-0.0003035848259851867,-0.00016029802000063013,-0.01564828380944012,0.007623996100028734
0.3925,0.0006590254750025623,-0.7846229179999993,-0.00046403920800262925,-2.356256890000001,0.0006833840235030761,1.5714718400000027,0.7861136705000006,0.03999994865,0.0399999544,-9.812966349999988,0.009243149729489775,-0.00023996350948512877,-0.0001630043050006326,-0.015720192436145593,0.0077474005750288455
0.395,0.0006699872500025723,-0.7846200319999993,-0.0004752874920026395,-2.356261360000001,0.0006965439390030881,1.5714830600000027,0.7861162370000007,0.0399999491,0.039999955600000005,-9.812914899999987,0.009432524722113879,-0.00017634219298507086,-0.00016571059000063506,-0.015792101062851064,0.007870805050028958
0.3975,0.0006809490250025822,-0.7846171459999993,-0.00048653577600264974,-2.356265830000001,0.0007097038545031,1.5714942800000027,0.7861188035000006,0.03999994955,0.0399999568,-9.812863449999988,0.00962189971473798,-0.00011272087648501295,-0.00016841687500063752,-0.015864009689556535,0.007994209525029071
0.4,0.0006919108000028701,-0.7846142599999993,-0.0004977840600029456,-2.356270300000001,0.000722863770003446,1.5715055000000029,0.7861213700000007,0.03999995,0.039999958,-9.812811999999987,0.009811274707368287,-4.9099559981196604e-05,-0.00017112316000069094,-0.015935918316262166,0.008117614000030894
0.4025,0.0007040476900028811,-0.7846115359999993,-0.0005102399955029569,-2.356275025000001,0.0007374359445034592,1.571517935000003,0.7861241855000007,0.0399999512,0.039999959200000004,-9.812760699999988,0.010026887711188669,3.0414963018875768e-05,-0.00017404498000069362,-0.016008507274108397,0.008248253500031012
0.405,0.0007161845800028922,-0.7846088119999993,-0.0005226959310029683,-2.356279750000001,0.0007520081190034725,1.571530370000003,0.7861270010000007,0.039999952400000004,0.0399999604,-9.812709399999987,0.01024250071500905,0.00010992948601894813,-0.00017696680000069628,-0.01608109623195463,0.008378893000031131
0.40750000000000003,0.0007283214700029032,-0.7846060879999993,-0.0005351518665029796,-2.3562844750000007,0.0007665802935034858,1.5715428050000029,0.7861298165000007,0.0399999536,0.0399999616,-9.812658099999988,0.010458113718829432,0.0001894440090190205,-0.00017988862000069893,-0.01615368518980086,0.00850953250003125
0.41000000000000003,0.0007404583600029142,-0.7846033639999994,-0.0005476078020029909,-2.356289200000001,0.000781152468003499,1.571555240000003,0.7861326320000007,0.0399999548,0.0399999628,-9.812606799999987,0.010673726722649813,0.00026895853201909287,-0.00018281044000070158,-0.01622627414764709,0.008640172000031369
0.41250000000000003,0.0007525952500029254,-0.7846006399999994,-0.0005600637375030023,-2.356293925000001,0.0007957246425035123,1.571567675000003,0.7861354475000006,0.039999956,0.039999964,-9.812555499999988,0.010889339726470194,0.0003484730550191653,-0.00018573226000070424,-0.016298863105493323,0.008770811500031488
0.41500000000000004,0.0007647321400029364,-0.7845979159999994,-0.0005725196730030136,-2.3562986500000007,0.0008102968170035257,1.571580110000003,0.7861382630000007,0.039999957200000005,0.0399999652,-9.812504199999987,0.011104952730290576,0.0004279875780192376,-0.00018865408000070692,-0.016371452063339554,0.008901451000031606
0.4175,0.000777281920003248,-0.7845952379999994,-0.0005854000065033338,-2.356303460000001,0.0008253652050039,1.5715929600000034,0.7861411715000007,0.0399999578,0.0399999657,-9.812461749999994,0.011326708132457917,0.0005094579070207331,-0.00019159072050072028,-0.01644467059524668,0.00903445005003344
0.42,0.0007906574800032601,-0.7845926519999994,-0.0005991291360033463,-2.356308440000001,0.0008414260200039147,1.5716066400000033,0.7861442660000008,0.0399999572,0.039999964799999996,-9.812436999999994,0.011560748331305786,0.0005948398480208109,-0.000194557002000723,-0.016519148275274235,0.009172168200033567
0.4225,0.0008040330400032723,-0.7845900659999994,-0.0006128582655033589,-2.356313420000001,0.0008574868350039293,1.5716203200000034,0.7861473605000008,0.0399999566,0.0399999639,-9.812412249999994,0.011794788530153652,0.0006802217890208886,-0.0001975232835007257,-0.016593625955301786,0.009309886350033693
0.425,0.0008174086000032845,-0.7845874799999993,-0.0006265873950033713,-2.356318400000001,0.0008735476500039439,1.5716340000000033,0.7861504550000007,0.039999955999999996,0.039999963,-9.812387499999994,0.01202882872900152,0.0007656037300209663,-0.0002004895650007284,-0.016668103635329338,0.009447604500033818
0.4275,0.0008307841600032966,-0.7845848939999993,-0.0006403165245033838,-2.3563233800000014,0.0008896084650039585,1.5716476800000034,0.7861535495000007,0.0399999554,0.0399999621,-9.812362749999993,0.012262868927849389,0.0008509856710210441,-0.0002034558465007311,-0.016742581315356893,0.009585322650033944
0.43,0.0008441597200033089,-0.7845823079999994,-0.0006540456540033963,-2.3563283600000013,0.0009056692800039731,1.5716613600000033,0.7861566440000007,0.0399999548,0.0399999612,-9.812337999999993,0.012496909126697257,0.0009363676120211218,-0.00020642212800073382,-0.016817058995384444,0.009723040800034069
0.4325,0.000857535280003321,-0.7845797219999994,-0.0006677747835034087,-2.3563333400000013,0.0009217300950039877,1.5716750400000032,0.7861597385000008,0.0399999542,0.0399999603,-9.812313249999994,0.012730949325545124,0.0010217495530211995,-0.0002093884095007365,-0.016891536675411996,0.009860758950034194
0.435,0.0008717787700035241,-0.7845772209999994,-0.0006823960970036177,-2.3563384300000014,0.000938834080004232,1.5716895500000037,0.7861630290000008,0.039999954399999996,0.0399999606,-9.812289299999994,0.01298211114487327,0.001118224790024496,-0.00021243184100074,-0.016967234015483033,0.010003175950034759
0.4375,0.0008864562250033372,-0.7845747624999995,-0.0006974635025034259,-2.3563435750000012,0.0009564596500040076,1.5717044750000033,0.7861664175000007,0.039999955,0.0399999615,-9.812265749999995,0.013241833774431978,0.0012202466750231972,-0.00021551384750070077,-0.017043541185575124,0.010147942375032916
0.44,0.0009011336800031504,-0.7845723039999994,-0.0007125309080032341,-2.356348720000001,0.0009740852200037832,1.5717194000000032,0.7861698060000007,0.0399999556,0.0399999624,-9.812242199999995,0.013501556403990688,0.0013222685600218981,-0.00021859585400066153,-0.017119848355667218,0.010292708800031074
0.4425,0.0009158111350029636,-0.7845698454999995,-0.0007275983135030422,-2.356353865000001,0.0009917107900035587,1.571734325000003,0.7861731945000007,0.0399999562,0.0399999633,-9.812218649999995,0.013761279033549395,0.0014242904450205993,-0.0002216778605006223,-0.017196155525759312,0.01043747522502923
0.445,0.0009304885900027766,-0.7845673869999995,-0.0007426657190028504,-2.3563590100000007,0.0010093363600033344,1.571749250000003,0.7861765830000006,0.0399999568,0.0399999642,-9.812195099999997,0.014021001663108103,0.0015263123300193002,-0.00022475986700058303,-0.017272462695851403,0.010582241650027387
0.4475,0.0009451660450025898,-0.7845649284999996,-0.0007577331245026585,-2.356364155000001,0.00102696193000311,1.5717641750000027,0.7861799715000006,0.0399999574,0.0399999651,-9.812171549999997,0.014280724292666813,0.0016283342150180012,-0.0002278418735005438,-0.017348769865943497,0.010727008075025544
0.45,0.0009598435000026264,-0.7845624699999997,-0.0007728005300026964,-2.3563693000000008,0.0010445875000031541,1.5717791000000028,0.7861833600000006,0.039999958,0.039999966,-9.812147999999995,0.014540446922229139,0.0017303561000175756,-0.00023092388000051548,-0.0174250770360359,0.010871774500024826
0.4525,0.0009758857450030787,-0.7845601494999995,-0.0007892709005031608,-2.3563745050000007,0.0010638533500036973,1.5717955400000032,0.7861870560000007,0.0399999583,0.03999996705,-9.812113799999993,0.01482227304955761,0.0018377117600206026,-0.00023407256750060425,-0.017503283265993066,0.0110234124250291
0.455,0.0009919279900035308,-0.7845578289999995,-0.0008057412710036251,-2.356379710000001,0.0010831192000042404,1.5718119800000037,0.7861907520000008,0.0399999586,0.0399999681,-9.812079599999993,0.015104099176886081,0.0019450674200236294,-0.00023722125500069303,-0.01758148949595023,0.011175050350033376
0.4575,0.0010079702350039832,-0.7845555084999994,-0.0008222116415040895,-2.3563849150000014,0.0011023850500047837,1.5718284200000041,0.7861944480000009,0.0399999589,0.03999996915,-9.812045399999992,0.015385925304214553,0.0020524230800266566,-0.0002403699425007818,-0.017659695725907396,0.011326688275037652
0.46,0.0010240124800044356,-0.7845531879999994,-0.0008386820120045539,-2.3563901200000013,0.0011216509000053269,1.5718448600000046,0.786198144000001,0.039999959200000004,0.0399999702,-9.812011199999992,0.015667751431543024,0.002159778740029683,-0.00024351863000087059,-0.01773790195586456,0.011478326200041926
0.4625,0.0010400547250048878,-0.7845508674999992,-0.0008551523825050184,-2.3563953250000016,0.00114091675000587,1.571861300000005,0.7862018400000012,0.0399999595,0.03999997125,-9.81197699999999,0.015949577558871497,0.00226713440003271,-0.00024666731750095934,-0.017816108185821727,0.011629964125046202
0.465,0.0010560969700053402,-0.7845485469999992,-0.0008716227530054828,-2.3564005300000015,0.0011601826000064133,1.5718777400000055,0.7862055360000012,0.0399999598,0.0399999723,-9.81194279999999,0.016231403686199967,0.002374490060035737,-0.0002498160050010481,-0.017894314415778892,0.011781602050050478
0.4675,0.0010726149300060695,-0.7845462534999992,-0.0008885822150062323,-2.3564057700000016,0.0011800202750072897,1.571894660000006,0.7862093500000015,0.0399999603,0.039999973,-9.811901799999982,0.016523180157054417,0.0024869163100425845,-0.00025299499300112554,-0.017972600180682943,0.011935642250055188
0.47000000000000003,0.001090084320005847,-0.7845440139999993,-0.0009065198600060039,-2.3564110800000018,0.0012010016000070225,1.571912540000006,0.7862134000000014,0.0399999612,0.039999973,-9.811847199999983,0.01683485731492932,0.0026094837400410242,-0.0002562345820010843,-0.018051045015480514,0.012094487000053165
0.47250000000000003,0.0011075537100056247,-0.7845417744999993,-0.0009244575050057754,-2.356416390000002,0.0012219829250067554,1.5719304200000057,0.7862174500000013,0.0399999621,0.039999973,-9.811792599999983,0.017146534472804228,0.0027320511700394635,-0.00025947417100104307,-0.018129489850278086,0.012253331750051144
0.47500000000000003,0.0011250231000054023,-0.7845395349999993,-0.0009423951500055471,-2.3564217000000016,0.0012429642500064882,1.5719483000000054,0.7862215000000012,0.039999963,0.039999973,-9.811737999999982,0.017458211630679135,0.002854618600037903,-0.00026271376000100183,-0.018207934685075658,0.01241217650004912
0.47750000000000004,0.0011424924900051798,-0.7845372954999994,-0.0009603327950053187,-2.3564270100000018,0.001263945575006221,1.5719661800000053,0.7862255500000013,0.0399999639,0.039999973,-9.811683399999984,0.01776988878855404,0.0029771860300363425,-0.0002659533490009606,-0.01828637951987323,0.012571021250047098
0.48,0.001159961880004957,-0.7845350559999994,-0.00097827044000509,-2.3564323200000015,0.0012849269000059535,1.571984060000005,0.7862296000000012,0.039999964799999996,0.039999973,-9.811628799999983,0.01808156594642894,0.003099753460034779,-0.00026919293800091925,-0.018364824354670798,0.012729866000045073
0.4825,0.0011774312700047345,-0.7845328164999994,-0.0009962080850048614,-2.3564376300000016,0.0013059082250056863,1.572001940000005,0.7862336500000011,0.0399999657,0.039999973,-9.811574199999985,0.018393243104303847,0.0032223208900332184,-0.000272432527000878,-0.01844326918946837,0.01288871075004305
0.485,0.0011958932300050692,-0.7845306229999994,-0.0010151662900052057,-2.3564429600000016,0.0013280826600060886,1.5720208200000052,0.7862379240000011,0.039999966399999996,0.0399999734,-9.811524099999987,0.01871994137772907,0.003350588890035059,-0.0002758300240009296,-0.018522432632765522,0.01305206320004428
0.4875,0.0012148514750050866,-0.7845284524999995,-0.0010346347750052234,-2.3564483000000016,0.0013508536500061092,1.572040200000005,0.7862423100000012,0.039999967,0.039999974,-9.811476249999988,0.019054150208920442,0.0034817071750351787,-0.00027930647500093274,-0.018601955380312035,0.01321766950004443
0.49,0.0012338097200051037,-0.7845262819999994,-0.001054103260005241,-2.3564536400000016,0.00137362464000613,1.5720595800000052,0.7862466960000012,0.0399999676,0.0399999746,-9.811428399999986,0.01938835904011181,0.003612825460035298,-0.0002827829260009359,-0.018681478127858548,0.013383275800044583
0.4925,0.001252767965005121,-0.7845241114999995,-0.0010735717450052588,-2.3564589800000015,0.001396395630006151,1.5720789600000051,0.7862510820000012,0.0399999682,0.0399999752,-9.811380549999987,0.01972256787130318,0.0037439437450354175,-0.00028625937700093906,-0.01876100087540506,0.013548882100044733
0.495,0.0012717262100051382,-0.7845219409999995,-0.0010930402300052765,-2.3564643200000015,0.0014191666200061715,1.5720983400000053,0.7862554680000011,0.0399999688,0.0399999758,-9.811332699999987,0.02005677670249455,0.003875062030035537,-0.00028973582800094223,-0.018840523622951574,0.013714488400044885
0.4975,0.0012906844550051554,-0.7845197704999994,-0.0011125087150052942,-2.3564696600000015,0.0014419376100061924,1.5721177200000052,0.7862598540000012,0.0399999694,0.0399999764,-9.811284849999987,0.02039098553368592,0.004006180315035656,-0.0002932122790009454,-0.018920046370498086,0.013880094700045035
0.5,0.0013096427000055956,-0.7845175999999995,-0.001131977200005747,-2.356475000000002,0.0014647086000067215,1.5721371000000057,0.7862642400000013,0.03999997,0.039999977,-9.811236999999986,0.020725194364885773,0.004137298600040786,-0.00029668873000097674,-0.01899956911804486,0.014045701000047046
0.5025000000000001,0.0013301509850056148,-0.7845155449999994,-0.0011530395250057665,-2.356480775000002,0.0014893429800067444,1.5721580850000056,0.7862689740000013,0.03999997,0.039999977,-9.811185549999985,0.021090505365382258,0.004286782060040926,-0.0003002686180009801,-0.019080044049791647,0.014218123600047207
0.505,0.001350659270005633,-0.7845134899999995,-0.0011741018500057853,-2.356486550000002,0.0015139773600067665,1.5721790700000058,0.7862737080000013,0.03999997,0.039999977,-9.811134099999986,0.02145581636587873,0.004436265520041059,-0.0003038485060009833,-0.019160518981538435,0.01439054620004736
0.5075000000000001,0.001371167555005652,-0.7845114349999994,-0.0011951641750058048,-2.356492325000002,0.0015386117400067894,1.5722000550000057,0.7862784420000013,0.03999997,0.039999977,-9.811082649999985,0.021821127366375214,0.004585748980041198,-0.0003074283940009866,-0.019240993913285227,0.01456296880004752
0.51,0.0013916758400056705,-0.7845093799999995,-0.0012162265000058236,-2.356498100000002,0.0015632461200068113,1.5722210400000058,0.7862831760000013,0.03999997,0.039999977,-9.811031199999986,0.022186438366871685,0.0047352324400413304,-0.0003110082820009898,-0.01932146884503201,0.014735391400047673
0.5125,0.0014121841250056887,-0.7845073249999994,-0.0012372888250058423,-2.356503875000002,0.001587880500006833,1.5722420250000058,0.7862879100000013,0.03999997,0.039999977,-9.810979749999985,0.022551749367368153,0.004884715900041464,-0.000314588170000993,-0.0194019437767788,0.014907814000047826
0.515,0.0014326924100057077,-0.7845052699999995,-0.001258351150005862,-2.356509650000002,0.001612514880006856,1.5722630100000057,0.7862926440000013,0.03999997,0.039999977,-9.810928299999985,0.022917060367864638,0.005034199360041603,-0.00031816805800099633,-0.019482418708525587,0.015080236600047987
0.5175,0.0014537375350061757,-0.7845032249999995,-0.001279965515006343,-2.356515600000002,0.0016377945950074185,1.5722845500000062,0.7862974975000014,0.03999997015,0.03999997735,-9.810889749999996,0.023291178606559854,0.005187931415045294,-0.000321747332500999,-0.019563602004223222,0.015254865450049988
0.52,0.0014758563400061962,-0.7845011999999995,-0.0013026839600063641,-2.356521900000002,0.0016643649800074432,1.5723072000000062,0.7863025900000015,0.039999970600000004,0.0399999784,-9.810876999999996,0.023682911321630477,0.005350160660045445,-0.00032532538000100235,-0.019646202027820782,0.015433906800050155
0.5225,0.001497975145006216,-0.7844991749999994,-0.0013254024050063844,-2.356528200000002,0.001690935365007467,1.5723298500000062,0.7863076825000015,0.03999997105,0.03999997945,-9.810864249999996,0.02407464403670108,0.005512389905045589,-0.00032890342750100553,-0.019728802051418335,0.015612948150050314
0.525,0.0015200939500062366,-0.7844971499999994,-0.0013481208500064055,-2.3565345000000018,0.0017175057500074917,1.5723525000000063,0.7863127750000014,0.0399999715,0.039999980500000004,-9.810851499999997,0.0244663767517717,0.005674619150045741,-0.0003324814750010088,-0.01981140207501589,0.015791989500050483
0.5275,0.0015422127550062561,-0.7844951249999994,-0.0013708392950064258,-2.3565408000000017,0.0017440761350075152,1.5723751500000063,0.7863178675000014,0.039999971950000004,0.03999998155,-9.810838749999997,0.0248581094668423,0.005836848395045885,-0.000336059522501012,-0.019894002098613445,0.01597103085005064
0.53,0.0015643315600062768,-0.7844930999999995,-0.0013935577400064469,-2.3565471000000016,0.00177064652000754,1.5723978000000063,0.7863229600000015,0.0399999724,0.039999982600000004,-9.810825999999997,0.025249842181912924,0.005999077640046036,-0.00033963757000101536,-0.019976602122211,0.016150072200050807
0.5325,0.0015864503650062963,-0.7844910749999995,-0.0014162761850064671,-2.3565534000000015,0.0017972169050075636,1.5724204500000063,0.7863280525000015,0.03999997285,0.03999998365,-9.810813249999997,0.025641574896983526,0.0061613068850461805,-0.00034321561750101854,-0.020059202145808554,0.01632911355005097
0.535,0.001609682700006794,-0.7844890899999994,-0.0014401397600069788,-2.3565597600000014,0.0018251259600081619,1.5724442500000069,0.7863334210000016,0.039999972700000004,0.039999983600000004,-9.810813900000003,0.02605596277874942,0.006331872370049903,-0.00034683924700104136,-0.020143603906059734,0.016512683000053076
0.5375,0.0016334718000068152,-0.7844871249999995,-0.0014645759000070004,-2.3565661500000017,0.0018537043500081872,1.5724686250000068,0.7863389275000016,0.03999997225,0.039999983,-9.810821250000002,0.02648167824384841,0.006506605975050058,-0.0003504856675010446,-0.020228906534636562,0.01669851650005324
0.54,0.0016572609000068373,-0.7844851599999995,-0.0014890120400070234,-2.3565725400000015,0.0018822827400082139,1.572493000000007,0.7863444340000016,0.0399999718,0.0399999824,-9.810828600000002,0.026907393708947416,0.006681339580050221,-0.000354132088001048,-0.020314209163213397,0.01688435000005341
0.5425,0.0016810500000068584,-0.7844831949999995,-0.001513448180007045,-2.3565789300000017,0.0019108611300082392,1.572517375000007,0.7863499405000016,0.03999997135,0.0399999818,-9.810835950000003,0.027333109174046404,0.006856073185050377,-0.00035777850850105127,-0.02039951179179023,0.017070183500053578
0.545,0.0017048391000068805,-0.7844812299999995,-0.0015378843200070677,-2.3565853200000015,0.0019394395200082659,1.572541750000007,0.7863554470000016,0.0399999709,0.0399999812,-9.810843300000002,0.02775882463914541,0.0070308067900505394,-0.00036142492900105463,-0.020484814420367065,0.01725601700005375
0.5475,0.0017286282000069017,-0.7844792649999994,-0.0015623204600070893,-2.356591710000002,0.0019680179100082912,1.5725661250000071,0.7863609535000016,0.039999970450000005,0.0399999806,-9.810850650000003,0.0281845401042444,0.007205540395050694,-0.0003650713495010579,-0.020570117048943893,0.017441850500053917
0.55,0.0017524173000074271,-0.7844772999999995,-0.0015867566000076299,-2.3565981000000016,0.001996596300008923,1.5725905000000076,0.7863664600000017,0.03999997,0.03999998,-9.810857999999985,0.028610255569351845,0.00738027400005268,-0.00036871777000111995,-0.02065541967752097,0.017627684000056005
0.5525,0.00177793557000745,-0.7844753859999994,-0.001612971170007653,-2.3566046100000015,0.00202725364500895,1.5726166000000077,0.7863723460000017,0.039999968500000004,0.03999997895,-9.810807449999984,0.029064965434505083,0.007561271575052842,-0.0003725658100011234,-0.02074155854063756,0.017820098900056175
0.555,0.0018034538400074737,-0.7844734719999995,-0.0016391857400076776,-2.3566111200000015,0.002057910990008979,1.5726427000000076,0.7863782320000017,0.039999967000000004,0.0399999779,-9.810756899999985,0.029519675299658342,0.00774226915005301,-0.00037641385000112697,-0.020827697403754147,0.018012513800056355
0.5575,0.0018289721100074963,-0.7844715579999995,-0.001665400310007701,-2.356617630000002,0.002088568335009006,1.5726688000000075,0.7863841180000017,0.0399999655,0.03999997685,-9.810706349999984,0.02997438516481158,0.00792326672505317,-0.0003802618900011304,-0.020913836266870735,0.018204928700056525
0.56,0.0018544903800075201,-0.7844696439999994,-0.0016916148800077255,-2.356624140000002,0.0021192256800090345,1.5726949000000077,0.7863900040000017,0.039999964,0.0399999758,-9.810655799999985,0.03042909502996484,0.00810426430005334,-0.000384109930001134,-0.020999975129987327,0.018397343600056702
0.5625,0.0018800086500075429,-0.7844677299999995,-0.0017178294500077487,-2.356630650000002,0.0021498830250090617,1.5727210000000076,0.7863958900000018,0.0399999625,0.03999997475,-9.810605249999984,0.030883804895118078,0.0082852618750535,-0.00038795797000113744,-0.02108611399310391,0.018589758500056876
0.5650000000000001,0.0019055269200075667,-0.7844658159999994,-0.0017440440200077731,-2.356637160000002,0.0021805403700090905,1.5727471000000077,0.7864017760000017,0.039999961,0.039999973700000004,-9.810554699999985,0.03133851476027134,0.00846625945005367,-0.000391806010001141,-0.021172252856220503,0.018782173400057053
0.5675,0.001931640945008121,-0.7844639029999995,-0.001770871350008343,-2.356643825000002,0.0022119140150097566,1.5727738400000082,0.7864078030000019,0.03999996,0.039999973,-9.810502849999983,0.03180449474617457,0.008654565775060352,-0.00039563165000112445,-0.021258663199867828,0.018976750800059155
0.5700000000000001,0.0019589464800081465,-0.7844619919999994,-0.0017989242000083694,-2.356650800000002,0.0022447202600097875,1.5728018600000082,0.7864141120000019,0.03999996,0.039999973,-9.810448399999983,0.03229301497354768,0.00885748960006054,-0.000399412490001128,-0.021345616504575903,0.019175653200059338
0.5725,0.0019862520150081705,-0.7844600809999994,-0.0018269770500083942,-2.356657775000002,0.0022775265050098167,1.5728298800000082,0.7864204210000019,0.03999996,0.039999973,-9.810393949999984,0.032781535200920774,0.00906041342506072,-0.00040319333000113133,-0.021432569809283975,0.019374555600059518
0.5750000000000001,0.002013557550008196,-0.7844581699999994,-0.0018550299000084204,-2.356664750000002,0.002310332750009847,1.5728579000000082,0.786426730000002,0.03999996,0.039999973,-9.810339499999984,0.033270055428293886,0.00926333725006091,-0.00040697417000113486,-0.02151952311399205,0.019573458000059704
0.5775,0.00204086308500822,-0.7844562589999995,-0.0018830827500084452,-2.356671725000002,0.0023431389950098764,1.5728859200000083,0.7864330390000019,0.03999996,0.039999973,-9.810285049999983,0.03375857565566697,0.009466261075061091,-0.0004107550100011382,-0.021606476418700123,0.01977236040005988
0.58,0.0020681686200082444,-0.7844543479999995,-0.0019111356000084702,-2.356678700000002,0.0023759452400099056,1.5729139400000085,0.7864393480000019,0.03999996,0.039999973,-9.810230599999983,0.03424709588304006,0.009669184900061271,-0.0004145358500011416,-0.021693429723408195,0.019971262800060056
0.5825,0.00209547415500827,-0.7844524369999994,-0.0019391884500084963,-2.3566856750000023,0.002408751485009936,1.5729419600000085,0.7864456570000019,0.03999996,0.039999973,-9.810176149999982,0.034735616110413176,0.00987210872506146,-0.0004183166900011451,-0.02178038302811627,0.020170165200060243
0.585,0.0021240093700091198,-0.7844505399999995,-0.00196850616000937,-2.3566930000000026,0.0024430360900109574,1.5729712200000092,0.7864522540000022,0.0399999606,0.039999973700000004,-9.8101571,0.03524600565449808,0.01008397100006768,-0.00042217669900122,-0.021868792362538976,0.02037324440006419
0.5875,0.0021531594250095445,-0.7844486499999994,-0.0019984563000098065,-2.3567005000000028,0.0024780598750114677,1.5730011000000097,0.7864589950000023,0.0399999615,0.03999997475,-9.81015575,0.035767329856924,0.010300302500070833,-0.00042607629250127684,-0.021957929711818012,0.02057841200006718
0.59,0.002182309480009968,-0.7844467599999994,-0.0020284064400102417,-2.3567080000000025,0.0025130836600119767,1.5730309800000102,0.7864657360000024,0.0399999624,0.0399999758,-9.810154399999998,0.0362886540593499,0.010516634000073976,-0.0004299758860013335,-0.02204706706109704,0.02078357960007016
0.5925,0.002211459535010393,-0.7844448699999993,-0.0020583565800106783,-2.3567155000000026,0.002548107445012487,1.5730608600000107,0.7864724770000024,0.0399999633,0.03999997685,-9.810153049999998,0.03680997826177581,0.01073296550007713,-0.0004338754795013903,-0.022136204410376076,0.020988747200073148
0.595,0.0022406095900108164,-0.7844429799999993,-0.0020883067200111135,-2.356723000000003,0.002583131230012996,1.573090740000011,0.7864792180000025,0.0399999642,0.0399999779,-9.810151699999999,0.03733130246420171,0.010949297000080273,-0.000437775073001447,-0.022225341759655105,0.021193914800076128
0.5975,0.002269759645011241,-0.7844410899999993,-0.00211825686001155,-2.356730500000003,0.0026181550150135065,1.5731206200000114,0.7864859590000026,0.0399999651,0.03999997895,-9.810150349999999,0.03785262666662763,0.011165628500083426,-0.0004416746665015038,-0.02231447910893414,0.02139908240007912
0.6,0.0022989097000124252,-0.7844391999999992,-0.0021482070000127676,-2.356738000000003,0.00265317880001493,1.5731505000000126,0.7864927000000029,0.039999966,0.03999998,-9.810148999999997,0.03837395086906781,0.011381960000090296,-0.00044557426000159877,-0.022403616458214187,0.02160425000008467
0.6025,0.002329960600012031,-0.7844373249999993,-0.002180112405012362,-2.356745635000003,0.0026904883900144556,1.5731823150000122,0.7864998805000029,0.0399999666,0.0399999806,-9.810145699999998,0.03893098142019627,0.011607603275087428,-0.000449569477001548,-0.022495293803548512,0.02181583985008198
0.605,0.0023610115000116346,-0.7844354499999993,-0.0022120178100119552,-2.356753270000003,0.00272779798001398,1.5732141300000118,0.7865070610000027,0.0399999672,0.0399999812,-9.810142399999998,0.03948801197132471,0.01183324655008455,-0.00045356469400149705,-0.02258697114888283,0.022027429700079284
0.6075,0.00239206240001124,-0.7844335749999993,-0.0022439232150115495,-2.356760905000003,0.0027651075700135057,1.5732459450000116,0.7865142415000026,0.0399999678,0.0399999818,-9.810139099999999,0.04004504252245318,0.012058889825081682,-0.0004575599110014463,-0.022678648494217156,0.022239019550076594
0.61,0.002423113300010844,-0.7844316999999994,-0.0022758286200111424,-2.3567685400000027,0.00280241716001303,1.5732777600000112,0.7865214220000025,0.0399999684,0.0399999824,-9.810135799999998,0.040602073073581615,0.012284533100078803,-0.0004615551280013953,-0.022770325839551478,0.022450609400073894
0.6125,0.0024541642000104496,-0.7844298249999994,-0.002307734025010737,-2.356776175000003,0.002839726750012556,1.5733095750000108,0.7865286025000024,0.039999969,0.039999983,-9.810132499999998,0.04115910362471008,0.012510176375075935,-0.0004655503450013445,-0.022862003184885803,0.022662199250071208
0.615,0.0024852151000100534,-0.7844279499999994,-0.00233963943001033,-2.3567838100000027,0.00287703634001208,1.5733413900000104,0.7865357830000024,0.039999969600000004,0.039999983600000004,-9.810129199999999,0.04171613417583852,0.012735819650073057,-0.00046954556200129357,-0.022953680530220122,0.022873789100068508
0.6175,0.0025169181250104173,-0.7844260749999994,-0.0023722156300107046,-2.3567915700000026,0.002915129980012518,1.5733738750000108,0.7865431165000024,0.03999997015,0.039999984200000005,-9.810109449999983,0.04228550475109486,0.012969319575078655,-0.0004735318745012525,-0.02304559173065357,0.023087444650068737
0.62,0.002549925400010447,-0.7844241999999995,-0.002406133420010735,-2.356799580000003,0.002954791720012553,1.5734077000000108,0.7865507560000025,0.039999970600000004,0.0399999848,-9.810056799999982,0.042879555374571894,0.013218532800078876,-0.00047750037800125606,-0.0231379706412846,0.02330523160006893
0.6225,0.0025829326750104777,-0.7844223249999994,-0.0024400512100107665,-2.3568075900000025,0.00299445346001259,1.5734415250000109,0.7865583955000024,0.03999997105,0.0399999854,-9.810004149999983,0.04347360599804896,0.013467746025079108,-0.00048146888150125977,-0.02323034955191563,0.023523018550069132
0.625,0.0026159399500105067,-0.7844204499999994,-0.002473969000010797,-2.3568156000000027,0.0030341152000126254,1.5734753500000107,0.7865660350000024,0.0399999715,0.039999986,-9.809951499999983,0.044067656621526,0.01371695925007933,-0.0004854373850012633,-0.023322728462546655,0.023740805500069326
0.6275000000000001,0.0026489472250105376,-0.7844185749999993,-0.0025078867900108284,-2.3568236100000024,0.003073776940012662,1.5735091750000108,0.7865736745000025,0.039999971950000004,0.0399999866,-9.809898849999982,0.04466170724500306,0.013966172475079563,-0.000489405888501267,-0.023415107373177688,0.02395859245006953
0.63,0.002681954500010567,-0.7844166999999994,-0.0025418045800108587,-2.3568316200000026,0.0031134386800126977,1.5735430000000108,0.7865813140000024,0.0399999724,0.0399999872,-9.809846199999983,0.0452557578684801,0.014215385700079785,-0.0004933743920012705,-0.023507486283808714,0.02417637940006972
0.6325000000000001,0.002714961775010598,-0.7844148249999994,-0.0025757223700108903,-2.3568396300000023,0.0031531004200127345,1.5735768250000108,0.7865889535000025,0.03999997285,0.0399999878,-9.809793549999982,0.04584980849195717,0.014464598925080016,-0.0004973428955012743,-0.023599865194439747,0.024394166350069926
0.635,0.002749309570011275,-0.7844129459999993,-0.0026110191000115863,-2.3568480700000025,0.0031943739000135484,1.5736120300000116,0.7865968850000026,0.039999972700000004,0.0399999876,-9.809764899999994,0.04646669030209741,0.014716578600081574,-0.0005013387540012909,-0.023693453706831256,0.02461600950007208
0.6375000000000001,0.002784327625011307,-0.7844110649999994,-0.0026470053000116197,-2.3568567250000028,0.0032364532500135873,1.5736479250000117,0.7866049625000026,0.03999997225,0.039999987,-9.809748249999995,0.047094987705552774,0.014969941500081812,-0.0005053482900012947,-0.02378764702010214,0.024839880750072287
0.64,0.0028193456800113385,-0.7844091839999994,-0.002682991500011652,-2.3568653800000026,0.003278532600013625,1.5736838200000116,0.7866130400000027,0.0399999718,0.0399999864,-9.809731599999994,0.04772328510900811,0.015223304400082037,-0.0005093578260012983,-0.023881840333373018,0.025063752000072485
0.6425,0.0028543637350113694,-0.7844073029999994,-0.0027189777000116836,-2.356874035000003,0.003320611950013662,1.5737197150000117,0.7866211175000026,0.03999997135,0.0399999858,-9.809714949999995,0.04835158251246345,0.01547666730008226,-0.0005133673620013018,-0.0239760336466439,0.025287623250072683
0.645,0.002889381790011402,-0.7844054219999994,-0.0027549639000117175,-2.3568826900000026,0.0033626913000137015,1.5737556100000119,0.7866291950000026,0.0399999709,0.039999985200000004,-9.809698299999996,0.04897987991591882,0.015730030200082498,-0.0005173768980013055,-0.02407022695991478,0.025511494500072892
0.6475,0.0029243998450114335,-0.7844035409999994,-0.0027909501000117493,-2.356891345000003,0.0034047706500137387,1.5737915050000117,0.7866372725000027,0.039999970450000005,0.0399999846,-9.809681649999995,0.049608177319374155,0.015983393100082722,-0.0005213864340013092,-0.02416442027318566,0.025735365750073094
0.65,0.002959417900012142,-0.7844016599999993,-0.0028269363000124783,-2.3569000000000027,0.0034468500000145908,1.5738274000000125,0.7866453500000028,0.03999997,0.039999984,-9.809665000000003,0.050236474722842525,0.01623675600009226,-0.0005253959700012739,-0.0242586135864574,0.025959237000075217
0.6525,0.002996500060012175,-0.7843997819999994,-0.002865046050012512,-2.356908790000003,0.00349141134001463,1.5738654400000125,0.7866539225000029,0.039999970450000005,0.0399999849,-9.809670250000002,0.05090448893628592,0.016518531000092512,-0.0005292864945012774,-0.024355415068598507,0.02618896455007542
0.655,0.0030335822200122094,-0.7843979039999994,-0.0029031558000125477,-2.356917580000003,0.003535972680014672,1.5739034800000127,0.7866624950000028,0.0399999709,0.0399999858,-9.809675500000003,0.05157250314972935,0.016800306000092774,-0.0005331770190012809,-0.024452216550739623,0.026418692100075636
0.6575,0.0030706643800122425,-0.7843960259999994,-0.0029412655500125813,-2.3569263700000027,0.0035805340200147115,1.5739415200000126,0.7866710675000028,0.03999997135,0.039999986700000004,-9.809680750000002,0.05224051736317275,0.017082081000093025,-0.0005370675435012845,-0.02454901803288073,0.02664841965007584
0.66,0.003107746540012277,-0.7843941479999994,-0.002979375300012617,-2.356935160000003,0.003625095360014753,1.5739795600000126,0.7866796400000028,0.0399999718,0.0399999876,-9.809686000000001,0.05290853157661618,0.017363856000093287,-0.0005409580680012881,-0.024645819515021847,0.026878147200076054
0.6625,0.00314482870001231,-0.7843922699999994,-0.0030174850500126506,-2.356943950000003,0.0036696567000147925,1.5740176000000128,0.7866882125000029,0.03999997225,0.0399999885,-9.809691250000002,0.053576545790059577,0.017645631000093538,-0.0005448485925012915,-0.02474262099716296,0.02710787475007626
0.665,0.0031819108600123444,-0.7843903919999994,-0.0030555948000126863,-2.3569527400000028,0.0037142180400148344,1.5740556400000127,0.7866967850000028,0.039999972700000004,0.0399999894,-9.809696500000001,0.05424456000350301,0.0179274060000938,-0.0005487391170012952,-0.024839422479304072,0.027337602300076473
0.6675,0.0032196985600130837,-0.7843885079999994,-0.003094430385013447,-2.3569617200000033,0.003759627720015723,1.5740943950000135,0.786705522500003,0.03999997285,0.0399999899,-9.809681099999981,0.05492506865435544,0.018209478650094348,-0.0005526471135013161,-0.024936312250825342,0.027569327150078676
0.67,0.0032588973400131203,-0.7843866119999994,-0.0031347176400134845,-2.356971080000003,0.003806734080015767,1.5741345800000135,0.786714590000003,0.0399999724,0.0399999896,-9.809624399999981,0.055630566179988475,0.01849214660009461,-0.0005565900540013197,-0.02503337860110667,0.027805046600078896
0.6725,0.003298096120013155,-0.7843847159999994,-0.0031750048950135203,-2.356980440000003,0.0038538404400158092,1.5741747650000135,0.7867236575000031,0.039999971950000004,0.0399999893,-9.809567699999981,0.056336063705621484,0.018774814550094863,-0.0005605329945013233,-0.02513044495138799,0.028040766050079106
0.675,0.0033372949000131918,-0.7843828199999994,-0.003215292150013558,-2.356989800000003,0.003900946800015853,1.5742149500000135,0.786732725000003,0.0399999715,0.039999989,-9.809510999999981,0.05704156123125452,0.019057482500095126,-0.000564475935001327,-0.025227511301669316,0.028276485500079326
0.6775,0.0033764936800132267,-0.7843809239999994,-0.0032555794050135936,-2.356999160000003,0.003948053160015895,1.5742551350000136,0.786741792500003,0.03999997105,0.0399999887,-9.809454299999981,0.05774705875688753,0.019340150450095378,-0.0005684188755013304,-0.025324577651950637,0.028512204950079535
0.68,0.003415692460013263,-0.7843790279999994,-0.003295866660013631,-2.357008520000003,0.003995159520015939,1.5742953200000136,0.786750860000003,0.039999970600000004,0.0399999884,-9.809397599999981,0.058452556282520565,0.01962281840009564,-0.0005723618160013341,-0.02542164400223196,0.028747924400079755
0.6825,0.0034548912400132977,-0.7843771319999994,-0.003336153915013667,-2.357017880000003,0.004042265880015981,1.5743355050000136,0.786759927500003,0.03999997015,0.0399999881,-9.809340899999981,0.059158053808153574,0.019905486350095893,-0.0005763047565013376,-0.025518710352513282,0.028983643850079968
0.685,0.003495535310014072,-0.7843752299999994,-0.0033779281900144635,-2.3570276000000034,0.004091110650016912,1.5743771800000144,0.7867693250000032,0.03999997,0.0399999892,-9.8093221,0.059890566021457745,0.020208253500106414,-0.0005802430770013389,-0.025617351941798122,0.029222942100082014
0.6875,0.0035369020250141086,-0.7843733249999993,-0.0034204459750145013,-2.3570375000000032,0.004140824625016956,1.5744196000000144,0.7867788875000032,0.03999997,0.039999991,-9.80932225,0.06063658557857681,0.02052107025010669,-0.0005841790875013424,-0.025716781150583512,0.029464029750082225
0.6900000000000001,0.003578268740014147,-0.7843714199999994,-0.0034629637600145408,-2.3570474000000035,0.004190538600017002,1.5744620200000146,0.7867884500000032,0.03999997,0.0399999928,-9.8093224,0.06138260513569591,0.020833887000106983,-0.000588115098001346,-0.025816210359368902,0.02970511740008245
0.6925,0.003619635455014184,-0.7843695149999994,-0.0035054815450145786,-2.3570573000000032,0.004240252575017046,1.5745044400000145,0.7867980125000033,0.03999997,0.0399999946,-9.80932255,0.062128624692814986,0.02114670375010726,-0.0005920511085013495,-0.02591563956815429,0.029946205050082664
0.6950000000000001,0.0036610021700142223,-0.7843676099999994,-0.0035479993300146185,-2.3570672000000035,0.004289966550017093,1.5745468600000145,0.7868075750000033,0.03999997,0.0399999964,-9.8093227,0.06287464424993408,0.021459520500107552,-0.0005959871190013532,-0.026015068776939685,0.03018729270008289
0.6975,0.003702368885014259,-0.7843657049999994,-0.0035905171150146563,-2.3570771000000033,0.004339680525017137,1.5745892800000147,0.7868171375000033,0.03999997,0.039999998200000005,-9.80932285,0.06362066380705315,0.02177233725010783,-0.0005999231295013567,-0.02611449798572507,0.030428380350083103
0.7000000000000001,0.0037437356000150643,-0.7843637999999994,-0.0036330349000154847,-2.3570870000000035,0.004389394500018105,1.5746317000000156,0.7868267000000034,0.03999997,0.04,-9.809322999999996,0.06436668336418773,0.022085154000109502,-0.0006038591400013275,-0.02621392719451117,0.030669468000085544
0.7025,0.003787320560015103,-0.7843618799999994,-0.003677834965015524,-2.3570970500000032,0.004441775175018151,1.5746764000000155,0.7868367800000035,0.0399999694,0.039999997600000003,-9.809313399999995,0.06515745222595906,0.022401966300109783,-0.0006076998840013309,-0.02631539013240274,0.030916976850085764
0.705,0.003830905520015142,-0.7843599599999994,-0.003722635030015564,-2.3571071000000035,0.004494155850018198,1.5747211000000156,0.7868468600000035,0.0399999688,0.0399999952,-9.809303799999997,0.0659482210877304,0.022718778600110064,-0.0006115406280013342,-0.02641685307029431,0.031164485700085988
0.7075,0.0038744904800151825,-0.7843580399999994,-0.0037674350950156056,-2.3571171500000037,0.004546536525018246,1.5747658000000155,0.7868569400000035,0.0399999682,0.0399999928,-9.809294199999997,0.06673898994950175,0.02303559090011036,-0.0006153813720013379,-0.026518316008185886,0.03141199455008622
0.71,0.003918075440015221,-0.7843561199999993,-0.0038122351600156455,-2.3571272000000034,0.004598917200018293,1.5748105000000157,0.7868670200000035,0.0399999676,0.0399999904,-9.809284599999996,0.06752975881127309,0.02335240320011064,-0.0006192221160013412,-0.026619778946077456,0.031659503400086435
0.7125,0.003961660400015262,-0.7843541999999993,-0.003857035225015687,-2.3571372500000036,0.004651297875018341,1.5748552000000156,0.7868771000000035,0.039999967,0.039999988,-9.809274999999998,0.06832052767304446,0.023669215500110936,-0.0006230628600013448,-0.02672124188396903,0.03190701225008667
0.715,0.004005245360015301,-0.7843522799999993,-0.003901835290015727,-2.3571473000000034,0.004703678550018388,1.5748999000000157,0.7868871800000036,0.039999966399999996,0.0399999856,-9.809265399999997,0.06911129653481579,0.023986027800111217,-0.0006269036040013482,-0.0268227048218606,0.03215452110008689
0.7175,0.00404958627001614,-0.7843503499999993,-0.00394741307001659,-2.3571576400000036,0.004756968200019396,1.5749453900000165,0.7868974350000038,0.0399999662,0.0399999843,-9.809237399999978,0.06991422772436642,0.02431289535012213,-0.000630712300001318,-0.026924166642165084,0.03240369435008888
0.72,0.0040954390800161805,-0.7843483999999993,-0.003994546280016631,-2.357168560000004,0.0048120758000194455,1.5749924600000167,0.7869080400000038,0.0399999668,0.039999985200000004,-9.809172599999979,0.07074148356943705,0.02465987340012244,-0.0006344569000013213,-0.027025626227295384,0.0326561964000891
0.7225,0.004141291890016223,-0.7843464499999994,-0.004041679490016676,-2.3571794800000037,0.004867183400019497,1.5750395300000166,0.7869186450000037,0.0399999674,0.0399999861,-9.809107799999978,0.0715687394145077,0.025006851450122762,-0.0006382015000013249,-0.027127085812425688,0.03290869845008934
0.725,0.004187144700016264,-0.7843444999999993,-0.004088812700016717,-2.357190400000004,0.004922291000019546,1.5750866000000168,0.7869292500000038,0.039999968000000004,0.039999987,-9.809042999999978,0.07239599525957832,0.025353829500123073,-0.0006419461000013282,-0.027228545397555988,0.03316120050008956
0.7275,0.004232997510016307,-0.7843425499999993,-0.004135945910016762,-2.3572013200000037,0.0049773986000195974,1.5751336700000167,0.7869398550000037,0.0399999686,0.0399999879,-9.808978199999977,0.07322325110464899,0.025700807550123397,-0.0006456907000013317,-0.02733000498268629,0.0334137025500898
0.73,0.0042788503200163475,-0.7843405999999993,-0.004183079120016803,-2.357212240000004,0.005032506200019647,1.5751807400000168,0.7869504600000038,0.0399999692,0.0399999888,-9.808913399999978,0.07405050694971961,0.026047785600123705,-0.000649435300001335,-0.02743146456781659,0.033666204600090024
0.7325,0.00432470313001639,-0.7843386499999992,-0.004230212330016848,-2.3572231600000038,0.005087613800019698,1.5752278100000168,0.7869610650000038,0.0399999698,0.0399999897,-9.808848599999978,0.07487776279479028,0.02639476365012403,-0.0006531799000013385,-0.0275329241529469,0.03391870665009026
0.735,0.004372099560017261,-0.7843366699999993,-0.004278934130017743,-2.357234240000004,0.005144577940020744,1.5752764300000177,0.786972020000004,0.039999969600000004,0.039999989799999996,-9.808853900000015,0.07573479414017444,0.026744916100126043,-0.0006568828700013195,-0.02763673420999228,0.03417490860009247
0.7375,0.004420267800017305,-0.7843346749999993,-0.004328450225017789,-2.357245400000004,0.005202470350020799,1.5753258250000177,0.7869831500000041,0.039999969,0.0399999895,-9.808894250000016,0.07660671323569146,0.02709665575012637,-0.0006605650250013228,-0.02774171950299332,0.03443296050009271
0.74,0.004468436040017348,-0.7843326799999992,-0.004377966320017833,-2.357256560000004,0.00526036276002085,1.5753752200000177,0.786994280000004,0.0399999684,0.0399999892,-9.808934600000015,0.07747863233120843,0.027448395400126682,-0.0006642471800013262,-0.02784670479599435,0.03469101240009294
0.7425,0.004516604280017393,-0.7843306849999993,-0.004427482415017879,-2.3572677200000043,0.0053182551700209045,1.5754246150000177,0.787005410000004,0.0399999678,0.0399999889,-9.808974950000016,0.07835055142672545,0.02780013505012701,-0.0006679293350013296,-0.02795169008899539,0.03494906430009318
0.745,0.004564772520017436,-0.7843286899999993,-0.004476998510017923,-2.357278880000004,0.005376147580020955,1.575474010000018,0.7870165400000041,0.0399999672,0.0399999886,-9.809015300000015,0.07922247052224242,0.02815187470012732,-0.0006716114900013328,-0.02805667538199642,0.03520711620009341
0.7475,0.004612940760017481,-0.7843266949999993,-0.0045265146050179695,-2.357290040000004,0.0054340399900210095,1.575523405000018,0.7870276700000041,0.0399999666,0.0399999883,-9.809055650000015,0.08009438961775943,0.02850361435012765,-0.0006752936450013363,-0.02816166067499746,0.03546516810009365
0.75,0.004661109000018383,-0.7843246999999992,-0.004576030700018898,-2.3573012000000046,0.005491932400022095,1.5755728000000189,0.7870388000000043,0.039999966,0.039999988,-9.809095999999979,0.08096630871329305,0.028855354000137435,-0.0006789758000012683,-0.028266645967998598,0.0357232200000958
0.7525000000000001,0.0047116396950177405,-0.7843226749999993,-0.004627978145018238,-2.3573130800000044,0.005552666200021323,1.5756246100000182,0.7870504850000042,0.0399999651,0.0399999874,-9.80903674999998,0.08188395388456605,0.029233132900132634,-0.000682461965001224,-0.02837192183364148,0.035986557000092456
0.755,0.004762170390017096,-0.7843206499999993,-0.004679925590017575,-2.357324960000004,0.005613400000020548,1.5756764200000175,0.787062170000004,0.0399999642,0.0399999868,-9.80897749999998,0.08280159905583903,0.029610911800127815,-0.0006859481300011794,-0.02847719769928436,0.03624989400008909
0.7575000000000001,0.004812701085016454,-0.7843186249999994,-0.004731873035016915,-2.357336840000004,0.005674133800019777,1.5757282300000168,0.7870738550000038,0.0399999633,0.039999986200000004,-9.80891824999998,0.08371924422711205,0.029988690700123014,-0.0006894342950011351,-0.02858247356492724,0.03651323100008575
0.76,0.00486323178001581,-0.7843165999999994,-0.004783820480016253,-2.3573487200000036,0.005734867600019002,1.5757800400000161,0.7870855400000036,0.0399999624,0.0399999856,-9.80885899999998,0.08463688939838503,0.030366469600118195,-0.0006929204600010907,-0.028687749430570116,0.03677656800008239
0.7625000000000001,0.004913762475015167,-0.7843145749999993,-0.004835767925015592,-2.3573606000000034,0.00579560140001823,1.5758318500000157,0.7870972250000036,0.0399999615,0.039999985,-9.80879974999998,0.08555453456965804,0.030744248500113393,-0.0006964066250010464,-0.028793025296213,0.037039905000079046
0.765,0.004964293170014522,-0.7843125499999994,-0.004887715370014929,-2.357372480000003,0.0058563352000174556,1.575883660000015,0.7871089100000034,0.0399999606,0.0399999844,-9.808740499999983,0.08647217974093102,0.031122027400108575,-0.0006998927900010019,-0.028898301161855877,0.03730324200007568
0.7675000000000001,0.005015626835015024,-0.7843104999999994,-0.004940488985015445,-2.3573844900000034,0.005918034410018058,1.5759363000000155,0.7871207830000034,0.0399999603,0.039999984800000006,-9.808703050000002,0.08740261420634692,0.03150253015010953,-0.0007033443170009598,-0.029004417266727246,0.037568130500076055
0.77,0.005068566440015793,-0.7843083999999994,-0.004994914940016236,-2.3573967600000034,0.0059816644400189824,1.5759906000000163,0.7871330320000036,0.0399999612,0.0399999872,-9.808709200000001,0.08835862726001645,0.031888480600115135,-0.0007067265680010089,-0.029112213850053477,0.03783612200007995
0.7725,0.005121506045016562,-0.7843062999999993,-0.005049340895017027,-2.357409030000004,0.006045294470019907,1.576044900000017,0.7871452810000038,0.0399999621,0.0399999896,-9.808715350000002,0.08931464031368597,0.03227443105012075,-0.0007101088190010581,-0.029220010433379708,0.038104113500083844
0.775,0.005174445650017334,-0.7843041999999993,-0.00510376685001782,-2.357421300000004,0.006108924500020835,1.5760992000000178,0.787157530000004,0.039999963,0.039999992000000005,-9.808721500000003,0.09027065336735553,0.032660381500126366,-0.0007134910700011074,-0.029327807016705947,0.038372105000087746
0.7775,0.005227385255018103,-0.7843020999999993,-0.0051581928050186115,-2.357433570000004,0.0061725545300217585,1.5761535000000186,0.7871697790000042,0.0399999639,0.0399999944,-9.808727650000002,0.09122666642102505,0.03304633195013198,-0.0007168733210011566,-0.029435603600032178,0.03864009650009164
0.78,0.005280324860018874,-0.7842999999999992,-0.005212618760019405,-2.3574458400000045,0.006236184560022686,1.5762078000000195,0.7871820280000044,0.039999964799999996,0.0399999968,-9.808733800000002,0.0921826794746946,0.033432282400137604,-0.0007202555720012059,-0.029543400183358413,0.03890808800009555
0.7825,0.005333264465019643,-0.7842978999999992,-0.005267044715020195,-2.3574581100000045,0.006299814590023611,1.57626210000002,0.7871942770000045,0.0399999657,0.039999999200000004,-9.808739950000003,0.09313869252836413,0.03381823285014321,-0.000723637823001255,-0.029651196766684644,0.039176079500099444
0.785,0.005387839800020858,-0.7842957599999992,-0.005323154030021445,-2.357470540000005,0.0063654121400250705,1.5763180400000214,0.7872068940000048,0.039999964799999996,0.04,-9.808719299999987,0.09413056895174854,0.03422189810015533,-0.000726953526001236,-0.029759643226902836,0.03944761050010291
0.7875,0.005443233000020907,-0.7842935999999991,-0.005380105025021495,-2.357483050000005,0.00643199345002513,1.5763748000000215,0.7872196950000049,0.039999963,0.04,-9.808685249999987,0.09514037705996001,0.0346344207501557,-0.0007302359550012389,-0.029868414625566452,0.03972091125010315
0.79,0.0054986262000209585,-0.7842914399999992,-0.005437056020021548,-2.3574955600000047,0.006498574760025192,1.5764315600000216,0.7872324960000049,0.039999961199999996,0.04,-9.808651199999987,0.09615018516817152,0.035046943400156086,-0.0007335183840012419,-0.029977186024230076,0.03999421200010341
0.7925,0.005554019400021008,-0.7842892799999992,-0.005494007015021599,-2.3575080700000046,0.006565156070025251,1.5764883200000215,0.7872452970000049,0.0399999594,0.04,-9.808617149999987,0.09715999327638297,0.03545946605015645,-0.0007368008130012448,-0.030085957422893692,0.04026751275010365
0.795,0.005609412600021059,-0.7842871199999991,-0.005550958010021652,-2.3575205800000045,0.006631737380025313,1.5765450800000216,0.7872580980000049,0.0399999576,0.04,-9.808583099999987,0.09816980138459448,0.035871988700156836,-0.0007400832420012479,-0.030194728821557312,0.040540813500103905
0.7975,0.005664805800021109,-0.7842849599999991,-0.005607909005021702,-2.357533090000005,0.006698318690025372,1.5766018400000217,0.7872708990000049,0.039999955799999994,0.04,-9.808549049999987,0.09917960949280595,0.0362845113501572,-0.0007433656710012508,-0.03030350022022093,0.04081411425010415
0.8,0.005720199000022114,-0.7842827999999991,-0.005664860000022737,-2.3575456000000052,0.006764900000026581,1.5766586000000227,0.7872837000000051,0.039999954,0.04,-9.808514999999979,0.10018941760103338,0.03669703400016035,-0.0007466481000011424,-0.030412271618884747,0.041087415000106375
0.8025,0.0057780892500221654,-0.7842806009999991,-0.00572438075002279,-2.357559010000005,0.0068344840400266435,1.5767179850000228,0.7872970875000052,0.039999954,0.03999999925,-9.80846069999998,0.10124091506044593,0.037116768950160715,-0.000749638620001145,-0.030521554872435373,0.041365880250106624
0.805,0.00583597950002222,-0.7842784019999991,-0.005783901500022845,-2.357572420000005,0.0069040680800267085,1.5767773700000227,0.7873104750000052,0.039999954,0.0399999985,-9.80840639999998,0.10229241251985852,0.03753650390016111,-0.0007526291400011478,-0.030630838125986003,0.041644345500106886
0.8075,0.005893869750022271,-0.7842762029999991,-0.005843422250022898,-2.357585830000005,0.00697365212002677,1.5768367550000228,0.7873238625000052,0.039999954,0.03999999775,-9.80835209999998,0.10334390997927106,0.03795623885016148,-0.0007556196600011505,-0.03074012137953663,0.04192281075010713
0.81,0.005951760000022325,-0.7842740039999991,-0.005902943000022954,-2.357599240000005,0.007043236160026835,1.576896140000023,0.7873372500000052,0.039999954,0.039999997,-9.808297799999979,0.10439540743868367,0.03837597380016187,-0.0007586101800011533,-0.030849404633087264,0.04220127600010739
0.8125,0.006009650250022376,-0.7842718049999992,-0.005962463750023007,-2.3576126500000054,0.007112820200026897,1.576955525000023,0.7873506375000051,0.039999954,0.03999999625,-9.80824349999998,0.10544690489809622,0.03879570875016224,-0.000761600700001156,-0.03095868788663789,0.04247974125010764
0.8150000000000001,0.00606754050002243,-0.7842696059999992,-0.006021984500023062,-2.357626060000005,0.007182404240026962,1.577014910000023,0.7873640250000051,0.039999954,0.0399999955,-9.80818919999998,0.1064984023575088,0.03921544370016263,-0.0007645912200011588,-0.031067971140188524,0.04275820650010789
0.8175,0.006126277500023468,-0.7842673859999991,-0.00608237655002413,-2.3576395450000054,0.00725300667002821,1.577075165000024,0.7873776110000054,0.0399999543,0.039999994750000004,-9.80815995000001,0.10756716504735873,0.03964371330017295,-0.0007675106400010786,-0.031178136915011884,0.04303844950011022
0.8200000000000001,0.0061867080000235245,-0.7842651239999991,-0.006144511200024188,-2.3576531800000056,0.007325645880028277,1.5771371600000241,0.7873915940000054,0.0399999552,0.039999994000000004,-9.80818080000001,0.10867045819802314,0.040089052200173364,-0.0007702878600010811,-0.031290067732377636,0.04332224800011048
0.8225,0.006247138500023578,-0.7842628619999991,-0.006206645850024244,-2.3576668150000053,0.0073982850900283425,1.5771991550000242,0.7874055770000055,0.0399999561,0.039999993250000004,-9.808201650000008,0.1097737513486875,0.04053439110017376,-0.0007730650800010836,-0.031401998549743376,0.04360604650011073
0.8250000000000001,0.006307569000023635,-0.7842605999999991,-0.006268780500024301,-2.3576804500000055,0.0074709243000284095,1.5772611500000242,0.7874195600000055,0.039999957,0.0399999925,-9.808222500000008,0.1108770444993519,0.04097973000017417,-0.0007758423000010862,-0.031513929367109124,0.043889845000111
0.8275,0.006367999500023688,-0.7842583379999991,-0.006330915150024357,-2.3576940850000057,0.007543563510028474,1.5773231450000242,0.7874335430000055,0.0399999579,0.03999999175,-9.808243350000009,0.11198033765001626,0.04142506890017457,-0.0007786195200010887,-0.03162586018447487,0.04417364350011125
0.8300000000000001,0.006428430000023745,-0.784256075999999,-0.006393049800024414,-2.3577077200000054,0.007616202720028542,1.5773851400000243,0.7874475260000054,0.0399999588,0.039999991,-9.808264200000009,0.11308363080068068,0.04187040780017499,-0.0007813967400010912,-0.03173779100184062,0.044457442000111515
