rsonawane2002/My_IMU/logs_2/traj_349/imu_349.csv
time,j1,j2,j3,j4,j5,j6,j7,gripper1,gripper2,imu_ax,imu_ay,imu_az,imu_gx,imu_gy,imu_gz
1083.9333333326763,0.00016700293,-0.785875,4.0107683e-05,-2.3551247,9.29385e-05,1.570997,0.786,0.04,0.04,-9.491658,-0.020870475098490715,0.084970154,1.515472e-07,-0.001164127141237259,1.0638864e-06
1083.949999999343,0.0001670146,-0.78576016,4.0105722e-05,-2.3552213,9.2984475e-05,1.5709941,0.786,0.04,0.04,-9.834501,0.0006465141195803881,0.009059711,-2.2517295e-07,-0.002238713437691331,1.9599318e-06
1083.9666666660096,0.00016708722,-0.78565425,4.004196e-05,-2.35531,9.3099516e-05,1.5709913,0.786,0.04,0.04,-9.832359,0.0006388808251358569,0.0076322607,-3.6899766e-07,-0.0032303943298757076,9.059204e-06
1083.9833333326762,0.0001673199,-0.7855569,3.9815728e-05,-2.355391,9.340047e-05,1.5709884,0.786,0.04,0.04,-9.830727,0.0006425094907172024,0.0062593143,-6.595579e-07,-0.004148952662944794,2.6189631e-05
1083.999999999343,0.00016785404,-0.78546727,3.9282895e-05,-2.3554652,9.406118e-05,1.5709856,0.786,0.04,0.04,-9.828867,0.0006685024127364159,0.0051483237,-1.2087057e-06,-0.005000479053705931,6.0625705e-05
1084.0166666660095,0.00016886918,-0.7853847,3.8259997e-05,-2.3555322,9.529292e-05,1.570986,0.786,0.04,0.04,-9.827278,0.0006920145824551582,0.004102249,-1.5176124e-06,-0.00579294515773654,0.00011404359
1084.0333333326762,0.00017057876,-0.78530866,3.6528298e-05,-2.355597,9.736256e-05,1.5709869,0.786,0.04,0.039999995,-9.825723,0.0007329125655815005,0.0030504684,-2.1181452e-06,-0.006514142733067274,0.00019185606
1084.0499999993428,0.00017322708,-0.78523856,3.3837772e-05,-2.3556552,0.00010054296,1.5709878,0.786,0.04,0.04,-9.8248,0.0007729274802841246,0.0022688047,-2.4003957e-06,-0.007209481671452522,0.00029517288
1084.0666666660095,0.00017708537,-0.7851741,2.9909894e-05,-2.3557086,0.00010516985,1.5709888,0.7860019,0.04,0.04,-9.823449,0.0008509950712323189,0.0015026331,-2.2489012e-06,-0.007859135046601295,0.0004293961
1084.0833333326761,0.00018244916,-0.7851148,2.4441204e-05,-2.3557591,0.00011159927,1.5709934,0.7860038,0.04,0.04,-9.822249,0.0009492856333963573,0.00089921616,-1.0278506e-05,-0.008479527197778225,0.00059644546
1084.0999999993428,0.00018963564,-0.78506017,1.7106264e-05,-2.3558056,0.00012020787,1.5709982,0.78600574,0.04,0.04,-9.821351,0.00107185251545161,0.00026414404,-1.7505345e-05,-0.009063406847417355,0.0007980814
1084.1166666660095,0.00019898085,-0.78500986,7.559618e-06,-2.3558486,0.00013140401,1.5710068,0.78600764,0.039999995,0.04,-9.8203335,0.001240957761183381,-0.00018392736,-2.3695397e-05,-0.009628841653466225,0.0010375174
1084.133333332676,0.00021083732,-0.78496355,-4.561124e-06,-2.3558905,0.00014561132,1.571019,0.78600955,0.03999999,0.039999995,-9.819396,0.001449452480301261,-0.0006479762,-2.82851e-05,-0.010162308812141418,0.0013162093
1084.1499999993428,0.00022557208,-0.78492075,-1.963324e-05,-2.355928,0.00016327146,1.5710334,0.78601336,0.039999988,0.03999999,-9.818753,0.0017021457897499204,-0.0009876976,-3.123583e-05,-0.010682426393032074,0.0016357597
1084.1666666660094,0.00024356492,-0.78488123,-3.8047063e-05,-2.3559632,0.00018484044,1.5710498,0.7860172,0.039999984,0.039999988,-9.817825,0.00201228610239923,-0.001247952,-4.070867e-05,-0.011182958260178566,0.001997511
1084.183333332676,0.00026520595,-0.7848448,-6.0203973e-05,-2.355998,0.00021078788,1.5710708,0.7860229,0.03999998,0.039999984,-9.817082,0.0023852260783314705,-0.0014066844,-4.755548e-05,-0.011675985530018806,0.0024026423
1084.1999999993427,0.00029089442,-0.7848111,-8.651469e-05,-2.3560324,0.00024159404,1.5710967,0.7860286,0.039999977,0.03999998,-9.816648,0.002831443678587675,-0.0015445976,-6.0421724e-05,-0.012163438834249973,0.0028521966
1084.2166666660094,0.00032103714,-0.78477985,-0.000117397816,-2.3560646,0.00027774816,1.5711275,0.7860362,0.03999997,0.039999973,-9.816115,0.003356094239279628,-0.0016299122,-6.983518e-05,-0.012645358219742775,0.0033469757
1084.233333332676,0.00035604706,-0.7847509,-0.00015327816,-2.3560948,0.00031974705,1.5711628,0.7860438,0.039999966,0.03999997,-9.815473,0.003960194066166878,-0.0016301518,-8.410381e-05,-0.013116640970110893,0.0038876908
1084.2499999993427,0.00039634187,-0.78472406,-0.00019458556,-2.3561242,0.00036809273,1.5712037,0.78605336,0.039999958,0.039999966,-9.814796,0.0046517024748027325,-0.0015286779,-9.454633e-05,-0.013583450578153133,0.004474005
1084.2666666660093,0.0004423431,-0.78469914,-0.00024175379,-2.3561532,0.00042329362,1.5712504,0.786064,0.039999947,0.03999995,-9.81431,0.005463410634547472,-0.0013751775,-0.00010916282,-0.01404810044914484,0.005108939
1084.283333332676,0.0004944747,-0.78467584,-0.00029521927,-2.356182,0.0004858585,1.5713036,0.78607565,0.039999943,0.039999947,-9.813913,0.006369603797793388,-0.0011341061,-0.00012387321,-0.014514656737446785,0.0057902006
1084.2999999993426,0.00055316224,-0.784654,-0.00035542014,-2.3562112,0.00055629964,1.5713634,0.786089,0.039999943,0.03999995,-9.813465,0.00738692469894886,-0.00084478664,-0.00013732493,-0.014982831664383411,0.006517966
1084.3166666660093,0.0006188323,-0.7846335,-0.0004227955,-2.3562405,0.000635131,1.5714307,0.78610426,0.039999947,0.03999995,-9.813155,0.008548774756491184,-0.00047324167,-0.00015308126,-0.015456527471542358,0.0072949175
1084.333333332676,0.0006919108,-0.78461426,-0.00049778406,-2.3562703,0.00072286377,1.5715055,0.78612137,0.03999995,0.039999958,-9.812812,0.009811274707317352,-4.909956e-05,-0.00017112316,-0.01593591831624508,0.008117614
1084.3499999993426,0.0007728234,-0.7845961,-0.00058082363,-2.3563018,0.0008200116,1.5715884,0.78614014,0.039999958,0.039999966,-9.81247,0.011248694732785225,0.00048099726,-0.00019060196,-0.016419844701886177,0.008988544
1084.3666666660092,0.0008619938,-0.78457886,-0.00067235116,-2.356335,0.0009270837,1.5716796,0.78616077,0.039999954,0.03999996,-9.812305,0.012808962725102901,0.0010502102,-0.00021037717,-0.016916362568736076,0.009906665
1084.3833333326759,0.0009598435,-0.78456247,-0.00077280053,-2.3563693,0.0010445875,1.5717791,0.78618336,0.039999958,0.039999966,-9.812148,0.014540446922183037,0.0017303561,-0.00023092388,-0.01742507703602314,0.0108717745
1084.3999999993425,0.0010667918,-0.784547,-0.000882603,-2.356404,0.0011730265,1.5718887,0.786208,0.03999996,0.039999973,-9.81192,0.016419287770986557,0.0024460605,-0.00025191513,-0.017946451902389526,0.011882694
1084.4166666660092,0.0011832544,-0.78453207,-0.0010021873,-2.3564394,0.001312902,1.5720079,0.786235,0.039999966,0.039999973,-9.811556,0.018497135490179062,0.0032631767,-0.00027351239,-0.018469417467713356,0.012941659
1084.4333333326758,0.0013096427,-0.7845176,-0.0011319772,-2.356475,0.0014647086,1.5721371,0.78626424,0.03999997,0.039999977,-9.811237,0.020725194364786148,0.0041372986,-0.00029668873,-0.01899956911802292,0.014045701
1084.4499999993425,0.0014463646,-0.7845039,-0.0012723927,-2.3565135,0.0016289378,1.572277,0.7862958,0.03999997,0.039999977,-9.810894,0.023160601034760475,0.005133855,-0.00032055465,-0.01953606866300106,0.015195185
1084.4666666660091,0.0015938233,-0.7844904,-0.001423849,-2.3565555,0.0018060737,1.572428,0.78632975,0.039999973,0.039999984,-9.810809,0.025772152468562126,0.0062153833,-0.0003444083,-0.020086735486984253,0.016388794
1084.4833333326758,0.0017524173,-0.7844773,-0.0015867566,-2.3565981,0.0019965963,1.5725905,0.78636646,0.03999997,0.03999998,-9.810858,0.02861025556921959,0.007380274,-0.00036871777,-0.020655419677495956,0.017627684
1084.4999999993424,0.0019225391,-0.78446454,-0.0017615204,-2.3566415,0.0022009786,1.5727645,0.7864057,0.03999996,0.039999973,-9.810521,0.031641654670238495,0.0085869245,-0.00039437137,-0.021229678764939308,0.01891045
1084.516666666009,0.002104576,-0.7844518,-0.0019485394,-2.356688,0.0024196869,1.5729513,0.78644776,0.03999996,0.039999973,-9.810158,0.03489845618605614,0.00993975,-0.00041957697,-0.021809367462992668,0.020236466
1084.5333333326757,0.0022989097,-0.7844392,-0.002148207,-2.356738,0.0026531788,1.5731505,0.7864927,0.039999966,0.03999998,-9.810149,0.038373950868844986,0.01138196,-0.00044557426,-0.022403616458177567,0.02160425
1084.5499999993424,0.0025059157,-0.7844267,-0.0023609097,-2.3567889,0.0029019094,1.5733626,0.78654057,0.03999997,0.039999984,-9.810127,0.04208748787641525,0.0128862485,-0.00047220904,-0.023014798760414124,0.023014849
1084.566666666009,0.0027259642,-0.7844142,-0.0025870283,-2.3568423,0.003166321,1.5735881,0.7865915,0.039999973,0.039999988,-9.809776,0.04604782536625862,0.01454767,-0.00049866573,-0.0236306581646204,0.024466762
1084.5833333326757,0.0029594179,-0.78440166,-0.0028269363,-2.3569,0.00344685,1.5738274,0.78664535,0.03999997,0.039999984,-9.809665,0.050236474722623825,0.016236756,-0.00052539597,-0.02425861358642578,0.025959237
1084.5999999993423,0.0032066323,-0.78438914,-0.0030810013,-2.3569586,0.0037439256,1.574081,0.7867025,0.039999973,0.03999999,-9.8097,0.05468990281224251,0.018115256,-0.0005513328,-0.024903956800699234,0.027490754
1084.616666666009,0.0034679575,-0.7843765,-0.003349583,-2.357021,0.004057968,1.5743489,0.78676295,0.03999997,0.039999988,-9.809322,0.05939321964979172,0.019999709,-0.00057761907,-0.025551065802574158,0.029062217
1084.6333333326756,0.0037437356,-0.7843638,-0.0036330349,-2.357087,0.0043893945,1.5746317,0.7868267,0.03999997,0.04,-9.809323,0.06436668336391449,0.022085154,-0.00060385914,-0.026213927194476128,0.030669468
1084.6499999993423,0.004034302,-0.784351,-0.003931702,-2.357154,0.004738599,1.5749297,0.7868939,0.039999966,0.039999984,-9.809259,0.06963847577571869,0.024197236,-0.0006294641,-0.02689034678041935,0.032319527
1084.666666666009,0.0043399874,-0.784338,-0.0042459234,-2.3572268,0.005105983,1.5752435,0.7869646,0.03999997,0.03999999,-9.808827,0.07515351474285126,0.026510423,-0.0006544281,-0.02756674401462078,0.034002874
1084.6833333326756,0.004661109,-0.7843247,-0.0045760307,-2.3573012,0.0054919324,1.5755728,0.7870388,0.039999966,0.039999988,-9.809096,0.08096630871295929,0.028855354,-0.0006789758,-0.028266645967960358,0.03572322
1084.6999999993423,0.0049979803,-0.7843112,-0.004922347,-2.3573804,0.0058968244,1.5759182,0.7871167,0.03999996,0.039999984,-9.808701,0.08708394318819046,0.03137388,-0.0007022169,-0.028968485072255135,0.0374788
1084.716666666009,0.005350911,-0.7842972,-0.0052851867,-2.3574622,0.0063210246,1.5762802,0.78719836,0.039999966,0.04,-9.808742,0.09345736354589462,0.033946883,-0.00072476524,-0.029687128961086273,0.03926541
1084.7333333326756,0.005720199,-0.7842828,-0.00566486,-2.3575456,0.0067649,1.5766586,0.7872837,0.039999954,0.04,-9.808515,0.10018941760063171,0.036697034,-0.0007466481,-0.03041227161884308,0.041087415
1084.7499999993422,0.006106134,-0.78426814,-0.006061665,-2.357635,0.0072287936,1.5770545,0.78737295,0.039999954,0.039999995,-9.808153,0.10719940066337585,0.039495267,-0.0007665849,-0.031140826642513275,0.04294385
1084.7666666660089,0.006509004,-0.78425306,-0.006475896,-2.3577259,0.007713055,1.5774678,0.78746617,0.03999996,0.03999999,-9.808292,0.11455468833446503,0.042464193,-0.0007850997,-0.031887032091617584,0.04483584
1084.7833333326755,0.0069290823,-0.78423774,-0.006907836,-2.357823,0.008218026,1.5778986,0.7875633,0.039999966,0.04,-9.807837,0.12217530608177185,0.04559471,-0.0008024019,-0.032631583511829376,0.046752065
1084.7999999993422,0.0073666354,-0.7842218,-0.0073577645,-2.3579216,0.008744012,1.5783473,0.78766453,0.03999996,0.04,-9.807977,0.13015444576740265,0.048786588,-0.00081767584,-0.03339584171772003,0.04870121
1084.8166666660088,0.007821928,-0.78420544,-0.00782595,-2.3580263,0.009291332,1.5788143,0.78776985,0.039999966,0.04,-9.807508,0.13847704231739044,0.052156374,-0.0008311231,-0.03415841609239578,0.050680745
1084.8333333326755,0.008295215,-0.7841886,-0.008312653,-2.3581326,0.009860287,1.5792999,0.78787935,0.039999973,0.04,-9.807623,0.14710603654384613,0.055577166,-0.0008423356,-0.03493916243314743,0.052688964
1084.8499999993421,0.008786738,-0.7841714,-0.008818128,-2.358245,0.010451209,1.579804,0.7879931,0.039999966,0.04,-9.807104,0.15610440075397491,0.05922117,-0.0008513611,-0.035715531557798386,0.054725837
1084.8666666660088,0.009296734,-0.7841536,-0.009342621,-2.3583593,0.011064342,1.5803272,0.78811103,0.039999966,0.04,-9.807127,0.16541129350662231,0.062911056,-0.000857848,-0.03650800511240959,0.05678803
1084.8833333326754,0.00982544,-0.7841353,-0.009886368,-2.3584802,0.011699973,1.5808697,0.78823346,0.03999997,0.04,-9.806668,0.17510007321834564,0.066817015,-0.00086156506,-0.037299033254384995,0.05887732
1084.899999999342,0.010373071,-0.7841163,-0.010449601,-2.3586047,0.012358378,1.5814316,0.7883601,0.03999997,0.04,-9.806708,0.18512320518493652,0.07075189,-0.00086303486,-0.038104936480522156,0.060991965
1084.9166666660087,0.010939849,-0.784097,-0.011032539,-2.3587334,0.013039806,1.582013,0.78849125,0.039999977,0.04,-9.806385,0.1955248862504959,0.074920826,-0.00086072565,-0.03891579434275627,0.06313126
1084.9333333326754,0.011525979,-0.78407705,-0.011635399,-2.3588684,0.013744526,1.5826144,0.78862685,0.039999973,0.04,-9.806084,0.20626772940158844,0.07914126,-0.0008550523,-0.03973131254315376,0.06529499
1084.949999999342,0.012131659,-0.7840565,-0.012258385,-2.3590052,0.01447277,1.5832359,0.788767,0.039999973,0.04,-9.806046,0.21739737689495087,0.083578415,-0.000846288,-0.04056096822023392,0.06748083
1084.9666666660087,0.012757086,-0.7840355,-0.012901696,-2.3591485,0.015224761,1.5838776,0.7889117,0.03999998,0.04,-9.805372,0.2288639396429062,0.08803627,-0.00083342456,-0.04138330742716789,0.069688745
1084.9833333326753,0.013402445,-0.7840137,-0.013565528,-2.3592935,0.01600073,1.5845398,0.78906107,0.039999984,0.04,-9.805293,0.2407447248697281,0.09276796,-0.0008170713,-0.042219195514917374,0.07191788
1084.999999999342,0.01406791,-0.78399146,-0.014250061,-2.359445,0.016800905,1.5852227,0.78921497,0.039999984,0.04,-9.804583,0.25296705961227417,0.097495,-0.0007961898,-0.043047383427619934,0.0741683
1085.0166666660086,0.014753653,-0.7839687,-0.014955469,-2.3595994,0.017625466,1.5859263,0.7893736,0.04,0.04,-9.804435,0.2655838429927826,0.10245147,-0.0007710273,-0.043886471539735794,0.07643659
1085.0333333326753,0.015459839,-0.7839451,-0.01568192,-2.3597593,0.018474624,1.5866508,0.78953695,0.04,0.04,-9.803743,0.27859222888946533,0.10760066,-0.00074071944,-0.0447210818529129,0.07872364
1085.049999999342,0.01618662,-0.7839209,-0.016429575,-2.3599248,0.01934856,1.5873969,0.7897051,0.04,0.04,-9.803429,0.2919829189777374,0.112756744,-0.0007061761,-0.045563388615846634,0.081030436
1085.0666666660086,0.016934145,-0.78389615,-0.017198581,-2.3600929,0.020247443,1.5881639,0.7898781,0.04,0.04,-9.803061,0.30577486753463745,0.118175685,-0.0006667509,-0.04641139507293701,0.083353646
1085.0833333326752,0.01770255,-0.7838707,-0.017989092,-2.3602676,0.021171443,1.5889521,0.7900558,0.04,0.04,-9.80225,0.31993022561073303,0.1236233,-0.0006217936,-0.047252003103494644,0.08569329
1085.099999999342,0.018491976,-0.7838445,-0.018801242,-2.3604455,0.022120731,1.5897622,0.79023844,0.04,0.04,-9.801938,0.33451831340789795,0.12933901,-0.00057125033,-0.048104338347911835,0.08804854
1085.1166666660085,0.019302543,-0.78381765,-0.019635165,-2.3606284,0.023095448,1.5905942,0.7904259,0.04,0.04,-9.80111,0.3494570553302765,0.13503681,-0.0005150071,-0.04894793778657913,0.09041785
1085.1333333326752,0.02013437,-0.7837903,-0.020490982,-2.3608174,0.02409574,1.5914478,0.7906183,0.04,0.04,-9.800478,0.3648437559604645,0.14103705,-0.000452612,-0.049793265759944916,0.09280188
1085.1499999993418,0.02098758,-0.7837621,-0.0213688,-2.3610098,0.025121734,1.5923234,0.79081565,0.04,0.04,-9.799977,0.3805958032608032,0.14705418,-0.00038437897,-0.05064474046230316,0.09519778
1085.1666666660085,0.021862257,-0.78373325,-0.022268737,-2.361208,0.026173545,1.5932213,0.79101795,0.04,0.04,-9.799019,0.39677396416664124,0.15330794,-0.00030955442,-0.05148913338780403,0.09760512
1085.1833333326751,0.022758523,-0.78370386,-0.023190893,-2.3614106,0.027251333,1.5941412,0.7912253,0.04,0.04,-9.798333,0.4133698046207428,0.15959279,-0.00022814717,-0.05233536288142204,0.100028485
1085.1999999993418,0.023676448,-0.78367376,-0.024135353,-2.3616178,0.028355189,1.5950834,0.7914377,0.04,0.04,-9.797464,0.43036192655563354,0.16615355,-0.00014001387,-0.05317968875169754,0.10246096
1085.2166666660085,0.024616124,-0.7836427,-0.025102215,-2.3618302,0.02948521,1.5960479,0.791655,0.04,0.04,-9.796481,0.44774705171585083,0.17272255,-4.4976176e-05,-0.05401929095387459,0.10490282
1085.233333332675,0.025577629,-0.7836111,-0.026091551,-2.3620474,0.0306415,1.5970343,0.79187745,0.04,0.04,-9.795619,0.4655838906764984,0.17953262,5.7758672e-05,-0.05486069247126579,0.1073556
1085.2499999993418,0.026561035,-0.7835789,-0.02710343,-2.3622699,0.031824093,1.5980434,0.79210496,0.04,0.04,-9.79454,0.48377326130867004,0.18639618,0.0001677982,-0.05569824203848839,0.109812945
1085.2666666660084,0.027566388,-0.78354603,-0.028137922,-2.3624966,0.03303313,1.599075,0.79233754,0.04,0.04,-9.793539,0.5024376511573792,0.19344087,0.00028549266,-0.05653480812907219,0.11228238
1085.283333332675,0.028593762,-0.78351235,-0.02919509,-2.3627288,0.03426862,1.6001294,0.7925752,0.04,0.04,-9.792262,0.5214805603027344,0.2007019,0.00041160444,-0.05736439302563667,0.11475468
1085.2999999993417,0.029643204,-0.78347796,-0.030274987,-2.3629663,0.035530683,1.6012065,0.7928179,0.04,0.04,-9.791116,0.5409813523292542,0.20793475,0.00054572057,-0.05819057673215866,0.117238395
1085.3166666660084,0.03071476,-0.7834431,-0.03137765,-2.3632078,0.036819324,1.6023062,0.79306567,0.04,0.04,-9.7898655,0.5608662962913513,0.21545437,0.0006881796,-0.05901395529508591,0.119724296
1085.333333332675,0.03180846,-0.7834072,-0.032503124,-2.363455,0.038134616,1.6034287,0.7933187,0.04,0.04,-9.7883835,0.5811733603477478,0.22299714,0.0008401141,-0.05982837826013565,0.12221777
1085.3499999993417,0.03292434,-0.7833706,-0.033651415,-2.363707,0.03947659,1.6045738,0.7935769,0.04,0.04,-9.7870245,0.6019222140312195,0.23077138,0.0010000566,-0.0606406033039093,0.124715164
1085.3666666660083,0.034062408,-0.7833335,-0.034822576,-2.3639638,0.040845282,1.6057419,0.79384017,0.04,0.04,-9.785504,0.6230559945106506,0.23855515,0.0011688275,-0.061447493731975555,0.12721598
1085.383333332675,0.035222694,-0.78329545,-0.036016617,-2.364226,0.042240698,1.6069328,0.7941086,0.04,0.04,-9.783847,0.6446316838264465,0.24662112,0.001347248,-0.06224626675248146,0.1297179
1085.3999999993416,0.036405202,-0.7832568,-0.03723355,-2.3644934,0.043662865,1.6081463,0.79438233,0.04,0.04,-9.782251,0.6666180491447449,0.25465548,0.0015348926,-0.06304089725017548,0.13222237
1085.4166666660083,0.037609957,-0.7832175,-0.03847337,-2.3647652,0.04511179,1.6093826,0.7946611,0.04,0.04,-9.780458,0.6890368461608887,0.2629858,0.0017318407,-0.06382977217435837,0.13472715
1085.433333332675,0.03883692,-0.78317714,-0.039736085,-2.365043,0.04658743,1.6106418,0.794945,0.04,0.04,-9.778527,0.7118348479270935,0.27128828,0.0019393617,-0.06460843235254288,0.13722901
1085.4499999993416,0.040086124,-0.7831363,-0.04102169,-2.3653247,0.048089806,1.6119239,0.7952342,0.04,0.04,-9.776702,0.73513263463974,0.27983528,0.002156327,-0.06538581848144531,0.13973515
1085.4666666660082,0.041357532,-0.7830948,-0.042330172,-2.365612,0.04961891,1.6132289,0.7955284,0.04,0.04,-9.774499,0.7587922215461731,0.28838181,0.0023835872,-0.06614883244037628,0.14224017
1085.4833333326749,0.04265113,-0.7830525,-0.043661494,-2.3659043,0.051174708,1.6145567,0.7958277,0.04,0.04,-9.772351,0.7828839421272278,0.29720286,0.002621636,-0.0669044479727745,0.14474265
1085.4999999993415,0.043966882,-0.7830096,-0.045015648,-2.3662012,0.052757163,1.6159071,0.7961321,0.04,0.04,-9.770093,0.8073858618736267,0.30598545,0.0028710098,-0.0676516517996788,0.14724289
1085.5166666660082,0.04530476,-0.78296584,-0.046392597,-2.3665035,0.054366253,1.6172799,0.79644173,0.04,0.04,-9.767655,0.8323184251785278,0.3149757,0.003131187,-0.06838834285736084,0.14974071
1085.5333333326748,0.046664726,-0.7829215,-0.04779229,-2.3668106,0.056001894,1.6186756,0.7967564,0.04,0.04,-9.765245,0.8576669692993164,0.32414064,0.0034016394,-0.06912042200565338,0.15223248
1085.5499999993415,0.048046753,-0.7828764,-0.049214687,-2.3671224,0.057664085,1.6200942,0.79707617,0.04,0.04,-9.762571,0.8834369778633118,0.33327916,0.0036837368,-0.06983954459428787,0.15472311
1085.5666666660081,0.04945076,-0.7828305,-0.050659753,-2.3674395,0.05935275,1.6215352,0.7974011,0.04,0.04,-9.7598095,0.9096167087554932,0.3426541,0.003977604,-0.07054756581783295,0.15720855
1085.5833333326748,0.050876714,-0.7827841,-0.0521274,-2.3677614,0.06106781,1.622999,0.7977311,0.04,0.04,-9.757012,0.9362097382545471,0.3520172,0.004282721,-0.07124737650156021,0.1596882
1085.5999999993414,0.05232454,-0.78273696,-0.053617604,-2.368088,0.062809214,1.6244856,0.79806614,0.04,0.04,-9.75392,0.9632101058959961,0.36163068,0.004599734,-0.07193204760551453,0.16216147
1085.616666666008,0.05379418,-0.782689,-0.055130266,-2.3684194,0.06457685,1.625994,0.7984061,0.04,0.04,-9.750823,0.9906314611434937,0.37118968,0.0049285,-0.07260429114103317,0.16462818
1085.6333333326747,0.055285566,-0.78264046,-0.056665335,-2.368756,0.06637061,1.6275246,0.79875135,0.04,0.04,-9.747556,1.018412709236145,0.38101274,0.005270073,-0.07326870411634445,0.16707912
1085.6499999993414,0.056798615,-0.7825909,-0.058222707,-2.3690977,0.068190455,1.6290778,0.7991015,0.04,0.04,-9.744226,1.0466766357421875,0.39080083,0.005622764,-0.07392232865095139,0.16952613
1085.666666666008,0.058333244,-0.782541,-0.05980231,-2.369444,0.07003626,1.6306529,0.79945654,0.04,0.04,-9.740665,1.075316309928894,0.40077353,0.0059881685,-0.07456357777118683,0.17196484
1085.6833333326747,0.05988936,-0.7824904,-0.06140404,-2.369795,0.071907945,1.63225,0.7998167,0.04,0.04,-9.7369795,1.1043500900268555,0.41076225,0.0063665533,-0.07519237697124481,0.17439274
1085.6999999993413,0.061466884,-0.78243893,-0.06302782,-2.3701515,0.07380538,1.633869,0.80018187,0.04,0.04,-9.733128,1.1338037252426147,0.42094675,0.006756786,-0.0758088007569313,0.17681184
1085.716666666008,0.0630657,-0.78238684,-0.064673536,-2.3705122,0.07572843,1.6355097,0.8005519,0.04,0.04,-9.729223,1.1636381149291992,0.4310772,0.007159859,-0.07641466706991196,0.1792173
1085.7333333326746,0.06468569,-0.78233397,-0.06634109,-2.3708782,0.07767699,1.6371725,0.8009268,0.04,0.04,-9.725034,1.1938984394073486,0.44144267,0.0075758304,-0.07700782269239426,0.18161531
1085.7499999993413,0.06632679,-0.78228045,-0.06803036,-2.3712487,0.079650946,1.6388569,0.8013064,0.04,0.04,-9.720773,1.2245311737060547,0.45171553,0.008004343,-0.07758725434541702,0.184
1085.766666666008,0.06798885,-0.7822263,-0.06974123,-2.371624,0.08165014,1.640563,0.80169106,0.04,0.04,-9.716285,1.2555571794509888,0.46216482,0.008447449,-0.07815214991569519,0.18637232
1085.7833333326746,0.06967177,-0.7821714,-0.07147356,-2.372004,0.08367441,1.6422905,0.80208045,0.04,0.04,-9.711641,1.286968469619751,0.47275347,0.008902758,-0.0787031278014183,0.18873012
1085.7999999993413,0.0713754,-0.78211594,-0.07322726,-2.3723886,0.08572365,1.6440389,0.80247474,0.04,0.04,-9.706851,1.3187665939331055,0.48326316,0.009371329,-0.07924098521471024,0.19107455
1085.816666666008,0.07309962,-0.7820598,-0.07500221,-2.3727777,0.08779764,1.6458087,0.80287373,0.04,0.04,-9.70183,1.3509327173233032,0.49399933,0.009853273,-0.079764224588871,0.19340101
1085.8333333326746,0.0748443,-0.7820029,-0.07679821,-2.3731713,0.089896254,1.6475996,0.8032774,0.04,0.04,-9.696687,1.3834434747695923,0.5046528,0.0103482455,-0.0802730917930603,0.1957013
1085.8499999993412,0.076609336,-0.7819454,-0.07861516,-2.37357,0.092019334,1.6494111,0.8036858,0.04,0.04,-9.691274,1.4164379835128784,0.51549274,0.010857344,-0.0807652622461319,0.19799787
1085.8666666660079,0.078394555,-0.7818871,-0.08045289,-2.373973,0.09416668,1.6512434,0.8040989,0.04,0.04,-9.685842,1.4497350454330444,0.52626735,0.011379765,-0.08124662190675735,0.2002731
1085.8833333326745,0.08019978,-0.7818282,-0.08231128,-2.3743806,0.09633816,1.6530964,0.80451655,0.04,0.04,-9.680084,1.483438491821289,0.5371984,0.011915222,-0.0817122682929039,0.20253642
1085.8999999993412,0.08202491,-0.7817688,-0.084190115,-2.3747928,0.098533556,1.6549699,0.804939,0.04,0.04,-9.674221,1.5174932479858398,0.5480702,0.012464703,-0.08216389268636703,0.20478149
1085.9166666660078,0.083869755,-0.7817086,-0.08608928,-2.375209,0.100752726,1.6568636,0.80536586,0.04,0.04,-9.668039,1.5518816709518433,0.5591202,0.013027338,-0.08259785175323486,0.20700724
1085.9333333326745,0.08573416,-0.78164786,-0.08800862,-2.3756304,0.10299544,1.6587775,0.8057974,0.04,0.04,-9.661732,1.586653709411621,0.5700642,0.013603881,-0.08301626145839691,0.20921439
1085.9499999993411,0.08761794,-0.7815866,-0.08994791,-2.3760557,0.10526149,1.6607113,0.8062333,0.04,0.04,-9.655275,1.6217738389968872,0.58119434,0.0141933095,-0.08342156559228897,0.21139984
1085.9666666660078,0.08952096,-0.7815245,-0.09190705,-2.3764853,0.10755068,1.6626648,0.8066737,0.04,0.04,-9.648494,1.6572306156158447,0.5922177,0.014797163,-0.0838087946176529,0.21356387
1085.9833333326744,0.09144303,-0.78146195,-0.093885824,-2.376919,0.10986278,1.6646379,0.80711854,0.04,0.04,-9.641553,1.6930418014526367,0.60338664,0.015413989,-0.08418116718530655,0.21570607
1085.999999999341,0.09338395,-0.78139883,-0.09588402,-2.377357,0.11219759,1.6666304,0.8075677,0.04,0.04,-9.634364,1.7291737794876099,0.61447626,0.016044898,-0.08453560620546341,0.21782193
1086.0166666660077,0.095343575,-0.7813349,-0.09790147,-2.3777995,0.114554875,1.6686417,0.8080213,0.04,0.04,-9.626981,1.7656803131103516,0.6256294,0.016689321,-0.08487358689308167,0.21991861
1086.0333333326744,0.0973217,-0.7812705,-0.099938005,-2.3782463,0.11693443,1.6706723,0.808479,0.04,0.04,-9.61945,1.8025257587432861,0.63687664,0.017346388,-0.08519992977380753,0.22199729
1086.049999999341,0.09931812,-0.78120553,-0.101993375,-2.3786967,0.11933606,1.6727217,0.8089412,0.04,0.04,-9.611658,1.8396917581558228,0.64799416,0.018017814,-0.08550871908664703,0.22405314
1086.0666666660077,0.10133266,-0.7811398,-0.10406742,-2.379152,0.12175948,1.6747897,0.8094074,0.04,0.04,-9.603491,1.877134084701538,0.65923375,0.018702168,-0.08579818904399872,0.2260843
1086.0833333326743,0.1033651,-0.78107363,-0.10615992,-2.3796105,0.12420448,1.676876,0.8098778,0.04,0.04,-9.59539,1.9149596691131592,0.67036915,0.019399513,-0.08607710152864456,0.22809154
1086.099999999341,0.10541528,-0.78100693,-0.10827066,-2.3800735,0.12667076,1.6789807,0.8103522,0.04,0.04,-9.586749,1.9530109167099,0.68161744,0.020110736,-0.08633573353290558,0.23007065
1086.1166666660076,0.10748294,-0.78093946,-0.11039943,-2.3805401,0.1291582,1.681103,0.81083065,0.04,0.04,-9.578058,1.9914488792419434,0.6927357,0.020835603,-0.08657815307378769,0.23202634
1086.1333333326743,0.10956791,-0.78087145,-0.11254602,-2.3810108,0.13166638,1.6832433,0.8113132,0.04,0.04,-9.56903,2.030125379562378,0.7039637,0.021573255,-0.08680494129657745,0.233953
1086.149999999341,0.11166996,-0.7808031,-0.11471021,-2.3814852,0.13419512,1.6854012,0.81179965,0.04,0.04,-9.559832,2.0691535472869873,0.7150434,0.022323526,-0.08701521158218384,0.23585457
1086.1666666660076,0.113788836,-0.78073406,-0.116891764,-2.3819635,0.13674419,1.6875765,0.81228983,0.04,0.04,-9.550304,2.108449935913086,0.7262408,0.023087278,-0.08720681816339493,0.23773251
1086.1833333326742,0.11592438,-0.78066456,-0.11909047,-2.3824456,0.1393133,1.689769,0.8127841,0.04,0.04,-9.540654,2.148019313812256,0.737281,0.023864048,-0.08738378435373306,0.23957555
1086.199999999341,0.11807634,-0.7805945,-0.121306114,-2.382931,0.14190213,1.6919786,0.8132821,0.04,0.04,-9.530634,2.1878952980041504,0.74841,0.024652587,-0.08754275739192963,0.24139696
1086.2166666660075,0.12024448,-0.7805241,-0.1235384,-2.3834205,0.1445105,1.694204,0.81378394,0.04,0.04,-9.520374,2.2280421257019043,0.7593796,0.025454616,-0.08768261969089508,0.24319078
1086.2333333326742,0.12242859,-0.7804529,-0.12578718,-2.3839133,0.14713807,1.6964463,0.8142896,0.04,0.04,-9.509959,2.268425703048706,0.77047396,0.026267523,-0.08781153708696365,0.24495392
1086.2499999993408,0.124628395,-0.7803814,-0.12805215,-2.3844097,0.14978456,1.6987046,0.8147988,0.04,0.04,-9.499184,2.309093475341797,0.7813217,0.027092423,-0.08791963011026382,0.24668428
1086.2666666660075,0.12684366,-0.7803094,-0.13033305,-2.3849096,0.1524497,1.7009785,0.81531143,0.04,0.04,-9.488229,2.350020170211792,0.7922393,0.027929498,-0.08801373094320297,0.24838494
1086.2833333326741,0.12907419,-0.7802368,-0.1326297,-2.3854134,0.15513323,1.7032684,0.8158275,0.04,0.04,-9.476929,2.391185760498047,0.8031413,0.028779125,-0.08809128403663635,0.25005886
1086.2999999993408,0.13131973,-0.78016365,-0.13494179,-2.38592,0.15783477,1.7055736,0.81634706,0.04,0.04,-9.465498,2.4326183795928955,0.8138592,0.029640066,-0.08815412223339081,0.25169897
1086.3166666660074,0.13358003,-0.7800901,-0.13726906,-2.3864307,0.16055413,1.7078938,0.81687015,0.04,0.04,-9.453644,2.4742512702941895,0.8246127,0.030512799,-0.08819901943206787,0.2533117
1086.333333332674,0.13585481,-0.7800162,-0.13961127,-2.3869438,0.16329092,1.710229,0.8173966,0.04,0.04,-9.4417095,2.5161609649658203,0.8352237,0.03139581,-0.08823107928037643,0.25489146
1086.3499999993408,0.13814381,-0.7799417,-0.1419682,-2.3874607,0.16604482,1.7125787,0.81792647,0.04,0.04,-9.429236,2.5582141876220703,0.845845,0.03229047,-0.08824262768030167,0.2564372
1086.3666666660074,0.14044684,-0.7798667,-0.14433956,-2.3879805,0.1688156,1.7149429,0.81845933,0.04,0.04,-9.416776,2.6005709171295166,0.85627323,0.03319391,-0.0882420539855957,0.25794792
1086.383333332674,0.14276358,-0.7797913,-0.14672504,-2.3885038,0.17160286,1.7173213,0.8189955,0.04,0.04,-9.403833,2.6430721282958984,0.8667205,0.03410979,-0.08822326362133026,0.25942674
1086.3999999993407,0.1450938,-0.7797154,-0.14912443,-2.3890297,0.17440632,1.7197133,0.8195347,0.04,0.04,-9.390818,2.6858408451080322,0.8769809,0.03503464,-0.08819124102592468,0.26087186
1086.4166666660074,0.1474372,-0.77963924,-0.15153736,-2.3895583,0.17722575,1.722119,0.82007694,0.04,0.04,-9.37733,2.7287490367889404,0.8872379,0.03596964,-0.08814167231321335,0.26228598
1086.433333332674,0.14979354,-0.77956265,-0.15396364,-2.3900898,0.18006076,1.7245381,0.82062227,0.04,0.04,-9.36363,2.7718727588653564,0.8973114,0.03691529,-0.08807504922151566,0.26366356
1086.4499999993407,0.15216252,-0.7794857,-0.15640305,-2.3906243,0.182911,1.7269702,0.8211706,0.04,0.04,-9.349608,2.8151540756225586,0.90737057,0.037869893,-0.08799058198928833,0.26500827
1086.4666666660073,0.15454388,-0.7794081,-0.15885517,-2.391162,0.18577619,1.7294149,0.8217217,0.04,0.04,-9.335459,2.8586952686309814,0.91722757,0.038832277,-0.08789262920618057,0.2663201
1086.483333332674,0.15693742,-0.77933025,-0.16131979,-2.3917017,0.18865594,1.7318721,0.8222757,0.04,0.04,-9.321011,2.9023101329803467,0.9270672,0.039804004,-0.08778302371501923,0.26759508
1086.4999999993406,0.1593428,-0.7792522,-0.16379662,-2.3922448,0.19154999,1.7343414,0.82283247,0.04,0.04,-9.306144,2.9461324214935303,0.93666965,0.040783867,-0.08765439689159393,0.2688349
1086.5166666660073,0.1617597,-0.77917355,-0.16628534,-2.3927903,0.19445798,1.7368228,0.82339185,0.04,0.04,-9.291148,2.9900877475738525,0.9462446,0.04177175,-0.08751283586025238,0.27003604
1086.533333332674,0.16418795,-0.77909464,-0.16878572,-2.3933382,0.19737953,1.739316,0.8239539,0.04,0.04,-9.275794,3.034189462661743,0.9556835,0.042766992,-0.08735654503107071,0.2712027
1086.5499999993406,0.16662717,-0.7790154,-0.17129742,-2.393889,0.20031439,1.7418201,0.8245185,0.04,0.04,-9.260152,3.0784573554992676,0.964911,0.043770142,-0.08718296140432358,0.27233332
1086.5666666660072,0.16907702,-0.77893597,-0.17382017,-2.394442,0.20326206,1.7443355,0.8250855,0.04,0.04,-9.244319,3.122770309448242,0.9741271,0.044779323,-0.08699939399957657,0.2734164
1086.5833333326739,0.17153734,-0.7788562,-0.17635368,-2.3949966,0.20622231,1.7468613,0.8256549,0.04,0.04,-9.228147,3.167356252670288,0.98306745,0.04579574,-0.08679899573326111,0.2744709
1086.5999999993405,0.1740078,-0.7787759,-0.17889762,-2.3955538,0.20919478,1.7493976,0.8262267,0.04,0.04,-9.211541,3.2119381427764893,0.99195737,0.046819076,-0.08658155798912048,0.27549052
1086.6166666660072,0.17648806,-0.77869505,-0.18145171,-2.3961134,0.21217906,1.751944,0.8268008,0.04,0.04,-9.194919,3.2566919326782227,1.0005951,0.047847774,-0.08635245263576508,0.2764687
1086.6333333326738,0.17897786,-0.77861416,-0.18401562,-2.3966749,0.21517496,1.7545002,0.8273772,0.04,0.04,-9.177924,3.301515817642212,1.009187,0.048881285,-0.0861116275191307,0.2774121
1086.6499999993405,0.18147697,-0.77853304,-0.18658906,-2.3972385,0.21818192,1.7570659,0.82795554,0.04,0.04,-9.160642,3.34645938873291,1.0175235,0.049920116,-0.08585503697395325,0.27831468
1086.6666666660071,0.183985,-0.77845156,-0.18917176,-2.3978045,0.22119963,1.7596406,0.828536,0.04,0.04,-9.143082,3.3914434909820557,1.0257972,0.05096414,-0.08558624982833862,0.27917963
1086.6833333326738,0.1865017,-0.7783699,-0.19176336,-2.3983727,0.22422777,1.7622243,0.8291183,0.04,0.04,-9.125307,3.436577558517456,1.0338016,0.05201252,-0.08530569821596146,0.2800052
1086.6999999993404,0.18902668,-0.77828795,-0.19436358,-2.3989418,0.22726597,1.7648166,0.8297028,0.04,0.04,-9.107226,3.481719970703125,1.0417174,0.053064674,-0.08501313626766205,0.28079274
1086.716666666007,0.19155975,-0.77820563,-0.19697209,-2.3995128,0.2303139,1.7674171,0.8302891,0.04,0.04,-9.088778,3.5269503593444824,1.0493507,0.054119643,-0.0847044587135315,0.281538
1086.7333333326737,0.19410057,-0.77812314,-0.19958858,-2.400086,0.23337115,1.7700255,0.8308772,0.04,0.04,-9.070151,3.5722126960754395,1.0568973,0.055177588,-0.08438502252101898,0.28224647
1086.7499999993404,0.19664879,-0.7780404,-0.2022128,-2.4006608,0.23643741,1.7726415,0.8314671,0.04,0.04,-9.051316,3.61759090423584,1.0641869,0.056237984,-0.08405424654483795,0.28291652
1086.766666666007,0.19920415,-0.77795744,-0.2048443,-2.401237,0.23951228,1.775265,0.8320586,0.04,0.04,-9.032132,3.6629724502563477,1.0713199,0.0572998,-0.08371150493621826,0.2835465
1086.7833333326737,0.20176633,-0.7778743,-0.20748286,-2.4018145,0.24259531,1.7778957,0.8326515,0.04,0.04,-9.012686,3.7083230018615723,1.0782989,0.058363356,-0.08335750550031662,0.28413367
1086.7999999993403,0.204335,-0.7777908,-0.21012814,-2.4023936,0.24568622,1.7805328,0.83324593,0.04,0.04,-8.992954,3.7537875175476074,1.0849818,0.059429236,-0.08298850804567337,0.28468263
1086.816666666007,0.20690985,-0.77770704,-0.2127798,-2.4029744,0.2487846,1.7831765,0.833842,0.04,0.04,-8.973016,3.7991881370544434,1.091566,0.060495287,-0.08261121064424515,0.28518876
1086.8333333326736,0.20949061,-0.77762336,-0.21543752,-2.403556,0.2518901,1.7858261,0.8344392,0.04,0.04,-8.952872,3.844688892364502,1.0978544,0.061560046,-0.08222339302301407,0.2856534
1086.8499999993403,0.21207695,-0.7775395,-0.218101,-2.4041395,0.25500235,1.7884814,0.8350379,0.04,0.04,-8.932321,3.8901145458221436,1.10403,0.06262619,-0.08182369917631149,0.28608266
1086.866666666007,0.21466851,-0.7774554,-0.22076991,-2.4047236,0.2581209,1.7911421,0.8356377,0.04,0.04,-8.9116955,3.9356017112731934,1.1099199,0.06368998,-0.08141570538282394,0.28646815
1086.8833333326736,0.217265,-0.77737117,-0.22344396,-2.405309,0.26124534,1.7938081,0.83623874,0.04,0.04,-8.89063,3.980994701385498,1.1156282,0.06475344,-0.0809948742389679,0.28681508
1086.8999999993403,0.21986614,-0.77728677,-0.22612272,-2.4058952,0.26437542,1.7964789,0.8368406,0.04,0.04,-8.869483,4.026456832885742,1.1210757,0.0658143,-0.08056464046239853,0.2871215
1086.916666666007,0.22247161,-0.7772023,-0.22880593,-2.4064822,0.26751062,1.7991539,0.83744377,0.04,0.04,-8.8479805,4.071773529052734,1.1263707,0.06687414,-0.08012455701828003,0.2873852
1086.9333333326736,0.22508109,-0.77711767,-0.2314933,-2.4070706,0.2706507,1.8018332,0.8380477,0.04,0.04,-8.826261,4.117152690887451,1.131372,0.06793059,-0.07967370003461838,0.28761142
1086.9499999993402,0.22769423,-0.77703273,-0.23418446,-2.4076595,0.2737953,1.8045163,0.8386525,0.04,0.04,-8.804408,4.162440299987793,1.1362181,0.068983085,-0.0792173519730568,0.28779566
1086.9666666660069,0.2303107,-0.77694786,-0.2368791,-2.4082499,0.27694395,1.8072027,0.839258,0.04,0.04,-8.782229,4.207706451416016,1.1407386,0.07003166,-0.07875025272369385,0.28793785
1086.9833333326735,0.2329302,-0.776863,-0.23957683,-2.4088407,0.28009623,1.8098922,0.83986425,0.04,0.04,-8.759867,4.252868175506592,1.1451416,0.071075715,-0.07827721536159515,0.28803924
1086.9999999993402,0.23555239,-0.77677816,-0.24227738,-2.409432,0.28325176,1.8125845,0.84047127,0.04,0.04,-8.737274,4.298028945922852,1.1492243,0.07211476,-0.07779652625322342,0.28809983
1087.0166666660068,0.23817703,-0.77669317,-0.24498041,-2.4100237,0.2864102,1.8152794,0.8410787,0.04,0.04,-8.714391,4.343069076538086,1.1530887,0.07314767,-0.07730564475059509,0.28812167
1087.0333333326735,0.24080367,-0.7766081,-0.24768552,-2.4106154,0.28957108,1.8179761,0.84168655,0.04,0.04,-8.6913,4.3879547119140625,1.156741,0.07417557,-0.0768076628446579,0.28809896
1087.0499999993401,0.24343209,-0.776523,-0.25039244,-2.4112077,0.29273403,1.820675,0.84229493,0.04,0.04,-8.667989,4.432849407196045,1.1600971,0.075198166,-0.0763004943728447,0.2880386
1087.0666666660068,0.24606189,-0.776438,-0.25310078,-2.4118006,0.29589877,1.8233751,0.8429037,0.04,0.04,-8.644485,4.47757625579834,1.163269,0.076213144,-0.07578521966934204,0.28793696
1087.0833333326734,0.2486928,-0.7763528,-0.25581035,-2.4123936,0.2990648,1.8260763,0.8435126,0.04,0.04,-8.620884,4.5222930908203125,1.1661711,0.07721926,-0.0752662718296051,0.28779584
1087.09999999934,0.25132456,-0.7762675,-0.25852066,-2.4129868,0.30223188,1.8287785,0.84412175,0.04,0.04,-8.596921,4.566789627075195,1.1688304,0.07821788,-0.07473969459533691,0.28761315
1087.1166666660067,0.25395662,-0.7761822,-0.26123148,-2.4135802,0.30539945,1.8314813,0.8447309,0.04,0.04,-8.5729065,4.611248970031738,1.1712049,0.079207644,-0.07420730590820312,0.2873889
1087.1333333326734,0.25658885,-0.77609694,-0.26394248,-2.4141736,0.30856732,1.8341842,0.84534013,0.04,0.04,-8.548591,4.65554141998291,1.1733788,0.08018771,-0.07366856932640076,0.287128
1087.14999999934,0.25922093,-0.77601165,-0.26665324,-2.4147668,0.31173494,1.8368869,0.8459494,0.04,0.04,-8.524157,4.699741363525391,1.1752698,0.081157826,-0.07312466949224472,0.28682548
1087.1666666660067,0.2618525,-0.77592635,-0.2693634,-2.4153593,0.31490192,1.8395889,0.84655863,0.04,0.04,-8.49944,4.743687629699707,1.1769186,0.08211781,-0.07257409393787384,0.28648293
1087.1833333326733,0.26448315,-0.77584106,-0.27207288,-2.4159515,0.31806782,1.8422898,0.8471677,0.04,0.04,-8.474581,4.787567615509033,1.1783,0.08306819,-0.07201671600341797,0.28609967
1087.19999999934,0.26711255,-0.7757558,-0.27478108,-2.4165435,0.32123238,1.8449895,0.8477763,0.04,0.04,-8.449573,4.831280708312988,1.179454,0.08400553,-0.0714559406042099,0.28567925
1087.2166666660066,0.2697406,-0.77567065,-0.27748775,-2.4171352,0.32439515,1.8476882,0.84838456,0.04,0.04,-8.424427,4.8748674392700195,1.1803406,0.08493175,-0.07089082151651382,0.28521854
1087.2333333326733,0.27236685,-0.7755856,-0.2801927,-2.4177265,0.32755578,1.8503847,0.84899235,0.04,0.04,-8.399038,4.918174743652344,1.180968,0.08584646,-0.07031800597906113,0.284717
1087.24999999934,0.27499095,-0.7755007,-0.2828953,-2.418317,0.33071384,1.8530791,0.8495998,0.04,0.04,-8.373618,4.96144962310791,1.1813521,0.08674742,-0.0697442963719368,0.2841766
1087.2666666660066,0.27761263,-0.77541584,-0.28559545,-2.4189076,0.33386904,1.8557708,0.8502066,0.04,0.04,-8.34792,5.004426956176758,1.1814687,0.087635934,-0.06916385143995285,0.2835973
1087.2833333326732,0.28023142,-0.775331,-0.2882928,-2.419498,0.33702075,1.8584597,0.85081285,0.04,0.04,-8.32218,5.047244548797607,1.1813667,0.08850951,-0.06858331710100174,0.2829794
1087.29999999934,0.2828471,-0.7752463,-0.29098696,-2.4200869,0.3401688,1.8611454,0.8514183,0.04,0.04,-8.296354,5.089975357055664,1.1809598,0.08936671,-0.06800158321857452,0.2823255
1087.3166666660065,0.28545934,-0.77516186,-0.2936776,-2.420675,0.3433128,1.8638276,0.85202307,0.04,0.04,-8.270154,5.13231897354126,1.1802989,0.09021047,-0.067412830889225,0.28163254
1087.3333333326732,0.288068,-0.7750775,-0.29636425,-2.421262,0.34645233,1.8665059,0.8526269,0.04,0.04,-8.24401,5.174587726593018,1.1794043,0.09103849,-0.06682190299034119,0.2809008
1087.3499999993398,0.29067257,-0.77499324,-0.2990468,-2.4218485,0.34958693,1.8691802,0.8532297,0.04,0.04,-8.217642,5.216511249542236,1.1782426,0.091851965,-0.06622730195522308,0.28013238
1087.3666666660065,0.29327282,-0.77490926,-0.30172485,-2.4224339,0.35271636,1.8718503,0.8538316,0.04,0.04,-8.191274,5.258369445800781,1.1768242,0.09264865,-0.06563146412372589,0.27932754
1087.3833333326731,0.29586825,-0.7748254,-0.30439803,-2.4230182,0.35584012,1.8745155,0.85443234,0.04,0.04,-8.164665,5.299854755401611,1.1751659,0.09342887,-0.06503095477819443,0.27848256
1087.3999999993398,0.29845878,-0.7747418,-0.30706608,-2.4236012,0.35895786,1.8771755,0.8550319,0.04,0.04,-8.138084,5.341264724731445,1.1732471,0.09419064,-0.06442991644144058,0.2776042
1087.4166666660064,0.30104393,-0.77465844,-0.30972865,-2.424183,0.36206913,1.87983,0.8556302,0.04,0.04,-8.111227,5.382266998291016,1.1710806,0.094936386,-0.06382527947425842,0.2766887
1087.433333332673,0.30362335,-0.7745752,-0.31238544,-2.4247634,0.36517367,1.8824785,0.8562275,0.04,0.04,-8.084447,5.423158168792725,1.1686716,0.09566319,-0.06321994960308075,0.27573523
1087.4499999993398,0.30619684,-0.7744922,-0.3150362,-2.4253423,0.36827108,1.8851213,0.85682327,0.04,0.04,-8.05751,5.463754177093506,1.166002,0.096369155,-0.06261427700519562,0.27475137
1087.4666666660064,0.30876413,-0.7744094,-0.31768045,-2.4259202,0.37136093,1.8877574,0.85741746,0.04,0.04,-8.030458,5.504086971282959,1.1630743,0.09705695,-0.062004268169403076,0.27372676
1087.483333332673,0.31132492,-0.7743269,-0.32031792,-2.4264967,0.3744429,1.8903869,0.85801023,0.04,0.04,-8.003408,5.544155120849609,1.1599253,0.097725205,-0.0613962821662426,0.27267027
1087.4999999993397,0.31387883,-0.77424467,-0.32294828,-2.4270716,0.37751648,1.8930091,0.8586015,0.04,0.04,-7.9763126,5.584006309509277,1.1565285,0.098373026,-0.060788240283727646,0.271579
1087.5166666660064,0.31642547,-0.77416253,-0.32557136,-2.4276445,0.3805815,1.8956239,0.859191,0.04,0.04,-7.9490943,5.623560905456543,1.1528853,0.099000074,-0.06018081679940224,0.27045894
1087.533333332673,0.3189645,-0.7740806,-0.32818657,-2.428216,0.3836375,1.898231,0.8597787,0.04,0.04,-7.9217544,5.662772178649902,1.1489573,0.09960573,-0.05957101657986641,0.26929885
1087.5499999993397,0.3214959,-0.77399886,-0.3307938,-2.428786,0.38668412,1.9008303,0.86036456,0.04,0.04,-7.8945065,5.701809883117676,1.1448501,0.100190125,-0.05896325781941414,0.2681076
1087.5666666660063,0.32401907,-0.7739173,-0.3333927,-2.429354,0.38972095,1.9034214,0.86094856,0.04,0.04,-7.8671412,5.740481376647949,1.1404698,0.100752585,-0.058355800807476044,0.26688287
1087.583333332673,0.32653385,-0.773836,-0.33598292,-2.4299195,0.39274776,1.906004,0.86153066,0.04,0.04,-7.839742,5.778928279876709,1.1358663,0.10129269,-0.057747259736061096,0.26562545
1087.5999999993396,0.32903993,-0.77375513,-0.33856422,-2.430483,0.3957641,1.9085773,0.8621107,0.04,0.04,-7.812255,5.816990852355957,1.131014,0.10180998,-0.057137925177812576,0.26433495
1087.6166666660063,0.33153695,-0.77367467,-0.34113622,-2.4310455,0.39876944,1.9111414,0.8626887,0.04,0.04,-7.784789,5.85484504699707,1.125986,0.10230498,-0.056529175490140915,0.26301464
1087.633333332673,0.33402467,-0.7735944,-0.3436986,-2.431605,0.40176365,1.913696,0.8632644,0.04,0.04,-7.7574224,5.892388343811035,1.120723,0.10277477,-0.055925410240888596,0.26166168
1087.6499999993396,0.33650273,-0.77351457,-0.34625113,-2.432162,0.4047462,1.9162406,0.86383796,0.04,0.04,-7.729864,5.929576873779297,1.115201,0.103223115,-0.055319227278232574,0.26027855
1087.6666666660062,0.3389709,-0.77343506,-0.34879342,-2.4327173,0.407717,1.9187751,0.86440915,0.04,0.04,-7.7022734,5.9664306640625,1.1094664,0.10364773,-0.05471248924732208,0.25886554
1087.6833333326729,0.3414289,-0.77335584,-0.35132524,-2.43327,0.41067556,1.921299,0.86497813,0.04,0.04,-7.674872,6.003078937530518,1.1035622,0.1040471,-0.05410904064774513,0.25742313
1087.6999999993395,0.34387645,-0.773277,-0.35384625,-2.43382,0.4136214,1.9238124,0.86554474,0.04,0.04,-7.647348,6.039304733276367,1.0973803,0.10442126,-0.05350635573267937,0.25594985
1087.7166666660062,0.34631318,-0.7731985,-0.35635617,-2.4343684,0.41655424,1.9263146,0.8661088,0.04,0.04,-7.6198707,6.0752787590026855,1.0910505,0.10477122,-0.052904240787029266,0.2544506
1087.7333333326728,0.34873888,-0.77312016,-0.35885477,-2.4349136,0.41947386,1.9288056,0.86667025,0.04,0.04,-7.592484,6.1109185218811035,1.0844852,0.105094485,-0.05230622738599777,0.25292242
1087.7499999993395,0.35115322,-0.7730423,-0.3613416,-2.4354563,0.42237976,1.9312851,0.86722904,0.04,0.04,-7.5650244,6.146212100982666,1.077716,0.10539272,-0.051708661019802094,0.25136405
1087.7666666660061,0.35355595,-0.77296484,-0.3638164,-2.435996,0.42527172,1.9337524,0.8677853,0.04,0.04,-7.537619,6.181176662445068,1.0707562,0.10566559,-0.05111154168844223,0.24978141
1087.7833333326728,0.35594678,-0.7728879,-0.366279,-2.4365337,0.42814943,1.9362073,0.8683386,0.04,0.04,-7.5102286,6.215778350830078,1.0635748,0.10591281,-0.050516318529844284,0.24817537
1087.7999999993394,0.3583254,-0.7728113,-0.36872905,-2.4370685,0.43101233,1.9386498,0.8688891,0.04,0.04,-7.483005,6.250108242034912,1.0562965,0.10613315,-0.04992716759443283,0.24653658
1087.816666666006,0.36069152,-0.7727352,-0.37116632,-2.4376001,0.43386027,1.9410796,0.8694369,0.04,0.04,-7.455731,6.284073829650879,1.0487275,0.10632681,-0.049339160323143005,0.244877
1087.8333333326727,0.36304495,-0.7726593,-0.37359044,-2.4381297,0.43669283,1.9434963,0.8699816,0.04,0.04,-7.4284973,6.317673683166504,1.0410444,0.106493406,-0.048751987516880035,0.24318835
1087.8499999993394,0.36538535,-0.7725839,-0.37600118,-2.4386551,0.43950975,1.9458998,0.87052333,0.04,0.04,-7.4014606,6.350984573364258,1.0331336,0.10663188,-0.04817124828696251,0.2414751
1087.866666666006,0.36771256,-0.77250916,-0.37839824,-2.4391785,0.4423108,1.9482894,0.871062,0.04,0.04,-7.3742404,6.383858680725098,1.0250694,0.10674562,-0.04758679121732712,0.23974094
1087.8833333326727,0.37002617,-0.7724348,-0.38078147,-2.4396982,0.44509554,1.9506651,0.8715975,0.04,0.04,-7.347353,6.416454315185547,1.0168657,0.106831014,-0.047010552138090134,0.23797874
1087.8999999993393,0.3723259,-0.7723608,-0.38315043,-2.440215,0.44786364,1.9530267,0.87213,0.04,0.04,-7.3203893,6.448689937591553,1.0084865,0.10688868,-0.04643482342362404,0.23619428
1087.916666666006,0.37461162,-0.7722873,-0.3855049,-2.440729,0.4506149,1.9553738,0.8726591,0.04,0.04,-7.293583,6.480585098266602,0.99990815,0.1069179,-0.045862894505262375,0.23439007
1087.9333333326726,0.37688303,-0.7722142,-0.3878448,-2.441239,0.45334888,1.9577065,0.873185,0.04,0.04,-7.2668624,6.5121169090271,0.99123555,0.10691948,-0.04529392719268799,0.23256272
1087.9499999993393,0.37914,-0.7721417,-0.39016956,-2.4417465,0.45606536,1.9600241,0.87370735,0.04,0.04,-7.2402005,6.543271541595459,0.98232454,0.10689262,-0.04472611844539642,0.2307125
1087.966666666006,0.38138208,-0.7720696,-0.39247906,-2.44225,0.45876393,1.9623264,0.8742264,0.04,0.04,-7.213734,6.574105739593506,0.9733998,0.10683855,-0.044163964688777924,0.22884391
1087.9833333326726,0.3836091,-0.77199787,-0.394773,-2.4427507,0.4614446,1.9646132,0.8747419,0.04,0.04,-7.1872706,6.604552268981934,0.9642144,0.106756635,-0.04360390454530716,0.2269597
1087.9999999993393,0.3858208,-0.7719268,-0.39705127,-2.4432473,0.4641068,1.9668844,0.8752539,0.04,0.04,-7.161024,6.63463830947876,0.95498735,0.10664581,-0.04304926097393036,0.22504854
1088.016666666006,0.38801685,-0.77185625,-0.39931345,-2.4437408,0.46675012,1.9691396,0.8757622,0.04,0.04,-7.1347857,6.664368629455566,0.94558597,0.10650687,-0.042495474219322205,0.22311746
1088.0333333326726,0.3901972,-0.77178633,-0.4015594,-2.4442303,0.46937448,1.9713788,0.87626696,0.04,0.04,-7.1087565,6.693742275238037,0.93602526,0.106340215,-0.041946426033973694,0.22116922
1088.0499999993392,0.3923615,-0.77171695,-0.4037889,-2.4447167,0.47197962,1.9736012,0.876768,0.04,0.04,-7.0827475,6.7227349281311035,0.92641526,0.10614618,-0.04139618203043938,0.21920449
1088.0666666660059,0.39450958,-0.77164793,-0.40600157,-2.445199,0.47456512,1.9758074,0.8772652,0.04,0.04,-7.057076,6.751417636871338,0.9166562,0.10592204,-0.04085536301136017,0.21721748
1088.0833333326725,0.3966412,-0.7715795,-0.4081973,-2.4456778,0.47713074,1.9779967,0.87775856,0.04,0.04,-7.0313654,6.779657363891602,0.9068068,0.1056711,-0.04031376168131828,0.21521558
1088.0999999993392,0.39875597,-0.7715117,-0.4103759,-2.4461522,0.4796763,1.9801687,0.8782481,0.04,0.04,-7.0059013,6.807618141174316,0.8968031,0.105391555,-0.03977690264582634,0.21319865
1088.1166666660058,0.40085384,-0.7714444,-0.41253698,-2.4466238,0.48220152,1.9823233,0.87873375,0.04,0.04,-6.9804735,6.835139274597168,0.8867835,0.10508448,-0.03924212232232094,0.21116391
1088.1333333326725,0.40293473,-0.77137774,-0.41468045,-2.4470909,0.48470607,1.9844599,0.8792154,0.04,0.04,-6.9553876,6.862397193908691,0.8765977,0.10474749,-0.03871310129761696,0.20911796
1088.1499999993391,0.40499815,-0.77131146,-0.41680604,-2.447554,0.48718977,1.986579,0.87969303,0.04,0.04,-6.9303093,6.889171600341797,0.8664058,0.10438389,-0.03818785771727562,0.20705673
1088.1666666660058,0.407044,-0.77124584,-0.4189135,-2.4480135,0.48965234,1.9886799,0.8801667,0.04,0.04,-6.9055014,6.91567850112915,0.85602176,0.103991225,-0.03766661509871483,0.20498185
1088.1833333326724,0.40907207,-0.77118087,-0.4210027,-2.448469,0.49209347,1.9907627,0.8806361,0.04,0.04,-6.880787,6.941743850708008,0.84568125,0.10357054,-0.03714878484606743,0.2028895
1088.199999999339,0.41108224,-0.77111644,-0.42307338,-2.4489198,0.49451298,1.992827,0.8811013,0.04,0.04,-6.856275,6.967493534088135,0.83515614,0.103123136,-0.036634139716625214,0.20078614
1088.2166666660057,0.41307423,-0.7710525,-0.42512542,-2.4493668,0.4969105,1.9948728,0.88156235,0.04,0.04,-6.8319106,6.992823600769043,0.8246741,0.10264831,-0.03612297400832176,0.19866742
1088.2333333326724,0.4150477,-0.7709894,-0.42715845,-2.44981,0.49928594,1.9968995,0.88201934,0.04,0.04,-6.8078146,7.017880439758301,0.81401366,0.10214505,-0.03561563417315483,0.19653626
1088.249999999339,0.4170027,-0.77092683,-0.4291724,-2.4502487,0.50163895,1.9989072,0.8824719,0.04,0.04,-6.783857,7.042518615722656,0.8034677,0.10161403,-0.0351141095161438,0.19439514
1088.2666666660057,0.41893893,-0.7708647,-0.4311671,-2.4506836,0.5039694,2.0008957,0.8829202,0.04,0.04,-6.760043,7.0667805671691895,0.7927258,0.10105669,-0.034613173454999924,0.19224377
1088.2833333326723,0.42085618,-0.7708032,-0.43314227,-2.4511137,0.5062768,2.0028648,0.8833641,0.04,0.04,-6.7365775,7.090775966644287,0.78194165,0.1004703,-0.03411957249045372,0.19008195
1088.299999999339,0.42275444,-0.7707426,-0.43509763,-2.4515398,0.5085615,2.0048141,0.8838035,0.04,0.04,-6.71315,7.1142897605896,0.7712072,0.09985891,-0.033626675605773926,0.18791303
1088.3166666660056,0.42463335,-0.7706824,-0.43703318,-2.451961,0.510823,2.006744,0.8842385,0.04,0.04,-6.6900253,7.137505054473877,0.76036894,0.099221475,-0.03313977271318436,0.18573579
1088.3333333326723,0.42649278,-0.77062273,-0.43894863,-2.452378,0.51306105,2.0086534,0.8846689,0.04,0.04,-6.6670127,7.160303115844727,0.7495621,0.09855744,-0.03265317156910896,0.18354799
1088.349999999339,0.42833245,-0.77056396,-0.44084394,-2.4527912,0.5152756,2.0105429,0.88509476,0.04,0.04,-6.6443114,7.182793140411377,0.7386485,0.09786804,-0.032173097133636475,0.18134843
1088.3666666660056,0.4301524,-0.7705058,-0.4427189,-2.4531994,0.5174663,2.012412,0.885516,0.04,0.04,-6.6218333,7.204983234405518,0.7278574,0.09715061,-0.03169699013233185,0.1791455
1088.3833333326722,0.43195248,-0.7704481,-0.4445733,-2.4536035,0.51963305,2.0142605,0.8859326,0.04,0.04,-6.5994964,7.2267327308654785,0.71690047,0.09640927,-0.031223857775330544,0.17693134
1088.399999999339,0.43373242,-0.77039105,-0.44640702,-2.4540026,0.5217756,2.0160882,0.88634455,0.04,0.04,-6.577474,7.248154640197754,0.70608336,0.0956413,-0.030757924541831017,0.17471002
1088.4166666660055,0.4354922,-0.770335,-0.4482199,-2.4543972,0.52389383,2.0178955,0.88675195,0.04,0.04,-6.555585,7.269233226776123,0.695109,0.09484988,-0.030293701216578484,0.1724849
1088.4333333326722,0.43723154,-0.77027947,-0.4500118,-2.4547877,0.52598727,2.019682,0.88715476,0.04,0.04,-6.533929,7.289917469024658,0.68430626,0.09403355,-0.02983177825808525,0.170253
1088.4499999993388,0.43895036,-0.7702243,-0.4517825,-2.4551735,0.52805614,2.0214474,0.88755256,0.04,0.04,-6.5126266,7.310370445251465,0.67335975,0.09319154,-0.02937508560717106,0.16801794
1088.4666666660055,0.4406485,-0.7701702,-0.45353195,-2.455554,0.5301001,2.023192,0.8879458,0.04,0.04,-6.49148,7.330367088317871,0.6625463,0.09232616,-0.028922008350491524,0.16577874
1088.4833333326721,0.44232592,-0.7701165,-0.45526,-2.4559302,0.532119,2.0249145,0.88833404,0.04,0.04,-6.470431,7.35000467300415,0.65162474,0.091438994,-0.028466640040278435,0.16353503
1088.4999999993388,0.44398233,-0.77006346,-0.45696658,-2.456302,0.53411275,2.0266156,0.88871753,0.04,0.04,-6.4498625,7.369369029998779,0.64091665,0.090527795,-0.02802145481109619,0.16129047
1088.5166666660054,0.4456177,-0.7700115,-0.45865133,-2.4566686,0.53608125,2.0282953,0.8890961,0.04,0.04,-6.429468,7.388403415679932,0.63012797,0.0895918,-0.027580425143241882,0.15904199
1088.533333332672,0.44723195,-0.7699599,-0.46031445,-2.457031,0.53802407,2.029953,0.8894697,0.04,0.04,-6.4092197,7.4070000648498535,0.6193131,0.0886368,-0.027140768244862556,0.15678565
1088.5499999993388,0.44882497,-0.769909,-0.4619556,-2.4573877,0.5399415,2.031589,0.8898384,0.04,0.04,-6.389365,7.425373077392578,0.6086891,0.0876582,-0.026708479970693588,0.15453133
1088.5666666660054,0.4503966,-0.76985896,-0.4635748,-2.45774,0.54183316,2.0332034,0.89020216,0.04,0.04,-6.3695874,7.443301200866699,0.5979076,0.08665937,-0.026274975389242172,0.152272
1088.583333332672,0.45194677,-0.7698095,-0.46517178,-2.458088,0.5436991,2.0347955,0.890561,0.03999999,0.04,-6.3501754,7.46096658706665,0.58739775,0.08563945,-0.025846317410469055,0.15001562
1088.5999999993387,0.45347536,-0.76976067,-0.46674654,-2.4584308,0.5455391,2.0363653,0.89091474,0.039999973,0.04,-6.331086,7.478342533111572,0.57677376,0.08459778,-0.02542261593043804,0.14775833
1088.6166666660054,0.45498225,-0.7697126,-0.4682992,-2.4587681,0.54735285,2.037913,0.89126337,0.03999995,0.04,-6.3121676,7.495288848876953,0.56636804,0.08353633,-0.025004805997014046,0.14549956
1088.633333332672,0.45646745,-0.76966536,-0.4698294,-2.459101,0.54914045,2.039438,0.89160717,0.039999943,0.04,-6.2933974,7.511943817138672,0.5558086,0.08245752,-0.024585379287600517,0.1432397
1088.6499999993387,0.45793083,-0.76961875,-0.47133714,-2.4594297,0.5509018,2.0409403,0.891946,0.039999932,0.04,-6.2750473,7.528276443481445,0.5455628,0.08135835,-0.02417377568781376,0.14098307
1088.6666666660053,0.45937228,-0.76957285,-0.47282243,-2.4597526,0.5526368,2.0424216,0.8922799,0.039999917,0.04,-6.257066,7.5444207191467285,0.53521115,0.08023759,-0.02376953884959221,0.13873012
1088.683333332672,0.46079198,-0.7695277,-0.47428507,-2.4600708,0.55434537,2.04388,0.89260864,0.0399999,0.04,-6.2390027,7.560000896453857,0.5249996,0.079101086,-0.023358043283224106,0.1364789
1088.6999999993386,0.46218953,-0.7694831,-0.47572494,-2.4603841,0.5560274,2.0453155,0.89293206,0.039999884,0.04,-6.2215123,7.575459003448486,0.5148294,0.07794667,-0.02295551635324955,0.13422997
1088.7166666660053,0.46356502,-0.7694394,-0.47714224,-2.4606924,0.5576829,2.0467281,0.8932506,0.039999872,0.04,-6.2041545,7.590457916259766,0.5048514,0.07677655,-0.022556213662028313,0.13198043
1088.733333332672,0.46491852,-0.7693963,-0.47853678,-2.4609962,0.5593116,2.0481184,0.8935641,0.039999858,0.04,-6.187102,7.605288028717041,0.49482882,0.075588904,-0.022161714732646942,0.12973624
1088.7499999993386,0.46624985,-0.7693539,-0.47990844,-2.4612942,0.56091404,2.0494857,0.89387226,0.039999854,0.04,-6.17033,7.619729042053223,0.4850466,0.07438441,-0.021770691499114037,0.12749933
1088.7666666660052,0.46755892,-0.7693122,-0.4812572,-2.4615877,0.56248957,2.05083,0.89417547,0.039999843,0.04,-6.1537266,7.633796691894531,0.4752558,0.073167086,-0.021381601691246033,0.12526353
1088.7833333326719,0.46884578,-0.7692715,-0.48258308,-2.461876,0.5640381,2.0521517,0.8944736,0.03999983,0.04,-6.1375775,7.647752285003662,0.46553344,0.07193325,-0.020999616011977196,0.12303725
1088.7999999993385,0.47011036,-0.76923114,-0.48388612,-2.4621587,0.5655601,2.0534506,0.8947665,0.03999981,0.04,-6.121493,7.661201000213623,0.4560386,0.07068672,-0.02061680145561695,0.12081205
1088.8166666660052,0.47135273,-0.76919156,-0.48516625,-2.4624379,0.56705505,2.0547268,0.89505416,0.03999979,0.04,-6.1057806,7.674466609954834,0.446477,0.069426544,-0.020237363874912262,0.118590005
1088.8333333326718,0.47257277,-0.7691529,-0.4864234,-2.4627113,0.5685234,2.0559802,0.89533687,0.039999783,0.04,-6.0904884,7.687502861022949,0.43725854,0.06815145,-0.019864685833454132,0.11638083
1088.8499999993385,0.47377053,-0.7691147,-0.48765758,-2.4629793,0.56996495,2.0572104,0.8956144,0.039999772,0.04,-6.075264,7.7001471519470215,0.4279359,0.06686501,-0.019493861123919487,0.11417713
1088.8666666660051,0.4749459,-0.7690774,-0.48886865,-2.463243,0.5713794,2.0584173,0.8958865,0.03999976,0.04,-6.060321,7.712433338165283,0.41888413,0.06556742,-0.01912526600062847,0.11198125
1088.8833333326718,0.4760991,-0.7690408,-0.49005687,-2.4635012,0.5727672,2.059601,0.8961535,0.039999753,0.04,-6.0458136,7.724615573883057,0.40986452,0.064259976,-0.018765151500701904,0.1097938
1088.8999999993384,0.47722998,-0.7690048,-0.49122223,-2.4637547,0.57412815,2.0607624,0.8964154,0.039999742,0.04,-6.031407,7.736333847045898,0.40106544,0.06294221,-0.018407369032502174,0.107615836
1088.916666666005,0.47833857,-0.7689698,-0.49236462,-2.464003,0.5754622,2.061901,0.8966721,0.039999723,0.04,-6.0173755,7.747913837432861,0.39222264,0.061614197,-0.01805136166512966,0.10544417
1088.9333333326717,0.479425,-0.7689352,-0.4934841,-2.4642463,0.5767697,2.0630171,0.8969238,0.039999712,0.04,-6.0035763,7.759101867675781,0.3837238,0.06027761,-0.017699269577860832,0.10328024
1088.9499999993384,0.48048913,-0.76890147,-0.4945808,-2.4644847,0.5780504,2.0641103,0.8971703,0.039999705,0.04,-5.990054,7.770111083984375,0.37512094,0.058932725,-0.017347753047943115,0.101127155
1088.966666666005,0.48153114,-0.7688684,-0.49565458,-2.4647179,0.5793043,2.0651805,0.8974117,0.039999697,0.04,-5.9768105,7.7807769775390625,0.36689556,0.05757954,-0.017001431435346603,0.09898472
1088.9833333326717,0.48255116,-0.768836,-0.49670565,-2.4649465,0.58053154,2.0662282,0.89764804,0.039999682,0.04,-5.9638553,7.791232109069824,0.35860246,0.056220762,-0.01665831357240677,0.09685353
1088.9999999993383,0.48354894,-0.76880443,-0.4977339,-2.4651701,0.58173233,2.067253,0.89787924,0.039999675,0.04,-5.951176,7.801355838775635,0.35063604,0.054854915,-0.016319623216986656,0.09473249
1089.016666666005,0.4845248,-0.76877356,-0.49873957,-2.4653883,0.58290654,2.0682552,0.89810526,0.039999664,0.04,-5.9387646,7.811276435852051,0.3427185,0.053483047,-0.015984226018190384,0.092625596
1089.0333333326716,0.4854786,-0.7687434,-0.49972257,-2.4656022,0.5840544,2.069235,0.89832616,0.039999656,0.04,-5.926595,7.820929527282715,0.33484793,0.05210848,-0.015651995316147804,0.09052876
1089.0499999993383,0.48641056,-0.76871383,-0.50068307,-2.4658105,0.585176,2.070193,0.89854217,0.03999964,0.04,-5.914754,7.83029317855835,0.32732028,0.05072841,-0.015323887579143047,0.08844292
1089.066666666005,0.48732078,-0.76868516,-0.501621,-2.4660144,0.5862714,2.0711281,0.898753,0.03999963,0.04,-5.9030976,7.839428901672363,0.31971705,0.04934568,-0.014995195902884007,0.08637022
1089.0833333326716,0.48820934,-0.768657,-0.5025367,-2.466213,0.58734053,2.0720408,0.89895886,0.03999962,0.04,-5.891786,7.848283290863037,0.31250706,0.04796078,-0.014672216027975082,0.08431367
1089.0999999993383,0.4890761,-0.76862967,-0.50343,-2.4664066,0.5883836,2.072931,0.8991596,0.039999608,0.04,-5.880743,7.856959819793701,0.3052404,0.046574328,-0.01435427088290453,0.08227151
1089.116666666005,0.48992136,-0.768603,-0.5043012,-2.4665968,0.5894007,2.0737996,0.8993554,0.039999604,0.04,-5.8698907,7.865273475646973,0.29829103,0.045187753,-0.014038573950529099,0.08024302
1089.1333333326716,0.49074522,-0.768577,-0.50515074,-2.4667804,0.5903923,2.074646,0.89954627,0.039999597,0.04,-5.8595405,7.873603820800781,0.29137132,0.043797556,-0.013729523867368698,0.07823296
1089.1499999993382,0.4915478,-0.7685517,-0.50597763,-2.46696,0.59135807,2.0754704,0.8997322,0.039999586,0.04,-5.849013,7.881309986114502,0.28466296,0.04241029,-0.013418293558061123,0.076233655
1089.1666666660049,0.49232924,-0.7685271,-0.50678325,-2.4671352,0.5922985,2.076273,0.8999132,0.03999958,0.04,-5.839187,7.889050006866455,0.27808458,0.041025203,-0.013115022331476212,0.07424903
1089.1833333326715,0.49308953,-0.7685029,-0.50756687,-2.4673047,0.59321356,2.077054,0.9000895,0.039999567,0.04,-5.8294387,7.896522045135498,0.27175245,0.039639138,-0.012816319242119789,0.07228473
1089.1999999993382,0.49382898,-0.76847965,-0.50832903,-2.467471,0.5941032,2.0778136,0.9002607,0.039999556,0.04,-5.819901,7.9036970138549805,0.26538426,0.03825771,-0.01251811720430851,0.07033726
1089.2166666660048,0.4945477,-0.768457,-0.50906974,-2.467631,0.5949678,2.0785518,0.90042716,0.03999955,0.04,-5.81081,7.910754680633545,0.25944412,0.036878634,-0.012228423729538918,0.06841215
1089.2333333326715,0.49524572,-0.76843494,-0.5097892,-2.467788,0.59580797,2.0792685,0.90058905,0.03999955,0.04,-5.801725,7.917429447174072,0.2533836,0.03550749,-0.01193762756884098,0.06649866
1089.2499999993381,0.49592316,-0.76841366,-0.51048774,-2.4679394,0.5966233,2.0799646,0.90074605,0.03999954,0.04,-5.7931547,7.924046039581299,0.24774364,0.034135528,-0.011657004244625568,0.064607054
1089.2666666660048,0.49658042,-0.7683929,-0.5111652,-2.468086,0.5974143,2.08064,0.90089846,0.039999533,0.04,-5.7845798,7.930320739746094,0.24209952,0.032772068,-0.011375206522643566,0.062732056
1089.2833333326714,0.49721748,-0.7683728,-0.51182204,-2.4682293,0.59818095,2.0812948,0.9010459,0.03999953,0.04,-5.776381,7.936436176300049,0.23653768,0.03141656,-0.011094306595623493,0.060877305
1089.299999999338,0.49783456,-0.7683534,-0.5124584,-2.4683661,0.5989236,2.0819285,0.901189,0.039999522,0.04,-5.768548,7.942426681518555,0.23138273,0.030065699,-0.010823134332895279,0.05904467
1089.3166666660047,0.4984319,-0.7683346,-0.51307434,-2.468501,0.59964263,2.082542,0.90132743,0.03999951,0.04,-5.760648,7.948003768920898,0.22612643,0.02872704,-0.010551033541560173,0.057230055
1089.3333333326714,0.4990097,-0.76831627,-0.51367,-2.4686296,0.600338,2.0831358,0.90146124,0.039999504,0.04,-5.7534227,7.953638076782227,0.22130531,0.027391654,-0.010291436687111855,0.055437252
1089.349999999338,0.49956807,-0.76829886,-0.5142457,-2.468756,0.6010101,2.0837097,0.90159076,0.039999496,0.04,-5.7460446,7.958834648132324,0.21633425,0.026071452,-0.010026414878666401,0.05366615
1089.3666666660047,0.50010735,-0.768282,-0.51480174,-2.4688761,0.60165924,2.0842638,0.9017156,0.039999496,0.04,-5.7392344,7.964026927947998,0.21185295,0.024757229,-0.009773381985723972,0.05192148
1089.3833333326713,0.5006277,-0.7682656,-0.51533836,-2.4689932,0.60228544,2.0847986,0.9018361,0.03999949,0.04,-5.7323327,7.968848705291748,0.2072083,0.023458784,-0.009518382139503956,0.05019525
1089.399999999338,0.5011294,-0.7682498,-0.5158557,-2.469105,0.6028891,2.0853138,0.9019525,0.039999485,0.04,-5.7259283,7.973610877990723,0.20298137,0.022169605,-0.009272078983485699,0.04849686
1089.4166666660046,0.5016127,-0.7682348,-0.51635396,-2.469212,0.6034707,2.0858102,0.9020644,0.039999478,0.04,-5.7195635,7.9781012535095215,0.19868848,0.02089504,-0.009026629850268364,0.046819627
1089.4333333326713,0.5020777,-0.7682202,-0.51683336,-2.469316,0.60403055,2.0862877,0.9021721,0.039999478,0.04,-5.7133985,7.982304573059082,0.19473447,0.019637922,-0.008782615885138512,0.045166202
1089.449999999338,0.5025248,-0.7682062,-0.51729417,-2.4694145,0.6045686,2.086747,0.90227574,0.039999478,0.04,-5.7077456,7.986615180969238,0.19084078,0.018391974,-0.008548776619136333,0.043539144
1089.4666666660046,0.50295424,-0.7681928,-0.51773703,-2.4695106,0.60508555,2.0871882,0.9023752,0.039999474,0.04,-5.701918,7.990406513214111,0.18714209,0.01716545,-0.008311668410897255,0.041937076
1089.4833333326712,0.50336623,-0.76818,-0.51816195,-2.4696012,0.6055815,2.087611,0.90247077,0.039999478,0.04,-5.6967196,7.99442195892334,0.18355583,0.015950928,-0.008084515109658241,0.04036184
1089.499999999338,0.503761,-0.7681676,-0.51856923,-2.4696896,0.6060568,2.088017,0.9025623,0.039999466,0.04,-5.691358,7.997885704040527,0.18017648,0.014756164,-0.007858874276280403,0.038813747
1089.5166666660045,0.504139,-0.76815593,-0.51895916,-2.4697745,0.6065118,2.0884056,0.90265,0.03999946,0.04,-5.68656,8.001505851745605,0.17694628,0.013574951,-0.0076401736587285995,0.03729412
1089.5333333326712,0.50450045,-0.7681448,-0.51933205,-2.4698553,0.6069468,2.0887764,0.9027338,0.039999466,0.04,-5.6818314,8.00487232208252,0.1737615,0.012412854,-0.007426131051033735,0.035803966
1089.5499999993378,0.50484574,-0.768134,-0.5196881,-2.4699354,0.60736233,2.089131,0.90281385,0.039999463,0.04,-5.677253,8.007955551147461,0.17087202,0.011270293,-0.007220292929559946,0.034341887
1089.5666666660045,0.50517505,-0.76812357,-0.5200279,-2.4700084,0.60775864,2.08947,0.90289026,0.039999463,0.04,-5.673245,8.011234283447266,0.1680246,0.01014162,-0.007026567589491606,0.03291578
1089.5833333326711,0.5054888,-0.76811385,-0.5203515,-2.4700809,0.6081362,2.0897923,0.9029631,0.039999455,0.04,-5.6686726,8.013716697692871,0.165255,0.009041283,-0.006823983509093523,0.03151417
1089.5999999993378,0.5057872,-0.76810473,-0.5206593,-2.4701462,0.6084954,2.090099,0.9030323,0.03999945,0.04,-5.665054,8.016698837280273,0.1627408,0.007956456,-0.00663751782849431,0.030147275
1089.6166666660044,0.5060708,-0.76809597,-0.52095175,-2.470211,0.6088366,2.0903904,0.90309805,0.039999444,0.04,-5.660834,8.018879890441895,0.16028257,0.0069030137,-0.006442567799240351,0.028806191
1089.633333332671,0.5063396,-0.76808757,-0.52122915,-2.4702687,0.6091602,2.0906665,0.90316033,0.039999448,0.04,-5.6575875,8.021553039550781,0.15801479,0.0058669937,-0.006263416726142168,0.027503185
1089.6499999993378,0.5065942,-0.76807964,-0.5214919,-2.470326,0.6094667,2.090928,0.90321946,0.039999444,0.04,-5.653726,8.023445129394531,0.15579489,0.004863446,-0.006075776647776365,0.026224667
1089.6666666660044,0.506835,-0.76807225,-0.52174044,-2.4703798,0.60975647,2.0911758,0.9032752,0.03999944,0.04,-5.6507936,8.025863647460938,0.15381336,0.0038782253,-0.005902518518269062,0.024989411
1089.683333332671,0.5070622,-0.7680653,-0.52197516,-2.4704294,0.6100302,2.0914094,0.90332794,0.039999437,0.04,-5.6476655,8.02778434753418,0.15195274,0.0029198835,-0.005733029916882515,0.023783281
1089.6999999993377,0.50727636,-0.7680586,-0.52219623,-2.4704788,0.61028796,2.0916297,0.9033776,0.039999444,0.04,-5.6446166,8.029594421386719,0.15007411,0.0019898573,-0.005563457030802965,0.022610646
1089.7166666660044,0.5074778,-0.76805234,-0.5224042,-2.4705222,0.61053056,2.091837,0.90342426,0.039999437,0.04,-5.642178,8.031536102294922,0.14857428,0.0010817238,-0.005410404875874519,0.021483952
1089.733333332671,0.5076672,-0.7680467,-0.52259946,-2.4705641,0.6107583,2.0920315,0.9034681,0.039999433,0.04,-5.6392226,8.032882690429688,0.14686126,0.00020939748,-0.0052496143616735935,0.020382501
1089.7499999993377,0.50784445,-0.76804125,-0.5227827,-2.4706054,0.61097187,2.0922132,0.9035092,0.039999437,0.04,-5.6369433,8.034466743469238,0.1455701,-0.0006362459,-0.005101372487843037,0.019321628
1089.7666666660043,0.5080103,-0.76803625,-0.522954,-2.470641,0.61117166,2.0923839,0.9035476,0.039999437,0.04,-5.634852,8.03608226776123,0.1442963,-0.0014589141,-0.004967593587934971,0.01830917
1089.783333332671,0.5081651,-0.76803136,-0.5231138,-2.470675,0.61135817,2.092543,0.90358347,0.03999943,0.04,-5.632329,8.03708553314209,0.14291117,-0.002242533,-0.004824379459023476,0.017323686
1089.7999999993376,0.50830954,-0.76802707,-0.52326286,-2.4707086,0.6115318,2.0926914,0.9036169,0.039999433,0.04,-5.6304464,8.038346290588379,0.14189821,-0.002998304,-0.004692920483648777,0.016380465
1089.8166666660043,0.5084437,-0.7680231,-0.52340156,-2.4707377,0.61169344,2.0928292,0.9036481,0.039999433,0.04,-5.6287413,8.039603233337402,0.14090946,-0.0037244915,-0.0045728525146842,0.015485121
1089.833333332671,0.5085682,-0.7680194,-0.5235302,-2.4707644,0.6118436,2.0929573,0.90367717,0.039999437,0.04,-5.6266828,8.04037857055664,0.13993333,-0.004414832,-0.004449856001883745,0.014623882
1089.8499999993376,0.5086835,-0.768016,-0.5236495,-2.4707909,0.6119825,2.093076,0.9037039,0.039999437,0.04,-5.6250305,8.041274070739746,0.13908356,-0.0050715953,-0.004333400167524815,0.013804351
1089.8666666660042,0.50879014,-0.76801276,-0.52375966,-2.4708157,0.6121112,2.093186,0.90372854,0.039999437,0.04,-5.62365,8.042231559753418,0.1384199,-0.0056977756,-0.004228049889206886,0.013030358
1089.8833333326709,0.5088886,-0.7680098,-0.52386194,-2.4708369,0.61223,2.0932865,0.9037512,0.039999437,0.04,-5.6222596,8.042990684509277,0.13773043,-0.00628889,-0.0041291420347988605,0.012302707
1089.8999999993375,0.5089794,-0.768007,-0.5239552,-2.4708557,0.6123395,2.093379,0.90377223,0.03999943,0.04,-5.620704,8.043516159057617,0.13711518,-0.006841614,-0.004034082870930433,0.011616067
1089.9166666660042,0.5090629,-0.76800454,-0.5240421,-2.4708745,0.6124398,2.0934641,0.90379167,0.039999433,0.04,-5.6194954,8.043985366821289,0.13662535,-0.007353992,-0.003946014679968357,0.010974648
1089.9333333326708,0.5091398,-0.7680023,-0.5241215,-2.4708922,0.61253214,2.093544,0.90380955,0.039999433,0.04,-5.61839,8.044684410095215,0.13621244,-0.007835098,-0.0038672129157930613,0.010381701
1089.9499999993375,0.5092104,-0.76800025,-0.52419484,-2.470908,0.6126174,2.093618,0.90382594,0.039999433,0.04,-5.6173544,8.045116424560547,0.1358038,-0.008276839,-0.0037899273447692394,0.009836343
1089.9666666660041,0.5092754,-0.7679984,-0.5242622,-2.470922,0.6126959,2.0936856,0.903841,0.03999943,0.04,-5.6162543,8.045492172241211,0.13544856,-0.008683938,-0.003714085090905428,0.009334947
1089.9833333326708,0.5093353,-0.76799667,-0.52432406,-2.4709349,0.612768,2.0937462,0.9038548,0.039999425,0.04,-5.6153116,8.045825004577637,0.13512339,-0.009057272,-0.0036445725709199905,0.008869765
1089.9999999993374,0.5093904,-0.7679951,-0.52438116,-2.470946,0.61283433,2.093804,0.90386754,0.039999425,0.04,-5.614526,8.04614543914795,0.13491306,-0.009399455,-0.003588762367144227,0.008444401
1090.016666666004,0.50944114,-0.7679937,-0.5244337,-2.4709573,0.61289537,2.0938563,0.9038792,0.039999425,0.04,-5.613614,8.046417236328125,0.13456997,-0.009713691,-0.0035258177667856216,0.008050434
1090.0333333326707,0.5094879,-0.7679924,-0.5244819,-2.470968,0.61295164,2.0939033,0.90389013,0.03999942,0.04,-5.613034,8.04680347442627,0.13436949,-0.010004585,-0.00347432354465127,0.0076888734
1090.0499999993374,0.509531,-0.7679912,-0.52452624,-2.4709778,0.6130035,2.0939476,0.9039,0.039999425,0.04,-5.612462,8.047089576721191,0.1342117,-0.010273585,-0.0034345693420618773,0.0073596714
1090.066666666004,0.5095705,-0.7679902,-0.5245672,-2.4709876,0.613051,2.093988,0.9039093,0.03999943,0.04,-5.6118226,8.047318458557129,0.13395587,-0.010520195,-0.0033930595964193344,0.0070533664
1090.0833333326707,0.5096069,-0.76798916,-0.5246048,-2.4709957,0.61309475,2.0940251,0.9039177,0.039999425,0.04,-5.6113253,8.047632217407227,0.13379909,-0.010750219,-0.0033586611971259117,0.0067745303
1090.0999999993373,0.5096402,-0.7679882,-0.5246394,-2.4710028,0.6131351,2.0940616,0.9039255,0.03999942,0.04,-5.6107354,8.047749519348145,0.13357092,-0.010958584,-0.0033239065669476986,0.00651659
1090.116666666004,0.50967103,-0.76798725,-0.5246713,-2.4710095,0.6131722,2.0940917,0.90393275,0.039999425,0.04,-5.6101475,8.047919273376465,0.13334797,-0.011151135,-0.003279814962297678,0.0062772436
1090.1333333326706,0.5096994,-0.7679865,-0.52470064,-2.4710155,0.6132064,2.0941207,0.90393925,0.03999942,0.04,-5.609846,8.048121452331543,0.1332903,-0.011328683,-0.003256490919739008,0.0060594673
1090.1499999993373,0.50972533,-0.76798576,-0.52472746,-2.4710207,0.6132378,2.0941496,0.90394527,0.03999942,0.04,-5.609377,8.04824447631836,0.13312101,-0.011490604,-0.00322777614928782,0.00585739
1090.166666666004,0.50974923,-0.7679851,-0.5247522,-2.4710252,0.6132666,2.0941722,0.90395087,0.039999425,0.04,-5.6089287,8.048372268676758,0.13293542,-0.011638947,-0.003190395887941122,0.0056692124
1090.1833333326706,0.50977117,-0.7679845,-0.524775,-2.4710295,0.613293,2.0941942,0.9039562,0.03999943,0.04,-5.6086664,8.048505783081055,0.13293277,-0.011774901,-0.0031728229951113462,0.005500367
1090.1999999993373,0.50979143,-0.767984,-0.52479595,-2.4710333,0.6133174,2.0942156,0.9039608,0.039999425,0.04,-5.608336,8.048657417297363,0.13278595,-0.011901172,-0.003151563461869955,0.0053436724
1090.216666666004,0.5098101,-0.76798356,-0.5248152,-2.471037,0.61333984,2.0942366,0.90396506,0.039999433,0.04,-5.6080184,8.048735618591309,0.13267078,-0.012015628,-0.003126496681943536,0.0051972438
1090.2333333326706,0.5098274,-0.7679832,-0.52483296,-2.4710405,0.61336046,2.094254,0.90396893,0.03999943,0.04,-5.6077332,8.048869132995605,0.1325603,-0.012120757,-0.0030974075198173523,0.0050660814
1090.2499999993372,0.5098431,-0.76798284,-0.5248495,-2.4710438,0.61337936,2.0942686,0.90397257,0.039999437,0.04,-5.607577,8.048975944519043,0.13256316,-0.012217756,-0.0030811233446002007,0.0049413876
1090.2666666660039,0.50985765,-0.7679825,-0.52486455,-2.4710472,0.6133969,2.0942829,0.903976,0.039999433,0.04,-5.607376,8.049121856689453,0.13250771,-0.012308433,-0.0030718131456524134,0.0048321015
1090.2833333326705,0.5098711,-0.7679821,-0.5248783,-2.4710503,0.6134132,2.0942967,0.90397924,0.03999943,0.04,-5.6071925,8.049202919006348,0.13241178,-0.012392782,-0.003060701536014676,0.0047279205
1090.2999999993372,0.50988346,-0.7679818,-0.52489126,-2.4710531,0.61342806,2.0943105,0.90398204,0.039999425,0.04,-5.607003,8.049263000488281,0.1323403,-0.012470502,-0.003048261161893606,0.004632402
1090.3166666660038,0.5098948,-0.7679815,-0.52490294,-2.471056,0.6134417,2.0943236,0.90398467,0.03999943,0.04,-5.6067805,8.049358367919922,0.13223688,-0.01254205,-0.0030310985166579485,0.00454283
1090.3333333326705,0.5099052,-0.76798123,-0.5249139,-2.4710586,0.61345446,2.0943358,0.903987,0.039999425,0.04,-5.6066484,8.049431800842285,0.13219897,-0.0126078045,-0.0030142751056700945,0.0044646296
1090.3499999993371,0.50991476,-0.767981,-0.52492374,-2.4710612,0.61346585,2.0943437,0.90398926,0.03999943,0.04,-5.4802856,7.73661470413208,0.22415668,0.0,-0.0,0.0
1090.3666666660038,0.50991476,-0.767981,-0.52492374,-2.4710612,0.61346585,2.0943437,0.90398926,0.03999943,0.04,-5.606308,8.049088478088379,0.13266048,0.0,-0.0,0.0
1090.3833333326704,0.50991476,-0.767981,-0.52492374,-2.4710612,0.61346585,2.0943437,0.90398926,0.03999943,0.04,-5.606308,8.049088478088379,0.13266048,0.0,-0.0,0.0
1090.399999999337,0.50991476,-0.767981,-0.52492374,-2.4710612,0.61346585,2.0943437,0.90398926,0.03999943,0.04,-5.606308,8.049088478088379,0.13266048,0.0,-0.0,0.0
1090.4166666660037,0.50991476,-0.767981,-0.52492374,-2.4710612,0.61346585,2.0943437,0.90398926,0.03999943,0.04,-5.606308,8.049088478088379,0.13266048,0.0,-0.0,0.0
1090.4333333326704,0.50991476,-0.767981,-0.52492374,-2.4710612,0.61346585,2.0943437,0.90398926,0.03999943,0.04,-5.606308,8.049088478088379,0.13266048,0.0,-0.0,0.0
1090.449999999337,0.50991476,-0.767981,-0.52492374,-2.4710612,0.61346585,2.0943437,0.90398926,0.03999943,0.04,-5.606308,8.049088478088379,0.13266048,0.0,-0.0,0.0
1090.4666666660037,0.50991476,-0.767981,-0.52492374,-2.4710612,0.61346585,2.0943437,0.90398926,0.03999943,0.04,-5.606308,8.049088478088379,0.13266048,0.0,-0.0,0.0
1090.4833333326703,0.50991476,-0.767981,-0.52492374,-2.4710612,0.61346585,2.0943437,0.90398926,0.03999943,0.04,-5.606308,8.049088478088379,0.13266048,0.0,-0.0,0.0
1090.499999999337,0.50991476,-0.767981,-0.52492374,-2.4710612,0.61346585,2.0943437,0.90398926,0.03999943,0.04,-5.606308,8.049088478088379,0.13266048,0.0,-0.0,0.0
1090.5166666660036,0.50991476,-0.767981,-0.52492374,-2.4710612,0.61346585,2.0943437,0.90398926,0.03999943,0.04,-5.606308,8.049088478088379,0.13266048,0.0,-0.0,0.0
1090.5333333326703,0.50991476,-0.767981,-0.52492374,-2.4710612,0.61346585,2.0943437,0.90398926,0.03999943,0.04,-5.606308,8.049088478088379,0.13266048,0.0,-0.0,0.0
1090.549999999337,0.50991476,-0.767981,-0.52492374,-2.4710612,0.61346585,2.0943437,0.90398926,0.03999943,0.04,-5.606308,8.049088478088379,0.13266048,0.0,-0.0,0.0
1090.5666666660036,0.50991476,-0.767981,-0.52492374,-2.4710612,0.61346585,2.0943437,0.90398926,0.03999943,0.04,-5.606308,8.049088478088379,0.13266048,0.0,-0.0,0.0
1090.5833333326702,0.50991476,-0.767981,-0.52492374,-2.4710612,0.61346585,2.0943437,0.90398926,0.03999943,0.04,-5.606308,8.049088478088379,0.13266048,0.0,-0.0,0.0
1090.599999999337,0.50991476,-0.767981,-0.52492374,-2.4710612,0.61346585,2.0943437,0.90398926,0.03999943,0.04,-5.606308,8.049088478088379,0.13266048,0.0,-0.0,0.0
1090.6166666660035,0.50991476,-0.767981,-0.52492374,-2.4710612,0.61346585,2.0943437,0.90398926,0.03999943,0.04,-5.606308,8.049088478088379,0.13266048,0.0,-0.0,0.0
1090.6333333326702,0.50991476,-0.767981,-0.52492374,-2.4710612,0.61346585,2.0943437,0.90398926,0.03999943,0.04,-5.606308,8.049088478088379,0.13266048,0.0,-0.0,0.0
1090.6499999993368,0.50991476,-0.767981,-0.52492374,-2.4710612,0.61346585,2.0943437,0.90398926,0.03999943,0.04,-5.606308,8.049088478088379,0.13266048,0.0,-0.0,0.0
1090.6666666660035,0.50991476,-0.767981,-0.52492374,-2.4710612,0.61346585,2.0943437,0.90398926,0.03999943,0.04,-5.606308,8.049088478088379,0.13266048,0.0,-0.0,0.0
1090.6833333326701,0.50991476,-0.767981,-0.52492374,-2.4710612,0.61346585,2.0943437,0.90398926,0.03999943,0.04,-5.606308,8.049088478088379,0.13266048,0.0,-0.0,0.0
1090.6999999993368,0.50991476,-0.767981,-0.52492374,-2.4710612,0.61346585,2.0943437,0.90398926,0.03999943,0.04,-5.606308,8.049088478088379,0.13266048,0.0,-0.0,0.0
1090.7166666660034,0.50991476,-0.767981,-0.52492374,-2.4710612,0.61346585,2.0943437,0.90398926,0.03999943,0.04,-5.606308,8.049088478088379,0.13266048,0.0,-0.0,0.0
1090.73333333267,0.50991476,-0.767981,-0.52492374,-2.4710612,0.61346585,2.0943437,0.90398926,0.03999943,0.04,-5.606308,8.049088478088379,0.13266048,0.0,-0.0,0.0
1090.7499999993368,0.50991476,-0.767981,-0.52492374,-2.4710612,0.61346585,2.0943437,0.90398926,0.03999943,0.04,-5.606308,8.049088478088379,0.13266048,0.0,-0.0,0.0
1090.7666666660034,0.50991476,-0.767981,-0.52492374,-2.4710612,0.61346585,2.0943437,0.90398926,0.03999943,0.04,-5.606308,8.049088478088379,0.13266048,0.0,-0.0,0.0
1090.78333333267,0.50991476,-0.767981,-0.52492374,-2.4710612,0.61346585,2.0943437,0.90398926,0.03999943,0.04,-5.606308,8.049088478088379,0.13266048,0.0,-0.0,0.0
1090.7999999993367,0.50991476,-0.767981,-0.52492374,-2.4710612,0.61346585,2.0943437,0.90398926,0.03999943,0.04,-5.606308,8.049088478088379,0.13266048,0.0,-0.0,0.0
1090.8166666660034,0.50991476,-0.767981,-0.52492374,-2.4710612,0.61346585,2.0943437,0.90398926,0.03999943,0.04,-5.606308,8.049088478088379,0.13266048,0.0,-0.0,0.0
1090.83333333267,0.50991476,-0.767981,-0.52492374,-2.4710612,0.61346585,2.0943437,0.90398926,0.03999943,0.04,-5.606308,8.049088478088379,0.13266048,0.0,-0.0,0.0
1090.8499999993367,0.50991476,-0.767981,-0.52492374,-2.4710612,0.61346585,2.0943437,0.90398926,0.03999943,0.04,-5.606308,8.049088478088379,0.13266048,0.0,-0.0,0.0
1090.8666666660033,0.50991476,-0.767981,-0.52492374,-2.4710612,0.61346585,2.0943437,0.90398926,0.03999943,0.04,-5.606308,8.049088478088379,0.13266048,0.0,-0.0,0.0
1090.88333333267,0.50991476,-0.767981,-0.52492374,-2.4710612,0.61346585,2.0943437,0.90398926,0.03999943,0.04,-5.606308,8.049088478088379,0.13266048,0.0,-0.0,0.0
1090.8999999993366,0.50991476,-0.767981,-0.52492374,-2.4710612,0.61346585,2.0943437,0.90398926,0.03999943,0.04,-5.606308,8.049088478088379,0.13266048,0.0,-0.0,0.0
1090.9166666660033,0.50991476,-0.767981,-0.52492374,-2.4710612,0.61346585,2.0943437,0.90398926,0.03999943,0.04,-5.606308,8.049088478088379,0.13266048,0.0,-0.0,0.0
1090.93333333267,0.50991476,-0.767981,-0.52492374,-2.4710612,0.61346585,2.0943437,0.90398926,0.03999943,0.04,-5.606308,8.049088478088379,0.13266048,0.0,-0.0,0.0
1090.9499999993366,0.50991476,-0.767981,-0.52492374,-2.4710612,0.61346585,2.0943437,0.90398926,0.03999943,0.04,-5.606308,8.049088478088379,0.13266048,0.0,-0.0,0.0
1090.9666666660032,0.50991476,-0.767981,-0.52492374,-2.4710612,0.61346585,2.0943437,0.90398926,0.03999943,0.04,-5.606308,8.049088478088379,0.13266048,0.0,-0.0,0.0
1090.9833333326699,0.50991476,-0.767981,-0.52492374,-2.4710612,0.61346585,2.0943437,0.90398926,0.03999943,0.04,-5.606308,8.049088478088379,0.13266048,0.0,-0.0,0.0
1090.9999999993365,0.50991476,-0.767981,-0.52492374,-2.4710612,0.61346585,2.0943437,0.90398926,0.03999943,0.04,-5.606308,8.049088478088379,0.13266048,0.0,-0.0,0.0
1091.0166666660032,0.50991476,-0.767981,-0.52492374,-2.4710612,0.61346585,2.0943437,0.90398926,0.03999943,0.04,-5.606308,8.049088478088379,0.13266048,0.0,-0.0,0.0
1091.0333333326698,0.50991476,-0.767981,-0.52492374,-2.4710612,0.61346585,2.0943437,0.90398926,0.03999943,0.04,-5.606308,8.049088478088379,0.13266048,0.0,-0.0,0.0
1091.0499999993365,0.50991476,-0.767981,-0.52492374,-2.4710612,0.61346585,2.0943437,0.90398926,0.03999943,0.04,-5.606308,8.049088478088379,0.13266048,0.0,-0.0,0.0
1091.0666666660031,0.50991476,-0.767981,-0.52492374,-2.4710612,0.61346585,2.0943437,0.90398926,0.03999943,0.04,-5.606308,8.049088478088379,0.13266048,0.0,-0.0,0.0
1091.0833333326698,0.50991476,-0.767981,-0.52492374,-2.4710612,0.61346585,2.0943437,0.90398926,0.03999943,0.04,-5.606308,8.049088478088379,0.13266048,0.0,-0.0,0.0
1091.0999999993364,0.50991476,-0.767981,-0.52492374,-2.4710612,0.61346585,2.0943437,0.90398926,0.03999943,0.04,-5.606308,8.049088478088379,0.13266048,0.0,-0.0,0.0
1091.116666666003,0.50991476,-0.767981,-0.52492374,-2.4710612,0.61346585,2.0943437,0.90398926,0.03999943,0.04,-5.606308,8.049088478088379,0.13266048,0.0,-0.0,0.0
1091.1333333326697,0.50991476,-0.767981,-0.52492374,-2.4710612,0.61346585,2.0943437,0.90398926,0.03999943,0.04,-5.606308,8.049088478088379,0.13266048,0.0,-0.0,0.0
1091.1499999993364,0.50991476,-0.767981,-0.52492374,-2.4710612,0.61346585,2.0943437,0.90398926,0.03999943,0.04,-5.606308,8.049088478088379,0.13266048,0.0,-0.0,0.0
1091.166666666003,0.50991476,-0.767981,-0.52492374,-2.4710612,0.61346585,2.0943437,0.90398926,0.03999943,0.04,-5.606308,8.049088478088379,0.13266048,0.0,-0.0,0.0
1091.1833333326697,0.50991476,-0.767981,-0.52492374,-2.4710612,0.61346585,2.0943437,0.90398926,0.03999943,0.04,-5.606308,8.049088478088379,0.13266048,0.0,-0.0,0.0
1091.1999999993363,0.50991476,-0.767981,-0.52492374,-2.4710612,0.61346585,2.0943437,0.90398926,0.03999943,0.04,-5.606308,8.049088478088379,0.13266048,0.0,-0.0,0.0
1091.216666666003,0.50991476,-0.767981,-0.52492374,-2.4710612,0.61346585,2.0943437,0.90398926,0.03999943,0.04,-5.606308,8.049088478088379,0.13266048,0.0,-0.0,0.0
1091.2333333326696,0.50991476,-0.767981,-0.52492374,-2.4710612,0.61346585,2.0943437,0.90398926,0.03999943,0.04,-5.606308,8.049088478088379,0.13266048,0.0,-0.0,0.0
1091.2499999993363,0.50991476,-0.767981,-0.52492374,-2.4710612,0.61346585,2.0943437,0.90398926,0.03999943,0.04,-5.606308,8.049088478088379,0.13266048,0.0,-0.0,0.0
1091.266666666003,0.50991476,-0.767981,-0.52492374,-2.4710612,0.61346585,2.0943437,0.90398926,0.03999943,0.04,-5.606308,8.049088478088379,0.13266048,0.0,-0.0,0.0
1091.2833333326696,0.50991476,-0.767981,-0.52492374,-2.4710612,0.61346585,2.0943437,0.90398926,0.03999943,0.04,-5.606308,8.049088478088379,0.13266048,0.0,-0.0,0.0
1091.2999999993363,0.50991476,-0.767981,-0.52492374,-2.4710612,0.61346585,2.0943437,0.90398926,0.03999943,0.04,-5.606308,8.049088478088379,0.13266048,0.0,-0.0,0.0
1091.316666666003,0.50991476,-0.767981,-0.52492374,-2.4710612,0.61346585,2.0943437,0.90398926,0.03999943,0.04,-5.606308,8.049088478088379,0.13266048,0.0,-0.0,0.0
1091.3333333326696,0.50991476,-0.767981,-0.52492374,-2.4710612,0.61346585,2.0943437,0.90398926,0.03999943,0.04,-5.606308,8.049088478088379,0.13266048,0.0,-0.0,0.0
1091.3499999993362,0.50991476,-0.767981,-0.52492374,-2.4710612,0.61346585,2.0943437,0.90398926,0.03999943,0.04,-5.606308,8.049088478088379,0.13266048,0.0,-0.0,0.0
1091.3666666660029,0.50991476,-0.767981,-0.52492374,-2.4710612,0.61346585,2.0943437,0.90398926,0.03999943,0.04,-5.606308,8.049088478088379,0.13266048,0.0,-0.0,0.0
1091.3833333326695,0.50991476,-0.767981,-0.52492374,-2.4710612,0.61346585,2.0943437,0.90398926,0.03999943,0.04,-5.606308,8.049088478088379,0.13266048,0.0,-0.0,0.0
1091.3999999993362,0.50991476,-0.767981,-0.52492374,-2.4710612,0.61346585,2.0943437,0.90398926,0.03999943,0.04,-5.606308,8.049088478088379,0.13266048,0.0,-0.0,0.0
1091.4166666660028,0.50991476,-0.767981,-0.52492374,-2.4710612,0.61346585,2.0943437,0.90398926,0.03999943,0.04,-5.606308,8.049088478088379,0.13266048,0.0,-0.0,0.0
1091.4333333326695,0.50991476,-0.767981,-0.52492374,-2.4710612,0.61346585,2.0943437,0.90398926,0.03999943,0.04,-5.606308,8.049088478088379,0.13266048,0.0,-0.0,0.0
1091.4499999993361,0.50991476,-0.767981,-0.52492374,-2.4710612,0.61346585,2.0943437,0.90398926,0.03999943,0.04,-5.606308,8.049088478088379,0.13266048,0.0,-0.0,0.0
1091.4666666660028,0.50991476,-0.767981,-0.52492374,-2.4710612,0.61346585,2.0943437,0.90398926,0.03999943,0.04,-5.606308,8.049088478088379,0.13266048,0.0,-0.0,0.0
1091.4833333326694,0.50991476,-0.767981,-0.52492374,-2.4710612,0.61346585,2.0943437,0.90398926,0.03999943,0.04,-5.606308,8.049088478088379,0.13266048,0.0,-0.0,0.0
1091.499999999336,0.50991476,-0.767981,-0.52492374,-2.4710612,0.61346585,2.0943437,0.90398926,0.03999943,0.04,-5.606308,8.049088478088379,0.13266048,0.0,-0.0,0.0
1091.5166666660027,0.50991476,-0.767981,-0.52492374,-2.4710612,0.61346585,2.0943437,0.90398926,0.03999943,0.04,-5.606308,8.049088478088379,0.13266048,0.0,-0.0,0.0
1091.5333333326694,0.50991476,-0.767981,-0.52492374,-2.4710612,0.61346585,2.0943437,0.90398926,0.03999943,0.04,-5.606308,8.049088478088379,0.13266048,0.0,-0.0,0.0
1091.549999999336,0.50991476,-0.767981,-0.52492374,-2.4710612,0.61346585,2.0943437,0.90398926,0.03999943,0.04,-5.606308,8.049088478088379,0.13266048,0.0,-0.0,0.0
1091.5666666660027,0.50991476,-0.767981,-0.52492374,-2.4710612,0.61346585,2.0943437,0.90398926,0.03999943,0.04,-5.606308,8.049088478088379,0.13266048,0.0,-0.0,0.0
1091.5833333326693,0.50991476,-0.767981,-0.52492374,-2.4710612,0.61346585,2.0943437,0.90398926,0.03999943,0.04,-5.606308,8.049088478088379,0.13266048,0.0,-0.0,0.0
1091.599999999336,0.50991476,-0.767981,-0.52492374,-2.4710612,0.61346585,2.0943437,0.90398926,0.03999943,0.04,-5.606308,8.049088478088379,0.13266048,0.0,-0.0,0.0
1091.6166666660026,0.50991476,-0.767981,-0.52492374,-2.4710612,0.61346585,2.0943437,0.90398926,0.03999943,0.04,-5.606308,8.049088478088379,0.13266048,0.0,-0.0,0.0
1091.6333333326693,0.50991476,-0.767981,-0.52492374,-2.4710612,0.61346585,2.0943437,0.90398926,0.03999943,0.04,-5.606308,8.049088478088379,0.13266048,0.0,-0.0,0.0
1091.649999999336,0.50991476,-0.767981,-0.52492374,-2.4710612,0.61346585,2.0943437,0.90398926,0.03999943,0.04,-5.606308,8.049088478088379,0.13266048,0.0,-0.0,0.0
1091.6666666660026,0.50991476,-0.767981,-0.52492374,-2.4710612,0.61346585,2.0943437,0.90398926,0.03999943,0.04,-5.606308,8.049088478088379,0.13266048,0.0,-0.0,0.0
1091.6833333326692,0.50991476,-0.767981,-0.52492374,-2.4710612,0.61346585,2.0943437,0.90398926,0.03999943,0.04,-5.606308,8.049088478088379,0.13266048,0.0,-0.0,0.0
1091.699999999336,0.50991476,-0.767981,-0.52492374,-2.4710612,0.61346585,2.0943437,0.90398926,0.03999943,0.04,-5.606308,8.049088478088379,0.13266048,0.0,-0.0,0.0
1091.7166666660025,0.50991476,-0.767981,-0.52492374,-2.4710612,0.61346585,2.0943437,0.90398926,0.03999943,0.04,-5.606308,8.049088478088379,0.13266048,0.0,-0.0,0.0
1091.7333333326692,0.50991476,-0.767981,-0.52492374,-2.4710612,0.61346585,2.0943437,0.90398926,0.03999943,0.04,-5.606308,8.049088478088379,0.13266048,0.0,-0.0,0.0
1091.7499999993358,0.50991476,-0.767981,-0.52492374,-2.4710612,0.61346585,2.0943437,0.90398926,0.03999943,0.04,-5.606308,8.049088478088379,0.13266048,0.0,-0.0,0.0
1091.7666666660025,0.50991476,-0.767981,-0.52492374,-2.4710612,0.61346585,2.0943437,0.90398926,0.03999943,0.04,-5.606308,8.049088478088379,0.13266048,0.0,-0.0,0.0
1091.7833333326691,0.50991476,-0.767981,-0.52492374,-2.4710612,0.61346585,2.0943437,0.90398926,0.03999943,0.04,-5.606308,8.049088478088379,0.13266048,0.0,-0.0,0.0
1091.7999999993358,0.50991476,-0.767981,-0.52492374,-2.4710612,0.61346585,2.0943437,0.90398926,0.03999943,0.04,-5.606308,8.049088478088379,0.13266048,0.0,-0.0,0.0
1091.8166666660024,0.50991476,-0.767981,-0.52492374,-2.4710612,0.61346585,2.0943437,0.90398926,0.03999943,0.04,-5.606308,8.049088478088379,0.13266048,0.0,-0.0,0.0
1091.833333332669,0.50991476,-0.767981,-0.52492374,-2.4710612,0.61346585,2.0943437,0.90398926,0.03999943,0.04,-5.606308,8.049088478088379,0.13266048,0.0,-0.0,0.0
1091.8499999993358,0.50991476,-0.767981,-0.52492374,-2.4710612,0.61346585,2.0943437,0.90398926,0.03999943,0.04,-5.606308,8.049088478088379,0.13266048,0.0,-0.0,0.0
1091.8666666660024,0.50991476,-0.767981,-0.52492374,-2.4710612,0.61346585,2.0943437,0.90398926,0.03999943,0.04,-5.606308,8.049088478088379,0.13266048,0.0,-0.0,0.0
1091.883333332669,0.50991476,-0.767981,-0.52492374,-2.4710612,0.61346585,2.0943437,0.90398926,0.03999943,0.04,-5.606308,8.049088478088379,0.13266048,0.0,-0.0,0.0
1091.8999999993357,0.50991476,-0.767981,-0.52492374,-2.4710612,0.61346585,2.0943437,0.90398926,0.03999943,0.04,-5.606308,8.049088478088379,0.13266048,0.0,-0.0,0.0
1091.9166666660024,0.50991476,-0.767981,-0.52492374,-2.4710612,0.61346585,2.0943437,0.90398926,0.03999943,0.04,-5.606308,8.049088478088379,0.13266048,0.0,-0.0,0.0
1091.933333332669,0.50991476,-0.767981,-0.52492374,-2.4710612,0.61346585,2.0943437,0.90398926,0.03999943,0.04,-5.606308,8.049088478088379,0.13266048,0.0,-0.0,0.0
1091.9499999993357,0.50991476,-0.767981,-0.52492374,-2.4710612,0.61346585,2.0943437,0.90398926,0.03999943,0.04,-5.606308,8.049088478088379,0.13266048,0.0,-0.0,0.0
