rsonawane2002/My_IMU/logs_2/traj_292/imu_400hz_292.csv
time,j1,j2,j3,j4,j5,j6,j7,gripper1,gripper2,imu_ax,imu_ay,imu_az,imu_gx,imu_gy,imu_gz
0.0,0.00016700293,-0.785875,4.0107683e-05,-2.3551247,9.29385e-05,1.570997,0.786,0.04,0.04,-9.577239,0.0201559290289878,0.082498476,-2.151816e-07,-0.0011641274904832,4.3191935e-07
0.0025,0.0001670026945,-0.785857774,4.010833625e-05,-2.35513919,9.294508500000001e-05,1.570996565,0.786,0.04,0.04,-9.615813000000035,0.017226593909433156,0.07148521454998999,-1.8046134254996842e-07,-0.0013251985947137015,6.042004625001567e-07
0.005,0.000167002459,-0.785840548,4.0108989500000006e-05,-2.3551536800000004,9.295167000000002e-05,1.57099613,0.786,0.04,0.04,-9.65438700000007,0.014297258789878513,0.060471953099979964,-1.4574108509993686e-07,-0.001486269698944203,7.764815750003135e-07
0.0075,0.0001670022235,-0.7858233219999999,4.0109642750000005e-05,-2.3551681700000002,9.295825500000002e-05,1.570995695,0.786,0.04,0.04,-9.692961000000105,0.01136792367032387,0.04945869164996995,-1.1102082764990528e-07,-0.0016473408031747044,9.4876268750047e-07
0.01,0.000167001988,-0.785806096,4.0110296000000004e-05,-2.35518266,9.296484000000003e-05,1.5709952600000001,0.786,0.04,0.04,-9.73153500000014,0.008438588550769224,0.03844543019995993,-7.63005701998737e-08,-0.0018084119074052059,1.1210438000006268e-06
0.0125,0.0001670017525,-0.78578887,4.011094925e-05,-2.3551971500000004,9.297142500000002e-05,1.570994825,0.786,0.04,0.04,-9.770109000000176,0.00550925343121458,0.027432168749949914,-4.158031274984211e-08,-0.0019694830116357073,1.2933249125007836e-06
0.015,0.000167001517,-0.785771644,4.011160250000001e-05,-2.3552116400000003,9.297801000000003e-05,1.57099439,0.786,0.04,0.04,-9.80868300000021,0.002579918311659938,0.016418907299939903,-6.860055299810552e-09,-0.0021305541158662088,1.4656060250009401e-06
0.0175,0.00016699973499999997,-0.7857548645,4.011134559999999e-05,-2.3552257350000003,9.29873415000001e-05,1.57099396,0.786,0.04,0.04,-9.834294774999998,0.0006254499428904348,0.009002516469998582,6.332270885089845e-08,-0.0022871463443161497,1.8047209250042837e-06
0.02,0.00016699485999999996,-0.7857389779999999,4.0109268399999984e-05,-2.3552390400000003,9.300216600000011e-05,1.5709935400000001,0.786,0.04,0.04,-9.833982099999998,0.0006207150756380256,0.00877986687999838,2.0443048640102674e-07,-0.002434780821205214,2.4775034000048955e-06
0.0225,0.00016698998499999998,-0.7857230914999999,4.0107191199999986e-05,-2.3552523450000002,9.301699050000013e-05,1.57099312,0.786,0.04,0.04,-9.833669424999997,0.0006159802083856162,0.008557217289998177,3.45538263951155e-07,-0.0025824152980942782,3.150285875005507e-06
0.025,0.00016698510999999997,-0.7857072049999999,4.010511399999998e-05,-2.35526565,9.303181500000013e-05,1.5709927,0.786,0.04,0.04,-9.833356749999997,0.0006112453411332069,0.008334567699997976,4.866460415012835e-07,-0.0027300497749833427,3.8230683500061194e-06
0.0275,0.00016698023499999996,-0.7856913184999998,4.010303679999998e-05,-2.355278955,9.304663950000014e-05,1.57099228,0.786,0.04,0.04,-9.833044074999997,0.0006065104738807975,0.008111918109997772,6.277538190514118e-07,-0.002877684251872407,4.495850825006732e-06
0.03,0.00016697535999999995,-0.7856754319999998,4.010095959999998e-05,-2.35529226,9.306146400000016e-05,1.57099186,0.786,0.04,0.04,-9.832731399999997,0.0006017756066283883,0.00788926851999757,7.6886159660154e-07,-0.0030253187287614712,5.168633300007342e-06
0.0325,0.00016697048499999994,-0.7856595454999998,4.009888239999997e-05,-2.355305565,9.307628850000018e-05,1.57099144,0.786,0.04,0.04,-9.832418724999997,0.000597040739375979,0.007666618929997367,9.099693741516685e-07,-0.0031729532056505357,5.841415775007955e-06
0.035,0.0001669573479999998,-0.7856445099999998,4.0092057299999884e-05,-2.3553181,9.310606950000048e-05,1.57099101,0.786,0.04,0.04,-9.832113249999997,0.0005890079832168366,0.007459022959997452,1.1801464400042623e-06,-0.003311974368991166,7.1745310400211805e-06
0.0375,0.00016694007999999979,-0.7856298999999998,4.008285824999988e-05,-2.35533025,9.314332875000052e-05,1.570990575,0.786,0.04,0.04,-9.831811374999996,0.0005793262826044179,0.007258953799997271,1.514858150004566e-06,-0.0034466888755578127,8.83781270002269e-06
0.04,0.00016692281199999975,-0.7856152899999997,4.0073659199999864e-05,-2.3553424,9.318058800000054e-05,1.57099014,0.786,0.04,0.04,-9.831509499999996,0.0005696445819919991,0.007058884639997088,1.8495698600048708e-06,-0.0035814033821244605,1.0501094360024206e-05
0.0425,0.00016690554399999974,-0.7856006799999997,4.006446014999986e-05,-2.35535455,9.321784725000057e-05,1.5709897050000001,0.786,0.04,0.04,-9.831207624999996,0.0005599628813795802,0.006858815479996906,2.1842815700051756e-06,-0.0037161178886911082,1.216437602002572e-05
0.045,0.00016688827599999973,-0.7855860699999997,4.005526109999985e-05,-2.3553667000000003,9.32551065000006e-05,1.57098927,0.786,0.04,0.04,-9.830905749999996,0.0005502811807671615,0.0066587463199967245,2.518993280005479e-06,-0.003850832395257755,1.382765768002723e-05
0.0475,0.00016687100799999972,-0.7855714599999998,4.0046062049999845e-05,-2.35537885,9.329236575000064e-05,1.570988835,0.786,0.04,0.04,-9.830603874999994,0.0005405994801547427,0.006458677159996542,2.853704990005784e-06,-0.003985546901824403,1.5490939340028743e-05
0.05,0.00016685373999999928,-0.7855568499999998,4.003686299999959e-05,-2.355391,9.332962500000145e-05,1.5709884,0.786,0.04,0.04,-9.830301999999994,0.0005309177795422723,0.0062586079999967575,3.188416700012422e-06,-0.004120261408390815,1.71542210000561e-05
0.0525,0.00016681283949999924,-0.7855433874999997,4.001422694999957e-05,-2.35540216,9.340964025000152e-05,1.57098798,0.786,0.04,0.04,-9.829994949999994,0.0005183995730473909,0.006080376199996596,3.871295345013042e-06,-0.004242060310209606,2.02381881500589e-05
0.055,0.0001667719389999992,-0.7855299249999997,3.999159089999955e-05,-2.3554133200000003,9.34896555000016e-05,1.57098756,0.786,0.04,0.04,-9.829687899999994,0.0005058813665525095,0.005902144399996433,4.554173990013664e-06,-0.004363859212028397,2.3322155300061708e-05
0.0575,0.00016673103849999915,-0.7855164624999997,3.9968954849999525e-05,-2.3554244800000004,9.356967075000167e-05,1.57098714,0.786,0.04,0.04,-9.829380849999994,0.0004933631600576281,0.005723912599996271,5.237052635014285e-06,-0.004485658113847188,2.6406122450064514e-05
0.06,0.00016669013799999911,-0.7855029999999997,3.99463187999995e-05,-2.35543564,9.364968600000174e-05,1.57098672,0.786,0.04,0.04,-9.829073799999993,0.00048084495356274674,0.005545680799996109,5.919931280014905e-06,-0.004607457015665979,2.9490089600067312e-05
0.0625,0.00016664923749999907,-0.7854895374999996,3.9923682749999485e-05,-2.3554468,9.372970125000182e-05,1.5709863,0.786,0.04,0.04,-9.828766749999993,0.00046832674706786534,0.0053674489999959475,6.602809925015527e-06,-0.0047292559174847695,3.257405675007012e-05
0.065,0.00016660833699999903,-0.7854760749999996,3.990104669999946e-05,-2.3554579600000003,9.380971650000189e-05,1.57098588,0.786,0.04,0.04,-9.828459699999993,0.00045580854057298393,0.005189217199995785,7.285688570016148e-06,-0.00485105481930356,3.565802390007292e-05
0.0675,0.00016655477699999805,-0.7854629549999996,3.987125634999891e-05,-2.35546882,9.391260575000364e-05,1.570985455,0.786,0.04,0.04,-9.828157099999993,0.000441884466271834,0.005015920019995986,8.072184000024403e-06,-0.0049687533639397345,3.9344622700120134e-05
0.07,0.00016647589799999798,-0.7854505199999997,3.9827157399998874e-05,-2.3554790800000003,9.406124300000378e-05,1.57098502,0.786,0.04,0.04,-9.827863399999993,0.00042514865635845373,0.004852492079995837,9.065913000025309e-06,-0.005078251194211569,4.4236484800124587e-05
0.0725,0.00016639701899999793,-0.7854380849999997,3.978305844999884e-05,-2.35548934,9.420988025000391e-05,1.570984585,0.786,0.04,0.04,-9.827569699999993,0.0004084128464450736,0.004689064139995689,1.0059642000026208e-05,-0.005187749024483403,4.912834690012901e-05
0.075,0.00016631813999999786,-0.7854256499999996,3.973895949999879e-05,-2.3554996000000004,9.435851750000405e-05,1.57098415,0.786,0.04,0.04,-9.827275999999992,0.00039167703653169336,0.0045256361999955405,1.1053371000027112e-05,-0.005297246854755237,5.402020900013346e-05
0.0775,0.00016623926099999778,-0.7854132149999996,3.9694860549998756e-05,-2.35550986,9.450715475000419e-05,1.5709837150000001,0.786,0.04,0.04,-9.826982299999992,0.00037494122661831315,0.004362208259995392,1.2047100000028018e-05,-0.005406744685027072,5.891207110013791e-05
0.08,0.0001661603819999977,-0.7854007799999996,3.965076159999872e-05,-2.35552012,9.465579200000432e-05,1.57098328,0.786,0.04,0.04,-9.826688599999992,0.00035820541670493293,0.004198780319995243,1.3040829000028923e-05,-0.005516242515298907,6.380393320014236e-05
0.0825,0.00016608150299999764,-0.7853883449999997,3.9606662649998675e-05,-2.3555303800000003,9.480442925000446e-05,1.570982845,0.786,0.04,0.04,-9.826394899999991,0.0003414696067915527,0.004035352379995094,1.4034558000029827e-05,-0.005625740345570742,6.869579530014683e-05
0.085,0.00016596585399999584,-0.7853765569999996,3.954185899999768e-05,-2.35554036,9.501896600000765e-05,1.57098241,0.786,0.04,0.04,-9.826103099999992,0.0003232227114488724,0.0038796663599953048,1.5247706800040909e-05,-0.005727219674739264,7.494049000021403e-05
0.08750000000000001,0.00016583181999999574,-0.7853650924999996,3.946670299999761e-05,-2.3555502,9.526645250000787e-05,1.570981975,0.786,0.04,0.04,-9.825812249999991,0.00030422027339164505,0.0037278512999951666,1.6570565500042114e-05,-0.005824689753356678,8.186160100022033e-05
0.09,0.0001656977859999956,-0.7853536279999996,3.939154699999754e-05,-2.3555600400000003,9.55139390000081e-05,1.57098154,0.786,0.04,0.04,-9.82552139999999,0.00028521783533441784,0.0035760362399950294,1.789342420004331e-05,-0.005922159831974091,8.878271200022659e-05
0.0925,0.00016556375199999548,-0.7853421634999996,3.931639099999747e-05,-2.3555698800000004,9.576142550000832e-05,1.570981105,0.786,0.04,0.04,-9.82523054999999,0.00026621539727719057,0.0034242211799948912,1.9216282900044516e-05,-0.006019629910591505,9.570382300023289e-05
0.095,0.00016542971799999535,-0.7853306989999995,3.92412349999974e-05,-2.35557972,9.600891200000855e-05,1.57098067,0.786,0.04,0.04,-9.824939699999991,0.00024721295921996324,0.0032724061199947527,2.053914160004572e-05,-0.006117099989208919,0.0001026249340002392
0.0975,0.00016529568399999524,-0.7853192344999995,3.916607899999733e-05,-2.3555895600000003,9.625639850000877e-05,1.570980235,0.786,0.04,0.04,-9.82464884999999,0.00022821052116273594,0.0031205910599946146,2.1862000300046922e-05,-0.006214570067826332,0.0001095460450002455
0.1,0.0001651616499999924,-0.7853077699999996,3.9090922999995736e-05,-2.3555994000000005,9.650388500001397e-05,1.5709798,0.786,0.04,0.04,-9.824357999999991,0.00020920808310552355,0.002968775999995066,2.318485900006293e-05,-0.006312040146443377,0.00011646715600035507
0.10250000000000001,0.0001649527659999922,-0.7852971544999996,3.897371764999563e-05,-2.3556082650000003,9.688793015001431e-05,1.570979785,0.785999715,0.04,0.03999999925,-9.824116649999992,0.000190615576865851,0.0028331653499949427,2.4914587750064505e-05,-0.006399360788057951,0.00012622679260036396
0.105,0.00016474388199999202,-0.7852865389999996,3.885651229999552e-05,-2.35561713,9.727197530001467e-05,1.5709797699999999,0.78599943,0.04,0.0399999985,-9.82387529999999,0.00017202307062617856,0.00269755469999482,2.6644316500066072e-05,-0.006486681429672525,0.00013598642920037277
0.1075,0.00016453499799999182,-0.7852759234999995,3.873930694999541e-05,-2.3556259950000005,9.765602045001501e-05,1.570979755,0.785999145,0.04,0.03999999775,-9.82363394999999,0.00015343056438650598,0.0025619440499946963,2.8374045250067646e-05,-0.0065740020712871,0.00014574606580038167
0.11,0.00016432611399999164,-0.7852653079999995,3.862210159999531e-05,-2.3556348600000003,9.804006560001537e-05,1.57097974,0.78599886,0.04,0.039999997,-9.823392599999991,0.00013483805814683346,0.002426333399994573,3.0103774000069223e-05,-0.006661322712901674,0.00015550570240039057
0.1125,0.00016411722999999144,-0.7852546924999996,3.85048962499952e-05,-2.3556437250000006,9.842411075001572e-05,1.570979725,0.785998575,0.04,0.03999999625,-9.82315124999999,0.00011624555190716089,0.0022907227499944496,3.18335027500708e-05,-0.006748643354516249,0.00016526533900039945
0.115,0.00016390834599999126,-0.7852440769999995,3.8387690899995096e-05,-2.3556525900000005,9.880815590001608e-05,1.57097971,0.78599829,0.04,0.0399999955,-9.82290989999999,9.765304566748834e-05,0.002155112099994326,3.356323150007237e-05,-0.006835963996130823,0.00017502497560040832
0.11750000000000001,0.00016366721849998692,-0.7852337349999996,3.8252401549992664e-05,-2.3556614100000006,9.924948420002377e-05,1.570979705,0.785998005,0.04,0.03999999525,-9.822644049999987,7.729097560411589e-05,0.002018581944994085,3.5844532500144684e-05,-0.006918545672673055,0.00018557720600051886
0.12,0.00016336160399998666,-0.7852239399999995,3.808094419999251e-05,-2.3556701400000004,9.980537880002426e-05,1.57097972,0.78599772,0.04,0.039999996,-9.822329199999986,5.338977789401978e-05,0.0018802127799939596,3.922897800014774e-05,-0.006991649419072411,0.00019771462400052983
0.1225,0.00016305598949998637,-0.7852141449999995,3.7909486849992354e-05,-2.35567887,0.00010036127340002477,1.570979735,0.785997435,0.04,0.03999999675,-9.822014349999986,2.948858018392354e-05,0.0017418436149938337,4.261342350015083e-05,-0.007064753165471768,0.00020985204200054089
0.125,0.00016275037499998609,-0.7852043499999996,3.77380294999922e-05,-2.3556876000000004,0.00010091716800002528,1.57097975,0.78599715,0.04,0.0399999975,-9.821699499999985,5.587382473827294e-06,0.0016034744499937076,4.5997869000153907e-05,-0.007137856911871124,0.00022198946000055194
0.1275,0.00016244476049998583,-0.7851945549999996,3.756657214999204e-05,-2.3556963300000002,0.00010147306260002579,1.570979765,0.785996865,0.04,0.03999999825,-9.821384649999986,-1.831381523626894e-05,0.0014651052849935817,4.938231450015699e-05,-0.007210960658270481,0.000234126878000563
0.13,0.00016213914599998554,-0.7851847599999996,3.739511479999189e-05,-2.3557050600000005,0.00010202895720002629,1.57097978,0.7859965800000001,0.04,0.039999999,-9.821069799999986,-4.2215012946365186e-05,0.0013267361199934557,5.276676000016007e-05,-0.007284064404669837,0.00024626429600057404
0.1325,0.00016183353149998525,-0.7851749649999995,3.722365744999173e-05,-2.3557137900000003,0.0001025848518000268,1.570979795,0.785996295,0.04,0.03999999975,-9.820754949999985,-6.611621065646142e-05,0.0011883669549933298,5.615120550016315e-05,-0.007357168151069194,0.0002584017140005851
0.135,0.00016144745099997906,-0.7851656129999995,3.7007127999988253e-05,-2.3557223000000005,0.00010328491760003793,1.5709798499999998,0.78599601,0.04,0.04,-9.82050089999999,-8.785726968299547e-05,0.0010672473299944746,5.9757729600182594e-05,-0.007423929125073663,0.0002726165780007492
0.1375,0.00016102113749997868,-0.7851564824999996,3.676806249998804e-05,-2.3557307000000005,0.00010405706900003863,1.570979925,0.785995725,0.04,0.04,-9.82027724999999,-0.00010851825936798417,0.0009547524749943722,6.347529300018597e-05,-0.007487518712881381,0.0002878701650007631
0.14,0.0001605948239999783,-0.7851473519999995,3.6528996999987824e-05,-2.3557391000000005,0.00010482922040003933,1.57098,0.78599544,0.04,0.04,-9.820053599999989,-0.00012917924905297284,0.0008422576199942698,6.719285640018936e-05,-0.0075511083006890994,0.00030312375200077695
0.14250000000000002,0.0001601685104999779,-0.7851382214999996,3.62899314999876e-05,-2.3557475000000005,0.00010560137180004004,1.570980075,0.7859951550000001,0.04,0.04,-9.819829949999988,-0.00014984023873796157,0.0007297627649941674,7.091041980019275e-05,-0.007614697888496817,0.0003183773390007909
0.145,0.00015974219699997752,-0.7851290909999995,3.605086599998739e-05,-2.3557559000000006,0.00010637352320004073,1.57098015,0.78599487,0.04,0.04,-9.81960629999999,-0.00017050122842295003,0.0006172679099940662,7.462798320019609e-05,-0.007678287476304534,0.0003336309260008046
0.1475,0.00015931588349997713,-0.7851199604999995,3.581180049998717e-05,-2.3557643000000006,0.00010714567460004143,1.570980225,0.785994585,0.04,0.04,-9.819382649999989,-0.0001911622181079387,0.0005047730549939638,7.834554660019947e-05,-0.007741877064112251,0.00034888451300081846
0.15,0.00015888956999996875,-0.7851108299999996,3.5572734999982485e-05,-2.3557727000000006,0.00010791782600005651,1.5709803,0.7859943,0.04,0.04,-9.819158999999988,-0.00021182320779291556,0.000392278199993842,8.206311000021972e-05,-0.007805466651919433,0.00036413810000101394
0.1525,0.00015831686999996823,-0.7851023279999996,3.525174954998219e-05,-2.3557804250000007,0.00010895346560005745,1.570980375,0.7859937300000001,0.04,0.03999999925,-9.818921399999988,-0.00023226673947752415,0.00027942704999373924,8.608974000022339e-05,-0.007859225384894006,0.0003827200550010309
0.155,0.00015774416999996772,-0.7850938259999996,3.49307640999819e-05,-2.3557881500000004,0.00010998910520005839,1.57098045,0.78599316,0.04,0.0399999985,-9.818683799999986,-0.00025271027116213274,0.0001665758999936365,9.011637000022705e-05,-0.00791298411786858,0.0004013020100010478
0.1575,0.0001571714699999672,-0.7850853239999995,3.460977864998161e-05,-2.3557958750000005,0.00011102474480005934,1.570980525,0.78599259,0.04,0.03999999775,-9.818446199999986,-0.0002731538028467414,5.372474999353375e-05,9.414300000023071e-05,-0.007966742850843155,0.0004198839650010647
0.16,0.00015659876999996665,-0.7850768219999995,3.428879319998132e-05,-2.3558036,0.00011206038440006028,1.5709806,0.78599202,0.04,0.039999997,-9.818208599999986,-0.00029359733453135,-5.9126400006568995e-05,9.816963000023438e-05,-0.008020501583817728,0.00043846592000108163
0.1625,0.00015602606999996614,-0.7850683199999995,3.396780774998102e-05,-2.3558113250000003,0.00011309602400006122,1.5709806750000002,0.78599145,0.04,0.03999999625,-9.817970999999986,-0.00031404086621595863,-0.00017197755000667174,0.00010219626000023805,-0.008074260316792302,0.0004570478750010985
0.165,0.00015545336999996562,-0.7850598179999995,3.364682229998073e-05,-2.3558190500000005,0.00011413166360006217,1.5709807500000001,0.78599088,0.04,0.0399999955,-9.817733399999986,-0.0003344843979005672,-0.00028482870000677443,0.00010622289000024172,-0.008128019049766877,0.00047562983000111545
0.1675,0.00015482280199995453,-0.7850515024999996,3.329348324997452e-05,-2.3558267550000003,0.00011526996600008188,1.57098083,0.785990308,0.04,0.03999999525,-9.817473249999981,-0.0003555192175567539,-0.0003943499300062684,0.00011075045800033696,-0.008177811373027696,0.0004952392900013202
0.17,0.00015407649799995384,-0.7850435599999995,3.287543699997414e-05,-2.3558344200000003,0.0001166135940000831,1.57098092,0.785989732,0.04,0.039999996,-9.817167999999981,-0.00037773661315577414,-0.000497211320006362,0.000116279902000342,-0.008219670876863169,0.0005169037600013399
0.17250000000000001,0.00015333019399995317,-0.7850356174999995,3.2457390749973764e-05,-2.3558420850000004,0.00011795722200008433,1.5709810100000001,0.785989156,0.04,0.03999999675,-9.81686274999998,-0.0003999540087547944,-0.0006000727100064556,0.00012180934600034702,-0.008261530380698642,0.0005385682300013597
0.17500000000000002,0.00015258388999995248,-0.7850276749999995,3.203934449997338e-05,-2.3558497500000004,0.00011930085000008555,1.5709811,0.7859885799999999,0.04,0.0399999975,-9.81655749999998,-0.0004221714043538146,-0.0007029341000065494,0.00012733879000035206,-0.008303389884534114,0.0005602327000013795
0.1775,0.00015183758599995181,-0.7850197324999995,3.1621298249973005e-05,-2.3558574150000005,0.00012064447800008676,1.57098119,0.7859880039999999,0.04,0.03999999825,-9.81625224999998,-0.0004443887999528346,-0.0008057954900066418,0.00013286823400035703,-0.008345249388369587,0.0005818971700013989
0.18,0.00015109128199995115,-0.7850117899999994,3.1203251999972626e-05,-2.3558650800000005,0.00012198810600008798,1.57098128,0.7859874279999999,0.04,0.039999999,-9.81594699999998,-0.0004666061955518548,-0.0009086568800067354,0.00013839767800036205,-0.00838710889220506,0.0006035616400014187
0.1825,0.00015034497799995046,-0.7850038474999994,3.0785205749972246e-05,-2.3558727450000005,0.0001233317340000892,1.57098137,0.785986852,0.04,0.03999999975,-9.81564174999998,-0.000488823591150875,-0.0010115182700068293,0.00014392712200036708,-0.008428968396040534,0.0006252261100014384
0.185,0.000149463835999934,-0.7849962399999995,3.029180599996305e-05,-2.3558804000000007,0.00012491673900011868,1.57098146,0.7859860879999999,0.0399999995,0.0399999995,-9.815385199999984,-0.0005065975245099021,-0.0011090454000066,0.00014954287500039371,-0.008464526478203345,0.0006494705900017766
0.1875,0.00014851527499992992,-0.7849887999999994,2.9760729499960757e-05,-2.355888050000001,0.00012662243250012603,1.57098155,0.7859852299999999,0.03999999875,0.03999999875,-9.815152999999983,-0.0005221497267495993,-0.0012039054000070098,0.00015520178250041816,-0.00849693384953077,0.000675005075001887
0.19,0.00014756671399992582,-0.7849813599999994,2.9229652999958462e-05,-2.355895700000001,0.0001283281260001334,1.57098164,0.7859843719999999,0.039999998,0.039999998,-9.814920799999982,-0.0005377019289892964,-0.0012987654000074199,0.0001608606900004426,-0.008529341220858194,0.0007005395600019973
0.1925,0.00014661815299992173,-0.7849739199999993,2.8698576499956167e-05,-2.3559033500000006,0.00013003381950014078,1.57098173,0.7859835139999999,0.03999999725,0.03999999725,-9.81468859999998,-0.0005532541312289937,-0.0013936254000078297,0.00016651959750046708,-0.00856174859218562,0.0007260740450021076
0.195,0.0001456695919999176,-0.7849664799999994,2.816749999995387e-05,-2.3559110000000008,0.00013173951300014813,1.57098182,0.7859826559999998,0.0399999965,0.0399999965,-9.81445639999998,-0.0005688063334686909,-0.0014884854000082395,0.00017217850500049153,-0.008594155963513045,0.0007516085300022179
0.1975,0.00014472103099991352,-0.7849590399999993,2.7636423499951576e-05,-2.355918650000001,0.0001334452065001555,1.57098191,0.7859817979999999,0.03999999575,0.03999999575,-9.814224199999979,-0.0005843585357083881,-0.0015833454000086494,0.00017783741250051598,-0.00862656333484047,0.0007771430150023283
0.2,0.00014377246999988725,-0.7849515999999993,2.7105346999936908e-05,-2.355926300000001,0.00013515090000020235,1.570982,0.7859809399999999,0.039999995,0.039999995,-9.81399199999998,-0.0005999107379481771,-0.0016782054000089525,0.0001834963200006758,-0.00865897070616703,0.0008026775000027738
0.2025,0.0001425918784998902,-0.7849445409999993,2.644469089993856e-05,-2.3559339500000007,0.00013726997400019707,1.57098212,0.7859797939999998,0.039999994250000004,0.039999995,-9.81376429999998,-0.0006164241523962658,-0.0017719466700087181,0.0001905727980006581,-0.008682320034133542,0.0008317218500027011
0.20500000000000002,0.00014141128699989315,-0.7849374819999994,2.578403479994021e-05,-2.355941600000001,0.00013938904800019178,1.57098224,0.7859786479999998,0.039999993500000004,0.039999995,-9.81353659999998,-0.0006329375668443545,-0.0018656879400084836,0.00019764927600064044,-0.008705669362100054,0.0008607662000026285
0.20750000000000002,0.0001402306954998961,-0.7849304229999994,2.5123378699941865e-05,-2.355949250000001,0.00014150812200018647,1.57098236,0.7859775019999998,0.039999992750000005,0.039999995,-9.81330889999998,-0.0006494509812924432,-0.001959429210008249,0.00020472575400062274,-0.008729018690066565,0.0008898105500025559
0.21,0.00013905010399989907,-0.7849233639999994,2.4462722599943522e-05,-2.3559569000000007,0.00014362719600018116,1.57098248,0.7859763559999999,0.039999992,0.039999995,-9.813081199999981,-0.0006659643957405317,-0.002053170480008014,0.00021180223200060495,-0.008752368018033075,0.0009188549000024829
0.2125,0.00013786951249990202,-0.7849163049999994,2.3802066499945175e-05,-2.355964550000001,0.00014574627000017587,1.5709826,0.7859752099999999,0.03999999125,0.039999995,-9.812853499999981,-0.0006824778101886204,-0.0021469117500077795,0.00021887871000058728,-0.008775717345999587,0.0009478992500024104
0.215,0.00013668892099990497,-0.7849092459999994,2.3141410399946825e-05,-2.355972200000001,0.00014786534400017056,1.57098272,0.7859740639999999,0.0399999905,0.039999995,-9.812625799999982,-0.0006989912246367091,-0.002240653020007545,0.00022595518800056958,-0.0087990666739661,0.0009769436000023376
0.2175,0.00013542070549988413,-0.7849023179999994,2.2431837699935195e-05,-2.355979875000001,0.00015014081450020775,1.5709828399999999,0.7859728624999999,0.0399999899,0.03999999465,-9.81239694999998,-0.0007130037120084882,-0.0023353369700077507,0.00023344888200066844,-0.008819358656183978,0.0010073571400026607
0.22,0.0001339772419998779,-0.7848956519999994,2.162443179993171e-05,-2.3559876000000006,0.00015272907800021894,1.5709829599999998,0.7859715499999999,0.0399999896,0.039999993600000006,-9.812165799999981,-0.0007220143452294222,-0.002431906280008168,0.00024177700800070441,-0.008833535946906758,0.001040509060002804
0.2225,0.00013253377849987166,-0.7848889859999993,2.081702589992822e-05,-2.3559953250000008,0.00015531734150023012,1.57098308,0.7859702374999998,0.0399999893,0.03999999255,-9.81193464999998,-0.0007310249784503562,-0.0025284755900085855,0.0002501051340007404,-0.00884771323762954,0.0010736609800029472
0.225,0.00013109031499986543,-0.7848823199999994,2.000961999992473e-05,-2.356003050000001,0.0001579056050002413,1.5709832,0.7859689249999998,0.039999989,0.0399999915,-9.811703499999979,-0.00074003561167129,-0.0026250449000090026,0.0002584332600007764,-0.008861890528352321,0.0011068129000030905
0.2275,0.0001296468514998592,-0.7848756539999993,1.920221409992124e-05,-2.3560107750000006,0.00016049386850025248,1.5709833199999998,0.7859676124999998,0.0399999887,0.03999999045,-9.811472349999978,-0.000749046244892224,-0.00272161421000942,0.0002667613860008124,-0.008876067819075103,0.0011399648200032338
0.23,0.00012820338799985297,-0.7848689879999993,1.839480819991775e-05,-2.3560185000000007,0.00016308213200026366,1.57098344,0.7859662999999999,0.0399999884,0.0399999894,-9.811241199999976,-0.0007580568781131579,-0.0028181835200098374,0.00027508951200084836,-0.008890245109797884,0.001173116740003377
0.2325,0.0001267599244998467,-0.7848623219999993,1.758740229991426e-05,-2.356026225000001,0.00016567039550027484,1.57098356,0.7859649874999999,0.0399999881,0.03999998835,-9.811010049999975,-0.0007670675113340919,-0.0029147528300102546,0.0002834176380008844,-0.008904422400520666,0.0012062686600035203
0.23500000000000001,0.00012512007799981583,-0.7848558499999992,1.6670394099897025e-05,-2.3560343500000007,0.0001686088160003299,1.57098369,0.7859635309999998,0.0399999876,0.0399999876,-9.810769999999975,-0.0007746864459484536,-0.0030066676600094926,0.0002922156180009571,-0.008912336267531337,0.0012419756100039189
0.23750000000000002,0.00012338203999982017,-0.7848494749999994,1.5698584749899456e-05,-2.3560426750000008,0.00017172231500032213,1.570983825,0.7859620024999998,0.039999987,0.039999987,-9.810525499999976,-0.0007816095312598662,-0.003096255250009269,0.00030124852500093454,-0.00891711842268747,0.0012789600750038265
0.24,0.00012164400199982454,-0.7848430999999993,1.4726775399901896e-05,-2.356051000000001,0.0001748358140003143,1.57098396,0.7859604739999998,0.0399999864,0.0399999864,-9.810280999999975,-0.0007885326165712788,-0.0031858428400090436,0.00031028143200091186,-0.008921900577843603,0.0013159445400037337
0.2425,0.00011990596399982888,-0.7848367249999993,1.3754966049904325e-05,-2.356059325000001,0.00017794931300030653,1.570984095,0.7859589454999998,0.0399999858,0.0399999858,-9.810036499999976,-0.0007954557018826915,-0.0032754304300088195,0.0003193143390008893,-0.008926682732999736,0.001352929005003641
0.245,0.00011816792599983323,-0.7848303499999993,1.2783156699906756e-05,-2.356067650000001,0.00018106281200029874,1.57098423,0.7859574169999998,0.039999985200000004,0.039999985200000004,-9.809791999999977,-0.0008023787871941042,-0.003365018020008596,0.0003283472460008667,-0.00893146488815587,0.0013899134700035487
0.2475,0.00011642988799983758,-0.7848239749999995,1.1811347349909185e-05,-2.356075975000001,0.00018417631100029096,1.570984365,0.7859558884999999,0.0399999846,0.0399999846,-9.809547499999978,-0.000809301872505517,-0.003454605610008372,0.0003373801530008441,-0.008936247043312003,0.0014268979350034563
0.25,0.00011469184999981218,-0.7848175999999994,1.083953799989502e-05,-2.356084300000001,0.0001872898100003362,1.5709845,0.7859543599999997,0.039999984,0.039999984,-9.809302999999986,-0.0008162249578164033,-0.003544193200008645,0.0003464130600008871,-0.008941029198467534,0.0014638824000037325
0.2525,0.00011262678499980325,-0.7848114349999994,9.685256034890032e-06,-2.3560929550000007,0.00019098624950035216,1.570984635,0.7859525269999997,0.0399999834,0.0399999834,-9.809137249999985,-0.0008173605310731681,-0.0036392467750090557,0.0003561666735009292,-0.00893919942900518,0.0015049223550039098
0.255,0.00011056171999979434,-0.7848052699999993,8.530974069885044e-06,-2.356101610000001,0.00019468268900036813,1.5709847700000001,0.7859506939999997,0.0399999828,0.0399999828,-9.808971499999984,-0.0008184961043299331,-0.0037343003500094666,0.0003659202870009714,-0.008937369659542829,0.0015459623100040872
0.2575,0.00010849665499978541,-0.7847991049999994,7.376692104880056e-06,-2.356110265000001,0.0001983791285003841,1.570984905,0.7859488609999997,0.0399999822,0.0399999822,-9.808805749999983,-0.0008196316775866979,-0.003829353925009877,0.0003756739005010135,-0.008935539890080476,0.0015870022650042645
0.26,0.00010643158999977649,-0.7847929399999993,6.2224101398750684e-06,-2.356118920000001,0.00020207556800040007,1.57098504,0.7859470279999997,0.0399999816,0.0399999816,-9.808639999999983,-0.0008207672508434629,-0.003924407500010288,0.0003854275140010557,-0.008933710120618122,0.0016280422200044419
0.2625,0.00010436652499976756,-0.7847867749999993,5.0681281748700804e-06,-2.3561275750000013,0.00020577200750041604,1.5709851750000001,0.7859451949999997,0.039999981,0.039999981,-9.808474249999982,-0.0008219028241002278,-0.004019461075010698,0.0003951811275010978,-0.008931880351155769,0.0016690821750046194
0.265,0.00010230145999975864,-0.7847806099999993,3.913846209865093e-06,-2.356136230000001,0.000209468447000432,1.5709853100000002,0.7859433619999997,0.039999980399999996,0.039999980399999996,-9.808308499999981,-0.0008230383973569927,-0.00411451465001111,0.00040493474100114,-0.008930050581693418,0.0017101221300047965
0.2675,0.00010011636274971159,-0.7847745124999993,2.6926119548388432e-06,-2.3561449350000014,0.00021337876650051588,1.57098545,0.7859414154999997,0.03999998,0.03999998,-9.808123849999975,-0.0008221195836079721,-0.004212513565012355,0.0004150414875012859,-0.008925367286427555,0.0017525388300053718
0.27,9.769120099971765e-05,-0.7847685499999993,1.3374731198422314e-06,-2.356153740000001,0.00021771684600050504,1.5709856,0.7859392419999998,0.03999998,0.03999998,-9.807901399999976,-0.0008170919958495947,-0.0043164031600120955,0.0004258545000012589,-0.00891497693955775,0.001797709020005259
0.2725,9.526603924972372e-05,-0.7847625874999993,-1.7665715154380324e-08,-2.356162545000001,0.0002220549255004942,1.5709857500000002,0.7859370684999997,0.03999998,0.03999998,-9.807678949999975,-0.0008120644080912172,-0.004420292755011835,0.00043666751250123184,-0.008904586592687946,0.0018428792100051458
0.275,9.284087749972978e-05,-0.7847566249999993,-1.3728045501509917e-06,-2.356171350000001,0.00022639300500048334,1.5709859000000002,0.7859348949999997,0.03999998,0.03999998,-9.807456499999976,-0.0008070368203328399,-0.004524182350011576,0.00044748052500120483,-0.008894196245818144,0.001888049400005033
0.2775,9.041571574973584e-05,-0.7847506624999994,-2.727943385147604e-06,-2.356180155000001,0.0002307310845004725,1.5709860500000001,0.7859327214999997,0.03999998,0.03999998,-9.807234049999977,-0.0008020092325744624,-0.004628071945011316,0.00045829353750117776,-0.00888380589894834,0.0019332195900049198
0.28,8.79905539997419e-05,-0.7847446999999993,-4.083082220144215e-06,-2.356188960000001,0.00023506916400046167,1.5709862,0.7859305479999997,0.03999998,0.03999998,-9.807011599999976,-0.000796981644816085,-0.0047319615400110565,0.00046910655000115075,-0.008873415552078535,0.001978389780004807
0.28250000000000003,8.556539224974797e-05,-0.7847387374999993,-5.438221055140827e-06,-2.356197765000001,0.0002394072435004508,1.57098635,0.7859283744999997,0.03999998,0.03999998,-9.806789149999977,-0.0007919540570577076,-0.004835851135010796,0.0004799195625011237,-0.00886302520520873,0.002023559970004694
0.28500000000000003,8.28777909997141e-05,-0.7847328649999994,-6.939716700159705e-06,-2.356207180000001,0.0002442128630005111,1.5709864900000001,0.7859259549999997,0.03999998,0.0399999797,-9.806546099999975,-0.0007814544485867577,-0.004938794300010393,0.0004914653800012082,-0.008846258558330856,0.0020716119900050195
0.28750000000000003,8.005896999972116e-05,-0.7847270374999994,-8.514390750155768e-06,-2.356216900000001,0.0002492522525004985,1.570986625,0.7859234124999998,0.03999998,0.03999997925,-9.806292749999976,-0.0007682188297607908,-0.005041264250010137,0.0005033776000011784,-0.008826303761450426,0.0021211049250048956
0.29,7.724014899972826e-05,-0.7847212099999994,-1.0089064800151796e-05,-2.356226620000001,0.0002542916420004858,1.57098676,0.7859208699999998,0.03999998,0.039999978799999995,-9.806039399999976,-0.0007549832109348242,-0.005143734200009878,0.0005152898200011483,-0.008806348964569997,0.0021705978600047708
0.2925,7.442132799973531e-05,-0.7847153824999994,-1.1663738850147859e-05,-2.356236340000001,0.0002593310315004732,1.570986895,0.7859183274999997,0.03999998,0.03999997835,-9.805786049999977,-0.0007417475921088572,-0.005246204150009622,0.0005272020400011186,-0.008786394167689567,0.0022200907950046473
0.295,7.160250699974236e-05,-0.7847095549999994,-1.323841290014392e-05,-2.356246060000001,0.00026437042100046056,1.5709870300000002,0.7859157849999997,0.03999998,0.0399999779,-9.805532699999977,-0.0007285119732828903,-0.005348674100009366,0.0005391142600010888,-0.008766439370809136,0.0022695837300045233
0.2975,6.87836859997494e-05,-0.7847037274999994,-1.4813086950139985e-05,-2.356255780000001,0.000269409810500448,1.570987165,0.7859132424999997,0.03999998,0.03999997745,-9.805279349999978,-0.0007152763544569234,-0.0054511440500091095,0.000551026480001059,-0.008746484573928705,0.0023190766650043994
0.3,6.596486499971951e-05,-0.7846978999999995,-1.638776100015665e-05,-2.356265500000001,0.00027444920000050115,1.5709873,0.7859106999999997,0.03999998,0.039999977,-9.805025999999987,-0.0007020407356305016,-0.0055536140000094075,0.0005629387000011234,-0.00872652977704777,0.0023685696000046315
0.3025,6.271841694970548e-05,-0.7846921549999994,-1.8200884800164483e-05,-2.3562754750000012,0.0002802500330005262,1.5709879150000001,0.7859078424999997,0.039999979549999995,0.0399999764,-9.804874349999986,-0.0006835405132715667,-0.005662499750009878,0.0005759403550011795,-0.008700722176579263,0.0024221813100048636
0.305,5.9471968899691456e-05,-0.7846864099999994,-2.0014008600172317e-05,-2.356285450000001,0.00028605086600055126,1.5709885300000002,0.7859049849999997,0.0399999791,0.0399999758,-9.804722699999985,-0.0006650402909126318,-0.005771385500010349,0.0005889420100012357,-0.008674914576110757,0.0024757930200050952
0.3075,5.6225520849677425e-05,-0.7846806649999994,-2.1827132400180154e-05,-2.356295425000001,0.00029185169900057637,1.5709891450000002,0.7859021274999998,0.03999997865,0.0399999752,-9.804571049999984,-0.0006465400685536968,-0.005880271250010819,0.0006019436650012918,-0.008649106975642251,0.002529404730005327
0.31,5.29790727996634e-05,-0.7846749199999994,-2.3640256200187988e-05,-2.356305400000001,0.0002976525320006014,1.57098976,0.7858992699999997,0.0399999782,0.0399999746,-9.804419399999984,-0.0006280398461947618,-0.00598915700001129,0.0006149453200013481,-0.008623299375173744,0.0025830164400055585
0.3125,4.973262474964937e-05,-0.7846691749999993,-2.5453380000195822e-05,-2.356315375000001,0.0003034533650006265,1.570990375,0.7858964124999998,0.03999997775,0.039999974,-9.804267749999983,-0.0006095396238358268,-0.00609804275001176,0.0006279469750014043,-0.008597491774705238,0.00263662815000579
0.315,4.648617669963535e-05,-0.7846634299999994,-2.7266503800203655e-05,-2.3563253500000014,0.00030925419800065154,1.57099099,0.7858935549999997,0.039999977299999996,0.0399999734,-9.804116099999982,-0.0005910394014768919,-0.00620692850001223,0.0006409486300014604,-0.008571684174236732,0.0026902398600060218
0.3175,4.308575854957587e-05,-0.7846577029999994,-2.9165473100236822e-05,-2.3563356750000013,0.0003153291440007575,1.57099162,0.7858905524999997,0.039999976799999996,0.03999997285,-9.80392654999997,-0.0005687794531660541,-0.006321610185014442,0.0006542120820015769,-0.008542032586406364,0.0027452791750066214
0.32,3.937740019958515e-05,-0.7846520119999993,-3.123613340023165e-05,-2.3563467000000013,0.0003219523160007409,1.57099228,0.7858872599999996,0.0399999762,0.0399999724,-9.80366119999997,-0.0005390000529553085,-0.006447883740014126,0.0006679991280015424,-0.008504693023856263,0.0028031737000064768
0.3225,3.5669041849594415e-05,-0.7846463209999994,-3.330679370022647e-05,-2.3563577250000014,0.00032857548800072436,1.57099294,0.7858839674999997,0.0399999756,0.039999971950000004,-9.803395849999971,-0.0005092206527445629,-0.006574157295013811,0.0006817861740015078,-0.008467353461306162,0.002861068225006332
0.325,3.196068349960369e-05,-0.7846406299999994,-3.537745400022129e-05,-2.3563687500000015,0.0003351986600007078,1.5709936,0.7858806749999997,0.039999975,0.0399999715,-9.803130499999972,-0.00047944125253381747,-0.006700430850013495,0.0006955732200014734,-0.00843001389875606,0.002918962750006187
0.3275,2.825232514961296e-05,-0.7846349389999994,-3.744811430021611e-05,-2.356379775000001,0.00034182183200069123,1.57099426,0.7858773824999997,0.0399999744,0.03999997105,-9.802865149999972,-0.0004496618523230719,-0.006826704405013179,0.0007093602660014389,-0.008392674336205958,0.0029768572750060425
0.33,2.4543966799622234e-05,-0.7846292479999994,-3.9518774600210935e-05,-2.356390800000001,0.0003484450040006747,1.57099492,0.7858740899999996,0.0399999738,0.039999970600000004,-9.802599799999973,-0.0004198824521123264,-0.006952977960012863,0.0007231473120014045,-0.008355334773655855,0.0030347518000058975
0.3325,2.0835608449631505e-05,-0.7846235569999994,-4.158943490020576e-05,-2.356401825000001,0.0003550681760006581,1.57099558,0.7858707974999997,0.039999973200000004,0.03999997015,-9.802334449999973,-0.00039010305190158084,-0.007079251515012547,0.0007369343580013699,-0.008317995211105754,0.003092646325005753
0.335,1.6796320999573568e-05,-0.7846178539999994,-4.384456650023806e-05,-2.3564134900000013,0.0003622803800007613,1.57099625,0.7858672039999997,0.039999972700000004,0.039999969600000004,-9.802137199999983,-0.0003547574160581431,-0.007201147130012141,0.000751476146001513,-0.008276381250466383,0.003153416930006309
0.3375,1.25915689995554e-05,-0.7846121449999994,-4.61919337502482e-05,-2.3564254750000013,0.0003697871000007937,1.570996925,0.7858634599999996,0.03999997225,0.039999969,-9.801973999999984,-0.00031662866239959335,-0.007320853775012658,0.0007663953050015775,-0.008232630090783323,0.0032156255750065777
0.34,8.38681699953723e-06,-0.7846064359999994,-4.8539301000258346e-05,-2.3564374600000013,0.00037729382000082615,1.5709976,0.7858597159999996,0.0399999718,0.0399999684,-9.801810799999982,-0.0002784999087410436,-0.007440560420013175,0.000781314464001642,-0.008188878931100265,0.0032778342200068464
0.3425,4.182064999519061e-06,-0.7846007269999994,-5.088666825026849e-05,-2.3564494450000013,0.0003848005400008586,1.570998275,0.7858559719999996,0.03999997135,0.0399999678,-9.801647599999981,-0.00024037115508249388,-0.007560267065013692,0.0007962336230017064,-0.008145127771417205,0.0033400428650071155
0.34500000000000003,-2.2687000499109158e-08,-0.7845950179999993,-5.323403550027863e-05,-2.3564614300000013,0.00039230726000089104,1.57099895,0.7858522279999995,0.0399999709,0.0399999672,-9.80148439999998,-0.00020224240142394413,-0.007679973710014209,0.0008111527820017708,-0.008101376611734146,0.003402251510007384
0.34750000000000003,-4.227439000517279e-06,-0.7845893089999993,-5.5581402750288776e-05,-2.3564734150000013,0.00039981398000092346,1.570999625,0.7858484839999996,0.039999970450000005,0.0399999666,-9.801321199999979,-0.00016411364776539438,-0.007799680355014727,0.0008260719410018353,-0.008057625452051088,0.003464460155007653
0.35000000000000003,-8.432191000603064e-06,-0.7845835999999993,-5.792877000033661e-05,-2.3564854000000017,0.0004073207000010763,1.5710003,0.7858447399999995,0.03999997,0.039999966,-9.801157999999978,-0.00012598489410524613,-0.007919387000016686,0.0008409911000020347,-0.00801387429236721,0.0035266688000084737
0.3525,-1.316795095060727e-05,-0.7845778249999993,-6.0572122500338956e-05,-2.3564977750000016,0.00041577243200108374,1.571001005,0.7858405489999994,0.0399999694,0.0399999651,-9.800987449999978,-7.530375150310113e-05,-0.008050424600016802,0.0008569695305020489,-0.007963684503913888,0.0035932112900085326
0.355,-1.790371090061158e-05,-0.7845720499999993,-6.321547500034137e-05,-2.3565101500000014,0.00042422416400109147,1.57100171,0.7858363579999995,0.0399999688,0.0399999642,-9.800816899999978,-2.4622608900955003e-05,-0.008181462200016922,0.0008729479610020634,-0.00791349471546057,0.0036597537800085933
0.3575,-2.2639470850615894e-05,-0.7845662749999993,-6.585882750034377e-05,-2.3565225250000017,0.00043267589600109915,1.571002415,0.7858321669999995,0.0399999682,0.0399999633,-9.800646349999978,2.6058533701191124e-05,-0.008312499800017041,0.000888926391502078,-0.007863304927007249,0.003726296270008654
0.36,-2.73752308006202e-05,-0.7845604999999992,-6.850218000034617e-05,-2.3565349000000015,0.0004411276280011069,1.57100312,0.7858279759999994,0.0399999676,0.0399999624,-9.800475799999976,7.673967630333726e-05,-0.008443537400017161,0.0009049048220020926,-0.007813115138553928,0.0037928387600087146
0.3625,-3.2110990750624515e-05,-0.7845547249999992,-7.114553250034858e-05,-2.3565472750000014,0.00044957936000111456,1.571003825,0.7858237849999995,0.039999967,0.0399999615,-9.800305249999976,0.00012742081890548338,-0.00857457500001728,0.0009208832525021071,-0.007762925350100607,0.003859381250008775
0.365,-3.684675070062882e-05,-0.7845489499999992,-7.378888500035099e-05,-2.3565596500000017,0.00045803109200112224,1.5710045300000002,0.7858195939999995,0.039999966399999996,0.0399999606,-9.800134699999976,0.00017810196150762952,-0.0087056126000174,0.0009368616830021216,-0.007712735561647286,0.003925923740008835
0.3675,-4.1771073800708766e-05,-0.7845431449999992,-7.653733350039556e-05,-2.3565723800000016,0.0004668183210012645,1.57100524,0.7858152319999994,0.039999966,0.03999996,-9.799935499999965,0.00023167638574583615,-0.008840544450019082,0.000953168716502268,-0.007659475691608574,0.003993913030009477
0.37,-4.7072523200713595e-05,-0.7845372799999992,-7.949597400039825e-05,-2.3565858200000016,0.0004762765440012731,1.5710059600000001,0.7858105279999993,0.039999966,0.03999996,-9.799678999999966,0.0002910373732526902,-0.00898326480001921,0.0009701329560022835,-0.007600075658402765,0.004064795920009541
0.3725,-5.237397260071842e-05,-0.7845314149999992,-8.245461450040094e-05,-2.3565992600000016,0.0004857347670012817,1.57100668,0.7858058239999993,0.039999966,0.03999996,-9.799422499999965,0.00035039836075954423,-0.00912598515001934,0.000987097195502299,-0.007540675625196956,0.004135678810009606
0.375,-5.7675422000723244e-05,-0.7845255499999992,-8.541325500040364e-05,-2.3566127000000017,0.0004951929900012903,1.5710074,0.7858011199999994,0.039999966,0.03999996,-9.799165999999964,0.00040975934826639824,-0.00926870550001947,0.0010040614350023144,-0.007481275591991147,0.00420656170000967
0.3775,-6.297687140072807e-05,-0.7845196849999992,-8.837189550040633e-05,-2.3566261400000017,0.000504651213001299,1.5710081200000001,0.7857964159999993,0.039999966,0.03999996,-9.798909499999965,0.0004691203357732523,-0.009411425850019601,0.00102102567450233,-0.007421875558785338,0.004277444590009735
0.38,-6.82783208007329e-05,-0.7845138199999993,-9.133053600040902e-05,-2.3566395800000017,0.0005141094360013075,1.57100884,0.7857917119999993,0.039999966,0.03999996,-9.798652999999964,0.0005284813232801064,-0.009554146200019731,0.0010379899140023454,-0.007362475525579528,0.004348327480009799
0.3825,-7.357977020073774e-05,-0.7845079549999993,-9.42891765004117e-05,-2.3566530200000018,0.0005235676590013161,1.57100956,0.7857870079999993,0.039999966,0.03999996,-9.798396499999964,0.0005878423107869603,-0.00969686655001986,0.0010549541535023607,-0.007303075492373719,0.004419210370009864
0.385,-7.928146400081322e-05,-0.7845020099999992,-9.747088000045377e-05,-2.356667230000002,0.0005337379100014504,1.57101027,0.7857819409999992,0.0399999652,0.0399999594,-9.798190999999974,0.0006556514185020256,-0.009844478400020677,0.0010726298200024846,-0.007239215308791164,0.004492990900010366
0.3875,-8.518328000079847e-05,-0.7844960249999993,-0.00010076411500044554,-2.3566818250000017,0.0005442641750014241,1.571010975,0.7857766924999993,0.039999964,0.0399999585,-9.798010999999976,0.0007276845863185455,-0.009994536000020302,0.0010906612000024395,-0.007173125050021633,0.004568220250010178
0.39,-9.108509600078371e-05,-0.7844900399999992,-0.00010405735000043731,-2.356696420000002,0.0005547904400013978,1.57101168,0.7857714439999993,0.0399999628,0.0399999576,-9.797830999999976,0.0007997177541350654,-0.010144593600019926,0.0011086925800023945,-0.007107034791252104,0.00464344960000999
0.3925,-9.698691200076895e-05,-0.7844840549999993,-0.00010735058500042907,-2.356711015000002,0.0005653167050013715,1.571012385,0.7857661954999993,0.0399999616,0.0399999567,-9.797650999999975,0.0008717509219515853,-0.010294651200019551,0.0011267239600023494,-0.007040944532482574,0.004718678950009802
0.395,-0.0001028887280007542,-0.7844780699999993,-0.00011064382000042084,-2.356725610000002,0.0005758429700013452,1.5710130900000001,0.7857609469999993,0.0399999604,0.0399999558,-9.797470999999977,0.0009437840897681052,-0.010444708800019176,0.0011447553400023042,-0.006974854273713044,0.004793908300009614
0.3975,-0.00010879054400073944,-0.7844720849999993,-0.00011393705500041261,-2.3567402050000017,0.0005863692350013189,1.571013795,0.7857556984999994,0.039999959200000004,0.039999954899999995,-9.797290999999976,0.001015817257584625,-0.010594766400018801,0.001162786720002259,-0.006908764014943515,0.004869137650009426
0.4,-0.00011469236000080265,-0.7844660999999993,-0.00011723029000044782,-2.356754800000002,0.0005968955000014313,1.5710145,0.7857504499999993,0.039999958,0.039999954,-9.797110999999978,0.0010878504254028002,-0.01074482400001998,0.0011808181000023496,-0.006842673756173202,0.00494436700000977
0.4025,-0.0001212291335008309,-0.7844599289999993,-0.00012087736750046357,-2.356770610000002,0.0006085511750014815,1.5710153850000002,0.7857446479999992,0.0399999568,0.03999995295,-9.796933849999977,0.0011733642080906648,-0.010907549025020684,0.0011999539300024324,-0.006770206475621099,0.005023936150010114
0.405,-0.00012776590700085914,-0.7844537579999992,-0.00012452444500047933,-2.356786420000002,0.0006202068500015319,1.57101627,0.7857388459999992,0.0399999556,0.0399999519,-9.796756699999976,0.0012588779907785294,-0.011070274050021388,0.0012190897600025152,-0.006697739195068995,0.005103505300010458
0.40750000000000003,-0.0001343026805008874,-0.7844475869999992,-0.0001281715225004951,-2.356802230000002,0.0006318625250015823,1.571017155,0.7857330439999992,0.0399999544,0.03999995085,-9.796579549999976,0.0013443917734663937,-0.01123299907502209,0.0012382255900025977,-0.006625271914516892,0.005183074450010801
0.41000000000000003,-0.00014083945400091564,-0.7844414159999992,-0.00013181860000051085,-2.356818040000002,0.0006435182000016327,1.5710180400000002,0.7857272419999992,0.0399999532,0.0399999498,-9.796402399999975,0.0014299055561542583,-0.011395724100022793,0.0012573614200026804,-0.006552804633964789,0.005262643600011146
0.41250000000000003,-0.00014737622750094387,-0.7844352449999991,-0.0001354656775005266,-2.3568338500000023,0.0006551738750016831,1.5710189250000002,0.7857214399999992,0.039999952,0.03999994875,-9.796225249999974,0.0015154193388421228,-0.011558449125023497,0.0012764972500027632,-0.006480337353412686,0.005342212750011489
0.41500000000000004,-0.00015391300100097213,-0.7844290739999991,-0.00013911275500054238,-2.356849660000002,0.0006668295500017335,1.5710198100000001,0.7857156379999992,0.039999950799999996,0.0399999477,-9.796048099999974,0.0016009331215299872,-0.0117211741500242,0.001295633080002846,-0.0064078700728605826,0.005421781900011833
0.4175,-0.00016067292250108629,-0.784422826999999,-0.00014288417700060598,-2.3568658700000022,0.0006788821315019365,1.5710208100000003,0.7857096414999991,0.03999994965,0.039999946450000004,-9.795872099999974,0.001691160188071527,-0.01189006817502732,0.0013151070050030375,-0.0063331346493094055,0.005502836930012666
0.42,-0.00016787914000106826,-0.784416427999999,-0.00014690428800059595,-2.3568828800000023,0.0006917285260019044,1.5710220400000003,0.785703255999999,0.0399999486,0.0399999448,-9.795698399999974,0.0017908138223139928,-0.012071300200026867,0.0013352571200029872,-0.006253862939763169,0.005586863720012456
0.4225,-0.00017508535750105026,-0.784410028999999,-0.0001509243990005859,-2.3568998900000024,0.0007045749205018722,1.5710232700000002,0.785696870499999,0.03999994755,0.03999994315,-9.795524699999975,0.0018904674565564587,-0.012252532225026412,0.0013554072350029367,-0.0061745912302169316,0.0056708905100122465
0.425,-0.00018229157500103223,-0.784403629999999,-0.00015494451000057583,-2.356916900000002,0.0007174213150018401,1.5710245000000003,0.785690484999999,0.0399999465,0.0399999415,-9.795350999999975,0.0019901210907989244,-0.01243376425002596,0.0013755573500028864,-0.006095319520670695,0.005754917300012036
0.4275,-0.0001894977925010142,-0.784397230999999,-0.0001589646210005658,-2.356933910000002,0.000730267709501808,1.5710257300000001,0.7856840994999991,0.039999945450000005,0.03999993985,-9.795177299999976,0.00208977472504139,-0.012614996275025506,0.0013957074650028359,-0.0060160478111244585,0.0058389440900118265
0.43,-0.0001967040100009962,-0.784390831999999,-0.00016298473200055573,-2.3569509200000023,0.000743114104001776,1.5710269600000002,0.7856777139999991,0.0399999444,0.0399999382,-9.795003599999976,0.002189428359283856,-0.012796228300025053,0.0014158575800027856,-0.005936776101578222,0.005922970880011616
0.4325,-0.00020391022750097817,-0.7843844329999992,-0.00016700484300054567,-2.3569679300000024,0.0007559604985017438,1.5710281900000003,0.7856713284999991,0.039999943350000004,0.03999993655,-9.794829899999977,0.002289081993526322,-0.0129774603250246,0.001436007695002735,-0.0058575043920319845,0.006006997670011406
0.435,-0.00021158560000108988,-0.784377893999999,-0.00017128637500060794,-2.3569858600000027,0.0007696411420019425,1.5710294400000002,0.785664539999999,0.0399999423,0.0399999354,-9.794648699999975,0.0023970433976655578,-0.013172147400027753,0.0014568279400029149,-0.005772975413116711,0.006093811240012154
0.4375,-0.00021949555000112407,-0.7843712849999991,-0.000175698617500627,-2.3570042500000024,0.0007837389100020034,1.5710307000000001,0.7856575499999989,0.039999941250000004,0.0399999345,-9.794463749999974,0.0025091586867506573,-0.013373562000028621,0.0014779832500030063,-0.005685817799518514,0.006182018200012535
0.44,-0.00022740550000115826,-0.784364675999999,-0.0001801108600006461,-2.3570226400000025,0.0007978366780020643,1.5710319600000002,0.7856505599999989,0.0399999402,0.0399999336,-9.794278799999974,0.0026212739758357567,-0.013574976600029492,0.0014991385600030978,-0.005598660185920317,0.006270225160012916
0.4425,-0.00023531545000119244,-0.784358066999999,-0.00018452310250066515,-2.3570410300000026,0.0008119344460021253,1.5710332200000001,0.7856435699999988,0.039999939150000004,0.039999932700000004,-9.794093849999973,0.002733389264920856,-0.013776391200030363,0.001520293870003189,-0.005511502572322121,0.006358432120013298
0.445,-0.0002432254000012266,-0.784351457999999,-0.0001889353450006842,-2.357059420000003,0.0008260322140021862,1.5710344800000002,0.7856365799999989,0.0399999381,0.0399999318,-9.793908899999971,0.0028455045540059557,-0.013977805800031233,0.0015414491800032806,-0.005424344958723924,0.0064466390800136785
0.4475,-0.0002511353500012608,-0.7843448489999989,-0.00019334758750070327,-2.357077810000003,0.0008401299820022471,1.5710357400000001,0.7856295899999989,0.03999993705,0.0399999309,-9.793723949999972,0.002957619843091055,-0.014179220400032104,0.001562604490003372,-0.005337187345125728,0.00653484604001406
0.45,-0.00025904530000141576,-0.7843382399999989,-0.00019775983000078966,-2.357096200000003,0.0008542277500025228,1.5710370000000002,0.7856225999999987,0.039999936,0.03999993,-9.793538999999972,0.003069735132178889,-0.014380635000033106,0.0015837598000036184,-0.005250029731526495,0.0066230530000151435
0.4525,-0.00026769307150142365,-0.7843313489999988,-0.00020258318050079405,-2.357116420000003,0.0008696374675025368,1.5710382900000002,0.7856149499999987,0.0399999354,0.03999992925,-9.793363349999971,0.0031985509442377462,-0.014582858850033291,0.0016058616250036386,-0.005156538332797029,0.006715549000015227
0.455,-0.0002763408430014315,-0.7843244579999988,-0.00020740653100079844,-2.3571366400000033,0.0008850471850025508,1.57103958,0.7856072999999987,0.0399999348,0.039999928500000004,-9.793187699999972,0.0033273667562966035,-0.014785082700033475,0.0016279634500036585,-0.005063046934067564,0.006808045000015311
0.4575,-0.0002849886145014394,-0.7843175669999989,-0.00021222988150080283,-2.3571568600000035,0.0009004569025025649,1.5710408700000003,0.7855996499999988,0.039999934200000004,0.039999927750000004,-9.793012049999971,0.0034561825683554607,-0.01498730655003366,0.0016500652750036787,-0.004969555535338099,0.006900541000015395
0.46,-0.00029363638600144723,-0.7843106759999988,-0.00021705323200080722,-2.3571770800000036,0.0009158666200025789,1.5710421600000002,0.7855919999999987,0.0399999336,0.039999927,-9.79283639999997,0.003584998380414318,-0.015189530400033843,0.001672167100003699,-0.0048760641366086335,0.0069930370000154795
0.4625,-0.0003022841575014551,-0.7843037849999989,-0.0002218765825008116,-2.3571973000000033,0.0009312763375025929,1.5710434500000001,0.7855843499999987,0.039999933,0.03999992625,-9.792660749999971,0.0037138141924731756,-0.015391754250034027,0.001694268925003719,-0.004782572737879168,0.007085533000015564
0.465,-0.000310931929001463,-0.7842968939999989,-0.000226699933000816,-2.3572175200000034,0.0009466860550026069,1.57104474,0.7855766999999987,0.0399999324,0.0399999255,-9.79248509999997,0.003842630004532033,-0.015593978100034211,0.001716370750003739,-0.0046890813391497034,0.007178029000015648
0.4675,-0.0003198369115016021,-0.7842898899999988,-0.00023166658250089352,-2.3572381700000036,0.0009625530650028543,1.5710460300000002,0.7855688249999986,0.039999932200000005,0.03999992525,-9.79232984999998,0.003976746508876215,-0.015803917350038332,0.0017388360750039448,-0.004594228253683198,0.0072719456500164575
0.47000000000000003,-0.00032925631600161067,-0.7842826599999988,-0.0002369198300008983,-2.357259680000004,0.0009793346600028695,1.5710473200000001,0.7855604999999987,0.0399999328,0.039999926,-9.79221539999998,0.004121464397782946,-0.016029287400038537,0.0017620284000039658,-0.0044966517947446945,0.007368703600016545
0.47250000000000003,-0.0003386757205016193,-0.7842754299999988,-0.0002421730775009031,-2.3572811900000037,0.000996116255002885,1.5710486100000003,0.7855521749999986,0.0399999334,0.03999992675,-9.79210094999998,0.004266182286689678,-0.016254657450038745,0.0017852207250039869,-0.004399075335806191,0.007465461550016633
0.47500000000000003,-0.00034809512500162784,-0.7842681999999987,-0.0002474263250009079,-2.3573027000000035,0.0010128978500029001,1.5710499000000002,0.7855438499999986,0.039999934,0.039999927500000004,-9.79198649999998,0.0044109001755964095,-0.01648002750003895,0.0018084130500040081,-0.004301498876867687,0.007562219500016721
0.47750000000000004,-0.0003575145295016364,-0.7842609699999987,-0.00025267957250091263,-2.357324210000004,0.0010296794450029155,1.5710511900000002,0.7855355249999986,0.0399999346,0.039999928250000004,-9.79187204999998,0.0045556180645031415,-0.016705397550039153,0.0018316053750040292,-0.004203922417929183,0.007658977450016809
0.48,-0.00036693393400164475,-0.7842537399999987,-0.0002579328200009173,-2.3573457200000036,0.0010464610400029303,1.5710524800000003,0.7855271999999986,0.0399999352,0.039999929000000004,-9.79175759999998,0.00470033595340987,-0.016930767600039354,0.0018547977000040498,-0.004106345958990681,0.007755735400016895
0.4825,-0.00037635333850165336,-0.7842465099999988,-0.0002631860675009221,-2.3573672300000035,0.0010632426350029457,1.5710537700000002,0.7855188749999986,0.0399999358,0.03999992975,-9.791643149999981,0.004845053842316601,-0.01715613765003956,0.001877990025004071,-0.004008769500052177,0.007852493350016983
0.485,-0.00038630949600180396,-0.7842390699999987,-0.00026873837200100604,-2.357389730000004,0.0010809784900032134,1.5710552900000003,0.7855100699999985,0.0399999364,0.039999930200000006,-9.79148759999997,0.005001801718055077,-0.017394510900043205,0.0019018158700042597,-0.003907034452986263,0.007952070050017817
0.4875,-0.0003965340300018133,-0.7842315249999987,-0.0002744402050010112,-2.357412725000004,0.0010991914750032301,1.5710569250000004,0.7855010249999984,0.039999937,0.0399999305,-9.791311499999969,0.005164564587204665,-0.017639385750043427,0.0019259584750042818,-0.0038032201118582886,0.008053056125017909
0.49,-0.0004067585640018226,-0.7842239799999987,-0.0002801420380010164,-2.357435720000004,0.0011174044600032467,1.5710585600000004,0.7854919799999984,0.0399999376,0.0399999308,-9.79113539999997,0.005327327456354254,-0.017884260600043653,0.0019501010800043036,-0.003699405770730314,0.008154042200018
0.4925,-0.0004169830980018319,-0.7842164349999987,-0.0002858438710010216,-2.357458715000004,0.0011356174450032632,1.5710601950000003,0.7854829349999984,0.0399999382,0.039999931100000004,-9.790959299999969,0.005490090325503841,-0.018129135450043875,0.0019742436850043255,-0.00359559142960234,0.008255028275018093
0.495,-0.00042720763200184125,-0.7842088899999987,-0.0002915457040010268,-2.357481710000004,0.0011538304300032797,1.5710618300000003,0.7854738899999985,0.039999938799999996,0.0399999314,-9.790783199999968,0.00565285319465343,-0.018374010300044097,0.001998386290004348,-0.003491777088474365,0.008356014350018185
0.4975,-0.0004374321660018505,-0.7842013449999987,-0.00029724753700103196,-2.357504705000004,0.0011720434150032963,1.5710634650000004,0.7854648449999984,0.0399999394,0.039999931700000005,-9.790607099999969,0.005815616063803018,-0.01861888515004432,0.0020225288950043697,-0.003387962747346391,0.008457000425018277
0.5,-0.00044765670000201235,-0.7841937999999986,-0.0003029493700011221,-2.3575277000000043,0.0011902564000035839,1.5710651000000002,0.7854557999999983,0.03999994,0.039999932,-9.790430999999964,0.0059783789329552325,-0.018863760000048673,0.0020466715000045832,-0.0032841484062169795,0.008557986500019132
0.5025000000000001,-0.00045871953000202264,-0.7841858949999986,-0.00030911825350112785,-2.3575526450000046,0.0012099596200036023,1.5710669300000004,0.7854460394999982,0.0399999394,0.039999931700000005,-9.790233599999963,0.006155580119262177,-0.019131338250048924,0.0020718665500046064,-0.0031724358326550603,0.00866316357501923
0.505,-0.0004697823600020325,-0.7841779899999985,-0.00031528713700113334,-2.3575775900000044,0.00122966284000362,1.5710687600000004,0.7854362789999982,0.039999938799999996,0.0399999314,-9.790036199999964,0.006332781305569115,-0.01939891650004916,0.0020970616000046288,-0.0030607232590931462,0.008768340650019323
0.5075000000000001,-0.0004808451900020428,-0.7841700849999986,-0.0003214560205011391,-2.3576025350000047,0.0012493660600036381,1.5710705900000004,0.7854265184999982,0.0399999382,0.039999931100000004,-9.789838799999965,0.006509982491876061,-0.01966649475004941,0.0021222566500046524,-0.002949010685531227,0.00887351772501942
0.51,-0.0004919080200020526,-0.7841621799999986,-0.00032762490400114455,-2.3576274800000045,0.0012690692800036557,1.5710724200000004,0.7854167579999982,0.0399999376,0.0399999308,-9.789641399999963,0.006687183678182998,-0.019934073000049648,0.0021474517000046748,-0.002837298111969313,0.008978694800019515
0.5125,-0.0005029708500020624,-0.7841542749999986,-0.00033379378750115005,-2.3576524250000044,0.001288772500003673,1.5710742500000003,0.7854069974999982,0.039999937,0.0399999305,-9.789443999999964,0.006864384864489936,-0.020201651250049885,0.002172646750004697,-0.0027255855384073985,0.00908387187501961
0.515,-0.0005140336800020728,-0.7841463699999985,-0.0003399626710011558,-2.3576773700000047,0.0013084757200036916,1.5710760800000003,0.7853972369999982,0.0399999364,0.039999930200000006,-9.789246599999963,0.007041586050796881,-0.020469229500050135,0.0021978418000047203,-0.0026138729648454793,0.009189048950019707
0.5175,-0.0005253868765022465,-0.7841383264999985,-0.00034629332400125265,-2.357702815000005,0.0013286951200040006,1.5710779200000005,0.7853872164999981,0.03999993635,0.0399999303,-9.789072899999978,0.00722519899722157,-0.02074170850005314,0.0022233370750049126,-0.0025004698429036353,0.009295610350020581
0.52,-0.0005373208060022577,-0.7841300059999985,-0.00035294751600125886,-2.357729260000005,0.0013499468800040205,1.5710797800000003,0.785376675999998,0.0399999374,0.039999931200000005,-9.788946599999976,0.007421635463870922,-0.0210239890000534,0.002249432800004937,-0.002383685624204787,0.009404940400020684
0.5225,-0.0005492547355022682,-0.7841216854999984,-0.00035960170800126474,-2.357755705000005,0.0013711986400040393,1.5710816400000003,0.785366135499998,0.03999993845,0.0399999321,-9.788820299999976,0.0076180719305202664,-0.021306269500053654,0.00227552852500496,-0.002266901405505943,0.009514270450020781
0.525,-0.0005611886650022794,-0.7841133649999984,-0.00036625590000127095,-2.357782150000005,0.0013924504000040591,1.5710835000000003,0.785355594999998,0.039999939500000005,0.039999933,-9.788693999999976,0.00781450839716962,-0.021588550000053917,0.0023016242500049845,-0.002150117186807094,0.009623600500020882
0.5275,-0.00057312259450229,-0.7841050444999984,-0.0003729100920012769,-2.357808595000005,0.0014137021600040779,1.5710853600000003,0.785345054499998,0.03999994055,0.0399999339,-9.788567699999977,0.008010944863818963,-0.021870830500054166,0.0023277199750050075,-0.0020333329681082504,0.00973293055002098
0.53,-0.0005850565240023012,-0.7840967239999984,-0.0003795642840012831,-2.357835040000005,0.0014349539200040977,1.5710872200000003,0.785334513999998,0.039999941600000005,0.0399999348,-9.788441399999975,0.008207381330468317,-0.02215311100005443,0.002353815700005032,-0.0019165487494094014,0.009842260600021082
0.5325,-0.0005969904535023118,-0.7840884034999984,-0.00038621847600128897,-2.3578614850000053,0.0014562056800041167,1.5710890800000004,0.7853239734999979,0.03999994265,0.0399999357,-9.788315099999975,0.008403817797117661,-0.02243539150005468,0.002379911425005055,-0.0017997645307105577,0.009951590650021179
0.535,-0.0006095267270024988,-0.7840797969999983,-0.00039320823800139315,-2.3578892700000056,0.001478528010004449,1.5710909400000004,0.7853129039999978,0.0399999434,0.0399999364,-9.788157699999967,0.008613730873954669,-0.022730905500058806,0.00240672705000529,-0.0016790516848902315,0.01006366085002208
0.5375,-0.0006223641725025101,-0.7840710474999982,-0.0004003657850013995,-2.357917725000006,0.0015013856250044694,1.5710928000000004,0.7853015699999978,0.039999944,0.039999937,-9.787984749999966,0.008830382255879612,-0.023033036250059074,0.002433902625005314,-0.0015563745255108875,0.010177101125022181
0.54,-0.0006352016180025222,-0.7840622979999983,-0.0004075233320014062,-2.3579461800000057,0.0015242432400044907,1.5710946600000004,0.7852902359999978,0.039999944600000004,0.0399999376,-9.787811799999966,0.009047033637804564,-0.023335167000059356,0.0024610782000053393,-0.0014336973661315381,0.010290541400022286
0.5425,-0.0006480390635025335,-0.7840535484999982,-0.00041468087900141257,-2.3579746350000055,0.001547100855004511,1.5710965200000004,0.7852789019999977,0.039999945200000005,0.0399999382,-9.787638849999967,0.009263685019729507,-0.023637297750059627,0.0024882537750053634,-0.0013110202067521943,0.010403981675022388
0.545,-0.0006608765090025455,-0.7840447989999982,-0.0004218384260014192,-2.3580030900000057,0.0015699584700045322,1.5710983800000005,0.7852675679999978,0.0399999458,0.039999938799999996,-9.787465899999965,0.009480336401654459,-0.02393942850005991,0.0025154293500053884,-0.001188343047372845,0.010517421950022494
0.5475,-0.0006737139545025569,-0.7840360494999983,-0.0004289959730014256,-2.3580315450000056,0.0015928160850045526,1.5711002400000005,0.7852562339999978,0.0399999464,0.0399999394,-9.787292949999966,0.0096969877835794,-0.024241559250060177,0.0025426049250054125,-0.001065665887993501,0.010630862225022596
0.55,-0.000686551400002756,-0.7840272999999981,-0.00043615352000153656,-2.3580600000000063,0.0016156737000049067,1.5711021000000005,0.7852448999999976,0.039999947,0.03999994,-9.787119999999973,0.00991363916550826,-0.024543690000064317,0.0025697805000056318,-0.0009429887286132472,0.01074430250002354
0.5525,-0.0007003242500027213,-0.7840180899999981,-0.0004438322210015172,-2.358090270000006,0.0016401939900048449,1.5711042450000006,0.7852327349999976,0.039999947,0.0399999394,-9.786982749999973,0.010149819823028549,-0.024865110000063508,0.0025979234700055608,-0.0008157923111615047,0.010861938125023243
0.555,-0.0007140971000026871,-0.7840088799999982,-0.00045151092200149817,-2.358120540000006,0.001664714280004784,1.5711063900000004,0.7852205699999977,0.039999947,0.039999938799999996,-9.786845499999973,0.01038600048054885,-0.025186530000062712,0.0026260664400054906,-0.0006885958937097568,0.010979573750022951
0.5575,-0.0007278699500026524,-0.7839996699999983,-0.0004591896230014788,-2.358150810000006,0.0016892345700047222,1.5711085350000005,0.7852084049999977,0.039999947,0.0399999382,-9.786708249999974,0.010622181138069139,-0.0255079500000619,0.0026542094100054196,-0.0005613994762580143,0.011097209375022656
0.56,-0.0007416428000026183,-0.7839904599999983,-0.0004668683240014597,-2.358181080000006,0.0017137548600046613,1.5711106800000003,0.7851962399999977,0.039999947,0.0399999376,-9.786570999999974,0.010858361795589438,-0.025829370000061105,0.00268235238000535,-0.00043420305880626626,0.011214845000022363
0.5625,-0.0007554156500025836,-0.7839812499999983,-0.0004745470250014404,-2.3582113500000057,0.0017382751500045995,1.5711128250000004,0.7851840749999976,0.039999947,0.039999937,-9.786433749999976,0.011094542453109727,-0.026150790000060292,0.002710495350005279,-0.0003070066413545239,0.011332480625022066
0.5650000000000001,-0.0007691885000025494,-0.7839720399999983,-0.0004822257260014214,-2.3582416200000056,0.0017627954400045388,1.5711149700000004,0.7851719099999978,0.039999947,0.0399999364,-9.786296499999976,0.011330723110630027,-0.026472210000059497,0.0027386383200052092,-0.00017981022390277585,0.011450116250021776
0.5675,-0.0007832836775027248,-0.7839626749999982,-0.000490083997001519,-2.358272530000006,0.0017878885600048503,1.5711172050000004,0.7851594619999975,0.0399999468,0.0399999358,-9.786154749999973,0.011573062278377304,-0.02680398620006516,0.0027671221400053913,-5.059367901860273e-05,0.011569047000022464
0.5700000000000001,-0.0007980235100027888,-0.7839529999999981,-0.0004983014080015547,-2.3583047200000062,0.0018141273400049643,1.5711196200000004,0.7851464479999976,0.039999946200000004,0.0399999352,-9.786003999999972,0.011827718466568401,-0.02715647480006669,0.002796287660005518,8.266312072710277e-05,0.011690568000022992
0.5725,-0.0008127633425028521,-0.7839433249999981,-0.00050651881900159,-2.3583369100000064,0.0018403661200050772,1.5711220350000004,0.7851334339999975,0.0399999456,0.0399999346,-9.78585324999997,0.012082374654759486,-0.027508963400068205,0.0028254531800056435,0.00021591992047280238,0.011812089000023514
0.5750000000000001,-0.0008275031750029162,-0.783933649999998,-0.0005147362300016257,-2.358369100000006,0.001866604900005191,1.5711244500000006,0.7851204199999974,0.039999945,0.039999934,-9.78570249999997,0.012337030842950581,-0.027861452000069738,0.00285461870000577,0.00034917672021850786,0.011933610000024042
0.5775,-0.0008422430075029795,-0.783923974999998,-0.0005229536410016611,-2.3584012900000064,0.001892843680005304,1.5711268650000005,0.7851074059999974,0.0399999444,0.0399999334,-9.78555174999997,0.012591687031141666,-0.028213940600071253,0.0028837842200058954,0.00048243351996420753,0.012055131000024564
0.58,-0.0008569828400030429,-0.783914299999998,-0.0005311710520016963,-2.3584334800000066,0.0019190824600054167,1.5711292800000005,0.7850943919999973,0.0399999438,0.0399999328,-9.785400999999968,0.012846343219332751,-0.028566429200072768,0.002912949740006021,0.0006156903197099071,0.012176652000025087
0.5825,-0.0008717226725031068,-0.7839046249999979,-0.000539388463001732,-2.3584656700000064,0.0019453212400055307,1.5711316950000005,0.7850813779999972,0.039999943200000006,0.039999932200000005,-9.785250249999969,0.013100999407523847,-0.028918917800074297,0.0029421152600061476,0.0007489471194556126,0.012298173000025614
0.585,-0.0008871278250033491,-0.7838946159999978,-0.000547976520001867,-2.358499310000007,0.0019727423500059613,1.5711341300000006,0.7850677659999971,0.0399999434,0.0399999328,-9.785091599999966,0.013370143715350977,-0.02928364860007892,0.0029719157200064094,0.0008864728559570507,0.012422253200026677
0.5875,-0.0009028656375033638,-0.7838844399999978,-0.0005567499000018753,-2.3585336750000074,0.0020007546250059875,1.5711365750000006,0.785053854999997,0.039999944,0.039999934,-9.784928999999964,0.013646532082989226,-0.029654500500079266,0.0030020336500064374,0.001026133060834326,0.012547613000026794
0.59,-0.0009186034500033777,-0.7838742639999978,-0.0005655232800018831,-2.3585680400000073,0.002028766900006012,1.5711390200000006,0.785039943999997,0.039999944600000004,0.0399999352,-9.784766399999965,0.01392292045062746,-0.030025352400079593,0.003032151580006464,0.0011657932657115951,0.012672972800026905
0.5925,-0.0009343412625033924,-0.7838640879999978,-0.0005742966600018912,-2.358602405000007,0.002056779175006038,1.5711414650000006,0.785026032999997,0.039999945200000005,0.0399999364,-9.784603799999964,0.01419930881826571,-0.03039620430007994,0.003062269510006492,0.0013054534705888702,0.012798332600027022
0.595,-0.0009500790750034064,-0.7838539119999978,-0.000583070040001899,-2.3586367700000075,0.002084791450006063,1.5711439100000006,0.7850121219999969,0.0399999458,0.0399999376,-9.784441199999964,0.014475697185903944,-0.03076705620008027,0.003092387440006519,0.0014451136754661392,0.012923692400027133
0.5975,-0.0009658168875034211,-0.7838437359999978,-0.0005918434200019073,-2.3586711350000074,0.0021128037250060894,1.5711463550000004,0.784998210999997,0.0399999464,0.039999938799999996,-9.784278599999963,0.014752085553542193,-0.031137908100080613,0.003122505370006547,0.0015847738803434145,0.01304905220002725
0.6,-0.0009815547000036596,-0.7838335599999977,-0.0006006168000020401,-2.358705500000008,0.0021408160000065133,1.5711488000000005,0.7849842999999967,0.039999947,0.03999994,-9.784115999999974,0.015028473921186171,-0.031508760000085415,0.0031526233000068,0.0017244340852215433,0.013174412000028274
0.6025,-0.0009983210850036753,-0.7838228409999977,-0.0006099632100020488,-2.358742055000008,0.0021706563250065408,1.5711512600000006,0.7849694949999967,0.039999947,0.0399999394,-9.783999449999973,0.015331172803483143,-0.03190010400008578,0.003183777475006829,0.0018680330599040822,0.013303948250028395
0.605,-0.00101508747000369,-0.7838121219999977,-0.000619309620002057,-2.3587786100000083,0.0022004966500065674,1.5711537200000005,0.7849546899999967,0.039999947,0.039999938799999996,-9.783882899999973,0.0156338716857801,-0.032291448000086126,0.003214931650006857,0.0020116320345866146,0.013433484500028509
0.6075,-0.0010318538550037057,-0.7838014029999977,-0.0006286560300020657,-2.358815165000008,0.0022303369750065953,1.5711561800000005,0.7849398849999967,0.039999947,0.0399999382,-9.783766349999974,0.015936570568077072,-0.032682792000086495,0.003246085825006886,0.0021552310092691537,0.01356302075002863
0.61,-0.0010486202400037206,-0.7837906839999976,-0.0006380024400020741,-2.358851720000008,0.002260177300006622,1.5711586400000006,0.7849250799999967,0.039999947,0.0399999376,-9.783649799999974,0.01623926945037403,-0.03307413600008684,0.0032772400000069136,0.0022988299839516863,0.013692557000028745
0.6125,-0.0010653866250037362,-0.7837799649999976,-0.0006473488500020828,-2.3588882750000084,0.00229001762500665,1.5711611000000005,0.7849102749999967,0.039999947,0.039999937,-9.783533249999973,0.016541968332671003,-0.03346548000008721,0.0033083941750069426,0.002442428958634225,0.013822093250028866
0.615,-0.001082153010003751,-0.7837692459999976,-0.000656695260002091,-2.3589248300000083,0.002319857950006676,1.5711635600000007,0.7848954699999966,0.039999947,0.0399999364,-9.783416699999973,0.016844667214967964,-0.033856824000087556,0.0033395483500069704,0.0025860279333167575,0.013951629500028982
0.6175,-0.0010992722850040047,-0.7837583399999974,-0.0006662382400022323,-2.358962075000009,0.0023503252750071268,1.5711661700000006,0.7848803549999964,0.03999994735,0.03999993635,-9.78329489999997,0.01715263500816824,-0.03425740000009414,0.003371010195007207,0.0027309977216977903,0.01408241020002994
0.62,-0.0011170973400040204,-0.7837470599999975,-0.0006761743600022411,-2.3590007000000086,0.0023820466000071547,1.5711690800000007,0.7848646199999965,0.0399999484,0.0399999374,-9.78316259999997,0.017471140623164478,-0.03467644000009451,0.0034030873800072353,0.0028787091374730366,0.01421567980003006
0.6225,-0.001134922395004037,-0.7837357799999974,-0.0006861104800022504,-2.359039325000009,0.0024137679250071844,1.5711719900000007,0.7848488849999964,0.03999994945,0.03999993845,-9.78303029999997,0.017789646238160733,-0.0350954800000949,0.003435164565007265,0.0030264205532482893,0.014348949400030184
0.625,-0.0011527474500040529,-0.7837244999999974,-0.0006960466000022592,-2.359077950000009,0.0024454892500072128,1.5711749000000006,0.7848331499999964,0.0399999505,0.039999939500000005,-9.782897999999971,0.01810815185315697,-0.03551452000009528,0.0034672417500072935,0.0031741319690235356,0.014482219000030301
0.6275000000000001,-0.0011705725050040695,-0.7837132199999974,-0.0007059827200022685,-2.3591165750000087,0.002477210575007242,1.5711778100000007,0.7848174149999964,0.039999951549999996,0.03999994055,-9.78276569999997,0.018426657468153224,-0.03593356000009567,0.0034993189350073237,0.0033218433847987884,0.014615488600030426
0.63,-0.0011883975600040855,-0.7837019399999974,-0.0007159188400022772,-2.359155200000009,0.0025089319000072704,1.5711807200000008,0.7848016799999964,0.0399999526,0.039999941600000005,-9.78263339999997,0.01874516308314946,-0.03635260000009604,0.003531396120007352,0.0034695548005740347,0.014748758200030545
0.6325000000000001,-0.0012062226150041022,-0.7836906599999973,-0.0007258549600022866,-2.359193825000009,0.0025406532250073,1.5711836300000006,0.7847859449999963,0.039999953649999996,0.03999994265,-9.78250109999997,0.019063668698145714,-0.03677164000009643,0.003563473305007382,0.0036172662163492875,0.01488202780003067
0.635,-0.0012247730000043693,-0.7836789939999972,-0.0007361952000024354,-2.3592339700000093,0.002573663620007775,1.5711866100000007,0.7847695699999961,0.0399999546,0.0399999434,-9.782353799999965,0.019400061667045238,-0.03721413020010493,0.003596201260007636,0.0037693131249753858,0.015017919700031697
0.6375000000000001,-0.0012436860500043868,-0.7836671349999972,-0.0007467375000024453,-2.3592748750000094,0.002607318550007806,1.5711896250000008,0.7847528749999961,0.039999955499999996,0.039999944,-9.782198999999965,0.01974539831288715,-0.03766834550010535,0.0036292546000076665,0.003923527780024669,0.015155122750031825
0.64,-0.0012625991000044037,-0.7836552759999973,-0.0007572798000024546,-2.3593157800000095,0.002640973480007836,1.5711926400000007,0.7847361799999961,0.0399999564,0.039999944600000004,-9.782044199999964,0.020090734958729047,-0.03812256080010576,0.003662307940007696,0.004077742435073947,0.015292325800031946
0.6425,-0.0012815121500044204,-0.7836434169999973,-0.000767822100002464,-2.3593566850000096,0.002674628410007866,1.5711956550000008,0.7847194849999961,0.0399999573,0.039999945200000005,-9.781889399999965,0.020436071604570945,-0.03857677610010616,0.003695361280007725,0.004231957090123224,0.015429528850032069
0.645,-0.0013004252000044382,-0.7836315579999973,-0.0007783644000024739,-2.3593975900000097,0.0027082833400078974,1.5711986700000007,0.7847027899999961,0.0399999582,0.0399999458,-9.781734599999965,0.020781408250412855,-0.03903099140010659,0.0037284146200077563,0.004386171745172507,0.015566731900032197
0.6475,-0.0013193382500044548,-0.7836196989999973,-0.0007889067000024832,-2.35943849500001,0.0027419382700079272,1.5712016850000008,0.7846860949999961,0.0399999591,0.0399999464,-9.781579799999964,0.021126744896254754,-0.03948520670010699,0.0037614679600077856,0.004540386400221785,0.01570393495003232
0.65,-0.0013382513000047367,-0.7836078399999971,-0.0007994490000026402,-2.3594794000000103,0.002775593200008428,1.5712047000000007,0.7846693999999957,0.03999996,0.039999947,-9.78142499999997,0.021472081542101753,-0.03993942200011082,0.0037945213000080288,0.004694601055272079,0.015841138000033304
0.6525,-0.0013582813700047545,-0.7835953839999971,-0.0008106136140026501,-2.3595227200000104,0.0028112330800084597,1.5712077150000008,0.7846517239999958,0.0399999609,0.039999947450000004,-9.78129869999997,0.021838932298210847,-0.040408048700111235,0.003828472930008059,0.004853087966367894,0.01598196535003343
0.655,-0.0013783114400047732,-0.7835829279999971,-0.0008217782280026606,-2.3595660400000105,0.0028468729600084927,1.5712107300000007,0.7846340479999958,0.0399999618,0.0399999479,-9.78117239999997,0.022205783054319958,-0.040876675400111674,0.0038624245600080904,0.0050115748774637175,0.01612279270003356
0.6575,-0.001398341510004791,-0.7835704719999971,-0.0008329428420026704,-2.3596093600000105,0.0028825128400085244,1.5712137450000008,0.7846163719999958,0.0399999627,0.03999994835,-9.78104609999997,0.022572633810429055,-0.04134530210011209,0.003896376190008121,0.005170061788559533,0.016263620050033685
0.66,-0.0014183715800048097,-0.7835580159999971,-0.0008441074560026809,-2.3596526800000106,0.002918152720008558,1.5712167600000007,0.7845986959999958,0.0399999636,0.0399999488,-9.78091979999997,0.022939484566538167,-0.041813928800112525,0.0039303278200081525,0.005328548699655356,0.016404447400033814
0.6625,-0.0014384016500048275,-0.783545559999997,-0.0008552720700026908,-2.3596960000000107,0.0029537926000085895,1.5712197750000008,0.7845810199999957,0.0399999645,0.03999994925,-9.78079349999997,0.023306335322647264,-0.042282555500112944,0.003964279450008183,0.005487035610751171,0.01654527475003394
0.665,-0.0014584317200048462,-0.783533103999997,-0.0008664366840027012,-2.3597393200000103,0.002989432480008623,1.5712227900000006,0.7845633439999957,0.0399999654,0.0399999497,-9.78066719999997,0.023673186078756375,-0.04275118220011338,0.003998231080008214,0.0056455225218469945,0.016686102100034073
0.6675,-0.001478843635005142,-0.7835204499999968,-0.0008778140120028661,-2.359783410000011,0.0030257508000091486,1.5712259200000007,0.7845453269999955,0.0399999662,0.0399999502,-9.780543999999972,0.02404842264959793,-0.04322953970012088,0.004032495695008472,0.005805192422161017,0.016828161150035093
0.67,-0.0015000192400051618,-0.7835073999999969,-0.0008896167680028771,-2.3598290400000113,0.003063426000009184,1.5712292800000007,0.7845266279999955,0.0399999668,0.039999950799999996,-9.780426999999971,0.024440430849886115,-0.04372735880012135,0.004067386280008505,0.0059672283009088774,0.01697268360003523
0.6725,-0.0015211948450051806,-0.7834943499999968,-0.0009014195240028875,-2.359874670000011,0.0031011012000092173,1.5712326400000007,0.7845079289999954,0.0399999674,0.0399999514,-9.780309999999972,0.024832439050174286,-0.044225177900121794,0.004102276865008536,0.006129264179656732,0.017117206050035357
0.675,-0.0015423704500052004,-0.7834812999999968,-0.0009132222800028986,-2.3599203000000113,0.0031387764000092525,1.5712360000000007,0.7844892299999955,0.039999968000000004,0.039999952,-9.78019299999997,0.02522444725046247,-0.04472299700012226,0.004137167450008568,0.006291300058404593,0.017261728500035493
0.6775,-0.0015635460550052192,-0.7834682499999968,-0.000925025036002909,-2.359965930000011,0.003176451600009286,1.5712393600000008,0.7844705309999954,0.0399999686,0.0399999526,-9.780075999999971,0.025616455450750638,-0.0452208161001227,0.0041720580350085995,0.006453335937152447,0.01740625095003562
0.68,-0.001584721660005239,-0.7834551999999968,-0.0009368277920029201,-2.3600115600000113,0.0032141268000093213,1.5712427200000008,0.7844518319999955,0.0399999692,0.0399999532,-9.779958999999971,0.026008463651038823,-0.04571863520012316,0.004206948620008632,0.006615371815900308,0.017550773400035757
0.6825,-0.0016058972650052575,-0.7834421499999967,-0.0009486305480029305,-2.360057190000011,0.0032518020000093543,1.5712460800000008,0.7844331329999954,0.0399999698,0.039999953799999995,-9.77984199999997,0.026400471851326993,-0.046216454300123604,0.0042418392050086635,0.006777407694648162,0.017695295850035885
0.685,-0.0016278551600055699,-0.7834286439999966,-0.0009608690900031044,-2.3601044400000117,0.003290867060009909,1.5712495900000008,0.7844137539999951,0.0399999703,0.039999954399999996,-9.779709099999964,0.026809673570200605,-0.046736256300132284,0.004277364530008933,0.0069431868382215725,0.017842241800036924
0.6875,-0.0016502042000055897,-0.7834149099999965,-0.0009733255250031155,-2.360152500000012,0.0033306270500099446,1.571253175000001,0.784394034999995,0.03999997075,0.039999955,-9.779568249999965,0.027227472048357296,-0.04726704975013276,0.004313207225008965,0.007110837614205657,0.017990399500037058
0.6900000000000001,-0.0016725532400056105,-0.7834011759999965,-0.0009857819600031272,-2.360200560000012,0.0033703870400099817,1.571256760000001,0.7843743159999951,0.039999971200000005,0.0399999556,-9.779427399999964,0.027645270526514006,-0.04779784320013325,0.0043490499200089985,0.007278488390189747,0.018138557200037195
0.6925,-0.0016949022800056303,-0.7833874419999965,-0.000998238395003138,-2.360248620000012,0.0034101470300100167,1.571260345000001,0.784354596999995,0.03999997165,0.0399999562,-9.779286549999965,0.028063069004670697,-0.048328636650133726,0.00438489261500903,0.007446139166173832,0.018286714900037325
0.6950000000000001,-0.0017172513200056513,-0.7833737079999965,-0.00101069483000315,-2.3602966800000122,0.003449907020010054,1.5712639300000009,0.784334877999995,0.0399999721,0.0399999568,-9.779145699999965,0.028480867482827407,-0.048859430100134216,0.004420735310009064,0.007613789942157922,0.018434872600037462
0.6975,-0.001739600360005671,-0.7833599739999965,-0.0010231512650031608,-2.3603447400000124,0.0034896670100100892,1.5712675150000008,0.7843151589999949,0.03999997255,0.0399999574,-9.779004849999964,0.0288986659609841,-0.04939022355013469,0.004456578005009096,0.0077814407181420065,0.018583030300037596
0.7000000000000001,-0.0017619494000059978,-0.7833462399999963,-0.0010356077000033429,-2.360392800000013,0.0035294270000106693,1.5712711000000008,0.7842954399999946,0.039999973,0.039999958,-9.778863999999968,0.029316464439147445,-0.049921017000142405,0.004492420700009362,0.007949091494127194,0.018731188000038677
0.7025,-0.0017854989950060187,-0.7833318939999964,-0.0010487329850033544,-2.360443440000013,0.0035713203950107067,1.5712746850000008,0.7842746589999947,0.039999973,0.0399999574,-9.778740999999968,0.02976032895978702,-0.0504801721501429,0.004529177720009395,0.008121050568341448,0.018883052950038812
0.705,-0.0018090485900060396,-0.7833175479999963,-0.0010618582700033662,-2.360494080000013,0.003613213790010744,1.571278270000001,0.7842538779999947,0.039999973,0.0399999568,-9.778617999999968,0.030204193480426595,-0.0510393273001434,0.004565934740009427,0.0082930096425557,0.019034917900038948
0.7075,-0.0018325981850060614,-0.7833032019999963,-0.0010749835550033784,-2.360544720000013,0.003655107185010783,1.571281855000001,0.7842330969999947,0.039999973,0.0399999562,-9.778494999999968,0.030648058001066188,-0.05159848245014392,0.0046026917600094615,0.008464968716769961,0.019186782850039087
0.71,-0.0018561477800060823,-0.7832888559999963,-0.00108810884000339,-2.360595360000013,0.0036970005800108204,1.571285440000001,0.7842123159999946,0.039999973,0.0399999556,-9.778371999999969,0.031091922521705763,-0.05215763760014442,0.004639448780009494,0.008636927790984213,0.019338647800039223
0.7125,-0.0018796973750061043,-0.7832745099999963,-0.0011012341250034021,-2.3606460000000133,0.0037388939750108595,1.571289025000001,0.7841915349999946,0.039999973,0.039999955,-9.778248999999969,0.03153578704234536,-0.05271679275014494,0.004676205800009528,0.008808886865198474,0.019490512750039365
0.715,-0.0019032469700061253,-0.7832601639999963,-0.001114359410003414,-2.3606966400000133,0.0037807873700108964,1.571292610000001,0.7841707539999946,0.039999973,0.039999954399999996,-9.778125999999968,0.031979651562984934,-0.053275947900145434,0.0047129628200095605,0.008980845939412726,0.0196423777000395
0.7175,-0.0019272056650064676,-0.7832455769999961,-0.0011277125850036045,-2.360748140000014,0.0038234076350115048,1.571296310000001,0.7841496049999943,0.039999973200000004,0.0399999542,-9.778005799999969,0.032431483455124345,-0.05384234200015162,0.004750024895009834,0.009153938898862471,0.019795372450040528
0.72,-0.0019519825600064896,-0.783230507999996,-0.0011415215400036169,-2.360801360000014,0.003867481640011544,1.5713002400000011,0.7841277199999943,0.0399999738,0.0399999548,-9.777891199999969,0.03289925009024468,-0.05442321400015214,0.004787697080009867,0.009329299628780511,0.019950626800040665
0.7225,-0.0019767594550065127,-0.783215438999996,-0.0011553304950036297,-2.360854580000014,0.003911555645011585,1.5713041700000012,0.7841058349999943,0.0399999744,0.0399999554,-9.777776599999969,0.03336701672536504,-0.055004086000152684,0.004825369265009902,0.009504660358698559,0.02010588115004081
0.725,-0.0020015363500065345,-0.7832003699999961,-0.001169139450003642,-2.3609078000000143,0.003955629650011624,1.571308100000001,0.7840839499999943,0.039999975,0.039999956,-9.77766199999997,0.03383478336048537,-0.0555849580001532,0.004863041450009936,0.0096800210886166,0.020261135500040946
0.7275,-0.0020263132450065576,-0.7831853009999961,-0.0011829484050036548,-2.360961020000014,0.003999703655011665,1.5713120300000012,0.7840620649999942,0.0399999756,0.0399999566,-9.77754739999997,0.03430254999560573,-0.056165830000153745,0.004900713635009971,0.009855381818534648,0.020416389850041093
0.73,-0.00205109014000658,-0.783170231999996,-0.0011967573600036672,-2.3610142400000145,0.004043777660011704,1.571315960000001,0.7840401799999942,0.0399999762,0.0399999572,-9.77743279999997,0.034770316630726064,-0.05674670200015426,0.004938385820010004,0.010030742548452688,0.02057164420004123
0.7325,-0.002075867035006603,-0.783155162999996,-0.00121056631500368,-2.3610674600000143,0.004087851665011745,1.5713198900000012,0.7840182949999942,0.039999976799999996,0.0399999578,-9.77731819999997,0.03523808326584642,-0.057327574000154806,0.0049760580050100395,0.010206103278370737,0.020726898550041374
0.735,-0.00210147961000696,-0.7831396309999958,-0.001224840850003879,-2.361122380000015,0.00413341048001238,1.5713239700000012,0.7839956899999939,0.039999977299999996,0.039999958200000005,-9.777207499999971,0.0357268244029426,-0.05793754500016699,0.005014429430010354,0.010384468920576973,0.020884458900042438
0.7375,-0.0021275100250069843,-0.7831238674999959,-0.0012393481750038926,-2.3611781500000153,0.004179711700012424,1.5713281250000013,0.7839727249999938,0.03999997775,0.0399999585,-9.77709874999997,0.03622605279101413,-0.05856206550016757,0.00505315047501039,0.01056433701892551,0.021043172250042586
0.74,-0.0021535404400070076,-0.7831081039999958,-0.0012538555000039054,-2.361233920000015,0.004226012920012465,1.5713322800000011,0.7839497599999938,0.0399999782,0.0399999588,-9.776989999999971,0.036725281179085634,-0.05918658600016813,0.005091871520010424,0.010744205117274041,0.021201885600042727
0.7425,-0.002179570855007032,-0.7830923404999958,-0.001268362825003919,-2.361289690000015,0.004272314140012508,1.5713364350000012,0.7839267949999938,0.03999997865,0.0399999591,-9.77688124999997,0.037224509567157164,-0.05981110650016871,0.00513059256501046,0.010924073215622578,0.021360598950042876
0.745,-0.002205601270007055,-0.7830765769999958,-0.0012828701500039318,-2.3613454600000154,0.004318615360012549,1.5713405900000013,0.7839038299999938,0.0399999791,0.0399999594,-9.77677249999997,0.037723737955228674,-0.06043562700016926,0.005169313610010494,0.011103941313971109,0.021519312300043017
0.7475,-0.0022316316850070793,-0.7830608134999958,-0.0012973774750039454,-2.3614012300000153,0.004364916580012592,1.571344745000001,0.7838808649999938,0.039999979549999995,0.039999959700000004,-9.77666374999997,0.038222966343300205,-0.061060147500169845,0.0052080346550105305,0.011283809412319646,0.021678025650043165
0.75,-0.0022576621000074517,-0.7830450499999956,-0.0013118848000041527,-2.361457000000016,0.004411217800013253,1.5713489000000012,0.7838578999999934,0.03999998,0.03999996,-9.776554999999965,0.038722194731377384,-0.06168466800017647,0.005246755700010785,0.01146367751066931,0.021836739000044233
0.7525000000000001,-0.002284971535007477,-0.7830285814999955,-0.001327104610004167,-2.361515530000016,0.004459790785013298,1.5713530850000013,0.7838337949999934,0.03999998,0.03999996,-9.776425399999965,0.03924222365035942,-0.06233144580017708,0.005286282095010822,0.011647698422944205,0.021998847750044383
0.755,-0.0023122809700075013,-0.7830121129999955,-0.0013423244200041803,-2.361574060000016,0.004508363770013341,1.5713572700000011,0.7838096899999933,0.03999998,0.03999996,-9.776295799999964,0.03976225256934143,-0.06297822360017764,0.005325808490010857,0.011831719335219095,0.022160956500044526
0.7575000000000001,-0.0023395904050075265,-0.7829956444999955,-0.0013575442300041945,-2.361632590000016,0.004556936755013386,1.5713614550000012,0.7837855849999934,0.03999998,0.03999996,-9.776166199999965,0.04028228148832347,-0.06362500140017825,0.005365334885010894,0.012015740247493991,0.02232306525004468
0.76,-0.002366899840007551,-0.7829791759999954,-0.0013727640400042081,-2.361691120000016,0.00460550974001343,1.5713656400000011,0.7837614799999933,0.03999998,0.03999996,-9.776036599999964,0.04080231040730548,-0.06427177920017883,0.005404861280010929,0.012199761159768879,0.022485174000044822
0.7625000000000001,-0.002394209275007576,-0.7829627074999954,-0.0013879838500042221,-2.3617496500000166,0.004654082725013475,1.571369825000001,0.7837373749999933,0.03999998,0.03999996,-9.775906999999965,0.04132233932628752,-0.06491855700017943,0.005444387675010966,0.012383782072043777,0.022647282750044972
0.765,-0.0024215187100076,-0.7829462389999955,-0.0014032036600042357,-2.3618081800000166,0.0047026557100135185,1.571374010000001,0.7837132699999932,0.03999998,0.03999996,-9.775777399999964,0.041842368245269525,-0.06556533480018001,0.005483914070011001,0.012567802984318664,0.022809391500045115
0.7675000000000001,-0.0024492627500080225,-0.7829295269999952,-0.001418665605004471,-2.3618676050000174,0.004752000965014268,1.571378320000001,0.7836887829999929,0.0399999802,0.03999996,-9.775655049999969,0.04237311575577242,-0.06622232325018994,0.005523748850011342,0.012752843834512213,0.022972659500046427
0.77,-0.0024778760000081453,-0.7829123279999951,-0.0014346118200045394,-2.3619288200000175,0.004802890760014487,1.5713828800000011,0.7836635319999928,0.0399999808,0.03999996,-9.77554719999997,0.04292530044929009,-0.06689973300019285,0.005564200400011516,0.012939924560540498,0.023138246000047137
0.7725,-0.0025064892500082686,-0.782895128999995,-0.001450558035004608,-2.361990035000018,0.0048537805550147054,1.5713874400000012,0.7836382809999927,0.0399999814,0.03999996,-9.775439349999969,0.04347748514280777,-0.06757714275019576,0.0056046519500116895,0.013127005286568781,0.02330383250004785
0.775,-0.0025351025000083928,-0.782877929999995,-0.0014665042500046773,-2.362051250000018,0.004904670350014927,1.5713920000000012,0.7836130299999926,0.039999982,0.03999996,-9.775331499999968,0.04402966983632547,-0.0682545525001987,0.0056451035000118655,0.013314086012597075,0.02346941900004857
0.7775,-0.002563715750008516,-0.7828607309999949,-0.0014824504650047458,-2.3621124650000183,0.004955560145015145,1.5713965600000013,0.7835877789999924,0.0399999826,0.03999996,-9.775223649999967,0.04458185452984314,-0.06893196225020161,0.005685555050012039,0.013501166738625359,0.023635005500049284
0.78,-0.00259232900000864,-0.7828435319999948,-0.0014983966800048152,-2.362173680000019,0.005006449940015366,1.5714011200000013,0.7835625279999924,0.0399999832,0.03999996,-9.775115799999968,0.045134039223360845,-0.06960937200020456,0.005726006600012215,0.013688247464653651,0.02380059200005
0.7825,-0.002620942250008763,-0.7828263329999947,-0.0015143428950048837,-2.362234895000019,0.005057339735015585,1.5714056800000014,0.7835372769999922,0.0399999838,0.03999996,-9.775007949999967,0.045686223916878516,-0.07028678175020747,0.005766458150012388,0.013875328190681937,0.023966178500050714
0.785,-0.002650440930009164,-0.7828085699999945,-0.001530782420005107,-2.36229803000002,0.005109802400016297,1.5714103600000013,0.7835112469999919,0.0399999846,0.039999961,-9.774891699999964,0.04625613130646774,-0.07098953750021897,0.005807484940012644,0.014065467286913573,0.024133860600051644
0.7875,-0.0026803823250090885,-0.7827905249999945,-0.001547468600005065,-2.3623621250000197,0.005163051500016162,1.5714151000000014,0.783484827499992,0.0399999855,0.0399999625,-9.774771249999963,0.046834900044080426,-0.07170496625021716,0.00584879935001254,0.014257135568244754,0.024302590500051218
0.79,-0.0027103237200090144,-0.7827724799999946,-0.0015641547800050236,-2.3624262200000192,0.005216300600016031,1.5714198400000012,0.7834584079999921,0.0399999864,0.039999964,-9.774650799999964,0.04741366878169315,-0.07242039500021538,0.005890113760012437,0.014448803849575944,0.0244713204000508
0.7925,-0.0027402651150089385,-0.7827544349999946,-0.0015808409600049813,-2.362490315000019,0.005269549700015896,1.5714245800000013,0.7834319884999922,0.0399999873,0.039999965500000005,-9.774530349999964,0.04799243751930583,-0.07313582375021357,0.005931428170012333,0.014640472130907125,0.024640050300050374
0.795,-0.0027702065100088645,-0.7827363899999946,-0.00159752714000494,-2.362554410000019,0.005322798800015765,1.5714293200000014,0.7834055689999923,0.0399999882,0.039999967000000004,-9.774409899999965,0.04857120625691855,-0.07385125250021181,0.0059727425800122315,0.014832140412238315,0.024808780200049955
0.7975,-0.002800147905008789,-0.7827183449999947,-0.001614213320004898,-2.3626185050000186,0.00537604790001563,1.5714340600000014,0.7833791494999923,0.0399999891,0.039999968500000004,-9.774289449999966,0.04914997499453124,-0.07456668125021,0.006014056990012127,0.015023808693569497,0.02497751010004953
0.8,-0.0028300893000091083,-0.7827002999999946,-0.0016308995000050759,-2.3626826000000194,0.005429297000016198,1.5714388000000012,0.7833527299999921,0.03999999,0.03999997,-9.774168999999974,0.04972874373215277,-0.07528211000021881,0.006055371400012285,0.015215476974901478,0.025146240000050047
0.8025,-0.0028613826450092426,-0.7826815949999945,-0.0016483387850051508,-2.3627494400000195,0.0054849482000164365,1.5714436300000014,0.7833251254999919,0.03999999075,0.039999970450000005,-9.774075699999972,0.050337792374373504,-0.07603390400022204,0.0060975808900124665,0.015409864205924433,0.025318191150050788
0.805,-0.0028926759900093787,-0.7826628899999944,-0.0016657780700052266,-2.36281628000002,0.005540599400016678,1.5714484600000014,0.7832975209999917,0.0399999915,0.0399999709,-9.773982399999973,0.05094684101659426,-0.0767856980002253,0.00613979038001265,0.015604251436947398,0.025490142300051533
0.8075,-0.0029239693350095134,-0.7826441849999943,-0.0016832173550053015,-2.36288312000002,0.005596250600016918,1.5714532900000016,0.7832699164999917,0.03999999225,0.03999997135,-9.773889099999971,0.051555889658814996,-0.07753749200022854,0.006181999870012831,0.015798638667970353,0.025662093450052274
0.81,-0.002955262680009649,-0.7826254799999942,-0.0017006566400053773,-2.3629499600000203,0.005651901800017159,1.5714581200000015,0.7832423119999915,0.039999993000000005,0.0399999718,-9.773795799999972,0.05216493830103575,-0.0782892860002318,0.006224209360013015,0.01599302589899332,0.025834044600053018
0.8125,-0.0029865560250097838,-0.7826067749999942,-0.0017180959250054522,-2.363016800000021,0.005707553000017399,1.5714629500000015,0.7832147074999914,0.039999993750000004,0.03999997225,-9.773702499999972,0.05277398694325649,-0.07904108000023503,0.006266418850013196,0.016187413130016273,0.02600599575005376
0.8150000000000001,-0.0030178493700099194,-0.7825880699999941,-0.001735535210005528,-2.363083640000021,0.0057632042000176405,1.5714677800000016,0.7831871029999913,0.039999994500000004,0.039999972700000004,-9.77360919999997,0.053383035585477245,-0.0797928740002383,0.00630862834001338,0.01638180036103924,0.026177946900054504
0.8175,-0.0030496010100104216,-0.7825690949999938,-0.0017532298450058078,-2.363151490000022,0.005819669615018533,1.5714727350000017,0.7831590874999909,0.03999999525,0.039999973200000004,-9.77350429999996,0.0540020590650093,-0.08054983200024476,0.0063511268850137415,0.016577478312019146,0.0263509925500559
0.8200000000000001,-0.0030822692400103405,-0.7825495799999939,-0.0017714351800057625,-2.363221360000022,0.005877763460018389,1.5714779400000016,0.7831302499999909,0.039999996,0.0399999738,-9.77337619999996,0.05464103221913531,-0.08131711800024287,0.006394203540013635,0.016775737702909257,0.026526227200055465
0.8225,-0.003114937470010258,-0.7825300649999939,-0.0017896405150057166,-2.363291230000022,0.0059358573050182425,1.5714831450000017,0.783101412499991,0.03999999675,0.0399999744,-9.773248099999961,0.0552800053732613,-0.08208440400024093,0.006437280195013526,0.016973997093799355,0.026701461850055026
0.8250000000000001,-0.0031476057000101774,-0.7825105499999939,-0.0018078458500056715,-2.363361100000022,0.005993951150018098,1.5714883500000016,0.7830725749999911,0.0399999975,0.039999975,-9.773119999999961,0.05591897852738731,-0.08285169000023904,0.0064803568500134195,0.017172256484689466,0.02687669650005459
0.8275,-0.003180273930010095,-0.782491034999994,-0.0018260511850056256,-2.3634309700000213,0.006052044995017951,1.5714935550000015,0.7830437374999911,0.03999999825,0.0399999756,-9.77299189999996,0.05655795168151329,-0.0836189760002371,0.006523433505013311,0.017370515875579563,0.027051931150054147
0.8300000000000001,-0.003212942160010014,-0.7824715199999941,-0.0018442565200055805,-2.3635008400000213,0.006110138840017807,1.5714987600000014,0.7830148999999912,0.039999999,0.0399999762,-9.77286379999996,0.057196924835639304,-0.08438626200023519,0.006566510160013204,0.017568775266469674,0.027227165800053715
0.8325,-0.0032456103900099314,-0.7824520049999941,-0.0018624618550055346,-2.363570710000021,0.006168232685017661,1.5715039650000016,0.7829860624999913,0.03999999975,0.039999976799999996,-9.772735699999961,0.05783589798976529,-0.08515354800023327,0.006609586815013095,0.017767034657359772,0.027402400450053273
0.835,-0.0032792102600104254,-0.7824319399999938,-0.0018811862400058097,-2.3636425500000224,0.006227981400018538,1.5715092500000016,0.7829564149999908,0.04,0.039999977299999996,-9.772636699999975,0.05849377401193531,-0.0859563300002511,0.006653295580013473,0.017967353574993218,0.027579604000054533
