rsonawane2002/My_IMU/logs_2/traj_322/imu_322.csv
time,j1,j2,j3,j4,j5,j6,j7,gripper1,gripper2,imu_ax,imu_ay,imu_az,imu_gx,imu_gy,imu_gz
785.5833333329475,0.00016700293,-0.785875,4.0107683e-05,-2.3551247,9.29385e-05,1.570997,0.786,0.04,0.04,-9.454468,-0.010810624808073044,0.10219251,-6.2600486e-07,-0.001164127141237259,8.294156e-07
785.5999999996142,0.00016700075,-0.78576016,4.010782e-05,-2.3552213,9.297934e-05,1.5709941,0.786,0.04,0.04,-9.834426,0.0006127760862000287,0.00909629,5.1548227e-07,-0.0022393001709133387,1.5758505e-06
785.6166666662808,0.00016696373,-0.7856543,4.0060622e-05,-2.35531,9.3053925e-05,1.5709913,0.786,0.04,0.04,-9.8325,0.0005403480026870966,0.007531434,4.92424e-06,-0.0032326234504580498,6.0289262e-06
785.6333333329475,0.00016683206,-0.78555703,3.9888586e-05,-2.355391,9.323169e-05,1.5709884,0.786,0.04,0.039999995,-9.83084,0.0003930912644136697,0.006101973,1.7000246e-05,-0.004157274030148983,1.7796296e-05
785.6499999996141,0.00016651915,-0.7854678,3.948108e-05,-2.3554652,9.35763e-05,1.5709856,0.786,0.04,0.04,-9.829209,0.0001635243243072182,0.0047680805,3.969553e-05,-0.005017200019210577,3.739991e-05
785.6666666662808,0.00016591314,-0.7853863,3.8696497e-05,-2.3555322,9.4207266e-05,1.5709836,0.786,0.04,0.04,-9.827848,-0.00010406132787466049,0.003511516,7.620712e-05,-0.005825282074511051,6.978145e-05
785.6833333329474,0.0001648802,-0.7853121,3.736615e-05,-2.355597,9.525425e-05,1.5709841,0.786,0.04,0.04,-9.826456,-0.00042187911458313465,0.0023234654,0.00012918819,-0.006579252891242504,0.00011642209
785.6999999996141,0.00016326668,-0.78524506,3.5296896e-05,-2.3556552,9.6875054e-05,1.5709847,0.786,0.04,0.039999995,-9.825695,-0.0007737031555734575,0.0011893534,0.00020076803,-0.0073005505837500095,0.0001801611
785.7166666662807,0.00016090162,-0.78518474,3.227415e-05,-2.3557084,9.920354e-05,1.5709856,0.786,0.04,0.04,-9.824603,-0.00118806934915483,0.00013746927,0.00029366362,-0.007984167896211147,0.00025966513
785.7333333329474,0.00015759758,-0.78513134,2.8063332e-05,-2.355759,0.00010244508,1.5709865,0.786,0.04,0.04,-9.823742,-0.00158977834507823,-0.00081638154,0.00040928583,-0.008643146604299545,0.00036148066
785.749999999614,0.00015315368,-0.7850843,2.2412938e-05,-2.3558052,0.00010678279,1.5709875,0.786,0.04,0.04,-9.823206,-0.0020253281109035015,-0.0016925873,0.00054966845,-0.009291091933846474,0.00048370732
785.7666666662807,0.00014735671,-0.785044,1.5056448e-05,-2.355848,0.00011241991,1.5709919,0.7860019,0.04,0.04,-9.822555,-0.0024662669748067856,-0.002551443,0.0007163992,-0.009926551021635532,0.00062847725
785.7833333329473,0.00013998273,-0.7850102,5.7142115e-06,-2.35589,0.000119555174,1.5709966,0.7860038,0.03999999,0.03999999,-9.821931,-0.0029094372875988483,-0.0033721118,0.00090213586,-0.010538843460381031,0.00079727947
785.799999999614,0.00013079833,-0.78498316,-5.905583e-06,-2.355927,0.00012842388,1.5710014,0.78600574,0.039999988,0.039999988,-9.821804,-0.003347469959408045,-0.0040402235,0.0011171693,-0.011160613968968391,0.0009901758
785.8166666662806,0.00011956201,-0.7849629,-2.010427e-05,-2.3559623,0.00013925537,1.5710099,0.78600764,0.039999984,0.03999998,-9.821125,-0.0037713488563895226,-0.004648661,0.0013621172,-0.011773590929806232,0.0012096966
785.8333333329473,0.000106025494,-0.78494954,-3.7191978e-05,-2.355997,0.00015228409,1.5710185,0.78600955,0.03999998,0.039999977,-9.820845,-0.004178423900157213,-0.00524699,0.0016382359,-0.012380794622004032,0.0014545745
785.8499999996139,8.993442e-05,-0.7849434,-5.748597e-05,-2.3560307,0.00016775218,1.5710307,0.7860125,0.039999977,0.03999997,-9.820809,-0.004545453004539013,-0.0056728288,0.0019461403,-0.013005263172090054,0.0017271471
785.8666666662806,7.102973e-05,-0.7849445,-8.130973e-05,-2.3560615,0.00018590447,1.571045,0.7860163,0.03999997,0.03999996,-9.820655,-0.004892681259661913,-0.006110414,0.0022825098,-0.013631145469844341,0.002026211
785.8833333329472,4.904833e-05,-0.784953,-0.0001089914,-2.3560905,0.00020699049,1.5710613,0.7860201,0.039999966,0.039999958,-9.820337,-0.005186973139643669,-0.006411252,0.002648018,-0.014260162599384785,0.0023530184
785.8999999996139,2.3724047e-05,-0.7849692,-0.00014086314,-2.3561187,0.00023126326,1.5710812,0.7860239,0.03999997,0.039999958,-9.820173,-0.005434878170490265,-0.0066033853,0.0030473853,-0.014899706467986107,0.002708761
785.9166666662805,-5.2117284e-06,-0.78499347,-0.00017725998,-2.3561466,0.00025897607,1.5711035,0.78602964,0.039999973,0.03999996,-9.820087,-0.00563263101503253,-0.006740577,0.0034813848,-0.015547038055956364,0.0030919504
785.9333333329472,-3.80292e-05,-0.78502595,-0.00021851914,-2.3561742,0.0002903857,1.5711275,0.78603536,0.039999973,0.03999996,-9.820148,-0.005767097696661949,-0.0067249453,0.0039411336,-0.016213588416576385,0.0035036714
785.9499999996139,-7.4999734e-05,-0.7850671,-0.00026497908,-2.356202,0.00032574954,1.5711552,0.7860411,0.039999973,0.039999958,-9.820175,-0.0057868049480021,-0.006587124,0.0044363146,-0.01690215803682804,0.0039448477
785.9666666662805,-0.00011639507,-0.78511685,-0.000316979,-2.3562295,0.00036532438,1.5711867,0.7860487,0.039999973,0.039999958,-9.820277,-0.005823830608278513,-0.006425881,0.0049666935,-0.017607705667614937,0.0044138124
785.9833333329472,-0.000162487,-0.7851759,-0.00037485792,-2.3562577,0.00040936793,1.571222,0.78605634,0.039999977,0.03999996,-9.820354,-0.005734093487262726,-0.006152434,0.0055239997,-0.018331041559576988,0.004911437
785.9999999996138,-0.00021354677,-0.7852446,-0.00043895404,-2.3562865,0.0004581377,1.571261,0.7860656,0.039999977,0.039999958,-9.820504,-0.005552199203521013,-0.005721589,0.0061169374,-0.01907499134540558,0.0054384912
786.0166666662805,-0.00026984466,-0.7853229,-0.00050960487,-2.356316,0.0005118889,1.5713042,0.7860751,0.03999998,0.03999996,-9.820636,-0.005286546424031258,-0.0051787253,0.006738232,-0.019839955493807793,0.0059931814
786.0333333329471,-0.00033164947,-0.78541166,-0.00058714574,-2.3563468,0.0005708771,1.5713518,0.78608596,0.039999984,0.03999996,-9.820834,-0.004918722435832024,-0.0045319516,0.0073940335,-0.020628508180379868,0.0065770345
786.0499999996138,-0.00039922804,-0.785511,-0.00067191006,-2.3563797,0.0006353545,1.5714041,0.7860974,0.03999998,0.039999958,-9.821032,-0.004449675790965557,-0.00372802,0.008079438,-0.021439986303448677,0.0071881767
786.0666666662804,-0.00047284574,-0.7856211,-0.0007642286,-2.356414,0.00070557283,1.5714611,0.7861103,0.039999988,0.03999996,-9.821361,-0.0038600843399763107,-0.0028002295,0.008797758,-0.022278551012277603,0.007828077
786.0833333329471,-0.00055276486,-0.78574246,-0.00086442864,-2.356449,0.00078177993,1.5715227,0.78612363,0.03999999,0.039999966,-9.821596,-0.003169064410030842,-0.0017610639,0.009545149,-0.023141585290431976,0.008494792
786.0999999996137,-0.00063924567,-0.78587556,-0.00097283506,-2.3564844,0.0008642231,1.5715897,0.78613883,0.039999988,0.039999958,-9.821737,-0.0023446055129170418,-0.0005542869,0.010325952,-0.024027608335018158,0.009189707
786.1166666662804,-0.0007325451,-0.7860205,-0.001089769,-2.3565207,0.00095314585,1.5716617,0.78615475,0.03999999,0.039999958,-9.821841,-0.0014028390869498253,0.00080771,0.011133243,-0.024931691586971283,0.00991165
786.133333332947,-0.00083291694,-0.7861779,-0.0012155464,-2.3565595,0.0010487882,1.571739,0.7861719,0.03999999,0.039999958,-9.821963,-0.0003322269767522812,0.002315498,0.011972395,-0.025857744738459587,0.01065943
786.1499999996137,-0.0009406118,-0.78634787,-0.001350481,-2.3566017,0.0011513883,1.5718222,0.7861905,0.039999995,0.039999958,-9.822303,0.000888582319021225,0.004003193,0.012840802,-0.026812788099050522,0.011434423
786.1666666662803,-0.0010558771,-0.78653085,-0.001494881,-2.3566449,0.0012611795,1.5719111,0.78621024,0.04,0.03999996,-9.822774,0.0022389106452465057,0.005821714,0.013736951,-0.02779983915388584,0.012234544
786.183333332947,-0.0011789552,-0.7867272,-0.0016490497,-2.3566887,0.0013783927,1.5720061,0.7862313,0.04,0.03999996,-9.822866,0.003739314153790474,0.007803022,0.014662329,-0.02880580723285675,0.0130606145
786.1999999996136,-0.0013100859,-0.78693724,-0.0018132863,-2.3567355,0.0015032551,1.5721074,0.7862538,0.04,0.039999954,-9.822914,0.005465472117066383,0.010007139,0.0156156765,-0.029831452295184135,0.013912103
786.2166666662803,-0.0014495043,-0.78716135,-0.0019878845,-2.3567855,0.0016359888,1.572215,0.7862777,0.04,0.039999958,-9.8232975,0.007200764492154121,0.01232171,0.016595662,-0.030884109437465668,0.014787854
786.2333333329469,-0.0015974428,-0.7873997,-0.0021731334,-2.3568366,0.0017768141,1.5723292,0.78630316,0.04,0.03999995,-9.823717,0.00918012298643589,0.014844091,0.017602872,-0.031967394053936005,0.015688349
786.2499999996136,-0.0017541276,-0.7876531,-0.0023693165,-2.3568895,0.001925946,1.57245,0.78633016,0.04,0.03999995,-9.823775,0.011313613504171371,0.017542971,0.018635768,-0.033068593591451645,0.016612578
786.2666666662802,-0.0019197817,-0.78792137,-0.0025767116,-2.3569472,0.0020835951,1.572578,0.7863585,0.04,0.039999947,-9.823911,0.013622008264064789,0.020463102,0.019694079,-0.034189119935035706,0.017559988
786.2833333329469,-0.0020946234,-0.788205,-0.0027955924,-2.357006,0.0022499685,1.5727128,0.78638834,0.04,0.03999995,-9.824488,0.016104843467473984,0.023550916,0.020778622,-0.035345014184713364,0.018530197
786.2999999996135,-0.0022788655,-0.7885047,-0.0030262254,-2.3570669,0.0024252695,1.572855,0.7864199,0.04,0.039999943,-9.824572,0.018763482570648193,0.02683928,0.021887805,-0.03651970997452736,0.01952299
786.3166666662802,-0.0024727187,-0.78882027,-0.0032688715,-2.3571327,0.0026096955,1.5730046,0.7864532,0.03999999,0.03999993,-9.824645,0.02160811424255371,0.030352965,0.023020266,-0.03771059960126877,0.020537613
786.3333333329468,-0.0026763864,-0.78915226,-0.0035237873,-2.3571994,0.0028034411,1.5731617,0.78648823,0.039999995,0.039999932,-9.82517,0.024644147604703903,0.034044407,0.024175912,-0.0389350987970829,0.021573499
786.3499999996135,-0.0028900695,-0.78950095,-0.0037912214,-2.3572705,0.0030066953,1.5733265,0.78652495,0.04,0.039999932,-9.82518,0.02786518819630146,0.037960302,0.025354052,-0.04017416387796402,0.022630433
786.3666666662801,-0.0031139622,-0.78986675,-0.004071419,-2.3573444,0.0032196434,1.5734991,0.7865634,0.04,0.039999932,-9.825538,0.03128352761268616,0.042091627,0.026554285,-0.041440729051828384,0.023707343
786.3833333329468,-0.0033482562,-0.7902497,-0.0043646167,-2.3574202,0.0034424658,1.5736796,0.78660357,0.039999995,0.03999992,-9.825748,0.03490651026368141,0.046431735,0.027776323,-0.042728692293167114,0.024804363
786.3999999996134,-0.0035931366,-0.79065,-0.0046710484,-2.3575015,0.003675339,1.5738682,0.78664553,0.039999995,0.039999917,-9.825809,0.0387251041829586,0.051001653,0.029019415,-0.04403403401374817,0.02592123
786.4166666662801,-0.0038487841,-0.7910683,-0.00499094,-2.3575842,0.003918435,1.5740652,0.78668934,0.04,0.039999917,-9.826335,0.042752012610435486,0.05577135,0.030282537,-0.045372139662504196,0.027056428
786.4333333329467,-0.0041153748,-0.79150474,-0.0053245085,-2.3576727,0.0041719186,1.5742708,0.786735,0.04,0.03999992,-9.826245,0.04698222130537033,0.06078525,0.031565517,-0.046720266342163086,0.028208993
786.4499999996134,-0.0043930807,-0.79195964,-0.00567197,-2.3577623,0.004435955,1.5744851,0.78678256,0.04,0.039999917,-9.826692,0.05153924599289894,0.06607493,0.03286768,-0.048100151121616364,0.029379686
786.46666666628,-0.004682067,-0.7924332,-0.006033532,-2.3578544,0.004710701,1.5747075,0.7868321,0.04,0.039999913,-9.826611,0.05611744523048401,0.07149982,0.034188297,-0.04948822036385536,0.030568322
786.4833333329467,-0.0049824947,-0.7929257,-0.0064093964,-2.3579516,0.0049963086,1.5749391,0.78688353,0.039999995,0.039999902,-9.826638,0.06100029870867729,0.077240735,0.03552615,-0.050893351435661316,0.031773183
786.4999999996134,-0.005294522,-0.79343724,-0.0067997607,-2.358051,0.0052929264,1.5751795,0.78693694,0.039999995,0.0399999,-9.827017,0.0661204606294632,0.08320663,0.03688141,-0.052324093878269196,0.032994185
786.51666666628,-0.0056182984,-0.79396826,-0.0072048125,-2.358156,0.0056006988,1.5754291,0.7869923,0.03999999,0.03999989,-9.82695,0.07146158814430237,0.08940086,0.0382533,-0.05376778542995453,0.034230713
786.5333333329467,-0.005953973,-0.7945189,-0.007624737,-2.358263,0.005919766,1.5756878,0.7870497,0.039999995,0.03999989,-9.827304,0.07703413814306259,0.09586721,0.039641157,-0.05523785948753357,0.03548234
786.5499999996133,-0.0063016876,-0.79508936,-0.008059712,-2.3583755,0.0062502637,1.5759559,0.7871092,0.04,0.03999989,-9.827202,0.0828370749950409,0.10256536,0.04104419,-0.05671801418066025,0.036748413
786.56666666628,-0.0066615776,-0.7956799,-0.008509905,-2.3584902,0.006592319,1.5762333,0.7871708,0.04,0.039999887,-9.827532,0.08888162672519684,0.10951705,0.04246163,-0.05822417512536049,0.038027916
786.5833333329466,-0.007033777,-0.79629076,-0.008975486,-2.3586109,0.006946059,1.5765201,0.7872346,0.04,0.039999884,-9.827353,0.095161072909832,0.116732195,0.043892615,-0.05973859876394272,0.039321367
786.5999999996133,-0.0074184136,-0.7969224,-0.009456608,-2.3587332,0.007311606,1.5768163,0.78730047,0.04,0.03999988,-9.827676,0.10169272124767303,0.12420252,0.04533654,-0.06128019839525223,0.040627867
786.6166666662799,-0.007815607,-0.7975741,-0.009953431,-2.3588622,0.0076890728,1.5771224,0.78736854,0.039999995,0.039999872,-9.827406,0.10845652222633362,0.13193762,0.046793338,-0.06282708048820496,0.04194658
786.6333333329466,-0.008225477,-0.7982469,-0.0104661025,-2.358992,0.008078572,1.5774381,0.78743875,0.04,0.039999872,-9.827798,0.11548195779323578,0.1398794,0.048261847,-0.06440358608961105,0.04327793
786.6499999996132,-0.008648136,-0.7989408,-0.010994757,-2.3591292,0.008480215,1.5777636,0.7875111,0.039999995,0.039999865,-9.827372,0.12274061888456345,0.14813676,0.049741823,-0.06598144769668579,0.044619255
786.6666666662799,-0.009083695,-0.79965585,-0.0115395365,-2.3592675,0.008894104,1.5780993,0.78758574,0.04,0.03999987,-9.827728,0.1302681267261505,0.15665707,0.051232368,-0.06758835911750793,0.04597275
786.6833333329465,-0.009532255,-0.8003924,-0.012100567,-2.3594122,0.009320331,1.5784447,0.78766257,0.04,0.03999986,-9.827278,0.13803648948669434,0.16541067,0.052733146,-0.06919489055871964,0.047335796
786.6999999996132,-0.0099939145,-0.8011506,-0.012677977,-2.3595595,0.009758996,1.5788002,0.7877416,0.039999995,0.039999854,-9.827446,0.14618399739265442,0.1745438,0.05424306,-0.07082818448543549,0.048708115
786.7166666662798,-0.010468769,-0.80193037,-0.013271877,-2.3597121,0.0102101825,1.5791662,0.78782284,0.04,0.039999854,-9.827156,0.1543729305267334,0.18380404,0.055761993,-0.07246623188257217,0.050090805
786.7333333329465,-0.010956906,-0.8027321,-0.013882385,-2.359868,0.010673984,1.5795419,0.7879064,0.04,0.03999985,-9.82716,0.16291822493076324,0.19336727,0.057289295,-0.07412181794643402,0.05148115
786.7499999996131,-0.011458412,-0.8035557,-0.014509602,-2.3600285,0.011150472,1.5799283,0.78799224,0.04,0.03999985,-9.826828,0.1717471480369568,0.20325914,0.05882386,-0.0757860392332077,0.052880794
786.7666666662798,-0.011973369,-0.80440146,-0.015153637,-2.3601947,0.011639726,1.5803249,0.7880804,0.04,0.03999985,-9.826693,0.1808348298072815,0.21337466,0.0603656,-0.0774647518992424,0.05428765
786.7833333329464,-0.012501849,-0.8052693,-0.015814574,-2.3603632,0.012141825,1.5807319,0.7881708,0.04,0.03999984,-9.826603,0.1901916265487671,0.22379707,0.061913326,-0.0791611447930336,0.055701245
786.7999999996131,-0.013043922,-0.8061596,-0.016492503,-2.3605385,0.012656828,1.5811495,0.7882636,0.04,0.039999843,-9.826084,0.19981323182582855,0.23446514,0.06346697,-0.08086099475622177,0.057122078
786.8166666662797,-0.013599663,-0.80707246,-0.017187519,-2.3607156,0.013184802,1.5815777,0.78835875,0.04,0.039999835,-9.826061,0.20971719920635223,0.24544749,0.065025456,-0.08258119225502014,0.058549333
786.8333333329464,-0.014169125,-0.80800784,-0.017899692,-2.360899,0.013725803,1.5820161,0.78845614,0.04,0.039999835,-9.825341,0.21989062428474426,0.2566802,0.06658847,-0.08429890125989914,0.059982065
786.849999999613,-0.014752366,-0.80896586,-0.018629098,-2.361085,0.014279891,1.5824652,0.788556,0.04,0.039999824,-9.825198,0.23034994304180145,0.26821464,0.06815538,-0.08603750914335251,0.061420318
786.8666666662797,-0.015349442,-0.80994666,-0.019375795,-2.3612764,0.014847113,1.582925,0.78865814,0.04,0.039999824,-9.824518,0.2410668134689331,0.28001475,0.06972555,-0.087777279317379,0.062863104
786.8833333329463,-0.015960403,-0.81095016,-0.020139847,-2.3614717,0.015427515,1.5833955,0.7887627,0.04,0.039999817,-9.824166,0.2520858645439148,0.29211116,0.071298584,-0.08953080326318741,0.06431069
786.899999999613,-0.01658529,-0.81197655,-0.020921316,-2.361671,0.016021138,1.5838767,0.7888696,0.04,0.039999813,-9.823524,0.26336967945098877,0.30446547,0.072873496,-0.09128933399915695,0.06576172
786.9166666662796,-0.017224146,-0.81302613,-0.02172025,-2.3618758,0.016628025,1.5843691,0.788979,0.039999995,0.039999805,-9.822884,0.274941623210907,0.31712663,0.07444987,-0.09305473417043686,0.06721572
786.9333333329463,-0.017877007,-0.81409866,-0.022536688,-2.3620844,0.017248206,1.5848715,0.7890907,0.039999995,0.0399998,-9.822323,0.28679949045181274,0.33006552,0.076026954,-0.09482899308204651,0.068673
786.9499999996129,-0.018543905,-0.8151942,-0.023370676,-2.362298,0.017881714,1.5853851,0.78920484,0.04,0.0399998,-9.821477,0.2990597188472748,0.34336197,0.077604674,-0.0966111496090889,0.070132695
786.9666666662796,-0.019224865,-0.8163129,-0.024222244,-2.3625154,0.018528573,1.5859097,0.78932136,0.04,0.0399998,-9.820905,0.3113761246204376,0.35678494,0.07918168,-0.0984024703502655,0.07159441
786.9833333329462,-0.019919913,-0.8174547,-0.025091419,-2.3627377,0.019188803,1.586445,0.78944033,0.04,0.039999794,-9.819928,0.32409095764160156,0.3705656,0.08075806,-0.10019364953041077,0.07305781
786.9999999996129,-0.020629067,-0.81861967,-0.025978228,-2.3629642,0.019862432,1.5869912,0.7895617,0.04,0.03999979,-9.81914,0.33709943294525146,0.38463616,0.08233307,-0.10199511051177979,0.074522495
787.0166666662795,-0.021352338,-0.81980795,-0.026882691,-2.3631957,0.020549463,1.587548,0.78968537,0.04,0.039999787,-9.8181715,0.3503950238227844,0.39897925,0.083906226,-0.10380054265260696,0.07598687
787.0333333329462,-0.022089735,-0.82101935,-0.02780483,-2.3634312,0.021249905,1.5881158,0.7898116,0.03999999,0.039999776,-9.817187,0.36398717761039734,0.41362584,0.08547699,-0.10561265796422958,0.07745202
787.0499999996129,-0.022841271,-0.8222541,-0.028744634,-2.3636713,0.021963771,1.5886943,0.78994024,0.04,0.03999978,-9.816091,0.37787196040153503,0.428516,0.087044075,-0.10742843896150589,0.07891719
787.0666666662795,-0.023606949,-0.823512,-0.029702118,-2.363916,0.022691065,1.5892838,0.7900713,0.039999995,0.039999772,-9.814907,0.3920433521270752,0.44372422,0.08860778,-0.10924801975488663,0.080381274
787.0833333329462,-0.02438676,-0.82479316,-0.030677283,-2.364165,0.023431785,1.5898842,0.79020476,0.04,0.039999772,-9.813719,0.4065147936344147,0.45918915,0.090167426,-0.11107169836759567,0.081844516
787.0999999996128,-0.025180709,-0.8260976,-0.031670112,-2.3644192,0.024185928,1.5904956,0.7903406,0.039999995,0.039999764,-9.812417,0.42128145694732666,0.47493672,0.09172235,-0.11289886385202408,0.083306104
787.1166666662795,-0.025988782,-0.8274251,-0.0326806,-2.364677,0.024953485,1.5911177,0.79047894,0.04,0.03999977,-9.811084,0.4363415241241455,0.49097145,0.09327212,-0.11472978442907333,0.084765926
787.1333333329461,-0.026810963,-0.828776,-0.033708736,-2.36494,0.02573444,1.5917509,0.7906197,0.04,0.039999764,-9.809515,0.45169663429260254,0.5072603,0.09481577,-0.1165599375963211,0.086223595
787.1499999996128,-0.027647238,-0.8301501,-0.03475449,-2.365207,0.026528778,1.5923948,0.79076284,0.04,0.039999757,-9.808067,0.4673544466495514,0.5238648,0.09635325,-0.11839493364095688,0.087678395
787.1666666662794,-0.028497586,-0.83154714,-0.035817854,-2.3654788,0.027336478,1.5930498,0.79090834,0.04,0.03999976,-9.8063545,0.48330259323120117,0.5407235,0.097883955,-0.12022825330495834,0.08912999
787.1833333329461,-0.029361986,-0.83296734,-0.036898784,-2.3657546,0.02815752,1.5937154,0.7910562,0.04,0.039999753,-9.804701,0.4995565414428711,0.55783695,0.09940771,-0.1220650002360344,0.09057786
787.1999999996127,-0.030240413,-0.8344108,-0.03799724,-2.366035,0.028991878,1.5943921,0.79120654,0.04,0.039999753,-9.802743,0.5162168145179749,0.57530576,0.1009235,-0.12390129268169403,0.09202195
787.2166666662794,-0.031132823,-0.83587706,-0.039113186,-2.3663204,0.029839525,1.5950794,0.7913593,0.04,0.03999975,-9.800893,0.5329482555389404,0.5929394,0.10243107,-0.12573571503162384,0.09346188
787.233333332946,-0.032039184,-0.8373663,-0.040246576,-2.3666096,0.030700417,1.5957772,0.79151446,0.04,0.039999742,-9.798977,0.5501019358634949,0.61087143,0.10392955,-0.12757351994514465,0.09489763
787.2499999996127,-0.03295946,-0.8388783,-0.041397363,-2.366904,0.031574532,1.5964857,0.79167193,0.04,0.039999742,-9.796823,0.5675381422042847,0.6290968,0.10541868,-0.12941037118434906,0.09632758
787.2666666662793,-0.033893615,-0.8404131,-0.042565495,-2.367202,0.032461826,1.597205,0.7918318,0.04,0.03999973,-9.794682,0.5852876901626587,0.647562,0.10689832,-0.13124851882457733,0.097752675
787.283333332946,-0.034841593,-0.8419706,-0.04375092,-2.367505,0.03336224,1.5979346,0.79199404,0.04,0.03999973,-9.792245,0.6033226847648621,0.66629225,0.10836774,-0.13308106362819672,0.09917171
787.2999999996126,-0.03580335,-0.8435508,-0.044953566,-2.3678124,0.03427574,1.5986753,0.79215866,0.04,0.039999727,-9.789926,0.6216744780540466,0.6853082,0.109826155,-0.13491766154766083,0.100584514
787.3166666662793,-0.036778826,-0.8451536,-0.04617337,-2.3681242,0.035202276,1.5994262,0.7923255,0.04,0.039999727,-9.787338,0.6403090953826904,0.70456314,0.11127341,-0.13674885034561157,0.10199114
787.3333333329459,-0.037767965,-0.8467788,-0.047410265,-2.3684402,0.03614178,1.6001881,0.7924947,0.03999999,0.039999712,-9.784712,0.6592563390731812,0.7240804,0.11270965,-0.13857950270175934,0.103391215
787.3499999996126,-0.038770713,-0.84842634,-0.04866417,-2.3687599,0.03709422,1.6009603,0.7926664,0.04,0.039999716,-9.781896,0.6784857511520386,0.74384683,0.11413385,-0.14040394127368927,0.10478395
787.3666666662792,-0.039787013,-0.8500962,-0.04993502,-2.3690846,0.038059525,1.6017426,0.79284036,0.04,0.039999712,-9.778905,0.6980215311050415,0.76386833,0.115544915,-0.14222371578216553,0.106169246
787.3833333329459,-0.040816776,-0.85178816,-0.051222723,-2.3694134,0.039037634,1.6025355,0.79301655,0.04,0.03999971,-9.7759905,0.7178571820259094,0.7841675,0.11694286,-0.14404387772083282,0.107546926
787.3999999996125,-0.04185995,-0.85350233,-0.05252719,-2.3697467,0.040028475,1.6033386,0.793195,0.04,0.039999716,-9.772769,0.737983763217926,0.80467796,0.11832819,-0.145858034491539,0.108916335
787.4166666662792,-0.042916454,-0.8552383,-0.053848334,-2.3700843,0.04103198,1.6041522,0.79337573,0.04,0.039999712,-9.769518,0.7584166526794434,0.82546985,0.11969954,-0.1476687490940094,0.11027734
787.4333333329458,-0.043986212,-0.85699606,-0.05518606,-2.370426,0.042048085,1.6049758,0.7935588,0.04,0.039999697,-9.766083,0.7791346311569214,0.8464648,0.12105694,-0.1494736224412918,0.11162989
787.4499999996125,-0.045069154,-0.8587757,-0.05654026,-2.370772,0.043076713,1.6058096,0.7937442,0.04,0.0399997,-9.762413,0.8002515435218811,0.86777,0.12239936,-0.15127399563789368,0.112973265
787.4666666662791,-0.0461652,-0.8605766,-0.05791084,-2.371122,0.044117782,1.6066533,0.7939318,0.04,0.0399997,-9.758799,0.8214622735977173,0.88923156,0.123726286,-0.15306825935840607,0.11430622
787.4833333329458,-0.047274254,-0.8623989,-0.059297703,-2.3714764,0.045171212,1.6075073,0.7941216,0.04,0.039999694,-9.754919,0.8430741429328918,0.9109316,0.1250382,-0.15485592186450958,0.115630694
787.4999999996124,-0.04839623,-0.86424255,-0.06070073,-2.3718348,0.046236932,1.6083714,0.7943136,0.04,0.039999694,-9.750987,0.8649758100509644,0.9328849,0.12633395,-0.15663883090019226,0.116945095
787.5166666662791,-0.049531035,-0.8661072,-0.062119793,-2.3721972,0.04731483,1.6092452,0.79450786,0.04,0.039999682,-9.746778,0.8871625065803528,0.95507145,0.12761377,-0.15841302275657654,0.118249126
787.5333333329457,-0.05067858,-0.867993,-0.0635548,-2.3725636,0.048404835,1.610129,0.7947042,0.04,0.03999968,-9.742455,0.9096357822418213,0.9774797,0.12887697,-0.160180002450943,0.119543076
787.5499999996124,-0.051838763,-0.8698994,-0.0650056,-2.3729339,0.04950684,1.6110224,0.79490274,0.04,0.039999686,-9.737964,0.9324067831039429,1.0001222,0.1301235,-0.16193746030330658,0.120825075
787.566666666279,-0.05301149,-0.8718266,-0.06647209,-2.3733084,0.050620764,1.6119255,0.7951035,0.04,0.039999675,-9.7332945,0.955459475517273,1.022964,0.13135283,-0.16368669271469116,0.12209699
787.5833333329457,-0.05419664,-0.8737742,-0.06795411,-2.3736868,0.05174651,1.612838,0.79530627,0.039999995,0.039999668,-9.728544,0.9787992238998413,1.0460445,0.1325641,-0.16542823612689972,0.12335726
787.5999999996124,-0.05539412,-0.875742,-0.06945156,-2.3740695,0.05288396,1.61376,0.7955112,0.04,0.039999675,-9.723534,1.0024222135543823,1.0693089,0.13375792,-0.16716007888317108,0.12460599
787.616666666279,-0.056603815,-0.8777299,-0.070964314,-2.3744557,0.054033037,1.6146915,0.79571813,0.04,0.03999968,-9.71846,1.026340126991272,1.0928009,0.1349333,-0.16888588666915894,0.12584315
787.6333333329457,-0.05782562,-0.8797377,-0.072492205,-2.3748462,0.05519362,1.6156322,0.79592717,0.04,0.03999967,-9.713094,1.0505263805389404,1.116468,0.1360904,-0.1705995500087738,0.1270684
787.6499999996123,-0.059059434,-0.8817653,-0.0740351,-2.3752403,0.05636562,1.6165822,0.7961383,0.04,0.039999668,-9.707685,1.0749996900558472,1.1403738,0.13722816,-0.1723065823316574,0.12828128
787.666666666279,-0.060305126,-0.88381237,-0.07559284,-2.375638,0.05754889,1.6175413,0.79635143,0.04,0.03999967,-9.701943,1.0997462272644043,1.164452,0.13834676,-0.17400051653385162,0.12948084
787.6833333329456,-0.06156257,-0.885879,-0.07716527,-2.3760395,0.058743358,1.6185097,0.7965666,0.04,0.039999668,-9.696052,1.124767780303955,1.1887213,0.13944565,-0.17568287253379822,0.13066857
787.6999999996123,-0.062831655,-0.88796455,-0.07875225,-2.3764446,0.059948873,1.6194868,0.79678386,0.04,0.039999656,-9.689881,1.150148868560791,1.2132348,0.14052492,-0.17735260725021362,0.1318433
787.7166666662789,-0.06411225,-0.89006895,-0.08035367,-2.3768537,0.06116533,1.620473,0.7970031,0.04,0.039999653,-9.683746,1.1756391525268555,1.2378354,0.14158365,-0.17901106178760529,0.13300431
787.7333333329456,-0.065404244,-0.8921925,-0.08196933,-2.3772657,0.062392607,1.6214681,0.7972242,0.04,0.03999966,-9.6773815,1.2014868259429932,1.2626542,0.14262132,-0.1806599199771881,0.13415235
787.7499999996122,-0.06670746,-0.89433426,-0.083599046,-2.3776822,0.06363062,1.6224716,0.7974473,0.04,0.03999965,-9.670572,1.2275899648666382,1.2876807,0.14363933,-0.18228943645954132,0.13528633
787.7666666662789,-0.068021834,-0.8964944,-0.085242674,-2.3781016,0.06487918,1.6234838,0.79767233,0.04,0.03999965,-9.663921,1.2539654970169067,1.3128567,0.14463587,-0.1839139610528946,0.13640648
787.7833333329455,-0.0693472,-0.8986726,-0.08690006,-2.3785253,0.06613819,1.6245043,0.7978991,0.04,0.039999645,-9.656766,1.2806037664413452,1.3381956,0.14561109,-0.185520201921463,0.13751322
787.7999999996122,-0.07068341,-0.9008687,-0.08857103,-2.3789513,0.06740753,1.6255333,0.79812783,0.04,0.03999964,-9.649614,1.3075073957443237,1.3637104,0.14656512,-0.18711720407009125,0.13860473
787.8166666662788,-0.07203035,-0.9030826,-0.0902554,-2.3793817,0.06868706,1.6265706,0.7983584,0.04,0.039999638,-9.64204,1.334662914276123,1.389376,0.14749756,-0.188695028424263,0.13968259
787.8333333329455,-0.073387854,-0.9053137,-0.09195297,-2.3798149,0.06997664,1.627616,0.7985907,0.039999995,0.039999634,-9.634437,1.3620727062225342,1.4152193,0.14840779,-0.19026067852973938,0.14074478
787.8499999996121,-0.07475577,-0.90756214,-0.09366363,-2.3802516,0.07127613,1.6286694,0.79882485,0.04,0.039999638,-9.626534,1.3897387981414795,1.4411662,0.14929605,-0.19181109964847565,0.14179353
787.8666666662788,-0.076134,-0.90982753,-0.09538716,-2.3806918,0.0725854,1.6297307,0.79906076,0.04,0.03999964,-9.61843,1.4176546335220337,1.467306,0.15016209,-0.19334697723388672,0.1428264
787.8833333329454,-0.07752236,-0.9121093,-0.09712335,-2.381135,0.07390429,1.6308,0.79929817,0.04,0.039999634,-9.610089,1.4458199739456177,1.4935695,0.15100518,-0.194865882396698,0.1438441
787.8999999996121,-0.078920715,-0.9144077,-0.09887204,-2.381582,0.0752327,1.6318768,0.7995373,0.04,0.03999963,-9.6015835,1.4742348194122314,1.5199357,0.1518265,-0.19637060165405273,0.1448477
787.9166666662787,-0.08032889,-0.91672236,-0.10063305,-2.3820312,0.07657048,1.6329613,0.7997783,0.04,0.039999638,-9.592876,1.5028808116912842,1.5464779,0.15262449,-0.19786155223846436,0.14583436
787.9333333329454,-0.08174675,-0.9190529,-0.102406144,-2.3824842,0.077917464,1.6340532,0.8000209,0.04,0.039999627,-9.583717,1.5317516326904297,1.5731313,0.15339936,-0.1993301659822464,0.14680532
787.949999999612,-0.083174154,-0.92139906,-0.104191184,-2.38294,0.079273514,1.6351526,0.80026525,0.04,0.039999623,-9.574499,1.5609462261199951,1.5999278,0.15415052,-0.20078524947166443,0.1477616
787.9666666662787,-0.084610924,-0.9237608,-0.105987966,-2.3833985,0.08063847,1.6362591,0.8005112,0.04,0.039999627,-9.56511,1.5902409553527832,1.6267935,0.15487762,-0.20222240686416626,0.14870045
787.9833333329453,-0.08605691,-0.92613775,-0.107796244,-2.3838603,0.0820122,1.6373725,0.80075884,0.04,0.039999623,-9.555344,1.6198179721832275,1.6537964,0.15558138,-0.2036399096250534,0.14962375
787.999999999612,-0.087511934,-0.9285295,-0.109615825,-2.3843246,0.08339453,1.638493,0.80100787,0.04,0.039999623,-9.545441,1.6496379375457764,1.6809322,0.1562606,-0.20504114031791687,0.15053153
788.0166666662786,-0.08897584,-0.9309359,-0.111446545,-2.3847919,0.08478534,1.6396203,0.8012582,0.04,0.039999627,-9.535208,1.679646611213684,1.7081265,0.15691702,-0.20642194151878357,0.15142165
788.0333333329453,-0.09044847,-0.9333566,-0.11328818,-2.385262,0.08618444,1.6407545,0.8015104,0.04,0.039999627,-9.524794,1.7098976373672485,1.7354472,0.15755008,-0.207784041762352,0.15229565
788.0499999996119,-0.091929674,-0.9357915,-0.1151405,-2.3857346,0.087591685,1.6418953,0.8017641,0.04,0.039999623,-9.514158,1.7403690814971924,1.7628433,0.15815732,-0.2091282457113266,0.15315342
788.0666666662786,-0.09341925,-0.93824023,-0.11700335,-2.3862102,0.089006886,1.6430427,0.80201894,0.04,0.03999962,-9.503171,1.7710306644439697,1.7903404,0.15874031,-0.21044960618019104,0.15399405
788.0833333329452,-0.09491702,-0.94070244,-0.11887644,-2.386688,0.09042994,1.6441963,0.8022751,0.04,0.039999615,-9.492059,1.8019157648086548,1.8179163,0.1592998,-0.211752787232399,0.15481725
788.0999999996119,-0.09642285,-0.9431778,-0.12075962,-2.3871686,0.09186063,1.645356,0.8025328,0.04,0.03999962,-9.480562,1.832979679107666,1.8455577,0.15983582,-0.21303340792655945,0.15562358
788.1166666662785,-0.09793657,-0.9456662,-0.12265264,-2.387652,0.09329879,1.6465218,0.8027918,0.039999995,0.03999961,-9.468963,1.864276647567749,1.8732893,0.16034594,-0.21429629623889923,0.15641293
788.1333333329452,-0.09945799,-0.94816744,-0.12455528,-2.3881373,0.094744295,1.6476935,0.8030522,0.04,0.03999961,-9.457041,1.8957533836364746,1.9010749,0.16083181,-0.2155383825302124,0.1571859
788.1499999996119,-0.10098694,-0.950681,-0.1264673,-2.3886254,0.09619699,1.6488713,0.803314,0.039999995,0.039999608,-9.444807,1.9274003505706787,1.9289469,0.16129282,-0.21675725281238556,0.15794009
788.1666666662785,-0.1025232,-0.95320666,-0.12838852,-2.389116,0.09765664,1.6500545,0.8035769,0.04,0.03999961,-9.432401,1.9592570066452026,1.956842,0.16172838,-0.2179541289806366,0.15867738
788.1833333329452,-0.10406665,-0.95574415,-0.13031873,-2.3896089,0.09912313,1.6512431,0.803841,0.04,0.039999608,-9.419738,1.9913077354431152,1.9848157,0.16213948,-0.2191319465637207,0.15939872
788.1999999996118,-0.10561707,-0.9582931,-0.13225766,-2.3901036,0.10059624,1.6524371,0.8041064,0.04,0.03999962,-9.40666,2.023529291152954,2.0128229,0.16252597,-0.220286026597023,0.16010043
788.2166666662785,-0.107174285,-0.9608533,-0.13420515,-2.3906004,0.10207584,1.6536366,0.8043731,0.04,0.03999961,-9.393513,2.0558648109436035,2.040855,0.16288722,-0.2214171290397644,0.1607837
788.2333333329451,-0.108738124,-0.96342444,-0.13616085,-2.3911,0.10356173,1.6548411,0.8046407,0.039999995,0.039999604,-9.38001,2.0884439945220947,2.0689254,0.16322276,-0.22252339124679565,0.1614493
788.2499999996118,-0.11030839,-0.9660062,-0.13812463,-2.3916008,0.10505376,1.6560503,0.8049094,0.03999999,0.0399996,-9.366315,2.12115478515625,2.097058,0.16353463,-0.22360825538635254,0.16209835
788.2666666662784,-0.11188488,-0.96859837,-0.1400962,-2.3921041,0.10655172,1.6572647,0.80517936,0.04,0.039999604,-9.352221,2.1540253162384033,2.1251905,0.16382146,-0.2246672511100769,0.16272774
788.2833333329451,-0.11346746,-0.97120047,-0.14207534,-2.3926091,0.10805548,1.6584837,0.80545026,0.04,0.039999608,-9.338026,2.1870670318603516,2.1533532,0.1640827,-0.22570425271987915,0.16334078
788.2999999996117,-0.1150559,-0.9738123,-0.14406183,-2.3931165,0.10956481,1.6597072,0.8057222,0.04,0.039999608,-9.323407,2.2202272415161133,2.1815224,0.1643193,-0.22671379148960114,0.16393244
788.3166666662784,-0.11665003,-0.9764332,-0.14605545,-2.3936248,0.11107958,1.6609349,0.80599505,0.04,0.03999961,-9.308692,2.253568649291992,2.2097213,0.16453107,-0.22770258784294128,0.16450742
788.333333332945,-0.118249655,-0.9790635,-0.14805594,-2.3941352,0.11259958,1.662167,0.80626893,0.04,0.039999608,-9.293524,2.287036418914795,2.237867,0.16471778,-0.22866381704807281,0.16506529
788.3499999996117,-0.11985457,-0.98170245,-0.15006302,-2.3946476,0.11412459,1.6634032,0.8065436,0.04,0.039999608,-9.2781925,2.3206348419189453,2.266093,0.16487946,-0.22959952056407928,0.16560328
788.3666666662783,-0.12146456,-0.98434997,-0.15207653,-2.3951614,0.11565449,1.6646432,0.8068193,0.04,0.039999608,-9.262631,2.3543710708618164,2.2942674,0.16501677,-0.23051148653030396,0.16612309
788.383333332945,-0.12307948,-0.9870055,-0.15409622,-2.395677,0.11718907,1.665887,0.80709577,0.04,0.039999604,-9.246733,2.3882243633270264,2.3224413,0.16512874,-0.2313971072435379,0.16662496
788.3999999996116,-0.12469911,-0.9896687,-0.15612179,-2.396194,0.11872815,1.6671346,0.807373,0.04,0.039999604,-9.23062,2.4222216606140137,2.350584,0.165216,-0.23225697875022888,0.16710736
788.4166666662783,-0.12632325,-0.9923395,-0.15815301,-2.3967118,0.12027156,1.6683857,0.80765104,0.04,0.039999604,-9.214183,2.4563088417053223,2.3787088,0.16527869,-0.23309007287025452,0.16757078
788.4333333329449,-0.12795176,-0.9950175,-0.16018961,-2.3972316,0.121819094,1.6696401,0.80792975,0.04,0.039999604,-9.197448,2.490506172180176,2.4068086,0.16531724,-0.23389355838298798,0.1680152
788.4499999996116,-0.12958434,-0.99770224,-0.1622314,-2.3977523,0.12337056,1.6708976,0.8082093,0.039999988,0.03999959,-9.180493,2.5248093605041504,2.4349067,0.16533144,-0.23467294871807098,0.1684399
788.4666666662782,-0.13122088,-1.0003935,-0.16427816,-2.3982742,0.12492579,1.6721582,0.80848944,0.039999984,0.03999959,-9.163326,2.5592331886291504,2.462925,0.16532059,-0.23542453348636627,0.16884789
788.4833333329449,-0.13286114,-1.0030911,-0.16632952,-2.3987978,0.12648454,1.6734216,0.8087703,0.04,0.039999604,-9.145796,2.5937271118164062,2.4909194,0.16528603,-0.2361462414264679,0.16923533
788.4999999996115,-0.13450493,-1.0057944,-0.16838534,-2.3993225,0.1280467,1.6746877,0.8090517,0.04,0.039999604,-9.128136,2.628340482711792,2.5188909,0.16522686,-0.2368432730436325,0.1696053
788.5166666662782,-0.13615206,-1.0085033,-0.17044528,-2.399848,0.12961201,1.6759565,0.80933356,0.039999995,0.0399996,-9.110164,2.6630070209503174,2.54677,0.16514334,-0.2375139445066452,0.16995414
788.5333333329448,-0.1378023,-1.0112174,-0.17250924,-2.4003744,0.13118033,1.6772277,0.8096161,0.039999995,0.039999604,-9.091847,2.697754144668579,2.5746107,0.16503698,-0.23815417289733887,0.17028393
788.5499999996115,-0.1394555,-1.0139362,-0.17457683,-2.4009023,0.13275146,1.6785012,0.80989915,0.039999988,0.039999597,-9.073274,2.7325825691223145,2.602386,0.16490614,-0.23876436054706573,0.17059284
788.5666666662781,-0.14111143,-1.0166597,-0.17664778,-2.4014304,0.13432522,1.6797769,0.8101827,0.039999988,0.039999597,-9.054613,2.7675225734710693,2.6300972,0.16475081,-0.23935051262378693,0.17088705
788.5833333329448,-0.14276989,-1.0193874,-0.17872192,-2.4019594,0.13590136,1.6810544,0.8104665,0.039999995,0.039999608,-9.035436,2.8024442195892334,2.6577363,0.16457245,-0.23990240693092346,0.17115965
788.5999999996114,-0.14443065,-1.0221189,-0.18079902,-2.4024892,0.13747978,1.6823337,0.8107508,0.039999988,0.0399996,-9.016146,2.8374521732330322,2.6852849,0.16437139,-0.240427166223526,0.17141104
788.6166666662781,-0.1460935,-1.0248544,-0.18287879,-2.4030192,0.13906018,1.6836146,0.8110355,0.039999995,0.039999608,-8.996619,2.8725526332855225,2.7127888,0.16414642,-0.24092313647270203,0.171647
788.6333333329447,-0.14775833,-1.0275928,-0.18496086,-2.40355,0.14064246,1.6848971,0.8113204,0.04,0.039999608,-8.97666,2.9076247215270996,2.7402072,0.16389923,-0.24138498306274414,0.17185865
788.6499999996114,-0.1494248,-1.0303336,-0.18704507,-2.4040816,0.14222638,1.686181,0.8116058,0.039999988,0.0399996,-8.956673,2.9428088665008545,2.767496,0.16362907,-0.2418195605278015,0.17205599
788.666666666278,-0.15109278,-1.0330775,-0.1891312,-2.4046135,0.1438117,1.6874658,0.81189144,0.03999999,0.039999604,-8.93644,2.977980613708496,2.7946906,0.16333504,-0.24222800135612488,0.1722318
788.6833333329447,-0.15276217,-1.0358232,-0.19121897,-2.405146,0.14539829,1.6887518,0.81217706,0.03999998,0.039999593,-8.915788,3.013179302215576,2.8218296,0.1630191,-0.2426033467054367,0.1723851
788.6999999996114,-0.15443264,-1.0385709,-0.19330813,-2.4056787,0.14698596,1.6900388,0.812463,0.03999999,0.039999604,-8.894974,3.0484416484832764,2.8488064,0.16268097,-0.24294960498809814,0.172525
788.716666666278,-0.15610391,-1.04132,-0.19539839,-2.4062116,0.14857446,1.6913265,0.81274927,0.03999999,0.039999604,-8.873941,3.0836987495422363,2.875722,0.1623205,-0.24326464533805847,0.17264222
788.7333333329447,-0.15777601,-1.0440702,-0.19748953,-2.4067445,0.15016365,1.6926147,0.8130356,0.03999999,0.039999608,-8.85264,3.118945598602295,2.9025052,0.1619371,-0.24354924261569977,0.1727357
788.7499999996113,-0.15944842,-1.0468214,-0.19958127,-2.4072776,0.15175332,1.6939031,0.81332207,0.039999995,0.039999615,-8.831082,3.15423583984375,2.9291809,0.16153191,-0.24380195140838623,0.17281276
788.766666666278,-0.16112123,-1.0495731,-0.20167337,-2.4078107,0.15334329,1.6951919,0.8136086,0.039999988,0.039999608,-8.809318,3.1895275115966797,2.9557326,0.16110568,-0.24402548372745514,0.17287453
788.7833333329446,-0.16279416,-1.052325,-0.20376556,-2.4083445,0.1549333,1.6964806,0.81389505,0.039999995,0.039999615,-8.787274,3.224757671356201,2.9821532,0.16065767,-0.24421550333499908,0.1729097
788.7999999996113,-0.16446681,-1.0550767,-0.20585757,-2.4088776,0.15652321,1.6977694,0.81418145,0.039999988,0.03999961,-8.765162,3.260063886642456,3.0084784,0.1601883,-0.2443794459104538,0.17292888
788.8166666662779,-0.16613913,-1.0578278,-0.20794916,-2.4094105,0.1581128,1.6990579,0.8144678,0.039999977,0.0399996,-8.742586,3.2952754497528076,3.0346224,0.15969922,-0.24450740218162537,0.172928
788.8333333329446,-0.16781096,-1.0605781,-0.21004006,-2.4099436,0.15970193,1.7003461,0.814754,0.03999999,0.039999615,-8.719912,3.330517292022705,3.0606303,0.15918948,-0.24460503458976746,0.1729118
788.8499999996112,-0.16948202,-1.0633274,-0.21213001,-2.4104762,0.16129036,1.7016337,0.81504023,0.039999988,0.03999961,-8.697049,3.365699052810669,3.0865257,0.15865871,-0.2446720004081726,0.17287219
788.8666666662779,-0.17115213,-1.0660748,-0.21421878,-2.4110088,0.16287792,1.7029204,0.8153263,0.039999984,0.039999608,-8.673902,3.4008421897888184,3.112278,0.15810809,-0.24470652639865875,0.17281233
788.8833333329445,-0.17282104,-1.0688206,-0.21630615,-2.4115415,0.16446435,1.7042062,0.815612,0.03999998,0.039999608,-8.650628,3.4359686374664307,3.1378527,0.15753672,-0.24471263587474823,0.17273214
788.8999999996112,-0.17448862,-1.0715641,-0.21839184,-2.412073,0.16604951,1.7054911,0.81589735,0.03999998,0.039999608,-8.627161,3.471038341522217,3.1632981,0.15694578,-0.24469006061553955,0.17262867
788.9166666662778,-0.17615464,-1.074305,-0.2204755,-2.412604,0.16763316,1.7067748,0.8161825,0.039999984,0.03999961,-8.603274,3.5060651302337646,3.188562,0.15633677,-0.2446303814649582,0.17250948
788.9333333329445,-0.1778189,-1.0770429,-0.22255696,-2.413135,0.16921514,1.708057,0.81646746,0.039999995,0.039999623,-8.57937,3.541041612625122,3.2136908,0.15570834,-0.2445397973060608,0.1723712
788.9499999996111,-0.17948115,-1.0797777,-0.22463594,-2.4136653,0.17079529,1.7093378,0.8167521,0.03999999,0.039999623,-8.555297,3.575909376144409,3.2386138,0.15505938,-0.2444218546152115,0.17221344
788.9666666662778,-0.18114123,-1.0825092,-0.22671221,-2.414195,0.17237338,1.7106172,0.8170364,0.03999999,0.039999623,-8.530949,3.6108193397521973,3.2634354,0.1543924,-0.2442702203989029,0.17204162
788.9833333329444,-0.1827989,-1.0852367,-0.2287855,-2.4147236,0.17394921,1.7118943,0.8173202,0.03999998,0.03999961,-8.506457,3.64556622505188,3.2880633,0.15370663,-0.24408698081970215,0.17184427
788.9999999996111,-0.184454,-1.08796,-0.23085561,-2.4152515,0.17552261,1.7131695,0.8176037,0.039999984,0.03999962,-8.48165,3.6802353858947754,3.3125014,0.15300357,-0.24386999011039734,0.17162625
789.0166666662777,-0.1861063,-1.0906787,-0.23292218,-2.4157782,0.17709337,1.7144425,0.81788653,0.039999984,0.039999615,-8.456815,3.714866876602173,3.3367844,0.15228207,-0.2436232566833496,0.1713904
789.0333333329444,-0.1877556,-1.0933924,-0.23498505,-2.4163039,0.17866127,1.7157134,0.81816894,0.03999998,0.039999615,-8.431737,3.749361276626587,3.3608487,0.15154356,-0.2433440238237381,0.17113315
789.049999999611,-0.1894017,-1.096101,-0.2370439,-2.4168282,0.18022622,1.7169819,0.81845075,0.039999984,0.03999962,-8.406488,3.783796787261963,3.384754,0.15078752,-0.24303190410137177,0.17085706
789.0666666662777,-0.19104446,-1.0988042,-0.23909853,-2.417352,0.18178792,1.7182478,0.818732,0.039999984,0.03999962,-8.381033,3.8180649280548096,3.4084945,0.15001562,-0.24268591403961182,0.17055416
789.0833333329443,-0.19268359,-1.1015018,-0.24114865,-2.417875,0.18334621,1.7195107,0.8190127,0.039999995,0.039999634,-8.355514,3.8523385524749756,3.4320366,0.14922592,-0.24230945110321045,0.17023855
789.099999999611,-0.19431892,-1.1041929,-0.24319398,-2.4183965,0.1849009,1.7207707,0.8192927,0.039999988,0.039999627,-8.329862,3.886463165283203,3.4554224,0.1484199,-0.24190405011177063,0.16990344
789.1166666662776,-0.19595025,-1.1068776,-0.24523433,-2.4189165,0.18645184,1.7220279,0.8195721,0.03999999,0.03999963,-8.303985,3.920444965362549,3.4785259,0.14759794,-0.24146711826324463,0.16954944
789.1333333329443,-0.19757742,-1.1095552,-0.24726947,-2.4194348,0.18799876,1.7232819,0.81985074,0.03999999,0.03999963,-8.277927,3.9543111324310303,3.5015042,0.14676051,-0.2409956455230713,0.16917497
789.1499999996109,-0.19920021,-1.1122255,-0.24929911,-2.4199522,0.18954155,1.7245322,0.82012856,0.039999988,0.03999963,-8.251719,3.988053321838379,3.5242503,0.14590785,-0.2404906302690506,0.16878085
789.1666666662776,-0.20081842,-1.1148884,-0.25132304,-2.4204676,0.19107999,1.7257794,0.82040566,0.039999988,0.039999627,-8.225548,4.021702289581299,3.5468066,0.14503914,-0.23995965719223022,0.1683693
789.1833333329442,-0.20243184,-1.1175436,-0.25334102,-2.420982,0.19261393,1.7270228,0.82068187,0.03999999,0.039999634,-8.199086,4.055174350738525,3.5691721,0.14415546,-0.23939421772956848,0.16793618
789.1999999996109,-0.20404032,-1.1201909,-0.25535277,-2.421495,0.19414315,1.7282624,0.82095736,0.03999999,0.03999963,-8.172545,4.08845853805542,3.591295,0.14325784,-0.23879769444465637,0.16748522
789.2166666662775,-0.20564361,-1.1228297,-0.25735807,-2.4220057,0.19566748,1.729498,0.821232,0.039999984,0.039999627,-8.145931,4.121737003326416,3.6133072,0.14234513,-0.23817093670368195,0.16701344
789.2333333329442,-0.20724154,-1.1254596,-0.2593567,-2.4225147,0.19718671,1.7307296,0.8215058,0.039999988,0.03999963,-8.119068,4.154770374298096,3.6350315,0.1414188,-0.23750999569892883,0.16652276
789.2499999996108,-0.2088339,-1.1280805,-0.26134837,-2.4230225,0.1987007,1.7319567,0.8217785,0.039999995,0.039999638,-8.092214,4.187676429748535,3.6565485,0.14047833,-0.23681940138339996,0.1660127
789.2666666662775,-0.21042052,-1.1306919,-0.26333287,-2.4235284,0.20020925,1.7331793,0.8220503,0.03999999,0.039999634,-8.065305,4.220422744750977,3.677905,0.13952537,-0.23610049486160278,0.16548371
789.2833333329442,-0.21200119,-1.1332936,-0.26530996,-2.4240315,0.20171216,1.7343975,0.82232094,0.039999995,0.039999638,-8.038251,4.253007411956787,3.6989965,0.13855803,-0.23535221815109253,0.16493589
789.2999999996108,-0.21357578,-1.1358854,-0.2672794,-2.4245331,0.20320933,1.7356111,0.82259053,0.039999995,0.039999634,-8.010922,4.2853803634643555,3.7198613,0.13758017,-0.23456662893295288,0.16436894
789.3166666662775,-0.21514408,-1.1384667,-0.26924092,-2.4250329,0.2047005,1.7368197,0.8228592,0.03999999,0.039999634,-7.983761,4.317622661590576,3.7405634,0.1365892,-0.2337537705898285,0.1637814
789.3333333329441,-0.21670587,-1.1410373,-0.2711943,-2.4255304,0.20618553,1.7380233,0.82312673,0.03999999,0.039999638,-7.956481,4.349693775177002,3.761019,0.13558482,-0.23291230201721191,0.16317542
789.3499999996108,-0.21826097,-1.1435972,-0.27313948,-2.4260254,0.20766422,1.7392219,0.823393,0.03999999,0.039999638,-7.9290714,4.381561279296875,3.7812464,0.13456942,-0.23204076290130615,0.16255122
789.3666666662774,-0.21980925,-1.1461457,-0.27507603,-2.4265187,0.20913638,1.7404151,0.82365805,0.039999988,0.03999963,-7.901561,4.413261890411377,3.801264,0.13354303,-0.23113656044006348,0.16190849
789.3833333329441,-0.22135049,-1.1486827,-0.27700385,-2.4270098,0.21060185,1.7416029,0.82392216,0.039999988,0.039999638,-7.8740945,4.444766998291016,3.821059,0.13250512,-0.23020513355731964,0.16124566
789.3999999996107,-0.2228845,-1.1512079,-0.2789224,-2.4274983,0.21206045,1.7427851,0.8241849,0.04,0.03999965,-7.8465443,4.4760918617248535,3.8406365,0.13145506,-0.22924460470676422,0.16056502
789.4166666662774,-0.22441109,-1.153721,-0.28083193,-2.4279842,0.21351208,1.7439616,0.8244464,0.039999995,0.03999964,-7.818906,4.507163047790527,3.8599963,0.13039638,-0.2282540500164032,0.1598666
789.433333332944,-0.22593008,-1.1562215,-0.28273195,-2.4284685,0.21495649,1.7451322,0.8247067,0.04,0.03999965,-7.7912073,4.538076400756836,3.8790944,0.12932657,-0.2272331714630127,0.15914816
789.4499999996107,-0.22744136,-1.1587094,-0.2846223,-2.4289498,0.21639353,1.7462969,0.8249655,0.039999984,0.03999963,-7.7637,4.568735122680664,3.8979726,0.12824546,-0.22618840634822845,0.15841295
789.4666666662773,-0.2289447,-1.1611842,-0.2865027,-2.429428,0.21782309,1.7474556,0.82522297,0.03999999,0.03999964,-7.735871,4.599295139312744,3.9166813,0.12715596,-0.22511225938796997,0.15765746
789.483333332944,-0.23043993,-1.1636461,-0.28837284,-2.429905,0.21924494,1.7486081,0.82547915,0.03999999,0.03999964,-7.708069,4.6295576095581055,3.9351015,0.12605754,-0.2240048199892044,0.15688474
789.4999999996106,-0.23192695,-1.166094,-0.29023272,-2.4303784,0.22065891,1.749754,0.8257338,0.039999995,0.03999965,-7.6804338,4.659637451171875,3.9533744,0.12494981,-0.22287344932556152,0.15609322
789.5166666662773,-0.23340549,-1.1685281,-0.29208204,-2.430849,0.22206493,1.7508934,0.8259869,0.03999999,0.039999645,-7.65265,4.689489841461182,3.9713275,0.12383304,-0.22171421349048615,0.15528473
789.5333333329439,-0.2348754,-1.1709484,-0.2939207,-2.4313173,0.22346275,1.7520264,0.8262387,0.039999995,0.03999965,-7.6248903,4.719110012054443,3.9890933,0.12270856,-0.22052709758281708,0.15445839
789.5499999996106,-0.23633656,-1.1733541,-0.29574835,-2.431782,0.22485223,1.7531525,0.8264889,0.04,0.03999966,-7.5971136,4.748498439788818,4.0066476,0.12157559,-0.2193106710910797,0.1536121
789.5666666662772,-0.23778878,-1.1757451,-0.29756477,-2.4322445,0.22623324,1.7542719,0.8267376,0.04,0.039999664,-7.5693026,4.777647972106934,4.0239553,0.12043573,-0.2180662602186203,0.15274847
789.5833333329439,-0.23923191,-1.1781211,-0.29936978,-2.4327037,0.2276056,1.7553842,0.8269846,0.03999999,0.039999656,-7.5416627,4.8065972328186035,4.04103,0.11928742,-0.21679720282554626,0.15186793
789.5999999996105,-0.2406658,-1.1804818,-0.30116335,-2.4331603,0.22896916,1.7564894,0.8272304,0.03999999,0.03999966,-7.513958,4.8352861404418945,4.057876,0.11813269,-0.2155013382434845,0.15097004
789.6166666662772,-0.24209027,-1.1828272,-0.30294502,-2.4336138,0.23032376,1.7575873,0.82747436,0.04,0.03999967,-7.4863014,4.863765239715576,4.0744996,0.116968445,-0.21418015658855438,0.15005487
789.6333333329438,-0.24350512,-1.1851567,-0.30471474,-2.4340646,0.2316693,1.7586781,0.8277169,0.04,0.03999968,-7.4586744,4.891960144042969,4.0909147,0.11579933,-0.21283292770385742,0.14912213
789.6499999996105,-0.24491024,-1.1874702,-0.30647233,-2.434512,0.23300555,1.7597611,0.82795745,0.04,0.03999969,-7.4311614,4.91994571685791,4.107065,0.11462205,-0.21146227419376373,0.14817213
789.6666666662771,-0.24630548,-1.189768,-0.3082175,-2.4349563,0.23433241,1.7608366,0.8281965,0.04,0.03999969,-7.4035864,4.947666168212891,4.12301,0.11344055,-0.21006599068641663,0.1472054
789.6833333329438,-0.24769065,-1.1920489,-0.3099501,-2.4353976,0.23564973,1.7619042,0.82843375,0.04,0.039999697,-7.3761106,4.975123882293701,4.138748,0.11225292,-0.208643838763237,0.14622088
789.6999999996104,-0.24906565,-1.1943132,-0.31167004,-2.4358351,0.23695739,1.762964,0.8286692,0.04,0.0399997,-7.3488097,5.002272605895996,4.1541696,0.111059524,-0.207199364900589,0.14522126
789.7166666662771,-0.25043038,-1.1965603,-0.31337708,-2.4362698,0.23825522,1.7640159,0.82890296,0.039999995,0.039999705,-7.3213325,5.029305458068848,4.169484,0.10986174,-0.2057286500930786,0.14420362
789.7333333329437,-0.2517846,-1.1987902,-0.31507096,-2.4367006,0.23954305,1.7650597,0.829135,0.039999995,0.039999716,-7.294139,5.0560302734375,4.184503,0.108657286,-0.2042366862297058,0.14316963
789.7499999996104,-0.25312814,-1.2010027,-0.31675157,-2.4371285,0.24082084,1.7660954,0.8293652,0.04,0.03999973,-7.266899,5.082449436187744,4.199301,0.10744899,-0.20271918177604675,0.14211972
789.766666666277,-0.25446093,-1.2031975,-0.31841865,-2.4375525,0.24208839,1.7671227,0.8295935,0.039999995,0.039999742,-7.2398777,5.108644485473633,4.2139063,0.106236205,-0.20118090510368347,0.14105283
789.7833333329437,-0.2557829,-1.205375,-0.32007217,-2.4379735,0.24334565,1.7681416,0.8298199,0.039999995,0.03999975,-7.212799,5.134533882141113,4.2282534,0.10502028,-0.19961759448051453,0.13997164
789.7999999996103,-0.2570938,-1.2075336,-0.3217119,-2.4383907,0.24459237,1.7691522,0.8300445,0.04,0.03999979,-7.185962,5.160192966461182,4.2424383,0.103799656,-0.1980334222316742,0.13886936
789.816666666277,-0.25839353,-1.209674,-0.3233376,-2.4388041,0.2458285,1.770154,0.8302672,0.04,0.039999813,-7.1591854,5.185579299926758,4.256304,0.10257508,-0.1964278519153595,0.13775438
789.8333333329437,-0.25968197,-1.2117957,-0.3249492,-2.439214,0.2470539,1.771147,0.83048785,0.04,0.039999828,-7.132497,5.210679054260254,4.270016,0.10134758,-0.194800466299057,0.13662449
789.8499999996103,-0.2609589,-1.2138989,-0.32654655,-2.4396203,0.2482684,1.7721317,0.83070654,0.04,0.03999983,-7.105972,5.23553466796875,4.2834816,0.10011691,-0.19315356016159058,0.13548242
789.866666666277,-0.26222435,-1.2159828,-0.32812938,-2.440023,0.24947198,1.7731075,0.83092326,0.04,0.039999846,-7.0795,5.259861469268799,4.2967496,0.098884165,-0.19148339331150055,0.13427906
789.8833333329436,-0.26347813,-1.2180476,-0.32969758,-2.4404218,0.2506644,1.774074,0.83113796,0.04,0.039999858,-7.053283,5.28462028503418,4.309774,0.09764816,-0.18979321420192719,0.13315038
789.8999999996103,-0.26472005,-1.2200933,-0.33125103,-2.4408166,0.25184554,1.7750313,0.8313507,0.04,0.03999993,-7.0270905,5.3080549240112305,4.3226233,0.09641039,-0.18808624148368835,0.13189851
789.9166666662769,-0.26595008,-1.2221192,-0.33278963,-2.4412081,0.25301537,1.7759795,0.83156145,0.04,0.039999943,-7.0010543,5.332126140594482,4.335225,0.09517114,-0.18635666370391846,0.13069983
789.9333333329436,-0.2671681,-1.2241251,-0.33431306,-2.4415953,0.25417385,1.7769185,0.83177006,0.04,0.03999996,-6.975297,5.355587482452393,4.3476415,0.09392839,-0.1846117377281189,0.12948209
789.9499999996102,-0.2683739,-1.2261112,-0.33582142,-2.4419792,0.25532082,1.7778481,0.8319767,0.04,0.039999977,-6.9496355,5.378620624542236,4.359759,0.092685446,-0.18284645676612854,0.12824848
789.9666666662769,-0.26956743,-1.2280772,-0.3373145,-2.4423585,0.25645617,1.7787683,0.83218116,0.04,0.04,-6.924075,5.4015889167785645,4.371776,0.091439515,-0.18106594681739807,0.12699313
789.9833333329435,-0.27074856,-1.2300233,-0.33879212,-2.4427345,0.25757974,1.7796787,0.83238345,0.04,0.04,-6.898644,5.424241542816162,4.383543,0.0901938,-0.1792653501033783,0.12573549
789.9999999996102,-0.27191725,-1.2319483,-0.34025413,-2.4431062,0.2586914,1.7805797,0.8325837,0.04,0.04,-6.873491,5.446545600891113,4.395143,0.088947654,-0.177449569106102,0.12445924
790.0166666662768,-0.27307343,-1.233853,-0.34170035,-2.4434743,0.25979108,1.7814713,0.8327818,0.03999999,0.04,-6.848472,5.4686279296875,4.406438,0.08769982,-0.17561635375022888,0.12318073
790.0333333329435,-0.27421686,-1.2357367,-0.34313083,-2.443838,0.26087874,1.7823528,0.8329778,0.04,0.04,-6.82369,5.490356922149658,4.4176054,0.086451665,-0.17376762628555298,0.12188214
790.0499999996101,-0.27534747,-1.2375993,-0.3445453,-2.444198,0.26195425,1.7832245,0.8331715,0.039999995,0.04,-6.7989845,5.511809349060059,4.4285345,0.08520357,-0.17190201580524445,0.120571375
790.0666666662768,-0.2764654,-1.2394408,-0.34594363,-2.4445534,0.2630176,1.7840862,0.83336294,0.03999999,0.04,-6.7746534,5.533031940460205,4.439266,0.083954975,-0.17002496123313904,0.11925488
790.0833333329434,-0.27757025,-1.2412609,-0.3473257,-2.444905,0.26406857,1.784938,0.83355224,0.04,0.04,-6.7503448,5.553828239440918,4.4498105,0.08270726,-0.16813094913959503,0.11791018
790.0999999996101,-0.2786621,-1.2430596,-0.34869152,-2.445252,0.26510715,1.7857796,0.8337393,0.04,0.04,-6.7263913,5.5744781494140625,4.4601297,0.08145961,-0.16622541844844818,0.11656428
790.1166666662767,-0.2797408,-1.2448368,-0.35004088,-2.445595,0.26613328,1.7866114,0.83392406,0.04,0.04,-6.7024612,5.594775676727295,4.4702764,0.08021396,-0.16430291533470154,0.11521021
790.1333333329434,-0.28080624,-1.2465922,-0.35137376,-2.4459336,0.26714683,1.787433,0.83410656,0.04,0.04,-6.678935,5.6148786544799805,4.4802194,0.07896855,-0.16236786544322968,0.11385857
790.14999999961,-0.28185844,-1.2483255,-0.35269004,-2.4462683,0.2681478,1.7882442,0.8342869,0.04,0.04,-6.655492,5.634583473205566,4.489956,0.077725425,-0.16041900217533112,0.112495065
790.1666666662767,-0.2828973,-1.2500371,-0.35398963,-2.4465983,0.26913598,1.7890451,0.8344649,0.04,0.04,-6.63243,5.654034614562988,4.499523,0.07648145,-0.1584615856409073,0.11111832
790.1833333329433,-0.28392264,-1.2517265,-0.35527238,-2.4469242,0.27011144,1.7898357,0.8346405,0.04,0.04,-6.6094294,5.673163890838623,4.508894,0.075240895,-0.15649022161960602,0.109732114
790.19999999961,-0.2849346,-1.2533937,-0.35653827,-2.4472463,0.2710741,1.7906159,0.8348138,0.04,0.04,-6.586888,5.691934108734131,4.518031,0.07400213,-0.15450866520404816,0.10833579
790.2166666662766,-0.2859329,-1.2550386,-0.35778713,-2.4475636,0.27202386,1.7913858,0.8349849,0.04,0.04,-6.564388,5.71060848236084,4.527068,0.07276461,-0.1525183916091919,0.106929086
790.2333333329433,-0.28691763,-1.2566612,-0.35901892,-2.447877,0.27296066,1.7921449,0.8351536,0.04,0.04,-6.542114,5.728869915008545,4.5358753,0.07152948,-0.15051573514938354,0.105514936
790.2499999996099,-0.2878886,-1.258261,-0.3602336,-2.4481857,0.27388448,1.7928935,0.8353198,0.04,0.04,-6.5201764,5.7468180656433105,4.5445194,0.07029726,-0.14850489795207977,0.10408495
790.2666666662766,-0.28884575,-1.259838,-0.3614311,-2.4484897,0.27479523,1.7936317,0.83548385,0.039999995,0.04,-6.4985175,5.764572620391846,4.5529456,0.06906769,-0.14648684859275818,0.102656014
790.2833333329432,-0.28978914,-1.2613922,-0.36261138,-2.4487896,0.27569288,1.7943591,0.8356455,0.039999977,0.04,-6.4770145,5.7819719314575195,4.5611978,0.06784096,-0.14445771276950836,0.10122224
790.2999999996099,-0.2907187,-1.262924,-0.36377418,-2.449085,0.2765774,1.7950759,0.8358047,0.039999966,0.04,-6.4559126,5.7991042137146,4.569283,0.06661571,-0.14242449402809143,0.09977705
790.3166666662765,-0.29163432,-1.2644331,-0.36491963,-2.4493759,0.2774487,1.795782,0.83596146,0.039999954,0.04,-6.4349427,5.815918922424316,4.577224,0.065395765,-0.14038176834583282,0.09832846
790.3333333329432,-0.29253605,-1.2659194,-0.36604774,-2.4496627,0.27830666,1.7964773,0.83611596,0.03999995,0.04,-6.414241,5.83243465423584,4.584978,0.064180456,-0.13833090662956238,0.09686985
790.3499999996098,-0.29342377,-1.267383,-0.36715826,-2.4499447,0.27915135,1.7971619,0.836268,0.039999943,0.04,-6.39389,5.848696708679199,4.5925584,0.06296755,-0.13627472519874573,0.0954033
790.3666666662765,-0.29429752,-1.268823,-0.36825132,-2.4502227,0.27998272,1.7978358,0.83641773,0.03999993,0.04,-6.373741,5.8646440505981445,4.5999866,0.06175981,-0.1342116743326187,0.09393058
790.3833333329432,-0.2951572,-1.2702402,-0.36932677,-2.4504957,0.2808007,1.7984989,0.836565,0.039999917,0.04,-6.353995,5.880364418029785,4.6071997,0.06055438,-0.13214635848999023,0.09245584
790.3999999996098,-0.29600284,-1.2716337,-0.37038466,-2.4507647,0.28160524,1.7991507,0.8367098,0.03999991,0.04,-6.3343644,5.895700931549072,4.614271,0.05935454,-0.13007386028766632,0.090971366
790.4166666662765,-0.29683438,-1.2730039,-0.37142485,-2.4510288,0.2823964,1.7997918,0.83685225,0.0399999,0.04,-6.315217,5.910861968994141,4.621188,0.05815785,-0.12800301611423492,0.08948707
790.4333333329431,-0.2976517,-1.2743509,-0.3724474,-2.451289,0.28317422,1.8004221,0.8369923,0.03999989,0.04,-6.296195,5.925658702850342,4.6278987,0.056965895,-0.12592674791812897,0.08799789
790.4499999996098,-0.29845494,-1.2756748,-0.3734523,-2.451544,0.28393853,1.8010415,0.83713,0.039999884,0.04,-6.2777376,5.940135478973389,4.634454,0.055778064,-0.123850978910923,0.08650506
790.4666666662764,-0.299244,-1.2769755,-0.37443957,-2.451795,0.28468937,1.8016498,0.8372653,0.039999872,0.04,-6.2591133,5.954447269439697,4.6409335,0.054596446,-0.12176928669214249,0.0850084
790.4833333329431,-0.3000188,-1.2782527,-0.37540907,-2.4520411,0.28542677,1.8022472,0.83739805,0.039999858,0.04,-6.241134,5.968459606170654,4.6472206,0.05341848,-0.11969088017940521,0.083509594
790.4999999996097,-0.30077976,-1.2795064,-0.37636083,-2.452283,0.28615066,1.8028338,0.83752835,0.03999985,0.04,-6.223261,5.982120990753174,4.6533194,0.05224782,-0.11760909110307693,0.0820091
790.5166666662764,-0.30152634,-1.2807372,-0.37729487,-2.4525201,0.28686115,1.8034093,0.8376563,0.03999984,0.04,-6.2057996,5.9955525398254395,4.6592827,0.0510816,-0.11552698910236359,0.08050798
790.533333332943,-0.30225876,-1.2819444,-0.37821123,-2.4527524,0.28755814,1.8039742,0.8377818,0.039999817,0.04,-6.1886096,6.008678913116455,4.6651154,0.049921885,-0.11344613879919052,0.079005785
790.5499999996097,-0.30297703,-1.2831283,-0.3791099,-2.452981,0.28824157,1.8045282,0.8379049,0.039999817,0.04,-6.1716785,6.021533012390137,4.6707635,0.04876826,-0.11136419326066971,0.07750246
790.5666666662763,-0.3036812,-1.2842891,-0.37999088,-2.4532044,0.28891158,1.8050712,0.8380255,0.0399998,0.04,-6.155222,6.034134864807129,4.6763225,0.047620006,-0.10928775370121002,0.07599656
790.583333332943,-0.30437124,-1.2854269,-0.38085425,-2.4534237,0.28956816,1.8056034,0.83814377,0.039999794,0.04,-6.1388297,6.046412467956543,4.681691,0.04647939,-0.10720942169427872,0.07449078
790.5999999996096,-0.30504712,-1.2865412,-0.3817,-2.4536383,0.29021147,1.8061247,0.8382596,0.039999783,0.04,-6.122915,6.0584917068481445,4.686958,0.04534501,-0.1051354706287384,0.07298855
790.6166666662763,-0.30570894,-1.287632,-0.38252807,-2.4538486,0.29084122,1.806635,0.83837295,0.03999978,0.04,-6.1072674,6.070234775543213,4.692053,0.044216905,-0.10306520015001297,0.071483694
790.6333333329429,-0.30635676,-1.2886999,-0.38333854,-2.454054,0.29145762,1.807135,0.83848387,0.039999776,0.04,-6.0920005,6.081741809844971,4.697001,0.04309548,-0.1010025292634964,0.06998228
790.6499999996096,-0.3069905,-1.2897447,-0.3841314,-2.4542556,0.2920607,1.8076237,0.8385924,0.03999977,0.04,-6.0768933,6.092954635620117,4.7018223,0.041982356,-0.09893939644098282,0.068483055
790.6666666662762,-0.3076103,-1.2907666,-0.38490686,-2.4544523,0.2926505,1.8081019,0.83869857,0.039999753,0.04,-6.0622454,6.103908061981201,4.70655,0.040876426,-0.096885085105896,0.066985205
790.6833333329429,-0.30821612,-1.2917655,-0.3856649,-2.4546444,0.29322708,1.808569,0.83880246,0.039999753,0.04,-6.047835,6.114607334136963,4.7111125,0.039778024,-0.0948355421423912,0.06549026
790.6999999996095,-0.308808,-1.2927412,-0.38640556,-2.4548326,0.29379043,1.8090255,0.83890384,0.039999742,0.04,-6.0338674,6.124953746795654,4.715507,0.038686983,-0.09279373288154602,0.06399839
790.7166666662762,-0.3093861,-1.2936944,-0.38712886,-2.4550157,0.29434055,1.8094711,0.83900285,0.039999746,0.04,-6.020059,6.135227680206299,4.719845,0.03760348,-0.09076070785522461,0.0625123
790.7333333329428,-0.30995044,-1.2946249,-0.3878349,-2.4551954,0.29487756,1.8099065,0.8390996,0.03999974,0.04,-6.0065312,6.145103931427002,4.7240453,0.03652964,-0.08873416483402252,0.06102928
790.7499999996095,-0.3105009,-1.2955328,-0.38852385,-2.4553697,0.29540148,1.810331,0.8391939,0.039999727,0.04,-5.9935274,6.154803276062012,4.728116,0.035462342,-0.08671876788139343,0.059552785
790.7666666662761,-0.31103778,-1.2964181,-0.3891956,-2.4555414,0.29591236,1.8107451,0.8392859,0.039999716,0.04,-5.9806104,6.164155006408691,4.7320304,0.03440558,-0.08470979332923889,0.058080047
790.7833333329428,-0.31156108,-1.2972811,-0.38985038,-2.4557068,0.2964103,1.8111489,0.8393756,0.03999971,0.04,-5.9683566,6.173362731933594,4.7358794,0.033354823,-0.08271850645542145,0.056613997
790.7999999996094,-0.31207076,-1.2981217,-0.39048824,-2.4558697,0.29689535,1.811542,0.83946294,0.0399997,0.04,-5.955923,6.182180881500244,4.739533,0.032315712,-0.08072780072689056,0.055154953
790.8166666662761,-0.31256706,-1.2989402,-0.39110926,-2.4560263,0.29736757,1.8119246,0.839548,0.039999694,0.04,-5.944301,6.190893173217773,4.743142,0.031284127,-0.07875751703977585,0.053703584
790.8333333329427,-0.31304997,-1.2997363,-0.39171362,-2.45618,0.29782724,1.8122973,0.8396307,0.039999682,0.04,-5.9325643,6.199223041534424,4.746579,0.030263579,-0.07679304480552673,0.052261196
790.8499999996094,-0.3135196,-1.300511,-0.39230126,-2.4563289,0.29827425,1.8126595,0.83971125,0.03999967,0.04,-5.9214935,6.207433700561523,4.749922,0.029250802,-0.07484416663646698,0.050827432
790.866666666276,-0.31397596,-1.3012638,-0.39287242,-2.4564736,0.29870865,1.8130115,0.8397895,0.03999967,0.04,-5.910486,6.215282440185547,4.753188,0.028249584,-0.07290717959403992,0.049400195
790.8833333329427,-0.31441918,-1.3019954,-0.3934272,-2.4566145,0.2991305,1.8133534,0.8398655,0.039999656,0.04,-5.8999705,6.222970485687256,4.75632,0.02725766,-0.07098667323589325,0.047982983
790.8999999996093,-0.31484944,-1.3027055,-0.39396566,-2.45675,0.29954,1.8136854,0.83993924,0.03999965,0.04,-5.889676,6.230388164520264,4.759369,0.026277075,-0.06908026337623596,0.04657459
790.916666666276,-0.31526688,-1.3033941,-0.39448804,-2.4568832,0.29993722,1.8140075,0.8400107,0.039999653,0.04,-5.879521,6.237499237060547,4.7622557,0.025309667,-0.06718291342258453,0.045174573
790.9333333329427,-0.3156715,-1.3040614,-0.3949944,-2.45701,0.30032232,1.8143197,0.8400801,0.03999965,0.04,-5.870179,6.244585990905762,4.765096,0.024348835,-0.06531205028295517,0.043791287
790.9499999996093,-0.31606326,-1.3047079,-0.3954849,-2.4571352,0.3006954,1.8146219,0.84014726,0.03999964,0.04,-5.860681,6.251132488250732,4.7677207,0.023401668,-0.06344922631978989,0.042416144
790.966666666276,-0.31644258,-1.3053339,-0.3959597,-2.4572542,0.30105656,1.8149147,0.84021235,0.039999634,0.04,-5.851828,6.257787704467773,4.770418,0.022463629,-0.06161564588546753,0.04105513
790.9833333329426,-0.3168096,-1.3059393,-0.396419,-2.4573712,0.3014059,1.8151977,0.8402751,0.03999963,0.04,-5.842778,6.263965606689453,4.772892,0.02153972,-0.059789180755615234,0.039704483
790.9999999996093,-0.3171642,-1.3065243,-0.3968629,-2.4574826,0.30174354,1.8154712,0.84033585,0.039999627,0.04,-5.8346195,6.270105838775635,4.7753506,0.020625137,-0.05799168720841408,0.038369652
791.0166666662759,-0.31750667,-1.3070893,-0.3972916,-2.4575915,0.30206957,1.8157353,0.84039456,0.039999623,0.04,-5.8263006,6.275861740112305,4.777623,0.019724851,-0.056207939982414246,0.03704723
791.0333333329426,-0.31783718,-1.3076347,-0.39770526,-2.457695,0.3023842,1.8159902,0.8404512,0.039999627,0.04,-5.8186383,6.281528949737549,4.779879,0.01883464,-0.05445050075650215,0.035741385
791.0499999996092,-0.3181558,-1.3081603,-0.39810407,-2.4577966,0.3026876,1.8162359,0.84050584,0.03999961,0.04,-5.8108754,6.286849021911621,4.7819924,0.017959835,-0.05270668491721153,0.034448233
791.0666666662759,-0.3184627,-1.3086666,-0.39848822,-2.4578936,0.30297977,1.8164728,0.84055847,0.039999615,0.04,-5.8039317,6.292126178741455,4.784063,0.017094078,-0.05099538713693619,0.033172477
791.0833333329425,-0.31875804,-1.3091539,-0.39885792,-2.4579875,0.30326095,1.8167005,0.8406091,0.03999961,0.04,-5.796861,6.297061920166016,4.786007,0.016242936,-0.049302585422992706,0.031913746
791.0999999996092,-0.31904194,-1.3096225,-0.3992133,-2.4580796,0.30353135,1.8169197,0.8406578,0.0399996,0.04,-5.7902656,6.301864147186279,4.787875,0.01540463,-0.04763622209429741,0.030672492
791.1166666662758,-0.31931463,-1.3100727,-0.39955473,-2.458166,0.30379093,1.8171302,0.84070456,0.0399996,0.04,-5.78411,6.306474685668945,4.789705,0.014578378,-0.046001140028238297,0.029447237
791.1333333329425,-0.31957632,-1.3105043,-0.3998823,-2.4582503,0.30403998,1.8173321,0.8407495,0.0399996,0.04,-5.7777367,6.3107829093933105,4.791333,0.01376867,-0.04438191279768944,0.028242458
791.1499999996091,-0.31982708,-1.3109183,-0.40019622,-2.458329,0.3042787,1.8175256,0.84079254,0.039999597,0.04,-5.772154,6.3150224685668945,4.7929764,0.012969858,-0.042796626687049866,0.0270564
791.1666666662758,-0.32006708,-1.3113146,-0.40049672,-2.458406,0.30450726,1.8177109,0.8408337,0.039999593,0.04,-5.766284,6.3188862800598145,4.794463,0.012189838,-0.04122774302959442,0.025887595
791.1833333329424,-0.32029665,-1.3116933,-0.40078405,-2.4584773,0.30472574,1.817888,0.8408731,0.039999597,0.04,-5.761274,6.322761058807373,4.7959595,0.011422209,-0.03969568386673927,0.024741292
791.1999999996091,-0.3205159,-1.3120556,-0.40105847,-2.4585469,0.30493447,1.8180573,0.8409108,0.039999593,0.04,-5.7560396,6.326201438903809,4.797242,0.010673037,-0.038181133568286896,0.023615332
791.2166666662757,-0.32072496,-1.3124009,-0.40132022,-2.4586146,0.30513364,1.8182186,0.84094673,0.039999593,0.04,-5.751364,6.329730033874512,4.798649,0.009937535,-0.03670132905244827,0.022509443
791.2333333329424,-0.32092413,-1.3127298,-0.4015696,-2.458677,0.30532333,1.8183724,0.84098095,0.03999959,0.04,-5.747061,6.333032608032227,4.7999024,0.0092161475,-0.0352589450776577,0.021427289
791.249999999609,-0.3211136,-1.3130428,-0.4018068,-2.4587386,0.3055037,1.8185188,0.8410135,0.039999586,0.04,-5.7425694,6.336009502410889,4.800998,0.008513531,-0.033838964998722076,0.020366047
791.2666666662757,-0.32129356,-1.3133401,-0.40203217,-2.4587939,0.30567515,1.8186576,0.84104425,0.039999582,0.04,-5.738844,6.338996410369873,4.8021307,0.007824538,-0.032459136098623276,0.019331004
791.2833333329423,-0.3214643,-1.313622,-0.40224597,-2.458848,0.30583775,1.8187895,0.84107345,0.039999582,0.04,-5.7346816,6.341582775115967,4.803079,0.007157632,-0.031098950654268265,0.018317558
791.299999999609,-0.321626,-1.3138888,-0.4024484,-2.4589012,0.30599174,1.8189144,0.8411011,0.039999574,0.04,-5.7314153,6.344231605529785,4.80407,0.0065044775,-0.029780030250549316,0.017330484
791.3166666662756,-0.3217789,-1.3141416,-0.40263978,-2.4589486,0.30613738,1.8190324,0.84112746,0.039999574,0.04,-5.728399,6.346710205078125,4.8049946,0.005866183,-0.028504429385066032,0.016369306
791.3333333329423,-0.32192314,-1.3143802,-0.4028206,-2.458995,0.30627498,1.8191437,0.84115225,0.039999574,0.04,-5.7248993,6.348812580108643,4.805775,0.0052507087,-0.02724849432706833,0.015434315
791.3499999996089,-0.32205904,-1.314605,-0.40299088,-2.4590387,0.30640456,1.8192486,0.8411755,0.039999567,0.04,-5.7223415,6.350989818572998,4.8065715,0.004650093,-0.026039278134703636,0.014522507
791.3666666662756,-0.32218695,-1.3148165,-0.40315118,-2.459078,0.3065264,1.8193475,0.8411974,0.039999563,0.04,-5.719698,6.3529157638549805,4.807271,0.0040698578,-0.024865107610821724,0.013639538
791.3833333329422,-0.32230702,-1.315015,-0.4033017,-2.4591165,0.3066408,1.81944,0.841218,0.039999563,0.04,-5.717089,6.354669570922852,4.807873,0.0035098377,-0.02372138202190399,0.012784982
791.3999999996089,-0.32241946,-1.3152012,-0.40344283,-2.4591532,0.30674824,1.8195273,0.8412373,0.039999563,0.04,-5.7150693,6.3563923835754395,4.808494,0.0029668459,-0.022623704746365547,0.011960251
791.4166666662755,-0.3225248,-1.3153753,-0.4035748,-2.4591856,0.30684865,1.8196083,0.84125537,0.03999956,0.04,-5.713144,6.357949733734131,4.809046,0.0024429439,-0.0215659998357296,0.011163555
791.4333333329422,-0.32262304,-1.3155379,-0.40369803,-2.4592164,0.30694237,1.8196844,0.8412723,0.03999956,0.04,-5.7110944,6.359253883361816,4.8094873,0.0019418431,-0.020542284473776817,0.010395755
791.4499999996088,-0.3227146,-1.3156893,-0.40381283,-2.4592466,0.3070297,1.8197551,0.841288,0.039999563,0.04,-5.709611,6.360531806945801,4.809911,0.0014599427,-0.019561223685741425,0.009660147
791.4666666662755,-0.3227997,-1.3158302,-0.40391952,-2.4592733,0.30711097,1.8198209,0.84130245,0.039999552,0.04,-5.708324,6.361786842346191,4.8103533,0.00099706,-0.01863015629351139,0.008957589
791.4833333329422,-0.32287875,-1.3159611,-0.40401852,-2.4592967,0.30718628,1.8198819,0.8413161,0.039999556,0.04,-5.7068176,6.362725257873535,4.810657,0.0005588335,-0.017734190449118614,0.008283203
791.4999999996088,-0.32295188,-1.3160825,-0.40411034,-2.4593198,0.3072562,1.8199384,0.8413286,0.039999552,0.04,-5.705542,6.363615989685059,4.8109403,0.00014319437,-0.016876542940735817,0.0076458505
791.5166666662755,-0.32301953,-1.3161943,-0.40419516,-2.4593422,0.3073206,1.8199905,0.84134024,0.03999955,0.04,-5.7047915,6.364498615264893,4.8112397,-0.00025224342,-0.016071166843175888,0.0070386524
791.5333333329421,-0.3230819,-1.3162975,-0.40427348,-2.4593625,0.3073801,1.8200384,0.84135085,0.03999955,0.04,-5.704141,6.365259170532227,4.811447,-0.0006269962,-0.015316820703446865,0.0064671943
791.5499999996088,-0.32313934,-1.3163929,-0.40434566,-2.4593804,0.30743513,1.8200827,0.84136087,0.039999552,0.04,-5.703453,6.365883827209473,4.8116226,-0.0009774432,-0.014607989229261875,0.005934023
791.5666666662754,-0.3231922,-1.3164806,-0.40441212,-2.459396,0.3074857,1.8201236,0.8413698,0.03999955,0.04,-5.702793,6.366356372833252,4.8117256,-0.0013041178,-0.013941990211606026,0.005433583
791.5833333329421,-0.3232409,-1.3165612,-0.40447325,-2.4594111,0.30753222,1.8201615,0.84137845,0.03999955,0.04,-5.7022867,6.366758823394775,4.8118114,-0.001604153,-0.013320447877049446,0.0049676863
791.5999999996087,-0.3232857,-1.3166356,-0.40452948,-2.4594262,0.30757502,1.8201969,0.841386,0.03999955,0.04,-5.702137,6.3671875,4.8118997,-0.0018842877,-0.012750805355608463,0.0045403517
791.6166666662754,-0.3233269,-1.3167043,-0.40458122,-2.4594407,0.3076145,1.8202288,0.84139293,0.03999955,0.04,-5.7019815,6.367554187774658,4.81199,-0.0021410754,-0.012227826751768589,0.004145872
791.633333332942,-0.32336482,-1.3167673,-0.40462878,-2.459453,0.3076508,1.8202575,0.84139967,0.03999955,0.04,-5.701833,6.367890357971191,4.812094,-0.0023774295,-0.011751956306397915,0.003783727
791.6499999996087,-0.3233997,-1.3168252,-0.40467253,-2.4594638,0.3076842,1.8202852,0.84140575,0.03999955,0.04,-5.7015114,6.368141174316406,4.812123,-0.00259551,-0.011313050054013729,0.0034516044
791.6666666662753,-0.32343176,-1.3168788,-0.40471306,-2.4594731,0.3077149,1.8203095,0.8414112,0.039999545,0.04,-5.7012157,6.368372440338135,4.812104,-0.002795065,-0.01090164203196764,0.003144611
791.683333332942,-0.32346132,-1.3169281,-0.40475014,-2.4594812,0.30774328,1.8203334,0.8414161,0.039999552,0.04,-5.700935,6.368600845336914,4.8122015,-0.0029768415,-0.010524025186896324,0.0028595831
791.6999999996086,-0.32348838,-1.3169736,-0.40478423,-2.459489,0.3077693,1.8203539,0.84142095,0.039999545,0.04,-5.7007136,6.36877965927124,4.8121986,-0.003142894,-0.010167904198169708,0.0025988892
791.7166666662753,-0.32351324,-1.3170154,-0.40481567,-2.4594967,0.3077932,1.8203739,0.84142554,0.03999954,0.04,-5.7006345,6.3690056800842285,4.812307,-0.0032969206,-0.00984896719455719,0.0023575646
791.7333333329419,-0.32353613,-1.317054,-0.4048447,-2.4595041,0.3078152,1.8203909,0.8414294,0.03999955,0.04,-5.700514,6.3692145347595215,4.812327,-0.0034397212,-0.009551781229674816,0.0021341962
791.7499999996086,-0.32355714,-1.3170893,-0.40487128,-2.4595115,0.30783546,1.8204074,0.841433,0.03999955,0.04,-5.7004604,6.369442462921143,4.812414,-0.0035702304,-0.009285686537623405,0.0019338898
791.7666666662752,-0.32357672,-1.317121,-0.4048958,-2.4595184,0.30785412,1.8204236,0.8414361,0.03999955,0.04,-5.700428,6.369600772857666,4.812424,-0.0036911517,-0.009041165933012962,0.0017463268
791.7833333329419,-0.3235946,-1.3171511,-0.4049184,-2.4595253,0.3078713,1.8204365,0.84143907,0.039999545,0.04,-5.7003555,6.3697967529296875,4.812375,-0.0038042485,-0.008813410997390747,0.0015773708
791.7999999996085,-0.32361102,-1.3171787,-0.40493917,-2.4595323,0.3078871,1.8204491,0.841442,0.039999545,0.04,-5.700304,6.3699188232421875,4.812517,-0.003907441,-0.008613198064267635,0.0014187355
791.8166666662752,-0.32362604,-1.3172035,-0.40495822,-2.4595375,0.30790165,1.8204615,0.8414448,0.039999545,0.04,-5.7002563,6.370058059692383,4.8125176,-0.0040037935,-0.008427819237112999,0.0012725957
791.8333333329418,-0.32364005,-1.3172272,-0.40497577,-2.459542,0.30791512,1.8204727,0.8414474,0.039999545,0.04,-5.700059,6.370140552520752,4.8124394,-0.0040925033,-0.008251450024545193,0.001139563
791.8499999996085,-0.32365298,-1.3172482,-0.40499195,-2.4595459,0.3079274,1.8204817,0.8414497,0.039999552,0.04,-5.6998444,6.370199680328369,4.8125095,-0.0041724243,-0.008084853179752827,0.0010131916
791.8666666662751,-0.32366484,-1.3172683,-0.40500686,-2.4595494,0.30793878,1.8204905,0.84145164,0.039999545,0.04,-5.6998487,6.370347499847412,4.8125067,-0.0042469515,-0.007939228788018227,0.0009042702
791.8833333329418,-0.32367578,-1.3172864,-0.4050205,-2.4595528,0.30794922,1.8204991,0.84145343,0.03999954,0.04,-5.699705,6.370394706726074,4.8125496,-0.0043134578,-0.007800333201885223,0.0007989515
791.8999999996084,-0.32368577,-1.3173026,-0.40503308,-2.4595556,0.3079588,1.8205076,0.8414551,0.039999537,0.04,-5.699673,6.370486736297607,4.8125367,-0.004375104,-0.007671673316508532,0.00070311176
791.9166666662751,-0.3236949,-1.3173183,-0.40504465,-2.4595578,0.30796763,1.8205158,0.8414566,0.039999545,0.04,-5.6996164,6.370549201965332,4.812506,-0.004432417,-0.007551188115030527,0.00061325467
791.9333333329417,-0.32370326,-1.3173323,-0.4050553,-2.4595597,0.3079757,1.8205211,0.84145784,0.039999545,0.04,-5.6994133,6.370598316192627,4.812561,-0.0044824067,-0.0074342237785458565,0.00053260196
791.9499999996084,-0.32371104,-1.3173447,-0.40506512,-2.4595613,0.30798322,1.8205262,0.8414589,0.03999954,0.04,-5.6994824,6.370665550231934,4.812599,-0.0045288475,-0.007338153198361397,0.00045775218
791.966666666275,-0.32371816,-1.317357,-0.40507415,-2.459563,0.30799013,1.8205312,0.84146,0.039999545,0.04,-5.699457,6.370736598968506,4.812586,-0.004572357,-0.007249743677675724,0.00038870246
791.9833333329417,-0.3237246,-1.3173685,-0.40508237,-2.4595642,0.30799642,1.8205363,0.84146106,0.039999545,0.04,-5.6993504,6.370778560638428,4.81264,-0.004610916,-0.007164563983678818,0.00032538388
791.9999999996083,-0.32373068,-1.3173784,-0.40509,-2.4595654,0.3080022,1.820541,0.84146214,0.039999545,0.04,-5.516227,6.254004001617432,4.8092694,0.0,-0.0,0.0
792.016666666275,-0.32373068,-1.3173784,-0.40509,-2.4595654,0.3080022,1.820541,0.84146214,0.039999545,0.04,-5.7008295,6.370151042938232,4.812258,0.0,-0.0,0.0
792.0333333329417,-0.32373068,-1.3173784,-0.40509,-2.4595654,0.3080022,1.820541,0.84146214,0.039999545,0.04,-5.7008295,6.370151042938232,4.812258,0.0,-0.0,0.0
792.0499999996083,-0.32373068,-1.3173784,-0.40509,-2.4595654,0.3080022,1.820541,0.84146214,0.039999545,0.04,-5.7008295,6.370151042938232,4.812258,0.0,-0.0,0.0
792.066666666275,-0.32373068,-1.3173784,-0.40509,-2.4595654,0.3080022,1.820541,0.84146214,0.039999545,0.04,-5.7008295,6.370151042938232,4.812258,0.0,-0.0,0.0
792.0833333329416,-0.32373068,-1.3173784,-0.40509,-2.4595654,0.3080022,1.820541,0.84146214,0.039999545,0.04,-5.7008295,6.370151042938232,4.812258,0.0,-0.0,0.0
792.0999999996083,-0.32373068,-1.3173784,-0.40509,-2.4595654,0.3080022,1.820541,0.84146214,0.039999545,0.04,-5.7008295,6.370151042938232,4.812258,0.0,-0.0,0.0
792.1166666662749,-0.32373068,-1.3173784,-0.40509,-2.4595654,0.3080022,1.820541,0.84146214,0.039999545,0.04,-5.7008295,6.370151042938232,4.812258,0.0,-0.0,0.0
792.1333333329416,-0.32373068,-1.3173784,-0.40509,-2.4595654,0.3080022,1.820541,0.84146214,0.039999545,0.04,-5.7008295,6.370151042938232,4.812258,0.0,-0.0,0.0
792.1499999996082,-0.32373068,-1.3173784,-0.40509,-2.4595654,0.3080022,1.820541,0.84146214,0.039999545,0.04,-5.7008295,6.370151042938232,4.812258,0.0,-0.0,0.0
792.1666666662749,-0.32373068,-1.3173784,-0.40509,-2.4595654,0.3080022,1.820541,0.84146214,0.039999545,0.04,-5.7008295,6.370151042938232,4.812258,0.0,-0.0,0.0
792.1833333329415,-0.32373068,-1.3173784,-0.40509,-2.4595654,0.3080022,1.820541,0.84146214,0.039999545,0.04,-5.7008295,6.370151042938232,4.812258,0.0,-0.0,0.0
792.1999999996082,-0.32373068,-1.3173784,-0.40509,-2.4595654,0.3080022,1.820541,0.84146214,0.039999545,0.04,-5.7008295,6.370151042938232,4.812258,0.0,-0.0,0.0
792.2166666662748,-0.32373068,-1.3173784,-0.40509,-2.4595654,0.3080022,1.820541,0.84146214,0.039999545,0.04,-5.7008295,6.370151042938232,4.812258,0.0,-0.0,0.0
792.2333333329415,-0.32373068,-1.3173784,-0.40509,-2.4595654,0.3080022,1.820541,0.84146214,0.039999545,0.04,-5.7008295,6.370151042938232,4.812258,0.0,-0.0,0.0
792.2499999996081,-0.32373068,-1.3173784,-0.40509,-2.4595654,0.3080022,1.820541,0.84146214,0.039999545,0.04,-5.7008295,6.370151042938232,4.812258,0.0,-0.0,0.0
792.2666666662748,-0.32373068,-1.3173784,-0.40509,-2.4595654,0.3080022,1.820541,0.84146214,0.039999545,0.04,-5.7008295,6.370151042938232,4.812258,0.0,-0.0,0.0
792.2833333329414,-0.32373068,-1.3173784,-0.40509,-2.4595654,0.3080022,1.820541,0.84146214,0.039999545,0.04,-5.7008295,6.370151042938232,4.812258,0.0,-0.0,0.0
792.2999999996081,-0.32373068,-1.3173784,-0.40509,-2.4595654,0.3080022,1.820541,0.84146214,0.039999545,0.04,-5.7008295,6.370151042938232,4.812258,0.0,-0.0,0.0
792.3166666662747,-0.32373068,-1.3173784,-0.40509,-2.4595654,0.3080022,1.820541,0.84146214,0.039999545,0.04,-5.7008295,6.370151042938232,4.812258,0.0,-0.0,0.0
792.3333333329414,-0.32373068,-1.3173784,-0.40509,-2.4595654,0.3080022,1.820541,0.84146214,0.039999545,0.04,-5.7008295,6.370151042938232,4.812258,0.0,-0.0,0.0
792.349999999608,-0.32373068,-1.3173784,-0.40509,-2.4595654,0.3080022,1.820541,0.84146214,0.039999545,0.04,-5.7008295,6.370151042938232,4.812258,0.0,-0.0,0.0
792.3666666662747,-0.32373068,-1.3173784,-0.40509,-2.4595654,0.3080022,1.820541,0.84146214,0.039999545,0.04,-5.7008295,6.370151042938232,4.812258,0.0,-0.0,0.0
792.3833333329413,-0.32373068,-1.3173784,-0.40509,-2.4595654,0.3080022,1.820541,0.84146214,0.039999545,0.04,-5.7008295,6.370151042938232,4.812258,0.0,-0.0,0.0
792.399999999608,-0.32373068,-1.3173784,-0.40509,-2.4595654,0.3080022,1.820541,0.84146214,0.039999545,0.04,-5.7008295,6.370151042938232,4.812258,0.0,-0.0,0.0
792.4166666662746,-0.32373068,-1.3173784,-0.40509,-2.4595654,0.3080022,1.820541,0.84146214,0.039999545,0.04,-5.7008295,6.370151042938232,4.812258,0.0,-0.0,0.0
792.4333333329413,-0.32373068,-1.3173784,-0.40509,-2.4595654,0.3080022,1.820541,0.84146214,0.039999545,0.04,-5.7008295,6.370151042938232,4.812258,0.0,-0.0,0.0
792.4499999996079,-0.32373068,-1.3173784,-0.40509,-2.4595654,0.3080022,1.820541,0.84146214,0.039999545,0.04,-5.7008295,6.370151042938232,4.812258,0.0,-0.0,0.0
792.4666666662746,-0.32373068,-1.3173784,-0.40509,-2.4595654,0.3080022,1.820541,0.84146214,0.039999545,0.04,-5.7008295,6.370151042938232,4.812258,0.0,-0.0,0.0
792.4833333329412,-0.32373068,-1.3173784,-0.40509,-2.4595654,0.3080022,1.820541,0.84146214,0.039999545,0.04,-5.7008295,6.370151042938232,4.812258,0.0,-0.0,0.0
792.4999999996079,-0.32373068,-1.3173784,-0.40509,-2.4595654,0.3080022,1.820541,0.84146214,0.039999545,0.04,-5.7008295,6.370151042938232,4.812258,0.0,-0.0,0.0
792.5166666662745,-0.32373068,-1.3173784,-0.40509,-2.4595654,0.3080022,1.820541,0.84146214,0.039999545,0.04,-5.7008295,6.370151042938232,4.812258,0.0,-0.0,0.0
792.5333333329412,-0.32373068,-1.3173784,-0.40509,-2.4595654,0.3080022,1.820541,0.84146214,0.039999545,0.04,-5.7008295,6.370151042938232,4.812258,0.0,-0.0,0.0
792.5499999996078,-0.32373068,-1.3173784,-0.40509,-2.4595654,0.3080022,1.820541,0.84146214,0.039999545,0.04,-5.7008295,6.370151042938232,4.812258,0.0,-0.0,0.0
792.5666666662745,-0.32373068,-1.3173784,-0.40509,-2.4595654,0.3080022,1.820541,0.84146214,0.039999545,0.04,-5.7008295,6.370151042938232,4.812258,0.0,-0.0,0.0
792.5833333329412,-0.32373068,-1.3173784,-0.40509,-2.4595654,0.3080022,1.820541,0.84146214,0.039999545,0.04,-5.7008295,6.370151042938232,4.812258,0.0,-0.0,0.0
792.5999999996078,-0.32373068,-1.3173784,-0.40509,-2.4595654,0.3080022,1.820541,0.84146214,0.039999545,0.04,-5.7008295,6.370151042938232,4.812258,0.0,-0.0,0.0
792.6166666662745,-0.32373068,-1.3173784,-0.40509,-2.4595654,0.3080022,1.820541,0.84146214,0.039999545,0.04,-5.7008295,6.370151042938232,4.812258,0.0,-0.0,0.0
792.6333333329411,-0.32373068,-1.3173784,-0.40509,-2.4595654,0.3080022,1.820541,0.84146214,0.039999545,0.04,-5.7008295,6.370151042938232,4.812258,0.0,-0.0,0.0
792.6499999996078,-0.32373068,-1.3173784,-0.40509,-2.4595654,0.3080022,1.820541,0.84146214,0.039999545,0.04,-5.7008295,6.370151042938232,4.812258,0.0,-0.0,0.0
792.6666666662744,-0.32373068,-1.3173784,-0.40509,-2.4595654,0.3080022,1.820541,0.84146214,0.039999545,0.04,-5.7008295,6.370151042938232,4.812258,0.0,-0.0,0.0
792.6833333329411,-0.32373068,-1.3173784,-0.40509,-2.4595654,0.3080022,1.820541,0.84146214,0.039999545,0.04,-5.7008295,6.370151042938232,4.812258,0.0,-0.0,0.0
792.6999999996077,-0.32373068,-1.3173784,-0.40509,-2.4595654,0.3080022,1.820541,0.84146214,0.039999545,0.04,-5.7008295,6.370151042938232,4.812258,0.0,-0.0,0.0
792.7166666662744,-0.32373068,-1.3173784,-0.40509,-2.4595654,0.3080022,1.820541,0.84146214,0.039999545,0.04,-5.7008295,6.370151042938232,4.812258,0.0,-0.0,0.0
792.733333332941,-0.32373068,-1.3173784,-0.40509,-2.4595654,0.3080022,1.820541,0.84146214,0.039999545,0.04,-5.7008295,6.370151042938232,4.812258,0.0,-0.0,0.0
792.7499999996077,-0.32373068,-1.3173784,-0.40509,-2.4595654,0.3080022,1.820541,0.84146214,0.039999545,0.04,-5.7008295,6.370151042938232,4.812258,0.0,-0.0,0.0
792.7666666662743,-0.32373068,-1.3173784,-0.40509,-2.4595654,0.3080022,1.820541,0.84146214,0.039999545,0.04,-5.7008295,6.370151042938232,4.812258,0.0,-0.0,0.0
792.783333332941,-0.32373068,-1.3173784,-0.40509,-2.4595654,0.3080022,1.820541,0.84146214,0.039999545,0.04,-5.7008295,6.370151042938232,4.812258,0.0,-0.0,0.0
792.7999999996076,-0.32373068,-1.3173784,-0.40509,-2.4595654,0.3080022,1.820541,0.84146214,0.039999545,0.04,-5.7008295,6.370151042938232,4.812258,0.0,-0.0,0.0
792.8166666662743,-0.32373068,-1.3173784,-0.40509,-2.4595654,0.3080022,1.820541,0.84146214,0.039999545,0.04,-5.7008295,6.370151042938232,4.812258,0.0,-0.0,0.0
792.8333333329409,-0.32373068,-1.3173784,-0.40509,-2.4595654,0.3080022,1.820541,0.84146214,0.039999545,0.04,-5.7008295,6.370151042938232,4.812258,0.0,-0.0,0.0
792.8499999996076,-0.32373068,-1.3173784,-0.40509,-2.4595654,0.3080022,1.820541,0.84146214,0.039999545,0.04,-5.7008295,6.370151042938232,4.812258,0.0,-0.0,0.0
792.8666666662742,-0.32373068,-1.3173784,-0.40509,-2.4595654,0.3080022,1.820541,0.84146214,0.039999545,0.04,-5.7008295,6.370151042938232,4.812258,0.0,-0.0,0.0
792.8833333329409,-0.32373068,-1.3173784,-0.40509,-2.4595654,0.3080022,1.820541,0.84146214,0.039999545,0.04,-5.7008295,6.370151042938232,4.812258,0.0,-0.0,0.0
792.8999999996075,-0.32373068,-1.3173784,-0.40509,-2.4595654,0.3080022,1.820541,0.84146214,0.039999545,0.04,-5.7008295,6.370151042938232,4.812258,0.0,-0.0,0.0
792.9166666662742,-0.32373068,-1.3173784,-0.40509,-2.4595654,0.3080022,1.820541,0.84146214,0.039999545,0.04,-5.7008295,6.370151042938232,4.812258,0.0,-0.0,0.0
792.9333333329408,-0.32373068,-1.3173784,-0.40509,-2.4595654,0.3080022,1.820541,0.84146214,0.039999545,0.04,-5.7008295,6.370151042938232,4.812258,0.0,-0.0,0.0
792.9499999996075,-0.32373068,-1.3173784,-0.40509,-2.4595654,0.3080022,1.820541,0.84146214,0.039999545,0.04,-5.7008295,6.370151042938232,4.812258,0.0,-0.0,0.0
792.9666666662741,-0.32373068,-1.3173784,-0.40509,-2.4595654,0.3080022,1.820541,0.84146214,0.039999545,0.04,-5.7008295,6.370151042938232,4.812258,0.0,-0.0,0.0
792.9833333329408,-0.32373068,-1.3173784,-0.40509,-2.4595654,0.3080022,1.820541,0.84146214,0.039999545,0.04,-5.7008295,6.370151042938232,4.812258,0.0,-0.0,0.0
792.9999999996074,-0.32373068,-1.3173784,-0.40509,-2.4595654,0.3080022,1.820541,0.84146214,0.039999545,0.04,-5.7008295,6.370151042938232,4.812258,0.0,-0.0,0.0
793.0166666662741,-0.32373068,-1.3173784,-0.40509,-2.4595654,0.3080022,1.820541,0.84146214,0.039999545,0.04,-5.7008295,6.370151042938232,4.812258,0.0,-0.0,0.0
793.0333333329407,-0.32373068,-1.3173784,-0.40509,-2.4595654,0.3080022,1.820541,0.84146214,0.039999545,0.04,-5.7008295,6.370151042938232,4.812258,0.0,-0.0,0.0
793.0499999996074,-0.32373068,-1.3173784,-0.40509,-2.4595654,0.3080022,1.820541,0.84146214,0.039999545,0.04,-5.7008295,6.370151042938232,4.812258,0.0,-0.0,0.0
793.066666666274,-0.32373068,-1.3173784,-0.40509,-2.4595654,0.3080022,1.820541,0.84146214,0.039999545,0.04,-5.7008295,6.370151042938232,4.812258,0.0,-0.0,0.0
793.0833333329407,-0.32373068,-1.3173784,-0.40509,-2.4595654,0.3080022,1.820541,0.84146214,0.039999545,0.04,-5.7008295,6.370151042938232,4.812258,0.0,-0.0,0.0
793.0999999996073,-0.32373068,-1.3173784,-0.40509,-2.4595654,0.3080022,1.820541,0.84146214,0.039999545,0.04,-5.7008295,6.370151042938232,4.812258,0.0,-0.0,0.0
793.116666666274,-0.32373068,-1.3173784,-0.40509,-2.4595654,0.3080022,1.820541,0.84146214,0.039999545,0.04,-5.7008295,6.370151042938232,4.812258,0.0,-0.0,0.0
793.1333333329407,-0.32373068,-1.3173784,-0.40509,-2.4595654,0.3080022,1.820541,0.84146214,0.039999545,0.04,-5.7008295,6.370151042938232,4.812258,0.0,-0.0,0.0
793.1499999996073,-0.32373068,-1.3173784,-0.40509,-2.4595654,0.3080022,1.820541,0.84146214,0.039999545,0.04,-5.7008295,6.370151042938232,4.812258,0.0,-0.0,0.0
793.166666666274,-0.32373068,-1.3173784,-0.40509,-2.4595654,0.3080022,1.820541,0.84146214,0.039999545,0.04,-5.7008295,6.370151042938232,4.812258,0.0,-0.0,0.0
793.1833333329406,-0.32373068,-1.3173784,-0.40509,-2.4595654,0.3080022,1.820541,0.84146214,0.039999545,0.04,-5.7008295,6.370151042938232,4.812258,0.0,-0.0,0.0
793.1999999996073,-0.32373068,-1.3173784,-0.40509,-2.4595654,0.3080022,1.820541,0.84146214,0.039999545,0.04,-5.7008295,6.370151042938232,4.812258,0.0,-0.0,0.0
793.2166666662739,-0.32373068,-1.3173784,-0.40509,-2.4595654,0.3080022,1.820541,0.84146214,0.039999545,0.04,-5.7008295,6.370151042938232,4.812258,0.0,-0.0,0.0
793.2333333329406,-0.32373068,-1.3173784,-0.40509,-2.4595654,0.3080022,1.820541,0.84146214,0.039999545,0.04,-5.7008295,6.370151042938232,4.812258,0.0,-0.0,0.0
793.2499999996072,-0.32373068,-1.3173784,-0.40509,-2.4595654,0.3080022,1.820541,0.84146214,0.039999545,0.04,-5.7008295,6.370151042938232,4.812258,0.0,-0.0,0.0
793.2666666662739,-0.32373068,-1.3173784,-0.40509,-2.4595654,0.3080022,1.820541,0.84146214,0.039999545,0.04,-5.7008295,6.370151042938232,4.812258,0.0,-0.0,0.0
793.2833333329405,-0.32373068,-1.3173784,-0.40509,-2.4595654,0.3080022,1.820541,0.84146214,0.039999545,0.04,-5.7008295,6.370151042938232,4.812258,0.0,-0.0,0.0
793.2999999996072,-0.32373068,-1.3173784,-0.40509,-2.4595654,0.3080022,1.820541,0.84146214,0.039999545,0.04,-5.7008295,6.370151042938232,4.812258,0.0,-0.0,0.0
793.3166666662738,-0.32373068,-1.3173784,-0.40509,-2.4595654,0.3080022,1.820541,0.84146214,0.039999545,0.04,-5.7008295,6.370151042938232,4.812258,0.0,-0.0,0.0
793.3333333329405,-0.32373068,-1.3173784,-0.40509,-2.4595654,0.3080022,1.820541,0.84146214,0.039999545,0.04,-5.7008295,6.370151042938232,4.812258,0.0,-0.0,0.0
793.3499999996071,-0.32373068,-1.3173784,-0.40509,-2.4595654,0.3080022,1.820541,0.84146214,0.039999545,0.04,-5.7008295,6.370151042938232,4.812258,0.0,-0.0,0.0
793.3666666662738,-0.32373068,-1.3173784,-0.40509,-2.4595654,0.3080022,1.820541,0.84146214,0.039999545,0.04,-5.7008295,6.370151042938232,4.812258,0.0,-0.0,0.0
793.3833333329404,-0.32373068,-1.3173784,-0.40509,-2.4595654,0.3080022,1.820541,0.84146214,0.039999545,0.04,-5.7008295,6.370151042938232,4.812258,0.0,-0.0,0.0
793.3999999996071,-0.32373068,-1.3173784,-0.40509,-2.4595654,0.3080022,1.820541,0.84146214,0.039999545,0.04,-5.7008295,6.370151042938232,4.812258,0.0,-0.0,0.0
793.4166666662737,-0.32373068,-1.3173784,-0.40509,-2.4595654,0.3080022,1.820541,0.84146214,0.039999545,0.04,-5.7008295,6.370151042938232,4.812258,0.0,-0.0,0.0
793.4333333329404,-0.32373068,-1.3173784,-0.40509,-2.4595654,0.3080022,1.820541,0.84146214,0.039999545,0.04,-5.7008295,6.370151042938232,4.812258,0.0,-0.0,0.0
793.449999999607,-0.32373068,-1.3173784,-0.40509,-2.4595654,0.3080022,1.820541,0.84146214,0.039999545,0.04,-5.7008295,6.370151042938232,4.812258,0.0,-0.0,0.0
793.4666666662737,-0.32373068,-1.3173784,-0.40509,-2.4595654,0.3080022,1.820541,0.84146214,0.039999545,0.04,-5.7008295,6.370151042938232,4.812258,0.0,-0.0,0.0
793.4833333329403,-0.32373068,-1.3173784,-0.40509,-2.4595654,0.3080022,1.820541,0.84146214,0.039999545,0.04,-5.7008295,6.370151042938232,4.812258,0.0,-0.0,0.0
793.499999999607,-0.32373068,-1.3173784,-0.40509,-2.4595654,0.3080022,1.820541,0.84146214,0.039999545,0.04,-5.7008295,6.370151042938232,4.812258,0.0,-0.0,0.0
793.5166666662736,-0.32373068,-1.3173784,-0.40509,-2.4595654,0.3080022,1.820541,0.84146214,0.039999545,0.04,-5.7008295,6.370151042938232,4.812258,0.0,-0.0,0.0
793.5333333329403,-0.32373068,-1.3173784,-0.40509,-2.4595654,0.3080022,1.820541,0.84146214,0.039999545,0.04,-5.7008295,6.370151042938232,4.812258,0.0,-0.0,0.0
793.5499999996069,-0.32373068,-1.3173784,-0.40509,-2.4595654,0.3080022,1.820541,0.84146214,0.039999545,0.04,-5.7008295,6.370151042938232,4.812258,0.0,-0.0,0.0
793.5666666662736,-0.32373068,-1.3173784,-0.40509,-2.4595654,0.3080022,1.820541,0.84146214,0.039999545,0.04,-5.7008295,6.370151042938232,4.812258,0.0,-0.0,0.0
793.5833333329402,-0.32373068,-1.3173784,-0.40509,-2.4595654,0.3080022,1.820541,0.84146214,0.039999545,0.04,-5.7008295,6.370151042938232,4.812258,0.0,-0.0,0.0
793.5999999996069,-0.32373068,-1.3173784,-0.40509,-2.4595654,0.3080022,1.820541,0.84146214,0.039999545,0.04,-5.7008295,6.370151042938232,4.812258,0.0,-0.0,0.0
