rsonawane2002/My_IMU/logs_2/traj_460/imu_460.csv
time,j1,j2,j3,j4,j5,j6,j7,gripper1,gripper2,imu_ax,imu_ay,imu_az,imu_gx,imu_gy,imu_gz
2310.4833333351417,0.00016700293,-0.785875,4.0107683e-05,-2.3551247,9.29385e-05,1.570997,0.786,0.04,0.04,-9.471068,0.020486967638134956,0.07648609,-3.315382e-07,-0.0011641274904832244,3.4733597e-07
2310.5000000018085,0.00016700836,-0.78576016,4.0116433e-05,-2.3552213,9.297224e-05,1.5709941,0.786,0.04,0.04,-9.834145,0.0006343899294734001,0.009183566,2.1650042e-07,-0.002237650565803051,8.15338e-07
2310.5166666684754,0.00016703187,-0.78565425,4.0137325e-05,-2.35531,9.299101e-05,1.5709913,0.786,0.04,0.04,-9.832574,0.000668293156195432,0.0075291963,1.8061685e-06,-0.0032243821769952774,3.3602724e-08
2310.5333333351423,0.0001671043,-0.7855569,4.0191328e-05,-2.355391,9.297514e-05,1.5709884,0.786,0.04,0.04,-9.830776,0.0007239050464704633,0.0061373212,6.9835364e-06,-0.004128202795982361,-2.7849005e-06
2310.550000001809,0.00016727047,-0.78546727,4.030863e-05,-2.3554652,9.289621e-05,1.5709856,0.786,0.04,0.04,-9.8288555,0.0008038891246542335,0.0049534524,1.676612e-05,-0.004951310809701681,-8.5025285e-06
2310.566666668476,0.00016758767,-0.78538465,4.0527564e-05,-2.355532,9.271858e-05,1.5709826,0.7860019,0.04,0.04,-9.827586,0.0009067900246009231,0.003650121,3.3663502e-05,-0.005695796106010675,-1.7895882e-05
2310.583333335143,0.00016812456,-0.7853086,4.0894152e-05,-2.3555937,9.2401126e-05,1.5709794,0.7860038,0.04,0.04,-9.826133,0.0010226976592093706,0.0025187712,5.0151466e-05,-0.006363873369991779,-3.166181e-05
2310.60000000181,0.00016895971,-0.7852385,4.146073e-05,-2.3556514,9.1893045e-05,1.5709754,0.78600574,0.04,0.04,-9.824998,0.001154965371824801,0.0014572078,7.716758e-05,-0.00696563022211194,-5.042123e-05
2310.6166666684767,0.00017018075,-0.785174,4.2285712e-05,-2.3557022,9.114009e-05,1.5709687,0.78600955,0.04,0.04,-9.823877,0.0012932796962559223,0.0005328669,0.00011642397,-0.007508276030421257,-7.474319e-05
2310.6333333351436,0.00017188325,-0.78511477,4.3432712e-05,-2.3557487,9.0084664e-05,1.5709617,0.7860153,0.04,0.04,-9.822859,0.001461468986235559,-0.00045915553,0.00016149545,-0.00798676535487175,-0.00010507972
2310.6500000018104,0.00017417003,-0.7850601,4.4970173e-05,-2.355791,8.866273e-05,1.5709512,0.7860229,0.04,0.04,-9.8220215,0.0016223808052018285,-0.0013734617,0.0002142546,-0.008403747342526913,-0.00014191294
2310.6666666684773,0.00017714976,-0.78500986,4.697033e-05,-2.355827,8.6825676e-05,1.5709395,0.78603244,0.04,0.03999999,-9.821306,0.00179615942761302,-0.002210404,0.00027664643,-0.008773612789809704,-0.00018408077
2310.683333335144,0.00018093707,-0.7849636,4.950951e-05,-2.3558614,8.44718e-05,1.5709249,0.7860439,0.04,0.039999995,-9.820122,0.001930680824443698,-0.0029980545,0.00035068212,-0.009074190631508827,-0.00023583065
2310.700000001811,0.00018565095,-0.7849208,5.266682e-05,-2.355889,8.153894e-05,1.5709064,0.7860588,0.04,0.039999995,-9.819975,0.0021249926649034023,-0.0038610182,0.00043870273,-0.009337196126580238,-0.00029426152
2310.716666668478,0.00019141476,-0.7848813,5.6524113e-05,-2.3559144,7.7950484e-05,1.5708841,0.78607666,0.04,0.039999995,-9.819083,0.002293237019330263,-0.0046460135,0.00053515984,-0.009542782790958881,-0.00036044046
2310.733333335145,0.00019835534,-0.7848448,6.1165796e-05,-2.3559344,7.3618205e-05,1.5708574,0.7860982,0.04,0.04,-9.818759,0.0024491464719176292,-0.0054240907,0.0006449711,-0.00970850046724081,-0.00043533856
2310.7500000018117,0.0002066022,-0.7848111,6.667802e-05,-2.3559506,6.847303e-05,1.5708258,0.7861238,0.04,0.04,-9.8180275,0.0025708735920488834,-0.006140034,0.00076680136,-0.009825093671679497,-0.00051758357
2310.7666666684786,0.00021628769,-0.7847799,7.3148716e-05,-2.3559625,6.2425635e-05,1.5707883,0.7861538,0.04,0.04,-9.817769,0.0027422215789556503,-0.0069629494,0.0009004399,-0.00990056898444891,-0.0006089274
2310.7833333351455,0.00022754591,-0.784751,8.06669e-05,-2.3559704,5.5399905e-05,1.5707457,0.78618884,0.04,0.04,-9.817321,0.0028805406764149666,-0.007714727,0.0010470928,-0.009934492409229279,-0.0007078678
2310.8000000018124,0.00024051269,-0.7847242,8.932281e-05,-2.3559744,4.731168e-05,1.5706962,0.78622913,0.04,0.04,-9.816892,0.0029493728652596474,-0.008471024,0.0012052717,-0.00992625392973423,-0.000815338
2310.8166666684792,0.00025532494,-0.78469926,9.920746e-05,-2.355974,3.809423e-05,1.5706402,0.786275,0.04,0.039999995,-9.816738,0.003106319811195135,-0.009314527,0.0013765136,-0.00988334696739912,-0.00092989224
2310.833333335146,0.00027212047,-0.784676,0.000110412424,-2.3559701,2.7653814e-05,1.5705769,0.786327,0.04,0.03999999,-9.816407,0.0031829155050218105,-0.010140704,0.0015607672,-0.009800156578421593,-0.0010539801
2310.850000001813,0.00029103807,-0.7846544,0.00012302992,-2.355961,1.5876087e-05,1.5705057,0.7863858,0.04,0.04,-9.816273,0.0032283661421388388,-0.011003472,0.0017585441,-0.009684737771749496,-0.0011891056
2310.86666666848,0.00031221626,-0.7846339,0.000137152,-2.3559494,2.6863052e-06,1.5704263,0.7864514,0.04,0.04,-9.815849,0.0032146633602678776,-0.011818564,0.0019679072,-0.009529885835945606,-0.0013321169
2310.8833333351467,0.00033579356,-0.7846148,0.00015287077,-2.3559315,-1.1991398e-05,1.5703378,0.7865245,0.04,0.04,-9.815989,0.003288152627646923,-0.01282029,0.002190799,-0.009349919855594635,-0.001483071
2310.9000000018136,0.00036190829,-0.78459686,0.00017027812,-2.3559098,-2.8243243e-05,1.57024,0.78660536,0.04,0.04,-9.815563,0.0032762601040303707,-0.013761685,0.0024264222,-0.009129065088927746,-0.0016427694
2310.9166666684805,0.00039069832,-0.7845799,0.00018946553,-2.3558831,-4.6153804e-05,1.5701321,0.7866945,0.04,0.04,-9.815542,0.003234804142266512,-0.014764776,0.0026751093,-0.008880173787474632,-0.0018111988
2310.9333333351474,0.00042230057,-0.78456384,0.00021052409,-2.355852,-6.579929e-05,1.570014,0.78679234,0.04,0.04,-9.815291,0.003095164429396391,-0.015757654,0.0029363893,-0.008600096218287945,-0.0019875707
2310.9500000018143,0.0004568516,-0.7845486,0.00023354482,-2.3558166,-8.728126e-05,1.5698849,0.78689927,0.04,0.04,-9.815243,0.0030503259040415287,-0.016918333,0.003210628,-0.008288816548883915,-0.0021741875
2310.966666668481,0.0004944863,-0.7845339,0.00025861704,-2.3557758,-0.00011065707,1.5697441,0.78701574,0.04,0.039999995,-9.815304,0.002925159875303507,-0.018079884,0.0034973694,-0.007954901084303856,-0.002367086
2310.983333335148,0.000535339,-0.78452,0.00028583023,-2.3557303,-0.00013604657,1.5695914,0.78714216,0.039999995,0.04,-9.815154,0.002732666675001383,-0.019310717,0.0037967386,-0.007591490633785725,-0.002571696
2311.000000001815,0.0005795421,-0.78450644,0.00031527254,-2.3556798,-0.00016352894,1.5694267,0.7872789,0.03999999,0.04,-9.815048,0.002432444831356406,-0.020536344,0.0041086017,-0.0072023095563054085,-0.0027847507
2311.016666668482,0.00062722637,-0.7844932,0.00034703084,-2.355624,-0.00019316905,1.5692489,0.7874263,0.039999988,0.04,-9.8151045,0.0022713590878993273,-0.021983242,0.004432815,-0.006787064019590616,-0.0030054797
2311.0333333351487,0.00067852164,-0.7844805,0.0003811913,-2.3555624,-0.00022504323,1.5690578,0.78758496,0.039999988,0.04,-9.81507,0.00198770547285676,-0.023433639,0.0047695413,-0.006347003858536482,-0.003232897
2311.0500000018155,0.0007335555,-0.7844682,0.00041783883,-2.3554952,-0.0002592329,1.5688528,0.78775513,0.039999988,0.04,-9.814919,0.0015485826879739761,-0.02486267,0.005117571,-0.005880594719201326,-0.0034695016
2311.0666666684824,0.0007924542,-0.7844561,0.00045705735,-2.3554225,-0.000295822,1.5686333,0.7879373,0.039999988,0.04,-9.81493,0.0012545068748295307,-0.026518906,0.005477897,-0.0053891935385763645,-0.0037151664
2311.0833333351493,0.0008553416,-0.7844441,0.0004989294,-2.3553445,-0.00033488192,1.568399,0.7881317,0.039999988,0.04,-9.814978,0.0008316147141158581,-0.028191326,0.0058498774,-0.004877617582678795,-0.003968147
2311.100000001816,0.00092234,-0.7844322,0.000543536,-2.3552601,-0.00037648578,1.5681493,0.78833884,0.039999988,0.04,-9.815023,0.0003535561263561249,-0.029963283,0.0062334468,-0.004345844965428114,-0.0042292275
2311.116666668483,0.0009935689,-0.7844203,0.000590957,-2.3551698,-0.00042069223,1.567884,0.788559,0.039999988,0.039999995,-9.814885,-0.00026966631412506104,-0.031749714,0.0066285003,-0.0037907760124653578,-0.004496806
2311.13333333515,0.0010691473,-0.78440845,0.0006412712,-2.355074,-0.00046761587,1.5676025,0.78879267,0.039999988,0.04,-9.814985,-0.0007598316296935081,-0.03379198,0.0070347018,-0.003215228207409382,-0.0047762613
2311.150000001817,0.00114919,-0.7843966,0.0006945552,-2.3549712,-0.00051728665,1.5673046,0.7890403,0.039999984,0.039999995,-9.815083,-0.0013682837598025799,-0.035845276,0.007451983,-0.0026229408103972673,-0.0050595533
2311.1666666684837,0.0012338115,-0.78438467,0.000750885,-2.3548625,-0.0005698096,1.5669894,0.7893018,0.03999998,0.04,-9.814987,-0.0020725224167108536,-0.03801556,0.0078789275,-0.002006497932597995,-0.005353791
2311.1833333351506,0.0013231224,-0.7843727,0.0008103343,-2.354747,-0.00062523945,1.5666568,0.7895778,0.039999977,0.04,-9.8150215,-0.0029211314395070076,-0.040176,0.008318205,-0.0013756308471783996,-0.0056549204
2311.2000000018174,0.0014172324,-0.7843606,0.0008729758,-2.3546245,-0.0006836405,1.5663065,0.78986853,0.039999973,0.039999995,-9.815073,-0.0035942457616329193,-0.042633135,0.008767568,-0.0007247003959491849,-0.005962799
2311.2166666684843,0.0015162479,-0.78434837,0.0009388807,-2.354496,-0.0007450791,1.565938,0.7901745,0.03999997,0.03999999,-9.815063,-0.004449011757969856,-0.045109935,0.009227798,-5.463255729409866e-05,-0.006278195
2311.233333335151,0.0016202735,-0.7843358,0.001008118,-2.3543608,-0.0008096196,1.5655508,0.7904959,0.03999996,0.039999984,-9.815168,-0.005366326309740543,-0.047711253,0.00969776,0.0006300460081547499,-0.006601037
2311.250000001818,0.0017294107,-0.78432304,0.0010807558,-2.354219,-0.0008773259,1.5651448,0.7908332,0.039999958,0.039999984,-9.815133,-0.0064726099371910095,-0.05033087,0.010177678,0.0013294389937072992,-0.006932072
2311.266666668485,0.0018437597,-0.7843099,0.0011568608,-2.3540704,-0.00094825844,1.5647193,0.7911864,0.039999954,0.03999998,-9.815291,-0.007379517890512943,-0.053256635,0.010666971,0.0020439974032342434,-0.0072695273
2311.283333335152,0.0019634168,-0.78429663,0.0012364967,-2.3539145,-0.0010224775,1.5642741,0.7915562,0.03999995,0.039999977,-9.815396,-0.008489975705742836,-0.056223795,0.011166713,0.002770525636151433,-0.007614177
2311.3000000018187,0.0020884774,-0.784283,0.0013197276,-2.3537512,-0.0011000426,1.5638088,0.79194254,0.03999995,0.03999998,-9.815305,-0.009791580960154533,-0.05920117,0.011674636,0.003513346891850233,-0.007966803
2311.3166666684856,0.0022190341,-0.78426903,0.0014066143,-2.3535802,-0.0011810096,1.5633233,0.7923458,0.03999995,0.03999998,-9.815369,-0.010888946242630482,-0.06251728,0.012192393,0.0042716930620372295,-0.008325643
2311.3333333351525,0.0023551763,-0.7842547,0.0014972166,-2.3534017,-0.0012654343,1.562817,0.7927663,0.03999995,0.039999984,-9.815397,-0.012199865654110909,-0.06585644,0.012719382,0.005044272635132074,-0.008692305
2311.3500000018194,0.0024969913,-0.7842402,0.0015915927,-2.3532155,-0.0013533705,1.5622895,0.79320425,0.03999995,0.039999984,-9.815411,-0.013564555905759335,-0.069326006,0.013255581,0.005830632522702217,-0.009065018
2311.3666666684862,0.002644563,-0.7842249,0.001689799,-2.3530216,-0.0014448713,1.5617405,0.79366,0.03999995,0.039999984,-9.815333,-0.015153838321566582,-0.072797045,0.013800142,0.00662949588149786,-0.009444568
2311.383333335153,0.0027979757,-0.7842093,0.0017918908,-2.3528202,-0.0015399874,1.5611697,0.7941339,0.03999995,0.039999984,-9.815483,-0.016534166410565376,-0.076664805,0.014353056,0.0074388133361935616,-0.009830869
2311.40000000182,0.0029573087,-0.78419346,0.0018979204,-2.352611,-0.001638768,1.5605768,0.79462606,0.039999954,0.039999988,-9.8154955,-0.018124721944332123,-0.08052617,0.014913716,0.0082590626552701,-0.010223861
2311.416666668487,0.0031226375,-0.7841771,0.0020079399,-2.3523927,-0.0017412613,1.5599618,0.7951366,0.03999995,0.039999988,-9.815562,-0.01979007013142109,-0.08453079,0.015482392,0.00908825546503067,-0.010624337
2311.4333333351537,0.0032940393,-0.7841602,0.0021219996,-2.3521657,-0.0018475138,1.5593241,0.79566586,0.039999947,0.039999988,-9.81533,-0.02168259769678116,-0.088571645,0.016059868,0.009934409521520138,-0.011031398
2311.4500000018206,0.0034715855,-0.78414273,0.0022401477,-2.3519306,-0.001957569,1.558664,0.79621404,0.039999943,0.039999984,-9.815358,-0.023353638127446175,-0.09298705,0.016644483,0.010792688466608524,-0.011444135
2311.4666666684875,0.003655346,-0.7841249,0.0023624296,-2.3516874,-0.0020714705,1.5579807,0.7967814,0.03999994,0.03999998,-9.815368,-0.02525113895535469,-0.0974286,0.017237032,0.011661521159112453,-0.0118633285
2311.4833333351544,0.0038453895,-0.78410655,0.0024888918,-2.3514361,-0.0021892618,1.5572736,0.7973682,0.039999932,0.039999973,-9.815374,-0.02723243460059166,-0.10198686,0.017836941,0.012538804672658443,-0.012288917
2311.5000000018213,0.0040417807,-0.7840877,0.002619577,-2.3511763,-0.0023109817,1.5565435,0.7979746,0.039999936,0.03999998,-9.815312,-0.02944609522819519,-0.10658459,0.018443381,0.013422627933323383,-0.012721648
2311.516666668488,0.0042445804,-0.78406817,0.0027545267,-2.3509083,-0.0024366686,1.555789,0.7986008,0.03999993,0.039999973,-9.81537,-0.031431712210178375,-0.11158911,0.019057149,0.014317133463919163,-0.0131598255
2311.533333335155,0.0044538495,-0.78404826,0.0028937804,-2.350632,-0.0025663597,1.5550107,0.79924697,0.039999932,0.039999977,-9.815436,-0.0336650051176548,-0.11661987,0.019677404,0.015214504674077034,-0.013604185
2311.550000001822,0.0046696463,-0.7840278,0.003037377,-2.350347,-0.0027000934,1.5542084,0.7999133,0.039999932,0.03999998,-9.8153105,-0.036135703325271606,-0.12166155,0.020304114,0.01612023077905178,-0.014055556
2311.566666668489,0.0048920275,-0.7840068,0.0031853546,-2.3500526,-0.0028379017,1.5533817,0.80059993,0.03999993,0.039999977,-9.815401,-0.03837905451655388,-0.12713578,0.020937257,0.017033390700817108,-0.014513108
2311.5833333351557,0.005121043,-0.78398514,0.0033377467,-2.349749,-0.0029798162,1.55253,0.801307,0.03999993,0.039999977,-9.815254,-0.040860630571842194,-0.13261823,0.021576205,0.017956459894776344,-0.0149758225
2311.6000000018225,0.0053567463,-0.7839629,0.0034945877,-2.349437,-0.00312587,1.5516536,0.8020347,0.03999993,0.04,-9.815176,-0.04346410557627678,-0.13825335,0.02222146,0.018885867670178413,-0.015449562
2311.6166666684894,0.005599183,-0.78394026,0.0036559093,-2.349116,-0.0032760745,1.5507526,0.8027833,0.03999992,0.039999995,-9.815046,-0.046263620257377625,-0.14390749,0.02287287,0.019820602610707283,-0.015924335
2311.6333333351563,0.0058484,-0.78391683,0.0038217425,-2.3487866,-0.0034304883,1.549826,0.8035527,0.03999992,0.04,-9.815087,-0.04886547848582268,-0.14999151,0.023529207,0.020762063562870026,-0.016405813
2311.650000001823,0.0061044414,-0.7838928,0.003992114,-2.3484478,-0.003589115,1.5488741,0.80434304,0.03999992,0.04,-9.815104,-0.05171453207731247,-0.15609697,0.02419159,0.021703336387872696,-0.01689229
2311.66666666849,0.006367345,-0.7838683,0.0041670557,-2.3480995,-0.0037519813,1.5478967,0.80515474,0.03999992,0.04,-9.814959,-0.054656732827425,-0.16236758,0.024859639,0.022652026265859604,-0.017384667
2311.683333335157,0.006637152,-0.78384316,0.004346589,-2.347742,-0.00391911,1.5468936,0.80598766,0.039999917,0.039999995,-9.814753,-0.057859182357788086,-0.16864088,0.025532285,0.023605242371559143,-0.017882865
2311.700000001824,0.0069138976,-0.78381735,0.0045307395,-2.347376,-0.0040905466,1.5458646,0.80684197,0.039999917,0.04,-9.814703,-0.060836464166641235,-0.17536351,0.026210004,0.02456318959593773,-0.018387564
2311.7166666684907,0.0071976166,-0.783791,0.0047195293,-2.347001,-0.004266283,1.5448097,0.8077178,0.039999913,0.039999995,-9.814712,-0.06406733393669128,-0.1821134,0.026892822,0.025519998744130135,-0.018897118
2311.7333333351576,0.00748834,-0.7837639,0.004912982,-2.3466158,-0.0044463556,1.5437287,0.80861527,0.039999917,0.04,-9.81461,-0.06739896535873413,-0.18900937,0.027580101,0.026478448882699013,-0.019412246
2311.7500000018244,0.007786098,-0.78373617,0.0051111146,-2.3462214,-0.0046307724,1.5426219,0.80953443,0.039999913,0.039999995,-9.8142395,-0.0709911584854126,-0.19592977,0.028271792,0.027444396167993546,-0.019933073
2311.7666666684913,0.008090917,-0.7837079,0.0053139445,-2.3458183,-0.004819553,1.5414888,0.81047535,0.039999913,0.039999995,-9.814242,-0.07436305284500122,-0.20331082,0.028967896,0.028411706909537315,-0.020459475
2311.783333335158,0.008402823,-0.783679,0.0055214916,-2.3454058,-0.005012722,1.5403292,0.8114382,0.039999917,0.04,-9.81412,-0.07800556719303131,-0.21069185,0.029668132,0.029379108920693398,-0.020991322
2311.800000001825,0.008721841,-0.7836494,0.0057337694,-2.3449838,-0.005210291,1.5391433,0.81242293,0.039999917,0.04,-9.813867,-0.08190003037452698,-0.21808046,0.030372111,0.030346442013978958,-0.021528546
2311.816666668492,0.009047986,-0.78361934,0.0059507918,-2.3445523,-0.0054122764,1.537931,0.81342965,0.039999913,0.039999995,-9.81377,-0.08558807522058487,-0.22596167,0.031080129,0.03131570294499397,-0.02207118
2311.833333335159,0.009381279,-0.7835883,0.006172571,-2.344111,-0.0056186835,1.5366921,0.8144585,0.039999913,0.039999995,-9.813542,-0.08953753858804703,-0.23380575,0.03179206,0.03228665888309479,-0.022619221
2311.8500000018257,0.0097217355,-0.7835568,0.006399118,-2.3436606,-0.0058295135,1.5354266,0.81550944,0.039999913,0.039999995,-9.813303,-0.09359442442655563,-0.24186642,0.0325068,0.03325795754790306,-0.023172582
2311.8666666684926,0.010069371,-0.78352463,0.006630442,-2.3432007,-0.0060447725,1.534134,0.8165827,0.039999913,0.039999995,-9.813038,-0.09792277216911316,-0.24987744,0.033225108,0.03422729671001434,-0.023731159
2311.8833333351595,0.010424199,-0.7834918,0.006866553,-2.342731,-0.006264492,1.532815,0.81767786,0.039999913,0.04,-9.812859,-0.1020515114068985,-0.25838837,0.033945877,0.035195715725421906,-0.024296537
2311.9000000018264,0.010786225,-0.78345835,0.0071074525,-2.3422515,-0.0064886604,1.5314691,0.8187952,0.039999902,0.03999999,-9.812594,-0.10643402487039566,-0.26690745,0.034670677,0.036163970828056335,-0.024866259
2311.9166666684932,0.011155458,-0.7834243,0.0073531494,-2.3417625,-0.0067172954,1.5300967,0.8199349,0.0399999,0.03999999,-9.812275,-0.11093105375766754,-0.27557486,0.0353986,0.03713199868798256,-0.025441015
2311.93333333516,0.011531904,-0.7833895,0.007603646,-2.3412642,-0.0069504073,1.5286977,0.8210969,0.039999895,0.039999995,-9.811853,-0.11570563912391663,-0.28423482,0.03612879,0.038100771605968475,-0.026021635
2311.950000001827,0.011915567,-0.7833541,0.007858946,-2.3407562,-0.0071880016,1.527272,0.8222811,0.039999887,0.039999995,-9.811674,-0.12027755379676819,-0.2934086,0.03686117,0.03906659036874771,-0.026607148
2311.966666668494,0.012306452,-0.7833181,0.008119048,-2.3402393,-0.007430059,1.5258186,0.8234876,0.039999884,0.039999995,-9.811327,-0.12511302530765533,-0.30254316,0.03759623,0.04003091901540756,-0.027196724
2311.9833333351608,0.012704553,-0.78328127,0.008383956,-2.3397121,-0.007676586,1.5243375,0.82471645,0.03999988,0.039999995,-9.811088,-0.13007402420043945,-0.311826,0.038334005,0.04098563268780708,-0.027790941
2312.0000000018276,0.0131098665,-0.783244,0.008653665,-2.3391757,-0.007927574,1.5228316,0.82596743,0.039999876,0.039999995,-9.810536,-0.13530130684375763,-0.3211166,0.03907291,0.04193631187081337,-0.028389916
2312.0166666684945,0.01352239,-0.783206,0.008928173,-2.3386297,-0.008183024,1.5212985,0.82724065,0.039999872,0.039999995,-9.810219,-0.14035074412822723,-0.33094102,0.039814316,0.04289230704307556,-0.028993884
2312.0333333351614,0.013942118,-0.7831672,0.009207473,-2.3380737,-0.008442937,1.5197384,0.82853615,0.03999987,0.039999995,-9.809836,-0.1456652283668518,-0.3407048,0.04055784,0.04384220764040947,-0.02960232
2312.0500000018283,0.01436904,-0.7831279,0.009491565,-2.337509,-0.008707311,1.5181515,0.8298539,0.039999865,0.039999995,-9.809252,-0.15124833583831787,-0.35045183,0.041302573,0.04478849470615387,-0.030215425
2312.066666668495,0.01480315,-0.7830878,0.009780436,-2.3369343,-0.008976126,1.5165379,0.8311938,0.03999986,0.039999995,-9.808968,-0.15666697919368744,-0.36069563,0.042048812,0.045727428048849106,-0.030832883
2312.083333335162,0.015244431,-0.78304714,0.010074085,-2.3363495,-0.00924938,1.5148978,0.83255583,0.03999986,0.04,-9.808459,-0.162345290184021,-0.3709422,0.042796373,0.04666287451982498,-0.031454857
2312.100000001829,0.01569287,-0.78300583,0.010372497,-2.3357556,-0.009527067,1.513231,0.83393985,0.039999858,0.04,-9.8078575,-0.16815555095672607,-0.3813143,0.04354496,0.047596994787454605,-0.032081284
2312.116666668496,0.01614845,-0.78296375,0.010675662,-2.3351529,-0.009809174,1.5115376,0.83534586,0.03999986,0.04,-9.8073,-0.17422468960285187,-0.39165857,0.044295263,0.048523664474487305,-0.03271108
2312.1333333351627,0.016611153,-0.7829211,0.010983566,-2.3345404,-0.010095683,1.5098176,0.83677375,0.039999858,0.04,-9.806932,-0.1801537573337555,-0.40253022,0.045046702,0.04944039508700371,-0.033345733
2312.1500000018295,0.01708096,-0.7828778,0.011296202,-2.3339183,-0.0103865955,1.5080714,0.8382237,0.039999854,0.04,-9.806296,-0.18634124100208282,-0.4133562,0.04579944,0.05035300552845001,-0.03398458
2312.1666666684964,0.017557848,-0.78283376,0.01161355,-2.333287,-0.010681888,1.5062989,0.8396957,0.039999854,0.04,-9.805666,-0.19265294075012207,-0.42432186,0.04655222,0.05126094073057175,-0.03462676
2312.1833333351633,0.018041797,-0.7827891,0.011935596,-2.332646,-0.010981549,1.5045002,0.8411895,0.039999846,0.04,-9.80495,-0.19924521446228027,-0.43526685,0.047304433,0.052161913365125656,-0.03527446
2312.20000000183,0.018532787,-0.782744,0.012262328,-2.331996,-0.011285569,1.5026752,0.8427049,0.03999984,0.04,-9.80434,-0.20568837225437164,-0.44670644,0.048056804,0.05305732041597366,-0.035926007
2312.216666668497,0.01903078,-0.7826981,0.012593723,-2.3313367,-0.011593931,1.5008243,0.844242,0.039999835,0.04,-9.803707,-0.21239617466926575,-0.45809528,0.048810113,0.05394389107823372,-0.036580388
2312.233333335164,0.019535746,-0.78265154,0.0129297655,-2.330668,-0.01190662,1.4989474,0.8458005,0.039999828,0.04,-9.802989,-0.21924270689487457,-0.46964553,0.04956281,0.054823137819767,-0.03723919
2312.250000001831,0.02004766,-0.7826045,0.013270435,-2.3299904,-0.01222361,1.4970448,0.84738046,0.03999982,0.039999995,-9.802132,-0.22633995115756989,-0.48113388,0.05031619,0.055694904178380966,-0.03790074
2312.2666666684977,0.020566491,-0.78255665,0.013615707,-2.3293037,-0.012544876,1.4951164,0.84898186,0.03999982,0.039999995,-9.801472,-0.2333274781703949,-0.4931267,0.05106931,0.05655853450298309,-0.03856489
2312.2833333351646,0.021092208,-0.78250825,0.013965558,-2.3286076,-0.012870412,1.4931624,0.85060436,0.039999813,0.039999995,-9.800693,-0.24058793485164642,-0.5050899,0.0518218,0.057411592453718185,-0.03923386
2312.3000000018314,0.02162477,-0.7824594,0.014319965,-2.3279026,-0.013200188,1.491183,0.852248,0.0399998,0.03999999,-9.799683,-0.24808846414089203,-0.51696545,0.052573968,0.058259669691324234,-0.039906174
2312.3166666684983,0.022164142,-0.78240967,0.014678907,-2.327188,-0.013534173,1.4891787,0.85391265,0.0399998,0.03999999,-9.798933,-0.25547853112220764,-0.52936935,0.0533256,0.05909789726138115,-0.040580027
2312.333333335165,0.02271029,-0.78235936,0.0150423525,-2.326465,-0.013872345,1.4871486,0.8555982,0.039999798,0.03999999,-9.7979765,-0.26314833760261536,-0.5417166,0.054076437,0.059928879141807556,-0.04125778
2312.350000001832,0.02326316,-0.78230846,0.015410281,-2.3257332,-0.014214696,1.4850938,0.8573045,0.03999979,0.03999999,-9.797094,-0.2709534466266632,-0.55417854,0.054826446,0.06074754148721695,-0.04193901
2312.366666668499,0.02382272,-0.7822569,0.015782664,-2.3249924,-0.014561194,1.4830139,0.8590315,0.039999787,0.03999999,-9.796059,-0.2789997160434723,-0.56656504,0.05557544,0.06155591830611229,-0.042622007
2312.383333335166,0.024388926,-0.7822047,0.016159464,-2.324243,-0.014911822,1.4809097,0.860779,0.039999787,0.04,-9.795119,-0.2869754135608673,-0.57948256,0.056323063,0.06235359609127045,-0.043308385
2312.4000000018327,0.024961729,-0.7821519,0.016540667,-2.3234842,-0.01526652,1.4787807,0.86254686,0.039999787,0.04,-9.794095,-0.2951967418193817,-0.59233403,0.05706941,0.06314265727996826,-0.043995835
2312.4166666684996,0.025541084,-0.78209865,0.016926229,-2.3227172,-0.015625272,1.4766273,0.86433494,0.039999783,0.04,-9.792942,-0.3035690188407898,-0.6052764,0.057813957,0.06392228603363037,-0.044687204
2312.4333333351665,0.026126951,-0.7820446,0.01731612,-2.3219414,-0.015988048,1.4744498,0.8661431,0.03999978,0.04,-9.791765,-0.3121766746044159,-0.6181218,0.058556963,0.06469067186117172,-0.045379993
2312.4500000018334,0.026719272,-0.78199,0.017710308,-2.3211577,-0.016354835,1.4722484,0.867971,0.039999776,0.04,-9.790692,-0.3207346200942993,-0.6315278,0.059298303,0.06544708460569382,-0.04607548
2312.4666666685002,0.027317991,-0.781935,0.018108761,-2.3203652,-0.016725581,1.4700232,0.8698188,0.039999764,0.04,-9.789562,-0.3295373320579529,-0.64482343,0.060038615,0.06619114428758621,-0.04677278
2312.483333335167,0.02792306,-0.7818793,0.018511439,-2.3195643,-0.017100276,1.4677744,0.87168616,0.03999976,0.04,-9.788277,-0.3384809195995331,-0.6582158,0.060776293,0.066925548017025,-0.047471955
2312.500000001834,0.028534431,-0.7818229,0.018918315,-2.3187544,-0.017478887,1.4655021,0.873573,0.039999757,0.04,-9.786945,-0.3476552367210388,-0.6715234,0.06151177,0.06764714419841766,-0.048172567
2312.516666668501,0.029152043,-0.781766,0.019329345,-2.3179364,-0.017861359,1.4632068,0.87547916,0.039999753,0.04,-9.785623,-0.35680246353149414,-0.68534243,0.062244922,0.06835976243019104,-0.048874047
2312.5333333351678,0.029775843,-0.7817086,0.019744493,-2.3171103,-0.018247664,1.4608883,0.8774044,0.039999746,0.04,-9.784256,-0.3661908209323883,-0.6990516,0.06297521,0.0690610408782959,-0.04957768
2312.5500000018346,0.030405764,-0.7816506,0.020163722,-2.3162763,-0.018637776,1.458547,0.8793485,0.039999746,0.04,-9.78278,-0.3758007287979126,-0.71265036,0.06370287,0.06974963843822479,-0.050281633
2312.5666666685015,0.031041762,-0.7815919,0.020586995,-2.315434,-0.019031635,1.4561832,0.88131124,0.039999742,0.04,-9.781472,-0.385407030582428,-0.7267596,0.06442787,0.07042363286018372,-0.050986417
2312.5833333351684,0.031683758,-0.7815328,0.02101427,-2.314584,-0.019429235,1.453797,0.8832925,0.039999742,0.04,-9.779943,-0.39524078369140625,-0.7407709,0.06515076,0.07108589261770248,-0.05169342
2312.6000000018353,0.03233172,-0.78147334,0.021445503,-2.313726,-0.019830514,1.4513888,0.8852922,0.03999974,0.04,-9.778436,-0.4052128493785858,-0.754848,0.06587067,0.07173453271389008,-0.0523995
2312.616666668502,0.03298556,-0.78141326,0.021880645,-2.31286,-0.020235429,1.4489586,0.88731,0.03999973,0.04,-9.77672,-0.41540756821632385,-0.7688084,0.06658716,0.07237342745065689,-0.053106986
2312.633333335169,0.03364521,-0.78135246,0.022319665,-2.3119867,-0.02064394,1.446507,0.88934606,0.039999723,0.04,-9.775189,-0.42561963200569153,-0.78327423,0.06730006,0.07299751788377762,-0.053814042
2312.650000001836,0.0343106,-0.78129107,0.022762518,-2.311106,-0.021056037,1.4440339,0.89139956,0.039999712,0.04,-9.773551,-0.43605655431747437,-0.7976372,0.068008356,0.0736069455742836,-0.054522425
2312.666666668503,0.034981687,-0.78122956,0.023209156,-2.3102176,-0.021471659,1.4415398,0.8934707,0.039999705,0.04,-9.771885,-0.4466317594051361,-0.812075,0.068714686,0.07420098781585693,-0.055228923
2312.6833333351697,0.035658382,-0.78116727,0.023659537,-2.3093216,-0.021890763,1.4390247,0.89555913,0.039999697,0.04,-9.76998,-0.4574160873889923,-0.82634056,0.06941672,0.07478488236665726,-0.05593629
2312.7000000018365,0.03634062,-0.7811044,0.024113603,-2.308418,-0.022313306,1.4364891,0.8976646,0.039999694,0.04,-9.768249,-0.4682424068450928,-0.84113246,0.070115164,0.07535367459058762,-0.056642216
2312.7166666685034,0.037028335,-0.781041,0.024571316,-2.3075073,-0.022739248,1.4339331,0.89978695,0.039999686,0.04,-9.766326,-0.47927990555763245,-0.8557977,0.07080984,0.07591093331575394,-0.057349276
2312.7333333351703,0.037721463,-0.78097737,0.025032636,-2.3065898,-0.02316854,1.4313571,0.9019259,0.039999682,0.04,-9.764439,-0.490450382232666,-0.87049705,0.07150024,0.07645294070243835,-0.058053765
2312.750000001837,0.038419936,-0.7809132,0.0254975,-2.3056653,-0.02360114,1.4287612,0.90408146,0.03999967,0.04,-9.762463,-0.5018414855003357,-0.8850611,0.07218715,0.07697947323322296,-0.058758523
2312.766666668504,0.03912364,-0.78084826,0.025965868,-2.3047335,-0.024037005,1.4261458,0.9062535,0.039999668,0.04,-9.7604885,-0.5132763981819153,-0.9001095,0.07286881,0.07749183475971222,-0.05946043
2312.783333335171,0.039832536,-0.78078294,0.026437681,-2.3037956,-0.024476077,1.4235114,0.90844125,0.03999966,0.04,-9.758417,-0.5249241590499878,-0.9150322,0.07354443,0.07798957079648972,-0.06016172
2312.800000001838,0.04054654,-0.78071725,0.026912898,-2.3028505,-0.024918335,1.420858,0.9106446,0.03999965,0.04,-9.756324,-0.536747395992279,-0.92979574,0.07421715,0.07847107201814651,-0.060861714
2312.8166666685047,0.041265577,-0.78065115,0.027391465,-2.3018987,-0.025363699,1.4181858,0.9128636,0.03999964,0.04,-9.7541275,-0.5486468076705933,-0.94498974,0.07488528,0.07894127815961838,-0.06155877
2312.8333333351716,0.041989546,-0.7805847,0.027873334,-2.3009403,-0.025812158,1.4154953,0.9150977,0.039999634,0.04,-9.751915,-0.560747504234314,-0.9600482,0.075548165,0.07939515262842178,-0.062255003
2312.8500000018385,0.04271838,-0.7805174,0.02835844,-2.2999747,-0.026263632,1.4127867,0.917347,0.039999634,0.04,-9.749613,-0.5729756355285645,-0.9751424,0.076206475,0.07983578741550446,-0.0629475
2312.8666666685053,0.043452017,-0.78044975,0.028846743,-2.2990031,-0.026718063,1.41006,0.91961145,0.039999627,0.04,-9.747188,-0.585390567779541,-0.99011385,0.07685864,0.08026282489299774,-0.06363846
2312.883333335172,0.044190366,-0.780382,0.029338177,-2.2980254,-0.027175425,1.4073156,0.92189,0.039999615,0.04,-9.744878,-0.5979183316230774,-1.0054966,0.077503815,0.08067236840724945,-0.06432715
2312.900000001839,0.044933334,-0.78031373,0.029832697,-2.2970421,-0.027635686,1.4045545,0.92418295,0.039999608,0.04,-9.742412,-0.6106094717979431,-1.0206777,0.07814537,0.08106771856546402,-0.06501275
2312.916666668506,0.045680847,-0.780245,0.030330246,-2.2960525,-0.028098753,1.4017762,0.9264899,0.039999604,0.04,-9.740018,-0.6234534382820129,-1.0359764,0.07878073,0.0814460888504982,-0.06569356
2312.933333335173,0.04643282,-0.7801757,0.030830758,-2.2950563,-0.028564591,1.3989817,0.9288106,0.039999597,0.04,-9.737368,-0.6364452242851257,-1.0510535,0.07941038,0.08180937170982361,-0.0663716
2312.9500000018397,0.04718917,-0.78010595,0.03133419,-2.2940545,-0.029033145,1.3961701,0.93114483,0.039999586,0.04,-9.734754,-0.6495884656906128,-1.0665907,0.08003402,0.08216036111116409,-0.067047246
2312.9666666685066,0.047949806,-0.78003603,0.03184048,-2.2930477,-0.029504372,1.3933432,0.9334924,0.039999582,0.04,-9.732104,-0.6628692746162415,-1.0819142,0.08065125,0.0824926346540451,-0.06771772
2312.9833333351735,0.048714645,-0.7799659,0.03234956,-2.292035,-0.029978203,1.3905008,0.9358529,0.03999957,0.04,-9.729422,-0.6763096451759338,-1.0972836,0.081261694,0.0828104242682457,-0.06838489
2313.0000000018404,0.04948359,-0.77989525,0.032861374,-2.2910168,-0.030454597,1.3876431,0.9382261,0.03999957,0.04,-9.726591,-0.6898791790008545,-1.1124531,0.08186631,0.0831134170293808,-0.069047086
2313.0166666685072,0.050256565,-0.77982414,0.033375878,-2.2899926,-0.030933501,1.3847706,0.9406116,0.039999563,0.04,-9.723773,-0.7036187648773193,-1.128052,0.08246399,0.08340252935886383,-0.06970572
2313.033333335174,0.051033482,-0.7797525,0.033893015,-2.2889638,-0.03141482,1.3818833,0.9430092,0.03999956,0.04,-9.720805,-0.7174746990203857,-1.1434498,0.08305539,0.08367907255887985,-0.07035788
2313.050000001841,0.05181424,-0.7796806,0.034412704,-2.2879303,-0.031898532,1.3789814,0.94541883,0.03999955,0.04,-9.71791,-0.731494128704071,-1.1586995,0.08364035,0.08393476158380508,-0.07100657
2313.066666668508,0.052598737,-0.7796086,0.03493491,-2.2868915,-0.0323846,1.3760655,0.94784003,0.03999954,0.04,-9.714999,-0.7456779479980469,-1.1743058,0.08421778,0.08417218178510666,-0.0716493
2313.0833333351748,0.05338691,-0.7795361,0.03545955,-2.2858477,-0.032872945,1.3731366,0.95027256,0.03999953,0.04,-9.71183,-0.7599718570709229,-1.1897045,0.08478791,0.08439832180738449,-0.07228728
2313.1000000018416,0.054178655,-0.77946323,0.035986565,-2.2847989,-0.03336353,1.370193,0.95271593,0.03999952,0.04,-9.708717,-0.7744264602661133,-1.2051458,0.085350774,0.08460978418588638,-0.072919495
2313.1166666685085,0.054973885,-0.7793902,0.03651589,-2.283746,-0.03385627,1.3672376,0.95517015,0.03999951,0.04,-9.7055025,-0.7889642715454102,-1.2203537,0.0859069,0.08480039238929749,-0.073544316
2313.1333333351754,0.055772495,-0.7793167,0.037047483,-2.2826884,-0.034351107,1.3642701,0.95763475,0.0399995,0.04,-9.702318,-0.803740918636322,-1.235971,0.08645513,0.08497826755046844,-0.07416415
2313.1500000018423,0.056574393,-0.77924293,0.03758127,-2.2816265,-0.034848005,1.3612903,0.9601096,0.0399995,0.04,-9.698965,-0.8186006546020508,-1.2513865,0.08699592,0.08514411747455597,-0.07477725
2313.166666668509,0.057379488,-0.77916884,0.038117174,-2.2805603,-0.035346884,1.3582984,0.96259433,0.03999949,0.04,-9.695628,-0.8336093425750732,-1.2667756,0.08752847,0.08529339730739594,-0.07538437
2313.183333335176,0.05818768,-0.7790945,0.038655158,-2.2794902,-0.03584768,1.3552951,0.9650885,0.03999948,0.04,-9.692179,-0.8486932516098022,-1.2819446,0.08805298,0.08542607724666595,-0.07598451
2313.200000001843,0.05899887,-0.77901995,0.039195135,-2.278416,-0.036350355,1.3522804,0.967592,0.039999478,0.04,-9.688764,-0.8640072345733643,-1.297485,0.08856987,0.08554236590862274,-0.07657522
2313.21666666851,0.05981298,-0.77894515,0.039737053,-2.2773376,-0.03685482,1.3492547,0.97010446,0.039999463,0.04,-9.685154,-0.8794236779212952,-1.3127886,0.089078255,0.08564461022615433,-0.07716169
2313.2333333351767,0.060629893,-0.77887017,0.040280852,-2.2762558,-0.037361085,1.346218,0.97262555,0.039999455,0.04,-9.681551,-0.8949604034423828,-1.3280734,0.08957807,0.0857309103012085,-0.07774045
2313.2500000018435,0.061449524,-0.7787949,0.04082646,-2.2751708,-0.037869025,1.3431718,0.97515506,0.039999448,0.04,-9.677908,-0.910555362701416,-1.3431613,0.09006978,0.08579826354980469,-0.07830923
2313.2666666685104,0.062271766,-0.77871937,0.041373804,-2.274082,-0.03837861,1.3401154,0.97769266,0.039999437,0.04,-9.674243,-0.926436185836792,-1.3585975,0.09055296,0.08585081249475479,-0.078872055
2313.2833333351773,0.06309652,-0.7786435,0.04192283,-2.2729905,-0.038889762,1.3370503,0.980238,0.039999433,0.04,-9.670414,-0.9423430562019348,-1.3737854,0.091026865,0.08588844537734985,-0.07942394
2313.300000001844,0.063923694,-0.7785673,0.042473458,-2.2718952,-0.039402403,1.3339761,0.9827908,0.03999942,0.04,-9.666667,-0.9583412408828735,-1.3888294,0.09149148,0.08590871095657349,-0.079967685
2313.316666668511,0.0647532,-0.778491,0.04302564,-2.2707973,-0.03991648,1.3308933,0.9853508,0.03999941,0.04,-9.662694,-0.9745941758155823,-1.4041044,0.091947965,0.08591613173484802,-0.08050452
2313.333333335178,0.06558492,-0.7784145,0.04357929,-2.2696958,-0.04043196,1.3278021,0.9879177,0.0399994,0.04,-9.658766,-0.990896463394165,-1.4191908,0.09239458,0.08590704947710037,-0.08103144
2313.350000001845,0.06641872,-0.7783377,0.044134352,-2.2685916,-0.04094877,1.3247031,0.99049103,0.039999384,0.04,-9.654721,-1.0073128938674927,-1.4342188,0.092831224,0.08588387817144394,-0.081549935
2313.3666666685117,0.06725455,-0.77826095,0.04469076,-2.2674851,-0.041466836,1.3215967,0.9930705,0.039999377,0.04,-9.650613,-1.0237600803375244,-1.4490422,0.093259454,0.08584650605916977,-0.082058564
2313.3833333351786,0.06809227,-0.77818394,0.04524844,-2.2663758,-0.041986093,1.3184832,0.9956559,0.039999373,0.04,-9.646525,-1.0404982566833496,-1.4641339,0.093677826,0.08579359203577042,-0.08255668
2313.4000000018455,0.068931825,-0.7781068,0.04580733,-2.2652636,-0.042506497,1.3153629,0.99824697,0.03999936,0.04,-9.642303,-1.0572755336761475,-1.4790018,0.094086245,0.08572640269994736,-0.08304651
2313.4166666685123,0.06977307,-0.7780296,0.046367362,-2.2641497,-0.043027952,1.3122362,1.0008432,0.039999343,0.04,-9.637974,-1.0741456747055054,-1.4937922,0.09448457,0.08564729988574982,-0.0835261
2313.433333335179,0.07061594,-0.7779524,0.04692846,-2.2630336,-0.043550435,1.3091037,1.0034446,0.039999332,0.04,-9.633752,-1.0910536050796509,-1.5084053,0.09487365,0.08555031567811966,-0.08399478
2313.450000001846,0.07146034,-0.7778749,0.047490567,-2.2619152,-0.044073857,1.3059655,1.0060505,0.03999933,0.04,-9.629347,-1.1082475185394287,-1.523223,0.09525126,0.08544085919857025,-0.0844534
2313.466666668513,0.07230608,-0.7777972,0.048053615,-2.260795,-0.044598166,1.3028221,1.0086607,0.039999317,0.04,-9.6249,-1.125461459159851,-1.5378453,0.095619,0.08531777560710907,-0.084902
2313.48333333518,0.07315314,-0.7777195,0.048617527,-2.259673,-0.04512328,1.2996742,1.0112749,0.039999306,0.04,-9.620436,-1.1427664756774902,-1.552396,0.095976904,0.085178904235363,-0.085338935
2313.5000000018467,0.074001394,-0.7776415,0.049182232,-2.2585502,-0.045649175,1.2965213,1.013893,0.039999295,0.04,-9.615904,-1.1600863933563232,-1.5667409,0.09632367,0.0850275382399559,-0.085765705
2313.5166666685136,0.07485073,-0.77756333,0.04974767,-2.257425,-0.046175737,1.2933645,1.0165142,0.039999284,0.04,-9.611381,-1.1777023077011108,-1.581289,0.09665966,0.08485676348209381,-0.08617862
2313.5333333351805,0.075701065,-0.7774852,0.050313786,-2.256299,-0.046702903,1.290204,1.0191385,0.039999273,0.04,-9.606623,-1.1953158378601074,-1.5956043,0.09698571,0.08467622846364975,-0.08658171
2313.5500000018474,0.07655227,-0.77740693,0.050880477,-2.2551713,-0.04723065,1.2870404,1.0217655,0.039999258,0.04,-9.601989,-1.2129300832748413,-1.6097385,0.097300954,0.08448000997304916,-0.08697396
2313.5666666685142,0.07740425,-0.77732855,0.051447686,-2.254043,-0.047758877,1.283874,1.0243951,0.039999247,0.04,-9.597134,-1.230826497077942,-1.6240021,0.09760422,0.0842730775475502,-0.087353766
2313.583333335181,0.078256905,-0.7772501,0.05201534,-2.252914,-0.04828755,1.2807052,1.0270268,0.03999924,0.04,-9.592413,-1.2487270832061768,-1.6381135,0.097895995,0.08405028283596039,-0.08772039
2313.600000001848,0.07911011,-0.77717155,0.052583393,-2.2517843,-0.048816584,1.2775341,1.02966,0.039999228,0.04,-9.58752,-1.2667216062545776,-1.6520934,0.098176956,0.08381465077400208,-0.08807668
2313.616666668515,0.07996381,-0.777093,0.05315174,-2.2506537,-0.04934592,1.2743611,1.0322946,0.03999921,0.04,-9.582631,-1.2846641540527344,-1.6658942,0.09844709,0.08356471359729767,-0.0884204
2313.6333333351818,0.080817856,-0.77701443,0.05372033,-2.2495227,-0.049875487,1.2711871,1.0349305,0.03999921,0.04,-9.577654,-1.3029149770736694,-1.6798139,0.09870583,0.08330048620700836,-0.088748515
2313.6500000018486,0.081672125,-0.7769359,0.05428909,-2.2483914,-0.050405204,1.2680118,1.037567,0.039999202,0.04,-9.572564,-1.3211504220962524,-1.6935222,0.09895282,0.08302649110555649,-0.08906624
2313.6666666685155,0.08252658,-0.77685726,0.054857943,-2.24726,-0.050935015,1.2648363,1.040204,0.039999183,0.04,-9.567524,-1.339464545249939,-1.7071369,0.09918811,0.08273760229349136,-0.089371644
2313.6833333351824,0.08338105,-0.77677864,0.055426847,-2.2461286,-0.051464904,1.2616606,1.0428411,0.039999172,0.04,-9.562455,-1.357720136642456,-1.7205809,0.09941187,0.08243593573570251,-0.089663245
2313.7000000018493,0.084235474,-0.77670014,0.0559957,-2.2449973,-0.051994745,1.2584848,1.045478,0.03999917,0.04,-9.557208,-1.3762867450714111,-1.7340982,0.09962411,0.08212277293205261,-0.08993987
2313.716666668516,0.08508973,-0.7766218,0.056564447,-2.2438657,-0.052524485,1.2553097,1.0481147,0.039999146,0.04,-9.552009,-1.3948383331298828,-1.7474029,0.099823855,0.08179549127817154,-0.09020605
2313.733333335183,0.08594372,-0.77654356,0.05713301,-2.2427347,-0.05305408,1.2521356,1.0507506,0.039999135,0.04,-9.546645,-1.413395881652832,-1.760592,0.10001022,0.08146010339260101,-0.090457655
2313.75000000185,0.08679732,-0.77646536,0.057701338,-2.241604,-0.053583458,1.2489631,1.0533849,0.039999124,0.04,-9.541396,-1.4319064617156982,-1.7736083,0.10018383,0.08111128956079483,-0.09069512
2313.766666668517,0.087650456,-0.7763871,0.058269337,-2.2404742,-0.054112554,1.2457924,1.056018,0.039999116,0.04,-9.535961,-1.45076322555542,-1.7866969,0.10034727,0.0807529017329216,-0.09092002
2313.7833333351837,0.08850298,-0.7763088,0.058836944,-2.2393448,-0.0546413,1.2426239,1.058649,0.039999105,0.04,-9.530583,-1.4695438146591187,-1.7995892,0.100497365,0.08038065582513809,-0.091130964
2313.8000000018505,0.08935481,-0.77623063,0.0594041,-2.2382162,-0.055169612,1.239458,1.0612781,0.03999909,0.04,-9.525124,-1.4882153272628784,-1.8123006,0.10063629,0.0799989327788353,-0.091327794
2313.8166666685174,0.090205885,-0.7761526,0.059970748,-2.2370887,-0.05569745,1.2362951,1.0639044,0.03999909,0.04,-9.519553,-1.5072158575057983,-1.8250146,0.100761004,0.07960695773363113,-0.09150819
2313.8333333351843,0.09105604,-0.77607465,0.060536798,-2.235963,-0.05622473,1.2331356,1.066528,0.03999907,0.04,-9.514,-1.5261659622192383,-1.837543,0.10087466,0.0792045071721077,-0.0916781
2313.850000001851,0.09190521,-0.77599674,0.06110216,-2.2348387,-0.0567514,1.2299799,1.0691488,0.039999057,0.04,-9.508498,-1.5451335906982422,-1.8500069,0.10097617,0.07878804206848145,-0.0918314
2313.866666668518,0.09275324,-0.77591896,0.0616668,-2.2337158,-0.05727741,1.2268282,1.0717663,0.039999045,0.04,-9.502896,-1.5640031099319458,-1.8622618,0.1010631,0.07836112380027771,-0.09197033
2313.883333335185,0.09360005,-0.77584124,0.06223063,-2.232594,-0.05780269,1.2236807,1.0743799,0.039999038,0.04,-9.497174,-1.5831869840621948,-1.8745017,0.10113622,0.07792434096336365,-0.092093356
2313.900000001852,0.09444555,-0.7757636,0.0627936,-2.231474,-0.05832715,1.2205379,1.0769895,0.03999902,0.04,-9.491395,-1.6022804975509644,-1.8865556,0.10119654,0.07747778296470642,-0.09220383
2313.9166666685187,0.09528963,-0.77568614,0.063355625,-2.230356,-0.05885074,1.2174009,1.0795945,0.039999004,0.04,-9.485681,-1.621410846710205,-1.8985199,0.10124418,0.07701867818832397,-0.09229862
2313.9333333351856,0.09613222,-0.77560884,0.06391662,-2.2292404,-0.05937341,1.2142692,1.0821949,0.039998986,0.04,-9.479927,-1.640408992767334,-1.9103041,0.10127995,0.07655303180217743,-0.09237932
2313.9500000018525,0.09697315,-0.7755316,0.06447655,-2.228126,-0.059895076,1.2111437,1.0847902,0.03999899,0.04,-9.474122,-1.6597203016281128,-1.9220468,0.101301886,0.07607322186231613,-0.092440635
2313.9666666685193,0.09781238,-0.77545446,0.06503534,-2.2270145,-0.060415674,1.2080246,1.0873803,0.03999897,0.04,-9.468141,-1.6789368391036987,-1.9336174,0.10131078,0.07558941096067429,-0.09249169
2313.983333335186,0.09864976,-0.7753774,0.06559291,-2.2259057,-0.060935147,1.2049124,1.0899649,0.039998956,0.04,-9.462311,-1.6981654167175293,-1.9450772,0.10130631,0.07509277015924454,-0.09252581
2314.000000001853,0.09948523,-0.77530074,0.06614919,-2.2247984,-0.06145345,1.2018074,1.0925432,0.039998934,0.04,-9.456444,-1.7172634601593018,-1.9563912,0.10128733,0.07458710670471191,-0.09254589
2314.01666666852,0.10031866,-0.7752243,0.066704124,-2.2236943,-0.061970506,1.1987097,1.0951154,0.039998922,0.04,-9.450325,-1.7366387844085693,-1.9675511,0.101256184,0.07407709211111069,-0.09255083
2314.033333335187,0.10114995,-0.77514815,0.06725764,-2.2225933,-0.062486246,1.1956201,1.0976812,0.039998908,0.04,-9.444387,-1.7559062242507935,-1.9786128,0.101211525,0.07355578988790512,-0.09253964
2314.0500000018537,0.101979,-0.7750722,0.06780968,-2.2214954,-0.06300061,1.1925389,1.1002399,0.039998893,0.04,-9.438453,-1.775030493736267,-1.9895421,0.10115202,0.07302551716566086,-0.09251338
2314.0666666685206,0.102805726,-0.7749965,0.06836016,-2.2204006,-0.06351355,1.1894662,1.1027915,0.039998878,0.04,-9.43233,-1.7944597005844116,-2.0003455,0.1010798,0.0724874958395958,-0.09247186
2314.0833333351875,0.103630014,-0.774921,0.06890902,-2.2193086,-0.06402499,1.1864024,1.1053356,0.039998867,0.04,-9.426274,-1.8137274980545044,-2.0110123,0.10099363,0.07194064557552338,-0.09241323
2314.1000000018544,0.10445176,-0.7748456,0.069456205,-2.218221,-0.06453487,1.1833482,1.1078719,0.03999886,0.04,-9.420115,-1.8330061435699463,-2.0215216,0.100893795,0.07138676941394806,-0.09234069
2314.1166666685212,0.10527087,-0.7747703,0.07000164,-2.2171357,-0.06504312,1.1803037,1.1104,0.039998844,0.04,-9.414183,-1.8521366119384766,-2.0319905,0.10078022,0.070820651948452,-0.09225031
2314.133333335188,0.10608724,-0.7746953,0.07054525,-2.2160542,-0.06554968,1.1772693,1.1129194,0.039998833,0.04,-9.407824,-1.8715299367904663,-2.0422122,0.10065343,0.07025180011987686,-0.09214618
2314.150000001855,0.1069008,-0.77462065,0.071087,-2.2149765,-0.066054486,1.1742454,1.1154302,0.03999881,0.04,-9.401668,-1.890791893005371,-2.0523448,0.10051352,0.06967467069625854,-0.09202707
2314.166666668522,0.1077114,-0.7745463,0.07162679,-2.213903,-0.06655751,1.1712326,1.117932,0.03999881,0.04,-9.395463,-1.9099980592727661,-2.0623279,0.10035968,0.06909068673849106,-0.09189003
2314.1833333351888,0.10851899,-0.7744723,0.07216458,-2.212833,-0.06705866,1.1682311,1.1204245,0.039998792,0.04,-9.389344,-1.92906653881073,-2.0722291,0.10019199,0.06850031763315201,-0.09173942
2314.2000000018556,0.109323464,-0.7743986,0.07270029,-2.211768,-0.067557916,1.1652412,1.1229073,0.03999878,0.04,-9.382966,-1.9484007358551025,-2.0819054,0.10001003,0.06790599972009659,-0.09157346
2314.2166666685225,0.110124715,-0.77432513,0.073233865,-2.2107065,-0.068055175,1.1622635,1.1253804,0.03999877,0.04,-9.376808,-1.9675700664520264,-2.0915086,0.099814944,0.06730159372091293,-0.0913904
2314.2333333351894,0.11092268,-0.7742519,0.07376523,-2.2096498,-0.068550356,1.1592978,1.1278433,0.03999875,0.04,-9.370467,-1.9867082834243774,-2.10095,0.09960472,0.0666942223906517,-0.09119369
2314.2500000018563,0.11171723,-0.774179,0.07429433,-2.2085972,-0.06904346,1.1563445,1.1302955,0.039998747,0.04,-9.364312,-2.0056464672088623,-2.1103165,0.09938125,0.06607800722122192,-0.09097927
2314.266666668523,0.112508275,-0.7741065,0.0748211,-2.2075493,-0.06953438,1.1534041,1.132737,0.03999873,0.04,-9.357869,-2.024859666824341,-2.1194303,0.099144556,0.06545750051736832,-0.09075048
2314.28333333519,0.11329574,-0.7740343,0.07534551,-2.2065063,-0.0700231,1.1504775,1.1351674,0.03999871,0.04,-9.351586,-2.043891668319702,-2.1284602,0.09889292,0.06483011692762375,-0.0905063
2314.300000001857,0.11407951,-0.77396244,0.075867444,-2.2054677,-0.07050953,1.1475644,1.1375861,0.039998703,0.04,-9.345326,-2.062711715698242,-2.1374307,0.09862869,0.06419965624809265,-0.0902461
2314.316666668524,0.11485952,-0.7738909,0.07638687,-2.2044346,-0.07099365,1.1446651,1.1399935,0.039998688,0.04,-9.338893,-2.0818066596984863,-2.146133,0.09835142,0.06356409192085266,-0.089971855
2314.3333333351907,0.11563565,-0.7738197,0.07690373,-2.2034066,-0.07147536,1.1417804,1.142389,0.03999868,0.04,-9.332596,-2.100688934326172,-2.1547675,0.098059125,0.0629209578037262,-0.089680076
2314.3500000018576,0.11640783,-0.77374893,0.07741798,-2.202384,-0.07195463,1.1389105,1.1447722,0.03999866,0.04,-9.326246,-2.1195406913757324,-2.1632743,0.09775323,0.06227370351552963,-0.08937431
2314.3666666685244,0.117175944,-0.77367854,0.07792953,-2.2013664,-0.072431415,1.1360557,1.1471426,0.039998643,0.04,-9.319975,-2.138165235519409,-2.1717033,0.097434126,0.061623215675354004,-0.089053586
2314.3833333351913,0.117939964,-0.77360857,0.07843832,-2.2003548,-0.072905645,1.1332163,1.149501,0.03999863,0.04,-9.313512,-2.1570229530334473,-2.1798463,0.09710215,0.060969073325395584,-0.08871625
2314.400000001858,0.11869975,-0.7735388,0.07894431,-2.1993482,-0.073377244,1.1303922,1.1518458,0.039998613,0.04,-9.307199,-2.1757054328918457,-2.1879501,0.09675365,0.0603090263903141,-0.088364355
2314.416666668525,0.11945523,-0.7734693,0.07944744,-2.1983473,-0.07384619,1.127584,1.1541778,0.0399986,0.04,-9.300773,-2.19429349899292,-2.1958838,0.09639375,0.059646159410476685,-0.08799851
2314.433333335192,0.12020627,-0.77340055,0.07994766,-2.1973524,-0.07431242,1.1247923,1.156496,0.039998595,0.04,-9.294538,-2.212667465209961,-2.2038226,0.09601878,0.058977384120225906,-0.08761455
2314.450000001859,0.12095287,-0.7733323,0.08044489,-2.1963637,-0.07477588,1.1220173,1.1588008,0.039998572,0.04,-9.288067,-2.2312815189361572,-2.2113862,0.09563067,0.058307304978370667,-0.08721942
2314.4666666685257,0.12169493,-0.7732643,0.08093907,-2.1953807,-0.07523651,1.1192592,1.1610909,0.039998554,0.04,-9.281751,-2.2496590614318848,-2.2189343,0.095227316,0.057632334530353546,-0.086807646
2314.4833333351926,0.12243231,-0.77319664,0.08143016,-2.1944036,-0.075694285,1.1165184,1.1633668,0.03999854,0.04,-9.275377,-2.267958164215088,-2.2263641,0.09481402,0.05695497989654541,-0.08638094
2314.5000000018595,0.12316496,-0.7731295,0.08191811,-2.1934328,-0.076149136,1.1137949,1.165628,0.039998528,0.04,-9.269095,-2.2860324382781982,-2.2337627,0.0943858,0.05627545341849327,-0.08594059
2314.5166666685263,0.12389282,-0.773063,0.08240288,-2.1924691,-0.076600984,1.1110892,1.1678742,0.03999851,0.04,-9.262658,-2.3043107986450195,-2.2407794,0.09394561,0.05559301748871803,-0.0854857
2314.533333335193,0.12461578,-0.77299684,0.08288437,-2.1915119,-0.07704982,1.1084018,1.1701056,0.039998494,0.04,-9.256411,-2.322380304336548,-2.247835,0.09349259,0.05490497499704361,-0.085014716
2314.55000000186,0.12533377,-0.77293104,0.083362594,-2.190561,-0.077495545,1.105733,1.1723217,0.03999848,0.04,-9.2501745,-2.3401975631713867,-2.2548532,0.0930257,0.05421442911028862,-0.084529996
2314.566666668527,0.12604673,-0.77286553,0.08383741,-2.1896167,-0.07793817,1.103083,1.1745219,0.03999846,0.04,-9.243784,-2.3582358360290527,-2.2615223,0.09254518,0.05352181941270828,-0.08403184
2314.583333335194,0.12675457,-0.7728008,0.08430883,-2.1886795,-0.07837762,1.1004521,1.1767064,0.03999845,0.04,-9.237454,-2.3759958744049072,-2.2681687,0.092053235,0.05282831937074661,-0.083519116
2314.6000000018607,0.1274572,-0.7727366,0.0847768,-2.1877484,-0.078813866,1.0978405,1.1788751,0.039998442,0.04,-9.231196,-2.3936703205108643,-2.2746587,0.091547735,0.05213281512260437,-0.08299239
2314.6166666685276,0.12815453,-0.7726727,0.08524126,-2.1868243,-0.07924683,1.0952485,1.1810274,0.03999843,0.04,-9.224949,-2.411083936691284,-2.2811532,0.091028735,0.05143975093960762,-0.08245373
2314.6333333351945,0.12884657,-0.7726091,0.08570214,-2.1859071,-0.07967649,1.0926763,1.1831634,0.039998416,0.04,-9.21863,-2.4287033081054688,-2.2872884,0.090497255,0.05074261128902435,-0.081900634
2314.6500000018614,0.12953313,-0.7725463,0.08615942,-2.1849976,-0.0801028,1.0901241,1.1852825,0.039998397,0.04,-9.21238,-2.4460766315460205,-2.293439,0.08995229,0.05004453286528587,-0.08133486
2314.6666666685283,0.13021421,-0.772484,0.08661306,-2.1840956,-0.08052572,1.0875925,1.1873847,0.039998382,0.04,-9.2062235,-2.4633209705352783,-2.2994363,0.089395784,0.049343373626470566,-0.08075494
2314.683333335195,0.13088976,-0.77242213,0.087062985,-2.1832008,-0.08094516,1.0850817,1.1894695,0.039998364,0.04,-9.200142,-2.4803502559661865,-2.3054907,0.08882653,0.04864143580198288,-0.08016297
2314.700000001862,0.13155964,-0.77236056,0.087509155,-2.1823132,-0.08136115,1.0825918,1.1915373,0.03999836,0.04,-9.193884,-2.4975013732910156,-2.3111258,0.0882467,0.04793906584382057,-0.07955623
2314.716666668529,0.13222383,-0.7722998,0.08795155,-2.181433,-0.08177359,1.0801231,1.1935871,0.039998345,0.04,-9.187725,-2.5144152641296387,-2.3167794,0.08765306,0.047236040234565735,-0.078937754
2314.7333333351958,0.13288222,-0.7722396,0.08839009,-2.1805604,-0.082182445,1.0776758,1.1956192,0.03999833,0.04,-9.181591,-2.53118634223938,-2.32228,0.08704835,0.046534303575754166,-0.07830709
2314.7500000018626,0.13353479,-0.7721799,0.08882476,-2.179696,-0.08258767,1.0752504,1.1976333,0.039998308,0.04,-9.175595,-2.547734498977661,-2.3278522,0.086431324,0.04583226144313812,-0.07766572
2314.7666666685295,0.13418142,-0.77212065,0.08925549,-2.1788397,-0.08298922,1.0728469,1.1996291,0.039998293,0.04,-9.169506,-2.564406394958496,-2.333016,0.08580349,0.04512776806950569,-0.07700954
2314.7833333351964,0.13482216,-0.77206206,0.08968225,-2.1779914,-0.0833871,1.0704654,1.2016068,0.039998293,0.04,-9.163491,-2.580817222595215,-2.338219,0.08516453,0.044422462582588196,-0.07634072
2314.8000000018633,0.13545682,-0.77200395,0.090105,-2.177151,-0.08378125,1.0681063,1.2035658,0.039998274,0.04,-9.157596,-2.5969960689544678,-2.3434534,0.084512666,0.04371697083115578,-0.07566139
2314.81666666853,0.13608536,-0.7719463,0.0905237,-2.1763184,-0.08417163,1.0657697,1.2055062,0.039998252,0.04,-9.151541,-2.613262176513672,-2.3482423,0.083849266,0.043010540306568146,-0.074969925
2314.833333335197,0.13670778,-0.7718893,0.0909383,-2.1754935,-0.08455819,1.063456,1.2074273,0.039998244,0.04,-9.1456,-2.629263401031494,-2.3530958,0.083174296,0.04230465367436409,-0.07426568
2314.850000001864,0.13732402,-0.77183294,0.09134878,-2.1746771,-0.08494092,1.0611655,1.2093295,0.03999823,0.04,-9.139648,-2.645136594772339,-2.3578148,0.082490526,0.04160201922059059,-0.07355258
2314.866666668531,0.137934,-0.77177715,0.091755085,-2.1738694,-0.08531974,1.0588982,1.2112123,0.03999822,0.04,-9.133938,-2.6607704162597656,-2.3626475,0.0817943,0.040898557752370834,-0.07282714
2314.8833333351977,0.13853766,-0.77172184,0.09215719,-2.1730697,-0.08569467,1.0566545,1.2130753,0.039998207,0.04,-9.128041,-2.676482915878296,-2.3669927,0.08108859,0.04019472375512123,-0.07209099
2314.9000000018646,0.13913493,-0.77166724,0.092555046,-2.1722784,-0.08606564,1.0544342,1.2149186,0.03999819,0.04,-9.122227,-2.6919264793395996,-2.3714108,0.08037322,0.039493340998888016,-0.07134546
2314.9166666685314,0.13972576,-0.77161324,0.09294868,-2.1714957,-0.08643263,1.0522376,1.2167424,0.039998177,0.04,-9.116481,-2.7072196006774902,-2.3757153,0.07964762,0.03879234939813614,-0.07058852
2314.9333333351983,0.14031014,-0.7715596,0.09333794,-2.1707218,-0.08679558,1.0500655,1.2185462,0.03999817,0.04,-9.110899,-2.7222721576690674,-2.3801317,0.078911245,0.03809162974357605,-0.06982031
2314.950000001865,0.14088795,-0.77150667,0.09372288,-2.169956,-0.087154485,1.0479174,1.22033,0.03999815,0.04,-9.105176,-2.7374138832092285,-2.3840878,0.07816543,0.037391167134046555,-0.06904359
2314.966666668532,0.1414593,-0.7714546,0.09410345,-2.1691995,-0.08750933,1.0457937,1.2220932,0.03999814,0.04,-9.0995,-2.7522308826446533,-2.3880672,0.07740828,0.03669409826397896,-0.06825726
2314.983333335199,0.14202397,-0.7714028,0.09447962,-2.1684518,-0.08786004,1.0436947,1.2238362,0.039998125,0.04,-9.093976,-2.7669355869293213,-2.3919818,0.076643854,0.03599759191274643,-0.06746023
2315.000000001866,0.14258194,-0.7713517,0.094851345,-2.1677125,-0.08820666,1.0416207,1.2255584,0.03999811,0.04,-9.088588,-2.7814207077026367,-2.3960674,0.07586964,0.03530038893222809,-0.06665459
2315.0166666685327,0.14313325,-0.77130127,0.09521858,-2.1669817,-0.08854908,1.0395715,1.2272601,0.039998107,0.04,-9.082938,-2.7958643436431885,-2.3995519,0.07508708,0.034609321504831314,-0.06584071
2315.0333333351996,0.14367782,-0.77125144,0.09558136,-2.1662602,-0.08888732,1.0375472,1.2289411,0.039998095,0.04,-9.077511,-2.8100907802581787,-2.4031844,0.07429457,0.03391982242465019,-0.06501888
2315.0500000018665,0.14421557,-0.7712022,0.0959396,-2.165548,-0.08922136,1.0355484,1.2306007,0.039998077,0.04,-9.07226,-2.8240761756896973,-2.4069445,0.07349323,0.03323044627904892,-0.06418844
2315.0666666685333,0.14474647,-0.77115357,0.09629331,-2.1648443,-0.08955118,1.0335749,1.2322396,0.039998066,0.04,-9.066874,-2.83807373046875,-2.4102094,0.07268554,0.032542310655117035,-0.06334847
2315.0833333352,0.14527057,-0.7711057,0.09664242,-2.16415,-0.08987672,1.0316268,1.2338575,0.03999805,0.04,-9.061539,-2.851795196533203,-2.413544,0.07186831,0.03185853362083435,-0.06250228
2315.100000001867,0.1457877,-0.7710582,0.09698696,-2.163465,-0.09019797,1.0297043,1.2354531,0.039998043,0.04,-9.0563345,-2.86535382270813,-2.4168239,0.07104218,0.031176401302218437,-0.06164683
2315.116666668534,0.14629792,-0.7710116,0.097326875,-2.162789,-0.0905149,1.0278076,1.2370284,0.039998036,0.04,-9.051326,-2.8787076473236084,-2.4202964,0.07021295,0.030493533238768578,-0.06078338
2315.133333335201,0.1468012,-0.77096564,0.09766214,-2.1621225,-0.09082753,1.025937,1.2385813,0.03999802,0.04,-9.046064,-2.8920106887817383,-2.4231436,0.06937151,0.029815368354320526,-0.059915174
2315.1500000018677,0.14729747,-0.77092016,0.09799278,-2.161465,-0.09113584,1.0240923,1.2401135,0.03999801,0.04,-9.041039,-2.9050650596618652,-2.4261858,0.06852677,0.02913920395076275,-0.059038233
2315.1666666685346,0.14778669,-0.77087533,0.09831872,-2.160817,-0.09143977,1.0222737,1.2416235,0.039997995,0.04,-9.036015,-2.9179704189300537,-2.429142,0.06767155,0.02846677228808403,-0.058156203
2315.1833333352015,0.14826886,-0.77083135,0.09863997,-2.1601782,-0.09173932,1.0204813,1.243112,0.03999798,0.04,-9.031196,-2.930608034133911,-2.432259,0.06681171,0.02779521234333515,-0.057266243
2315.2000000018684,0.14874394,-0.77078784,0.098956496,-2.1595485,-0.092034474,1.0187154,1.2445781,0.03999797,0.04,-9.0261965,-2.9432284832000732,-2.434802,0.06594452,0.027128158137202263,-0.05637211
2315.2166666685353,0.1492119,-0.77074504,0.09926829,-2.1589282,-0.09232524,1.0169756,1.2460226,0.03999796,0.04,-9.021373,-2.955587863922119,-2.4375374,0.06507317,0.026463830843567848,-0.055471335
2315.233333335202,0.14967276,-0.7707029,0.09957537,-2.1583176,-0.09261156,1.0152626,1.247445,0.039997954,0.04,-9.016574,-2.9677531719207764,-2.4401627,0.06419505,0.025803878903388977,-0.054565553
2315.250000001869,0.1501265,-0.77066135,0.099877656,-2.1577168,-0.09289344,1.0135757,1.2488453,0.03999794,0.04,-9.012021,-2.979745388031006,-2.443006,0.06331169,0.02514522895216942,-0.053655546
2315.266666668536,0.15057306,-0.77062047,0.10017518,-2.1571248,-0.09317088,1.0119159,1.2502238,0.03999792,0.04,-9.007323,-2.9916470050811768,-2.4452727,0.06242369,0.02448650822043419,-0.052739266
2315.2833333352028,0.15101244,-0.7705803,0.10046796,-2.156542,-0.0934439,1.0102828,1.2515801,0.039997913,0.04,-9.002647,-3.0032763481140137,-2.447689,0.061529845,0.023837385699152946,-0.05182082
2315.3000000018696,0.15144464,-0.7705407,0.10075593,-2.1559699,-0.09371243,1.0086762,1.2529143,0.03999791,0.04,-8.99825,-3.0146865844726562,-2.4502993,0.06063003,0.023190472275018692,-0.050896462
2315.3166666685365,0.15186964,-0.7705018,0.10103911,-2.1554067,-0.093976475,1.0070962,1.2542261,0.039997905,0.04,-8.993777,-3.0260720252990723,-2.452378,0.059726857,0.022543705999851227,-0.049967133
2315.3333333352034,0.15228745,-0.7704636,0.1013175,-2.1548526,-0.09423605,1.0055434,1.2555156,0.03999789,0.04,-8.989346,-3.0371739864349365,-2.4545987,0.058820132,0.02190132439136505,-0.04903522
2315.3500000018703,0.15269798,-0.770426,0.10159107,-2.1543086,-0.09449114,1.0040174,1.2567828,0.03999788,0.04,-8.985003,-3.0480964183807373,-2.456764,0.05790942,0.02126511000096798,-0.04810137
2315.366666668537,0.15310128,-0.770389,0.10185982,-2.1537747,-0.09474176,1.0025182,1.2580277,0.03999787,0.04,-8.980859,-3.0588040351867676,-2.4591305,0.056995247,0.02063162252306938,-0.047164675
2315.383333335204,0.15349741,-0.77035284,0.10212376,-2.1532495,-0.09498788,1.0010455,1.2592503,0.03999786,0.04,-8.976665,-3.06943941116333,-2.4609778,0.05607782,0.019998472183942795,-0.046222568
2315.400000001871,0.15388624,-0.7703172,0.10238289,-2.1527336,-0.09522949,0.9995999,1.2604504,0.03999785,0.04,-8.972456,-3.0797834396362305,-2.4629078,0.055157796,0.01937180384993553,-0.04528014
2315.416666668538,0.15426783,-0.7702823,0.102637194,-2.1522286,-0.095466614,0.99818116,1.2616284,0.039997842,0.04,-8.968383,-3.089970827102661,-2.4648514,0.054235756,0.018750235438346863,-0.044335555
2315.4333333352047,0.15464218,-0.77024806,0.10288669,-2.151733,-0.09569924,0.99678916,1.2627841,0.039997827,0.04,-8.964602,-3.09997820854187,-2.4670324,0.053310376,0.01812831126153469,-0.043387935
2315.4500000018716,0.15500931,-0.77021444,0.10313136,-2.1512463,-0.09592739,0.9954243,1.2639176,0.03999782,0.04,-8.960601,-3.109846353530884,-2.4686072,0.052382436,0.017509793862700462,-0.042438045
2315.4666666685384,0.15536925,-0.77018154,0.10337121,-2.1507688,-0.09615105,0.9940863,1.2650287,0.039997812,0.04,-8.956685,-3.119478225708008,-2.4703636,0.051453456,0.01689877174794674,-0.041489188
2315.4833333352053,0.15572198,-0.77014935,0.10360626,-2.1503017,-0.09637024,0.99277526,1.2661171,0.03999781,0.04,-8.952851,-3.128913402557373,-2.4720597,0.050522767,0.01629505679011345,-0.04054093
2315.500000001872,0.15606749,-0.7701177,0.10383652,-2.1498435,-0.096584946,0.99149084,1.2671835,0.039997797,0.04,-8.949334,-3.1381821632385254,-2.4740288,0.04959352,0.01569187082350254,-0.03959105
2315.516666668539,0.15640578,-0.7700867,0.10406198,-2.1493952,-0.096795164,0.9902333,1.2682278,0.039997783,0.04,-8.945551,-3.147291421890259,-2.4753785,0.048662,0.015094680711627007,-0.03864273
2315.533333335206,0.15673691,-0.77005655,0.10428266,-2.148957,-0.09700093,0.98900247,1.2692499,0.039997775,0.04,-8.942032,-3.156205415725708,-2.4769852,0.04773063,0.014500701799988747,-0.03769322
2315.550000001873,0.15706088,-0.7700269,0.10449857,-2.1485279,-0.09720225,0.98779815,1.27025,0.039997768,0.04,-8.938684,-3.164904832839966,-2.4787824,0.046799317,0.013909447938203812,-0.036743812
2315.5666666685397,0.15737769,-0.76999795,0.1047097,-2.1481073,-0.097399145,0.9866205,1.2712277,0.03999776,0.04,-8.935128,-3.173457384109497,-2.480007,0.04586841,0.013324006460607052,-0.035795745
2315.5833333352066,0.15768737,-0.76996964,0.10491608,-2.1476965,-0.097591594,0.98546916,1.2721838,0.039997753,0.04,-8.931677,-3.181758165359497,-2.4814065,0.044938408,0.012747861444950104,-0.034851797
2315.6000000018735,0.15798996,-0.7699419,0.105117746,-2.1472962,-0.09777964,0.9843444,1.2731179,0.039997745,0.04,-8.92846,-3.1899354457855225,-2.4828312,0.04400901,0.012173691764473915,-0.033907782
2315.6166666685403,0.15828548,-0.769915,0.10531471,-2.1469047,-0.09796328,0.98324597,1.2740301,0.03999774,0.04,-8.925432,-3.1979217529296875,-2.4845006,0.043081027,0.011600841768085957,-0.032963652
2315.633333335207,0.15857396,-0.7698885,0.10550699,-2.1465223,-0.09814255,0.98217374,1.2749208,0.039997738,0.04,-8.922168,-3.2057316303253174,-2.4855394,0.042155847,0.011035251431167126,-0.032023266
2315.650000001874,0.15885538,-0.76986283,0.105694585,-2.146149,-0.098317444,0.98112756,1.2757896,0.039997734,0.04,-8.919062,-3.213334560394287,-2.486813,0.04123079,0.010475981049239635,-0.031086668
2315.666666668541,0.15912978,-0.7698377,0.105877526,-2.1457858,-0.09848799,0.98010737,1.2766371,0.039997723,0.04,-8.916061,-3.220755100250244,-2.488049,0.040309563,0.009922696277499199,-0.030154265
2315.683333335208,0.15939723,-0.7698132,0.10605584,-2.1454313,-0.098654225,0.97911304,1.2774631,0.039997708,0.04,-8.913326,-3.228026866912842,-2.4895675,0.039390467,0.009369714185595512,-0.029223613
2315.7000000018747,0.15965778,-0.76978934,0.10622953,-2.1450856,-0.098816186,0.97814435,1.2782675,0.0399977,0.04,-8.910344,-3.235092878341675,-2.490469,0.038474437,0.008824659511446953,-0.028297434
2315.7166666685416,0.15991144,-0.7697661,0.10639864,-2.144749,-0.09897388,0.97720116,1.2790507,0.039997697,0.04,-8.907532,-3.2419517040252686,-2.4915993,0.037563216,0.00828661397099495,-0.027376156
2315.7333333352085,0.16015829,-0.7697435,0.10656322,-2.1444223,-0.09912731,0.9762834,1.2798127,0.039997693,0.04,-8.904813,-3.2486557960510254,-2.4927018,0.036656357,0.007754253689199686,-0.026459774
2315.7500000018754,0.16039838,-0.7697216,0.10672326,-2.1441047,-0.09927649,0.97539085,1.2805538,0.03999769,0.04,-8.902372,-3.2552061080932617,-2.494074,0.03575434,0.007222888059914112,-0.02554562
2315.7666666685423,0.16063167,-0.76970017,0.10687882,-2.1437955,-0.099421516,0.9745234,1.2812742,0.039997675,0.04,-8.899744,-3.2615902423858643,-2.4948833,0.034857314,0.006697061471641064,-0.024637874
2315.783333335209,0.16085827,-0.7696795,0.1070299,-2.1434946,-0.09956241,0.97368103,1.2819737,0.03999767,0.04,-8.897177,-3.2677431106567383,-2.4958906,0.033964682,0.006179856602102518,-0.023737114
2315.800000001876,0.16107821,-0.76965934,0.10717654,-2.1432028,-0.09969914,0.9728632,1.2826527,0.039997667,0.04,-8.894799,-3.2737016677856445,-2.4971044,0.03307801,0.005670699756592512,-0.022843836
2315.816666668543,0.1612916,-0.76963985,0.107318826,-2.14292,-0.09983177,0.9720698,1.2833114,0.039997663,0.04,-8.892389,-3.2795419692993164,-2.497836,0.032197747,0.005166677292436361,-0.021956436
2315.8333333352098,0.16149847,-0.7696209,0.10745674,-2.1426463,-0.09996036,0.9713009,1.2839501,0.03999766,0.04,-8.890163,-3.285210609436035,-2.4987848,0.031324197,0.004666403401643038,-0.021074437
2315.8500000018767,0.16169885,-0.7696026,0.10759035,-2.1423812,-0.10008492,0.97055596,1.2845688,0.03999766,0.04,-8.888,-3.2907090187072754,-2.499733,0.030456416,0.0041713411919772625,-0.020198641
2315.8666666685435,0.16189274,-0.76958483,0.107719675,-2.1421242,-0.1002055,0.9698349,1.2851672,0.039997656,0.04,-8.885915,-3.2960073947906494,-2.5008533,0.029595712,0.003683120245113969,-0.019331444
2315.8833333352104,0.16208029,-0.7695678,0.10784477,-2.1418753,-0.100322135,0.96913755,1.2857465,0.039997652,0.04,-8.883751,-3.301150321960449,-2.5014796,0.028745176,0.003202066756784916,-0.018473076
2315.9000000018773,0.16226162,-0.7695511,0.107965685,-2.141635,-0.10043488,0.96846366,1.286306,0.039997652,0.04,-8.881742,-3.306105852127075,-2.5023124,0.027899886,0.0027286477852612734,-0.017623428
2315.916666668544,0.16243672,-0.76953524,0.10808244,-2.1414025,-0.10054369,0.9678128,1.2868469,0.03999765,0.04,-8.879812,-3.3109381198883057,-2.503153,0.027064934,0.002261899644508958,-0.016783003
2315.933333335211,0.16260567,-0.76951975,0.108195096,-2.1411781,-0.10064873,0.96718466,1.2873685,0.03999764,0.04,-8.877991,-3.315554141998291,-2.5041437,0.02623621,0.0018030608771368861,-0.015953422
2315.950000001878,0.16276856,-0.7695048,0.10830374,-2.140962,-0.10075,0.966579,1.2878714,0.039997637,0.04,-8.876131,-3.3200507164001465,-2.504719,0.025418159,0.0013501789653673768,-0.015132561
2315.966666668545,0.16292545,-0.7694905,0.108408414,-2.140754,-0.100847565,0.96599543,1.2883556,0.039997626,0.04,-8.874422,-3.324392080307007,-2.5054824,0.024609964,0.0009033543174155056,-0.014321994
2315.9833333352117,0.1630764,-0.76947665,0.108509146,-2.1405537,-0.10094145,0.96543396,1.2888218,0.03999762,0.04,-8.872795,-3.328559637069702,-2.5062358,0.023812475,0.0004618135862983763,-0.013520196
2316.0000000018786,0.16322154,-0.76946324,0.108605966,-2.140361,-0.10103173,0.9648942,1.2892703,0.039997615,0.04,-8.871243,-3.3325581550598145,-2.5071788,0.023024252,2.8510690754046664e-05,-0.012729538
2316.0166666685454,0.16336097,-0.7694505,0.10869898,-2.140176,-0.10111844,0.9643757,1.2897007,0.039997615,0.04,-8.869656,-3.336428165435791,-2.5076957,0.022246119,-0.0003982681955676526,-0.011949343
2316.0333333352123,0.16349472,-0.7694382,0.10878821,-2.1399984,-0.101201616,0.9638784,1.2901137,0.03999761,0.04,-8.868151,-3.340122699737549,-2.508362,0.021480529,-0.0008155404357239604,-0.011182322
2316.050000001879,0.16362289,-0.7694265,0.10887373,-2.1398284,-0.101281345,0.9634016,1.2905097,0.039997607,0.04,-8.866822,-3.3436837196350098,-2.509265,0.020726467,-0.001225991640239954,-0.010427201
2316.066666668546,0.16374561,-0.7694152,0.10895563,-2.1396656,-0.10135768,0.96294516,1.2908887,0.039997604,0.04,-8.865453,-3.3470990657806396,-2.5097296,0.019983713,-0.0016301068244501948,-0.009683682
2316.083333335213,0.1638629,-0.7694045,0.10903392,-2.13951,-0.10143065,0.9625088,1.2912511,0.0399976,0.04,-8.864135,-3.3503620624542236,-2.5103831,0.019254629,-0.002025370951741934,-0.008953552
2316.10000000188,0.16397496,-0.7693943,0.1091087,-2.139361,-0.10150034,0.9620921,1.2915972,0.0399976,0.04,-8.862935,-3.3534820079803467,-2.5110276,0.018537622,-0.0024130719248205423,-0.00823638
2316.1166666685467,0.16408187,-0.7693845,0.10918005,-2.139219,-0.10156682,0.9616945,1.2919275,0.039997593,0.04,-8.8617935,-3.3564605712890625,-2.5118287,0.017834025,-0.0027909239288419485,-0.0075347037
2316.1333333352136,0.1641837,-0.769375,0.10924803,-2.139084,-0.10163016,0.96131575,1.2922419,0.039997593,0.04,-8.860659,-3.359316349029541,-2.5122666,0.017144542,-0.003161967732012272,-0.0068451776
2316.1500000018805,0.16428053,-0.76936615,0.10931268,-2.138956,-0.101690404,0.96095544,1.2925411,0.039997585,0.04,-8.859644,-3.362055778503418,-2.5128958,0.016469995,-0.0035262377932667732,-0.006170062
2316.1666666685474,0.16437255,-0.76935786,0.1093741,-2.1388347,-0.10174765,0.9606132,1.2928253,0.039997585,0.04,-8.858682,-3.364637851715088,-2.513504,0.015810141,-0.003882978344336152,-0.0055085495
2316.1833333352142,0.16445982,-0.76934993,0.10943238,-2.138719,-0.10180197,0.9602884,1.2930949,0.039997585,0.04,-8.857808,-3.367091178894043,-2.5142634,0.0151649015,-0.004230990074574947,-0.0048622694
2316.200000001881,0.16454245,-0.76934224,0.10948758,-2.1386087,-0.10185338,0.9599811,1.2933502,0.039997585,0.04,-8.856806,-3.3693959712982178,-2.5146425,0.014535641,-0.004567808471620083,-0.0042330637
2316.216666668548,0.16462058,-0.7693351,0.10953978,-2.1385047,-0.10190201,0.9596904,1.2935917,0.03999758,0.04,-8.855921,-3.371608257293701,-2.5152166,0.01392196,-0.004893178585916758,-0.0036226714
2316.233333335215,0.16469432,-0.76932824,0.10958905,-2.1384072,-0.10194794,0.9594159,1.2938197,0.03999758,0.04,-8.855178,-3.373684883117676,-2.5157728,0.013324728,-0.005210581235587597,-0.003027124
2316.2500000018817,0.16476382,-0.769322,0.1096355,-2.1383157,-0.1019912,0.9591571,1.2940345,0.03999758,0.04,-8.854545,-3.3756749629974365,-2.5165129,0.012744172,-0.0055210343562066555,-0.002447056
2316.2666666685486,0.16482918,-0.76931596,0.10967919,-2.1382282,-0.102031894,0.95891386,1.2942364,0.03999758,0.04,-8.853866,-3.3775477409362793,-2.5169122,0.012181914,-0.005823845509439707,-0.00188323
2316.2833333352155,0.16489054,-0.76931036,0.10972024,-2.1381466,-0.10207011,0.9586854,1.2944262,0.03999758,0.04,-8.853084,-3.379251718521118,-2.5174136,0.011636935,-0.006110418122261763,-0.0013415269
2316.3000000018824,0.16494806,-0.769305,0.10975871,-2.1380706,-0.10210595,0.95847106,1.294604,0.03999758,0.04,-8.852597,-3.3809101581573486,-2.518108,0.01110999,-0.006389325484633446,-0.0008165488
2316.3166666685493,0.16500188,-0.7693,0.10979471,-2.1379988,-0.10213947,0.9582708,1.2947705,0.03999758,0.04,-8.8520565,-3.382465124130249,-2.518521,0.010602126,-0.006660785060375929,-0.00030861568
2316.333333335216,0.16505209,-0.7692952,0.10982833,-2.137932,-0.102170765,0.95808375,1.2949259,0.039997578,0.04,-8.851508,-3.383901834487915,-2.5190334,0.01011239,-0.0069191730581223965,0.00017816116
2316.350000001883,0.16509886,-0.76929104,0.10985964,-2.1378706,-0.10219992,0.9579096,1.2950703,0.039997578,0.04,-8.851047,-3.385251760482788,-2.5195708,0.009642309,-0.0071674613282084465,0.00064588443
2316.36666666855,0.1651424,-0.769287,0.109888755,-2.1378124,-0.102227025,0.95774734,1.2952051,0.039997578,0.04,-8.850742,-3.386514902114868,-2.5202272,0.009194629,-0.007407032418996096,0.001094896
2316.383333335217,0.16518275,-0.7692833,0.109915785,-2.1377587,-0.10225219,0.9575969,1.2953303,0.039997574,0.04,-8.850237,-3.3876633644104004,-2.5205972,0.008764219,-0.007633490022271872,0.0015214785
2316.4000000018837,0.16522019,-0.76927966,0.10994086,-2.1377084,-0.10227552,0.9574575,1.2954464,0.039997574,0.04,-8.849939,-3.3887550830841064,-2.5211291,0.00835474,-0.00784977711737156,0.0019283382
2316.4166666685505,0.16525476,-0.7692763,0.10996404,-2.1376624,-0.10229706,0.9573285,1.2955526,0.039997574,0.04,-8.849548,-3.389747381210327,-2.5216234,0.007966314,-0.008052019402384758,0.0023124858
2316.4333333352174,0.16528666,-0.7692732,0.10998543,-2.1376195,-0.10231694,0.9572095,1.295651,0.039997574,0.04,-8.849388,-3.3907041549682617,-2.5222678,0.0076049487,-0.008246385492384434,0.0026769713
2316.4500000018843,0.16531603,-0.7692705,0.11000515,-2.137581,-0.10233529,0.95709985,1.2957416,0.039997574,0.04,-8.849042,-3.3915328979492188,-2.5226622,0.007263898,-0.008425665087997913,0.0030170185
2316.466666668551,0.16534305,-0.76926804,0.11002327,-2.1375446,-0.1023522,0.9569989,1.2958245,0.039997574,0.04,-8.848963,-3.3923697471618652,-2.5232315,0.006946429,-0.008597742766141891,0.0033375826
2316.483333335218,0.16536795,-0.76926583,0.11003997,-2.137512,-0.102367744,0.9569061,1.2959023,0.039997574,0.04,-8.848648,-3.3930399417877197,-2.52369,0.0066529727,-0.00875223521143198,0.0036315245
2316.500000001885,0.16539085,-0.76926374,0.11005535,-2.1374817,-0.10238206,0.9568206,1.2959732,0.039997574,0.04,-8.848598,-3.393754720687866,-2.5243144,0.006376784,-0.008897613734006882,0.0039045583
2316.516666668552,0.16541192,-0.7692618,0.11006949,-2.137453,-0.10239523,0.95674187,1.296039,0.039997574,0.04,-8.848404,-3.3943700790405273,-2.5247078,0.0061252634,-0.00903079379349947,0.004155426
2316.5333333352187,0.16543117,-0.7692599,0.11008251,-2.1374276,-0.10240731,0.9566695,1.2960985,0.039997574,0.04,-8.848202,-3.394914388656616,-2.5251248,0.005891048,-0.009151139296591282,0.004384851
2316.5500000018856,0.16544895,-0.76925814,0.110094465,-2.1374044,-0.10241844,0.95660293,1.2961541,0.039997574,0.04,-8.848173,-3.3954646587371826,-2.5256307,0.0056802924,-0.009264906868338585,0.0045974446
2316.5666666685524,0.16546527,-0.7692564,0.11010548,-2.137382,-0.10242872,0.95654166,1.2962053,0.039997574,0.04,-8.848075,-3.3959693908691406,-2.5259693,0.005482459,-0.009371277876198292,0.0047943224
2316.5833333352193,0.16548033,-0.76925486,0.11011561,-2.137361,-0.102438144,0.9564852,1.2962524,0.039997574,0.04,-8.847857,-3.3963732719421387,-2.5262663,0.005300186,-0.009465024806559086,0.0049729315
2316.600000001886,0.16549417,-0.7692534,0.11012493,-2.1373427,-0.10244683,0.9564334,1.2962956,0.03999757,0.04,-8.847731,-3.3967738151550293,-2.5265567,0.0051324237,-0.009550001472234726,0.005135969
2316.616666668553,0.16550693,-0.769252,0.11013353,-2.137327,-0.10245482,0.95638555,1.2963353,0.03999757,0.04,-8.847751,-3.397188425064087,-2.5269363,0.004978613,-0.00963162537664175,0.0052886577
2316.63333333522,0.16551867,-0.76925087,0.110141434,-2.137312,-0.10246217,0.9563415,1.2963719,0.03999757,0.04,-8.847765,-3.397576332092285,-2.5272129,0.004838203,-0.009711791761219501,0.0054329485
2316.650000001887,0.16552946,-0.76924974,0.11014869,-2.1372972,-0.102468945,0.95630103,1.2964057,0.03999757,0.04,-8.847616,-3.3978755474090576,-2.5274222,0.00470837,-0.009782942943274975,0.0055636186
2316.6666666685537,0.16553932,-0.7692487,0.110155374,-2.1372828,-0.10247516,0.95626396,1.2964365,0.03999757,0.04,-8.84745,-3.398137092590332,-2.5276208,0.004588176,-0.00984499603509903,0.0056815855
2316.6833333352206,0.16554835,-0.7692479,0.110161535,-2.1372697,-0.10248088,0.9562296,1.2964648,0.03999757,0.04,-8.84733,-3.3983800411224365,-2.5278275,0.0044778516,-0.009898587130010128,0.0057873577
2316.7000000018875,0.16555673,-0.76924723,0.110167205,-2.1372585,-0.10248615,0.9561982,1.2964911,0.03999757,0.04,-8.8472805,-3.3986101150512695,-2.5279694,0.0043768245,-0.009948525577783585,0.005885854
2316.7166666685544,0.16556448,-0.76924664,0.11017243,-2.1372485,-0.10249102,0.9561691,1.2965151,0.039997566,0.04,-8.84731,-3.3988819122314453,-2.5281763,0.004282796,-0.00999679695814848,0.005977324
2316.7333333352212,0.16557151,-0.76924604,0.11017721,-2.1372404,-0.10249549,0.95614237,1.2965375,0.039997566,0.04,-8.847289,-3.399097442626953,-2.5283453,0.004197723,-0.01004281546920538,0.006063206
2316.750000001888,0.165578,-0.7692455,0.11018163,-2.1372325,-0.10249961,0.95611787,1.2965578,0.039997566,0.04,-8.847353,-3.39933443069458,-2.5285745,0.00411788,-0.01008994597941637,0.006144803
2316.766666668555,0.16558397,-0.76924497,0.1101857,-2.1372252,-0.10250338,0.95609534,1.2965767,0.039997563,0.04,-8.847245,-3.3995070457458496,-2.5286808,0.004045925,-0.010131044313311577,0.0062182494
2316.783333335222,0.16558947,-0.7692445,0.11018942,-2.1372178,-0.1025069,0.95607466,1.296594,0.039997563,0.04,-8.847184,-3.3996634483337402,-2.5287962,0.0039783493,-0.010168280452489853,0.0062857876
2316.8000000018887,0.16559449,-0.76924413,0.11019285,-2.1372106,-0.1025101,0.9560555,1.2966096,0.039997563,0.04,-8.847089,-3.3997933864593506,-2.528914,0.003916521,-0.010200037620961666,0.006346449
2316.8166666685556,0.16559911,-0.7692438,0.110196,-2.1372035,-0.10251305,0.95603794,1.2966245,0.039997563,0.04,-8.847018,-3.399911403656006,-2.5289826,0.0038606822,-0.010228145867586136,0.006401327
2316.8333333352225,0.16560344,-0.7692434,0.11019891,-2.1371965,-0.10251577,0.95602167,1.2966381,0.03999756,0.04,-8.84694,-3.4000179767608643,-2.5290506,0.0038066243,-0.010251808911561966,0.006449965
2316.8500000018894,0.16560741,-0.7692431,0.11020158,-2.13719,-0.102518275,0.9560069,1.2966502,0.03999756,0.04,-8.84689,-3.40012788772583,-2.5291212,0.0037577008,-0.010272571817040443,0.00649468
2316.8666666685563,0.165611,-0.7692429,0.11020404,-2.1371844,-0.102520585,0.9559931,1.2966616,0.03999756,0.04,-8.846877,-3.4002292156219482,-2.5292094,0.0037146548,-0.010290623642504215,0.0065351906
2316.883333335223,0.16561438,-0.76924264,0.11020629,-2.1371791,-0.10252269,0.9559804,1.2966725,0.03999756,0.04,-8.84688,-3.4003288745880127,-2.5292764,0.0036731642,-0.010308545082807541,0.0065731155
2316.90000000189,0.16561744,-0.7692424,0.11020838,-2.1371748,-0.10252466,0.9559689,1.2966821,0.03999756,0.04,-8.700013,-3.22416353225708,-2.3489518,0.0,-0.0,0.0
2316.916666668557,0.16561744,-0.7692424,0.11020838,-2.1371748,-0.10252466,0.9559689,1.2966821,0.03999756,0.04,-8.847128,-3.4004650115966797,-2.5300725,0.0,-0.0,0.0
2316.933333335224,0.16561744,-0.7692424,0.11020838,-2.1371748,-0.10252466,0.9559689,1.2966821,0.03999756,0.04,-8.847128,-3.4004650115966797,-2.5300725,0.0,-0.0,0.0
2316.9500000018907,0.16561744,-0.7692424,0.11020838,-2.1371748,-0.10252466,0.9559689,1.2966821,0.03999756,0.04,-8.847128,-3.4004650115966797,-2.5300725,0.0,-0.0,0.0
2316.9666666685575,0.16561744,-0.7692424,0.11020838,-2.1371748,-0.10252466,0.9559689,1.2966821,0.03999756,0.04,-8.847128,-3.4004650115966797,-2.5300725,0.0,-0.0,0.0
2316.9833333352244,0.16561744,-0.7692424,0.11020838,-2.1371748,-0.10252466,0.9559689,1.2966821,0.03999756,0.04,-8.847128,-3.4004650115966797,-2.5300725,0.0,-0.0,0.0
2317.0000000018913,0.16561744,-0.7692424,0.11020838,-2.1371748,-0.10252466,0.9559689,1.2966821,0.03999756,0.04,-8.847128,-3.4004650115966797,-2.5300725,0.0,-0.0,0.0
2317.016666668558,0.16561744,-0.7692424,0.11020838,-2.1371748,-0.10252466,0.9559689,1.2966821,0.03999756,0.04,-8.847128,-3.4004650115966797,-2.5300725,0.0,-0.0,0.0
2317.033333335225,0.16561744,-0.7692424,0.11020838,-2.1371748,-0.10252466,0.9559689,1.2966821,0.03999756,0.04,-8.847128,-3.4004650115966797,-2.5300725,0.0,-0.0,0.0
2317.050000001892,0.16561744,-0.7692424,0.11020838,-2.1371748,-0.10252466,0.9559689,1.2966821,0.03999756,0.04,-8.847128,-3.4004650115966797,-2.5300725,0.0,-0.0,0.0
2317.066666668559,0.16561744,-0.7692424,0.11020838,-2.1371748,-0.10252466,0.9559689,1.2966821,0.03999756,0.04,-8.847128,-3.4004650115966797,-2.5300725,0.0,-0.0,0.0
2317.0833333352257,0.16561744,-0.7692424,0.11020838,-2.1371748,-0.10252466,0.9559689,1.2966821,0.03999756,0.04,-8.847128,-3.4004650115966797,-2.5300725,0.0,-0.0,0.0
2317.1000000018926,0.16561744,-0.7692424,0.11020838,-2.1371748,-0.10252466,0.9559689,1.2966821,0.03999756,0.04,-8.847128,-3.4004650115966797,-2.5300725,0.0,-0.0,0.0
2317.1166666685594,0.16561744,-0.7692424,0.11020838,-2.1371748,-0.10252466,0.9559689,1.2966821,0.03999756,0.04,-8.847128,-3.4004650115966797,-2.5300725,0.0,-0.0,0.0
2317.1333333352263,0.16561744,-0.7692424,0.11020838,-2.1371748,-0.10252466,0.9559689,1.2966821,0.03999756,0.04,-8.847128,-3.4004650115966797,-2.5300725,0.0,-0.0,0.0
2317.150000001893,0.16561744,-0.7692424,0.11020838,-2.1371748,-0.10252466,0.9559689,1.2966821,0.03999756,0.04,-8.847128,-3.4004650115966797,-2.5300725,0.0,-0.0,0.0
2317.16666666856,0.16561744,-0.7692424,0.11020838,-2.1371748,-0.10252466,0.9559689,1.2966821,0.03999756,0.04,-8.847128,-3.4004650115966797,-2.5300725,0.0,-0.0,0.0
2317.183333335227,0.16561744,-0.7692424,0.11020838,-2.1371748,-0.10252466,0.9559689,1.2966821,0.03999756,0.04,-8.847128,-3.4004650115966797,-2.5300725,0.0,-0.0,0.0
2317.200000001894,0.16561744,-0.7692424,0.11020838,-2.1371748,-0.10252466,0.9559689,1.2966821,0.03999756,0.04,-8.847128,-3.4004650115966797,-2.5300725,0.0,-0.0,0.0
2317.2166666685607,0.16561744,-0.7692424,0.11020838,-2.1371748,-0.10252466,0.9559689,1.2966821,0.03999756,0.04,-8.847128,-3.4004650115966797,-2.5300725,0.0,-0.0,0.0
2317.2333333352276,0.16561744,-0.7692424,0.11020838,-2.1371748,-0.10252466,0.9559689,1.2966821,0.03999756,0.04,-8.847128,-3.4004650115966797,-2.5300725,0.0,-0.0,0.0
2317.2500000018945,0.16561744,-0.7692424,0.11020838,-2.1371748,-0.10252466,0.9559689,1.2966821,0.03999756,0.04,-8.847128,-3.4004650115966797,-2.5300725,0.0,-0.0,0.0
2317.2666666685614,0.16561744,-0.7692424,0.11020838,-2.1371748,-0.10252466,0.9559689,1.2966821,0.03999756,0.04,-8.847128,-3.4004650115966797,-2.5300725,0.0,-0.0,0.0
2317.2833333352282,0.16561744,-0.7692424,0.11020838,-2.1371748,-0.10252466,0.9559689,1.2966821,0.03999756,0.04,-8.847128,-3.4004650115966797,-2.5300725,0.0,-0.0,0.0
2317.300000001895,0.16561744,-0.7692424,0.11020838,-2.1371748,-0.10252466,0.9559689,1.2966821,0.03999756,0.04,-8.847128,-3.4004650115966797,-2.5300725,0.0,-0.0,0.0
2317.316666668562,0.16561744,-0.7692424,0.11020838,-2.1371748,-0.10252466,0.9559689,1.2966821,0.03999756,0.04,-8.847128,-3.4004650115966797,-2.5300725,0.0,-0.0,0.0
2317.333333335229,0.16561744,-0.7692424,0.11020838,-2.1371748,-0.10252466,0.9559689,1.2966821,0.03999756,0.04,-8.847128,-3.4004650115966797,-2.5300725,0.0,-0.0,0.0
2317.3500000018958,0.16561744,-0.7692424,0.11020838,-2.1371748,-0.10252466,0.9559689,1.2966821,0.03999756,0.04,-8.847128,-3.4004650115966797,-2.5300725,0.0,-0.0,0.0
2317.3666666685626,0.16561744,-0.7692424,0.11020838,-2.1371748,-0.10252466,0.9559689,1.2966821,0.03999756,0.04,-8.847128,-3.4004650115966797,-2.5300725,0.0,-0.0,0.0
2317.3833333352295,0.16561744,-0.7692424,0.11020838,-2.1371748,-0.10252466,0.9559689,1.2966821,0.03999756,0.04,-8.847128,-3.4004650115966797,-2.5300725,0.0,-0.0,0.0
2317.4000000018964,0.16561744,-0.7692424,0.11020838,-2.1371748,-0.10252466,0.9559689,1.2966821,0.03999756,0.04,-8.847128,-3.4004650115966797,-2.5300725,0.0,-0.0,0.0
2317.4166666685633,0.16561744,-0.7692424,0.11020838,-2.1371748,-0.10252466,0.9559689,1.2966821,0.03999756,0.04,-8.847128,-3.4004650115966797,-2.5300725,0.0,-0.0,0.0
2317.43333333523,0.16561744,-0.7692424,0.11020838,-2.1371748,-0.10252466,0.9559689,1.2966821,0.03999756,0.04,-8.847128,-3.4004650115966797,-2.5300725,0.0,-0.0,0.0
2317.450000001897,0.16561744,-0.7692424,0.11020838,-2.1371748,-0.10252466,0.9559689,1.2966821,0.03999756,0.04,-8.847128,-3.4004650115966797,-2.5300725,0.0,-0.0,0.0
2317.466666668564,0.16561744,-0.7692424,0.11020838,-2.1371748,-0.10252466,0.9559689,1.2966821,0.03999756,0.04,-8.847128,-3.4004650115966797,-2.5300725,0.0,-0.0,0.0
2317.483333335231,0.16561744,-0.7692424,0.11020838,-2.1371748,-0.10252466,0.9559689,1.2966821,0.03999756,0.04,-8.847128,-3.4004650115966797,-2.5300725,0.0,-0.0,0.0
2317.5000000018977,0.16561744,-0.7692424,0.11020838,-2.1371748,-0.10252466,0.9559689,1.2966821,0.03999756,0.04,-8.847128,-3.4004650115966797,-2.5300725,0.0,-0.0,0.0
2317.5166666685645,0.16561744,-0.7692424,0.11020838,-2.1371748,-0.10252466,0.9559689,1.2966821,0.03999756,0.04,-8.847128,-3.4004650115966797,-2.5300725,0.0,-0.0,0.0
2317.5333333352314,0.16561744,-0.7692424,0.11020838,-2.1371748,-0.10252466,0.9559689,1.2966821,0.03999756,0.04,-8.847128,-3.4004650115966797,-2.5300725,0.0,-0.0,0.0
2317.5500000018983,0.16561744,-0.7692424,0.11020838,-2.1371748,-0.10252466,0.9559689,1.2966821,0.03999756,0.04,-8.847128,-3.4004650115966797,-2.5300725,0.0,-0.0,0.0
2317.566666668565,0.16561744,-0.7692424,0.11020838,-2.1371748,-0.10252466,0.9559689,1.2966821,0.03999756,0.04,-8.847128,-3.4004650115966797,-2.5300725,0.0,-0.0,0.0
2317.583333335232,0.16561744,-0.7692424,0.11020838,-2.1371748,-0.10252466,0.9559689,1.2966821,0.03999756,0.04,-8.847128,-3.4004650115966797,-2.5300725,0.0,-0.0,0.0
2317.600000001899,0.16561744,-0.7692424,0.11020838,-2.1371748,-0.10252466,0.9559689,1.2966821,0.03999756,0.04,-8.847128,-3.4004650115966797,-2.5300725,0.0,-0.0,0.0
2317.616666668566,0.16561744,-0.7692424,0.11020838,-2.1371748,-0.10252466,0.9559689,1.2966821,0.03999756,0.04,-8.847128,-3.4004650115966797,-2.5300725,0.0,-0.0,0.0
2317.6333333352327,0.16561744,-0.7692424,0.11020838,-2.1371748,-0.10252466,0.9559689,1.2966821,0.03999756,0.04,-8.847128,-3.4004650115966797,-2.5300725,0.0,-0.0,0.0
2317.6500000018996,0.16561744,-0.7692424,0.11020838,-2.1371748,-0.10252466,0.9559689,1.2966821,0.03999756,0.04,-8.847128,-3.4004650115966797,-2.5300725,0.0,-0.0,0.0
2317.6666666685664,0.16561744,-0.7692424,0.11020838,-2.1371748,-0.10252466,0.9559689,1.2966821,0.03999756,0.04,-8.847128,-3.4004650115966797,-2.5300725,0.0,-0.0,0.0
2317.6833333352333,0.16561744,-0.7692424,0.11020838,-2.1371748,-0.10252466,0.9559689,1.2966821,0.03999756,0.04,-8.847128,-3.4004650115966797,-2.5300725,0.0,-0.0,0.0
2317.7000000019,0.16561744,-0.7692424,0.11020838,-2.1371748,-0.10252466,0.9559689,1.2966821,0.03999756,0.04,-8.847128,-3.4004650115966797,-2.5300725,0.0,-0.0,0.0
2317.716666668567,0.16561744,-0.7692424,0.11020838,-2.1371748,-0.10252466,0.9559689,1.2966821,0.03999756,0.04,-8.847128,-3.4004650115966797,-2.5300725,0.0,-0.0,0.0
2317.733333335234,0.16561744,-0.7692424,0.11020838,-2.1371748,-0.10252466,0.9559689,1.2966821,0.03999756,0.04,-8.847128,-3.4004650115966797,-2.5300725,0.0,-0.0,0.0
2317.750000001901,0.16561744,-0.7692424,0.11020838,-2.1371748,-0.10252466,0.9559689,1.2966821,0.03999756,0.04,-8.847128,-3.4004650115966797,-2.5300725,0.0,-0.0,0.0
2317.7666666685677,0.16561744,-0.7692424,0.11020838,-2.1371748,-0.10252466,0.9559689,1.2966821,0.03999756,0.04,-8.847128,-3.4004650115966797,-2.5300725,0.0,-0.0,0.0
2317.7833333352346,0.16561744,-0.7692424,0.11020838,-2.1371748,-0.10252466,0.9559689,1.2966821,0.03999756,0.04,-8.847128,-3.4004650115966797,-2.5300725,0.0,-0.0,0.0
2317.8000000019015,0.16561744,-0.7692424,0.11020838,-2.1371748,-0.10252466,0.9559689,1.2966821,0.03999756,0.04,-8.847128,-3.4004650115966797,-2.5300725,0.0,-0.0,0.0
2317.8166666685684,0.16561744,-0.7692424,0.11020838,-2.1371748,-0.10252466,0.9559689,1.2966821,0.03999756,0.04,-8.847128,-3.4004650115966797,-2.5300725,0.0,-0.0,0.0
2317.8333333352352,0.16561744,-0.7692424,0.11020838,-2.1371748,-0.10252466,0.9559689,1.2966821,0.03999756,0.04,-8.847128,-3.4004650115966797,-2.5300725,0.0,-0.0,0.0
2317.850000001902,0.16561744,-0.7692424,0.11020838,-2.1371748,-0.10252466,0.9559689,1.2966821,0.03999756,0.04,-8.847128,-3.4004650115966797,-2.5300725,0.0,-0.0,0.0
2317.866666668569,0.16561744,-0.7692424,0.11020838,-2.1371748,-0.10252466,0.9559689,1.2966821,0.03999756,0.04,-8.847128,-3.4004650115966797,-2.5300725,0.0,-0.0,0.0
2317.883333335236,0.16561744,-0.7692424,0.11020838,-2.1371748,-0.10252466,0.9559689,1.2966821,0.03999756,0.04,-8.847128,-3.4004650115966797,-2.5300725,0.0,-0.0,0.0
2317.9000000019028,0.16561744,-0.7692424,0.11020838,-2.1371748,-0.10252466,0.9559689,1.2966821,0.03999756,0.04,-8.847128,-3.4004650115966797,-2.5300725,0.0,-0.0,0.0
2317.9166666685696,0.16561744,-0.7692424,0.11020838,-2.1371748,-0.10252466,0.9559689,1.2966821,0.03999756,0.04,-8.847128,-3.4004650115966797,-2.5300725,0.0,-0.0,0.0
2317.9333333352365,0.16561744,-0.7692424,0.11020838,-2.1371748,-0.10252466,0.9559689,1.2966821,0.03999756,0.04,-8.847128,-3.4004650115966797,-2.5300725,0.0,-0.0,0.0
2317.9500000019034,0.16561744,-0.7692424,0.11020838,-2.1371748,-0.10252466,0.9559689,1.2966821,0.03999756,0.04,-8.847128,-3.4004650115966797,-2.5300725,0.0,-0.0,0.0
2317.9666666685703,0.16561744,-0.7692424,0.11020838,-2.1371748,-0.10252466,0.9559689,1.2966821,0.03999756,0.04,-8.847128,-3.4004650115966797,-2.5300725,0.0,-0.0,0.0
2317.983333335237,0.16561744,-0.7692424,0.11020838,-2.1371748,-0.10252466,0.9559689,1.2966821,0.03999756,0.04,-8.847128,-3.4004650115966797,-2.5300725,0.0,-0.0,0.0
2318.000000001904,0.16561744,-0.7692424,0.11020838,-2.1371748,-0.10252466,0.9559689,1.2966821,0.03999756,0.04,-8.847128,-3.4004650115966797,-2.5300725,0.0,-0.0,0.0
2318.016666668571,0.16561744,-0.7692424,0.11020838,-2.1371748,-0.10252466,0.9559689,1.2966821,0.03999756,0.04,-8.847128,-3.4004650115966797,-2.5300725,0.0,-0.0,0.0
2318.033333335238,0.16561744,-0.7692424,0.11020838,-2.1371748,-0.10252466,0.9559689,1.2966821,0.03999756,0.04,-8.847128,-3.4004650115966797,-2.5300725,0.0,-0.0,0.0
2318.0500000019047,0.16561744,-0.7692424,0.11020838,-2.1371748,-0.10252466,0.9559689,1.2966821,0.03999756,0.04,-8.847128,-3.4004650115966797,-2.5300725,0.0,-0.0,0.0
2318.0666666685715,0.16561744,-0.7692424,0.11020838,-2.1371748,-0.10252466,0.9559689,1.2966821,0.03999756,0.04,-8.847128,-3.4004650115966797,-2.5300725,0.0,-0.0,0.0
2318.0833333352384,0.16561744,-0.7692424,0.11020838,-2.1371748,-0.10252466,0.9559689,1.2966821,0.03999756,0.04,-8.847128,-3.4004650115966797,-2.5300725,0.0,-0.0,0.0
2318.1000000019053,0.16561744,-0.7692424,0.11020838,-2.1371748,-0.10252466,0.9559689,1.2966821,0.03999756,0.04,-8.847128,-3.4004650115966797,-2.5300725,0.0,-0.0,0.0
2318.116666668572,0.16561744,-0.7692424,0.11020838,-2.1371748,-0.10252466,0.9559689,1.2966821,0.03999756,0.04,-8.847128,-3.4004650115966797,-2.5300725,0.0,-0.0,0.0
2318.133333335239,0.16561744,-0.7692424,0.11020838,-2.1371748,-0.10252466,0.9559689,1.2966821,0.03999756,0.04,-8.847128,-3.4004650115966797,-2.5300725,0.0,-0.0,0.0
2318.150000001906,0.16561744,-0.7692424,0.11020838,-2.1371748,-0.10252466,0.9559689,1.2966821,0.03999756,0.04,-8.847128,-3.4004650115966797,-2.5300725,0.0,-0.0,0.0
2318.166666668573,0.16561744,-0.7692424,0.11020838,-2.1371748,-0.10252466,0.9559689,1.2966821,0.03999756,0.04,-8.847128,-3.4004650115966797,-2.5300725,0.0,-0.0,0.0
2318.1833333352397,0.16561744,-0.7692424,0.11020838,-2.1371748,-0.10252466,0.9559689,1.2966821,0.03999756,0.04,-8.847128,-3.4004650115966797,-2.5300725,0.0,-0.0,0.0
2318.2000000019066,0.16561744,-0.7692424,0.11020838,-2.1371748,-0.10252466,0.9559689,1.2966821,0.03999756,0.04,-8.847128,-3.4004650115966797,-2.5300725,0.0,-0.0,0.0
2318.2166666685735,0.16561744,-0.7692424,0.11020838,-2.1371748,-0.10252466,0.9559689,1.2966821,0.03999756,0.04,-8.847128,-3.4004650115966797,-2.5300725,0.0,-0.0,0.0
2318.2333333352403,0.16561744,-0.7692424,0.11020838,-2.1371748,-0.10252466,0.9559689,1.2966821,0.03999756,0.04,-8.847128,-3.4004650115966797,-2.5300725,0.0,-0.0,0.0
2318.250000001907,0.16561744,-0.7692424,0.11020838,-2.1371748,-0.10252466,0.9559689,1.2966821,0.03999756,0.04,-8.847128,-3.4004650115966797,-2.5300725,0.0,-0.0,0.0
2318.266666668574,0.16561744,-0.7692424,0.11020838,-2.1371748,-0.10252466,0.9559689,1.2966821,0.03999756,0.04,-8.847128,-3.4004650115966797,-2.5300725,0.0,-0.0,0.0
2318.283333335241,0.16561744,-0.7692424,0.11020838,-2.1371748,-0.10252466,0.9559689,1.2966821,0.03999756,0.04,-8.847128,-3.4004650115966797,-2.5300725,0.0,-0.0,0.0
2318.300000001908,0.16561744,-0.7692424,0.11020838,-2.1371748,-0.10252466,0.9559689,1.2966821,0.03999756,0.04,-8.847128,-3.4004650115966797,-2.5300725,0.0,-0.0,0.0
2318.3166666685747,0.16561744,-0.7692424,0.11020838,-2.1371748,-0.10252466,0.9559689,1.2966821,0.03999756,0.04,-8.847128,-3.4004650115966797,-2.5300725,0.0,-0.0,0.0
2318.3333333352416,0.16561744,-0.7692424,0.11020838,-2.1371748,-0.10252466,0.9559689,1.2966821,0.03999756,0.04,-8.847128,-3.4004650115966797,-2.5300725,0.0,-0.0,0.0
2318.3500000019085,0.16561744,-0.7692424,0.11020838,-2.1371748,-0.10252466,0.9559689,1.2966821,0.03999756,0.04,-8.847128,-3.4004650115966797,-2.5300725,0.0,-0.0,0.0
2318.3666666685754,0.16561744,-0.7692424,0.11020838,-2.1371748,-0.10252466,0.9559689,1.2966821,0.03999756,0.04,-8.847128,-3.4004650115966797,-2.5300725,0.0,-0.0,0.0
2318.3833333352422,0.16561744,-0.7692424,0.11020838,-2.1371748,-0.10252466,0.9559689,1.2966821,0.03999756,0.04,-8.847128,-3.4004650115966797,-2.5300725,0.0,-0.0,0.0
2318.400000001909,0.16561744,-0.7692424,0.11020838,-2.1371748,-0.10252466,0.9559689,1.2966821,0.03999756,0.04,-8.847128,-3.4004650115966797,-2.5300725,0.0,-0.0,0.0
2318.416666668576,0.16561744,-0.7692424,0.11020838,-2.1371748,-0.10252466,0.9559689,1.2966821,0.03999756,0.04,-8.847128,-3.4004650115966797,-2.5300725,0.0,-0.0,0.0
2318.433333335243,0.16561744,-0.7692424,0.11020838,-2.1371748,-0.10252466,0.9559689,1.2966821,0.03999756,0.04,-8.847128,-3.4004650115966797,-2.5300725,0.0,-0.0,0.0
2318.4500000019098,0.16561744,-0.7692424,0.11020838,-2.1371748,-0.10252466,0.9559689,1.2966821,0.03999756,0.04,-8.847128,-3.4004650115966797,-2.5300725,0.0,-0.0,0.0
2318.4666666685766,0.16561744,-0.7692424,0.11020838,-2.1371748,-0.10252466,0.9559689,1.2966821,0.03999756,0.04,-8.847128,-3.4004650115966797,-2.5300725,0.0,-0.0,0.0
2318.4833333352435,0.16561744,-0.7692424,0.11020838,-2.1371748,-0.10252466,0.9559689,1.2966821,0.03999756,0.04,-8.847128,-3.4004650115966797,-2.5300725,0.0,-0.0,0.0
2318.5000000019104,0.16561744,-0.7692424,0.11020838,-2.1371748,-0.10252466,0.9559689,1.2966821,0.03999756,0.04,-8.847128,-3.4004650115966797,-2.5300725,0.0,-0.0,0.0
