rsonawane2002/My_IMU/logs_incomplete/traj_431/clean_431.csv
time,j1,j2,j3,j4,j5,j6,j7,gripper1,gripper2,imu_ax,imu_ay,imu_az,imu_gx,imu_gy,imu_gz,quat_x,quat_y,quat_z,quat_w
1990.0333333318522,0.00016700293,-0.785875,4.0107683e-05,-2.3551247,9.29385e-05,1.570997,0.786,0.04,0.04,0.0,-0.0,0.0,2.875329272945135e-08,-0.0011641195053377316,4.421952117202833e-08,0.9999995971961153,0.00020320632366974898,0.0008736418299892524,3.263050917662294e-05
1990.0499999985188,0.00016700872,-0.78576016,4.0117484e-05,-2.3552213,9.297374e-05,1.5709941,0.786,0.04,0.04,-0.2919984602753667,-4.1741635869904344e-05,0.020128406706998447,-5.306231106284449e-07,-0.002237832990615027,-5.096932386564858e-08,0.9999996850593209,0.00020320470676737527,0.0007665025191390272,3.260359541029331e-05
1990.0666666651855,0.00016703512,-0.7856543,4.0146784e-05,-2.35531,9.30043e-05,1.5709913,0.786,0.04,0.04,0.023328723492777037,-4.2548515055441114e-05,-0.0016704460390926101,-4.840137233901015e-06,-0.0032246177443496287,-9.443377173503218e-07,0.9999997558507818,0.00020318550696278652,0.0006677972571655893,3.257068739666771e-05
1990.0833333318521,0.00016711734,-0.78555703,4.022864e-05,-2.355391,9.3027425e-05,1.5709884,0.786,0.04,0.04,0.022460741852414756,-0.00011852619015851728,-0.0015249239601056175,-1.6498964395515686e-05,-0.004127269214639925,-3.3644462652872292e-06,0.9999998122636035,0.00020311943886168273,0.000577198225288542,3.2518611206699655e-05
1990.0999999985188,0.00016730679,-0.78546774,4.041064e-05,-2.3554654,9.303904e-05,1.5709856,0.786,0.04,0.04,0.020179582577339872,-0.00022852074982320663,-0.0015994241083561178,-3.866611612025104e-05,-0.004948806169358538,-7.964717555251305e-06,0.9999998568932977,0.00020296400123204894,0.000493930571074004,3.242821641297709e-05
1990.1166666651854,0.00016766938,-0.7853861,4.0753253e-05,-2.355533,9.303593e-05,1.5709826,0.786,0.04,0.04,0.02015056136090987,-0.00037051654791923124,-0.001367762089188318,-7.462328408733415e-05,-0.005692279806666537,-1.5344871729514136e-05,0.9999998916327907,0.00020266484913640566,0.0004178750936438512,3.227649022757283e-05
1990.133333331852,0.00016828402,-0.7853116,4.1328807e-05,-2.3555982,9.301029e-05,1.5709796,0.7859981,0.04,0.04,0.011556128754119932,-0.0005368221371683903,-0.003131320113003433,-0.00012723737996185851,-0.0063570824882889215,-2.603436220138476e-05,0.9999999192252172,0.00020120342238051287,0.00034646883440400667,3.203261625793109e-05
1990.1499999985188,0.00016924125,-0.7852441,4.2220043e-05,-2.3556573,9.295786e-05,1.5709764,0.7859962,0.04,0.04,0.018236842995733582,-0.0007320386658750866,-0.0014219500718892775,-0.00019074649818728856,-0.006964569390797606,-4.0467792480804006e-05,0.9999999399688428,0.00019945873759864578,0.00028155951613549043,3.1666410403072e-05
1990.1666666651854,0.00017064183,-0.7851832,4.3518834e-05,-2.3557146,9.2878996e-05,1.5709697,0.7859943,0.04,0.039999995,0.009394993913036664,-0.0009512811244612217,-0.00546337326039481,-0.0002762730686892298,-0.007494625549054881,-5.8347903723706284e-05,0.9999999560277505,0.0001973480006174498,0.0002191536380624782,3.114396680802713e-05
1990.183333331852,0.00017259599,-0.7851287,4.5325756e-05,-2.355766,9.2756105e-05,1.5709629,0.7859905,0.04,0.039999995,0.016804844270335018,-0.001179807837258293,-0.0011962945138499492,-0.0003868758803871056,-0.007982672855234282,-8.159579129443988e-05,0.9999999675061367,0.00019382678585174972,0.00016276791734824592,3.0422155829086476e-05
1990.1999999985187,0.00017522195,-0.7850805,4.7748385e-05,-2.3558166,9.257962e-05,1.5709558,0.78598666,0.04,0.039999995,0.008427689066015098,-0.0014297119133386833,-0.0034031426594749448,-0.0005156458977774413,-0.008394625004548281,-0.00010973353857730964,0.9999999755342001,0.00018975175729641123,0.00010980953538755758,2.9457355252873057e-05
1990.2166666651854,0.00017864532,-0.7850385,5.0901046e-05,-2.3558662,9.233116e-05,1.5709451,0.78598094,0.04,0.04,0.0073795497786521835,-0.0016893883761506443,-0.005675953743411455,-0.0006739534488590808,-0.008751273652739243,-0.00014381123721829629,0.9999999809394745,0.00018406596832575616,5.869901246235778e-05,2.819921955699792e-05
1990.233333331852,0.0001829976,-0.78500265,5.4903325e-05,-2.3559127,9.2019516e-05,1.5709335,0.7859733,0.04,0.039999995,0.01178160969823594,-0.0019830885460808984,-0.0029347163047699354,-0.0008552606249101894,-0.009064398114035744,-0.00018174963991117273,0.9999999839728544,0.00017666135100667985,1.1701332740479472e-05,2.661084157057868e-05
1990.2499999985187,0.00018841616,-0.7849729,5.9880233e-05,-2.355957,9.163492e-05,1.5709188,0.7859638,0.04,0.03999999,0.009424815774217166,-0.0022747534604580975,-0.004712937396944561,-0.0010614536892618596,-0.009312770797520204,-0.0002253930246746398,0.9999999851470194,0.00016742502451502756,-3.267360844531323e-05,2.4642595061052346e-05
1990.2666666651853,0.00019504325,-0.7849495,6.596093e-05,-2.356001,9.115599e-05,1.5709006,0.7859523,0.04,0.03999999,0.006663803602324769,-0.0025678966140743695,-0.0060382931197144885,-0.0012946201152411667,-0.009506645377759176,-0.000275684161155184,0.9999999847017033,0.00015624027160223968,-7.543907662067315e-05,2.223772916270101e-05
1990.283333331852,0.00020302492,-0.78493226,7.3278476e-05,-2.3560452,9.055308e-05,1.5708785,0.785939,0.04,0.04,0.004836369895366843,-0.002863781382635817,-0.0065747264970328345,-0.0015562347014127587,-0.00965423804039448,-0.0003334980235375948,0.9999999827165783,0.00014298708544962192,-0.00011725070798502127,1.933411197029147e-05
1990.2999999985186,0.00021251051,-0.7849212,8.196834e-05,-2.3560913,8.983631e-05,1.5708526,0.78592277,0.04,0.04,0.002811162229998665,-0.003195536793251748,-0.007108567210467598,-0.0018488098366829099,-0.00975906079632928,-0.0003958429577722766,0.9999999792073047,0.00012706616430933378,-0.00015870453449185756,1.5888697592276564e-05
1990.3166666651853,0.00022365247,-0.7849169,9.216914e-05,-2.3561397,8.899218e-05,1.5708227,0.7859037,0.04,0.04,0.00204768795519783,-0.003516611463132667,-0.00787641425461505,-0.00216904296076778,-0.009825122057380143,-0.00046444010593011103,0.9999999740519263,0.00010835238569718159,-0.00020003896856532992,1.1845608309919205e-05
1990.333333331852,0.00023660556,-0.7849191,0.000104021405,-2.3561897,8.800974e-05,1.5707884,0.7858816,0.04,0.04,0.0030181840818599426,-0.0038445139333813058,-0.007753808808019791,-0.0025187938391745233,-0.009853731647060248,-0.0005393857546866104,0.9999999671491213,8.66293740415966e-05,-0.00024113479590177236,7.1496881344893875e-06
1990.3499999985186,0.000251526,-0.7849281,0.00011766721,-2.3562403,8.689681e-05,1.570749,0.7858561,0.04,0.03999999,0.005118362250433606,-0.004189735074874266,-0.007796950339766795,-0.002898502234677783,-0.009839160305180842,-0.0006192391027698372,0.9999999584577761,6.161985994819353e-05,-0.00028157478559030574,1.7547169176703086e-06
1990.3666666651852,0.00026857233,-0.7849439,0.00013325053,-2.3562918,8.5602616e-05,1.5707036,0.785827,0.039999995,0.039999995,0.00396862940290621,-0.004495217162200861,-0.008810031228745352,-0.0033088399643237485,-0.00977827323097842,-0.0007087108054404244,0.9999999475601601,3.30150845251027e-05,-0.0003221337927354775,-4.415975193900389e-06
1990.3833333318519,0.00028790304,-0.78496706,0.00015091547,-2.3563495,8.412452e-05,1.5706528,0.78579396,0.03999999,0.039999995,-0.004057520249389768,-0.004835028740290298,-0.010969757047529782,-0.0037490631842311533,-0.009676080768886593,-0.0008038389633749552,0.9999999334028832,5.959235333632203e-07,-0.00036477878024616673,-1.141558154500544e-05
1990.3999999985185,0.00030967782,-0.7849975,0.00017080708,-2.3564084,8.245049e-05,1.5705955,0.7857569,0.039999988,0.04,0.0039394573685180845,-0.00517276925330834,-0.009541941871038517,-0.004220050882618157,-0.009547277006875838,-0.0009063485351942937,0.9999999160766742,-3.585807759311246e-05,-0.0004076620172855812,-1.9300847109217843e-05
1990.4166666651852,0.00033405644,-0.78503567,0.00019307056,-2.3564732,8.0578284e-05,1.5705314,0.7857156,0.039999984,0.039999995,-0.0037756650298259586,-0.005514205884556709,-0.01209800169583719,-0.004721805289944937,-0.00937546223085491,-0.001013708656717705,0.9999998940332556,-7.656691218831991e-05,-0.000453078302497782,-2.8125383330327593e-05
1990.4333333318518,0.00036119853,-0.7850815,0.00021785097,-2.3565397,7.849492e-05,1.5704602,0.78566957,0.03999998,0.03999999,0.003438831922819574,-0.005850492491637995,-0.010347623436302023,-0.005255143877488409,-0.009177595470834535,-0.0011276209506982315,0.999999867349186,-0.00012189986674445838,-0.0004990011079026544,-3.794637347074451e-05
1990.4499999985185,0.00039126366,-0.78513545,0.00024529325,-2.3566132,7.61879e-05,1.5703814,0.78561854,0.039999977,0.03999999,-0.005199059259508587,-0.0061817782649331516,-0.013385424360912168,-0.0058189237235765304,-0.008935774758614604,-0.0012489297605027274,0.9999998337626441,-0.00017213612823850397,-0.0005481424823815425,-4.882270322959223e-05
1990.4666666651851,0.00042441077,-0.7851979,0.00027554194,-2.3566895,7.3645744e-05,1.5702947,0.78556234,0.039999973,0.039999988,0.002070557869560119,-0.0065166143681364775,-0.011977817626540599,-0.0064127996221423865,-0.008672835435838376,-0.0013758990326178464,0.9999997932407493,-0.00022749526049349608,-0.000598386506820552,-6.081080163417572e-05
1990.4833333318518,0.00046079795,-0.78526884,0.00030874068,-2.3567712,7.0856004e-05,1.5701998,0.7855007,0.03999997,0.039999984,-0.0025638238280389913,-0.006844548823484848,-0.01339022643325194,-0.00703694578272681,-0.008367093770459171,-0.0015093625287208162,0.9999997436620071,-0.00028822539179817683,-0.0006512531554815854,-7.396871652288053e-05
1990.4999999985184,0.00050058216,-0.7853487,0.00034503208,-2.3568602,6.780656e-05,1.570096,0.7854333,0.039999966,0.03999998,-0.005098486498988919,-0.007169151697631769,-0.0149442113466014,-0.007691529460349544,-0.008030508158387257,-0.0016492727425003217,0.9999996827974601,-0.0003546331985314688,-0.0007076961749902528,-8.83538209128383e-05
1990.516666665185,0.0005439193,-0.7854377,0.0003845579,-2.3569565,6.4484935e-05,1.569983,0.78535986,0.03999996,0.03999998,-0.005381911312607457,-0.007491373784140757,-0.015331430420806313,-0.008375597101182682,-0.007671923039234405,-0.0017964313532149547,0.9999996086319388,-0.00042696489273009173,-0.0007678646590391523,-0.00010402314694725591
1990.5333333318517,0.00059096364,-0.78553617,0.00042745823,-2.3570597,6.0880335e-05,1.5698602,0.7852803,0.039999958,0.039999977,-0.004366340639649913,-0.007810434143993477,-0.01576478795086711,-0.0090892582163902,-0.007290105002121678,-0.0019490753353624917,0.9999995191459393,-0.0005054056051816297,-0.0008316394873672144,-0.0001210323398425928
1990.5499999985184,0.00064186816,-0.78564435,0.00047387226,-2.3571658,5.6980367e-05,1.5697275,0.78519404,0.039999954,0.039999973,0.0027404869699543255,-0.008128728983266264,-0.01416675656764621,-0.009832615701850293,-0.006882799649499968,-0.002108029526790997,0.9999994137771105,-0.0005903483031632135,-0.0008969346266416758,-0.0001394366951566896
1990.566666665185,0.00069678394,-0.7857624,0.0005239372,-2.3572795,5.277316e-05,1.5695846,0.78510106,0.03999995,0.039999973,-0.005274340003946776,-0.008433666043904673,-0.016680363452681313,-0.010603848674469962,-0.0064296614101520926,-0.0022740918604560664,0.9999992879940154,-0.000681944957668738,-0.0009662237863972108,-0.00015929259750205763
1990.5833333318517,0.0007558605,-0.7858908,0.00057778903,-2.3574011,4.824824e-05,1.5694308,0.7850011,0.039999947,0.03999997,-0.005408406519835651,-0.008738448147927003,-0.017469486199828133,-0.011403842477622918,-0.005953025878530261,-0.0024454599318359574,0.9999991386371482,-0.0007804358574949285,-0.0010397157273235992,-0.0001806544779155417
1990.5999999985183,0.00081924483,-0.7860299,0.00063556153,-2.357531,4.339358e-05,1.5692658,0.7848939,0.039999943,0.039999966,-0.005938091913981758,-0.009035170387803864,-0.018154570644202117,-0.012232389351622186,-0.005452303418393648,-0.002622917297266279,0.9999989621312813,-0.0008860888411700452,-0.0011176490368186227,-0.00020357690585410775
1990.616666665185,0.0008870822,-0.7861799,0.0006973867,-2.3576708,3.8197613e-05,1.5690894,0.7847791,0.039999936,0.03999996,-0.008115112773765532,-0.009325372607062255,-0.019146379523626855,-0.013088175445537,-0.004927965289816863,-0.002807243091724452,0.9999987539594739,-0.0009991699615132378,-0.0012007093596202128,-0.00022811383378857313
1990.6333333318516,0.0009595157,-0.78634095,0.0007633947,-2.3578203,3.265017e-05,1.5689007,0.78465647,0.03999993,0.039999954,-0.008314010193499755,-0.009611448721176712,-0.019805089313940094,-0.013971229194354895,-0.004385908866402385,-0.0029966306013490818,0.9999985094298046,-0.001119913606287229,-0.0012892843347289754,-0.0002543178871273946
1990.6499999985183,0.0010366861,-0.7865135,0.00083371357,-2.3579783,2.6739674e-05,1.5686998,0.7845259,0.039999917,0.039999947,-0.005729457193281995,-0.009892666065412,-0.019451484557064802,-0.014880484898310013,-0.003828205303808686,-0.003192721843573526,0.9999982251385197,-0.0012485224563884656,-0.0013824801172170368,-0.0002822414071586269
1990.666666665185,0.001118732,-0.7866975,0.00090846897,-2.3581448,2.0456337e-05,1.5684868,0.78438705,0.039999906,0.039999936,-0.0053934448972947635,-0.010167454140917569,-0.019313460460512744,-0.015816240878445423,-0.0032462197707924557,-0.0033937362407561603,0.9999978964121701,-0.0013852267679117822,-0.0014802075554858373,-0.00031193529585371685
1990.6833333318516,0.0012057894,-0.78689367,0.0009877848,-2.3583195,1.3788975e-05,1.5682603,0.7842399,0.039999902,0.039999932,-0.005021499995416789,-0.01043178238169626,-0.020698115671802242,-0.016777648423930067,-0.002637628287997332,-0.003600542120967915,0.9999975176972512,-0.001530194693410163,-0.0015827649332895441,-0.00034345116398220844
1990.6999999985183,0.0012979913,-0.78710186,0.0010717828,-2.3585043,6.727599e-06,1.5680205,0.7840839,0.0399999,0.039999932,-0.007950972837522663,-0.010688140086839541,-0.021296574157969594,-0.01776477922470554,-0.00200401984522525,-0.0038136471783657023,0.9999970817314172,-0.0016837706911106468,-0.0016909870629593215,-0.00037683903982197933
1990.716666665185,0.001395469,-0.7873227,0.0011605814,-2.3587008,-7.376327e-07,1.5677673,0.78391904,0.039999895,0.03999993,-0.01012990106876721,-0.010935395530468385,-0.02238738166449039,-0.01877594075472471,-0.0013520084917628006,-0.00403147751746501,0.9999965812864257,-0.0018460881328485113,-0.0018054106933023863,-0.00041214838973419006
1990.7333333318516,0.0014983506,-0.78755635,0.0012542974,-2.358906,-8.617393e-06,1.5674998,0.7837451,0.03999989,0.03999993,-0.005382095609984816,-0.011183497331987641,-0.02191602781254076,-0.019811391397718023,-0.0006836939857404224,-0.004255598050236044,0.9999960113731398,-0.002017338332680712,-0.0019249930983311896,-0.0004494278963744672
1990.7499999985182,0.0016067626,-0.787803,0.0013530459,-2.359122,-1.692036e-05,1.5672178,0.7835619,0.03999989,0.03999993,-0.008463124529778376,-0.011416941756091977,-0.022968615694196615,-0.020870576680725873,7.672338547023982e-06,-0.004484193932848598,0.9999953629329363,-0.0021977396673209925,-0.0020506585449838973,-0.0004887253947089674
1990.7666666651849,0.0017208273,-0.7880629,0.0014569383,-2.3593497,-2.5657017e-05,1.5669214,0.78336906,0.03999989,0.039999932,-0.009860154867391557,-0.011639866167960367,-0.023625867919041532,-0.0219532004573961,0.000718126303888178,-0.0047188820408917455,0.9999946269605244,-0.0023875369468189154,-0.0021828247113695708,-0.0005300883779622606
1990.7833333318515,0.001840665,-0.78833634,0.0015660834,-2.359588,-3.4835495e-05,1.56661,0.78316647,0.03999989,0.039999932,-0.007561808460399,-0.011862163213031181,-0.023562330981330426,-0.023058121137347863,0.0014425257334697225,-0.0049578618242731255,0.9999937961541144,-0.0025869134943636144,-0.002320896006790886,-0.0005735621865505203
1990.7999999985182,0.0019663938,-0.78862375,0.0016805895,-2.3598375,-4.4466113e-05,1.5662833,0.7829539,0.03999989,0.039999936,-0.00890367488797228,-0.012071000005551159,-0.024465107187721102,-0.02418452535750957,0.0021881823498973475,-0.005202773104848791,0.9999928603503424,-0.0027960504337764818,-0.0024653497545726417,-0.0006191937500291868
1990.8166666651848,0.0020981282,-0.78892493,0.0018005603,-2.3600988,-5.45565e-05,1.5659413,0.78273124,0.03999989,0.039999936,-0.00954689658567709,-0.012272857704952872,-0.02456658450507021,-0.025332347768623326,0.0029510937346981306,-0.005451796046618496,0.9999918090956454,-0.0030151254876444634,-0.0026164546973090706,-0.0006670267828997095
1990.8333333318515,0.0022359805,-0.7892406,0.0019260977,-2.3603718,-6.511634e-05,1.5655832,0.7824982,0.03999989,0.03999994,-0.00899120591240088,-0.012464043469370429,-0.025508723630784935,-0.026501015978972503,0.003730121767570576,-0.005706545001775466,0.9999906318282799,-0.0032443436390901265,-0.002774211414852755,-0.0007171060276231257
1990.8499999985181,0.0023800603,-0.7895708,0.0020573016,-2.3606575,-7.615316e-05,1.565209,0.7822547,0.039999895,0.039999943,-0.010548486154160486,-0.012647594347617048,-0.025978000073889618,-0.0276896598234754,0.004526464087608623,-0.005965226909791255,0.9999893163439881,-0.0034838181511046016,-0.002939067495502107,-0.0007694746456292292
1990.8666666651848,0.0025304726,-0.78991574,0.0021942684,-2.3609548,-8.767599e-05,1.5648181,0.78200054,0.0399999,0.03999995,-0.008928419840259494,-0.012823499374200152,-0.02610076198412692,-0.028897944815004906,0.005336437158216661,-0.006229446154572717,0.9999878514569561,-0.0037337480997335754,-0.0031107553755643697,-0.0008241751160447496
1990.8833333318514,0.002687322,-0.79027563,0.0023370918,-2.3612645,-9.969189e-05,1.5644108,0.7817355,0.039999902,0.039999954,-0.009811758739486365,-0.012990218081061159,-0.026385626063252232,-0.030125580299018167,0.006161804090536963,-0.006497411109981617,0.9999862242072586,-0.0039943307002388365,-0.003289394966936226,-0.00088124838676243
1990.899999998518,0.002850708,-0.7906509,0.0024858639,-2.3615878,-0.000112209476,1.5639864,0.7814594,0.039999906,0.03999996,-0.011567639267262564,-0.013138987788064663,-0.02760940478900853,-0.031371366986908046,0.007004700196145047,-0.0067707461795978655,0.9999844191412656,-0.004265699371977508,-0.003475672416438079,-0.0009407363218343032
1990.9166666651847,0.0030207294,-0.7910415,0.0026406737,-2.3619237,-0.000125236,1.5635449,0.78117204,0.039999902,0.039999958,-0.010061544768946717,-0.013293673715847852,-0.027243065856419335,-0.03263475814236744,0.00785803204255851,-0.0070477081978938495,0.9999824232823081,-0.0045480463735776844,-0.0036692010897975483,-0.0010026784076797774
1990.9333333318514,0.0031974819,-0.7914477,0.0028016076,-2.3622725,-0.00013877859,1.5630858,0.78087336,0.039999902,0.03999996,-0.01025866051127533,-0.013432113132987988,-0.027792871162701793,-0.033915187445238415,0.008725305419972993,-0.00732968319858165,0.999980221560945,-0.004841471092390552,-0.0038701307499489825,-0.0010671141284978793
1990.949999998518,0.0033810562,-0.7918699,0.0029687497,-2.362635,-0.00015284456,1.5626092,0.78056324,0.039999902,0.039999966,-0.011087377682761357,-0.013557166892189804,-0.028323800998597548,-0.03521225064161454,0.00960620670708522,-0.0076159949990193205,0.9999777978595492,-0.005146098740987096,-0.004078641029253165,-0.0011340824790001486
1990.9666666651847,0.003571541,-0.792308,0.003142182,-2.3630106,-0.00016744046,1.5621146,0.78024143,0.039999906,0.03999997,-0.010905613841782902,-0.01367821311637138,-0.028548138871675732,-0.0365253567702271,0.010501572287985053,-0.007905593001956295,0.9999751349995676,-0.005462112134512986,-0.004294881870290321,-0.0012036209315713171
1990.9833333318513,0.0037690238,-0.7927622,0.0033219808,-2.3634002,-0.0001825735,1.5616019,0.7799078,0.039999906,0.039999973,-0.01149831322735384,-0.013784520443306525,-0.028994717480568255,-0.03785421029934066,0.011408886387073696,-0.008200084208762523,0.9999722150799815,-0.0057896312253698816,-0.004519032998973836,-0.0012757660693075135
1990.999999998518,0.003973589,-0.7932328,0.003508224,-2.3638039,-0.0001982495,1.5610707,0.77956223,0.03999991,0.039999977,-0.011826675205561799,-0.013886349725367696,-0.029479146917732457,-0.03919731017302876,0.012326743511152947,-0.008497689633634755,0.9999690189568328,-0.006128804074141689,-0.004751304028469661,-0.0013505543896180216
1991.0166666651846,0.004185315,-0.79372,0.003700984,-2.364221,-0.00021447522,1.5605209,0.77920455,0.039999917,0.039999988,-0.010741589514862149,-0.013978449150502462,-0.029529612608558686,-0.04055470578780576,0.013254699179879835,-0.008800008248250536,0.9999655293607203,-0.0064797445340982794,-0.004991368149592599,-0.0014280213942828542
1991.0333333318513,0.0044042817,-0.794224,0.0039003317,-2.3646522,-0.00023125653,1.5599524,0.7788345,0.039999925,0.04,-0.01099784680105298,-0.014060400682447405,-0.02983604185933242,-0.041925447988069395,0.014195970958187587,-0.00910616473567091,0.999961725962353,-0.006842624310837165,-0.005239315917362752,-0.0015082014623345793
1991.049999998518,0.004630563,-0.7947451,0.0041063353,-2.365098,-0.00024859858,1.559365,0.7784524,0.03999993,0.04,-0.01239919913202936,-0.01412538580440447,-0.03049850088396866,-0.04330863841428578,0.015149063889134642,-0.00941517878352948,0.9999575874010964,-0.007217372597266019,-0.005495565397190076,-0.00159112939013595
1991.0666666651846,0.0048642303,-0.7952831,0.004319064,-2.3655581,-0.00026650785,1.5587586,0.77805775,0.039999925,0.04,-0.011807043047062926,-0.014194601393761365,-0.030405955007806185,-0.04470510131024681,0.016113326338205478,-0.00972866118775725,0.9999530915925332,-0.0076042457679745806,-0.005760058363314993,-0.0016768388373380471
1991.0833333318512,0.005105356,-0.79583824,0.004538575,-2.3660328,-0.000284989,1.5581329,0.7776504,0.039999925,0.04,-0.01203592073746318,-0.014242620413671726,-0.030835804315154647,-0.046113070327779865,0.017086492469418596,-0.010044822538759476,0.9999482153634062,-0.008003376087881955,-0.006032915287531712,-0.0017653599826873304
1991.099999998518,0.0053540035,-0.796411,0.0047649313,-2.3665223,-0.00030404757,1.5574874,0.77723044,0.03999993,0.04,-0.012144760103582897,-0.014277753176042927,-0.031543932019828524,-0.047531714544184256,0.018068403163498704,-0.010365288129004512,0.9999429353536189,-0.008414772295411432,-0.006314286293711528,-0.0018567262064933382
1991.1166666651845,0.0056102374,-0.79700124,0.0049981927,-2.3670266,-0.00032368838,1.5568225,0.7767977,0.03999993,0.04,-0.012075438869030286,-0.01432112248185985,-0.031164793174109917,-0.048960974916134145,0.019061165450255498,-0.010689133778513236,0.999937228876909,-0.008838534074815413,-0.006603964076751574,-0.0019509689514472144
1991.1333333318512,0.005874118,-0.7976094,0.005238413,-2.3675458,-0.00034391572,1.5561376,0.7763521,0.03999993,0.04,-0.01236015993795192,-0.014333545582334746,-0.03210787097276402,-0.05040043764978758,0.020063193182758707,-0.011015415879756393,0.9999310687775609,-0.009274753661748819,-0.006902307619413251,-0.00204811801556336
1991.1499999985178,0.006145704,-0.79823536,0.0054856436,-2.3680801,-0.0003647348,1.5554327,0.7758935,0.03999993,0.04,-0.012365002253300617,-0.014350154108078508,-0.03190770539944765,-0.051849078927877185,0.021073031782124437,-0.011345756803532486,0.9999244298153327,-0.009723523179617723,-0.007209228933031903,-0.0021482024226169
1991.1666666651845,0.0064250506,-0.7988791,0.005739936,-2.3686297,-0.00038614633,1.5547076,0.77542186,0.039999932,0.04,-0.012918479418799755,-0.014354216758617928,-0.03217291358026397,-0.05330671602565258,0.02209258185620754,-0.011677538037780991,0.9999172836165694,-0.010184901178170672,-0.007524997641245398,-0.002251249286831306
1991.1833333318511,0.0067122104,-0.79954076,0.0060013393,-2.3691947,-0.0004081616,1.5539625,0.77493674,0.03999993,0.04,-0.013141215041145848,-0.014343136968968107,-0.032392002370773554,-0.054772603019673384,0.023118367909435524,-0.012014865746537703,0.9999096005912046,-0.01065912280058236,-0.007849645421271647,-0.0023572894221992467
1991.1999999985178,0.0070072347,-0.8002206,0.0062698983,-2.369775,-0.000430779,1.5531969,0.7744386,0.039999936,0.04,-0.012568858917050285,-0.014334585893701485,-0.03260773569258024,-0.05624439394843471,0.024149325855700864,-0.012353476059453217,0.9999013561457485,-0.011145973479659241,-0.008183053967016756,-0.0024663497027924987
1991.2166666651844,0.0073101693,-0.80091846,0.0065456564,-2.370371,-0.00045399123,1.5524108,0.77392703,0.039999936,0.04,-0.013616716101072512,-0.014311896631163945,-0.03282595809752653,-0.057724546754454154,0.025189133753724703,-0.012694580910214436,0.9998925156914821,-0.01164571125990884,-0.008525612757234475,-0.0025784492478770505
1991.233333331851,0.007621058,-0.80163485,0.006828655,-2.370983,-0.00047782896,1.5516042,0.77340204,0.039999936,0.04,-0.013090197818899085,-0.014255296075815077,-0.0332247303905131,-0.059210522563499596,0.026233006979709428,-0.013040968914237607,0.9998830513488423,-0.012158323140941327,-0.00887711466461588,-0.0026936293286844767
1991.2499999985178,0.007939946,-0.8023696,0.0071189324,-2.3716106,-0.00050227897,1.5507767,0.7728635,0.039999936,0.04,-0.013736139154718607,-0.014225300420902046,-0.033335679789381345,-0.06070231154451272,0.027284578210356358,-0.013388779642907876,0.9998729292950441,-0.012683885451478466,-0.009237829650247421,-0.002811906142507919
1991.2666666651844,0.008266867,-0.803123,0.007416523,-2.3722544,-0.0005273455,1.5499283,0.7723115,0.03999994,0.04,-0.013503889297772353,-0.014160533436285982,-0.03369192276230226,-0.0621989279931832,0.028339605491977546,-0.013738363341837428,0.9998621185016098,-0.013222376465556015,-0.009607729479479738,-0.0029333053583002686
1991.283333331851,0.008601865,-0.80389506,0.0077214595,-2.3729134,-0.0005530323,1.5490589,0.7717458,0.039999947,0.04,-0.01231588572305764,-0.014115672646702881,-0.03338147595843832,-0.06370071036402208,0.02939783386468893,-0.014091393602451797,0.9998505883820297,-0.013773928686888127,-0.009986458570198203,-0.00305784987587446
1991.2999999985177,0.008944968,-0.8046857,0.008033773,-2.3735883,-0.00057934114,1.5481687,0.77116656,0.03999996,0.04,-0.01356549262381268,-0.014031784871279887,-0.033594663765446064,-0.06520600910739671,0.030464571529488626,-0.014448569977096388,0.9998383038283079,-0.014338456171124822,-0.010374346212018132,-0.0031855632208727786
1991.3166666651844,0.009296208,-0.8054952,0.008353492,-2.3742793,-0.00060624804,1.5472572,0.7705735,0.039999966,0.04,-0.013435508103865068,-0.013966548322273328,-0.03400764322607497,-0.06671558604283734,0.03153567956076453,-0.014808095984343562,0.9998252279961214,-0.014916111062772772,-0.010771454265187875,-0.0033164538712083685
1991.333333331851,0.0096556125,-0.80632365,0.008680641,-2.374986,-0.0006337904,1.5463245,0.76996666,0.03999997,0.04,-0.012924897922528267,-0.013850017178164073,-0.03397743123876307,-0.06822761582059501,0.032611838465822454,-0.015168416205892949,0.9998113281837384,-0.015506862932147649,-0.011177605680374278,-0.003450560639469038
1991.3499999985177,0.010023212,-0.80717075,0.009015248,-2.3757088,-0.00066194043,1.5453708,0.769346,0.039999977,0.04,-0.013991681551961399,-0.01378131697213382,-0.033862706875353865,-0.06974178792706721,0.033692580396988844,-0.015528571459274379,0.9997965651491266,-0.016110743929188882,-0.011593070655268862,-0.003587890583374895
1991.3666666651843,0.010399027,-0.8080368,0.009357332,-2.3764482,-0.00069069955,1.5443958,0.7687115,0.039999984,0.04,-0.014199788217461595,-0.013654972598414403,-0.03441543183915208,-0.07125756433359298,0.034777945597065735,-0.015890996751557022,0.9997809003902072,-0.016727744920432663,-0.012018000133142935,-0.0037284631717570994
1991.383333331851,0.01078308,-0.808922,0.009706911,-2.3772037,-0.0007200949,1.5433993,0.7680631,0.039999988,0.04,-0.013662832543337444,-0.013520617935369392,-0.03450715298003448,-0.07277479241030133,0.03586362580953897,-0.016257993191154275,0.999764297454395,-0.017357888346359922,-0.012452247201706375,-0.0038723103314107317
1991.3999999985176,0.011175389,-0.80982625,0.010064005,-2.3779752,-0.00075011567,1.5423813,0.76740074,0.039999988,0.04,-0.013380661364714719,-0.013411054490128013,-0.03446838754257442,-0.07429300808729612,0.036953129926808534,-0.016626222021583325,0.9997467172769718,-0.018001224915301307,-0.012895784340883227,-0.00401944544689814
1991.4166666651843,0.01157597,-0.8107495,0.010428627,-2.3787627,-0.0007807742,1.5413418,0.7667245,0.039999984,0.04,-0.01349106661086008,-0.01326667392108384,-0.0343248461693868,-0.07581055325310523,0.038046133066678714,-0.016997235793732447,0.9997281223303655,-0.018657651163274395,-0.013348613278143514,-0.0041698918957085215
1991.433333331851,0.011984835,-0.81169194,0.01080079,-2.3795667,-0.00081208284,1.540281,0.7660342,0.03999998,0.04,-0.013925052279661898,-0.013107987875277116,-0.034534877617220516,-0.07732852826625336,0.03914198556652709,-0.017370878797908083,0.9997084703657134,-0.01932729969063163,-0.013810706966767996,-0.004323671910770935
1991.4499999985176,0.012402001,-0.8126536,0.011180501,-2.3803868,-0.0008440318,1.5391986,0.76532996,0.039999973,0.04,-0.013749930440232205,-0.012961740408546502,-0.03476460067159959,-0.07884466539858409,0.04024123154102803,-0.01774548865254247,0.9996877209045593,-0.020010033309388338,-0.014282216072076075,-0.004480797214295307
1991.4666666651842,0.012827467,-0.81363434,0.011567774,-2.3812234,-0.00087664183,1.5380948,0.76461166,0.03999997,0.04,-0.01422515350233411,-0.012782446854430612,-0.034637993879349516,-0.0803601160387421,0.04134193522498564,-0.01812333503614011,0.9996658297589088,-0.020705918159002086,-0.014763202827571202,-0.004641293774051443
1991.4833333318509,0.013261248,-0.8146343,0.01196261,-2.3820765,-0.000909889,1.5369692,0.7638794,0.03999997,0.04,-0.014127339107550263,-0.012628988704483854,-0.034925795729501274,-0.08187281537853475,0.042443722707053336,-0.01850040298802312,0.9996427553367337,-0.02141487245123361,-0.015253699010841155,-0.0048051646347518845
1991.4999999985175,0.013703344,-0.8156533,0.012365014,-2.3829458,-0.000943783,1.5358222,0.7631327,0.039999966,0.04,-0.013929106336951769,-0.012452742545650958,-0.034517983232729144,-0.08338365155222552,0.04354627510066976,-0.018879734069917796,0.9996184504930532,-0.022137137678466385,-0.015753589064315576,-0.004972424043120021
1991.5166666651842,0.014153759,-0.8166915,0.012774988,-2.3838313,-0.0009783054,1.5346537,0.7623722,0.039999966,0.04,-0.01376261255299216,-0.01228236186926468,-0.034624760743362515,-0.08488929065303921,0.04464936712044096,-0.019259781052193788,0.999592880703668,-0.022872328174682238,-0.016262784231891803,-0.005143082678600883
1991.5333333318508,0.014612491,-0.81774884,0.013192532,-2.3847332,-0.001013464,1.5334635,0.76159775,0.03999996,0.04,-0.014315225708827484,-0.012072106526859333,-0.03488887478100278,-0.0863922119550304,0.045754087552099865,-0.019642085572077646,0.9995659954213238,-0.023620500516484934,-0.016781555510799163,-0.00531715594721044
1991.5499999985175,0.015079538,-0.8188254,0.013617643,-2.3856518,-0.0010492576,1.5322518,0.7608093,0.03999996,0.04,-0.014540774723292849,-0.011868633243081184,-0.034889545118188536,-0.08789182117898214,0.04685761004624478,-0.02002484532693417,0.9995377497235565,-0.0243816502620661,-0.01730984589625851,-0.005494655868644469
1991.5666666651841,0.015554891,-0.819921,0.014050316,-2.3865862,-0.0010856953,1.5310184,0.7600068,0.039999958,0.04,-0.013320697487850808,-0.01166549110990997,-0.03460616948143258,-0.08938680392311482,0.047961774928008724,-0.020409660010518485,0.9995081001957467,-0.025155769404121727,-0.01784747925852544,-0.005675596258775385
1991.5833333318508,0.016038543,-0.8210361,0.014490541,-2.3875368,-0.0011227758,1.5297635,0.75919026,0.039999966,0.04,-0.013539667174233827,-0.011437566356795048,-0.03481602531774097,-0.09087623469879377,0.04906506681019871,-0.020794804638568008,0.9994770046496758,-0.02594278698108809,-0.018394279196346834,-0.005859989164904632
1991.5999999985174,0.016530493,-0.82217014,0.014938313,-2.3885043,-0.001160494,1.5284872,0.7583598,0.039999977,0.04,-0.015280864112865444,-0.011214914404213822,-0.034766733625613,-0.0923602798839801,0.05017074971334046,-0.021181908171017564,0.9994444064646918,-0.026742637131747342,-0.018950814208950763,-0.006047841474249686
1991.616666665184,0.01703072,-0.8233232,0.01539362,-2.3894875,-0.001198847,1.5271894,0.7575153,0.039999984,0.04,-0.013318736909351259,-0.011001953267738424,-0.03444454297325539,-0.09383820312761793,0.05127175239444581,-0.021569958167727648,0.9994102667512362,-0.0275553019228826,-0.019516580568693216,-0.006239161086843084
1991.6333333318507,0.01753921,-0.8244952,0.015856449,-2.3904872,-0.0012378597,1.5258701,0.7566569,0.04,0.04,-0.014561682697045164,-0.010723249360635595,-0.03465054262279388,-0.09531003307320385,0.05237364071311881,-0.021969490968398266,0.9993745318651273,-0.028380703360860935,-0.020091908489971028,-0.006433968396809133
1991.6499999985174,0.01805595,-0.82568634,0.016326781,-2.3915033,-0.0012774778,1.5245293,0.7557846,0.04,0.04,-0.014398867886611377,-0.01051212405976873,-0.034751417991452094,-0.09677426767867847,0.053472705476722865,-0.02235849928084268,0.9993371557724545,-0.029218761656090598,-0.020676711072293838,-0.00663224540699161
1991.666666665184,0.018580914,-0.82689637,0.01680461,-2.3925357,-0.0013177242,1.5231676,0.75489825,0.04,0.04,-0.014133759075307673,-0.010265416862322713,-0.03415683221763555,-0.09823117062744541,0.05456940036218805,-0.022749072366577774,0.9992980922905054,-0.030069487817535066,-0.021270753091806066,-0.006834011256577251
1991.6833333318507,0.019114094,-0.8281255,0.017289903,-2.3935838,-0.0013585843,1.5217845,0.7539981,0.04,0.04,-0.013280816378036242,-0.010019234341759886,-0.03430935065871221,-0.09967957381547668,0.055664989019673594,-0.02313968995902274,0.999257297895295,-0.03093273995872783,-0.021873887687951343,-0.007039264098915586
1991.6999999985173,0.019655462,-0.82937324,0.017782647,-2.394648,-0.0014000849,1.5203797,0.7530842,0.039999995,0.04,-0.014661266127946604,-0.009704645984758009,-0.03466441973565271,-0.10111947093137065,0.056761088556016706,-0.02353253743273898,0.9992147085286702,-0.03180842844231506,-0.022486802715591045,-0.007248023428834719
1991.716666665184,0.020204986,-0.83064,0.01828282,-2.3957288,-0.0014422012,1.5189543,0.7521565,0.039999995,0.04,-0.01434153087886969,-0.009462221190431608,-0.03396943978246636,-0.10255074757700641,0.05785026771489689,-0.023924224445173493,0.9991702895392256,-0.03269649327337013,-0.023108785959548055,-0.007460284257345464
1991.7333333318506,0.020762647,-0.8319256,0.01879039,-2.396825,-0.0014849409,1.5175077,0.7512151,0.039999995,0.04,-0.01322586306873319,-0.009195969659521464,-0.03395084898756284,-0.10397253679279578,0.058938086341130805,-0.0243172562919962,0.9991239913310692,-0.033596847549040874,-0.023739839990220467,-0.0076760522847827
1991.7499999985173,0.021328405,-0.8332297,0.019305345,-2.397937,-0.0015282945,1.5160402,0.75026,0.039999995,0.04,-0.013728026962200879,-0.008918703603138373,-0.033690422544152554,-0.10538479774422352,0.06002492653539752,-0.02470994984953235,0.999075762371826,-0.034509426731210026,-0.02437999754704051,-0.007895329470266657
1991.766666665184,0.021902237,-0.8345526,0.019827643,-2.3990648,-0.0015722668,1.5145514,0.74929124,0.03999999,0.04,-0.013762944219886108,-0.008601474299518852,-0.034112076014092274,-0.1067865506217356,0.06110880844996034,-0.025103742907110208,0.9990255479724796,-0.0354341330737512,-0.0250294400135168,-0.008118118267711827
1991.7833333318506,0.022484114,-0.8358939,0.020357259,-2.400209,-0.0016168453,1.5130422,0.7483088,0.03999999,0.04,-0.014948424074767708,-0.008318109477455787,-0.03358176760450693,-0.10817752829888366,0.0621893394297163,-0.02549697090966154,0.9989732948937581,-0.03637093282256828,-0.025688170557998928,-0.008344412987627746
1991.7999999985173,0.023073992,-0.837254,0.020894166,-2.4013684,-0.0016620373,1.5115114,0.7473129,0.039999988,0.04,-0.013083444962225244,-0.008011020538134517,-0.03406656796496321,-0.10955668062264733,0.06326448132452726,-0.025891155122375394,0.998918959387858,-0.037319601956567965,-0.026356071801631097,-0.008574226756360003
1991.816666665184,0.023671841,-0.83863235,0.02143832,-2.4025433,-0.0017078499,1.5099602,0.74630374,0.03999998,0.04,-0.013626236120845014,-0.007718364649673959,-0.03313163273053199,-0.11092500223875841,0.06433545593223525,-0.02628608484078037,0.9988624969164867,-0.03828001395420272,-0.02703293754387624,-0.008807557730537686
1991.8333333318506,0.024277618,-0.8400285,0.021989688,-2.403734,-0.0017542688,1.5083885,0.74528104,0.039999977,0.04,-0.014491099327895718,-0.007411355731298808,-0.032890413839470334,-0.11228186229525591,0.06540292338917526,-0.026680144935303754,0.9988038425226698,-0.03925221367935018,-0.027719069723251187,-0.009044393672218256
1991.8499999985172,0.024891283,-0.84144306,0.02254824,-2.4049404,-0.0018013086,1.5067967,0.74424505,0.039999973,0.04,-0.013906024919574378,-0.007083736788954936,-0.03298132089954997,-0.11362592866870741,0.06646428073440871,-0.02707564909723197,0.9987429585050913,-0.040236005648895345,-0.0284140830670933,-0.009284749289870447
1991.8666666651839,0.02551279,-0.8428758,0.02311393,-2.4061623,-0.0018489619,1.5051842,0.7431957,0.03999998,0.04,-0.013877241103243954,-0.006744242606263745,-0.03322123356088724,-0.11495718731073487,0.06752110570086836,-0.027469255305329295,0.9986797835259591,-0.04123133578430932,-0.029118248988632658,-0.00952861489519774
1991.8833333318505,0.026142104,-0.84432644,0.02368672,-2.4074,-0.0018972092,1.5035516,0.7421333,0.039999984,0.04,-0.014336085550081812,-0.0064511571697935255,-0.03264838885341792,-0.11627478008088396,0.06857201100284353,-0.02786167903563793,0.9986142737085292,-0.04223798229952504,-0.02983144990121066,-0.009775980444087217
1991.8999999985172,0.026779165,-0.8457951,0.024266565,-2.4086525,-0.0019460584,1.5018988,0.7410579,0.039999995,0.04,-0.013181203317635948,-0.006119320241688986,-0.03252161514049057,-0.11757955225124891,0.06961629692995439,-0.02825442579432584,0.9985463843150245,-0.04325585738511252,-0.030553420790764386,-0.010026846525835603
1991.9166666651838,0.027423935,-0.8472816,0.024853425,-2.4099202,-0.0019954713,1.5002261,0.7399695,0.039999995,0.04,-0.013253671001489664,-0.005837210077684618,-0.032050811051975714,-0.11887038998583829,0.07065575105998921,-0.028646060122348826,0.9984760697092064,-0.04428482490621059,-0.03128401514067847,-0.01028119145624773
1991.9333333318505,0.028076364,-0.8487857,0.025447253,-2.4112027,-0.002045513,1.4985335,0.738868,0.04,0.04,-0.013123660696767736,-0.005447258493473939,-0.03201200390268166,-0.12014788438694815,0.07169034867878918,-0.029048113341808183,0.9984032701863866,-0.04532488656268666,-0.03202332631009789,-0.010539037491419023
1991.9499999985171,0.02873639,-0.85030735,0.026048008,-2.4125004,-0.0020961284,1.4968212,0.7377538,0.04,0.04,-0.013953432111346586,-0.005126196097723218,-0.03187668470443494,-0.12140933597439554,0.07271955072970693,-0.029439193807715668,0.9983279386850793,-0.046375743206996396,-0.03277147441499078,-0.010800358673070313
1991.9666666651838,0.02940397,-0.85184646,0.02665562,-2.4138129,-0.002147312,1.4950894,0.7366269,0.04,0.04,-0.013183377181125167,-0.004797081920224905,-0.031426740342865855,-0.12265632534820697,0.07374155710521202,-0.029829492951280095,0.9982500333086856,-0.047437305299152355,-0.03352813474746406,-0.01106513648894876
1991.9833333318504,0.030079037,-0.8534027,0.027270058,-2.4151397,-0.0021990682,1.493338,0.7354873,0.04,0.04,-0.01283578305644184,-0.004468899812479221,-0.031186063479826664,-0.12388838811930726,0.07475875939373033,-0.030219032562092348,0.9981694979168991,-0.04850951380877622,-0.034293370394923584,-0.01133336866594116
1991.999999998517,0.030761542,-0.8549762,0.02789126,-2.416481,-0.002251379,1.4915673,0.73433506,0.04,0.04,-0.012977509158695888,-0.0041154004673082945,-0.031090584278481437,-0.12510392238857662,0.07576879294503513,-0.030606972941531363,0.998086289555442,-0.049592184825425996,-0.035067034503796495,-0.011605037561368018
1992.0166666651837,0.031451423,-0.85656667,0.028519176,-2.4178371,-0.0023042501,1.4897774,0.7331705,0.04,0.04,-0.013618606342435946,-0.003749460410320399,-0.03083761953512898,-0.12630340984372387,0.07677306519403386,-0.030994756176882438,0.9980003565932851,-0.05068510446406203,-0.03584927770339314,-0.011880139447328724
1992.0333333318504,0.032148622,-0.8581741,0.029153755,-2.4192076,-0.0023576706,1.4879686,0.7319935,0.04,0.04,-0.012912974027257107,-0.0034232316228427484,-0.03056449709186726,-0.12748724033846634,0.07776961065662885,-0.031380627532782326,0.9979116511157803,-0.0517882391048729,-0.036639895288731884,-0.012158656629116363
1992.049999998517,0.032853078,-0.85979795,0.029794935,-2.4205923,-0.0024116293,1.4861411,0.73080426,0.04,0.04,-0.013271600950215401,-0.0030856307911900083,-0.029927338490587374,-0.12865372811233675,0.07875856959115562,-0.03176535120530717,0.9978201272761125,-0.052901374525556384,-0.03743888885844714,-0.012440569803447243
1992.0666666651837,0.033564728,-0.8614386,0.030442657,-2.4219913,-0.002466132,1.484295,0.72960293,0.04,0.04,-0.01299963500644985,-0.0027013706865294806,-0.030049304204715632,-0.12980336933597503,0.07973922000604518,-0.032149628118831076,0.9977257423614404,-0.054024347283933995,-0.03824611186810075,-0.012725873519344197
1992.0833333318503,0.034283496,-0.86309564,0.031096872,-2.4234045,-0.0025211817,1.4824302,0.7283895,0.04,0.04,-0.012947159830045685,-0.0023382624332768387,-0.02984794083673581,-0.13093582737101644,0.08071186179040868,-0.032532443587053664,0.9976284416531913,-0.05515705469418453,-0.03906165679501568,-0.013014556869760467
1992.099999998517,0.035009332,-0.86476904,0.031757507,-2.424831,-0.002576778,1.4805473,0.7271642,0.04,0.04,-0.011756002558427348,-0.0020390950729420876,-0.02897261131666884,-0.13205061896740647,0.08167651040397544,-0.03291455317296609,0.9975282036350842,-0.05629928611695635,-0.03988492947314037,-0.013306604984207323
1992.1166666651836,0.035742145,-0.8664584,0.032424506,-2.4262714,-0.00263292,1.4786462,0.72592705,0.04,0.04,-0.013318759108393863,-0.0015988144744877308,-0.02917034228306914,-0.13314750371042966,0.08263477030192379,-0.0332958608393841,0.9974249552897739,-0.0574509224821438,-0.040716528615664806,-0.013601998699931702
1992.1333333318503,0.03648188,-0.8681639,0.0330978,-2.4277253,-0.0026896093,1.476727,0.7246783,0.04,0.04,-0.011990144869966635,-0.0012818289541680072,-0.02868680723586703,-0.1342256843212991,0.08358264224728068,-0.033673864013668606,0.9973186743721264,-0.058611748437478954,-0.041555919590859566,-0.013900728063104119
1992.149999998517,0.037228465,-0.869885,0.033777326,-2.4291933,-0.002746814,1.47479,0.7234178,0.04,0.04,-0.013543410684335733,-0.000890077287836466,-0.02867143761109414,-0.13528582535321906,0.0845243533789393,-0.034049276675945754,0.9972092888176282,-0.0597816843006987,-0.04240361194191807,-0.014202753686911674
1992.1666666651836,0.037981834,-0.8716218,0.03446302,-2.430674,-0.0028045357,1.4728355,0.72214603,0.04,0.04,-0.011549211517936087,-0.0006156411853308619,-0.027694273595391117,-0.1363267151466882,0.08545315192041028,-0.034423509336530836,0.9970967931210536,-0.0609604559940016,-0.043258802205420076,-0.01450806618632165
1992.1833333318502,0.03874189,-0.8733742,0.035154805,-2.4321678,-0.0028627708,1.4708636,0.720863,0.04,0.04,-0.011540108218222045,-0.000202047558059415,-0.027771101586560043,-0.13734893288653863,0.08637531072092897,-0.03479509431356398,0.9969811411354126,-0.062147908156193886,-0.0441215228564243,-0.01481664445716073
1992.199999998517,0.039508577,-0.8751417,0.035852626,-2.4336753,-0.0029215063,1.4688745,0.71956867,0.04,0.04,-0.013639519536212674,0.0001838069605894499,-0.027558156955431734,-0.1383520010577482,0.08729109781023225,-0.03516471741616731,0.9968622566645974,-0.06334394047021862,-0.04499240184257698,-0.015128457281161712
1992.2166666651835,0.040281814,-0.87692434,0.036556404,-2.435195,-0.0029807866,1.4668682,0.71826327,0.04,0.04,-0.01076567405922102,0.0005011178793423721,-0.02684182773289301,-0.13933650195688246,0.0881900813283358,-0.03554395673499779,0.9967401384444867,-0.06454835399652199,-0.04587051793319351,-0.015443509787151418
1992.2333333318502,0.041061513,-0.878722,0.03726607,-2.4367273,-0.0030405428,1.4648455,0.716947,0.04,0.04,-0.01152091073421957,0.0008248358925752597,-0.02628144627565554,-0.14030017968709144,0.08908380449190884,-0.03591352400118638,0.996614752906426,-0.06576091785391178,-0.04675578295660658,-0.01576174902697225
1992.2499999985168,0.041847616,-0.88053447,0.037981536,-2.4382734,-0.0031007708,1.4628061,0.71561986,0.04,0.04,-0.013809994183411334,0.0013146832088223315,-0.027020725453930083,-0.14124327307808276,0.08997108517735024,-0.03627227087166773,0.9964860080539546,-0.0669815394570988,-0.047649152557204505,-0.0160831397814998
1992.2666666651835,0.042640008,-0.88236135,0.038702752,-2.4398313,-0.003161468,1.4607502,0.71428216,0.04,0.04,-0.010584879333830344,0.0015241750940489518,-0.025542563500691173,-0.14216615473329647,0.09084226299681639,-0.03663180551027047,0.9963539200573485,-0.0682099335309812,-0.048549555409493,-0.016407669657647353
1992.2833333318501,0.04343863,-0.8842028,0.039429646,-2.4414005,-0.003222623,1.4586781,0.7129339,0.04,0.04,-0.010044167364631207,0.0018443485066313436,-0.025259112178277476,-0.14306895767367903,0.09170506247406915,-0.03698952087661555,0.996218458942213,-0.06944599748933604,-0.04945669657445361,-0.016735311752584157
1992.2999999985168,0.0442434,-0.8860583,0.040162127,-2.4429822,-0.0032842476,1.4565904,0.7115752,0.04,0.04,-0.011900244314166919,0.0022780715145775954,-0.02494019529777347,-0.14395069625455592,0.09256080976723899,-0.037346326995101764,0.9960795654044116,-0.0706895514971287,-0.050370994412415146,-0.017066036880239468
1992.3166666651834,0.045054212,-0.8879277,0.040900104,-2.4445755,-0.0033463289,1.4544868,0.7102064,0.04,0.04,-0.010920007868953086,0.002645231635109435,-0.02468211274804233,-0.14481140598085282,0.09340708770172652,-0.037699714571440744,0.9959372172456323,-0.07194031467572619,-0.05129227064633665,-0.017399810381910782
1992.33333333185,0.045870993,-0.8898109,0.041643523,-2.4461808,-0.003408876,1.4523677,0.7088275,0.04,0.04,-0.01142282602926148,0.0030039020445821185,-0.024461980462842092,-0.1456516203120372,0.09424291332410187,-0.038051726304191374,0.9957913689119375,-0.07319814996106275,-0.05222061672228138,-0.017736618389978597
1992.3499999985168,0.04669365,-0.89170766,0.042392284,-2.447798,-0.0034718623,1.4502331,0.70743865,0.04,0.04,-0.011592279325256527,0.0033750597646903246,-0.024100547989491794,-0.14647023770942885,0.09506481770292653,-0.03839901990533142,0.9956419840137903,-0.07446287080165509,-0.053156034117161716,-0.018076409433141455
1992.3666666651834,0.047522105,-0.8936177,0.043146327,-2.4494264,-0.0035352944,1.4480836,0.70603997,0.04,0.04,-0.01055120626589634,0.0036342327524488405,-0.023232402970618793,-0.14726749452629379,0.09587440968028187,-0.038743180449661074,0.9954890497562782,-0.07573432043088447,-0.05409804821689879,-0.018419166738391942
1992.38333333185,0.048356254,-0.89554095,0.04390555,-2.4510658,-0.0035991522,1.4459194,0.7046316,0.04,0.04,-0.010201761562722567,0.0040081987286222365,-0.022937543566325935,-0.148042556208999,0.0966746358208728,-0.0390843727281453,0.9953325433489694,-0.07701227434326764,-0.055046511259839837,-0.01876484343312842
1992.3999999985167,0.04919601,-0.8974773,0.04466987,-2.4527166,-0.0036634454,1.4437407,0.7032139,0.04,0.04,-0.011002320391750864,0.004403829375378143,-0.02275312420654263,-0.14879584891911074,0.09746350870187734,-0.03942237920077099,0.9951724291532698,-0.0782964923910932,-0.05600154254930596,-0.019113418441766252
1992.4166666651834,0.050041284,-0.89942616,0.045439217,-2.4543784,-0.0037281674,1.4415478,0.7017868,0.04,0.04,-0.01080657491951964,0.004697978099843514,-0.022062367465935928,-0.14952787729797104,0.09824138874910837,-0.03976013582433815,0.9950086716348503,-0.07958680650987955,-0.05696317298408663,-0.01946485357239056
1992.43333333185,0.05089198,-0.90138763,0.0462135,-2.4560513,-0.0037933025,1.4393406,0.7003504,0.04,0.04,-0.011003650261964815,0.005093911702734599,-0.02209562707540247,-0.15023733490972502,0.09900606182490138,-0.04009091212241093,0.9948412340168282,-0.0808831124247563,-0.05793137591191967,-0.019819104654614672
1992.4499999985167,0.051748004,-0.90336126,0.046992637,-2.4577339,-0.0038588352,1.4371195,0.6989053,0.04,0.04,-0.008703237716511936,0.005267620367424564,-0.020858210814045375,-0.150923662238806,0.09975689724894062,-0.040417158813630484,0.9946701471684889,-0.08218498307755932,-0.05890543316547816,-0.020176145121038783
1992.4666666651833,0.05260926,-0.90534705,0.04777652,-2.459427,-0.003924754,1.4348847,0.69745153,0.04,0.04,-0.010565067424117558,0.005745096027272301,-0.021140369602579145,-0.15158861378943866,0.10049842490167929,-0.04073847462124716,0.9944953538412739,-0.08349224701468434,-0.059885822165517105,-0.020535924135975474
1992.48333333185,0.05347565,-0.9073448,0.048565086,-2.46113,-0.0039910562,1.4326367,0.69598866,0.04,0.04,-0.00868480793501103,0.005934662070097851,-0.01998190253810206,-0.15223198678738192,0.10122595350179914,-0.0410577056842448,0.9943168472968332,-0.08480503816104465,-0.06087174719771936,-0.02089839891682446
1992.4999999985166,0.05434707,-0.90935403,0.04935823,-2.4628432,-0.0040577324,1.4303762,0.6945176,0.04,0.04,-0.01058467456702683,0.0063498492731906,-0.019712552181283538,-0.1528509178529631,0.10194475543095426,-0.041372703727154514,0.994134606233015,-0.08612275234202058,-0.061863706025064295,-0.02126353911765125
1992.5166666651833,0.05522343,-0.9113747,0.05015586,-2.464566,-0.0041247886,1.4281023,0.69303757,0.04,0.04,-0.0092179718740093,0.0066838252477538496,-0.019758902033939485,-0.1534489368614655,0.10264867981886554,-0.04168840450587091,0.9939485712008378,-0.08744567407962282,-0.06286159066776581,-0.02163128085185188
1992.53333333185,0.056104627,-0.91340655,0.0509579,-2.4662979,-0.004192221,1.4258162,0.6915498,0.04,0.04,-0.008405442110537287,0.006882964505350309,-0.018430159778015653,-0.1540219359303691,0.10333986949502649,-0.04200697428505117,0.9937588096977708,-0.0887730797854904,-0.0638646762395067,-0.022001626810121928
1992.5499999985166,0.056990545,-0.9154494,0.051764242,-2.4680393,-0.0042600166,1.423518,0.690054,0.04,0.04,-0.009377823182399325,0.007298156848406512,-0.01845182639271803,-0.15457310429755428,0.10402081506039626,-0.04231413588465431,0.993565263056762,-0.09010494546428603,-0.06487332410084862,-0.02237450937856601
1992.5666666651832,0.0578811,-0.91750276,0.0525748,-2.4697907,-0.0043281578,1.4212072,0.6885505,0.04,0.04,-0.010576630275194177,0.007696857931967227,-0.018670345735238847,-0.15510068905778707,0.10469054347398007,-0.04261322518390689,0.9933678740043362,-0.09144102288588116,-0.06588815764459711,-0.022749877184056955
1992.5833333318499,0.058776192,-0.91956675,0.053389482,-2.4715505,-0.004396655,1.4188848,0.68703926,0.04,0.04,-0.007682267995345882,0.007801692748132805,-0.01721692900896743,-0.15560514458014912,0.1053411918367089,-0.04290269693086285,0.9931666995252091,-0.09278119013346836,-0.06690789953767039,-0.023127703973313294
1992.5999999985165,0.059675705,-0.9216409,0.054208204,-2.473319,-0.00446547,1.4165509,0.6855204,0.04,0.04,-0.008804242856363942,0.008150949941324037,-0.016942184701063123,-0.15608815227978895,0.10598036481827908,-0.043201877848376105,0.9929616955555521,-0.09412528284876474,-0.06793290788977448,-0.023507920233882967
1992.6166666651832,0.06057953,-0.92372507,0.055030853,-2.475096,-0.004534607,1.4142058,0.6839946,0.04,0.04,-0.008043335222063241,0.008440166970612173,-0.016428519720412815,-0.1565457200651741,0.10660719872508073,-0.04348721255852725,0.9927528918318949,-0.09547285070010589,-0.06896284966997519,-0.0238904981949312
1992.6333333318498,0.061487593,-0.92581904,0.055857345,-2.476881,-0.004604078,1.4118496,0.68246156,0.04,0.04,-0.007893375759815413,0.008710127398087186,-0.016007581316279662,-0.15698054280611023,0.10722187511088845,-0.043760924440919974,0.9925402554181708,-0.09682390621981349,-0.06999769933519914,-0.024275391789789325
1992.6499999985165,0.06239976,-0.9279223,0.056687575,-2.478674,-0.0046738517,1.409483,0.68092144,0.04,0.04,-0.007794956512663376,0.008961395256931737,-0.015129526537394078,-0.15739249089396462,0.10782340502630904,-0.044037223231983016,0.9923237844652941,-0.09817826351394321,-0.07103727888499227,-0.02466252960422415
1992.6666666651831,0.06331592,-0.93003494,0.057521455,-2.480475,-0.004743932,1.4071058,0.6793747,0.04,0.04,-0.008116038308014772,0.009319470156650411,-0.015177336115490547,-0.15778015136771495,0.10841202190080734,-0.04430893832734005,0.9921034770149748,-0.09953555258520069,-0.07208167340637948,-0.02505188666133069
1992.6833333318498,0.06423599,-0.9321564,0.058358867,-2.4822836,-0.004814296,1.4047188,0.67782134,0.04,0.04,-0.0076872835738983625,0.009504463593407175,-0.01416704793147927,-0.15814525708109756,0.10898510452528146,-0.04457534229746837,0.9918793324391296,-0.10089567324327549,-0.07313061623561147,-0.02544338754750541
1992.6999999985164,0.06515982,-0.9342871,0.059199724,-2.4840996,-0.004884953,1.4023216,0.67626154,0.04,0.04,-0.007001192208977436,0.009868459481987557,-0.01434219654009583,-0.15848668589020906,0.10954687874940106,-0.04483710180651396,0.9916513609744438,-0.10225838140473263,-0.07418389944841824,-0.02583700394094728
1992.716666665183,0.06608733,-0.936426,0.060043935,-2.485923,-0.0049558715,1.3999151,0.67469543,0.04,0.04,-0.007679338232513544,0.0100242849157689,-0.013146352052662014,-0.15880448401955682,0.11009458175997368,-0.045093825119619325,0.9914195432826245,-0.10362353325688105,-0.07524161131287165,-0.026232660552733617
1992.7333333318497,0.06701843,-0.9385732,0.060891394,-2.4877532,-0.0050270488,1.3974992,0.67312336,0.04,0.04,-0.0065165329448557685,0.010247641930977158,-0.012857094463081253,-0.1590984916585837,0.11062780834283995,-0.045345427602725474,0.991183907063457,-0.10499083949188151,-0.07630342136826213,-0.02663031897495138
1992.7499999985164,0.06795298,-0.9407284,0.061741997,-2.48959,-0.0050984863,1.3950745,0.6715455,0.04,0.04,-0.006588455191813836,0.010517697806963766,-0.01219050081070483,-0.15937029496816962,0.11114535136041201,-0.04560089383479986,0.9909444637439767,-0.10636008318251146,-0.07736915044541831,-0.027029928596387448
1992.766666665183,0.068890855,-0.9428912,0.06259566,-2.4914336,-0.0051701656,1.3926408,0.66996205,0.04,0.04,-0.007422759660924427,0.010843319793313322,-0.012056504750856956,-0.15961762124744527,0.11165290975893387,-0.04584268978502737,0.9907011787311867,-0.1077310374203868,-0.07843924311775335,-0.027431426796260636
1992.7833333318497,0.06983198,-0.9450614,0.063452244,-2.4932842,-0.0052420893,1.3901991,0.66837305,0.04,0.04,-0.0072917356494839325,0.01105058711329543,-0.011289254109536628,-0.15984185549003432,0.11214220555396467,-0.04607833943098961,0.9904540721527737,-0.10910357768604703,-0.07951331250966297,-0.027834752124524135
1992.7999999985163,0.070776224,-0.9472388,0.06431167,-2.4951417,-0.0053142374,1.387749,0.6667788,0.04,0.04,-0.007521084871497941,0.01135577800552845,-0.011275153843581798,-0.16004196349046662,0.11261650147727906,-0.0463063641062462,0.9902031337219619,-0.11047741789987893,-0.08059159342747343,-0.02823985074682062
1992.816666665183,0.071723476,-0.94942325,0.06517386,-2.4970038,-0.0053866063,1.3852911,0.6651795,0.04,0.04,-0.0038059309114268913,0.011235329576922415,-0.009573382736549618,-0.16021911782556736,0.11307096679917997,-0.04652904180869826,0.9899484725349207,-0.11185240621154637,-0.08167268857366645,-0.02864669076199359
1992.8333333318496,0.07267364,-0.9516143,0.066038646,-2.4988713,-0.0054591927,1.3828256,0.6635752,0.04,0.04,-0.00560589573781467,0.01164841779288106,-0.009625435257742954,-0.16037290877244925,0.11351739333890568,-0.04674815164576951,0.9896900396903165,-0.11322837237685418,-0.08275722078294273,-0.029055179141617465
1992.8499999985163,0.07362657,-0.95381165,0.066905975,-2.500745,-0.005532003,1.3803531,0.6619662,0.04,0.04,-0.006886854791443575,0.011947774698058133,-0.009227465443240046,-0.16050138350464596,0.11395016718726465,-0.046955405365746924,0.9894278312194189,-0.11460501145086885,-0.08384542393590129,-0.029465285401507443
1992.866666665183,0.07458216,-0.9560153,0.06777572,-2.5026238,-0.0056050033,1.3778735,0.66035277,0.04,0.04,-0.004961914255274813,0.012042990961769195,-0.008628991554393561,-0.16060982342694008,0.11436240048024832,-0.04717126345044871,0.9891619056255347,-0.11598213122873088,-0.08493667225357979,-0.0298769376173315
1992.8833333318496,0.07554028,-0.958225,0.06864779,-2.5045073,-0.0056782146,1.3753875,0.6587348,0.04,0.04,-0.004658798958012689,0.01221884399376788,-0.007855399023060095,-0.1606921388906175,0.11476462268054374,-0.047366193186682885,0.9888922822678871,-0.11735965359627862,-0.08603067078915674,-0.030290088516521693
1992.8999999985163,0.07650083,-0.96044016,0.06952206,-2.5063956,-0.005751604,1.3728949,0.6571129,0.04,0.04,-0.005213897196987283,0.012455929297794377,-0.007663718478723158,-0.16075166850001316,0.11515223981489299,-0.04756183995667752,0.9886189585217644,-0.11873716797503528,-0.0871278557382407,-0.03070466653566413
1992.916666665183,0.077463716,-0.9626607,0.070398435,-2.5082889,-0.0058251643,1.3703967,0.655487,0.04,0.04,-0.005396338923513433,0.012595915843374716,-0.006720993207076642,-0.1607887998816526,0.11552369283110589,-0.0477512115280787,0.9883419679908525,-0.12011461339929232,-0.08822778300010563,-0.031120608329426806
1992.9333333318496,0.07842878,-0.96488625,0.07127682,-2.510186,-0.0058988766,1.3678924,0.6538574,0.04,0.04,-0.003894979717555813,0.012734085248242155,-0.0065256336008845395,-0.16080231749347174,0.11587947316884947,-0.047933823941058114,0.9880613402470396,-0.12149172108881301,-0.08933035979067523,-0.03153785718418807
1992.9499999985162,0.07939592,-0.96711653,0.07215711,-2.5120878,-0.0059727435,1.3653829,0.6522243,0.04,0.04,-0.00544558868378342,0.012989745281410947,-0.005862384720367597,-0.1607933723778302,0.11622062866425212,-0.048110743142759683,0.9877770790502276,-0.12286829349452237,-0.09043570208592883,-0.031956350620330275
1992.9666666651829,0.08036503,-0.96935153,0.07303918,-2.5139928,-0.0060467594,1.3628681,0.6505879,0.04,0.04,-0.0028832193624594993,0.01298880079707021,-0.005215509116984762,-0.16076128917583354,0.11654388266933757,-0.04828108909125223,0.9874892659615684,-0.12424412949309299,-0.09154309388544835,-0.032376038347306874
1992.9833333318495,0.08133601,-0.97159076,0.073922925,-2.5159023,-0.006120902,1.3603486,0.64894843,0.04,0.04,-0.005327544018540742,0.013322371003501865,-0.004994904629307406,-0.16070671334873626,0.11685408004309097,-0.048444507761395625,0.9871978667302831,-0.1256190187741626,-0.09265312538394271,-0.03279683524339362
1992.9999999985162,0.0823087,-0.9738339,0.07480823,-2.5178144,-0.0061951694,1.3578246,0.647306,0.04,0.04,-0.002569236943195108,0.013249759303624042,-0.0038322697362480618,-0.16062964560138082,0.11714645466935605,-0.04860193453662749,0.9869029777568621,-0.1269927892562117,-0.0937649337702849,-0.03321868700927686
1993.0166666651828,0.083282985,-0.9760809,0.075695015,-2.51973,-0.006269558,1.3552966,0.6456609,0.03999999,0.04,-0.004015056105188819,0.013532406581381884,-0.003645938358820544,-0.1605298387411639,0.11742612215177842,-0.048753203423244705,0.9866045998682321,-0.128365230754933,-0.09487875392301658,-0.03364153840260975
1993.0333333318495,0.08425875,-0.97833145,0.07658317,-2.5216486,-0.0063440707,1.3527647,0.6440132,0.039999977,0.04,-0.0030760768868098864,0.01361226871791077,-0.0031370376846195924,-0.16040761703627726,0.11768963136440656,-0.048898384931174405,0.9863027798602241,-0.1297361365131493,-0.09599434427710689,-0.034065337066353646
1993.0499999985161,0.0852359,-0.980585,0.07747254,-2.52357,-0.0064186724,1.3502291,0.64236325,0.039999988,0.04,-0.003470866866117639,0.013759315914679826,-0.0026091731269550777,-0.1602628919757796,0.1179389959876726,-0.049035593102251196,0.9859975251637187,-0.1311053204563756,-0.09711187838231038,-0.03448997529880685
1993.0666666651828,0.08621428,-0.98284143,0.07836307,-2.5254936,-0.0064933393,1.3476902,0.6407111,0.03999999,0.04,-0.00233765444381806,0.013766084690919334,-0.0019010385587714396,-0.16009617206827947,0.11817024263014417,-0.04916536951202071,0.9856889081096084,-0.1324726033448248,-0.09823085011887472,-0.03491541031773615
1993.0833333318494,0.087193795,-0.9851006,0.07925461,-2.5274193,-0.0065680915,1.3451482,0.639057,0.039999984,0.04,-0.002410971214672486,0.013950037651133673,-0.0015465871727293745,-0.15990738698740342,0.11838583064713087,-0.049289608359804796,0.9853769551279359,-0.13383782491345536,-0.09935122679691945,-0.03534157126076882
1993.099999998516,0.08817433,-0.9873621,0.08014709,-2.5293472,-0.0066429256,1.3426036,0.6374012,0.03999998,0.04,-0.002672185097596369,0.014031385822632636,-0.0008888700313791631,-0.15969622476220496,0.11858653023818193,-0.04940724817215027,0.9850617075774306,-0.13520069901881787,-0.1004730006672853,-0.03576841324927952
1993.1166666651827,0.08915576,-0.98962563,0.081040375,-2.5312767,-0.0067178267,1.340057,0.635744,0.039999973,0.04,-0.0019383696939545558,0.014035397755293721,4.401030530010175e-05,-0.15946356054000999,0.11877038691033717,-0.04951776993104092,0.9847432401631047,-0.13656108932751418,-0.10159566522186461,-0.03619586499697605
1993.1333333318494,0.09013796,-0.9918909,0.08193434,-2.5332081,-0.006792781,1.3375081,0.6340854,0.03999997,0.04,-0.002623383795996581,0.014309670524090268,-0.00019740046017791002,-0.1592095054844368,0.11894005702750346,-0.04962132226542297,0.9844215354179284,-0.1379187740366378,-0.10271975005766282,-0.036623835431729014
1993.149999998516,0.0911208,-0.99415773,0.0828289,-2.5351408,-0.00686778,1.3349577,0.63242567,0.03999997,0.04,-0.0014890165708436598,0.014201983387157613,0.0010209811303396599,-0.1589338937242008,0.11909138276025033,-0.049717728102782605,0.9840966915952164,-0.13927364371545456,-0.10384451185314528,-0.03705227544364759
1993.1666666651827,0.092104174,-0.9964258,0.08372395,-2.537074,-0.0069428016,1.3324058,0.6307652,0.039999973,0.04,-0.0009799225081374985,0.014263361080160686,0.0013411734902657457,-0.15863555178226985,0.11922876992267654,-0.04980247853733619,0.9837687670996549,-0.1406253744837639,-0.1049699114058587,-0.03748112364874431
1993.1833333318493,0.093087934,-0.9986949,0.084619366,-2.5390084,-0.007017845,1.3298528,0.6291039,0.039999973,0.04,-0.0014222055093604524,0.014401485850681905,0.0017938791805005572,-0.1583180800688066,0.11935042941773202,-0.04988491964808274,0.9834377782517798,-0.14197392338135154,-0.10609595062081958,-0.037910297397591476
1993.199999998516,0.09407199,-1.0009646,0.08551504,-2.5409431,-0.0070929024,1.3272991,0.6274421,0.03999997,0.04,-0.0008793284806296597,0.014384489882823814,0.002507783643446171,-0.15797880899964983,0.11945508661745113,-0.049959689760782244,0.9831037959682393,-0.1433190542602122,-0.10722238430136787,-0.03833973583016591
1993.2166666651826,0.095056206,-1.0032347,0.08641086,-2.5428784,-0.007167965,1.324745,0.62578,0.039999973,0.04,-0.0010189387541714723,0.014468394310954147,0.002990652120249404,-0.1576185364270944,0.11954571361417428,-0.0500256432714395,0.9827668581772664,-0.1446606160212191,-0.10834918016041889,-0.03876936676438485
1993.2333333318493,0.096040465,-1.0055048,0.08730673,-2.5448136,-0.007243023,1.3221909,0.62411785,0.03999997,0.04,-0.0004941866452057297,0.014447411672452448,0.003606056441751715,-0.15723802743903803,0.11961791609559522,-0.05008732273825216,0.982427033633315,-0.14599836762425092,-0.1094761526003103,-0.03919913582380455
1993.249999998516,0.09702465,-1.0077751,0.08820252,-2.5467484,-0.007318065,1.3196368,0.62245584,0.039999977,0.04,0.0003732030508629691,0.014468350548010878,0.0040326605826646045,-0.15683738331270075,0.11967432877155587,-0.05014167911067021,0.9820844051106121,-0.1473321688849506,-0.11060288383564343,-0.03962897093580009
1993.2666666651826,0.09800865,-1.0100447,0.08909815,-2.548683,-0.0073930817,1.3170831,0.6207941,0.039999973,0.04,-0.00044402109609098517,0.014534060892351652,0.00447248535866418,-0.15641702750019787,0.11971704970645856,-0.050189480525490646,0.9817389735449302,-0.14866186122670566,-0.11172972437021052,-0.04005880092707509
1993.2833333318492,0.098992325,-1.0123137,0.08999349,-2.5506167,-0.007468069,1.3145303,0.61913294,0.039999973,0.04,0.0003718705903210662,0.014511220064722385,0.005131839070293687,-0.15597633169552794,0.11974130225117405,-0.05023125010266747,0.98139083897844,-0.14998725364818888,-0.11285619518625196,-0.04048856777350809
1993.299999998516,0.09997554,-1.0145816,0.0908884,-2.5525498,-0.007543019,1.3119785,0.61747247,0.03999997,0.04,1.0144749440499368e-05,0.014595862414276684,0.005633435342311532,-0.15551503936541172,0.11975178493340957,-0.05026012720211527,0.9810400290255729,-0.15130816665802216,-0.11398246884236522,-0.04091817381910509
1993.3166666651825,0.10095821,-1.0168481,0.09178281,-2.5544817,-0.0076179192,1.3094283,0.6158128,0.039999966,0.04,0.0007529193276845092,0.014461602575330246,0.006417225734800525,-0.1550358401215013,0.11974206288628761,-0.05028835440375773,0.9806866268454212,-0.1526245425051724,-0.1151080693290077,-0.04134756736477898
1993.3333333318492,0.10194019,-1.0191131,0.092676595,-2.5564127,-0.0076927645,1.3068796,0.6141544,0.03999996,0.04,0.00021920717401258116,0.01463443269514586,0.006291334292429784,-0.15453430157204007,0.11972006282566233,-0.0503018947097039,0.9803306707355038,-0.15393600824446108,-0.11623333991172394,-0.04177669295197892
1993.3499999985158,0.10292137,-1.0213764,0.09356966,-2.5583422,-0.007767543,1.3043332,0.6124974,0.03999996,0.04,0.0009931237452409647,0.014497980386393716,0.00726665466009857,-0.15401537226300366,0.1196781126210611,-0.050309293985209676,0.9799722637316661,-0.15524249632386083,-0.11735768644066585,-0.04220548643321298
1993.3666666651825,0.10390162,-1.0236375,0.094461896,-2.56027,-0.007842244,1.3017893,0.610842,0.03999996,0.04,0.0010762577681067143,0.014466427431519824,0.0078068624250193785,-0.15347767429568132,0.11962088861308928,-0.050310568206353816,0.9796114585501321,-0.15654383119451284,-0.118481102480785,-0.042633877927819336
1993.3833333318491,0.10488082,-1.0258962,0.09535319,-2.5621953,-0.007916856,1.299248,0.60918826,0.039999958,0.04,0.002301101484358803,0.014323412363181909,0.00851486948419966,-0.1529217988927136,0.1195473059122238,-0.05030368230342275,0.9792483362075746,-0.1578399359583981,-0.11960323062601534,-0.04306179136039062
1993.3999999985158,0.10585887,-1.0281522,0.09624342,-2.5641184,-0.007991372,1.2967097,0.6075365,0.039999958,0.04,0.0015765513430743283,0.014420133581666272,0.008694620006266529,-0.15234666167072702,0.11945954282930797,-0.05028906960239297,0.9788829448750177,-0.15913059338429528,-0.12072418080713616,-0.04348915554964209
1993.4166666651824,0.106835626,-1.0304056,0.097132474,-2.566039,-0.0080657825,1.2941744,0.6058869,0.039999954,0.04,0.0019721048144516473,0.014421229955757786,0.008952721303900901,-0.15175341585725244,0.11935474175548415,-0.050267499990253,0.9785153606031113,-0.16041563868225595,-0.1218437713507712,-0.043915911842382756
1993.433333331849,0.107811,-1.0326556,0.09802024,-2.567957,-0.00814008,1.2916429,0.6042397,0.03999995,0.04,0.0022202712958163673,0.014245966999285042,0.010000239728902294,-0.1511419244601088,0.11923370727617594,-0.05023660335395133,0.9781456545678592,-0.16169491050809986,-0.12296187483528744,-0.04434198577852456
1993.4499999985158,0.10878484,-1.0349022,0.09890665,-2.5698717,-0.008214254,1.2891152,0.602595,0.03999995,0.04,0.002693756971883232,0.014212899748047847,0.010202886970589464,-0.15051320269275006,0.11909663210819484,-0.050198716817102924,0.9777738963073215,-0.1629683435004323,-0.12407825471441282,-0.04476732540312873
1993.4666666651824,0.10975705,-1.0371453,0.09979155,-2.5717833,-0.008288293,1.2865919,0.60095304,0.039999943,0.04,0.002632274887059971,0.014173290392202609,0.010817292096065856,-0.1498670149205894,0.11894356170307707,-0.05015578341701893,0.977400178256798,-0.16423571452567423,-0.12519272347557975,-0.04519185332101326
1993.483333331849,0.11072749,-1.0393839,0.10067485,-2.5736914,-0.008362197,1.2840731,0.599314,0.039999943,0.04,0.0028243095102631344,0.014058424091331623,0.01148088687149551,-0.1492030533997855,0.11877653444955638,-0.050102070962094625,0.9770245301797457,-0.16549695112234644,-0.12630539681510958,-0.045615494424950075
1993.4999999985157,0.111696064,-1.0416179,0.101556465,-2.5755963,-0.008435951,1.2815596,0.59767807,0.039999943,0.04,0.0020704623945322354,0.01403380399909171,0.011968178372046001,-0.1485219158601053,0.11859086858472903,-0.05004232335948063,0.9766470156121368,-0.16675187256603313,-0.1274162659668471,-0.04603819130562961
1993.5166666651824,0.112662636,-1.0438476,0.102436244,-2.5774965,-0.008509545,1.2790508,0.5960457,0.039999936,0.04,0.004753432399495772,0.01383075119207322,0.01222525015240894,-0.14782363057951503,0.1183884271180461,-0.0499730970489051,0.9762678079414694,-0.16800025120547446,-0.12852455377917965,-0.04645989504850733
1993.533333331849,0.11362708,-1.0460724,0.1033141,-2.579393,-0.008582971,1.2765477,0.5944168,0.039999936,0.04,0.003065946995883806,0.013879761660906542,0.012736113800992932,-0.14710873360352839,0.11817348413080975,-0.04989423690230793,0.9758869061245738,-0.16924203739837143,-0.12963061319507663,-0.04688052212298557
1993.5499999985157,0.114589326,-1.0482919,0.10418993,-2.5812848,-0.008656223,1.27405,0.5927916,0.039999932,0.04,0.0039035446105506466,0.013716670846802836,0.01311486332373768,-0.14637912968666864,0.11794015387262229,-0.04981245719133839,0.9755043806302545,-0.1704771252744824,-0.13073431940582664,-0.04730000907851167
1993.5666666651823,0.115549214,-1.0505064,0.105063625,-2.5831718,-0.008729289,1.2715586,0.59117043,0.03999993,0.04,0.004449918999882563,0.013571356170485882,0.01387202330345172,-0.14563287134656888,0.11769045125206777,-0.04972205956439481,0.9751203799766798,-0.17170533088127193,-0.13183507461495944,-0.04771830887989247
1993.583333331849,0.11650662,-1.052715,0.105935074,-2.5850544,-0.008802161,1.2690738,0.5895534,0.03999993,0.04,0.003684601090836459,0.01355403114741971,0.014256380037691585,-0.1448713319623766,0.11742707883409745,-0.049626280560744536,0.9747349204056023,-0.17292651955809735,-0.13293322708188623,-0.048135339543863606
1993.5999999985156,0.117461465,-1.0549176,0.10680418,-2.586932,-0.008874829,1.2665956,0.58794075,0.039999932,0.04,0.004336166786034212,0.01341462020383044,0.014529867562618204,-0.14409557102275117,0.1171458799670638,-0.04952489910453638,0.974348084201243,-0.17414058463201665,-0.13402859309876008,-0.04855104354546796
1993.6166666651823,0.11841363,-1.0571142,0.10767083,-2.5888042,-0.008947282,1.264124,0.5863326,0.039999932,0.04,0.004722474771434726,0.013328618591249008,0.014754861694143973,-0.14330511757838685,0.11684764888009504,-0.04941701693164682,0.9739599588239266,-0.1753473980535895,-0.13512099000918915,-0.04896536186395329
1993.633333331849,0.11936296,-1.0593042,0.108534925,-2.5906708,-0.009019519,1.2616599,0.5847292,0.03999994,0.04,0.005069554439640633,0.013094568227733916,0.015812711535567736,-0.1424993405293883,0.11653437774788254,-0.04930054391693217,0.9735706367601997,-0.17654686012233467,-0.1362101763933166,-0.049378226640754454
1993.6499999985156,0.12030937,-1.0614877,0.10939636,-2.5925324,-0.009091523,1.2592034,0.5831307,0.039999936,0.04,0.004152802362389352,0.01314991858423209,0.01576776615974662,-0.14167844861489243,0.11620532645936069,-0.0491750293801665,0.9731801735223878,-0.17773880813187617,-0.1372962625511557,-0.04978957959532736
1993.6666666651822,0.12125273,-1.0636637,0.11025503,-2.594388,-0.0091633,1.2567548,0.58153737,0.039999936,0.04,0.0050553948823139905,0.01289652957603138,0.016496617526107205,-0.14084352116433385,0.11585843341528193,-0.04904153051750131,0.9727886378588199,-0.17892314756091193,-0.13837918310242872,-0.05019935262114666
1993.6833333318489,0.122192934,-1.0658326,0.111110836,-2.596237,-0.009234827,1.2543143,0.57994926,0.039999936,0.04,0.006320649093916053,0.012628109395473874,0.017105998866095984,-0.13999416717946495,0.1154943022618774,-0.04889941069507272,0.9723961847351122,-0.18009981814224216,-0.13945822633973246,-0.050607494740450766
1993.6999999985155,0.123129904,-1.0679942,0.11196371,-2.5980797,-0.009306103,1.2518821,0.5783667,0.039999936,0.04,0.005565233989845986,0.01264020475623684,0.016954480597763943,-0.13913095144600834,0.11511695425972557,-0.048750356583675304,0.9720028488927734,-0.1812686448278552,-0.1405336778488279,-0.051013973937412235
1993.7166666651822,0.124063514,-1.0701483,0.11281349,-2.5999162,-0.009377115,1.2494587,0.5767899,0.039999936,0.04,0.005499824712651424,0.01254123190547185,0.017533023280125182,-0.13825437592709106,0.11472418178216806,-0.048594228707062245,0.9716087307835442,-0.18242948095041428,-0.1416053525910901,-0.05141870148988718
1993.7333333318488,0.124993585,-1.0722942,0.11366008,-2.6017454,-0.009447854,1.2470446,0.575219,0.039999936,0.04,0.006865058403149327,0.012145985544381732,0.018681291873035022,-0.13736520763050708,0.11431545111887464,-0.04843015638587979,0.9712139499298958,-0.18358230443774193,-0.14267277763301853,-0.051821612107085725
1993.7499999985155,0.12592007,-1.0744315,0.114503376,-2.6035676,-0.00951831,1.2446398,0.57365406,0.039999936,0.04,0.005973122243818629,0.012149730278729343,0.018605102396607176,-0.13646279482135243,0.11389468091467463,-0.04825951406061521,0.9708185141921027,-0.18472701211913176,-0.14373635731084114,-0.052222629983431045
1993.7666666651821,0.12684283,-1.0765604,0.11534335,-2.6053824,-0.009588486,1.2422446,0.5720954,0.03999994,0.04,0.006789406971230427,0.011915647751967184,0.019049790829084312,-0.13554764300319966,0.11345481198872114,-0.04808192678462013,0.9704225616858574,-0.18586347805009945,-0.14479561516131897,-0.05262175527511356
1993.7833333318488,0.1277618,-1.0786806,0.11617982,-2.6071897,-0.009658352,1.2398592,0.570543,0.039999932,0.04,0.007093952299586093,0.01176904647325061,0.01928609525940761,-0.13462062687611115,0.11300218961576383,-0.04789730362297964,0.9700261613024609,-0.18699170343513166,-0.14585042944330645,-0.053018878396689256
1993.7999999985154,0.12867683,-1.080792,0.11701273,-2.608989,-0.009727925,1.2374841,0.56899744,0.03999993,0.04,0.0072841571986170806,0.011570523541432065,0.019890852182247176,-0.13368021004054148,0.11253469440265408,-0.04770601582564959,0.9696294447731234,-0.18811139055324216,-0.14690060812383457,-0.05341400477344494
1993.816666665182,0.12958781,-1.0828938,0.11784197,-2.6107807,-0.0097971875,1.2351192,0.56745857,0.03999993,0.04,0.006673504746013137,0.011545340417346006,0.019955414319883236,-0.13272884451718883,0.1120554271666146,-0.047507031654112596,0.9692324011205578,-0.1892225893243517,-0.1479465074047528,-0.053807018633274584
1993.8333333318487,0.13049467,-1.084986,0.118667416,-2.6125646,-0.009866134,1.2327651,0.5659267,0.03999993,0.04,0.006869967455513937,0.011310565103905823,0.020545141490879715,-0.1317664700334138,0.11155611078401313,-0.04730092100563835,0.9688351305121463,-0.1903251794780347,-0.1489879401690889,-0.054197874740049674
1993.8499999985154,0.13139728,-1.0870686,0.119489,-2.6143396,-0.009934755,1.2304223,0.5644018,0.03999993,0.04,0.008453894144122565,0.010919976720719093,0.021324575893999498,-0.1307926293747309,0.11104067562407192,-0.04708779695209839,0.968437817376946,-0.1914191630556574,-0.15002402175631435,-0.054586543994922666
1993.866666665182,0.13229552,-1.089141,0.120306656,-2.6161063,-0.010003038,1.2280906,0.5628845,0.039999932,0.04,0.007418159102590138,0.010921776305250486,0.021220960098156105,-0.12980708390882187,0.11051464271941988,-0.04686803364597831,0.9680404816842942,-0.19250424596489604,-0.1510553253779079,-0.05497299137668185
1993.8833333318487,0.1331893,-1.0912032,0.12112026,-2.6178641,-0.010070976,1.2257705,0.5613748,0.039999932,0.04,0.008074613234443362,0.010687980584767054,0.021636141960446054,-0.12881185305748089,0.10997393027674213,-0.04664157579393501,0.9676432191360265,-0.1935804420782579,-0.1520815546705829,-0.05535714618577026
1993.8999999985153,0.13407856,-1.093255,0.12192969,-2.6196127,-0.010138557,1.223462,0.55987275,0.039999925,0.04,0.008726174237594364,0.010432568640672546,0.022044862157033496,-0.12780694456781055,0.10941774970111806,-0.04640796453010264,0.9672461358509407,-0.19464771849666873,-0.15310240991338528,-0.05573894907673783
1993.916666665182,0.1349632,-1.0952963,0.12273489,-2.6213522,-0.010205783,1.2211658,0.5583788,0.039999925,0.04,0.00830368988329333,0.010267307496478195,0.022474775439107475,-0.12679094574941951,0.10884791000415411,-0.046165728287787706,0.9668493307958366,-0.19570589027545715,-0.15411781979860564,-0.056118389781411704
1993.9333333318486,0.13584301,-1.0973264,0.12353576,-2.6230829,-0.010272643,1.218882,0.55689275,0.03999993,0.04,0.007712600382747681,0.010245536248948417,0.022623517839004403,-0.12576597877296058,0.10826668336171069,-0.04591691206123398,0.9664528009148896,-0.19675501134342618,-0.15512808649939622,-0.05649536170385124
1993.9499999985153,0.13671796,-1.0993451,0.124332175,-2.6248033,-0.010339114,1.2166104,0.5554147,0.039999917,0.04,0.0095694658685197,0.009769376854709688,0.02320657713414942,-0.12473122384898527,0.10766801568059953,-0.045660304856094604,0.9660566720007067,-0.1977951013217581,-0.1561327323673347,-0.05686980094518324
1993.966666665182,0.13758793,-1.1013525,0.12512408,-2.6265142,-0.010405208,1.2143521,0.55394477,0.039999902,0.04,0.008692618481820347,0.00969065845913275,0.023600728558348383,-0.12368692278866608,0.10705495528566582,-0.04540002724187039,0.9656610425631786,-0.19882607119163748,-0.15713157692601018,-0.057241696542276656
1993.9833333318486,0.13845286,-1.1033483,0.12591138,-2.628215,-0.010470919,1.2121066,0.5524838,0.039999902,0.04,0.009219372740831844,0.009525798401327501,0.02346918173491419,-0.12263262858712874,0.10643016769859741,-0.04513328512729836,0.9652660249282757,-0.19984755133019083,-0.15812471359472227,-0.057611043186867605
1993.9999999985152,0.13931261,-1.1053321,0.12669396,-2.6299062,-0.010536227,1.2098744,0.5510315,0.0399999,0.04,0.008733785353931545,0.009377521555575807,0.023932667191328694,-0.12157181219364678,0.10578960722894296,-0.04485972383694621,0.9648716449582486,-0.20085969005938545,-0.1591121498697745,-0.05797773217908278
1994.016666665182,0.1401671,-1.1073037,0.1274718,-2.6315866,-0.010601143,1.2076559,0.5495877,0.0399999,0.04,0.009931228464399311,0.00892515216070755,0.02468424013950532,-0.1205030160270566,0.10513341621386364,-0.044580173266195504,0.9644780109755293,-0.20186258651874897,-0.160093417485168,-0.05834175337240914
1994.0333333318486,0.14101629,-1.1092631,0.12824471,-2.6332572,-0.010665642,1.2054517,0.5481533,0.0399999,0.04,0.008625305019416274,0.008961658837713937,0.02473016757595925,-0.11942436218635048,0.10446519472616154,-0.04429432398835396,0.9640852259087184,-0.20285589286069258,-0.16106866819082222,-0.05870304969472619
1994.0499999985152,0.14186,-1.1112101,0.12901266,-2.634916,-0.010729725,1.2032613,0.546728,0.0399999,0.04,0.011308699845358205,0.008488323994343405,0.025010612131137755,-0.11833914828227164,0.10378294081192346,-0.04400212487641525,0.9636934346770567,-0.2038396850221369,-0.16203726195926618,-0.05906159926007412
1994.0666666651819,0.1426981,-1.1131442,0.12977564,-2.6365645,-0.010793378,1.2010856,0.54531205,0.039999895,0.04,0.009293255186992866,0.008417230449292434,0.0255536159998071,-0.11724575235250886,0.10309161033205387,-0.043702967191182315,0.9633026327097665,-0.20481391991546974,-0.16299960760041343,-0.059417370737889816
1994.0833333318485,0.14353062,-1.1150653,0.13053343,-2.6382017,-0.010856594,1.1989244,0.5439057,0.0399999,0.04,0.010376671146339334,0.008175057213202774,0.02557644741106868,-0.11614552636654298,0.10238532100683659,-0.04339886430487889,0.9629129480376735,-0.20577851160350297,-0.1639553961265333,-0.05977028312326746
1994.0999999985152,0.1443574,-1.116973,0.13128603,-2.6398284,-0.010919376,1.1967778,0.5425088,0.0399999,0.04,0.009047429124686701,0.008207830880507805,0.025433988252299145,-0.11503837649889448,0.10166611319333978,-0.04308786578649417,0.9625243224372936,-0.20673347116724083,-0.16490527981690362,-0.06012029028773404
1994.1166666651818,0.14517839,-1.1188675,0.1320334,-2.6414435,-0.0109817125,1.1946465,0.5411216,0.03999989,0.04,0.010914021206387403,0.007614673131439709,0.026350074722980565,-0.11392390989252044,0.10093014774849804,-0.042768765305961326,0.962136986757753,-0.2076788065014056,-0.16584819391554742,-0.060467417819964064
1994.1333333318485,0.14599347,-1.1207483,0.13277532,-2.6430469,-0.011043591,1.1925305,0.53974473,0.039999887,0.04,0.010678356035209724,0.007527761825337764,0.02656409537578064,-0.11280191037180883,0.10018370913083297,-0.04244364575512841,0.9617510381214629,-0.20861421491927323,-0.1667842949009505,-0.06081158590512543
1994.149999998515,0.14680254,-1.1226152,0.13351183,-2.644638,-0.011105011,1.19043,0.53837776,0.03999988,0.04,0.011297116388764294,0.007204387753467767,0.0268295815816999,-0.11167552080302137,0.0994247820586844,-0.042113229642665076,0.96136651605553,-0.20953994694707176,-0.16771336201847695,-0.06115276478729226
1994.1666666651818,0.14760551,-1.124468,0.13424279,-2.6462178,-0.011165968,1.1883456,0.5370213,0.03999987,0.04,0.010133617735941236,0.0071900460219903595,0.026982493566574117,-0.11054139523937977,0.09865624217827036,-0.04177558959903862,0.9609834915305694,-0.2104557108036851,-0.16863566979619254,-0.06149092346209541
1994.1833333318484,0.14840233,-1.1263068,0.13496815,-2.6477857,-0.011226451,1.1862766,0.5356749,0.039999865,0.04,0.010911552076287023,0.006985667189832179,0.026661662300120348,-0.1094043710883223,0.09787238826351816,-0.04143429818553729,0.960601994880529,-0.21136171265315185,-0.16955111033658532,-0.06182600455718845
1994.199999998515,0.14919291,-1.1281313,0.13568784,-2.6493413,-0.011286457,1.1842241,0.53433937,0.039999858,0.04,0.011120041814960402,0.006593060906648351,0.02766228315919106,-0.1082607682122568,0.09707404669014469,-0.04108705016502671,0.9602222159461629,-0.2122577144819885,-0.17045919505237858,-0.06215803623360871
1994.2166666651817,0.14997719,-1.1299412,0.13640176,-2.6508832,-0.011345975,1.1821879,0.53301436,0.03999985,0.04,0.013328929568068304,0.0060749775783103255,0.028067434767153898,-0.10711348679951621,0.09626656083254861,-0.0407355682179601,0.9598442626229601,-0.2131439150969025,-0.1713594018861949,-0.06248694545387815
1994.2333333318484,0.15075503,-1.1317363,0.1371098,-2.652413,-0.011405001,1.1801686,0.53170025,0.039999846,0.04,0.010836232489319642,0.006268519572041886,0.028018701421195225,-0.10595987312142299,0.09545171973667438,-0.04037956301058536,0.959468126860918,-0.21402009875635983,-0.1722523658742896,-0.06281268436414086
1994.249999998515,0.15152635,-1.1335162,0.13781194,-2.65393,-0.011463533,1.1781658,0.53039706,0.039999846,0.04,0.011365029332033316,0.006062314198840291,0.027842636346275818,-0.10480279473583991,0.09462522705400281,-0.04001890699549765,0.9590938378951597,-0.2148862852428517,-0.17313820474584576,-0.06313522458537962
1994.2666666651817,0.1522911,-1.1352808,0.13850814,-2.655434,-0.011521565,1.1761802,0.52910495,0.039999843,0.04,0.01201354972941715,0.005608364023115819,0.02865618957196281,-0.10364441056650517,0.09378037726402215,-0.03965850939519488,0.9587215485074753,-0.2157425025609366,-0.1740163260662345,-0.06345457649833312
1994.2833333318483,0.1530492,-1.1370304,0.13919829,-2.6569257,-0.011579092,1.174212,0.52782416,0.039999835,0.04,0.010742902564730983,0.005757825691132812,0.028182136875065655,-0.10247926397163526,0.092929699103403,-0.039288584515040276,0.958351277519656,-0.21658859234828814,-0.1748871329408875,-0.06377069289843552
1994.299999998515,0.15380065,-1.1387643,0.13988231,-2.6584034,-0.0116361,1.172261,0.52655464,0.039999835,0.04,0.013172022252527782,0.00503700221667347,0.029008956812182074,-0.10131191057650359,0.09206402010167355,-0.0389133247668071,0.9579831644389838,-0.21742474789237562,-0.17574992092205896,-0.06408354665043095
1994.3166666651816,0.15454532,-1.1404827,0.14056008,-2.6598678,-0.011692588,1.1703279,0.5252966,0.039999824,0.04,0.012259502699007996,0.005049587205974149,0.029105706954679622,-0.10013923350693434,0.09118971634763995,-0.03853193770243422,0.9576172970660912,-0.21825083705588275,-0.17660468393555176,-0.06439309043883544
1994.3333333318483,0.15528302,-1.1421852,0.14123169,-2.6613185,-0.011748551,1.1684124,0.52405035,0.039999817,0.04,0.012394993123887588,0.004844725882569012,0.029049835061067952,-0.09896324344693953,0.09030811007078708,-0.03814680018985979,0.957253721356888,-0.21906673732536475,-0.17745159668305596,-0.06469936924455426
1994.349999998515,0.15601377,-1.1438718,0.14189693,-2.662756,-0.011803983,1.166515,0.5228157,0.03999981,0.039999988,0.012025645723023892,0.004714560054602801,0.029202978227815812,-0.09778546203248137,0.08941564273748252,-0.037755787918443064,0.9568924689884003,-0.21987257298488344,-0.17829065755756587,-0.06500227588308909
1994.3666666651816,0.15673752,-1.1455424,0.14255576,-2.6641796,-0.01185888,1.1646358,0.5215929,0.03999981,0.039999977,0.012697774490066926,0.0043936822484269555,0.029508420005686098,-0.09660523024904287,0.08851095849563725,-0.03736191005045533,0.9565336693679393,-0.2206682980075856,-0.1791215079063307,-0.0653018148699075
1994.3833333318482,0.1574542,-1.1471968,0.14320818,-2.6655896,-0.011913238,1.1627749,0.520382,0.039999813,0.039999984,0.012248022132310687,0.00425011070042669,0.029499702070012734,-0.09542354882886142,0.0875977530538651,-0.03696633663990079,0.9561773344639959,-0.22145394484490144,-0.17994432513517586,-0.06559798184094867
1994.3999999985149,0.15816371,-1.1488342,0.1438541,-2.6669855,-0.011967052,1.1609327,0.51918316,0.039999813,0.039999984,0.012572140169719859,0.003915241935359415,0.030015169167518785,-0.09423955035646056,0.08667214540610463,-0.036565365793183605,0.9558235296823895,-0.2222294713078887,-0.18075910084130314,-0.06589074025049438
1994.4166666651815,0.158866,-1.150455,0.14449345,-2.668367,-0.012020314,1.1591092,0.5179965,0.039999813,0.039999977,0.013357023737059492,0.003616705158909772,0.03024860062827983,-0.09305306862289234,0.08573708189887022,-0.036159265801570493,0.9554723894776972,-0.22299490589686188,-0.18156536605502419,-0.06618007811369446
1994.4333333318482,0.15956105,-1.1520591,0.14512616,-2.6697335,-0.01207302,1.1573045,0.51682216,0.03999981,0.03999997,0.013679575722580495,0.003403633100138026,0.03016567151770122,-0.09186468203405129,0.08479421951038725,-0.03574971738471849,0.9551239846063012,-0.22375022304272124,-0.1823630554149757,-0.0664659893316062
1994.4499999985148,0.16024877,-1.1536463,0.14575219,-2.6710856,-0.012125169,1.1555189,0.5156602,0.0399998,0.039999958,0.01329906259637248,0.003269695180158072,0.030315626391619332,-0.09067489362084594,0.08384396145484697,-0.035337187116316025,0.95477836842529,-0.2244954230690478,-0.18315216854205674,-0.06674844842041398
1994.4666666651815,0.16092907,-1.1552165,0.1463715,-2.6724236,-0.012176752,1.1537526,0.5145107,0.039999798,0.039999947,0.012471324095431058,0.0031968262568876638,0.03034227239112619,-0.0894836297460684,0.08288644564558814,-0.034920126493887364,0.9544355334648668,-0.22523052390145584,-0.18393299957096385,-0.06702742148955775
1994.4833333318481,0.1616019,-1.1567692,0.14698401,-2.6737473,-0.012227767,1.1520054,0.5133738,0.0399998,0.03999995,0.012685026482617268,0.0030006219884304297,0.030332067751093206,-0.08829181606569325,0.08191773905934678,-0.03450058124511279,0.9540955366818182,-0.22595545939074535,-0.18470559841379386,-0.06730289124512263
1994.4999999985148,0.16226727,-1.1583047,0.1475897,-2.6750562,-0.012278209,1.150278,0.51224965,0.0399998,0.039999947,0.013464565402232509,0.0026114015368117194,0.030738385724260464,-0.08710003309847339,0.08093719445172874,-0.03407675567542437,0.9537585267194771,-0.22667028432521566,-0.1854693762594178,-0.06757488722713953
1994.5166666651814,0.16292503,-1.1598228,0.14818849,-2.6763499,-0.012328076,1.1485701,0.5111384,0.039999805,0.039999958,0.01400244464517808,0.0023901249798841118,0.03083159081390674,-0.08590803901444194,0.0799494122830921,-0.03365068918448148,0.9534245768028016,-0.2273749598466811,-0.18622427339600872,-0.06784337831540824
1994.533333331848,0.16357513,-1.1613234,0.14878033,-2.677629,-0.012377361,1.1468817,0.51003987,0.039999805,0.03999995,0.012956197997260332,0.002446040519307746,0.030506809486874342,-0.0847150412217442,0.07895731579196698,-0.033219309100637646,0.953093647235886,-0.2280695351183827,-0.18697070436789623,-0.06810831415953558
1994.5499999985147,0.16421759,-1.1628062,0.14936525,-2.6788929,-0.0124260625,1.1452134,0.50895435,0.039999805,0.039999947,0.013778853817325576,0.001928827045333259,0.031163443297149707,-0.08352271283071344,0.07795339088257404,-0.03278514297648221,0.9527658534570467,-0.22875405725579726,-0.18770825060333846,-0.0683697479204888
1994.5666666651814,0.16485229,-1.1642712,0.14994301,-2.6801417,-0.0124741765,1.1435652,0.50788176,0.03999981,0.039999947,0.013567232537625706,0.0019551673628853683,0.0310433143029476,-0.0823303433594609,0.07694202997880809,-0.03234757299388437,0.9524412631364969,-0.22942852559141166,-0.18843685663366058,-0.06862756721559052
1994.583333331848,0.16547923,-1.165719,0.15051372,-2.6813753,-0.012521696,1.1419371,0.5068223,0.0399998,0.039999932,0.014042981131745513,0.001672153630086215,0.030934419798234192,-0.08113809047281947,0.07592527979656227,-0.03190783520920552,0.9521199769418712,-0.23009293809159498,-0.1891562269454286,-0.06888186376948073
1994.5999999985147,0.16609833,-1.167148,0.15107735,-2.6825936,-0.012568622,1.1403295,0.5057761,0.039999798,0.039999932,0.013332970013246737,0.0014297875956192918,0.0314750033276745,-0.07994670410544255,0.07490312687450132,-0.03146634167399669,0.9518019238946016,-0.2307472779090323,-0.1898669977253152,-0.06913258698242061
1994.6166666651814,0.16670959,-1.168558,0.15163383,-2.6837962,-0.012614949,1.1387423,0.5047433,0.03999979,0.039999913,0.01393304285606245,0.0011045894881767104,0.03169551769549028,-0.07875609736291678,0.07387072903621816,-0.031019165950410786,0.951487180931915,-0.23139161310137948,-0.19056893250487805,-0.06937973675742831
1994.633333331848,0.16731298,-1.1699511,0.1521831,-2.684983,-0.012660671,1.1371757,0.5037237,0.039999783,0.0399999,0.014844403920077909,0.001063603219597642,0.03105435144969415,-0.07756644261959761,0.072831442410345,-0.03057001040100587,0.9511759744427222,-0.232026007647597,-0.1912610457162299,-0.06962334241897204
1994.6499999985147,0.16790837,-1.1713259,0.15272518,-2.6861541,-0.012705792,1.1356293,0.50271755,0.03999978,0.039999895,0.014235007030527491,0.0009281897173613052,0.031153502361724872,-0.0763781231606451,0.07178982944889928,-0.03012082797942463,0.9508682262242675,-0.23265035963892233,-0.19194409149926087,-0.06986338279470007
1994.6666666651813,0.16849577,-1.1726818,0.15325998,-2.6873097,-0.012750304,1.1341037,0.5017249,0.03999978,0.03999989,0.01359155336617679,0.0007255012776541392,0.03154463281420106,-0.07519183312213762,0.07074266100399497,-0.0296691783175584,0.9505639152848078,-0.2332647627794435,-0.1926183009371143,-0.07009981132618032
1994.683333331848,0.1690752,-1.1740193,0.15378743,-2.6884496,-0.012794205,1.1325996,0.50074583,0.039999787,0.0399999,0.01419062882181965,0.000384149997861849,0.03204428007436699,-0.0740071218936359,0.06968809777196,-0.02921463291506819,0.9502632357352965,-0.2338692774383902,-0.1932828526939428,-0.07033265766925804
1994.6999999985146,0.16964649,-1.1753383,0.15430753,-2.6895738,-0.012837495,1.1311154,0.49978036,0.039999794,0.039999902,0.014054307804745036,0.0005999635074249721,0.030727553331977298,-0.07282419136521154,0.06862980918584091,-0.028758861865751835,0.9499660750540742,-0.23446378315309147,-0.1939386855309996,-0.07056186569532588
1994.7166666651813,0.17020977,-1.1766385,0.15482032,-2.6906817,-0.012880173,1.1296536,0.4988286,0.03999981,0.03999992,0.01466793467226335,-0.00023798982702050164,0.03270671380463663,-0.07164465656020476,0.06756205423643379,-0.02830113354286918,0.9496726797591467,-0.23504853612825818,-0.19458445117302048,-0.07078755783849684
1994.733333331848,0.17076488,-1.1779199,0.15532571,-2.6917737,-0.012922233,1.1282115,0.49789047,0.03999982,0.039999943,0.014257626137914592,0.00023826172664831446,0.030613448607508253,-0.07046691224285273,0.06649534627384641,-0.027844003118503338,0.9493828548310534,-0.23562337571415415,-0.1952215544072436,-0.0710096082563837
1994.7499999985146,0.17131184,-1.1791825,0.15582368,-2.6928499,-0.012963671,1.1267912,0.4969662,0.03999982,0.03999994,0.0139983412341671,-0.00022479364270022728,0.03199611419693049,-0.06929178325161268,0.06541814824607517,-0.027382017358728316,0.9490968110628921,-0.23618837954431843,-0.19584905571428957,-0.07122808416838756
1994.7666666651812,0.17185064,-1.1804264,0.15631418,-2.69391,-0.013004486,1.1253921,0.49605572,0.039999835,0.03999996,0.0145798073484249,-0.0003681775395059095,0.03156436275133512,-0.06812016861989019,0.06433953827733932,-0.026921063122778744,0.9488145371864524,-0.2367436246444056,-0.1964671330551484,-0.07144295516688534
1994.7833333318479,0.17238122,-1.1816514,0.15679729,-2.6949542,-0.01304468,1.1240141,0.49515912,0.039999843,0.039999977,0.013919952458696372,-0.0004137992084735087,0.03138679431687885,-0.06695098060620261,0.06325697858003732,-0.02645783167802869,0.9485360424121552,-0.23728907990587275,-0.19707596082097006,-0.07165427041706732
1994.7999999985145,0.17290358,-1.1828574,0.15727283,-2.695982,-0.013084252,1.1226573,0.49427637,0.03999985,0.04,0.014838370132608247,-0.0006770494457825071,0.03152935042749494,-0.06578653711344633,0.06216738748467551,-0.025994123947322385,0.9482613998889785,-0.2378248311667948,-0.19767530452811483,-0.07186195892680235
1994.8166666651812,0.1734177,-1.1840445,0.1577409,-2.696994,-0.013123196,1.1213222,0.49340755,0.039999854,0.04,0.013855609664803481,-0.0007684685760733778,0.03162976271697815,-0.06462415481469413,0.061075928401224104,-0.02552751724860167,0.947990625057395,-0.2383509085010258,-0.1982652238940825,-0.07206608227352591
1994.8333333318478,0.17392355,-1.1852123,0.15820146,-2.6979887,-0.013161511,1.1200086,0.4925526,0.039999854,0.04,0.01595558161093802,-0.0013629709362888986,0.03218974248218598,-0.06346490281958474,0.059981657733097604,-0.025058841601627635,0.9477238423799991,-0.23886745881623028,-0.19884513763371625,-0.07226663782545492
1994.8499999985145,0.17442112,-1.1863611,0.15865447,-2.6989675,-0.0131991925,1.1187165,0.49171174,0.03999985,0.039999984,0.014159429989302197,-0.0010370727076602915,0.03137275181781529,-0.06230753021001499,0.05888919545321551,-0.02458858904879308,0.9474610029416324,-0.23937435159184842,-0.19941562342995545,-0.07246362423216471
1994.8666666651811,0.1749104,-1.1874906,0.15909992,-2.6999304,-0.013236247,1.117446,0.49088487,0.03999985,0.03999998,0.013678202104161485,-0.001132139477166838,0.03138879722017207,-0.06115525714492077,0.05779362350626098,-0.024118852604779188,0.9472020751868243,-0.23987166934858956,-0.19997691653773422,-0.07265702896316668
1994.8833333318478,0.17539133,-1.1886011,0.1595378,-2.7008765,-0.013272671,1.1161968,0.490072,0.039999854,0.039999977,0.015431520669695331,-0.0015342316952632329,0.031485487389193434,-0.06000758959195471,0.05669183410633369,-0.023647572366039676,0.9469472100895269,-0.24035948540211108,-0.2005283793552242,-0.07284688156716708
1994.8999999985144,0.17586397,-1.1896925,0.15996814,-2.7018068,-0.013308462,1.1149693,0.48927325,0.039999858,0.03999998,0.013709411597551124,-0.0014178439498468975,0.031287204691232695,-0.05886476192084001,0.05559060855568867,-0.02317750136621279,0.9466963356568329,-0.24083779308935477,-0.2010705321868184,-0.07303318807147802
1994.916666665181,0.17632829,-1.1907647,0.16039088,-2.7027204,-0.013343623,1.1137632,0.48848858,0.03999987,0.04,0.014989265378506644,-0.0017674719651861182,0.03138525002408521,-0.05772758974150967,0.05448578389062506,-0.022708490983524388,0.9464495394919069,-0.24130667619540386,-0.2016030263976195,-0.07321596114512428
1994.9333333318477,0.17678426,-1.1918176,0.16080604,-2.7036173,-0.013378152,1.112579,0.487718,0.039999884,0.04,0.014977878043631598,-0.001954106688412116,0.03158954710768547,-0.05659613215108571,0.05337888675748436,-0.02224053165414594,0.9462068731688571,-0.24176621125483289,-0.20212569069259512,-0.07339521391439265
1994.9499999985144,0.1772319,-1.1928511,0.16121365,-2.7044983,-0.013412045,1.1114163,0.48696136,0.03999989,0.04,0.013853607666436396,-0.001850597522023989,0.031141105397619606,-0.05546875826038564,0.05227399739060216,-0.021771641923632016,0.9459682232118294,-0.2422164445805755,-0.20263916961654602,-0.07357092894150842
1994.966666665181,0.17767121,-1.1938654,0.16161361,-2.7053626,-0.013445307,1.1102755,0.48621896,0.0399999,0.04,0.015010293372652583,-0.002186242352453238,0.03140305135754251,-0.05434551549011511,0.05116501769310104,-0.02130020845614223,0.9457337738847426,-0.24265737010152158,-0.2031427548101984,-0.07374314095059543
1994.9833333318477,0.1781022,-1.1948605,0.16200607,-2.7062104,-0.013477923,1.1091561,0.4854905,0.039999902,0.04,0.014572787743127869,-0.0022331290511518054,0.03100359991322077,-0.05322729940177063,0.05006013513609735,-0.020829195545794984,0.9455034284806518,-0.2430891366926675,-0.20363686719252833,-0.07391187099078812
1994.9999999985143,0.17852484,-1.1958365,0.16239092,-2.7070422,-0.013509907,1.1080582,0.48477617,0.039999902,0.04,0.014075494026122293,-0.002140882325418758,0.0306692707709999,-0.05211480242206695,0.048953547601479845,-0.0203589990370833,0.9452772307049913,-0.24351165883792147,-0.20412155861108547,-0.0740771113832585
1995.016666665181,0.17893913,-1.1967932,0.16276817,-2.707857,-0.013541264,1.1069821,0.4840759,0.039999906,0.04,0.015471268282696293,-0.0026994428528243075,0.031448438330672346,-0.05100859908605522,0.04784619025397897,-0.019888385533113437,0.9450552768489334,-0.24392511499362018,-0.20459630827993347,-0.07423888882221713
1995.0333333318476,0.17934516,-1.1977307,0.16313787,-2.7086558,-0.0135719925,1.1059276,0.48338968,0.039999906,0.04,0.013636072837086566,-0.0023718343380330076,0.030574871092176048,-0.04990783552610535,0.046743448085426645,-0.019420081848107496,0.9448374475479576,-0.24432950056310643,-0.20506181471783796,-0.0743972110382527
1995.0499999985143,0.17974289,-1.1986488,0.16350003,-2.7094386,-0.013602094,1.1048945,0.48271748,0.03999991,0.04,0.014219856291863842,-0.0025987939850091735,0.030622262519508503,-0.04881357169394303,0.04563839990911421,-0.01895127303564663,0.9446237815924795,-0.24472487097534196,-0.20551796370876776,-0.07455209835428774
1995.066666665181,0.18013237,-1.199548,0.16385464,-2.7102048,-0.013631569,1.1038831,0.4820593,0.03999991,0.04,0.014674240563272711,-0.0028285068480654596,0.030731614485041137,-0.047725852369252045,0.04453307007017654,-0.018483376030521373,0.9444143652114178,-0.2451113371494444,-0.20596434863040497,-0.07470358944775841
1995.0833333318476,0.18051352,-1.2004281,0.1642017,-2.7109547,-0.01366042,1.1028929,0.4814151,0.03999991,0.04,0.014621128873826272,-0.0027769097538182796,0.030238445259733737,-0.04664446665976996,0.04343192262111006,-0.018017044190179077,0.9442091600784366,-0.2454888697532106,-0.20640132368532121,-0.07485165617547662
1995.0999999985142,0.18088643,-1.2012893,0.16454127,-2.711688,-0.013688637,1.1019242,0.48078483,0.03999991,0.04,0.014651950782451628,-0.0030382411091239847,0.030494729118768493,-0.045570295358760185,0.0423309047149732,-0.01755113087042961,0.9440082146402835,-0.24585761736025777,-0.20682859740117118,-0.07499635974276157
1995.116666665181,0.18125114,-1.2021315,0.16487335,-2.712406,-0.013716232,1.1009771,0.48016846,0.039999913,0.04,0.013367250225115868,-0.0028420458728417586,0.030072702892802727,-0.04450250196550208,0.04123571756404615,-0.01708732472673,0.9438114499129037,-0.24621759826941023,-0.20724663765690857,-0.07513769024698586
