rsonawane2002/My_IMU/logs_incomplete/traj_431/imu_431.csv
time,j1,j2,j3,j4,j5,j6,j7,gripper1,gripper2,imu_ax,imu_ay,imu_az,imu_gx,imu_gy,imu_gz
1990.0333333318522,0.00016700293,-0.785875,4.0107683e-05,-2.3551247,9.29385e-05,1.570997,0.786,0.04,0.04,-9.494315,0.012329349294304848,0.11622874,2.6179342e-07,-0.0011641276068985462,1.2607693e-07
1990.0499999985188,0.00016700872,-0.78576016,4.0117484e-05,-2.3552213,9.297374e-05,1.5709941,0.786,0.04,0.04,-9.834325,0.0006485542398877442,0.009117091,-6.7582215e-07,-0.0022378864232450724,8.583358e-07
1990.0666666651855,0.00016703512,-0.7856543,4.0146784e-05,-2.35531,9.30043e-05,1.5709913,0.786,0.04,0.04,-9.832351,0.0006853510276414454,0.0075332075,-5.050289e-06,-0.0032245751935988665,3.7159313e-07
1990.0833333318521,0.00016711734,-0.78555703,4.022864e-05,-2.355391,9.3027425e-05,1.5709884,0.786,0.04,0.04,-9.830625,0.0007698344998061657,0.006004848,-1.67694e-05,-0.004127280320972204,-1.6690739e-06
1990.0999999985188,0.00016730679,-0.78546774,4.041064e-05,-2.3554654,9.303904e-05,1.5709856,0.786,0.04,0.04,-9.828689,0.0008888749871402979,0.0046608555,-3.899328e-05,-0.004948740359395742,-5.917643e-06
1990.1166666651854,0.00016766938,-0.7853861,4.0753253e-05,-2.355533,9.303593e-05,1.5709826,0.786,0.04,0.04,-9.827148,0.0010439414763823152,0.0032636942,-7.500279e-05,-0.005692311096936464,-1.2972944e-05
1990.133333331852,0.00016828402,-0.7853116,4.1328807e-05,-2.3555982,9.301029e-05,1.5709796,0.7859981,0.04,0.04,-9.825325,0.0012214959133416414,0.0020222035,-0.00012766331,-0.006357099860906601,-2.3371784e-05
1990.1499999985188,0.00016924125,-0.7852441,4.2220043e-05,-2.3556573,9.295786e-05,1.5709764,0.7859962,0.04,0.04,-9.824385,0.001432198565453291,0.0007158164,-0.00019121326,-0.006964586675167084,-3.7562986e-05
1990.1666666651854,0.00017064183,-0.7851832,4.3518834e-05,-2.3557146,9.2878996e-05,1.5709697,0.7859943,0.04,0.039999995,-9.82266,0.001657653832808137,-0.0004620594,-0.0002767712,-0.007494665216654539,-5.5244647e-05
1990.183333331852,0.00017259599,-0.7851287,4.5325756e-05,-2.355766,9.2756105e-05,1.5709629,0.7859905,0.04,0.039999995,-9.821804,0.001905322540551424,-0.0016366667,-0.0003873973,-0.007982732728123665,-7.833417e-05
1990.1999999985187,0.00017522195,-0.7850805,4.7748385e-05,-2.3558166,9.257962e-05,1.5709558,0.78598666,0.04,0.039999995,-9.820202,0.0021489521022886038,-0.002795326,-0.0005161738,-0.008394617587327957,-0.00010638686
1990.2166666651854,0.00017864532,-0.7850385,5.0901046e-05,-2.3558662,9.233116e-05,1.5709451,0.78598094,0.04,0.04,-9.819333,0.0024323253892362118,-0.003994846,-0.00067448174,-0.00875134114176035,-0.00014044026
1990.233333331852,0.0001829976,-0.78500265,5.4903325e-05,-2.3559127,9.2019516e-05,1.5709335,0.7859733,0.04,0.039999995,-9.818369,0.0027037402614951134,-0.005042172,-0.0008557683,-0.00906434841454029,-0.00017843327
1990.2499999985187,0.00018841616,-0.7849729,5.9880233e-05,-2.355957,9.163492e-05,1.5709188,0.7859638,0.04,0.03999999,-9.817217,0.0030044475570321083,-0.0062301094,-0.0010619224,-0.009312828071415424,-0.00022222938
1990.2666666651853,0.00019504325,-0.7849495,6.596093e-05,-2.356001,9.115599e-05,1.5709006,0.7859523,0.04,0.03999999,-9.81607,0.0032675808761268854,-0.007267791,-0.0012950351,-0.009506665170192719,-0.00027276875
1990.283333331852,0.00020302492,-0.78493226,7.3278476e-05,-2.3560452,9.055308e-05,1.5708785,0.785939,0.04,0.04,-9.815224,0.0035678918939083815,-0.008374725,-0.0015565689,-0.009654217399656773,-0.00033094082
1990.2999999985186,0.00021251051,-0.7849212,8.196834e-05,-2.3560913,8.983631e-05,1.5708526,0.78592277,0.04,0.04,-9.814405,0.0038415815215557814,-0.009407533,-0.0018490434,-0.00975909736007452,-0.0003937491
1990.3166666651853,0.00022365247,-0.7849169,9.216914e-05,-2.3561397,8.899218e-05,1.5708227,0.7859037,0.04,0.04,-9.813764,0.00412104744464159,-0.010524145,-0.002169148,-0.009825154207646847,-0.00046294247
1990.333333331852,0.00023660556,-0.7849191,0.000104021405,-2.3561897,8.800974e-05,1.5707884,0.7858816,0.04,0.04,-9.813206,0.004423054400831461,-0.011683712,-0.002518743,-0.009853798896074295,-0.00053861964
1990.3499999985186,0.000251526,-0.7849281,0.00011766721,-2.3562403,8.689681e-05,1.570749,0.7858561,0.04,0.03999999,-9.812453,0.004674209281802177,-0.012794841,-0.0028982745,-0.009839273057878017,-0.000619344
1990.3666666651852,0.00026857233,-0.7849439,0.00013325053,-2.3562918,8.5602616e-05,1.5707036,0.785827,0.039999995,0.039999995,-9.811594,0.004944344516843557,-0.013996504,-0.0033083952,-0.00977836549282074,-0.0007098375
1990.3833333318519,0.00028790304,-0.78496706,0.00015091547,-2.3563495,8.412452e-05,1.5706528,0.78579396,0.03999999,0.039999995,-9.81077,0.005153552163392305,-0.015109075,-0.0037483661,-0.00967614259570837,-0.0008061488
1990.3999999985185,0.00030967782,-0.7849975,0.00017080708,-2.3564084,8.245049e-05,1.5705955,0.7857569,0.039999988,0.04,-9.810524,0.005417808890342712,-0.016374717,-0.0042190687,-0.00954742357134819,-0.0009100108
1990.4166666651852,0.00033405644,-0.78503567,0.00019307056,-2.3564732,8.0578284e-05,1.5705314,0.7857156,0.039999984,0.039999995,-9.809685,0.005596874747425318,-0.017550958,-0.0047205063,-0.009375602938234806,-0.0010189018
1990.4333333318518,0.00036119853,-0.7850815,0.00021785097,-2.3565397,7.849492e-05,1.5704602,0.78566957,0.03999998,0.03999999,-9.809359,0.005837214179337025,-0.018893873,-0.0052534887,-0.009177668951451778,-0.0011345241
1990.4499999985185,0.00039126366,-0.78513545,0.00024529325,-2.3566132,7.61879e-05,1.5703814,0.78561854,0.039999977,0.03999999,-9.808539,0.005955240223556757,-0.020159584,-0.005816867,-0.008935939520597458,-0.0012577357
1990.4666666651851,0.00042441077,-0.7851979,0.00027554194,-2.3566895,7.3645744e-05,1.5702947,0.78556234,0.039999973,0.039999988,-9.808304,0.006162287201732397,-0.021600487,-0.0064103026,-0.008672929368913174,-0.0013868083
1990.4833333318518,0.00046079795,-0.78526884,0.00030874068,-2.3567712,7.0856004e-05,1.5701998,0.7855007,0.03999997,0.039999984,-9.807514,0.006236431188881397,-0.022928726,-0.0070339707,-0.00836720410734415,-0.0015225704
1990.4999999985184,0.00050058216,-0.7853487,0.00034503208,-2.3568602,6.780656e-05,1.570096,0.7854333,0.039999966,0.03999998,-9.807029,0.006396417506039143,-0.024483677,-0.0076880325,-0.008030639961361885,-0.0016649944
1990.516666665185,0.0005439193,-0.7854377,0.0003845579,-2.3569565,6.4484935e-05,1.569983,0.78535986,0.03999996,0.03999998,-9.806777,0.006406854838132858,-0.025915314,-0.008371519,-0.007672110106796026,-0.0018149047
1990.5333333318517,0.00059096364,-0.78553617,0.00042745823,-2.3570597,6.0880335e-05,1.5698602,0.7852803,0.039999958,0.039999977,-9.806473,0.006520282477140427,-0.027603474,-0.009084558,-0.007290290668606758,-0.0019705317
1990.5499999985184,0.00064186816,-0.78564435,0.00047387226,-2.3571658,5.6980367e-05,1.5697275,0.78519404,0.039999954,0.039999973,-9.806113,0.006470434367656708,-0.029174395,-0.009827243,-0.006883023306727409,-0.002132695
1990.566666665185,0.00069678394,-0.7857624,0.0005239372,-2.3572795,5.277316e-05,1.5695846,0.78510106,0.03999995,0.039999973,-9.8051815,0.006450431887060404,-0.030906733,-0.010597763,-0.006429984699934721,-0.002302167
1990.5833333318517,0.0007558605,-0.7858908,0.00057778903,-2.3574011,4.824824e-05,1.5694308,0.7850011,0.039999947,0.03999997,-9.804828,0.006474979221820831,-0.03280059,-0.011396993,-0.005953381769359112,-0.0024771846
1990.5999999985183,0.00081924483,-0.7860299,0.00063556153,-2.357531,4.339358e-05,1.5692658,0.7848939,0.039999943,0.039999966,-9.804506,0.006325828842818737,-0.034543358,-0.012224726,-0.005452578887343407,-0.0026585406
1990.616666665185,0.0008870822,-0.7861799,0.0006973867,-2.3576708,3.8197613e-05,1.5690894,0.7847791,0.039999936,0.03999996,-9.804126,0.006277396809309721,-0.036583994,-0.0130796395,-0.004928290378302336,-0.0028470287
1990.6333333318516,0.0009595157,-0.78634095,0.0007633947,-2.3578203,3.265017e-05,1.5689007,0.78465647,0.03999993,0.039999954,-9.804008,0.006055061239749193,-0.03849326,-0.013961763,-0.004386272747069597,-0.0030408725
1990.6499999985183,0.0010366861,-0.7865135,0.00083371357,-2.3579783,2.6739674e-05,1.5686998,0.7845259,0.039999917,0.039999947,-9.803777,0.005942121613770723,-0.04073703,-0.014870031,-0.003828571178019047,-0.0032417045
1990.666666665185,0.001118732,-0.7866975,0.00090846897,-2.3581448,2.0456337e-05,1.5684868,0.78438705,0.039999906,0.039999936,-9.803451,0.005632217973470688,-0.042852227,-0.015804723,-0.0032465350814163685,-0.0034477313
1990.6833333318516,0.0012057894,-0.78689367,0.0009877848,-2.3583195,1.3788975e-05,1.5682603,0.7842399,0.039999902,0.039999932,-9.802981,0.005451975855976343,-0.045320217,-0.016765043,-0.002637999365106225,-0.003659791
1990.6999999985183,0.0012979913,-0.78710186,0.0010717828,-2.3585043,6.727599e-06,1.5680205,0.7840839,0.0399999,0.039999932,-9.80256,0.005053768400102854,-0.047571346,-0.017751014,-0.0020044445991516113,-0.0038784193
1990.716666665185,0.001395469,-0.7873227,0.0011605814,-2.3587008,-7.376327e-07,1.5677673,0.78391904,0.039999895,0.03999993,-9.802248,0.004794151056557894,-0.050221924,-0.018760942,-0.0013524650130420923,-0.004102075
1990.7333333318516,0.0014983506,-0.78755635,0.0012542974,-2.358906,-8.617393e-06,1.5674998,0.7837451,0.03999989,0.03999993,-9.802152,0.004314148798584938,-0.05270628,-0.01979511,-0.0006842198199592531,-0.0043323147
1990.7499999985182,0.0016067626,-0.787803,0.0013530459,-2.359122,-1.692036e-05,1.5672178,0.7835619,0.03999989,0.03999993,-9.801654,0.003967560827732086,-0.055539582,-0.020852942,7.1074473453336395e-06,-0.004567318
1990.7666666651849,0.0017208273,-0.7880629,0.0014569383,-2.3593497,-2.5657017e-05,1.5669214,0.78336906,0.03999989,0.039999932,-9.801423,0.0033892272040247917,-0.0582401,-0.021934144,0.0007175708888098598,-0.004808701
1990.7833333318515,0.001840665,-0.78833634,0.0015660834,-2.359588,-3.4835495e-05,1.56661,0.78316647,0.03999989,0.039999932,-9.801197,0.0029627839103341103,-0.0613186,-0.023037588,0.0014419443905353546,-0.0050547053
1990.7999999985182,0.0019663938,-0.78862375,0.0016805895,-2.3598375,-4.4466113e-05,1.5662833,0.7829539,0.03999989,0.039999936,-9.800889,0.002285280264914036,-0.06423665,-0.024162441,0.0021876145619899035,-0.0053069205
1990.8166666651848,0.0020981282,-0.78892493,0.0018005603,-2.3600988,-5.45565e-05,1.5659413,0.78273124,0.03999989,0.039999936,-9.800629,0.0016746493056416512,-0.067398116,-0.025308663,0.0029504529666155577,-0.005563553
1990.8333333318515,0.0022359805,-0.7892406,0.0019260977,-2.3603718,-6.511634e-05,1.5655832,0.7824982,0.03999989,0.03999994,-9.80032,0.0011038007214665413,-0.07085137,-0.02647564,0.0037294989451766014,-0.005826217
1990.8499999985181,0.0023800603,-0.7895708,0.0020573016,-2.3606575,-7.615316e-05,1.565209,0.7822547,0.039999895,0.039999943,-9.80009,0.0002875886857509613,-0.07411531,-0.027662521,0.004525839351117611,-0.006093131
1990.8666666651848,0.0025304726,-0.78991574,0.0021942684,-2.3609548,-8.767599e-05,1.5648181,0.78200054,0.0399999,0.03999995,-9.79981,-0.00037985388189554214,-0.07779608,-0.028868977,0.005335777997970581,-0.0063659116
1990.8833333318514,0.002687322,-0.79027563,0.0023370918,-2.3612645,-9.969189e-05,1.5644108,0.7817355,0.039999902,0.039999954,-9.799588,-0.0012996233999729156,-0.08131339,-0.030094702,0.00616118311882019,-0.006642736
1990.899999998518,0.002850708,-0.7906509,0.0024858639,-2.3615878,-0.000112209476,1.5639864,0.7814594,0.039999906,0.03999996,-9.799218,-0.0020614955574274063,-0.08527087,-0.031338535,0.0070040118880569935,-0.006925241
1990.9166666651847,0.0030207294,-0.7910415,0.0026406737,-2.3619237,-0.000125236,1.5635449,0.78117204,0.039999902,0.039999958,-9.799149,-0.003084210678935051,-0.08903739,-0.03259988,0.007857364602386951,-0.0072117243
1990.9333333318514,0.0031974819,-0.7914477,0.0028016076,-2.3622725,-0.00013877859,1.5630858,0.78087336,0.039999902,0.03999996,-9.798814,-0.003945685923099518,-0.09327303,-0.03387816,0.008724749088287354,-0.0075035514
1990.949999998518,0.0033810562,-0.7918699,0.0029687497,-2.362635,-0.00015284456,1.5626092,0.78056324,0.039999902,0.039999966,-9.798622,-0.005077563226222992,-0.097328566,-0.035173025,0.009605717845261097,-0.007800023
1990.9666666651847,0.003571541,-0.792308,0.003142182,-2.3630106,-0.00016744046,1.5621146,0.78024143,0.039999906,0.03999997,-9.79829,-0.006037946790456772,-0.101822205,-0.03648383,0.010500962845981121,-0.008100097
1990.9833333318513,0.0037690238,-0.7927622,0.0033219808,-2.3634002,-0.0001825735,1.5616019,0.7799078,0.039999906,0.039999973,-9.798126,-0.0072840116918087006,-0.10616611,-0.037810307,0.011408358812332153,-0.008405402
1990.999999998518,0.003973589,-0.7932328,0.003508224,-2.3638039,-0.0001982495,1.5610707,0.77956223,0.03999991,0.039999977,-9.797839,-0.008339401334524155,-0.110966995,-0.039150987,0.012326237745583057,-0.00871416
1991.0166666651846,0.004185315,-0.79372,0.003700984,-2.364221,-0.00021447522,1.5605209,0.77920455,0.039999917,0.039999988,-9.7977085,-0.009697578847408295,-0.115596205,-0.040505826,0.013254350982606411,-0.009027985
1991.0333333318513,0.0044042817,-0.794224,0.0039003317,-2.3646522,-0.00023125653,1.5599524,0.7788345,0.039999925,0.04,-9.797316,-0.010865306481719017,-0.12068426,-0.041873947,0.014195768162608147,-0.009345922
1991.049999998518,0.004630563,-0.7947451,0.0041063353,-2.365098,-0.00024859858,1.559365,0.7784524,0.03999993,0.04,-9.797142,-0.012325160205364227,-0.12560081,-0.04325445,0.015148880891501904,-0.009667013
1991.0666666651846,0.0048642303,-0.7952831,0.004319064,-2.3655581,-0.00026650785,1.5587586,0.77805775,0.039999925,0.04,-9.796893,-0.013726959004998207,-0.13082194,-0.04464813,0.01611337624490261,-0.009992901
1991.0833333318512,0.005105356,-0.79583824,0.004538575,-2.3660328,-0.000284989,1.5581329,0.7776504,0.039999925,0.04,-9.796583,-0.015052961185574532,-0.13638656,-0.046053216,0.017086656764149666,-0.010321786
1991.099999998518,0.0053540035,-0.796411,0.0047649313,-2.3665223,-0.00030404757,1.5574874,0.77723044,0.03999993,0.04,-9.79644,-0.016687631607055664,-0.14176294,-0.04746891,0.018068810924887657,-0.010655321
1991.1166666651845,0.0056102374,-0.79700124,0.0049981927,-2.3670266,-0.00032368838,1.5568225,0.7767977,0.03999993,0.04,-9.796044,-0.018129585310816765,-0.14761284,-0.04889509,0.019061721861362457,-0.010992503
1991.1333333318512,0.005874118,-0.7976094,0.005238413,-2.3675458,-0.00034391572,1.5561376,0.7763521,0.03999993,0.04,-9.7958975,-0.0198719073086977,-0.15330689,-0.050331436,0.02006395161151886,-0.011332433
1991.1499999985178,0.006145704,-0.79823536,0.0054856436,-2.3680801,-0.0003647348,1.5554327,0.7758935,0.03999993,0.04,-9.795537,-0.021424073725938797,-0.15946558,-0.051776834,0.02107405476272106,-0.0116767185
1991.1666666651845,0.0064250506,-0.7988791,0.005739936,-2.3686297,-0.00038614633,1.5547076,0.77542186,0.039999932,0.04,-9.795338,-0.02327110432088375,-0.16547194,-0.053231183,0.022093936800956726,-0.012022725
1991.1833333318511,0.0067122104,-0.79954076,0.0060013393,-2.3691947,-0.0004081616,1.5539625,0.77493674,0.03999993,0.04,-9.795007,-0.024948447942733765,-0.17200804,-0.05469361,0.02312011457979679,-0.01237463
1991.1999999985178,0.0070072347,-0.8002206,0.0062698983,-2.369775,-0.000430779,1.5531969,0.7744386,0.039999936,0.04,-9.794889,-0.026906277984380722,-0.17834438,-0.05616188,0.02415144443511963,-0.012728116
1991.2166666651844,0.0073101693,-0.80091846,0.0065456564,-2.370371,-0.00045399123,1.5524108,0.77392703,0.039999936,0.04,-9.794474,-0.02867654338479042,-0.18519503,-0.057638384,0.025191713124513626,-0.0130843595
1991.233333331851,0.007621058,-0.80163485,0.006828655,-2.370983,-0.00047782896,1.5516042,0.77340204,0.039999936,0.04,-9.794346,-0.030775614082813263,-0.19188173,-0.05912058,0.026236139237880707,-0.013446256
1991.2499999985178,0.007939946,-0.8023696,0.0071189324,-2.3716106,-0.00050227897,1.5507767,0.7728635,0.039999936,0.04,-9.793923,-0.032642439007759094,-0.19906077,-0.06060851,0.027288200333714485,-0.013809819
1991.2666666651844,0.008266867,-0.803123,0.007416523,-2.3722544,-0.0005273455,1.5499283,0.7723115,0.03999994,0.04,-9.793811,-0.03483816236257553,-0.20608266,-0.06210118,0.028343798592686653,-0.014175495
1991.283333331851,0.008601865,-0.80389506,0.0077214595,-2.3729134,-0.0005530323,1.5490589,0.7717458,0.039999947,0.04,-9.793429,-0.03683485835790634,-0.21359983,-0.063598864,0.029402658343315125,-0.014544966
1991.2999999985177,0.008944968,-0.8046857,0.008033773,-2.3735883,-0.00057934114,1.5481687,0.77116656,0.03999996,0.04,-9.793151,-0.03914943337440491,-0.2209547,-0.06509991,0.03047027625143528,-0.014918718
1991.3166666651844,0.009296208,-0.8054952,0.008353492,-2.3742793,-0.00060624804,1.5472572,0.7705735,0.039999966,0.04,-9.792855,-0.0413803867995739,-0.2286699,-0.06660518,0.03154227137565613,-0.01529512
1991.333333331851,0.0096556125,-0.80632365,0.008680641,-2.374986,-0.0006337904,1.5463245,0.76996666,0.03999997,0.04,-9.792391,-0.04352527856826782,-0.23671196,-0.06811274,0.03261934593319893,-0.015672505
1991.3499999985177,0.010023212,-0.80717075,0.009015248,-2.3757088,-0.00066194043,1.5453708,0.769346,0.039999977,0.04,-9.792157,-0.04598600044846535,-0.24457622,-0.06962242,0.03370098024606705,-0.01604995
1991.3666666651843,0.010399027,-0.8080368,0.009357332,-2.3764482,-0.00069069955,1.5443958,0.7687115,0.039999984,0.04,-9.791699,-0.04824823886156082,-0.25300813,-0.0711336,0.034787364304065704,-0.016429847
1991.383333331851,0.01078308,-0.808922,0.009706911,-2.3772037,-0.0007200949,1.5433993,0.7680631,0.039999988,0.04,-9.791535,-0.050845079123973846,-0.26122874,-0.07264602,0.035874299705028534,-0.016814675
1991.3999999985176,0.011175389,-0.80982625,0.010064005,-2.3779752,-0.00075011567,1.5423813,0.76740074,0.039999988,0.04,-9.791046,-0.05320773273706436,-0.26998258,-0.07415931,0.0369650200009346,-0.017200934
1991.4166666651843,0.01157597,-0.8107495,0.010428627,-2.3787627,-0.0007807742,1.5413418,0.7667245,0.039999984,0.04,-9.79075,-0.05590246990323067,-0.27855986,-0.0756718,0.03805941343307495,-0.0175901
1991.433333331851,0.011984835,-0.81169194,0.01080079,-2.3795667,-0.00081208284,1.540281,0.7660342,0.03999998,0.04,-9.790218,-0.0583832748234272,-0.287693,-0.07718459,0.039156828075647354,-0.017982101
1991.4499999985176,0.012402001,-0.8126536,0.011180501,-2.3803868,-0.0008440318,1.5391986,0.76532996,0.039999973,0.04,-9.789949,-0.06117551028728485,-0.29662645,-0.078695424,0.040257640182971954,-0.018375123
1991.4666666651842,0.012827467,-0.81363434,0.011567774,-2.3812234,-0.00087664183,1.5380948,0.76461166,0.03999997,0.04,-9.7894,-0.06376097351312637,-0.30608872,-0.08020539,0.04136024788022041,-0.018771568
1991.4833333318509,0.013261248,-0.8146343,0.01196261,-2.3820765,-0.000909889,1.5369692,0.7638794,0.03999997,0.04,-9.789118,-0.06664740294218063,-0.31540674,-0.08171252,0.042463891208171844,-0.019167433
1991.4999999985175,0.013703344,-0.8156533,0.012365014,-2.3829458,-0.000943783,1.5358222,0.7631327,0.039999966,0.04,-9.788569,-0.06933539360761642,-0.3252311,-0.08321762,0.04356839880347252,-0.019565705
1991.5166666651842,0.014153759,-0.8166915,0.012774988,-2.3838313,-0.0009783054,1.5346537,0.7623722,0.039999966,0.04,-9.788255,-0.07232896983623505,-0.33492005,-0.08471743,0.04467364400625229,-0.019964745
1991.5333333318508,0.014612491,-0.81774884,0.013192532,-2.3847332,-0.001013464,1.5334635,0.76159775,0.03999996,0.04,-9.787636,-0.07511615008115768,-0.34512505,-0.08621437,0.045780815184116364,-0.020366125
1991.5499999985175,0.015079538,-0.8188254,0.013617643,-2.3856518,-0.0010492576,1.5322518,0.7608093,0.03999996,0.04,-9.787303,-0.07821296900510788,-0.35515702,-0.08770784,0.046886835247278214,-0.020768162
1991.5666666651841,0.015554891,-0.819921,0.014050316,-2.3865862,-0.0010856953,1.5310184,0.7600068,0.039999958,0.04,-9.786799,-0.0812297984957695,-0.36555174,-0.08919648,0.0479937344789505,-0.021172296
1991.5833333318508,0.016038543,-0.8210361,0.014490541,-2.3875368,-0.0011227758,1.5297635,0.75919026,0.039999966,0.04,-9.7861395,-0.08414730429649353,-0.37630457,-0.09067951,0.049099911004304886,-0.02157678
1991.5999999985174,0.016530493,-0.82217014,0.014938313,-2.3885043,-0.001160494,1.5284872,0.7583598,0.039999977,0.04,-9.785664,-0.08740446716547012,-0.38687027,-0.09215691,0.05020863190293312,-0.021983186
1991.616666665184,0.01703072,-0.8233232,0.01539362,-2.3894875,-0.001198847,1.5271894,0.7575153,0.039999984,0.04,-9.78511,-0.09042084962129593,-0.39800507,-0.09362809,0.05131298676133156,-0.02239068
1991.6333333318507,0.01753921,-0.8244952,0.015856449,-2.3904872,-0.0012378597,1.5258701,0.7566569,0.04,0.04,-9.784574,-0.09382179379463196,-0.40895644,-0.095092565,0.05241886526346207,-0.022809548
1991.6499999985174,0.01805595,-0.82568634,0.016326781,-2.3915033,-0.0012774778,1.5245293,0.7557846,0.04,0.04,-9.783899,-0.09686503559350967,-0.42044953,-0.09654969,0.05352163687348366,-0.023218043
1991.666666665184,0.018580914,-0.82689637,0.01680461,-2.3925357,-0.0013177242,1.5231676,0.75489825,0.04,0.04,-9.783439,-0.10029728710651398,-0.4317714,-0.097999275,0.054622285068035126,-0.023628063
1991.6833333318507,0.019114094,-0.8281255,0.017289903,-2.3935838,-0.0013585843,1.5217845,0.7539981,0.04,0.04,-9.782677,-0.10349143296480179,-0.44364104,-0.09944023,0.05572202429175377,-0.024037963
1991.6999999985173,0.019655462,-0.82937324,0.017782647,-2.394648,-0.0014000849,1.5203797,0.7530842,0.039999995,0.04,-9.78207,-0.10700757801532745,-0.45532122,-0.10087254,0.056822679936885834,-0.024449883
1991.716666665184,0.020204986,-0.83064,0.01828282,-2.3957288,-0.0014422012,1.5189543,0.7521565,0.039999995,0.04,-9.781331,-0.11028542369604111,-0.46752638,-0.102296025,0.05791650339961052,-0.024860764
1991.7333333318506,0.020762647,-0.8319256,0.01879039,-2.396825,-0.0014849409,1.5175077,0.7512151,0.039999995,0.04,-9.78077,-0.11387813091278076,-0.47960517,-0.10370982,0.05900934338569641,-0.025272828
1991.7499999985173,0.021328405,-0.8332297,0.019305345,-2.397937,-0.0015282945,1.5160402,0.75026,0.039999995,0.04,-9.779862,-0.11724553257226944,-0.49217972,-0.10511396,0.06010137498378754,-0.025684243
1991.766666665184,0.021902237,-0.8345526,0.019827643,-2.3990648,-0.0015722668,1.5145514,0.74929124,0.03999999,0.04,-9.779244,-0.1209128275513649,-0.50462323,-0.10650744,0.06119079142808914,-0.02609647
1991.7833333318506,0.022484114,-0.8358939,0.020357259,-2.400209,-0.0016168453,1.5130422,0.7483088,0.03999999,0.04,-9.778288,-0.12435931712388992,-0.51753736,-0.107889935,0.06227720528841019,-0.026508031
1991.7999999985173,0.023073992,-0.837254,0.020894166,-2.4013684,-0.0016620373,1.5115114,0.7473129,0.039999988,0.04,-9.7777195,-0.12810517847537994,-0.530359,-0.109260425,0.06335843354463577,-0.026920306
1991.816666665184,0.023671841,-0.83863235,0.02143832,-2.4025433,-0.0017078499,1.5099602,0.74630374,0.03999998,0.04,-9.776813,-0.13175906240940094,-0.543467,-0.11061982,0.06443601846694946,-0.027333174
1991.8333333318506,0.024277618,-0.8400285,0.021989688,-2.403734,-0.0017542688,1.5083885,0.74528104,0.039999977,0.04,-9.775825,-0.13531404733657837,-0.5569517,-0.111967556,0.06551036983728409,-0.02774484
1991.8499999985172,0.024891283,-0.84144306,0.02254824,-2.4049404,-0.0018013086,1.5067967,0.74424505,0.039999973,0.04,-9.775102,-0.13916513323783875,-0.5703521,-0.113302276,0.06657896190881729,-0.028157791
1991.8666666651839,0.02551279,-0.8428758,0.02311393,-2.4061623,-0.0018489619,1.5051842,0.7431957,0.03999998,0.04,-9.774088,-0.14277705550193787,-0.5841835,-0.11462414,0.06764331459999084,-0.02856846
1991.8833333318505,0.026142104,-0.84432644,0.02368672,-2.4074,-0.0018972092,1.5035516,0.7421333,0.039999984,0.04,-9.773266,-0.14668239653110504,-0.5978863,-0.115932055,0.06870205700397491,-0.02897771
1991.8999999985172,0.026779165,-0.8457951,0.024266565,-2.4086525,-0.0019460584,1.5018988,0.7410579,0.039999995,0.04,-9.772221,-0.15037502348423004,-0.6120956,-0.11722697,0.06975462287664413,-0.02938708
1991.9166666651838,0.027423935,-0.8472816,0.024853425,-2.4099202,-0.0019954713,1.5002261,0.7399695,0.039999995,0.04,-9.771324,-0.15433472394943237,-0.62617326,-0.11850777,0.07080259919166565,-0.029794838
1991.9333333318505,0.028076364,-0.8487857,0.025447253,-2.4112027,-0.002045513,1.4985335,0.738868,0.04,0.04,-9.770137,-0.15816159546375275,-0.64071685,-0.119774394,0.07184712588787079,-0.030212484
1991.9499999985171,0.02873639,-0.85030735,0.026048008,-2.4125004,-0.0020961284,1.4968212,0.7377538,0.04,0.04,-9.7691765,-0.1621095985174179,-0.6551555,-0.12102543,0.07288571447134018,-0.03061863
1991.9666666651838,0.02940397,-0.85184646,0.02665562,-2.4138129,-0.002147312,1.4950894,0.7366269,0.04,0.04,-9.7679825,-0.16592252254486084,-0.6700594,-0.12226174,0.07391747087240219,-0.031023612
1991.9833333318504,0.030079037,-0.8534027,0.027270058,-2.4151397,-0.0021990682,1.493338,0.7354873,0.04,0.04,-9.766956,-0.1699889898300171,-0.6848623,-0.12348293,0.07494491338729858,-0.031427246
1991.999999998517,0.030761542,-0.8549762,0.02789126,-2.416481,-0.002251379,1.4915673,0.73433506,0.04,0.04,-9.765618,-0.1738385260105133,-0.70010716,-0.12468759,0.07596562057733536,-0.031828653
1992.0166666651837,0.031451423,-0.85656667,0.028519176,-2.4178371,-0.0023042501,1.4897774,0.7331705,0.04,0.04,-9.764531,-0.17795509099960327,-0.7152404,-0.12587593,0.07698104530572891,-0.032229222
1992.0333333318504,0.032148622,-0.8581741,0.029153755,-2.4192076,-0.0023576706,1.4879686,0.7319935,0.04,0.04,-9.763186,-0.18185652792453766,-0.7308345,-0.12704834,0.07798907160758972,-0.03262736
1992.049999998517,0.032853078,-0.85979795,0.029794935,-2.4205923,-0.0024116293,1.4861411,0.73080426,0.04,0.04,-9.762033,-0.1860092431306839,-0.74632704,-0.12820329,0.07898987084627151,-0.03302378
1992.0666666651837,0.033564728,-0.8614386,0.030442657,-2.4219913,-0.002466132,1.484295,0.72960293,0.04,0.04,-9.760746,-0.19006942212581635,-0.76215756,-0.12934116,0.0799831748008728,-0.033419132
1992.0833333318503,0.034283496,-0.86309564,0.031096872,-2.4234045,-0.0025211817,1.4824302,0.7283895,0.04,0.04,-9.759285,-0.19403985142707825,-0.7782347,-0.13046156,0.08096875250339508,-0.033812363
1992.099999998517,0.035009332,-0.86476904,0.031757507,-2.424831,-0.002576778,1.4805473,0.7271642,0.04,0.04,-9.758,-0.19824524223804474,-0.79425955,-0.13156402,0.08194688707590103,-0.034204204
1992.1166666651836,0.035742145,-0.8664584,0.032424506,-2.4262714,-0.00263292,1.4786462,0.72592705,0.04,0.04,-9.756399,-0.20224930346012115,-0.810669,-0.13264845,0.08291923254728317,-0.034594204
1992.1333333318503,0.03648188,-0.8681639,0.0330978,-2.4277253,-0.0026896093,1.476727,0.7246783,0.04,0.04,-9.755101,-0.206462100148201,-0.8270447,-0.13371414,0.0838816910982132,-0.034980364
1992.149999998517,0.037228465,-0.869885,0.033777326,-2.4291933,-0.002746814,1.47479,0.7234178,0.04,0.04,-9.7534,-0.21048671007156372,-0.8437738,-0.13476162,0.08483817428350449,-0.035362888
1992.1666666651836,0.037981834,-0.8716218,0.03446302,-2.430674,-0.0028045357,1.4728355,0.72214603,0.04,0.04,-9.752069,-0.214736670255661,-0.86048627,-0.13578938,0.08578237891197205,-0.035743866
1992.1833333318502,0.03874189,-0.8733742,0.035154805,-2.4321678,-0.0028627708,1.4708636,0.720863,0.04,0.04,-9.75028,-0.21878746151924133,-0.87755257,-0.13679866,0.08672038465738297,-0.03612101
1992.199999998517,0.039508577,-0.8751417,0.035852626,-2.4336753,-0.0029215063,1.4688745,0.71956867,0.04,0.04,-9.748712,-0.22304926812648773,-0.89455974,-0.1377885,0.08765255659818649,-0.036495
1992.2166666651835,0.040281814,-0.87692434,0.036556404,-2.435195,-0.0029807866,1.4668682,0.71826327,0.04,0.04,-9.747034,-0.2272014319896698,-0.91197723,-0.1387584,0.0885700136423111,-0.03687858
1992.2333333318502,0.041061513,-0.878722,0.03726607,-2.4367273,-0.0030405428,1.4648455,0.716947,0.04,0.04,-9.745342,-0.23142428696155548,-0.92930365,-0.13970804,0.08948173373937607,-0.03725086
1992.2499999985168,0.041847616,-0.88053447,0.037981536,-2.4382734,-0.0031007708,1.4628061,0.71561986,0.04,0.04,-9.743403,-0.23545677959918976,-0.9469922,-0.14063783,0.09038639813661575,-0.03761106
1992.2666666651835,0.042640008,-0.88236135,0.038702752,-2.4398313,-0.003161468,1.4607502,0.71428216,0.04,0.04,-9.741863,-0.2397557944059372,-0.9646727,-0.14154682,0.0912761464715004,-0.037971854
1992.2833333318501,0.04343863,-0.8842028,0.039429646,-2.4414005,-0.003222623,1.4586781,0.7129339,0.04,0.04,-9.73979,-0.24385610222816467,-0.9826713,-0.14243539,0.09215798228979111,-0.038329434
1992.2999999985168,0.0442434,-0.8860583,0.040162127,-2.4429822,-0.0032842476,1.4565904,0.7115752,0.04,0.04,-9.737927,-0.24814340472221375,-1.0006303,-0.14330292,0.09303364157676697,-0.0386845
1992.3166666651834,0.045054212,-0.8879277,0.040900104,-2.4445755,-0.0033463289,1.4544868,0.7102064,0.04,0.04,-9.735969,-0.25231966376304626,-1.018852,-0.14414921,0.09390012919902802,-0.039034877
1992.33333333185,0.045870993,-0.8898109,0.041643523,-2.4461808,-0.003408876,1.4523677,0.7088275,0.04,0.04,-9.733797,-0.25643202662467957,-1.0372919,-0.14497487,0.09475696086883545,-0.039382745
1992.3499999985168,0.04669365,-0.89170766,0.042392284,-2.447798,-0.0034718623,1.4502331,0.70743865,0.04,0.04,-9.731944,-0.2606853246688843,-1.0557172,-0.14577873,0.09560015797615051,-0.039725207
1992.3666666651834,0.047522105,-0.8936177,0.043146327,-2.4494264,-0.0035352944,1.4480836,0.70603997,0.04,0.04,-9.729721,-0.26478311419487,-1.0744421,-0.14656113,0.09643173217773438,-0.04006363
1992.38333333185,0.048356254,-0.89554095,0.04390555,-2.4510658,-0.0035991522,1.4459194,0.7046316,0.04,0.04,-9.72766,-0.26902875304222107,-1.0931851,-0.14732118,0.09725439548492432,-0.040397443
1992.3999999985167,0.04919601,-0.8974773,0.04466987,-2.4527166,-0.0036634454,1.4437407,0.7032139,0.04,0.04,-9.725304,-0.27311304211616516,-1.112178,-0.14805946,0.09806645661592484,-0.040726736
1992.4166666651834,0.050041284,-0.89942616,0.045439217,-2.4543784,-0.0037281674,1.4415478,0.7017868,0.04,0.04,-9.7232,-0.2773669958114624,-1.1311868,-0.14877596,0.0988682359457016,-0.041054666
1992.43333333185,0.05089198,-0.90138763,0.0462135,-2.4560513,-0.0037933025,1.4393406,0.7003504,0.04,0.04,-9.720778,-0.2814081311225891,-1.1504891,-0.14947015,0.0996570810675621,-0.041374527
1992.4499999985167,0.051748004,-0.90336126,0.046992637,-2.4577339,-0.0038588352,1.4371195,0.6989053,0.04,0.04,-9.718606,-0.2856067717075348,-1.169789,-0.15014109,0.10043250024318695,-0.041688766
1992.4666666651833,0.05260926,-0.90534705,0.04777652,-2.459427,-0.003924754,1.4348847,0.69745153,0.04,0.04,-9.715957,-0.28964799642562866,-1.1893239,-0.15079086,0.10119874030351639,-0.041996416
1992.48333333185,0.05347565,-0.9073448,0.048565086,-2.46113,-0.0039910562,1.4326367,0.69598866,0.04,0.04,-9.713658,-0.2938251793384552,-1.2089002,-0.15141869,0.10195193439722061,-0.04230113
1992.4999999985166,0.05434707,-0.90935403,0.04935823,-2.4628432,-0.0040577324,1.4303762,0.6945176,0.04,0.04,-9.710933,-0.29785025119781494,-1.2286893,-0.15202215,0.10269677639007568,-0.042599235
1992.5166666651833,0.05522343,-0.9113747,0.05015586,-2.464566,-0.0041247886,1.4281023,0.69303757,0.04,0.04,-9.708568,-0.3020089566707611,-1.2485535,-0.15260415,0.10342811048030853,-0.04289725
1992.53333333185,0.056104627,-0.91340655,0.0509579,-2.4662979,-0.004192221,1.4258162,0.6915498,0.04,0.04,-9.705735,-0.3060460090637207,-1.2685775,-0.1531601,0.10414846241474152,-0.04319624
1992.5499999985166,0.056990545,-0.9154494,0.051764242,-2.4680393,-0.0042600166,1.423518,0.690054,0.04,0.04,-9.703153,-0.31008633971214294,-1.288672,-0.15369523,0.1048579141497612,-0.04348219
1992.5666666651832,0.0578811,-0.91750276,0.0525748,-2.4697907,-0.0043281578,1.4212072,0.6885505,0.04,0.04,-9.700415,-0.314068466424942,-1.3089236,-0.15420733,0.10555574297904968,-0.0437585
1992.5833333318499,0.058776192,-0.91956675,0.053389482,-2.4715505,-0.004396655,1.4188848,0.68703926,0.04,0.04,-9.6976,-0.3179784417152405,-1.329324,-0.15469645,0.10623427480459213,-0.0440249
1992.5999999985165,0.059675705,-0.9216409,0.054208204,-2.473319,-0.00446547,1.4165509,0.6855204,0.04,0.04,-9.694776,-0.3220892548561096,-1.3497734,-0.1551626,0.10690443217754364,-0.04429915
1992.6166666651832,0.06057953,-0.92372507,0.055030853,-2.475096,-0.004534607,1.4142058,0.6839946,0.04,0.04,-9.691767,-0.3259163796901703,-1.3704133,-0.15560444,0.10756077617406845,-0.04455774
1992.6333333318498,0.061487593,-0.92581904,0.055857345,-2.476881,-0.004604078,1.4118496,0.68246156,0.04,0.04,-9.688887,-0.3298352062702179,-1.391084,-0.15602462,0.10820424556732178,-0.044803217
1992.6499999985165,0.06239976,-0.9279223,0.056687575,-2.478674,-0.0046738517,1.409483,0.68092144,0.04,0.04,-9.685701,-0.3337235152721405,-1.4119236,-0.15642108,0.10883637517690659,-0.045049503
1992.6666666651831,0.06331592,-0.93003494,0.057521455,-2.480475,-0.004743932,1.4071058,0.6793747,0.04,0.04,-9.68271,-0.3376266360282898,-1.4328479,-0.15679318,0.10945603996515274,-0.04528941
1992.6833333318498,0.06423599,-0.9321564,0.058358867,-2.4822836,-0.004814296,1.4047188,0.67782134,0.04,0.04,-9.679494,-0.3414194583892822,-1.4538897,-0.15714283,0.11006061732769012,-0.045522876
1992.6999999985164,0.06515982,-0.9342871,0.059199724,-2.4840996,-0.004884953,1.4023216,0.67626154,0.04,0.04,-9.676359,-0.34525126218795776,-1.475017,-0.157469,0.11065416038036346,-0.045749597
1992.716666665183,0.06608733,-0.936426,0.060043935,-2.485923,-0.0049558715,1.3999151,0.67469543,0.04,0.04,-9.672959,-0.34898194670677185,-1.4962246,-0.15777162,0.11123435199260712,-0.045969676
1992.7333333318497,0.06701843,-0.9385732,0.060891394,-2.4877532,-0.0050270488,1.3974992,0.67312336,0.04,0.04,-9.669775,-0.3527505397796631,-1.517568,-0.15805043,0.11180023849010468,-0.046183065
1992.7499999985164,0.06795298,-0.9407284,0.061741997,-2.48959,-0.0050984863,1.3950745,0.6715455,0.04,0.04,-9.666257,-0.356482595205307,-1.5389851,-0.15830587,0.1123528704047203,-0.046398878
1992.766666665183,0.068890855,-0.9428912,0.06259566,-2.4914336,-0.0051701656,1.3926408,0.66996205,0.04,0.04,-9.662878,-0.36011838912963867,-1.5604923,-0.15853825,0.11289400607347488,-0.046598665
1992.7833333318497,0.06983198,-0.9450614,0.063452244,-2.4932842,-0.0052420893,1.3901991,0.66837305,0.04,0.04,-9.65932,-0.36371105909347534,-1.5821157,-0.15874763,0.11341722309589386,-0.046791714
1992.7999999985163,0.070776224,-0.9472388,0.06431167,-2.4951417,-0.0053142374,1.387749,0.6667788,0.04,0.04,-9.655921,-0.36731091141700745,-1.6038257,-0.15893318,0.11392521113157272,-0.046975672
1992.816666665183,0.071723476,-0.94942325,0.06517386,-2.4970038,-0.0053866063,1.3852911,0.6651795,0.04,0.04,-9.652401,-0.3708605170249939,-1.6256257,-0.15909556,0.11441399157047272,-0.04715383
1992.8333333318496,0.07267364,-0.9516143,0.066038646,-2.4988713,-0.0054591927,1.3828256,0.6635752,0.04,0.04,-9.648433,-0.3743618428707123,-1.647452,-0.1592351,0.1148952767252922,-0.047325183
1992.8499999985163,0.07362657,-0.95381165,0.066905975,-2.500745,-0.005532003,1.3803531,0.6619662,0.04,0.04,-9.644771,-0.37780243158340454,-1.6694049,-0.15935044,0.11536179482936859,-0.0474829
1992.866666665183,0.07458216,-0.9560153,0.06777572,-2.5026238,-0.0056050033,1.3778735,0.66035277,0.04,0.04,-9.640964,-0.38131147623062134,-1.6914428,-0.15944314,0.1158115342259407,-0.04764882
1992.8833333318496,0.07554028,-0.958225,0.06864779,-2.5045073,-0.0056782146,1.3753875,0.6587348,0.04,0.04,-9.637126,-0.38460108637809753,-1.7135271,-0.15951276,0.11624788492918015,-0.0477912
1992.8999999985163,0.07650083,-0.96044016,0.06952206,-2.5063956,-0.005751604,1.3728949,0.6571129,0.04,0.04,-9.633089,-0.38796865940093994,-1.735652,-0.15955894,0.11667146533727646,-0.047932386
1992.916666665183,0.077463716,-0.9626607,0.070398435,-2.5082889,-0.0058251643,1.3703967,0.655487,0.04,0.04,-9.629184,-0.39127179980278015,-1.7579055,-0.15958269,0.11707888543605804,-0.04806619
1992.9333333318496,0.07842878,-0.96488625,0.07127682,-2.510186,-0.0058988766,1.3678924,0.6538574,0.04,0.04,-9.62512,-0.3945053815841675,-1.7802012,-0.1595833,0.11747086048126221,-0.04819162
1992.9499999985162,0.07939592,-0.96711653,0.07215711,-2.5120878,-0.0059727435,1.3653829,0.6522243,0.04,0.04,-9.621022,-0.397713303565979,-1.8025632,-0.15956159,0.11784839630126953,-0.048309796
1992.9666666651829,0.08036503,-0.96935153,0.07303918,-2.5139928,-0.0060467594,1.3628681,0.6505879,0.04,0.04,-9.616846,-0.40086260437965393,-1.8249679,-0.15951684,0.11820816248655319,-0.048420448
1992.9833333318495,0.08133601,-0.97159076,0.073922925,-2.5159023,-0.006120902,1.3603486,0.64894843,0.04,0.04,-9.612641,-0.403958261013031,-1.8474462,-0.1594503,0.11855483800172806,-0.04852219
1992.9999999985162,0.0823087,-0.9738339,0.07480823,-2.5178144,-0.0061951694,1.3578246,0.647306,0.04,0.04,-9.608341,-0.4070155918598175,-1.8699476,-0.15936118,0.11888381093740463,-0.048617076
1993.0166666651828,0.083282985,-0.9760809,0.075695015,-2.51973,-0.006269558,1.3552966,0.6456609,0.03999999,0.04,-9.603991,-0.4100148379802704,-1.8925523,-0.15924993,0.11920026689767838,-0.048703484
1993.0333333318495,0.08425875,-0.97833145,0.07658317,-2.5216486,-0.0063440707,1.3527647,0.6440132,0.039999977,0.04,-9.599537,-0.412972629070282,-1.9151351,-0.15911649,0.11950067430734634,-0.0487825
1993.0499999985161,0.0852359,-0.980585,0.07747254,-2.52357,-0.0064186724,1.3502291,0.64236325,0.039999988,0.04,-9.595137,-0.41585519909858704,-1.9378413,-0.15896125,0.11978664249181747,-0.04885184
1993.0666666651828,0.08621428,-0.98284143,0.07836307,-2.5254936,-0.0064933393,1.3476902,0.6407111,0.03999999,0.04,-9.590644,-0.4186951220035553,-1.9605439,-0.15878418,0.12005429714918137,-0.048912976
1993.0833333318494,0.087193795,-0.9851006,0.07925461,-2.5274193,-0.0065680915,1.3451482,0.639057,0.039999984,0.04,-9.585969,-0.421509325504303,-1.9832312,-0.1585853,0.12030653655529022,-0.048967123
1993.099999998516,0.08817433,-0.9873621,0.08014709,-2.5293472,-0.0066429256,1.3426036,0.6374012,0.03999998,0.04,-9.581362,-0.42422887682914734,-2.0060542,-0.15836461,0.12054397165775299,-0.049013097
1993.1166666651827,0.08915576,-0.98962563,0.081040375,-2.5312767,-0.0067178267,1.340057,0.635744,0.039999973,0.04,-9.576607,-0.4269274175167084,-2.0288148,-0.15812258,0.12076447904109955,-0.049050786
1993.1333333318494,0.09013796,-0.9918909,0.08193434,-2.5332081,-0.006792781,1.3375081,0.6340854,0.03999997,0.04,-9.571929,-0.42954200506210327,-2.0517194,-0.15785983,0.1209704801440239,-0.049079996
1993.149999998516,0.0911208,-0.99415773,0.0828289,-2.5351408,-0.00686778,1.3349577,0.63242567,0.03999997,0.04,-9.567065,-0.43212980031967163,-2.0745223,-0.15757582,0.12115791440010071,-0.049101498
1993.1666666651827,0.092104174,-0.9964258,0.08372395,-2.537074,-0.0069428016,1.3324058,0.6307652,0.039999973,0.04,-9.562264,-0.43458500504493713,-2.0974813,-0.15727058,0.12133030593395233,-0.049109396
1993.1833333318493,0.093087934,-0.9986949,0.084619366,-2.5390084,-0.007017845,1.3298528,0.6291039,0.039999973,0.04,-9.557213,-0.43710198998451233,-2.1203108,-0.15694572,0.12148771435022354,-0.049114008
1993.199999998516,0.09407199,-1.0009646,0.08551504,-2.5409431,-0.0070929024,1.3272991,0.6274421,0.03999997,0.04,-9.552324,-0.43947115540504456,-2.143307,-0.1565996,0.12162787467241287,-0.049109925
1993.2166666651826,0.095056206,-1.0032347,0.08641086,-2.5428784,-0.007167965,1.324745,0.62578,0.039999973,0.04,-9.547185,-0.4418295621871948,-2.1661782,-0.15623342,0.12175318598747253,-0.049095467
1993.2333333318493,0.096040465,-1.0055048,0.08730673,-2.5448136,-0.007243023,1.3221909,0.62411785,0.03999997,0.04,-9.542188,-0.444097101688385,-2.1892028,-0.15584664,0.12186089158058167,-0.04907616
1993.249999998516,0.09702465,-1.0077751,0.08820252,-2.5467484,-0.007318065,1.3196368,0.62245584,0.039999977,0.04,-9.536973,-0.4463566243648529,-2.2120912,-0.15544039,0.1219521313905716,-0.049048554
1993.2666666651826,0.09800865,-1.0100447,0.08909815,-2.548683,-0.0073930817,1.3170831,0.6207941,0.039999973,0.04,-9.531771,-0.44849029183387756,-2.2351067,-0.15501498,0.12202970683574677,-0.049012817
1993.2833333318492,0.098992325,-1.0123137,0.08999349,-2.5506167,-0.007468069,1.3145303,0.61913294,0.039999973,0.04,-9.526489,-0.45063742995262146,-2.2580001,-0.15456924,0.12208898365497589,-0.048970632
1993.299999998516,0.09997554,-1.0145816,0.0908884,-2.5525498,-0.007543019,1.3119785,0.61747247,0.03999997,0.04,-9.521214,-0.45260971784591675,-2.2810225,-0.1541048,0.12213220447301865,-0.048914198
1993.3166666651825,0.10095821,-1.0168481,0.09178281,-2.5544817,-0.0076179192,1.3094283,0.6158128,0.039999966,0.04,-9.515898,-0.45463883876800537,-2.304,-0.15362108,0.12215705215930939,-0.04885747
1993.3333333318492,0.10194019,-1.0191131,0.092676595,-2.5564127,-0.0076927645,1.3068796,0.6141544,0.03999996,0.04,-9.5104,-0.4565392732620239,-2.326851,-0.15311763,0.12216684967279434,-0.04878398
1993.3499999985158,0.10292137,-1.0213764,0.09356966,-2.5583422,-0.007767543,1.3043332,0.6124974,0.03999996,0.04,-9.505032,-0.4583745002746582,-2.349886,-0.15259665,0.1221567839384079,-0.048705213
1993.3666666651825,0.10390162,-1.0236375,0.094461896,-2.56027,-0.007842244,1.3017893,0.610842,0.03999996,0.04,-9.49948,-0.46023035049438477,-2.3727183,-0.15205722,0.1221313327550888,-0.04861933
1993.3833333318491,0.10488082,-1.0258962,0.09535319,-2.5621953,-0.007916856,1.299248,0.60918826,0.039999958,0.04,-9.493997,-0.46191829442977905,-2.3957183,-0.1515002,0.12208874523639679,-0.048524916
1993.3999999985158,0.10585887,-1.0281522,0.09624342,-2.5641184,-0.007991372,1.2967097,0.6075365,0.039999958,0.04,-9.488267,-0.4636363685131073,-2.4185052,-0.15092486,0.12203125655651093,-0.048421517
1993.4166666651824,0.106835626,-1.0304056,0.097132474,-2.566039,-0.0080657825,1.2941744,0.6058869,0.039999954,0.04,-9.482659,-0.4652062952518463,-2.4414592,-0.15033169,0.121956467628479,-0.048310965
1993.433333331849,0.107811,-1.0326556,0.09802024,-2.567957,-0.00814008,1.2916429,0.6042397,0.03999995,0.04,-9.476941,-0.4668084681034088,-2.4641602,-0.14972143,0.12186417728662491,-0.048190825
1993.4499999985158,0.10878484,-1.0349022,0.09890665,-2.5698717,-0.008214254,1.2891152,0.602595,0.03999995,0.04,-9.471213,-0.4682438373565674,-2.4870834,-0.14909416,0.12175550311803818,-0.048063427
1993.4666666651824,0.10975705,-1.0371453,0.09979155,-2.5717833,-0.008288293,1.2865919,0.60095304,0.039999943,0.04,-9.465385,-0.46975216269493103,-2.5097358,-0.1484497,0.12163077294826508,-0.047930542
1993.483333331849,0.11072749,-1.0393839,0.10067485,-2.5736914,-0.008362197,1.2840731,0.599314,0.039999943,0.04,-9.459555,-0.47104132175445557,-2.5325508,-0.14778885,0.12149035930633545,-0.04778607
1993.4999999985157,0.111696064,-1.0416179,0.101556465,-2.5755963,-0.008435951,1.2815596,0.59767807,0.039999943,0.04,-9.4536915,-0.4724125862121582,-2.5551634,-0.1471109,0.12133124470710754,-0.04763617
1993.5166666651824,0.112662636,-1.0438476,0.102436244,-2.5774965,-0.008509545,1.2790508,0.5960457,0.039999936,0.04,-9.447818,-0.47358080744743347,-2.5779662,-0.14641653,0.12115419656038284,-0.047476973
1993.533333331849,0.11362708,-1.0460724,0.1033141,-2.579393,-0.008582971,1.2765477,0.5944168,0.039999936,0.04,-9.44177,-0.4748111963272095,-2.6004093,-0.14570732,0.12096282839775085,-0.04730723
1993.5499999985157,0.114589326,-1.0482919,0.10418993,-2.5812848,-0.008656223,1.27405,0.5927916,0.039999932,0.04,-9.435814,-0.4759046733379364,-2.6230884,-0.14498253,0.12075389921665192,-0.047135416
1993.5666666651823,0.115549214,-1.0505064,0.105063625,-2.5831718,-0.008729289,1.2715586,0.59117043,0.03999993,0.04,-9.4297495,-0.47695857286453247,-2.6455905,-0.14424168,0.12052766978740692,-0.046955187
1993.583333331849,0.11650662,-1.052715,0.105935074,-2.5850544,-0.008802161,1.2690738,0.5895534,0.03999993,0.04,-9.423646,-0.4780413806438446,-2.667911,-0.14348605,0.12028740346431732,-0.046768975
1993.5999999985156,0.117461465,-1.0549176,0.10680418,-2.586932,-0.008874829,1.2665956,0.58794075,0.039999932,0.04,-9.417574,-0.47892192006111145,-2.69044,-0.14271598,0.12002917379140854,-0.046578366
1993.6166666651823,0.11841363,-1.0571142,0.10767083,-2.5888042,-0.008947282,1.264124,0.5863326,0.039999932,0.04,-9.411431,-0.479887992143631,-2.7126524,-0.1419312,0.1197536438703537,-0.046382036
1993.633333331849,0.11936296,-1.0593042,0.108534925,-2.5906708,-0.009019519,1.2616599,0.5847292,0.03999994,0.04,-9.405237,-0.4806261360645294,-2.7350056,-0.14113216,0.11946183443069458,-0.046177264
1993.6499999985156,0.12030937,-1.0614877,0.10939636,-2.5925324,-0.009091523,1.2592034,0.5831307,0.039999936,0.04,-9.399011,-0.4814413785934448,-2.757111,-0.14031889,0.1191527396440506,-0.04596416
1993.6666666651822,0.12125273,-1.0636637,0.11025503,-2.594388,-0.0091633,1.2567548,0.58153737,0.039999936,0.04,-9.392843,-0.4820675849914551,-2.7793646,-0.13949196,0.11882498115301132,-0.045744512
1993.6833333318489,0.122192934,-1.0658326,0.111110836,-2.596237,-0.009234827,1.2543143,0.57994926,0.039999936,0.04,-9.386587,-0.48277080059051514,-2.801339,-0.13865112,0.11847861856222153,-0.045517456
1993.6999999985155,0.123129904,-1.0679942,0.11196371,-2.5980797,-0.009306103,1.2518821,0.5783667,0.039999936,0.04,-9.380216,-0.48327285051345825,-2.8234286,-0.13779727,0.11811832338571548,-0.045283478
1993.7166666651822,0.124063514,-1.0701483,0.11281349,-2.5999162,-0.009377115,1.2494587,0.5767899,0.039999936,0.04,-9.373901,-0.4838902950286865,-2.8451893,-0.1369304,0.11774148792028427,-0.04504326
1993.7333333318488,0.124993585,-1.0722942,0.11366008,-2.6017454,-0.009447854,1.2470446,0.575219,0.039999936,0.04,-9.367547,-0.4842696189880371,-2.8671257,-0.13605158,0.11734778434038162,-0.04479631
1993.7499999985155,0.12592007,-1.0744315,0.114503376,-2.6035676,-0.00951831,1.2446398,0.57365406,0.039999936,0.04,-9.361114,-0.4847570061683655,-2.8887532,-0.1351603,0.1169409230351448,-0.044542626
1993.7666666651821,0.12684283,-1.0765604,0.11534335,-2.6053824,-0.009588486,1.2422446,0.5720954,0.03999994,0.04,-9.354733,-0.4850255250930786,-2.9105532,-0.13425606,0.11651448905467987,-0.044284232
1993.7833333318488,0.1277618,-1.0786806,0.11617982,-2.6071897,-0.009658352,1.2398592,0.570543,0.039999932,0.04,-9.348275,-0.4854039251804352,-2.9319873,-0.13334084,0.11607415974140167,-0.044019308
1993.7999999985154,0.12867683,-1.080792,0.11701273,-2.608989,-0.009727925,1.2374841,0.56899744,0.03999993,0.04,-9.341783,-0.48556703329086304,-2.953554,-0.13241266,0.11561807990074158,-0.043748327
1993.816666665182,0.12958781,-1.0828938,0.11784197,-2.6107807,-0.0097971875,1.2351192,0.56745857,0.03999993,0.04,-9.335254,-0.48574861884117126,-2.9749131,-0.13147455,0.11514873802661896,-0.04347021
1993.8333333318487,0.13049467,-1.084986,0.118667416,-2.6125646,-0.009866134,1.2327651,0.5659267,0.03999993,0.04,-9.328867,-0.4859664738178253,-2.996078,-0.13052511,0.1146588921546936,-0.04318826
1993.8499999985154,0.13139728,-1.0870686,0.119489,-2.6143396,-0.009934755,1.2304223,0.5644018,0.03999993,0.04,-9.322339,-0.48594921827316284,-3.0174015,-0.12956433,0.11415185034275055,-0.042901136
1993.866666665182,0.13229552,-1.089141,0.120306656,-2.6161063,-0.010003038,1.2280906,0.5628845,0.039999932,0.04,-9.3157835,-0.4860571026802063,-3.038322,-0.12859292,0.11363305151462555,-0.042607013
1993.8833333318487,0.1331893,-1.0912032,0.12112026,-2.6178641,-0.010070976,1.2257705,0.5613748,0.039999932,0.04,-9.3091955,-0.48595213890075684,-3.0594113,-0.12761201,0.11309857666492462,-0.04230824
1993.8999999985153,0.13407856,-1.093255,0.12192969,-2.6196127,-0.010138557,1.223462,0.55987275,0.039999925,0.04,-9.302697,-0.48595887422561646,-3.080135,-0.12662186,0.11254741996526718,-0.04200448
1993.916666665182,0.1349632,-1.0952963,0.12273489,-2.6213522,-0.010205783,1.2211658,0.5583788,0.039999925,0.04,-9.296061,-0.48572635650634766,-3.10099,-0.1256217,0.11198090761899948,-0.04169352
1993.9333333318486,0.13584301,-1.0973264,0.12353576,-2.6230829,-0.010272643,1.218882,0.55689275,0.03999993,0.04,-9.289499,-0.485645055770874,-3.1214745,-0.12461328,0.1114015206694603,-0.041376982
1993.9499999985153,0.13671796,-1.0993451,0.124332175,-2.6248033,-0.010339114,1.2166104,0.5554147,0.039999917,0.04,-9.2829275,-0.4853019714355469,-3.1421344,-0.12359509,0.1108037531375885,-0.041055705
1993.966666665182,0.13758793,-1.1013525,0.12512408,-2.6265142,-0.010405208,1.2143521,0.55394477,0.039999902,0.04,-9.276312,-0.48514342308044434,-3.1623912,-0.12256681,0.11019158363342285,-0.04073232
1993.9833333318486,0.13845286,-1.1033483,0.12591138,-2.628215,-0.010470919,1.2121066,0.5524838,0.039999902,0.04,-9.269646,-0.48471397161483765,-3.1827931,-0.12152933,0.1095665991306305,-0.040403258
1993.9999999985152,0.13931261,-1.1053321,0.12669396,-2.6299062,-0.010536227,1.2098744,0.5510315,0.0399999,0.04,-9.263131,-0.4844455420970917,-3.2027915,-0.120485306,0.10892470180988312,-0.040071055
1994.016666665182,0.1401671,-1.1073037,0.1274718,-2.6315866,-0.010601143,1.2076559,0.5495877,0.0399999,0.04,-9.25648,-0.48392659425735474,-3.2229571,-0.11943296,0.10826630890369415,-0.03973574
1994.0333333318486,0.14101629,-1.1092631,0.12824471,-2.6332572,-0.010665642,1.2054517,0.5481533,0.0399999,0.04,-9.24988,-0.4835568368434906,-3.2427156,-0.118371345,0.10759489238262177,-0.039395165
1994.0499999985152,0.14186,-1.1112101,0.12901266,-2.634916,-0.010729725,1.2032613,0.546728,0.0399999,0.04,-9.243265,-0.48294535279273987,-3.2626405,-0.11730335,0.10690821707248688,-0.039051104
1994.0666666651819,0.1426981,-1.1131442,0.12977564,-2.6365645,-0.010793378,1.2010856,0.54531205,0.039999895,0.04,-9.236547,-0.48238739371299744,-3.2821906,-0.11622838,0.10621095448732376,-0.0387007
1994.0833333318485,0.14353062,-1.1150653,0.13053343,-2.6382017,-0.010856594,1.1989244,0.5439057,0.0399999,0.04,-9.230048,-0.48190101981163025,-3.3015995,-0.11514607,0.10549793392419815,-0.038348477
1994.0999999985152,0.1443574,-1.116973,0.13128603,-2.6398284,-0.010919376,1.1967778,0.5425088,0.0399999,0.04,-9.223377,-0.4811578392982483,-3.321068,-0.11405732,0.10477088391780853,-0.03799185
1994.1166666651818,0.14517839,-1.1188675,0.1320334,-2.6414435,-0.0109817125,1.1946465,0.5411216,0.03999989,0.04,-9.21691,-0.48056837916374207,-3.3401647,-0.11296129,0.1040254682302475,-0.03763124
1994.1333333318485,0.14599347,-1.1207483,0.13277532,-2.6430469,-0.011043591,1.1925305,0.53974473,0.039999887,0.04,-9.210211,-0.47974899411201477,-3.3593664,-0.11185839,0.10326817631721497,-0.037265897
1994.149999998515,0.14680254,-1.1226152,0.13351183,-2.644638,-0.011105011,1.19043,0.53837776,0.03999988,0.04,-9.203709,-0.4790973663330078,-3.3781645,-0.11075094,0.10249754041433334,-0.036898423
1994.1666666651818,0.14760551,-1.124468,0.13424279,-2.6462178,-0.011165968,1.1883456,0.5370213,0.03999987,0.04,-9.196986,-0.478183776140213,-3.397066,-0.109636955,0.1017153412103653,-0.03652496
1994.1833333318484,0.14840233,-1.1263068,0.13496815,-2.6477857,-0.011226451,1.1862766,0.5356749,0.039999865,0.04,-9.190569,-0.4774716794490814,-3.415593,-0.10851892,0.10091789811849594,-0.036152422
1994.199999998515,0.14919291,-1.1281313,0.13568784,-2.6493413,-0.011286457,1.1842241,0.53433937,0.039999858,0.04,-9.18396,-0.47650080919265747,-3.4341974,-0.107394025,0.10010509938001633,-0.035777144
1994.2166666651817,0.14997719,-1.1299412,0.13640176,-2.6508832,-0.011345975,1.1821879,0.53301436,0.03999985,0.04,-9.177488,-0.47571876645088196,-3.4524007,-0.1062655,0.09928195923566818,-0.035399806
1994.2333333318484,0.15075503,-1.1317363,0.1371098,-2.652413,-0.011405001,1.1801686,0.53170025,0.039999846,0.04,-9.170747,-0.4746866822242737,-3.4706497,-0.10513153,0.09845077246427536,-0.035018273
1994.249999998515,0.15152635,-1.1335162,0.13781194,-2.65393,-0.011463533,1.1781658,0.53039706,0.039999846,0.04,-9.164363,-0.47382643818855286,-3.4885623,-0.10399372,0.0976070687174797,-0.034635384
1994.2666666651817,0.1522911,-1.1352808,0.13850814,-2.655434,-0.011521565,1.1761802,0.52910495,0.039999843,0.04,-9.157843,-0.4727718234062195,-3.5065715,-0.102851346,0.09674680978059769,-0.03425858
1994.2833333318483,0.1530492,-1.1370304,0.13919829,-2.6569257,-0.011579092,1.174212,0.52782416,0.039999835,0.04,-9.15142,-0.47181424498558044,-3.5241215,-0.10170484,0.09587759524583817,-0.033872955
1994.299999998515,0.15380065,-1.1387643,0.13988231,-2.6584034,-0.0116361,1.172261,0.52655464,0.039999835,0.04,-9.144974,-0.4706547260284424,-3.5418189,-0.10055511,0.09499248117208481,-0.033487003
1994.3166666651816,0.15454532,-1.1404827,0.14056008,-2.6598678,-0.011692588,1.1703279,0.5252966,0.039999824,0.04,-9.138488,-0.46955427527427673,-3.5591784,-0.09940113,0.09409716725349426,-0.03309674
1994.3333333318483,0.15528302,-1.1421852,0.14123169,-2.6613185,-0.011748551,1.1684124,0.52405035,0.039999817,0.04,-9.132175,-0.4685540795326233,-3.5762422,-0.098243974,0.09319359064102173,-0.032704275
1994.349999998515,0.15601377,-1.1438718,0.14189693,-2.662756,-0.011803983,1.166515,0.5228157,0.03999981,0.039999988,-9.125687,-0.4673078656196594,-3.5933962,-0.09708514,0.09227772057056427,-0.032309804
1994.3666666651816,0.15673752,-1.1455424,0.14255576,-2.6641796,-0.01185888,1.1646358,0.5215929,0.03999981,0.039999977,-9.11951,-0.4662643373012543,-3.610166,-0.09592279,0.09134964644908905,-0.0319162
1994.3833333318482,0.1574542,-1.1471968,0.14320818,-2.6655896,-0.011913238,1.1627749,0.520382,0.039999813,0.039999984,-9.113046,-0.464996874332428,-3.626968,-0.09475816,0.09041310101747513,-0.031523455
1994.3999999985149,0.15816371,-1.1488342,0.1438541,-2.6669855,-0.011967052,1.1609327,0.51918316,0.039999813,0.039999984,-9.106965,-0.463890016078949,-3.6433997,-0.0935908,0.08946319669485092,-0.031129593
1994.4166666651815,0.158866,-1.150455,0.14449345,-2.668367,-0.012020314,1.1591092,0.5179965,0.039999813,0.039999977,-9.100556,-0.46253839135169983,-3.6599038,-0.09242117,0.08850256353616714,-0.03073365
1994.4333333318482,0.15956105,-1.1520591,0.14512616,-2.6697335,-0.01207302,1.1573045,0.51682216,0.03999981,0.03999997,-9.094443,-0.46140381693840027,-3.6759655,-0.091249466,0.08753347396850586,-0.030336643
1994.4499999985148,0.16024877,-1.1536463,0.14575219,-2.6710856,-0.012125169,1.1555189,0.5156602,0.0399998,0.039999958,-9.088099,-0.4600324034690857,-3.692074,-0.09007625,0.08655615895986557,-0.029938966
1994.4666666651815,0.16092907,-1.1552165,0.1463715,-2.6724236,-0.012176752,1.1537526,0.5145107,0.039999798,0.039999947,-9.082049,-0.4588485062122345,-3.7077742,-0.088901885,0.08557059615850449,-0.029539326
1994.4833333318481,0.1616019,-1.1567692,0.14698401,-2.6737473,-0.012227767,1.1520054,0.5133738,0.0399998,0.03999995,-9.075867,-0.4574456810951233,-3.7235687,-0.087725736,0.08457382023334503,-0.029141387
1994.4999999985148,0.16226727,-1.1583047,0.1475897,-2.6750562,-0.012278209,1.150278,0.51224965,0.0399998,0.039999947,-9.069994,-0.4562295973300934,-3.7389493,-0.08654868,0.08356435596942902,-0.028744226
1994.5166666651814,0.16292503,-1.1598228,0.14818849,-2.6763499,-0.012328076,1.1485701,0.5111384,0.039999805,0.039999958,-9.063827,-0.45478808879852295,-3.754374,-0.08537095,0.08254743367433548,-0.028347524
1994.533333331848,0.16357513,-1.1613234,0.14878033,-2.677629,-0.012377361,1.1468817,0.51003987,0.039999805,0.03999995,-9.057909,-0.45353397727012634,-3.7693365,-0.08419332,0.0815243050456047,-0.027947256
1994.5499999985147,0.16421759,-1.1628062,0.14936525,-2.6788929,-0.0124260625,1.1452134,0.50895435,0.039999805,0.039999947,-9.051899,-0.45205768942832947,-3.7844138,-0.08301483,0.08048921823501587,-0.027549287
1994.5666666651814,0.16485229,-1.1642712,0.14994301,-2.6801417,-0.0124741765,1.1435652,0.50788176,0.03999981,0.039999947,-9.045996,-0.45068803429603577,-3.7991905,-0.081836134,0.07944580167531967,-0.02715107
1994.583333331848,0.16547923,-1.165719,0.15051372,-2.6813753,-0.012521696,1.1419371,0.5068223,0.0399998,0.039999932,-9.040265,-0.44940030574798584,-3.8136175,-0.08065732,0.07839668542146683,-0.026752748
1994.5999999985147,0.16609833,-1.167148,0.15107735,-2.6825936,-0.012568622,1.1403295,0.5057761,0.039999798,0.039999932,-9.034314,-0.44791144132614136,-3.8280966,-0.07947889,0.0773417055606842,-0.02635512
1994.6166666651814,0.16670959,-1.168558,0.15163383,-2.6837962,-0.012614949,1.1387423,0.5047433,0.03999979,0.039999913,-9.028743,-0.4465875029563904,-3.8422234,-0.078301065,0.07627493143081665,-0.025956897
1994.633333331848,0.16731298,-1.1699511,0.1521831,-2.684983,-0.012660671,1.1371757,0.5037237,0.039999783,0.0399999,-9.022839,-0.4450620114803314,-3.8563998,-0.0771235,0.07520115375518799,-0.025559818
1994.6499999985147,0.16790837,-1.1713259,0.15272518,-2.6861541,-0.012705792,1.1356293,0.50271755,0.03999978,0.039999895,-9.017316,-0.4437825083732605,-3.8700275,-0.07594695,0.07412504404783249,-0.025163766
1994.6666666651813,0.16849577,-1.1726818,0.15325998,-2.6873097,-0.012750304,1.1341037,0.5017249,0.03999978,0.03999989,-9.0115385,-0.44225114583969116,-3.8837578,-0.07477198,0.07304272800683975,-0.024768382
1994.683333331848,0.1690752,-1.1740193,0.15378743,-2.6884496,-0.012794205,1.1325996,0.50074583,0.039999787,0.0399999,-9.00614,-0.4409213662147522,-3.8971152,-0.073598,0.07195233553647995,-0.024373937
1994.6999999985146,0.16964649,-1.1753383,0.15430753,-2.6895738,-0.012837495,1.1311154,0.49978036,0.039999794,0.039999902,-9.000505,-0.4393768012523651,-3.9105124,-0.07242546,0.07085802406072617,-0.023980334
1994.7166666651813,0.17020977,-1.1766385,0.15482032,-2.6906817,-0.012880173,1.1296536,0.4988286,0.03999981,0.03999992,-8.995214,-0.43805238604545593,-3.9234428,-0.07125474,0.06975436210632324,-0.023589967
1994.733333331848,0.17076488,-1.1779199,0.15532571,-2.6917737,-0.012922233,1.1282115,0.49789047,0.03999982,0.039999943,-8.989634,-0.436519593000412,-3.9364605,-0.07008593,0.06865154951810837,-0.023200128
1994.7499999985146,0.17131184,-1.1791825,0.15582368,-2.6928499,-0.012963671,1.1267912,0.4969662,0.03999982,0.03999994,-8.984484,-0.4351745545864105,-3.9490027,-0.06891887,0.0675370916724205,-0.022811325
1994.7666666651812,0.17185064,-1.1804264,0.15631418,-2.69391,-0.013004486,1.1253921,0.49605572,0.039999835,0.03999996,-8.979024,-0.4336332380771637,-3.9616385,-0.06775461,0.06642165780067444,-0.022425087
1994.7833333318479,0.17238122,-1.1816514,0.15679729,-2.6949542,-0.01304468,1.1240141,0.49515912,0.039999843,0.039999977,-8.973972,-0.4322986602783203,-3.973816,-0.06659262,0.06530152261257172,-0.022039304
1994.7999999985145,0.17290358,-1.1828574,0.15727283,-2.695982,-0.013084252,1.1226573,0.49427637,0.03999985,0.04,-8.9686985,-0.4307682514190674,-3.9860563,-0.06543362,0.06417471170425415,-0.021657689
1994.8166666651812,0.1734177,-1.1840445,0.1577409,-2.696994,-0.013123196,1.1213222,0.49340755,0.039999854,0.04,-8.963559,-0.429312139749527,-3.997957,-0.064277254,0.06304483115673065,-0.021274973
1994.8333333318478,0.17392355,-1.1852123,0.15820146,-2.6979887,-0.013161511,1.1200086,0.4925526,0.039999854,0.04,-8.958717,-0.42797282338142395,-4.0095997,-0.06312396,0.061911243945360184,-0.02089274
1994.8499999985145,0.17442112,-1.1863611,0.15865447,-2.6989675,-0.0131991925,1.1187165,0.49171174,0.03999985,0.039999984,-8.953458,-0.42642107605934143,-4.021215,-0.061973553,0.060778215527534485,-0.020508902
1994.8666666651811,0.1749104,-1.1874906,0.15909992,-2.6999304,-0.013236247,1.117446,0.49088487,0.03999985,0.03999998,-8.9487095,-0.42512208223342896,-4.032439,-0.060827054,0.059642594307661057,-0.02012865
1994.8833333318478,0.17539133,-1.1886011,0.1595378,-2.7008765,-0.013272671,1.1161968,0.490072,0.039999854,0.039999977,-8.94379,-0.42358461022377014,-4.0437417,-0.05968398,0.05850043147802353,-0.01975138
1994.8999999985144,0.17586397,-1.1896925,0.15996814,-2.7018068,-0.013308462,1.1149693,0.48927325,0.039999858,0.03999998,-8.939088,-0.4223010838031769,-4.0545397,-0.058545172,0.05735919624567032,-0.01937656
1994.916666665181,0.17632829,-1.1907647,0.16039088,-2.7027204,-0.013343623,1.1137632,0.48848858,0.03999987,0.04,-8.93425,-0.42080608010292053,-4.0654454,-0.05741042,0.05621494725346565,-0.019006222
1994.9333333318477,0.17678426,-1.1918176,0.16080604,-2.7036173,-0.013378152,1.112579,0.487718,0.039999884,0.04,-8.92974,-0.4195311367511749,-4.075889,-0.056280136,0.05506923422217369,-0.018639576
1994.9499999985144,0.1772319,-1.1928511,0.16121365,-2.7044983,-0.013412045,1.1114163,0.48696136,0.03999989,0.04,-8.924941,-0.4180270731449127,-4.086366,-0.055154573,0.053924430161714554,-0.018272946
1994.966666665181,0.17767121,-1.1938654,0.16161361,-2.7053626,-0.013445307,1.1102755,0.48621896,0.0399999,0.04,-8.920633,-0.4167286157608032,-4.096483,-0.054032788,0.05277477204799652,-0.017907357
1994.9833333318477,0.1781022,-1.1948605,0.16200607,-2.7062104,-0.013477923,1.1091561,0.4854905,0.039999902,0.04,-8.915945,-0.4152488112449646,-4.1065645,-0.052916512,0.05162857845425606,-0.01754226
1994.9999999985143,0.17852484,-1.1958365,0.16239092,-2.7070422,-0.013509907,1.1080582,0.48477617,0.039999902,0.04,-8.911732,-0.4140094220638275,-4.1162653,-0.05180485,0.05048088729381561,-0.017180752
1995.016666665181,0.17893913,-1.1967932,0.16276817,-2.707857,-0.013541264,1.1069821,0.4840759,0.039999906,0.04,-8.907283,-0.4125623106956482,-4.125973,-0.05069895,0.049332138150930405,-0.016821587
1995.0333333318476,0.17934516,-1.1977307,0.16313787,-2.7086558,-0.0135719925,1.1059276,0.48338968,0.039999906,0.04,-8.903081,-0.411337673664093,-4.1352715,-0.04959846,0.04818815737962723,-0.016464386
1995.0499999985143,0.17974289,-1.1986488,0.16350003,-2.7094386,-0.013602094,1.1048945,0.48271748,0.03999991,0.04,-8.898814,-0.40990814566612244,-4.144625,-0.048503578,0.047041717916727066,-0.016110264
1995.066666665181,0.18013237,-1.199548,0.16385464,-2.7102048,-0.013631569,1.1038831,0.4820593,0.03999991,0.04,-8.894705,-0.40860122442245483,-4.1536803,-0.047414392,0.04589531570672989,-0.015759576
1995.0833333318476,0.18051352,-1.2004281,0.1642017,-2.7109547,-0.01366042,1.1028929,0.4814151,0.03999991,0.04,-8.890805,-0.40741682052612305,-4.1624165,-0.04633149,0.04475279152393341,-0.015410779
1995.0999999985142,0.18088643,-1.2012893,0.16454127,-2.711688,-0.013688637,1.1019242,0.48078483,0.03999991,0.04,-8.886661,-0.4060346484184265,-4.1711736,-0.04525502,0.04361040145158768,-0.015065132
1995.116666665181,0.18125114,-1.2021315,0.16487335,-2.712406,-0.013716232,1.1009771,0.48016846,0.039999913,0.04,-8.882864,-0.4048771858215332,-4.179531,-0.0441852,0.042473770678043365,-0.014721107
1995.1333333318476,0.18160765,-1.2029548,0.16519794,-2.7131073,-0.013743208,1.1000512,0.47956592,0.039999913,0.04,-8.878921,-0.4035273790359497,-4.187935,-0.043121945,0.04133825749158859,-0.014381081
1995.1499999985142,0.18195598,-1.2037592,0.1655151,-2.713793,-0.013769559,1.0991466,0.4789772,0.03999991,0.04,-8.87531,-0.40239304304122925,-4.1959467,-0.042065457,0.04020547494292259,-0.014044126
1995.1666666651809,0.18229611,-1.2045448,0.16582486,-2.7144623,-0.013795296,1.0982629,0.47840223,0.039999913,0.04,-8.871463,-0.40107250213623047,-4.20396,-0.04101602,0.03907645866274834,-0.013709007
1995.1833333318475,0.18262812,-1.2053114,0.16612719,-2.7151158,-0.013820413,1.0974004,0.47784093,0.039999913,0.04,-8.867963,-0.399962842464447,-4.21157,-0.039974235,0.037951644510030746,-0.013375174
1995.1999999985142,0.1829521,-1.2060596,0.16642219,-2.715753,-0.013844909,1.096559,0.47729343,0.039999902,0.04,-8.86428,-0.3986726701259613,-4.219234,-0.038939696,0.03682892769575119,-0.013045355
1995.2166666651808,0.183268,-1.2067893,0.16670986,-2.7163744,-0.013868794,1.0957385,0.4767594,0.0399999,0.04,-8.860924,-0.3976307809352875,-4.2264905,-0.03791354,0.03571395203471184,-0.012719204
1995.2333333318475,0.18357591,-1.2075005,0.16699028,-2.71698,-0.013892088,1.0949388,0.47623894,0.03999989,0.04,-8.857319,-0.39639851450920105,-4.233749,-0.03689498,0.03460521250963211,-0.012397038
1995.249999998514,0.18387589,-1.2081932,0.16726342,-2.71757,-0.013914783,1.0941596,0.4757319,0.03999989,0.04,-8.854122,-0.395368367433548,-4.2406487,-0.03588497,0.03350294753909111,-0.012076917
1995.2666666651808,0.18416792,-1.2088678,0.16752933,-2.7181447,-0.013936868,1.0934012,0.47523823,0.03999989,0.04,-8.850737,-0.3941556215286255,-4.247578,-0.034883037,0.03240347281098366,-0.011761344
1995.2833333318474,0.18445209,-1.2095242,0.1677881,-2.7187037,-0.013958358,1.0926629,0.47475794,0.039999895,0.04,-8.847687,-0.3931577801704407,-4.2541227,-0.0338899,0.03131192550063133,-0.011448667
1995.299999998514,0.18472841,-1.2101624,0.16803975,-2.7192473,-0.013979261,1.0919452,0.47429082,0.039999895,0.04,-8.844402,-0.3920033574104309,-4.2606707,-0.03290613,0.030225617811083794,-0.011140366
1995.3166666651807,0.184997,-1.2107828,0.16828431,-2.7197757,-0.013999574,1.0912474,0.47383684,0.039999895,0.04,-8.841322,-0.39094236493110657,-4.266972,-0.031931464,0.029147932305932045,-0.01083448
1995.3333333318474,0.18525785,-1.2113854,0.16852188,-2.7202892,-0.0140193,1.0905699,0.47339588,0.0399999,0.04,-8.838513,-0.39000001549720764,-4.2730036,-0.030966047,0.028075573965907097,-0.010532963
1995.349999998514,0.18551107,-1.2119706,0.16875249,-2.7207875,-0.0140384445,1.0899119,0.47296783,0.039999902,0.04,-8.835458,-0.38889655470848083,-4.2790413,-0.030010516,0.027011191472411156,-0.010234841
1995.3666666651807,0.18575667,-1.2125379,0.16897617,-2.721271,-0.01405701,1.089274,0.47255266,0.039999906,0.04,-8.832713,-0.3879956901073456,-4.2846985,-0.02906494,0.025957433506846428,-0.009939642
1995.3833333318473,0.18599476,-1.2130878,0.16919298,-2.7217398,-0.014075009,1.0886556,0.4721502,0.039999906,0.04,-8.829817,-0.38692620396614075,-4.2904234,-0.02812958,0.024910051375627518,-0.009649578
1995.399999998514,0.1862254,-1.2136207,0.16940303,-2.7221937,-0.0140924435,1.0880562,0.47176024,0.039999906,0.04,-8.827252,-0.3860429525375366,-4.295794,-0.02720463,0.023871125653386116,-0.00936304
1995.4166666651806,0.1864487,-1.2141364,0.16960646,-2.7226334,-0.014109316,1.0874761,0.4713829,0.03999991,0.04,-8.824432,-0.38503795862197876,-4.3011127,-0.026289975,0.02284245751798153,-0.009079918
1995.4333333318473,0.18666461,-1.2146353,0.16980313,-2.7230582,-0.014125639,1.0869153,0.47101796,0.03999991,0.04,-8.822019,-0.3842070996761322,-4.3061686,-0.025386637,0.021822614595294,-0.008800982
1995.449999998514,0.18687338,-1.2151175,0.16999322,-2.723469,-0.014141412,1.0863731,0.47066513,0.039999913,0.04,-8.819311,-0.383217990398407,-4.311167,-0.024495238,0.020816674456000328,-0.008525063
1995.4666666651806,0.1870749,-1.2155833,0.17017679,-2.7238655,-0.014156643,1.0858496,0.47032428,0.039999913,0.04,-8.817047,-0.3824261426925659,-4.315895,-0.02361425,0.019819170236587524,-0.008254186
1995.4833333318472,0.18726943,-1.2160324,0.17035393,-2.7242482,-0.014171344,1.0853447,0.46999544,0.039999913,0.04,-8.814474,-0.3814888894557953,-4.3205624,-0.022745317,0.01883586309850216,-0.00798657
1995.4999999985139,0.18745689,-1.2164658,0.17052472,-2.7246168,-0.014185513,1.0848577,0.4696785,0.039999917,0.04,-8.812298,-0.38072291016578674,-4.3249865,-0.021887695,0.01786329410970211,-0.00772269
1995.5166666651805,0.18763751,-1.2168833,0.1706892,-2.724972,-0.014199163,1.0843885,0.46937317,0.039999917,0.04,-8.809872,-0.37983447313308716,-4.329329,-0.021043688,0.01690530590713024,-0.0074629392
1995.5333333318472,0.18781133,-1.217285,0.1708475,-2.7253144,-0.014212301,1.0839369,0.4690793,0.039999917,0.04,-8.80784,-0.3791171908378601,-4.333424,-0.020211903,0.01595860719680786,-0.007207767
1995.5499999985138,0.18797843,-1.2176709,0.17099968,-2.725643,-0.014224929,1.0835028,0.46879685,0.03999992,0.04,-8.805639,-0.37825125455856323,-4.337529,-0.019392597,0.015022029168903828,-0.006957234
1995.5666666651805,0.1881389,-1.2180417,0.1711458,-2.7259588,-0.014237058,1.0830859,0.4685256,0.03999992,0.04,-8.803501,-0.37749388813972473,-4.341386,-0.018586703,0.014100308530032635,-0.006711308
1995.5833333318471,0.18829288,-1.2183973,0.17128606,-2.7262616,-0.014248703,1.0826858,0.46826524,0.03999992,0.04,-8.801665,-0.3768162727355957,-4.345046,-0.017794602,0.013191563077270985,-0.006470302
1995.5999999985138,0.1884404,-1.2187382,0.1714205,-2.7265518,-0.014259855,1.0823023,0.46801564,0.039999925,0.04,-8.799577,-0.3760188817977905,-4.3486958,-0.017015554,0.012296981178224087,-0.006232912
1995.6166666651804,0.1885817,-1.2190648,0.17154917,-2.72683,-0.0142705245,1.0819352,0.46777683,0.039999925,0.039999995,-8.797768,-0.3753877878189087,-4.352041,-0.016250663,0.011419163085520267,-0.0059996923
1995.633333331847,0.18871678,-1.219377,0.17167222,-2.7270954,-0.014280727,1.0815841,0.46754846,0.039999925,0.039999995,-8.79588,-0.37462329864501953,-4.3554215,-0.015500728,0.01055475790053606,-0.005772268
1995.6499999985137,0.18884581,-1.2196754,0.17178977,-2.7273495,-0.014290466,1.081249,0.46733034,0.039999925,0.03999999,-8.794158,-0.37403059005737305,-4.3584948,-0.014765472,0.009708242490887642,-0.005548419
1995.6666666651804,0.18896887,-1.2199599,0.17190193,-2.7275915,-0.014299763,1.0809293,0.4671223,0.039999925,0.03999999,-8.792352,-0.37330541014671326,-4.361614,-0.0140451,0.008877643384039402,-0.00532978
1995.683333331847,0.1890861,-1.2202309,0.17200868,-2.7278225,-0.014308617,1.0806248,0.466924,0.039999925,0.03999999,-8.790797,-0.3727337718009949,-4.364445,-0.013340247,0.00806362833827734,-0.005115981
1995.6999999985137,0.18919763,-1.2204888,0.17211027,-2.7280416,-0.0143170385,1.080335,0.4667355,0.03999993,0.03999999,-8.789079,-0.3720395267009735,-4.3672814,-0.012650605,0.007266318425536156,-0.004907283
1995.7166666651804,0.18930356,-1.220734,0.17220679,-2.72825,-0.014325031,1.0800598,0.46655634,0.039999932,0.03999999,-8.787586,-0.3715062737464905,-4.3698554,-0.011977692,0.006488183978945017,-0.004702854
1995.733333331847,0.189404,-1.2209662,0.17229834,-2.7284482,-0.014332613,1.0797986,0.4663864,0.039999932,0.03999999,-8.785992,-0.3708595037460327,-4.3724346,-0.011320787,0.005727849435061216,-0.004504277
1995.7499999985137,0.18949915,-1.2211864,0.17238505,-2.728635,-0.014339789,1.0795513,0.46622548,0.039999936,0.03999999,-8.784669,-0.37033119797706604,-4.374826,-0.010680598,0.004982721991837025,-0.0043115197
1995.7666666651803,0.18958917,-1.2213947,0.17246707,-2.7288115,-0.014346573,1.0793173,0.46607333,0.039999936,0.03999999,-8.78306,-0.36972758173942566,-4.377131,-0.01005756,0.00426188251003623,-0.0041229837
1995.783333331847,0.18967411,-1.2215912,0.17254446,-2.728979,-0.014352979,1.0790966,0.46592966,0.039999936,0.03999999,-8.781763,-0.3692510724067688,-4.3792367,-0.009452136,0.00356090790592134,-0.0039394614
1995.7999999985136,0.18975416,-1.2217765,0.17261744,-2.729137,-0.0143590225,1.0788884,0.46579427,0.039999936,0.03999999,-8.78045,-0.36864548921585083,-4.3814135,-0.008864451,0.002875944832339883,-0.0037630692
1995.8166666651803,0.18982947,-1.2219507,0.17268607,-2.729285,-0.014364707,1.0786928,0.4656669,0.039999936,0.03999999,-8.779171,-0.3681323826313019,-4.3833947,-0.008294805,0.002210648264735937,-0.0035923973
1995.833333331847,0.18990017,-1.2221143,0.17275052,-2.729423,-0.014370045,1.0785091,0.4655473,0.039999936,0.03999999,-8.777936,-0.36767902970314026,-4.385198,-0.007743669,0.0015702423406764865,-0.0034261856
1995.8499999985136,0.18996644,-1.2222676,0.17281091,-2.7295527,-0.0143750515,1.0783368,0.46543515,0.039999936,0.03999999,-8.776557,-0.36715081334114075,-4.386956,-0.007211643,0.0009554357966408134,-0.0032645224
1995.8666666651802,0.19002846,-1.2224112,0.17286743,-2.7296743,-0.014379729,1.0781757,0.4653303,0.03999994,0.03999999,-8.775502,-0.3667084276676178,-4.388595,-0.006698598,0.000360814476152882,-0.003108884
1995.8833333318469,0.19008633,-1.2225451,0.17292021,-2.7297883,-0.014384092,1.0780251,0.46523237,0.03999994,0.03999999,-8.774347,-0.3661960959434509,-4.390241,-0.006205497,-0.00021343774278648198,-0.0029602868
1995.8999999985135,0.19014022,-1.2226701,0.17296937,-2.7298942,-0.0143881515,1.077885,0.46514118,0.039999943,0.03999999,-8.77336,-0.3657742142677307,-4.3917055,-0.0057323347,-0.0007661419222131371,-0.0028179197
1995.9166666651802,0.19019032,-1.222786,0.17301512,-2.7299926,-0.01439193,1.0777545,0.4650564,0.039999943,0.03999999,-8.772171,-0.3652799129486084,-4.3931394,-0.0052800956,-0.0012924633920192719,-0.0026815464
1995.9333333318468,0.19023687,-1.2228938,0.17305754,-2.7300835,-0.014395433,1.0776335,0.46497765,0.039999943,0.03999999,-8.771248,-0.3648749589920044,-4.3944592,-0.004848533,-0.0017982862191274762,-0.002552474
1995.9499999985135,0.19027992,-1.2229934,0.17309685,-2.730167,-0.014398677,1.0775213,0.4649047,0.039999943,0.03999999,-8.770086,-0.36442360281944275,-4.395702,-0.004438225,-0.00227399542927742,-0.002428152
1995.9666666651801,0.1903197,-1.2230854,0.1731332,-2.7302434,-0.014401672,1.0774176,0.46483725,0.039999947,0.03999999,-8.769122,-0.36402904987335205,-4.3968477,-0.004049315,-0.002724292455241084,-0.0023098553
1995.9833333318468,0.19035652,-1.2231705,0.17316675,-2.7303178,-0.01440443,1.077322,0.46477497,0.03999995,0.03999999,-8.768064,-0.3635842204093933,-4.397965,-0.0036827892,-0.003147067269310355,-0.00219777
1995.9999999985134,0.19039042,-1.2232491,0.17319767,-2.7303853,-0.014406968,1.0772339,0.46471754,0.03999995,0.03999999,-8.767592,-0.3631589412689209,-4.399161,-0.0033381996,-0.00355903641320765,-0.0020976383
1996.01666666518,0.19042166,-1.2233216,0.17322616,-2.7304456,-0.0144093055,1.077153,0.46466467,0.03999995,0.03999999,-8.766448,-0.3627360165119171,-4.4001155,-0.003016872,-0.00393681088462472,-0.002002205
1996.0333333318467,0.1904504,-1.2233881,0.17325242,-2.7305045,-0.014411455,1.0770782,0.46461606,0.03999995,0.03999999,-8.765436,-0.36238136887550354,-4.4009643,-0.0027190698,-0.004279154818505049,-0.0019111027
1996.0499999985134,0.1904768,-1.2234495,0.17327645,-2.7305567,-0.014413435,1.0770093,0.46457133,0.03999995,0.03999999,-8.76488,-0.3619231581687927,-4.4020185,-0.0024446342,-0.00461100647225976,-0.0018322743
1996.06666666518,0.19050106,-1.2235061,0.17329848,-2.7306044,-0.014415254,1.0769461,0.4645301,0.03999995,0.03999999,-8.763839,-0.3615722358226776,-4.4027405,-0.0021925448,-0.0049072206020355225,-0.0017574818
1996.0833333318467,0.1905234,-1.2235578,0.17331898,-2.730649,-0.014416924,1.076888,0.46449223,0.039999954,0.03999999,-8.763089,-0.36124756932258606,-4.4034553,-0.0019605758,-0.005176560487598181,-0.0016877566
1996.0999999985133,0.19054396,-1.2236054,0.17333761,-2.73069,-0.014418459,1.0768342,0.46445736,0.039999954,0.03999999,-8.762447,-0.36092108488082886,-4.404225,-0.0017470818,-0.005429754499346018,-0.0016245294
1996.11666666518,0.19056289,-1.223649,0.1733548,-2.730727,-0.014419869,1.0767847,0.46442527,0.039999954,0.03999999,-8.761852,-0.3606392741203308,-4.4048414,-0.0015504039,-0.00566331809386611,-0.0015677606
1996.1333333318466,0.19058026,-1.2236892,0.1733707,-2.7307627,-0.014421167,1.0767394,0.46439576,0.039999954,0.03999999,-8.761149,-0.3603666126728058,-4.4054174,-0.0013693479,-0.005875592585653067,-0.0015143664
1996.1499999985133,0.19059625,-1.2237263,0.17338537,-2.7307925,-0.014422364,1.0766977,0.46436858,0.039999954,0.03999999,-8.760821,-0.3601202666759491,-4.4060354,-0.0012029909,-0.006077475380152464,-0.0014671092
1996.16666666518,0.190611,-1.223761,0.17339887,-2.7308216,-0.0144234635,1.0766591,0.46434367,0.039999954,0.03999999,-8.759969,-0.35992857813835144,-4.4063935,-0.00105008,-0.006249601952731609,-0.0014190521
1996.1833333318466,0.1906246,-1.2237926,0.17341127,-2.7308497,-0.014424476,1.0766232,0.4643207,0.039999954,0.03999999,-8.759726,-0.3597258925437927,-4.4068713,-0.000910093,-0.006413727533072233,-0.0013765583
1996.1999999985132,0.19063702,-1.2238214,0.17342266,-2.7308736,-0.014425408,1.0765907,0.46429953,0.039999954,0.03999999,-8.759444,-0.35950061678886414,-4.40738,-0.0007805938,-0.0065736714750528336,-0.0013405227
1996.21666666518,0.19064844,-1.2238485,0.17343315,-2.7308953,-0.014426265,1.0765618,0.46428007,0.039999954,0.03999999,-8.758839,-0.35935547947883606,-4.407697,-0.0006616016,-0.006710623856633902,-0.0013041752
1996.2333333318466,0.19065897,-1.2238729,0.17344284,-2.7309163,-0.014427053,1.0765333,0.46426213,0.039999954,0.03999999,-8.758425,-0.35918745398521423,-4.408039,-0.0005526911,-0.00682877330109477,-0.0012682654
1996.2499999985132,0.19066875,-1.2238959,0.17345172,-2.7309368,-0.014427781,1.0765084,0.46424565,0.039999954,0.03999999,-8.7582855,-0.3590488135814667,-4.40838,-0.0004517993,-0.00695240031927824,-0.0012398137
1996.2666666651799,0.19067766,-1.2239166,0.17345992,-2.7309544,-0.014428449,1.0764846,0.46423045,0.039999954,0.03999999,-8.758054,-0.3588854968547821,-4.408747,-0.00035909878,-0.0070634689182043076,-0.0012127841
1996.2833333318465,0.19068593,-1.2239361,0.17346746,-2.7309697,-0.014429063,1.0764635,0.46421653,0.039999954,0.03999999,-8.757681,-0.3587845265865326,-4.408968,-0.00027372545,-0.007166087161749601,-0.0011880765
1996.2999999985132,0.19069341,-1.2239535,0.17347439,-2.7309837,-0.014429624,1.0764426,0.46420372,0.039999954,0.03999999,-8.757288,-0.3586771786212921,-4.409185,-0.00019552941,-0.007251105271279812,-0.0011621715
1996.3166666651798,0.19070038,-1.2239698,0.17348072,-2.7309973,-0.014430145,1.0764253,0.46419194,0.039999954,0.03999999,-8.757111,-0.3585720658302307,-4.4094105,-0.00012366731,-0.0073377592489123344,-0.0011413916
1996.3333333318465,0.19070683,-1.223985,0.17348658,-2.7310104,-0.01443062,1.076408,0.4641811,0.039999954,0.03999999,-8.756933,-0.3584662675857544,-4.409681,-5.7483438e-05,-0.007410659920424223,-0.0011200308
1996.349999998513,0.1907128,-1.2239985,0.17349197,-2.7310233,-0.01443106,1.076393,0.4641711,0.039999954,0.03999999,-8.756822,-0.35837817192077637,-4.409867,3.6001973e-06,-0.0074859848245978355,-0.0011029632
1996.3666666651798,0.19071828,-1.2240113,0.17349692,-2.7310345,-0.014431466,1.0763795,0.46416184,0.039999954,0.03999999,-8.756716,-0.35827767848968506,-4.410128,6.0171937e-05,-0.007556301075965166,-0.0010873115
1996.3833333318464,0.19072329,-1.2240231,0.17350148,-2.7310443,-0.014431839,1.0763661,0.46415332,0.039999954,0.03999999,-8.75645,-0.3582063615322113,-4.4102616,0.000112415364,-0.0076157948933541775,-0.0010714545
1996.399999998513,0.19072784,-1.2240335,0.17350571,-2.7310529,-0.014432182,1.0763528,0.46414557,0.039999954,0.03999999,-8.756268,-0.35815557837486267,-4.410357,0.00016017763,-0.007672415114939213,-0.0010574888
1996.4166666651797,0.19073196,-1.2240433,0.17350955,-2.7310605,-0.014432498,1.0763432,0.4641384,0.039999954,0.03999999,-8.756101,-0.35808831453323364,-4.4105034,0.00020387663,-0.00772865442559123,-0.0010459075
1996.4333333318464,0.19073592,-1.2240524,0.17351311,-2.7310674,-0.014432789,1.0763335,0.46413177,0.039999954,0.03999999,-8.75589,-0.3580184876918793,-4.4106674,0.00024379737,-0.007767071481794119,-0.0010312196
1996.449999998513,0.1907395,-1.2240609,0.1735164,-2.7310736,-0.014433051,1.0763239,0.46412578,0.039999958,0.03999999,-8.642616,-0.3712751567363739,-4.3227167,0.0,-0.0,0.0
1996.4666666651797,0.1907395,-1.2240609,0.1735164,-2.7310736,-0.014433051,1.0763239,0.46412578,0.039999958,0.03999999,-8.754995,-0.3575177490711212,-4.4111624,0.0,-0.0,0.0
1996.4833333318463,0.1907395,-1.2240609,0.1735164,-2.7310736,-0.014433051,1.0763239,0.46412578,0.039999958,0.03999999,-8.754995,-0.3575177490711212,-4.4111624,0.0,-0.0,0.0
1996.499999998513,0.1907395,-1.2240609,0.1735164,-2.7310736,-0.014433051,1.0763239,0.46412578,0.039999958,0.03999999,-8.754995,-0.3575177490711212,-4.4111624,0.0,-0.0,0.0
1996.5166666651796,0.1907395,-1.2240609,0.1735164,-2.7310736,-0.014433051,1.0763239,0.46412578,0.039999958,0.03999999,-8.754995,-0.3575177490711212,-4.4111624,0.0,-0.0,0.0
1996.5333333318463,0.1907395,-1.2240609,0.1735164,-2.7310736,-0.014433051,1.0763239,0.46412578,0.039999958,0.03999999,-8.754995,-0.3575177490711212,-4.4111624,0.0,-0.0,0.0
1996.549999998513,0.1907395,-1.2240609,0.1735164,-2.7310736,-0.014433051,1.0763239,0.46412578,0.039999958,0.03999999,-8.754995,-0.3575177490711212,-4.4111624,0.0,-0.0,0.0
1996.5666666651796,0.1907395,-1.2240609,0.1735164,-2.7310736,-0.014433051,1.0763239,0.46412578,0.039999958,0.03999999,-8.754995,-0.3575177490711212,-4.4111624,0.0,-0.0,0.0
1996.5833333318462,0.1907395,-1.2240609,0.1735164,-2.7310736,-0.014433051,1.0763239,0.46412578,0.039999958,0.03999999,-8.754995,-0.3575177490711212,-4.4111624,0.0,-0.0,0.0
1996.5999999985129,0.1907395,-1.2240609,0.1735164,-2.7310736,-0.014433051,1.0763239,0.46412578,0.039999958,0.03999999,-8.754995,-0.3575177490711212,-4.4111624,0.0,-0.0,0.0
1996.6166666651795,0.1907395,-1.2240609,0.1735164,-2.7310736,-0.014433051,1.0763239,0.46412578,0.039999958,0.03999999,-8.754995,-0.3575177490711212,-4.4111624,0.0,-0.0,0.0
1996.6333333318462,0.1907395,-1.2240609,0.1735164,-2.7310736,-0.014433051,1.0763239,0.46412578,0.039999958,0.03999999,-8.754995,-0.3575177490711212,-4.4111624,0.0,-0.0,0.0
1996.6499999985128,0.1907395,-1.2240609,0.1735164,-2.7310736,-0.014433051,1.0763239,0.46412578,0.039999958,0.03999999,-8.754995,-0.3575177490711212,-4.4111624,0.0,-0.0,0.0
1996.6666666651795,0.1907395,-1.2240609,0.1735164,-2.7310736,-0.014433051,1.0763239,0.46412578,0.039999958,0.03999999,-8.754995,-0.3575177490711212,-4.4111624,0.0,-0.0,0.0
1996.6833333318461,0.1907395,-1.2240609,0.1735164,-2.7310736,-0.014433051,1.0763239,0.46412578,0.039999958,0.03999999,-8.754995,-0.3575177490711212,-4.4111624,0.0,-0.0,0.0
1996.6999999985128,0.1907395,-1.2240609,0.1735164,-2.7310736,-0.014433051,1.0763239,0.46412578,0.039999958,0.03999999,-8.754995,-0.3575177490711212,-4.4111624,0.0,-0.0,0.0
1996.7166666651794,0.1907395,-1.2240609,0.1735164,-2.7310736,-0.014433051,1.0763239,0.46412578,0.039999958,0.03999999,-8.754995,-0.3575177490711212,-4.4111624,0.0,-0.0,0.0
1996.733333331846,0.1907395,-1.2240609,0.1735164,-2.7310736,-0.014433051,1.0763239,0.46412578,0.039999958,0.03999999,-8.754995,-0.3575177490711212,-4.4111624,0.0,-0.0,0.0
1996.7499999985127,0.1907395,-1.2240609,0.1735164,-2.7310736,-0.014433051,1.0763239,0.46412578,0.039999958,0.03999999,-8.754995,-0.3575177490711212,-4.4111624,0.0,-0.0,0.0
1996.7666666651794,0.1907395,-1.2240609,0.1735164,-2.7310736,-0.014433051,1.0763239,0.46412578,0.039999958,0.03999999,-8.754995,-0.3575177490711212,-4.4111624,0.0,-0.0,0.0
1996.783333331846,0.1907395,-1.2240609,0.1735164,-2.7310736,-0.014433051,1.0763239,0.46412578,0.039999958,0.03999999,-8.754995,-0.3575177490711212,-4.4111624,0.0,-0.0,0.0
1996.7999999985127,0.1907395,-1.2240609,0.1735164,-2.7310736,-0.014433051,1.0763239,0.46412578,0.039999958,0.03999999,-8.754995,-0.3575177490711212,-4.4111624,0.0,-0.0,0.0
1996.8166666651794,0.1907395,-1.2240609,0.1735164,-2.7310736,-0.014433051,1.0763239,0.46412578,0.039999958,0.03999999,-8.754995,-0.3575177490711212,-4.4111624,0.0,-0.0,0.0
1996.833333331846,0.1907395,-1.2240609,0.1735164,-2.7310736,-0.014433051,1.0763239,0.46412578,0.039999958,0.03999999,-8.754995,-0.3575177490711212,-4.4111624,0.0,-0.0,0.0
1996.8499999985127,0.1907395,-1.2240609,0.1735164,-2.7310736,-0.014433051,1.0763239,0.46412578,0.039999958,0.03999999,-8.754995,-0.3575177490711212,-4.4111624,0.0,-0.0,0.0
1996.8666666651793,0.1907395,-1.2240609,0.1735164,-2.7310736,-0.014433051,1.0763239,0.46412578,0.039999958,0.03999999,-8.754995,-0.3575177490711212,-4.4111624,0.0,-0.0,0.0
1996.883333331846,0.1907395,-1.2240609,0.1735164,-2.7310736,-0.014433051,1.0763239,0.46412578,0.039999958,0.03999999,-8.754995,-0.3575177490711212,-4.4111624,0.0,-0.0,0.0
1996.8999999985126,0.1907395,-1.2240609,0.1735164,-2.7310736,-0.014433051,1.0763239,0.46412578,0.039999958,0.03999999,-8.754995,-0.3575177490711212,-4.4111624,0.0,-0.0,0.0
1996.9166666651793,0.1907395,-1.2240609,0.1735164,-2.7310736,-0.014433051,1.0763239,0.46412578,0.039999958,0.03999999,-8.754995,-0.3575177490711212,-4.4111624,0.0,-0.0,0.0
1996.933333331846,0.1907395,-1.2240609,0.1735164,-2.7310736,-0.014433051,1.0763239,0.46412578,0.039999958,0.03999999,-8.754995,-0.3575177490711212,-4.4111624,0.0,-0.0,0.0
1996.9499999985126,0.1907395,-1.2240609,0.1735164,-2.7310736,-0.014433051,1.0763239,0.46412578,0.039999958,0.03999999,-8.754995,-0.3575177490711212,-4.4111624,0.0,-0.0,0.0
1996.9666666651792,0.1907395,-1.2240609,0.1735164,-2.7310736,-0.014433051,1.0763239,0.46412578,0.039999958,0.03999999,-8.754995,-0.3575177490711212,-4.4111624,0.0,-0.0,0.0
1996.9833333318459,0.1907395,-1.2240609,0.1735164,-2.7310736,-0.014433051,1.0763239,0.46412578,0.039999958,0.03999999,-8.754995,-0.3575177490711212,-4.4111624,0.0,-0.0,0.0
1996.9999999985125,0.1907395,-1.2240609,0.1735164,-2.7310736,-0.014433051,1.0763239,0.46412578,0.039999958,0.03999999,-8.754995,-0.3575177490711212,-4.4111624,0.0,-0.0,0.0
1997.0166666651792,0.1907395,-1.2240609,0.1735164,-2.7310736,-0.014433051,1.0763239,0.46412578,0.039999958,0.03999999,-8.754995,-0.3575177490711212,-4.4111624,0.0,-0.0,0.0
1997.0333333318458,0.1907395,-1.2240609,0.1735164,-2.7310736,-0.014433051,1.0763239,0.46412578,0.039999958,0.03999999,-8.754995,-0.3575177490711212,-4.4111624,0.0,-0.0,0.0
1997.0499999985125,0.1907395,-1.2240609,0.1735164,-2.7310736,-0.014433051,1.0763239,0.46412578,0.039999958,0.03999999,-8.754995,-0.3575177490711212,-4.4111624,0.0,-0.0,0.0
1997.0666666651791,0.1907395,-1.2240609,0.1735164,-2.7310736,-0.014433051,1.0763239,0.46412578,0.039999958,0.03999999,-8.754995,-0.3575177490711212,-4.4111624,0.0,-0.0,0.0
1997.0833333318458,0.1907395,-1.2240609,0.1735164,-2.7310736,-0.014433051,1.0763239,0.46412578,0.039999958,0.03999999,-8.754995,-0.3575177490711212,-4.4111624,0.0,-0.0,0.0
1997.0999999985124,0.1907395,-1.2240609,0.1735164,-2.7310736,-0.014433051,1.0763239,0.46412578,0.039999958,0.03999999,-8.754995,-0.3575177490711212,-4.4111624,0.0,-0.0,0.0
1997.116666665179,0.1907395,-1.2240609,0.1735164,-2.7310736,-0.014433051,1.0763239,0.46412578,0.039999958,0.03999999,-8.754995,-0.3575177490711212,-4.4111624,0.0,-0.0,0.0
1997.1333333318457,0.1907395,-1.2240609,0.1735164,-2.7310736,-0.014433051,1.0763239,0.46412578,0.039999958,0.03999999,-8.754995,-0.3575177490711212,-4.4111624,0.0,-0.0,0.0
1997.1499999985124,0.1907395,-1.2240609,0.1735164,-2.7310736,-0.014433051,1.0763239,0.46412578,0.039999958,0.03999999,-8.754995,-0.3575177490711212,-4.4111624,0.0,-0.0,0.0
1997.166666665179,0.1907395,-1.2240609,0.1735164,-2.7310736,-0.014433051,1.0763239,0.46412578,0.039999958,0.03999999,-8.754995,-0.3575177490711212,-4.4111624,0.0,-0.0,0.0
1997.1833333318457,0.1907395,-1.2240609,0.1735164,-2.7310736,-0.014433051,1.0763239,0.46412578,0.039999958,0.03999999,-8.754995,-0.3575177490711212,-4.4111624,0.0,-0.0,0.0
1997.1999999985123,0.1907395,-1.2240609,0.1735164,-2.7310736,-0.014433051,1.0763239,0.46412578,0.039999958,0.03999999,-8.754995,-0.3575177490711212,-4.4111624,0.0,-0.0,0.0
1997.216666665179,0.1907395,-1.2240609,0.1735164,-2.7310736,-0.014433051,1.0763239,0.46412578,0.039999958,0.03999999,-8.754995,-0.3575177490711212,-4.4111624,0.0,-0.0,0.0
1997.2333333318456,0.1907395,-1.2240609,0.1735164,-2.7310736,-0.014433051,1.0763239,0.46412578,0.039999958,0.03999999,-8.754995,-0.3575177490711212,-4.4111624,0.0,-0.0,0.0
1997.2499999985123,0.1907395,-1.2240609,0.1735164,-2.7310736,-0.014433051,1.0763239,0.46412578,0.039999958,0.03999999,-8.754995,-0.3575177490711212,-4.4111624,0.0,-0.0,0.0
1997.266666665179,0.1907395,-1.2240609,0.1735164,-2.7310736,-0.014433051,1.0763239,0.46412578,0.039999958,0.03999999,-8.754995,-0.3575177490711212,-4.4111624,0.0,-0.0,0.0
1997.2833333318456,0.1907395,-1.2240609,0.1735164,-2.7310736,-0.014433051,1.0763239,0.46412578,0.039999958,0.03999999,-8.754995,-0.3575177490711212,-4.4111624,0.0,-0.0,0.0
1997.2999999985122,0.1907395,-1.2240609,0.1735164,-2.7310736,-0.014433051,1.0763239,0.46412578,0.039999958,0.03999999,-8.754995,-0.3575177490711212,-4.4111624,0.0,-0.0,0.0
1997.316666665179,0.1907395,-1.2240609,0.1735164,-2.7310736,-0.014433051,1.0763239,0.46412578,0.039999958,0.03999999,-8.754995,-0.3575177490711212,-4.4111624,0.0,-0.0,0.0
1997.3333333318456,0.1907395,-1.2240609,0.1735164,-2.7310736,-0.014433051,1.0763239,0.46412578,0.039999958,0.03999999,-8.754995,-0.3575177490711212,-4.4111624,0.0,-0.0,0.0
1997.3499999985122,0.1907395,-1.2240609,0.1735164,-2.7310736,-0.014433051,1.0763239,0.46412578,0.039999958,0.03999999,-8.754995,-0.3575177490711212,-4.4111624,0.0,-0.0,0.0
1997.3666666651789,0.1907395,-1.2240609,0.1735164,-2.7310736,-0.014433051,1.0763239,0.46412578,0.039999958,0.03999999,-8.754995,-0.3575177490711212,-4.4111624,0.0,-0.0,0.0
1997.3833333318455,0.1907395,-1.2240609,0.1735164,-2.7310736,-0.014433051,1.0763239,0.46412578,0.039999958,0.03999999,-8.754995,-0.3575177490711212,-4.4111624,0.0,-0.0,0.0
1997.3999999985122,0.1907395,-1.2240609,0.1735164,-2.7310736,-0.014433051,1.0763239,0.46412578,0.039999958,0.03999999,-8.754995,-0.3575177490711212,-4.4111624,0.0,-0.0,0.0
1997.4166666651788,0.1907395,-1.2240609,0.1735164,-2.7310736,-0.014433051,1.0763239,0.46412578,0.039999958,0.03999999,-8.754995,-0.3575177490711212,-4.4111624,0.0,-0.0,0.0
1997.4333333318455,0.1907395,-1.2240609,0.1735164,-2.7310736,-0.014433051,1.0763239,0.46412578,0.039999958,0.03999999,-8.754995,-0.3575177490711212,-4.4111624,0.0,-0.0,0.0
1997.449999998512,0.1907395,-1.2240609,0.1735164,-2.7310736,-0.014433051,1.0763239,0.46412578,0.039999958,0.03999999,-8.754995,-0.3575177490711212,-4.4111624,0.0,-0.0,0.0
1997.4666666651788,0.1907395,-1.2240609,0.1735164,-2.7310736,-0.014433051,1.0763239,0.46412578,0.039999958,0.03999999,-8.754995,-0.3575177490711212,-4.4111624,0.0,-0.0,0.0
1997.4833333318454,0.1907395,-1.2240609,0.1735164,-2.7310736,-0.014433051,1.0763239,0.46412578,0.039999958,0.03999999,-8.754995,-0.3575177490711212,-4.4111624,0.0,-0.0,0.0
1997.499999998512,0.1907395,-1.2240609,0.1735164,-2.7310736,-0.014433051,1.0763239,0.46412578,0.039999958,0.03999999,-8.754995,-0.3575177490711212,-4.4111624,0.0,-0.0,0.0
1997.5166666651787,0.1907395,-1.2240609,0.1735164,-2.7310736,-0.014433051,1.0763239,0.46412578,0.039999958,0.03999999,-8.754995,-0.3575177490711212,-4.4111624,0.0,-0.0,0.0
1997.5333333318454,0.1907395,-1.2240609,0.1735164,-2.7310736,-0.014433051,1.0763239,0.46412578,0.039999958,0.03999999,-8.754995,-0.3575177490711212,-4.4111624,0.0,-0.0,0.0
1997.549999998512,0.1907395,-1.2240609,0.1735164,-2.7310736,-0.014433051,1.0763239,0.46412578,0.039999958,0.03999999,-8.754995,-0.3575177490711212,-4.4111624,0.0,-0.0,0.0
1997.5666666651787,0.1907395,-1.2240609,0.1735164,-2.7310736,-0.014433051,1.0763239,0.46412578,0.039999958,0.03999999,-8.754995,-0.3575177490711212,-4.4111624,0.0,-0.0,0.0
1997.5833333318453,0.1907395,-1.2240609,0.1735164,-2.7310736,-0.014433051,1.0763239,0.46412578,0.039999958,0.03999999,-8.754995,-0.3575177490711212,-4.4111624,0.0,-0.0,0.0
1997.599999998512,0.1907395,-1.2240609,0.1735164,-2.7310736,-0.014433051,1.0763239,0.46412578,0.039999958,0.03999999,-8.754995,-0.3575177490711212,-4.4111624,0.0,-0.0,0.0
1997.6166666651786,0.1907395,-1.2240609,0.1735164,-2.7310736,-0.014433051,1.0763239,0.46412578,0.039999958,0.03999999,-8.754995,-0.3575177490711212,-4.4111624,0.0,-0.0,0.0
1997.6333333318453,0.1907395,-1.2240609,0.1735164,-2.7310736,-0.014433051,1.0763239,0.46412578,0.039999958,0.03999999,-8.754995,-0.3575177490711212,-4.4111624,0.0,-0.0,0.0
1997.649999998512,0.1907395,-1.2240609,0.1735164,-2.7310736,-0.014433051,1.0763239,0.46412578,0.039999958,0.03999999,-8.754995,-0.3575177490711212,-4.4111624,0.0,-0.0,0.0
1997.6666666651786,0.1907395,-1.2240609,0.1735164,-2.7310736,-0.014433051,1.0763239,0.46412578,0.039999958,0.03999999,-8.754995,-0.3575177490711212,-4.4111624,0.0,-0.0,0.0
1997.6833333318452,0.1907395,-1.2240609,0.1735164,-2.7310736,-0.014433051,1.0763239,0.46412578,0.039999958,0.03999999,-8.754995,-0.3575177490711212,-4.4111624,0.0,-0.0,0.0
1997.6999999985119,0.1907395,-1.2240609,0.1735164,-2.7310736,-0.014433051,1.0763239,0.46412578,0.039999958,0.03999999,-8.754995,-0.3575177490711212,-4.4111624,0.0,-0.0,0.0
1997.7166666651785,0.1907395,-1.2240609,0.1735164,-2.7310736,-0.014433051,1.0763239,0.46412578,0.039999958,0.03999999,-8.754995,-0.3575177490711212,-4.4111624,0.0,-0.0,0.0
1997.7333333318452,0.1907395,-1.2240609,0.1735164,-2.7310736,-0.014433051,1.0763239,0.46412578,0.039999958,0.03999999,-8.754995,-0.3575177490711212,-4.4111624,0.0,-0.0,0.0
1997.7499999985118,0.1907395,-1.2240609,0.1735164,-2.7310736,-0.014433051,1.0763239,0.46412578,0.039999958,0.03999999,-8.754995,-0.3575177490711212,-4.4111624,0.0,-0.0,0.0
1997.7666666651785,0.1907395,-1.2240609,0.1735164,-2.7310736,-0.014433051,1.0763239,0.46412578,0.039999958,0.03999999,-8.754995,-0.3575177490711212,-4.4111624,0.0,-0.0,0.0
1997.7833333318451,0.1907395,-1.2240609,0.1735164,-2.7310736,-0.014433051,1.0763239,0.46412578,0.039999958,0.03999999,-8.754995,-0.3575177490711212,-4.4111624,0.0,-0.0,0.0
1997.7999999985118,0.1907395,-1.2240609,0.1735164,-2.7310736,-0.014433051,1.0763239,0.46412578,0.039999958,0.03999999,-8.754995,-0.3575177490711212,-4.4111624,0.0,-0.0,0.0
1997.8166666651784,0.1907395,-1.2240609,0.1735164,-2.7310736,-0.014433051,1.0763239,0.46412578,0.039999958,0.03999999,-8.754995,-0.3575177490711212,-4.4111624,0.0,-0.0,0.0
1997.833333331845,0.1907395,-1.2240609,0.1735164,-2.7310736,-0.014433051,1.0763239,0.46412578,0.039999958,0.03999999,-8.754995,-0.3575177490711212,-4.4111624,0.0,-0.0,0.0
1997.8499999985117,0.1907395,-1.2240609,0.1735164,-2.7310736,-0.014433051,1.0763239,0.46412578,0.039999958,0.03999999,-8.754995,-0.3575177490711212,-4.4111624,0.0,-0.0,0.0
1997.8666666651784,0.1907395,-1.2240609,0.1735164,-2.7310736,-0.014433051,1.0763239,0.46412578,0.039999958,0.03999999,-8.754995,-0.3575177490711212,-4.4111624,0.0,-0.0,0.0
1997.883333331845,0.1907395,-1.2240609,0.1735164,-2.7310736,-0.014433051,1.0763239,0.46412578,0.039999958,0.03999999,-8.754995,-0.3575177490711212,-4.4111624,0.0,-0.0,0.0
1997.8999999985117,0.1907395,-1.2240609,0.1735164,-2.7310736,-0.014433051,1.0763239,0.46412578,0.039999958,0.03999999,-8.754995,-0.3575177490711212,-4.4111624,0.0,-0.0,0.0
1997.9166666651784,0.1907395,-1.2240609,0.1735164,-2.7310736,-0.014433051,1.0763239,0.46412578,0.039999958,0.03999999,-8.754995,-0.3575177490711212,-4.4111624,0.0,-0.0,0.0
1997.933333331845,0.1907395,-1.2240609,0.1735164,-2.7310736,-0.014433051,1.0763239,0.46412578,0.039999958,0.03999999,-8.754995,-0.3575177490711212,-4.4111624,0.0,-0.0,0.0
1997.9499999985117,0.1907395,-1.2240609,0.1735164,-2.7310736,-0.014433051,1.0763239,0.46412578,0.039999958,0.03999999,-8.754995,-0.3575177490711212,-4.4111624,0.0,-0.0,0.0
1997.9666666651783,0.1907395,-1.2240609,0.1735164,-2.7310736,-0.014433051,1.0763239,0.46412578,0.039999958,0.03999999,-8.754995,-0.3575177490711212,-4.4111624,0.0,-0.0,0.0
1997.983333331845,0.1907395,-1.2240609,0.1735164,-2.7310736,-0.014433051,1.0763239,0.46412578,0.039999958,0.03999999,-8.754995,-0.3575177490711212,-4.4111624,0.0,-0.0,0.0
1997.9999999985116,0.1907395,-1.2240609,0.1735164,-2.7310736,-0.014433051,1.0763239,0.46412578,0.039999958,0.03999999,-8.754995,-0.3575177490711212,-4.4111624,0.0,-0.0,0.0
1998.0166666651783,0.1907395,-1.2240609,0.1735164,-2.7310736,-0.014433051,1.0763239,0.46412578,0.039999958,0.03999999,-8.754995,-0.3575177490711212,-4.4111624,0.0,-0.0,0.0
1998.033333331845,0.1907395,-1.2240609,0.1735164,-2.7310736,-0.014433051,1.0763239,0.46412578,0.039999958,0.03999999,-8.754995,-0.3575177490711212,-4.4111624,0.0,-0.0,0.0
1998.0499999985116,0.1907395,-1.2240609,0.1735164,-2.7310736,-0.014433051,1.0763239,0.46412578,0.039999958,0.03999999,-8.754995,-0.3575177490711212,-4.4111624,0.0,-0.0,0.0
