rsonawane2002/My_IMU/logs_2/traj_283/clean_283.csv
time,j1,j2,j3,j4,j5,j6,j7,gripper1,gripper2,imu_ax,imu_ay,imu_az,imu_gx,imu_gy,imu_gz,quat_x,quat_y,quat_z,quat_w
354.63333333333946,0.00016700293,-0.785875,4.0107683e-05,-2.3551247,9.29385e-05,1.570997,0.786,0.04,0.04,0.0,-0.0,0.0,2.875329272945135e-08,-0.0011641195053377316,4.421952117202833e-08,0.9999995971961153,0.00020320632366974898,0.0008736418299892524,3.263050917662294e-05
354.6500000000061,0.00016700222,-0.78576016,4.0113635e-05,-2.3552213,9.298385e-05,1.5709941,0.786,0.04,0.04,-0.29199845947081027,-3.752915115504628e-05,0.02012840827314566,3.007809416569948e-08,-0.0022390229838428,6.922845673523731e-07,0.9999996850581767,0.00020320931761647212,0.0007665025167709786,3.261000633852579e-05
354.66666666667277,0.00016697739,-0.7856543,4.0112347e-05,-2.35531,9.309428e-05,1.5709913,0.786,0.04,0.04,0.023328729064120424,-1.3474607880750809e-05,-0.0016704352311380788,1.3111368399507788e-07,-0.003231773850417939,4.918012649689089e-06,0.9999997558405972,0.0002032265297735994,0.0006677972360605106,3.262782570102238e-05
354.6833333333394,0.00016688833,-0.78555703,4.0092687e-05,-2.355391,9.338103e-05,1.5709884,0.786,0.04,0.04,0.022460756615805266,-3.88727670546415e-05,-0.0015248946297674593,8.630584684112573e-07,-0.004153958950722342,1.6011223612017418e-05,0.9999998122232924,0.00020328195862800817,0.0005771981423128403,3.2743393138069775e-05
354.70000000000607,0.00016667726,-0.7854677,4.0038678e-05,-2.3554652,9.40021e-05,1.5709856,0.786,0.04,0.04,0.020518973268490726,-7.3802865019492e-05,-0.0014590150879456587,1.5298087006394438e-06,-0.005011041935884427,3.608216052041374e-05,0.9999998567385254,0.0002034101773794727,0.0004940197519747642,3.3041079920546077e-05
354.7166666666727,0.0001662702,-0.7853859,3.9929666e-05,-2.3555326,9.517497e-05,1.570986,0.786,0.04,0.039999995,0.020776828996660335,-0.00013010383877601404,0.0011349517262004838,2.405776653709079e-06,-0.005812482508465065,7.1119535251028e-05,0.9999998906505646,0.0002036555525595814,0.0004196329288352359,3.3637475833203836e-05
354.7333333333394,0.0001655793,-0.78531134,3.9741546e-05,-2.3555977,9.71267e-05,1.5709866,0.786,0.04,0.039999995,0.012064383890697528,-0.00017275201936050753,-0.0029692849065510174,3.113436438611253e-06,-0.0065487774713956426,0.00011938511702572641,0.9999999172908545,0.00020407065577820717,0.00035010372214025395,3.465307068284065e-05
354.750000000006,0.00016450355,-0.78524315,3.9446364e-05,-2.3556564,0.00010013364,1.5709875,0.7859981,0.04,0.039999995,0.018068050037522987,-0.00023460797514017928,-0.0005876971521434626,3.442016753205389e-06,-0.007260027215069552,0.0001847005358883555,0.9999999373704509,0.0002037621527199618,0.00028710104170744945,3.623632835774895e-05
354.7666666666727,0.00016293055,-0.7851818,3.901295e-05,-2.3557134,0.000104502746,1.5709884,0.7859962,0.04,0.039999995,0.0104527468898441,-0.0003015555554796649,-0.003074010155224016,1.158795772634911e-05,-0.007931744064313068,0.0002689812236711458,0.9999999524119152,0.00020375115614824362,0.00022841942630645256,3.855125735488031e-05
354.7833333333393,0.00016073776,-0.78512657,3.8407503e-05,-2.3557644,0.000110559406,1.5709931,0.7859943,0.04,0.04,0.018023251967669296,-0.0003696933924544931,0.0019562152681729117,1.8658100517961505e-05,-0.00859017593828122,0.00037316517601897794,0.9999999625250143,0.000204110924879575,0.00017760529345261047,4.1773912453607844e-05
354.800000000006,0.00015779346,-0.7850773,3.7593505e-05,-2.3558145,0.00011867294,1.5709978,0.7859905,0.04,0.04,0.008248028358504023,-0.0004550361930947427,-0.0028779402553080757,2.4180244522101354e-05,-0.009204404793979297,0.0005003200887449736,0.9999999696461469,0.0002039667908592723,0.00013030748551929336,4.610003042670046e-05
354.81666666667263,0.00015395801,-0.7850338,3.6532223e-05,-2.355861,0.00012923528,1.5710063,0.78598666,0.04,0.039999995,0.013706494632281796,-0.0005476869854197433,0.0010328297309403212,3.610915202038707e-05,-0.009815895677919453,0.000651726028268355,0.9999999737697373,0.0002043560767652261,8.95657445407674e-05,5.1740663247742964e-05
354.8333333333393,0.00014908507,-0.7849962,3.518328e-05,-2.3559046,0.0001426341,1.5710175,0.78598094,0.04,0.039999995,0.012188091242659738,-0.0006268112722342936,5.636803623865205e-06,4.5056213553703716e-05,-0.010401070340703316,0.0008269810164363374,0.9999999758852919,0.00020441273618499391,5.454561382543442e-05,5.890352398787763e-05
354.85000000000593,0.00014302197,-0.7849644,3.3504522e-05,-2.3559475,0.0001592751,1.5710299,0.7859752,0.04,0.04,0.007984565822516387,-0.0007100961568056417,-0.002074332858881256,5.912316087180585e-05,-0.010969366622779949,0.0010271505590735994,0.9999999763783156,0.00020518191218271136,2.3369468283862187e-05,6.780574570873713e-05
354.8666666666726,0.00013561077,-0.78493816,3.145222e-05,-2.3559904,0.00017959434,1.5710461,0.7859676,0.04,0.04,0.007402443679027648,-0.000808831933873385,-0.0003373420119245907,6.935394421736589e-05,-0.011542251189752172,0.0012538398698837775,0.9999999757220497,0.0002058047172699969,-3.0983746418519136e-06,7.868111954335715e-05
354.88333333333924,0.00012668899,-0.7849177,2.898136e-05,-2.3560328,0.0002040451,1.5710661,0.78595805,0.039999995,0.039999995,0.008410300395311765,-0.0009137314257055915,-0.0002226962272589006,8.318904703521948e-05,-0.012113686050805124,0.0015095075384881382,0.9999999741920041,0.000206378545277141,-2.453006028150375e-05,9.177234510203705e-05
354.9000000000059,0.000116090865,-0.784903,2.604618e-05,-2.3560753,0.0002330674,1.57109,0.7859466,0.039999995,0.04,0.007534227819427919,-0.0010040447309314486,-0.00040096105455855735,0.00010034655034956059,-0.012683178301867687,0.0017914029949649803,0.9999999719681553,0.00020700278479219347,-4.119373994086996e-05,0.00010731547656541547
354.91666666667254,0.000103646744,-0.78489405,2.259959e-05,-2.3561177,0.00026712928,1.571118,0.78593326,0.03999999,0.039999995,0.007713648878437951,-0.0011094070569132256,-0.0001664741900331279,0.00011967763820243697,-0.013253948771069226,0.002102595212404741,0.9999999691329001,0.00020777925753748928,-5.2880687574940975e-05,0.00012556118715218592
354.9333333333392,8.918487e-05,-0.78489107,1.8594203e-05,-2.3561606,0.000306698,1.571152,0.785918,0.039999988,0.03999999,0.007667809598466135,-0.0012113690761503834,0.0008524976874424439,0.00014081728634613268,-0.013830256461299678,0.002442646554831251,0.9999999656983073,0.00020881111016161758,-5.8845682079697224e-05,0.00014675997440616564
354.95000000000584,7.2531235e-05,-0.7848942,1.39816975e-05,-2.3562038,0.00035224704,1.5711911,0.78590083,0.039999984,0.039999988,0.008006972668295198,-0.0013142624589461318,0.00023794921972797312,0.00016280907899310186,-0.014404947550874563,0.0028118837311499213,0.9999999615005295,0.00021020277694156178,-5.929711615264668e-05,0.0001711653709767507
354.9666666666725,5.351048e-05,-0.78490347,8.713692e-06,-2.3562484,0.00040425395,1.5712354,0.78588104,0.039999977,0.03999998,0.005954110818584546,-0.0014185100815761176,-0.00017331867701031456,0.00018467490785506512,-0.014983024112408233,0.0032105605907947954,0.9999999562825231,0.00021170200475640632,-5.480086932609637e-05,0.0001990328562819428
354.98333333333915,3.194606e-05,-0.7849189,2.7412561e-06,-2.356298,0.0004631995,1.5712857,0.7858586,0.03999997,0.039999973,0.00023644507891606992,-0.0015230273136909386,-0.0013124086921223466,0.00020897731886278703,-0.015571384615020337,0.003638851237393117,0.9999999495489007,0.00021338558463790007,-4.672743468150343e-05,0.00023061945927510888
355.0000000000058,7.660723e-06,-0.7849407,-3.984707e-06,-2.3563485,0.0005295661,1.5713426,0.78583324,0.039999966,0.03999997,0.007511733768805762,-0.0016278474732761724,0.0008515823985977278,0.00023521156357428547,-0.016186055519995378,0.004096849472519334,0.9999999408689615,0.00021527038882667942,-3.2662292089011506e-05,0.0002661839737397473
355.01666666667245,-1.9523084e-05,-0.7849692,-1.151317e-05,-2.3563998,0.0006038369,1.5714064,0.78580505,0.03999996,0.039999966,0.008361572378889903,-0.0017327074508942614,0.0010578768201430222,0.0002634045338042227,-0.016807855996693134,0.004584586334155855,0.9999999294676108,0.00021746316431289122,-1.2157776993786222e-05,0.0003059848588262788
355.0333333333391,-4.978284e-05,-0.7850046,-1.989344e-05,-2.356457,0.00068649545,1.5714774,0.7857736,0.039999958,0.039999958,-0.00017287803448784445,-0.0018374668576063527,-0.0011648233116057227,0.00029276197026254685,-0.01743317223146283,0.0051029100994162925,0.9999999144043392,0.00021986309485053668,1.2462357656625331e-05,0.0003502802069575403
355.05000000000575,-8.329569e-05,-0.7850467,-2.9174493e-05,-2.3565156,0.00077802234,1.5715562,0.7857385,0.039999954,0.039999958,0.007415385272224739,-0.0019403531145750243,0.0013608793675956576,0.00032407859481015447,-0.018086322214191916,0.005649156237162979,0.9999998945820994,0.00022242746036437786,4.3583280828616423e-05,0.0003993273253778118
355.0666666666724,-0.00012023806,-0.78509605,-3.9405153e-05,-2.356579,0.0008788997,1.571643,0.7857,0.03999995,0.039999954,0.002480493059753286,-0.0020455176016427514,-0.00029630994238249997,0.0003581593103905564,-0.01874703436141184,0.006225780828293901,0.9999998686401375,0.0002253229592387577,7.995437314933382e-05,0.0004533834691917404
355.08333333333906,-0.00016078571,-0.7851528,-5.063415e-05,-2.3566453,0.0009896045,1.571738,0.7856578,0.03999994,0.039999943,0.005932970807442928,-0.002147078317230565,0.0006718815080297702,0.0003935747499829254,-0.019428211559191954,0.006831746318433253,0.999999834924354,0.0002285363518885665,0.00012270945466936236,0.000512703413693854
355.1000000000057,-0.00020511303,-0.78521705,-6.290969e-05,-2.356718,0.0011106129,1.5718416,0.7856117,0.03999993,0.03999993,0.00010405246324562967,-0.002250574550936228,-0.0007336208112995735,0.0004305627651525865,-0.020122842361670376,0.007467702777659878,0.9999997917973047,0.00023205495080743087,0.00017030035615318875,0.0005775410252499938
355.11666666667236,-0.00025339297,-0.78528905,-7.627964e-05,-2.3567924,0.0012423937,1.5719547,0.7855615,0.039999925,0.03999993,0.008779294586913622,-0.002348632058190854,0.0019850574064506077,0.0004692937666628855,-0.020847048582672556,0.008130803589430276,0.9999997366510195,0.00023592308578738755,0.0002257090631490274,0.000648146285937048
355.133333333339,-0.00030579732,-0.78536904,-9.079161e-05,-2.3568735,0.0013854158,1.5720776,0.7855069,0.039999925,0.03999993,0.0006140648819430439,-0.0024499043502980607,-0.00021875314939467927,0.0005097061318287232,-0.021574453326361622,0.008823359685813695,0.9999996674481525,0.00024006782323217202,0.0002866726849582178,0.0007247687883652362
355.15000000000566,-0.00036249575,-0.78545713,-0.000106492575,-2.3569608,0.0015401408,1.5722103,0.7854479,0.039999925,0.03999993,0.00156216752054128,-0.0025481474755883744,-6.998673061087146e-05,0.0005525302582723044,-0.02232948997066404,0.009544176552471981,0.9999995814562752,0.00024459251268156107,0.00035349148967860457,0.0008076543467730818
355.1666666666723,-0.00042365617,-0.7855537,-0.00012342901,-2.3570511,0.001707025,1.5723537,0.7853843,0.03999993,0.039999932,0.007535973016414843,-0.0026424264162077347,0.0018318494253488637,0.0005968112122538773,-0.02310905992073559,0.010292899642312794,0.999999474775633,0.0002495094235979365,0.00042837344070549793,0.0008970449826489368
355.18333333333896,-0.0004894445,-0.78565896,-0.0001416469,-2.3571484,0.0018865209,1.572508,0.7853159,0.039999936,0.03999994,0.0013604842748371482,-0.00273940015652845,7.551008698314376e-05,0.0006430062749665354,-0.02389602565829075,0.011069162826178989,0.999999344490679,0.0002548023564348618,0.0005095929440589134,0.000993181253915133
355.2000000000056,-0.00056002423,-0.78577304,-0.00016119148,-2.3572526,0.0020790733,1.5726734,0.78524244,0.039999936,0.03999994,0.0016141517284795626,-0.0028322988735867815,0.0002772120035521297,0.00069099373629082,-0.02470723409992346,0.01187254338063331,0.9999991866999053,0.0002604826184146602,0.000597391678221446,0.0010962990086050906
355.21666666667227,-0.0006355567,-0.78589624,-0.00018210751,-2.357364,0.0022851212,1.5728506,0.7851638,0.03999994,0.039999943,0.001699003607602556,-0.002923359047454473,0.0003598303303320449,0.000740933421370815,-0.02554295816134372,0.012702640931608852,0.9999989970327517,0.0002665605848199342,0.0006920414884949485,0.0012066306491442707
355.2333333333389,-0.0007162009,-0.7860288,-0.00020443888,-2.3574781,0.0025050975,1.5730394,0.78507996,0.03999994,0.039999943,0.009270915764081344,-0.003010815883484094,0.0021534514487608902,0.0007929070696723736,-0.02640145622411922,0.013558974306676573,0.9999987690263061,0.00027310218253748833,0.0007958112822015087,0.0013244038181344994
355.25000000000557,-0.00080211303,-0.7861711,-0.00022822889,-2.3575997,0.002739428,1.573241,0.78499055,0.039999943,0.039999947,0.0023166054069045927,-0.003099683072400731,0.0007207696585576073,0.0008465516412003793,-0.027264401232791405,0.014441125831855412,0.9999984982932119,0.0002800581491331937,0.0009071558262529973,0.001449843805806255
355.2666666666722,-0.0008934474,-0.786323,-0.00025352027,-2.357729,0.0029885313,1.5734552,0.78489554,0.03999995,0.039999954,0.001819997329044476,-0.0031845671718760873,0.0005624551662419819,0.0009025522659144797,-0.028147904195543492,0.015348576016988644,0.9999981792500912,0.00028749508119062624,0.0010258712667458056,0.0015831712557410366
355.2833333333389,-0.0009903547,-0.7864847,-0.00028035475,-2.3578656,0.0032528185,1.5736824,0.78479475,0.039999954,0.039999958,0.002484923335899225,-0.003267719172637181,0.000872259456463631,0.0009602084870779671,-0.029054652430347737,0.016280849254748816,0.9999978053139865,0.0002954180789618811,0.0011523205196048642,0.0017246022118636425
355.3000000000055,-0.0010929834,-0.7866567,-0.0003087736,-2.3580098,0.003532693,1.5739228,0.78468806,0.039999958,0.03999996,0.0026596025288094793,-0.0033483481548415026,0.0005887771424406552,0.0010196442725700075,-0.029982549838989667,0.017237405232409877,0.9999973694570268,0.00030386085167001574,0.0012866881101704034,0.0018743482377829683
355.3166666666722,-0.001201479,-0.78683925,-0.000338817,-2.358162,0.0038285512,1.5741771,0.7845752,0.039999966,0.03999997,0.0029697384433591267,-0.0034258015039795482,0.0009942068200707865,0.001081003392018818,-0.030932498495604227,0.018217748070606086,0.9999968635508377,0.000312796886629569,0.0014295167948884552,0.0020326161290333974
355.3333333333388,-0.0013159842,-0.78703254,-0.00037052456,-2.358322,0.0041407817,1.5744456,0.78445613,0.03999997,0.039999973,0.003119519918981517,-0.0035022272583479664,0.0009316638558631851,0.001144648646848826,-0.031900550665328174,0.0192213287857942,0.9999962793492267,0.00032225728183221094,0.0015808729079610918,0.002199608782549258
355.3500000000055,-0.0014366383,-0.7872367,-0.0004039349,-2.358491,0.004469765,1.5747284,0.78433067,0.039999966,0.03999997,0.0013179225838655384,-0.003577485862664778,0.0005131761331877982,0.0012101961773271367,-0.03288613609816286,0.02024759898147252,0.9999956088260822,0.00033227290252597983,0.0017403464760516742,0.0023755246609772646
355.36666666667213,-0.0015635785,-0.787452,-0.00043908568,-2.358668,0.004815871,1.5750259,0.78419864,0.039999966,0.03999997,0.0034431475942398038,-0.0036449333665461827,0.0011323311368549582,0.0012780237754001717,-0.03389701801173699,0.021296010210686958,0.9999948412189177,0.00034284184427600586,0.0019088096449076449,0.002560554775985254
355.3833333333388,-0.0016969384,-0.7876785,-0.0004760143,-2.3588543,0.005179467,1.5753385,0.78405994,0.039999966,0.03999997,0.0019842221821608774,-0.003716505559944478,0.0008552516530979659,0.0013476848699437369,-0.03492395815877258,0.022365995943272973,0.9999939670386164,0.0003539925913639666,0.002085942987114034,0.0027548897383096013
355.40000000000543,-0.0018368481,-0.78791654,-0.00051475683,-2.3590505,0.0055609057,1.5756664,0.78391445,0.039999973,0.039999977,0.0008937111077189641,-0.0037815957111364627,0.0004992114623680877,0.0014196352595866445,-0.035972926484751255,0.02345697327074938,0.9999929759356904,0.0003657518805288471,0.0022716362757033157,0.0029587114550997263
355.4166666666721,-0.001983436,-0.7881661,-0.0005553484,-2.3592553,0.005960537,1.5760101,0.783762,0.039999973,0.039999977,0.0034028794016593977,-0.003843289002898381,0.0014459735918626038,0.0014936717440428258,-0.037046269608734014,0.024568365777525303,0.999991854599627,0.00037811369570097785,0.0024667634660607363,0.003172198359776438
355.43333333333874,-0.0021368263,-0.7884276,-0.00059782364,-2.3594687,0.006378698,1.5763695,0.7836025,0.03999998,0.039999984,0.0038916185933768332,-0.0039030660444584232,0.0012170797072164063,0.001570181465048958,-0.03813571975212622,0.025699566608252795,0.999990590106597,0.0003911299468596368,0.002671543313072594,0.0033955223384998495
355.4500000000054,-0.00229714,-0.7887012,-0.0006422163,-2.3596911,0.00681572,1.5767452,0.78343576,0.03999998,0.039999984,0.0034591894059188277,-0.003960662642870944,0.0012649683318821658,0.001648467079770349,-0.03924275548527971,0.02685001526834707,0.9999891690123598,0.000404793545712149,0.0028860762045571546,0.003628851649909428
355.46666666667204,-0.0024644954,-0.7889871,-0.000688559,-2.3599236,0.0072719245,1.5771375,0.7832617,0.03999998,0.039999984,0.0022819250347305697,-0.0040162395482316,0.0010668379359923819,0.001729228124295254,-0.04036596140484845,0.028019120788969967,0.9999875777012542,0.0004191268292629113,0.003110254494745382,0.003872349784966334
355.4833333333387,-0.0026390078,-0.7892858,-0.0007368839,-2.3601658,0.0077476273,1.5775465,0.7830803,0.03999998,0.039999984,0.0031816724093358673,-0.004069761315132455,0.0009460812365524873,0.0018122721833980244,-0.041506568527415445,0.02920625304086688,0.9999858004174236,0.00043417771065412414,0.0033444181338536895,0.0041261750552136316
355.50000000000534,-0.002820789,-0.7895967,-0.00078722154,-2.360418,0.008243128,1.5779724,0.78289133,0.039999977,0.03999998,0.0022928104986608133,-0.004114351267515233,0.001329770317459733,0.0018975029540186216,-0.04266509629629467,0.030410839116086785,0.9999838224951888,0.0004499658499092539,0.003588311826011701,0.004390477978999614
355.516666666672,-0.0030099482,-0.78992033,-0.00083960214,-2.3606803,0.008758724,1.5784159,0.78269464,0.03999998,0.039999984,0.00311401825126012,-0.004159845033276837,0.0014787749113231996,0.001985013465863543,-0.04384241585452303,0.03163224127830259,0.9999816255771001,0.0004664484082627656,0.0038425157316665363,0.0046654053323114284
355.53333333333865,-0.0032065902,-0.7902572,-0.00089405524,-2.3609524,0.009294704,1.5788767,0.7824902,0.03999998,0.039999984,0.004047701637266421,-0.004204740315280186,0.0012365887076315474,0.002075184625211309,-0.04503742597600893,0.03286987192826585,0.9999791909813703,0.0004836981726007559,0.004107342002648488,0.004951099069408877
355.5500000000053,-0.0034108176,-0.79060715,-0.0009506091,-2.3612344,0.009851345,1.5793551,0.7822779,0.039999984,0.039999988,0.0035220929970547488,-0.004244052580624786,0.001330565547741358,0.002167602703149302,-0.04624558457725765,0.03412308807256809,0.999976500862124,0.0005017299912073416,0.004382656756299163,0.005247695714771715
355.56666666667195,-0.003622729,-0.7909705,-0.0010092909,-2.3615282,0.010428918,1.5798514,0.7820576,0.03999998,0.039999988,0.0012281573474215435,-0.004286124659877259,0.0006621243975102331,0.0022625021630750686,-0.04747018795633266,0.03539050152375154,0.9999735382128906,0.0005205599265493194,0.004667999058586087,0.0055553286261580195
355.5833333333386,-0.0038424209,-0.7913473,-0.0010701275,-2.3618312,0.011027684,1.5803661,0.78182924,0.039999984,0.039999988,0.005598159064512664,-0.004309883199149142,0.002143295745282714,0.0023598225331613164,-0.048715156521491235,0.03667395461981349,0.9999702758569272,0.0005402250516540982,0.004964905278396239,0.005874119090635962
355.60000000000525,-0.0040699844,-0.7917378,-0.0011331446,-2.3621461,0.011647899,1.5808995,0.7815927,0.039999984,0.03999999,0.0014062226930899868,-0.004350745145455422,0.0009761959262943876,0.0024596410376972917,-0.04996892653650761,0.03796942436924889,0.9999666980184111,0.0005607412712126053,0.005272230584353376,0.006204192779711621
355.6166666666719,-0.004305512,-0.792142,-0.0011983672,-2.3624709,0.012289802,1.5814514,0.78134763,0.039999988,0.039999995,0.005182517234958439,-0.004366354309181045,0.0019086129085188475,0.002562154716867073,-0.05124237353844587,0.03927906864114524,0.9999627769631749,0.0005819640296726238,0.005591096826094711,0.006545658274398359
355.63333333333856,-0.0045490908,-0.7925603,-0.0012658191,-2.3628078,0.012953631,1.5820221,0.7810945,0.039999984,0.039999995,0.0016629022512981706,-0.004401932011257638,0.0007151301750774053,0.002668743283761309,-0.052525986191306176,0.040599386661377274,0.9999584942877792,0.0006042343667179749,0.005920597104333285,0.0068986326526203744
355.6500000000052,-0.0048008016,-0.7929923,-0.0013355231,-2.363155,0.01363961,1.5826119,0.7808329,0.039999984,0.03999999,0.004665711500351222,-0.004411950816970815,0.002165175561441579,0.002776463204296517,-0.05382906371584931,0.04193522647294894,0.9999538203105839,0.0006274062208323416,0.006261735586645519,0.007263213830364915
355.66666666667186,-0.005060724,-0.79343873,-0.0014075027,-2.3635142,0.014347962,1.5832213,0.7805627,0.039999988,0.039999995,0.002370650913574579,-0.0044390381267292965,0.0011932646398982172,0.0028871322668717336,-0.055143373229020826,0.04328059450492943,0.9999487321805154,0.0006514895316728841,0.006614115716872964,0.007639505563442137
355.6833333333385,-0.0053289365,-0.7938994,-0.0014817773,-2.3638837,0.015078897,1.5838499,0.7802839,0.039999988,0.04,0.005371999576375686,-0.00445000883579471,0.001889046361136515,0.0030008596054013955,-0.05647228156458442,0.044633936572061404,0.9999431990272193,0.0006765411555460199,0.00697844391724424,0.008027598132035345
355.70000000000516,-0.0056055137,-0.7943745,-0.0015583687,-2.3642657,0.01583261,1.584498,0.77999645,0.03999999,0.04,0.0020785195238959275,-0.004463396478027008,0.0011177369993564668,0.003117284579687969,-0.057811958335897085,0.046000960903824564,0.9999371989467808,0.0007025726646283416,0.007353937825949083,0.008427582842612738
355.7166666666718,-0.005890526,-0.79486406,-0.001637296,-2.3646586,0.01660931,1.585166,0.7797002,0.03999999,0.04,0.004663260485360254,-0.004473917841269371,0.0019428081077910164,0.0032367972933085576,-0.05916916558612576,0.04737408078252695,0.9999306975956442,0.0007296112176876993,0.007741454728041899,0.008839544787653975
355.73333333333846,-0.0061840396,-0.7953685,-0.0017185785,-2.3650634,0.017409157,1.5858538,0.77939516,0.03999999,0.04,0.003662650458324812,-0.004470230206235319,0.0013548750155800704,0.00335956908491402,-0.06053568676443611,0.0487593508729894,0.9999236666975188,0.0007576886388813631,0.008140839392977394,0.009263553318988628
355.7500000000051,-0.006486121,-0.79588765,-0.0018022337,-2.3654802,0.01823234,1.5865617,0.7790811,0.03999999,0.04,0.0035695029718008087,-0.004477135714613719,0.0015611843461993402,0.00348514991365121,-0.06191543791585366,0.05015129812646264,0.9999160759182496,0.0007867767183154028,0.008552087078554316,0.009699686038508924
355.76666666667177,-0.006796831,-0.7964217,-0.0018882786,-2.3659084,0.019079024,1.5872896,0.7787581,0.03999999,0.04,0.004651282694601022,-0.004474318292857667,0.001686860478100627,0.0036143075202019377,-0.06330874176379571,0.051551820552447385,0.9999078907627279,0.000816959689191473,0.008975550286202609,0.010148007900986173
355.7833333333384,-0.007116229,-0.7969706,-0.0019767296,-2.3663487,0.019949378,1.5880381,0.7784261,0.03999999,0.04,0.003628133738242667,-0.004471942715287072,0.0018634247261228865,0.0037466475602618045,-0.06471167670337455,0.05295931374496053,0.9998990790470647,0.0008482719177174623,0.009411165705993894,0.010608586882326609
355.80000000000507,-0.0074443687,-0.7975346,-0.002067602,-2.3668015,0.020843558,1.588807,0.778085,0.03999999,0.04,0.0034771367647179474,-0.004474638762717691,0.0014649748010686636,0.003882006249473737,-0.0661273170380002,0.054373245135479205,0.9998896080781323,0.0008807075495519956,0.009858841330902885,0.011081482715912064
355.8166666666717,-0.0077813035,-0.79811364,-0.0021609112,-2.367266,0.021761684,1.5895966,0.77773476,0.04,0.04,0.004895102208579694,-0.004436458163803968,0.0020616741106316283,0.004021104428670621,-0.06755474905509998,0.05579304130513931,0.9998794377563195,0.0009143204406610114,0.010319140797837707,0.01156673261698316
355.8333333333384,-0.008127086,-0.7987082,-0.00225667,-2.3677428,0.022703918,1.5904069,0.7773752,0.039999995,0.04,0.0041692937738258,-0.004448061654534728,0.001441021251724628,0.004163257536452893,-0.06899179478302978,0.057218941746245505,0.9998685337496663,0.000949076640382628,0.0107918847944024,0.012064397763974579
355.850000000005,-0.008481757,-0.79931825,-0.0023548913,-2.368231,0.023670364,1.591238,0.77700657,0.04,0.04,0.00596258905609659,-0.004409892724810058,0.002053671430912729,0.004309429781319027,-0.07043861244323331,0.05864869133350288,0.9998568522295045,0.0009851114319771408,0.011277696956401418,0.012574504226125311
355.8666666666717,-0.008845361,-0.7999429,-0.0024555882,-2.3687325,0.024661146,1.5920901,0.7766287,0.04,0.04,0.0022322503079985623,-0.004394952292265802,0.001937027625698029,0.00445883008616663,-0.07189248918372917,0.0600826149904207,0.9998443683224629,0.0010224334230197888,0.01177538592024899,0.013097100831095915
355.8833333333383,-0.00921794,-0.80058324,-0.0025587704,-2.369246,0.025676379,1.5929633,0.77624136,0.04,0.04,0.00517860706237272,-0.004370800710386084,0.0018531156793066828,0.004611480316275032,-0.07336154023771727,0.06151992154327549,0.9998310307000098,0.0010609928689489503,0.012286055949883313,0.013632210850942648
355.900000000005,-0.009599536,-0.80123943,-0.0026644494,-2.3697717,0.026716176,1.5938575,0.77584475,0.04,0.04,0.005423072151145014,-0.00434885798022977,0.00168301972538476,0.00476808089983536,-0.07483777367600047,0.06296110012518961,0.9998167978509617,0.0011008986764786267,0.012809767242655498,0.014179866725126762
355.91666666667163,-0.009990176,-0.80191123,-0.002772635,-2.37031,0.027780622,1.5947728,0.7754387,0.04,0.04,0.004467897340099114,-0.004316638031962548,0.0017179350584095587,0.00492832766159252,-0.07632074501542879,0.06440370436846747,0.9998016317572104,0.0011421420132015048,0.01334625437812918,0.014740086204478265
355.9333333333383,-0.010389898,-0.8025987,-0.0028833356,-2.3708606,0.028869795,1.5957096,0.77502334,0.04,0.04,0.005563062867564028,-0.004260941136580848,0.002175430143824819,0.005092367728193225,-0.07781397732361994,0.06584816266540253,0.9997854836672437,0.001184801277222308,0.01389599633735513,0.015312876280478031
355.95000000000493,-0.010798728,-0.8033018,-0.0029965595,-2.371424,0.029983774,1.5966674,0.7745984,0.04,0.04,0.004239612000866977,-0.004237831489580131,0.0016548749003142404,0.005259766028440291,-0.07931272330617804,0.06729471684371538,0.999768317353261,0.001228835288278376,0.014458461573135909,0.015898253658860512
355.9666666666716,-0.011216692,-0.80402064,-0.0031123138,-2.372,0.03112264,1.5976471,0.774164,0.04,0.04,0.005116809002903011,-0.004188333263246795,0.002238057904002666,0.005431363765531834,-0.0808222280223347,0.06874101740857431,0.9997500802533308,0.0012743222005713209,0.015034219872656124,0.01649622287702255
355.98333333333824,-0.011643819,-0.8047551,-0.0032306053,-2.3725889,0.03228645,1.5986478,0.77372,0.04,0.04,0.004428512513698912,-0.004147712048715654,0.0016973091859995293,0.0056072657501479994,-0.08233714224797489,0.07018758101656564,0.9997307343311005,0.0013212473693878226,0.015622770530952245,0.017106787545430813
356.0000000000049,-0.012080124,-0.8055053,-0.0033514386,-2.3731894,0.03347525,1.5996703,0.7732666,0.04,0.04,0.006912167399852898,-0.004074228700852792,0.0026049998298471877,0.005787325047665624,-0.08386268507463104,0.07163277872316522,0.9997102178254338,0.0013697355746110228,0.01622510045441082,0.017729927104301286
356.01666666667154,-0.012525625,-0.8062715,-0.0034748192,-2.3738034,0.03468909,1.6007142,0.7728036,0.04,0.04,0.004388583626702136,-0.004048330613423516,0.0015578903173496528,0.005970927754059059,-0.08539052466284697,0.07307711304321308,0.9996884949509248,0.0014197482123994166,0.016840442575190063,0.01836564378506118
356.0333333333382,-0.012980341,-0.8070537,-0.0036007513,-2.3744302,0.035928033,1.6017797,0.77233094,0.04,0.04,0.0052856693162350865,-0.003994220691024529,0.0019077291294689047,0.00615883554071564,-0.08692682986449453,0.07451989020055869,0.9996655121886243,0.0014712975497288572,0.01746910218668578,0.01901392891979185
356.05000000000484,-0.013444279,-0.8078515,-0.00372924,-2.3750694,0.03719209,1.6028666,0.7718488,0.04,0.04,0.005773729115809978,-0.003920761277817486,0.0022507542535743497,0.006351495794150067,-0.08847056119176872,0.07595975587229065,0.9996412193217278,0.0015245096854485164,0.018111114424710813,0.01967475635130691
356.0666666666715,-0.013917456,-0.8086653,-0.0038602864,-2.3757217,0.03848131,1.6039755,0.77135706,0.04,0.04,0.0052060085790284205,-0.0038647375906811915,0.002109673144379265,0.006547934999016427,-0.09002063265985148,0.0773987614349374,0.9996155638910553,0.0015793753980829612,0.018766577657622994,0.020348109571648485
356.08333333333815,-0.014399874,-0.8094951,-0.0039938944,-2.376386,0.039795704,1.6051059,0.7708557,0.04,0.04,0.007272450883100134,-0.003797542143393548,0.002259834380025083,0.0067487409899543785,-0.09157439047448009,0.07883464532481654,0.9995884861875076,0.0016359155784851193,0.019435917136635276,0.021033953186329005
356.1000000000048,-0.014891538,-0.81034064,-0.004130064,-2.377063,0.04113526,1.6062579,0.77034473,0.04,0.04,0.005487288140870739,-0.0037112607613076776,0.0022145430765174723,0.006954170792556256,-0.09313093828551777,0.08026349555870517,0.9995599424729182,0.0016941523235977213,0.020118665410313923,0.02173224685918966
356.11666666667145,-0.015392449,-0.8112022,-0.004268793,-2.377753,0.042500034,1.6074315,0.7698241,0.04,0.04,0.005888050104085885,-0.003688916454724564,0.001979230037263413,0.007163919412647841,-0.09469372358736426,0.0816942792154052,0.9995298762880998,0.0017541173206801386,0.02081495131030498,0.022442978453650158
356.1333333333381,-0.015902607,-0.81207955,-0.004410083,-2.3784556,0.043889977,1.6086268,0.76929384,0.04,0.04,0.006121443130790993,-0.0035638071148490907,0.0023587715808570664,0.007378412343613756,-0.09626133584572236,0.08311604586332812,0.9994982323130138,0.001815879620910647,0.021524843084638437,0.023166081121855843
356.15000000000475,-0.016422007,-0.8129729,-0.0045539364,-2.379171,0.04530514,1.6098441,0.768754,0.04,0.04,0.006650887291503871,-0.0035216971630766536,0.0023838659426456132,0.007597680832375116,-0.09783272598780544,0.0845360696699118,0.9994649477530186,0.0018794748712607943,0.0222486492015036,0.02390153543127798
356.1666666666714,-0.01695065,-0.8138822,-0.004700349,-2.379899,0.04674542,1.6110827,0.76820457,0.04,0.04,0.006010751847451701,-0.0033912249952569584,0.0019339673842377891,0.007821350729686434,-0.09940540640552631,0.0859461602581019,0.9994299767573425,0.0019449353650806325,0.022985932673964628,0.02464925322097456
356.18333333333806,-0.017488522,-0.81480724,-0.0048493175,-2.38064,0.04821088,1.612343,0.7676456,0.04,0.04,0.00612229679393117,-0.003365504281754167,0.0022849918429379557,0.008049668761829148,-0.10098427118923683,0.08735442612330042,0.9993932578293712,0.0020123281737986836,0.023736853244013922,0.025409221526622876
356.2000000000047,-0.018035611,-0.8157482,-0.00500084,-2.381394,0.049701437,1.6136246,0.76707697,0.04,0.04,0.006243889092760746,-0.0032459637114148204,0.0019754676356731338,0.008282713844783976,-0.10256500104515404,0.08875425653866638,0.9993547359716488,0.0020816191602458676,0.024501333738838695,0.02618135209888523
356.21666666667136,-0.01859191,-0.8167049,-0.005154912,-2.3821604,0.05121706,1.6149279,0.76649874,0.04,0.04,0.0067031531857164595,-0.0031357447715523595,0.0024594641903075143,0.008521085302262005,-0.10415198169180041,0.09014442841755484,0.9993143465371683,0.00215287760455916,0.025279623345789447,0.02696558114536289
356.233333333338,-0.019157391,-0.81767756,-0.0053115296,-2.3829393,0.05275769,1.6162528,0.765911,0.04,0.04,0.00739269243401619,-0.0030438335329948524,0.00238940397148113,0.008764318288548692,-0.10574054630266258,0.0915270272372752,0.9992720252847824,0.002226150058317887,0.026071911335429195,0.027761829523363802
356.25000000000466,-0.019732043,-0.8186661,-0.0054706885,-2.3837311,0.05432334,1.6175991,0.76531374,0.04,0.04,0.006647123084757567,-0.002990128622017141,0.0021206923840999536,0.009012316965651728,-0.10732924924358139,0.09290688889789654,0.9992277172655395,0.00230150507252105,0.02687794156012685,0.028570060906315756
356.2666666666713,-0.020315854,-0.81967044,-0.0056323837,-2.3845356,0.055913907,1.6189672,0.7647071,0.04,0.04,0.007133311321227964,-0.002828169136712827,0.0024803701834441583,0.0092649941271859,-0.10891882097831784,0.0942746152985825,0.9991813562614479,0.002379007138946127,0.027697933319554103,0.029390170370242243
356.28333333333796,-0.020908792,-0.8206903,-0.0057966076,-2.3853526,0.057529323,1.6203562,0.76409096,0.04,0.04,0.00667108698002572,-0.0027569221596072946,0.002149191677824902,0.009522316081872376,-0.11050884447184091,0.09563347409306262,0.9991328933261627,0.002458643221140167,0.02853142325296328,0.03022208520870128
356.3000000000046,-0.021510834,-0.8217257,-0.005963352,-2.386182,0.05916953,1.6217667,0.7634653,0.04,0.04,0.007511286796346717,-0.002630754222556278,0.0025446560976361,0.009784652450296569,-0.11210419268236713,0.09698230740141406,0.9990822536983502,0.0025404138484220466,0.02937887146225999,0.031065713481390513
356.31666666667127,-0.022121947,-0.8227768,-0.00613261,-2.3870234,0.060834467,1.6231987,0.7628302,0.04,0.04,0.008510040843012767,-0.002517624217361278,0.002846062523453874,0.010052117108747864,-0.11369811729448284,0.09832293497424016,0.9990293637549789,0.002624397170720941,0.030240616198572202,0.03192096531659345
356.3333333333379,-0.022742104,-0.8238435,-0.0063043735,-2.3878782,0.06252405,1.6246514,0.76218575,0.04,0.04,0.005802884380612383,-0.002466260694604372,0.001573478818639451,0.010324806541287097,-0.11528691228324099,0.09965364037792265,0.9989741934956611,0.002710653357793242,0.03111550819753155,0.032787775735426294
356.35000000000457,-0.02337127,-0.82492584,-0.0064786337,-2.3887453,0.06423818,1.6261264,0.7615319,0.04,0.04,0.008254988002165398,-0.002251993913442857,0.003160900632837027,0.010602586278638096,-0.11688346880344183,0.1009729507985818,0.9989166376236988,0.00279918970912528,0.032004930120823234,0.03366600753724052
356.3666666666712,-0.024009418,-0.8260236,-0.006655382,-2.389624,0.06597677,1.6276208,0.7608687,0.04,0.04,0.008263777947736806,-0.0022281778846094252,0.001573613279082231,0.01088540441004461,-0.11847249800825918,0.10228230346090164,0.998856667392006,0.002890037343764243,0.032907702300690136,0.03455559028545702
356.3833333333379,-0.024656504,-0.82713664,-0.0068346076,-2.3905153,0.06773973,1.6291369,0.76019627,0.04,0.04,0.007898522685501064,-0.0020405112541112963,0.00296202003224888,0.011173737919321289,-0.12006521278476301,0.10357909599675645,0.998794192430958,0.0029832657268632485,0.03382461115923651,0.03545640945893773
356.4000000000045,-0.025312493,-0.8282649,-0.0070162984,-2.391419,0.069526926,1.630674,0.7595145,0.04,0.04,0.0076317834635908355,-0.0019107918131380797,0.0025255030738691175,0.011467222968009831,-0.12165503707266698,0.10486396488301851,0.9987291597029634,0.0030788858073179746,0.034755281771414626,0.0363683435172369
356.4166666666712,-0.025977345,-0.8294086,-0.0072004437,-2.3923347,0.07133829,1.6322315,0.7588235,0.04,0.04,0.008224082660079901,-0.0018397073450606566,0.0020702937906014185,0.01176614339363341,-0.12324206100067578,0.10613740013753918,0.9986615027630481,0.003176930785706355,0.03569969653564026,0.03729130833178707
356.4333333333378,-0.02665102,-0.83056754,-0.0073870327,-2.3932626,0.07317364,1.6338098,0.7581235,0.04,0.04,0.008323505329177472,-0.0016336045904633,0.0025264626926535527,0.012070293115878303,-0.12482856885378033,0.10739721868460625,0.998591149180674,0.0032775504719283776,0.036658040821564826,0.03822515512132523
356.4500000000045,-0.02733346,-0.8317414,-0.007576052,-2.3942032,0.075032905,1.6354088,0.7574143,0.04,0.04,0.007134025199784233,-0.0015541228745637875,0.0023763530119680354,0.012379204338345363,-0.12641108595708492,0.10864484417972604,0.9985180492788813,0.0033806505337874667,0.037629825643559545,0.03916979305920889
356.46666666667113,-0.028024627,-0.83293045,-0.0077674896,-2.395155,0.07691595,1.6370282,0.7566959,0.04,0.04,0.010051008825229246,-0.0013871143649233503,0.0027134821207974724,0.012693847060613182,-0.12799457557072325,0.10987806300054923,0.9984421048550979,0.0034862771595576166,0.03861589373373863,0.04012507788444933
356.4833333333378,-0.028724466,-0.8341343,-0.007961329,-2.3961186,0.0788226,1.638668,0.75596833,0.04,0.04,0.008372898591657574,-0.0012404656884398152,0.0024959383220224396,0.013014000322612344,-0.12957049465716775,0.11109839788632755,0.9983632727025785,0.003594399472077032,0.03961560377557109,0.04109087427311352
356.50000000000443,-0.029432924,-0.8353529,-0.00815756,-2.3970947,0.08075276,1.6403278,0.75523233,0.04,0.04,0.00762125404465408,-0.0011462713971885363,0.00222529106941316,0.013340687665520753,-0.13114316051443545,0.11230385923034783,0.998281492664872,0.0037054569835169903,0.04062868282030262,0.04206710262932045
356.5166666666711,-0.030149959,-0.8365861,-0.008356163,-2.3980827,0.08270624,1.6420078,0.7544873,0.04,0.04,0.008380023511112,-0.000943094428813851,0.002528129449386185,0.013670336982551809,-0.1327149631984206,0.11349534747614683,0.9981966922140443,0.003819134257391371,0.041655332825636236,0.043053584213744646
356.53333333333774,-0.030875502,-0.8378343,-0.008557126,-2.3990824,0.08468297,1.6437076,0.7537328,0.04,0.04,0.009191331437752304,-0.0008792316153763413,0.0021685013221084404,0.014005770490366484,-0.1342828319196807,0.11467108971116795,0.9981087958382373,0.003935241110070706,0.04269572199671163,0.044050208523105136
356.5500000000044,-0.0316095,-0.83909696,-0.008760431,-2.4000936,0.0866827,1.6454272,0.75297016,0.04,0.04,0.009199293827300004,-0.0006421969535590211,0.002541175114334493,0.014349192318763866,-0.13584636623158342,0.11583262260511559,0.9980177378132683,0.004054420363757328,0.0437497423542944,0.0450568166822013
356.56666666667104,-0.032351904,-0.84037393,-0.008966059,-2.4011164,0.0887053,1.6471666,0.7521985,0.04,0.04,0.008707800834195645,-0.0005101537155279001,0.0025515529187503105,0.014695304110219541,-0.13740430611378965,0.11697764222689919,0.9979234576545014,0.00417627757228143,0.04481724381258412,0.04607326801483805
356.5833333333377,-0.033102628,-0.84166527,-0.009174,-2.4021502,0.09075058,1.6489255,0.75141823,0.04,0.04,0.01006375971757123,-0.0003432923313867464,0.00263281773622559,0.015048223767587347,-0.1389569661305694,0.11810238472658752,0.9978258733756117,0.00430097089942275,0.0458985238435232,0.04709940106312973
356.60000000000434,-0.033861633,-0.84297085,-0.00938423,-2.4031956,0.09281839,1.6507035,0.7506295,0.04,0.04,0.008614283223140617,-0.0002212805678941665,0.002076035652986974,0.015406415615123265,-0.14050086791532757,0.11921308399292035,0.9977249426956367,0.004428613652143317,0.04699296289035376,0.04813509678908212
356.616666666671,-0.034628842,-0.8442906,-0.009596732,-2.4042523,0.09490854,1.6525009,0.74983203,0.04,0.04,0.009598651174291817,-4.666672938705152e-05,0.002469063170118524,0.015769208068830087,-0.14204301320339405,0.12030696532522248,0.9976205814564452,0.004559084771873453,0.048100930847681835,0.04918018556424737
356.63333333333765,-0.035404183,-0.84562445,-0.009811491,-2.4053204,0.09702087,1.6543175,0.74902624,0.04,0.04,0.009166027656881681,0.000110797370453386,0.002439911570584208,0.016138450779118886,-0.14357719049113626,0.12138444429612705,0.9975127265143477,0.004692575870429622,0.049222277469400486,0.05023452572024256
356.6500000000043,-0.036187597,-0.8469721,-0.010028485,-2.4063995,0.09915519,1.6561531,0.74821204,0.04,0.04,0.009723818475415591,0.0002828923768426195,0.0025084041206158147,0.0165117316638492,-0.14510430323169912,0.12244840319302641,0.9974013105918865,0.004829053100426898,0.05035698111354118,0.051297956381036534
356.66666666667095,-0.036979005,-0.8483336,-0.010247699,-2.4074895,0.10131127,1.6580073,0.7473896,0.04,0.04,0.00970078794733098,0.0004452303343692454,0.002247142031053251,0.01689046831740578,-0.14662278722740735,0.12349239851386873,0.997286272618263,0.0049685962265470646,0.051504893625318286,0.052370310590579734
356.6833333333376,-0.037778344,-0.84970886,-0.010469107,-2.4085908,0.10348896,1.6598798,0.746559,0.04,0.04,0.009238540289180364,0.0005633682484081082,0.0020138662073954094,0.01727444918883024,-0.14813545715470997,0.12451972723871749,0.9971675549050699,0.005111241462734977,0.05266578162600744,0.053451455556192476
356.70000000000425,-0.038585518,-0.85109764,-0.0106926905,-2.4097028,0.105688006,1.6617708,0.74572015,0.04,0.04,0.009971015675924733,0.0007847587383300048,0.0024127343704938298,0.017663294957050435,-0.14964158987864626,0.12552896595338475,0.9970450811808885,0.005256917234225769,0.05383985867489599,0.05454118198256439
356.7166666666709,-0.039400484,-0.85249937,-0.010918427,-2.4108255,0.107908234,1.6636802,0.74487317,0.04,0.04,0.0093771226471695,0.0009787393601579097,0.002666314031563033,0.018057666624816338,-0.15113793823640617,0.12652139986346925,0.9969187991513069,0.005405744181419807,0.055026798248123975,0.05563935031182191
356.73333333333755,-0.040223148,-0.8539144,-0.011146296,-2.4119585,0.11014946,1.6656077,0.74401814,0.04,0.04,0.010639041514770575,0.0011082784486388109,0.0024624201457879025,0.018457277846189453,-0.15262892066128456,0.12749570231606222,0.9967886234432326,0.005557713204200984,0.05622692789890928,0.05674578906964061
356.7500000000042,-0.041053433,-0.8553426,-0.011376276,-2.4131024,0.112411425,1.667553,0.7431552,0.04,0.04,0.00926935882330504,0.0012714047841720644,0.001952932848836575,0.018862126900098926,-0.1541068826868103,0.12845081952682127,0.9966545162450766,0.005712892680648414,0.05743971083911442,0.05786032945145219
356.76666666667086,-0.041891247,-0.856784,-0.0116083445,-2.414256,0.114693955,1.669516,0.74228436,0.04,0.04,0.011361327824133127,0.0014533204217383189,0.002467623891422299,0.019272207122109516,-0.15557798593408537,0.12938606707184647,0.9965163786924809,0.005871275927283768,0.05866571060130078,0.058982790000594615
356.7833333333375,-0.042736508,-0.858238,-0.011842478,-2.4154205,0.11699677,1.6714966,0.7414059,0.04,0.04,0.00919086104302913,0.0016416921251240224,0.002275792003647581,0.019687174888561948,-0.15703604802899823,0.130303004742734,0.9963741865170166,0.006033011617660829,0.05990417649281906,0.06011300069113098
356.80000000000416,-0.043589145,-0.85970485,-0.012078653,-2.4165955,0.11931969,1.6734942,0.7405198,0.04,0.04,0.009699276905439369,0.0017527205735341778,0.0017106791035725877,0.0201066169112974,-0.1584868957784642,0.13120429306284256,0.9962278787168897,0.006198065556761405,0.06115501962992682,0.06125080591031843
356.8166666666708,-0.04444906,-0.861184,-0.012316845,-2.4177792,0.12166244,1.675509,0.73962617,0.04,0.04,0.012196000865816181,0.002050885837169558,0.0028390796439792254,0.02053075899297166,-0.15992938313272162,0.1320829357907112,0.9960773518038758,0.0063664331475990115,0.062418916962411926,0.06239596587596577
356.83333333333746,-0.04531617,-0.8626756,-0.012557033,-2.418974,0.1240248,1.6775407,0.73872495,0.04,0.04,0.008579914675932443,0.002120680528083785,0.0017301185234464,0.020960109597060038,-0.16135478598130903,0.13294254386848298,0.9959226031554522,0.006538154445435172,0.06369479768394902,0.06354835803162867
356.8500000000041,-0.04619039,-0.86417943,-0.012799189,-2.4201784,0.1264065,1.6795889,0.73781633,0.04,0.04,0.010383391990820279,0.00235008754018301,0.0020481961011231675,0.021394111765104626,-0.16277453420800497,0.13378278127546706,0.9957635511813129,0.006713270896117586,0.06498297751053608,0.06470776434494825
356.86666666667077,-0.04707161,-0.8656954,-0.013043292,-2.421392,0.12880729,1.6816534,0.73690057,0.04,0.04,0.01153924227110803,0.0025345887773399467,0.002075158490244533,0.021832994462048602,-0.16418270849985792,0.13460249076085234,0.9956001215243268,0.00689185195835222,0.06628362035357668,0.06587398629317287
356.8833333333374,-0.047959775,-0.86722326,-0.013289309,-2.4226153,0.13122697,1.6837345,0.7359775,0.04,0.04,0.010218972199638188,0.002735784946870934,0.00228757467168883,0.02227637225187125,-0.16557812609636627,0.13540279756513782,0.9954322647110817,0.0070738585279863575,0.0675964899490787,0.06704686006262417
356.90000000000407,-0.04885476,-0.8687628,-0.013537221,-2.4238477,0.13366531,1.6858314,0.7350472,0.04,0.04,0.010999708449288548,0.0028334256019259263,0.00196678186896726,0.022724034978260116,-0.16695921601613398,0.13618216866556118,0.9952599295046426,0.007259304571862916,0.06892139463253595,0.06822621623286111
356.9166666666707,-0.049756486,-0.87031394,-0.013786997,-2.4250898,0.13612194,1.687944,0.7341102,0.04,0.04,0.00972576317002094,0.0030779947276772524,0.0017016888096632599,0.023177045070266834,-0.1683284860374158,0.13694080834154063,0.9950830812078397,0.007448378906247681,0.07025795508036445,0.06941183539934859
356.9333333333374,-0.050664857,-0.87187654,-0.014038613,-2.4263406,0.13859668,1.6900724,0.73316634,0.04,0.04,0.011746702517889673,0.0032838481455639557,0.0022169901248814128,0.023633611432144125,-0.1696862139519489,0.13767746040939477,0.9949016223200496,0.0076410377061278244,0.07160669587345501,0.07060352366414398
356.950000000004,-0.051579755,-0.8734505,-0.014292043,-2.4276001,0.14108926,1.6922159,0.73221546,0.04,0.04,0.011087167552048527,0.0033883191992781225,0.0017141803114961718,0.024093394815138634,-0.17102849328262248,0.13839617314406957,0.9947155224544592,0.007837120071512145,0.07296719818215616,0.07180109279518833
356.9666666666707,-0.052501097,-0.8750355,-0.014547258,-2.4288692,0.14359936,1.6943744,0.73125786,0.04,0.04,0.009424571608929178,0.003598837175223385,0.001543916020230185,0.024558620281124606,-0.17235455026650015,0.1390929901323297,0.99452476366307,0.00803679354463145,0.0743388752830887,0.07300435625413779
356.9833333333373,-0.05342879,-0.87663144,-0.014804231,-2.4301474,0.14612672,1.696548,0.73029375,0.04,0.04,0.010215252121592577,0.0038223601623303682,0.0017521861409797168,0.02502908431515047,-0.17367113843851692,0.1397641348269263,0.9943292746724451,0.008240149053897841,0.07572191201443816,0.07421310877342713
357.000000000004,-0.054362707,-0.87823814,-0.015062931,-2.4314337,0.1486711,1.6987364,0.72932315,0.04,0.04,0.011818973401567234,0.003978142982055677,0.002046366213481754,0.025502121222025186,-0.17497529661279201,0.14041929898309313,0.9941289702809637,0.008447117965048209,0.07711667774203446,0.07542714803190234
357.01666666667063,-0.055302765,-0.8798553,-0.015323331,-2.432728,0.15123218,1.7009388,0.72834635,0.04,0.04,0.011082134211104488,0.004154299121224975,0.0015568569905255458,0.02597911315811194,-0.17626004268827072,0.14105104779510597,0.9939238417728884,0.008657810811777689,0.07852252213709165,0.07664628226208839
357.0333333333373,-0.05624887,-0.88148284,-0.015585403,-2.434031,0.1538097,1.7031559,0.727363,0.04,0.04,0.010585532987361645,0.004397521754864742,0.0018320907720914548,0.026459236775789846,-0.17753038566471196,0.14166415521128764,0.9937138250211112,0.008872074499822314,0.07993958909625877,0.0778702918390797
357.05000000000393,-0.057200894,-0.8831207,-0.015849119,-2.4353426,0.1564034,1.7053863,0.72637355,0.04,0.04,0.009961699053850914,0.00440183371670233,0.0009622776239837094,0.026944503014515557,-0.17878442073004222,0.14225172811131848,0.9934989162916247,0.00909006098283331,0.08136716098753993,0.07909904696975445
357.0666666666706,-0.05815874,-0.88476866,-0.016114444,-2.4366617,0.15901297,1.7076306,0.7253782,0.04,0.04,0.011715438861625849,0.004725531909327563,0.0018023481761053617,0.027432469577303643,-0.18002614122165567,0.14282182413691807,0.9932790127317034,0.009311833046973231,0.08280588942231579,0.08033229306460184
357.08333333333724,-0.0591223,-0.8864262,-0.016381355,-2.4379885,0.16163808,1.7098885,0.72437686,0.04,0.04,0.011026739131780872,0.004936545065463427,0.001705845741262202,0.0279231182702668,-0.18124848560177706,0.1433703919151056,0.9930541015816006,0.009537302130687248,0.0842553114506397,0.08156980870630909
357.1000000000039,-0.060091462,-0.88809353,-0.01664982,-2.439323,0.16427843,1.7121589,0.7233696,0.04,0.04,0.010918020414552032,0.005004023951042658,0.000980351002977109,0.028417664467365107,-0.1824537722314694,0.1438952896335487,0.9928241573439557,0.009766447532860463,0.08571510310572057,0.08281141344300197
357.11666666667054,-0.06106611,-0.8897703,-0.016919805,-2.440665,0.16693385,1.7144426,0.7223566,0.04,0.04,0.01089385491215289,0.00519239028456131,0.0015146132098520226,0.02891590875319469,-0.18364331370371265,0.1443991524662221,0.9925891128526976,0.009999365197112715,0.08718541182314811,0.08405694324193236
357.1333333333372,-0.062046133,-0.89145637,-0.017191285,-2.4420145,0.16960385,1.7167386,0.7213381,0.04,0.04,0.010668332134300407,0.005413794297946806,0.001030573683791225,0.029417471749745717,-0.18481487355327125,0.14487746000693433,0.9923489657088876,0.010236064984677322,0.08866575559765322,0.08530613702675495
357.15000000000384,-0.06303145,-0.89315146,-0.017464228,-2.4433713,0.17228822,1.7190468,0.720314,0.04,0.04,0.010510027455934434,0.005586489517421522,0.0010861919921500984,0.0299218623101836,-0.18596957151025928,0.14533722660782517,0.9921036737582394,0.010476534971207555,0.09015605054200426,0.08655881977631968
357.1666666666705,-0.06402191,-0.8948554,-0.017738597,-2.4447353,0.17498666,1.7213676,0.71928465,0.04,0.04,0.010808439476628351,0.005774373961661694,0.0014122971887964297,0.03042851084228606,-0.1871077260608203,0.14577865515358224,0.9918531807262349,0.010720847981644242,0.09165640232209278,0.0878147778860482
357.18333333333715,-0.06501741,-0.89656806,-0.018014358,-2.4461062,0.17769885,1.7237002,0.71825016,0.04,0.04,0.010890827719656215,0.005904003544854319,0.0009871658142923678,0.03093758645250648,-0.18822658669698739,0.14619567036383455,0.99159746478754,0.01096902101580511,0.09316653624748103,0.08907381730073714
357.2000000000038,-0.06601784,-0.898289,-0.01829149,-2.447484,0.18042448,1.726044,0.7172105,0.04,0.04,0.010173310591143903,0.006056415532847137,0.0008916032416372843,0.03144859126779746,-0.18932633496575185,0.14659091044836092,0.9913365254923816,0.011220985510623461,0.09468598002633583,0.0903357509257302
357.21666666667045,-0.06702309,-0.90001833,-0.018569952,-2.4488685,0.18316317,1.7283993,0.7161657,0.04,0.04,0.010677699945427221,0.00631283624208806,0.000870741796465957,0.03196288851714903,-0.19040978682873586,0.14696153578360066,0.9910703130785087,0.011476749755540226,0.09621486925697059,0.0916003148650672
357.2333333333371,-0.068033025,-0.9017559,-0.018849716,-2.4502597,0.18591464,1.7307655,0.7151162,0.04,0.04,0.010473344222683423,0.0063878536134653885,0.0006039491185161339,0.03247883280268864,-0.1914731026246954,0.1473154207915372,0.9907988032211142,0.01173639027675434,0.09775297793598524,0.09286734616390382
357.25000000000375,-0.06904754,-0.90350133,-0.019130748,-2.4516575,0.18867859,1.7331425,0.7140619,0.04,0.04,0.009898648098394247,0.006582381773845292,0.0007480120910674515,0.03299615328747606,-0.19251758896348906,0.14764710319647817,0.9905219848437417,0.011999890602309082,0.09930000485185428,0.094136651752486
357.2666666666704,-0.07006649,-0.90525424,-0.019413015,-2.4530609,0.19145471,1.7355298,0.713003,0.04,0.04,0.011480225814786138,0.0067270175789779785,0.0008564233630270479,0.033515769281384576,-0.19354313763959127,0.14795447386393734,0.9902398090383908,0.01226718092113493,0.1008560815335315,0.09540800640177492
357.28333333333705,-0.07108979,-0.9070148,-0.019696487,-2.4544697,0.19424263,1.7379274,0.71193945,0.04,0.04,0.011663014865082033,0.006989107470280198,0.0007892790868879729,0.034037147119398675,-0.19454763260881097,0.1482398948379976,0.9899522306835801,0.012538259797175072,0.1024213124923425,0.09668116545226511
357.3000000000037,-0.072117314,-0.90878266,-0.019981124,-2.455885,0.19704205,1.7403347,0.7108716,0.04,0.04,0.009270811694328529,0.00698833845486635,0.00011341367984751827,0.0345594211083698,-0.1955280057564088,0.148508391030403,0.9896593074545108,0.012813211127839085,0.1039947022021343,0.09795600391574194
357.31666666667036,-0.07314894,-0.91055745,-0.020266894,-2.4573057,0.19985262,1.7427515,0.70979935,0.04,0.04,0.010426671315144631,0.007225292240072012,0.00044703828958603253,0.03508374069114743,-0.19649039605402016,0.14875076828775047,0.9893609974861631,0.013091950917607682,0.10557638392831492,0.09923227615537349
357.333333333337,-0.07418453,-0.9123389,-0.020553764,-2.4587321,0.20267405,1.7451779,0.7087231,0.04,0.04,0.009823150176480056,0.007369642242485708,0.0005999026529535101,0.035609499536209455,-0.19743409048806274,0.14897321593951293,0.98905727929223,0.013374627487854477,0.10716620652796398,0.10050980945668318
357.35000000000366,-0.07522393,-0.91412705,-0.020841708,-2.4601634,0.20550598,1.7476131,0.7076428,0.04,0.04,0.011176451579819613,0.007477032099068026,0.00027812924703329855,0.03613504798990809,-0.19835484829352895,0.14917408873864224,0.9887481220921559,0.013661031144746604,0.10876421744368328,0.10178837011741958
357.3666666666703,-0.076267086,-0.91592175,-0.021130681,-2.4616005,0.20834807,1.7500573,0.70655864,0.04,0.04,0.008937297343791784,0.007692155046623572,5.1912188547831306e-05,0.03666289193701837,-0.1992519102897996,0.14935055295288258,0.9884335533717318,0.013951355124557079,0.11036985445618606,0.10306777132761206
357.38333333333696,-0.07731384,-0.9177225,-0.021420648,-2.4630423,0.2112,1.7525097,0.7054708,0.04,0.04,0.010578029144614476,0.00775454544795634,9.507520470908304e-05,0.03718965757964317,-0.2001304854154577,0.14951012352916973,0.9881135483603881,0.014245491960104493,0.11198309266768683,0.10434782442407614
357.4000000000036,-0.078364044,-0.91952926,-0.02171158,-2.4644885,0.21406133,1.7549703,0.70437944,0.04,0.04,0.010451632566610414,0.007993364337358089,0.00015823560621797128,0.0377175783082066,-0.20098606155178364,0.14964450612398006,0.9877880904662658,0.014543468541284044,0.11360389580873372,0.10562826663765414
357.41666666667027,-0.07941761,-0.9213418,-0.022003442,-2.4659398,0.2169318,1.7574388,0.7032844,0.04,0.04,0.00918800041689316,0.008069804683910609,-0.00018914230301980695,0.038244829952290574,-0.201817493503828,0.14975870507063765,0.9874572100432377,0.014845169218918994,0.11523175530813662,0.10690894187621801
357.4333333333369,-0.080474414,-0.92315984,-0.0222962,-2.4673948,0.21981108,1.7599149,0.70218605,0.04,0.04,0.010968826107005114,0.008274363178141508,8.959852419998526e-05,0.03877308569727771,-0.20262792595958123,0.14985176979654502,0.987120848401745,0.015150682595840865,0.11686697866788098,0.10818963335061414
357.45000000000357,-0.0815343,-0.92498326,-0.022589814,-2.4688544,0.2226988,1.7623981,0.70108455,0.04,0.04,0.009185522172883154,0.008296802474362652,-0.0004156767286378482,0.039300413967182826,-0.20341170367821415,0.14992524203376711,0.9867790639142685,0.015460004146447432,0.11850885517260623,0.10947017190974877
357.4666666666702,-0.08259716,-0.9268118,-0.022884246,-2.4703178,0.22559461,1.7648885,0.6999799,0.04,0.04,0.0101903579550644,0.008499672589094842,-0.00013334307058521233,0.039827098388442395,-0.2041745422998868,0.1499759966115917,0.9864318168408239,0.015773049180857587,0.12015759317919787,0.11075032480779441
357.4833333333369,-0.083662845,-0.9286451,-0.02317947,-2.4717858,0.22849816,1.7673854,0.6988723,0.04,0.04,0.008018635137485575,0.008523302175719727,-0.0006390791811750063,0.04035301557688074,-0.20491137746599922,0.15000886928916243,0.9860791966346196,0.016089886447573188,0.12181224104042912,0.11202995782930462
357.5000000000035,-0.08473124,-0.9304832,-0.023475446,-2.473257,0.2314091,1.7698888,0.6977619,0.04,0.04,0.010415526371376771,0.00875927674489213,-0.0003978478776422989,0.04087852476438968,-0.20562880265309016,0.15001756676988875,0.985721111485672,0.01641041430165048,0.12347349917350313,0.11330879787443855
357.5166666666702,-0.08580222,-0.9323257,-0.023772137,-2.474732,0.2343271,1.7723979,0.69664884,0.04,0.04,0.008929478214447784,0.008755424219068775,-0.0007599634429755753,0.0414031221557737,-0.20631758471815986,0.15000525128290998,0.9853576419442669,0.01673467051293833,0.12514053161372146,0.11458671656126808
357.5333333333368,-0.08687565,-0.9341724,-0.024069509,-2.4762099,0.23725177,1.7749131,0.6955333,0.04,0.04,0.009709638605537307,0.009007741667715896,-0.0003670760019947039,0.04192518818102621,-0.20698486389085424,0.14997694455509708,0.9849887450945235,0.017062650729646547,0.12681362015989892,0.11586347021013585
357.5500000000035,-0.087951384,-0.9360231,-0.02436752,-2.4776912,0.24018274,1.7774334,0.69441503,0.04,0.04,0.008612003581864869,0.008976934844510953,-0.0010624218910626482,0.04244704264139061,-0.20762465028601185,0.14992088656415026,0.9846144982068882,0.017394144530178048,0.12849209472406378,0.11713887164508276
357.56666666667013,-0.08902933,-0.9378776,-0.024666144,-2.4791756,0.24311972,1.7799591,0.6932949,0.04,0.04,0.008767825799793627,0.009176000873221957,-0.0007382588918192212,0.04296742510179415,-0.20824219883137643,0.14984942532103154,0.98423487860656,0.017729497421310313,0.13017596649296004,0.11841277972897007
357.5833333333368,-0.09010931,-0.93973553,-0.024965335,-2.4806633,0.24606226,1.7824894,0.6921726,0.04,0.04,0.0075627172412495725,0.00917587437384848,-0.0011671746071639788,0.043484143281393925,-0.20883342725672083,0.14975768158610436,0.9838499696454405,0.018068480274949922,0.13186459299254155,0.11968498804833841
357.60000000000343,-0.09119122,-0.941597,-0.02526506,-2.4821532,0.2490101,1.7850245,0.69104826,0.04,0.04,0.009827249337890365,0.00937052254345594,-0.0008719437474047353,0.04399986387004562,-0.2094035722721277,0.14964118798978476,0.983459687167687,0.018411020478817326,0.1335586056462237,0.1209552681729918
357.6166666666701,-0.092274934,-0.94346124,-0.025565282,-2.4836457,0.2519628,1.7875634,0.6899221,0.04,0.04,0.007594725120396717,0.009374068114055556,-0.0012559757829766482,0.044511362487364856,-0.20994330921594728,0.14951099761620723,0.9830641683864594,0.018757143099195326,0.13525690104790616,0.12222348848037527
357.63333333333674,-0.093360305,-0.9453286,-0.025865965,-2.4851398,0.25491998,1.7901064,0.6887941,0.04,0.04,0.009711653657662467,0.00959803488533445,-0.0011183965391792228,0.04502132828826244,-0.21046264732766548,0.14935816376668842,0.9826633343383293,0.019106693600020697,0.13696016517339113,0.12348934675683268
357.6500000000034,-0.0944472,-0.9471987,-0.026167072,-2.4866364,0.25788155,1.792653,0.68766433,0.04,0.04,0.007715405717112489,0.009396287131044345,-0.0014641839460871608,0.04552926734369689,-0.21094914956630104,0.14918235479518596,0.9822572667362598,0.019459697789388154,0.1386676026912916,0.12475286798149265
357.66666666667004,-0.0955355,-0.94907105,-0.026468566,-2.4881353,0.26084688,1.795203,0.6865333,0.04,0.04,0.006970434108310997,0.009699535922447211,-0.0013457307604269886,0.04603389504849405,-0.21141273265089555,0.14899258057704692,0.9818460317900531,0.019816290154575547,0.14037884028478534,0.12601375203895107
357.6833333333367,-0.09662507,-0.9509456,-0.026770411,-2.4896357,0.26381558,1.7977558,0.68540096,0.04,0.04,0.008289334031585938,0.009773239347447837,-0.0015100003647461335,0.046534090483152935,-0.21185039631457156,0.14878314649308108,0.9814296267829058,0.020176319707947,0.1420939760018902,0.12727177919626603
357.70000000000334,-0.09771574,-0.95282197,-0.027072571,-2.4911373,0.2667873,1.8003114,0.6842672,0.04,0.04,0.008104465316449705,0.009861935021815427,-0.0013497964394204587,0.04703032751450095,-0.21226208873535346,0.14855451310717033,0.9810080887941434,0.020539605836640794,0.14381282834864434,0.12852674707974535
357.71666666667,-0.098807395,-0.95470005,-0.027375007,-2.4926405,0.26976174,1.8028691,0.68313247,0.04,0.04,0.006708500988716892,0.009716075371757338,-0.0019655602719437226,0.04752501513465868,-0.21264438028511756,0.14830333918758987,0.9805815066476273,0.02090625034653429,0.14553471658824343,0.12977859524858792
357.73333333333665,-0.09989994,-0.9565796,-0.027677685,-2.4941447,0.27273867,1.8054291,0.68199706,0.04,0.04,0.007853465049878494,0.009951924769693865,-0.001485470467632588,0.048015724999724174,-0.2130028359642866,0.14803480208201508,0.9801498354461077,0.021276368252983163,0.14725998480659008,0.1310271464380355
357.7500000000033,-0.1009932,-0.9584607,-0.027980559,-2.4956498,0.27571756,1.8079906,0.6808609,0.04,0.04,0.007247447062486145,0.009863671105404814,-0.0021733916902189065,0.04850127398490829,-0.21333170734871387,0.14774332632708226,0.9797131730678861,0.02164970768846604,0.14898811735603457,0.13227217984505515
357.76666666666995,-0.10208706,-0.9603425,-0.028283598,-2.4971561,0.27869803,1.8105534,0.67972404,0.04,0.04,0.00587220079522055,0.01001144788604219,-0.0018712679240140417,0.04898140825298024,-0.21363543239740293,0.14744015627387325,0.9792716088424666,0.022026309677447932,0.15071859073411348,0.13351353565913415
357.7833333333366,-0.10318137,-0.96222526,-0.028586771,-2.4986634,0.28167975,1.8131175,0.67858684,0.04,0.04,0.006215989538294053,0.01002191363584648,-0.0021141829323223504,0.04945807093643776,-0.2139133425033899,0.14711283007283715,0.9788251565805963,0.02240618515397193,0.15245139454106768,0.13475105941810184
357.80000000000325,-0.10427601,-0.96410865,-0.028890029,-2.500171,0.2846624,1.8156823,0.67744905,0.04,0.04,0.006935607609825922,0.010028680813077562,-0.0021555036729514754,0.04992842601174539,-0.21416509937944544,0.14677075890129684,0.9783738467767655,0.02278905897777597,0.15418649564151543,0.13598455535806514
357.8166666666699,-0.10537086,-0.9659922,-0.029193338,-2.5016785,0.28764546,1.8182474,0.6763111,0.04,0.04,0.006516075906448648,0.010175840189986796,-0.0021073970980278744,0.050392607522140725,-0.21438773285376364,0.14641930179201235,0.9779177577879914,0.02317503297988949,0.15592351812683194,0.13721382344443292
357.83333333333655,-0.10646574,-0.96787596,-0.029496668,-2.503186,0.29062873,1.820813,0.6751731,0.04,0.04,0.006410983176330376,0.010107947417470342,-0.002185504400853411,0.050853043183663224,-0.2145838839705531,0.14604224397912013,0.9774569089277717,0.023564087750335336,0.1576624005963964,0.13843876767741609
357.8500000000032,-0.10756054,-0.9697595,-0.029799981,-2.5046937,0.29361174,1.8233781,0.6740353,0.04,0.04,0.005049122332634326,0.010085273317010646,-0.002540406544926377,0.051309549520068706,-0.21474863475387657,0.14564020076109274,0.9769914349332555,0.02395619714975354,0.1594024338767608,0.13965923084187987
357.86666666666986,-0.10865512,-0.9716427,-0.030103225,-2.5062013,0.29659435,1.8259428,0.6728975,0.04,0.04,0.005525024509100973,0.010004669355517803,-0.002407631917233921,0.05175821714878418,-0.21489002277686067,0.1452268804076577,0.9765213501693911,0.02435116223080459,0.16114364484687146,0.1408751194740359
357.8833333333365,-0.10974934,-0.9735253,-0.03040638,-2.507708,0.299576,1.8285067,0.6717604,0.04,0.04,0.005989536645456539,0.010175880960061612,-0.0024583266904132373,0.05220120656010353,-0.21500189503184877,0.14479766112625392,0.9760466929665714,0.024749150685924703,0.16288598140873556,0.14208620534681768
357.90000000000316,-0.11084308,-0.97540706,-0.030709397,-2.5092137,0.3025562,1.8310695,0.6706236,0.04,0.04,0.00613682174837038,0.010263215221172073,-0.0025357000225545434,0.052636916415420704,-0.2150866330194866,0.14434957022089434,0.9755675450271024,0.025149856409194423,0.16462925536711953,0.14329221224357258
357.9166666666698,-0.111936204,-0.97728765,-0.031012256,-2.5107186,0.3055349,1.8336308,0.66948754,0.04,0.04,0.004649657619726355,0.010022681475613249,-0.002616564786639408,0.05306601779761529,-0.21514083347124535,0.14388863337994487,0.9750839911393888,0.025553421732535907,0.16637288243190435,0.144493241546929
357.93333333333646,-0.113028586,-0.97916704,-0.031314895,-2.5122225,0.30851153,1.8361905,0.6683522,0.04,0.04,0.0047700638391212635,0.01014538698947548,-0.0027992146824473707,0.053488888297989756,-0.21516917125397286,0.14340645809152233,0.9745961009931225,0.025959682817700728,0.1681167908545583,0.1456889818406745
357.9500000000031,-0.11412008,-0.9810449,-0.03161729,-2.513725,0.31148565,1.838748,0.66721797,0.04,0.04,0.0048687651774237395,0.010160374044060339,-0.002825566445219252,0.05390413457528247,-0.21516754435863314,0.14290997743848805,0.9741039481889143,0.026368690497212,0.1698607171629,0.1468792941470521
357.96666666666977,-0.11521056,-0.9829209,-0.03191941,-2.515226,0.3144569,1.841303,0.66608477,0.04,0.04,0.004650330182931484,0.010138771996472118,-0.002868283517698522,0.05431207113575877,-0.21513740803061887,0.14239504763095034,0.9736076159913769,0.0267802594866381,0.171604409712477,0.1480640211281867
357.9833333333364,-0.11629989,-0.9847951,-0.03222121,-2.5167258,0.31742516,1.8438555,0.6649526,0.04,0.04,0.0032427754589559044,0.009956855473164383,-0.003128175528610555,0.05471192891959262,-0.21507980394267473,0.1418680307012799,0.9731071886310082,0.027194335081817855,0.1733474995167249,0.14924313044630322
358.00000000000307,-0.11738794,-0.9866671,-0.032522652,-2.5182238,0.32038987,1.8464049,0.6638216,0.04,0.04,0.004084159887485228,0.010041743119051927,-0.003080317943315869,0.05510385537766017,-0.21499484909370004,0.14132598177106034,0.9726027388385852,0.027610806132275983,0.1750898791791027,0.15041638872628146
358.0166666666697,-0.11847453,-0.9885365,-0.032823693,-2.5197196,0.3233507,1.8489509,0.66269237,0.04,0.04,0.0037302916255921303,0.009910326703352346,-0.003038983867553746,0.05549018501278001,-0.21488065892692007,0.14076431693247982,0.9720943555726301,0.028029808031036545,0.17683118067802134,0.15158373021400773
358.0333333333364,-0.11955957,-0.9904034,-0.03312431,-2.5212128,0.3263074,1.8514932,0.6615647,0.04,0.04,0.004630909423930518,0.009934656171255163,-0.0031872355710671485,0.055866311867316,-0.21474027673258164,0.14019051370051863,0.9715820483607602,0.028451089577218428,0.17857163083015032,0.15274498835522893
358.050000000003,-0.12064293,-0.9922674,-0.03342447,-2.5227046,0.32925943,1.8540318,0.6604387,0.04,0.04,0.0014408169941138027,0.009896016360429194,-0.003313359001766436,0.056234534782674206,-0.21456837518997945,0.1395998241807802,0.9710660426085937,0.028874699013525348,0.1803101985492629,0.15390004856558245
358.0666666666697,-0.121724494,-0.99412805,-0.033724125,-2.5241935,0.33220667,1.8565661,0.6593146,0.04,0.04,0.0034599723965911267,0.009787136256121653,-0.0031408803250254635,0.056595032259324655,-0.21437192903235144,0.13899252637226528,0.97054633046742,0.029300504250044816,0.18204713964991268,0.15504883041224105
358.0833333333363,-0.122804075,-0.99598545,-0.03402324,-2.5256793,0.33514848,1.8590957,0.6581924,0.04,0.04,0.00350195475578019,0.009796099880239606,-0.0033874017317137017,0.056946592545696784,-0.21414571128923082,0.1383700165055008,0.9700230078933585,0.02972835636167682,0.18378230865216355,0.15619107532773888
358.100000000003,-0.12388159,-0.9978392,-0.034321774,-2.5271633,0.33808467,1.8616205,0.6570726,0.04,0.04,0.000622855663445776,0.009637058414130317,-0.003518453542117328,0.05728789115743626,-0.21388940475205104,0.1377403672643036,0.9694962559181275,0.0301584850291452,0.18551481371178852,0.1573268236346228
358.11666666666963,-0.12495691,-0.9996894,-0.034619704,-2.5286434,0.34101477,1.86414,0.65595496,0.04,0.04,0.0038301550631114623,0.009672781915399942,-0.003579087226590616,0.0576204506086997,-0.2136095451707033,0.1370893205878808,0.9689660430313473,0.030590450137628216,0.18724527337199043,0.15845579639886698
358.1333333333363,-0.12602986,-1.0015354,-0.03491698,-2.5301201,0.34393847,1.8666542,0.65483975,0.04,0.04,0.0020790316052732294,0.00957081593817577,-0.003347219804328283,0.05794471485919095,-0.21329838192051992,0.13642415670238608,0.9684325212621094,0.031024344276123626,0.1889730789021864,0.15957793479794952
358.15000000000293,-0.12710035,-1.0033773,-0.035213564,-2.531593,0.34685552,1.8691626,0.65372705,0.04,0.04,0.002722331878324269,0.009449196247694747,-0.003546992166381102,0.058257709177551825,-0.21295845246064182,0.13574987168549818,0.9678957347415078,0.03146002633235304,0.19069825896607817,0.16069314683480143
358.1666666666696,-0.12816824,-1.0052145,-0.035509434,-2.5330632,0.3497655,1.871665,0.65261716,0.04,0.04,-0.00015236377759464403,0.009369221540113382,-0.003498269378376939,0.058561377396369296,-0.2125876127659585,0.13506066735446826,0.9673559112339118,0.03189763569385922,0.19241983283218472,0.16180138989138496
358.18333333333624,-0.1292334,-1.0070469,-0.03580455,-2.534529,0.35266808,1.8741608,0.6515102,0.04,0.04,0.0021688781834505733,0.009234010697366235,-0.0037573139281876777,0.05885390402822887,-0.21219429834682246,0.1343579255593239,0.966813055970426,0.03233691628295971,0.19413813356333137,0.1629024976695603
358.2000000000029,-0.1302957,-1.0088745,-0.036098875,-2.5359914,0.35556284,1.8766499,0.65040606,0.04,0.04,-0.00011872476481933347,0.009112665992482005,-0.0038360668341841375,0.059137457959970746,-0.21176996220396516,0.13364042413653246,0.966267351664464,0.032777802553201,0.1958525230937715,0.16399637180416662
358.21666666666954,-0.13135497,-1.010697,-0.03639238,-2.537449,0.3584495,1.879132,0.6493051,0.04,0.04,0.002521802925281591,0.00913204532529549,-0.003548450977852724,0.05941016985373659,-0.2113220777128175,0.13291180392434163,0.9657187653150021,0.03322018575688854,0.1975634931690479,0.16508286326445062
358.2333333333362,-0.13241114,-1.0125142,-0.03668501,-2.5389028,0.3613276,1.8816067,0.6482073,0.04,0.04,-0.0008746983013896426,0.008844926149011167,-0.004119421597437167,0.05967131708301926,-0.21084206972391534,0.13217166032875935,0.965167571640999,0.03366401227918625,0.19926994375710994,0.166161916349451
358.25000000000284,-0.13346407,-1.0143256,-0.036976755,-2.540352,0.3641968,1.8840737,0.6471129,0.04,0.04,4.9147961700413134e-05,0.008911730402740015,-0.003659623391527589,0.059922490660534296,-0.21033771409158233,0.13141944203558112,0.9646138253856148,0.034109256270951994,0.20097191240058923,0.16723342051642395
358.2666666666695,-0.13451357,-1.0161316,-0.03726757,-2.5417967,0.3670569,1.8865331,0.64602196,0.04,0.04,0.0008780338636160678,0.008670930963564083,-0.003972388929396331,0.06016282272879182,-0.2098063893682607,0.1306539269729268,0.9640575373505871,0.03455572767725631,0.20266967324568783,0.1682972664920697
358.28333333333615,-0.13555963,-1.0179316,-0.0375574,-2.5432367,0.3699075,1.8889842,0.64493483,0.04,0.04,-0.0009504527660908479,0.008560171261154381,-0.003972866672041775,0.06039280245734448,-0.2092434559337782,0.12987484647762332,0.9634989370520877,0.03500353931304661,0.2043623400776542,0.16935343070939626
358.3000000000028,-0.13660209,-1.019725,-0.03784623,-2.5446715,0.3727481,1.891427,0.64385134,0.04,0.04,-0.0002621487666942812,0.008674712487408143,-0.0035170897746183982,0.060609971270932844,-0.2086569701183068,0.12908523255500404,0.9629380956212025,0.03545245702392542,0.2060500277290834,0.17040168240138562
358.31666666666945,-0.13764073,-1.0215122,-0.038134012,-2.5461006,0.37557867,1.8938608,0.6427718,0.04,0.04,0.0005032688557893295,0.008090511301281356,-0.004149197533553917,0.06081589912931216,-0.2080423259070406,0.1282839783024841,0.9623750695321196,0.03590231606120102,0.2077326598787904,0.1714420930348566
358.3333333333361,-0.13867551,-1.0232925,-0.038420733,-2.5475247,0.37839863,1.8962855,0.6416961,0.04,0.04,-0.00178106992234639,0.00823126999897894,-0.0039223405343680184,0.061010189468990034,-0.2073979570450292,0.12747225221864986,0.9618100861343708,0.03635311089625926,0.2094095455559585,0.17247449599406064
358.35000000000275,-0.1397063,-1.0250659,-0.03870636,-2.5489442,0.38120773,1.8987007,0.6406247,0.04,0.04,-0.003382532496498669,0.007907130467538215,-0.004117583156038052,0.061193585360772566,-0.20672969537526664,0.12664939666834968,0.9612433281866747,0.036804936212999795,0.21108002262963255,0.17349894735598712
358.3666666666694,-0.14073296,-1.0268323,-0.03899084,-2.550357,0.3840056,1.9011065,0.6395576,0.04,0.04,0.0007538302674081621,0.008029689892347092,-0.0038183946640568678,0.061363816286409134,-0.20604193393864778,0.12581725361698384,0.9606746776122551,0.03725746712643667,0.21274516747679206,0.17451515307612717
358.38333333333605,-0.14175536,-1.0285914,-0.03927415,-2.5517642,0.3867919,1.9035023,0.63849485,0.04,0.04,-0.002054052865396727,0.007729699993350159,-0.003937696472688934,0.06152304092763642,-0.20531880855577422,0.12497087703711217,0.9601043995840801,0.0377106835270326,0.21440400095230183,0.1755231341529152
358.4000000000027,-0.14277343,-1.030343,-0.03955623,-2.5531652,0.3895664,1.9058878,0.6374367,0.04,0.04,-0.0015555132446110065,0.007533654522992594,-0.004134627834906368,0.061669348709594285,-0.20457147424329408,0.12411614175063466,0.9595325783356192,0.03816451031251234,0.21605645155397862,0.17652283423712659
358.41666666666936,-0.143787,-1.0320872,-0.03983708,-2.55456,0.39232865,1.9082631,0.6363832,0.04,0.04,-0.0018222326108041642,0.0074525775288492024,-0.004022625330035723,0.06180191687586669,-0.20379716625942376,0.12325417306964868,0.9589593122775855,0.03861884238310725,0.21770244461090119,0.17751413470348376
358.433333333336,-0.14479598,-1.0338235,-0.040116653,-2.5559485,0.39507848,1.9106276,0.63533443,0.04,0.04,-0.0026301709698195452,0.007215361624879346,-0.004042774849688513,0.06192288945508051,-0.20299593089027773,0.12238051111839267,0.9583847613843672,0.0390736305846235,0.2193415241212624,0.17849704853393938
358.45000000000266,-0.14580019,-1.0355513,-0.040394932,-2.5573306,0.3978154,1.9129808,0.6342906,0.04,0.04,-0.003368006050452621,0.006989829038198114,-0.003948491518546149,0.06203048118213272,-0.20216931511617037,0.12149747162634328,0.9578091282417573,0.0395287356365249,0.22097315382946706,0.17947149690800868
358.4666666666693,-0.1467996,-1.0372709,-0.040671863,-2.5587058,0.40053922,1.9153227,0.6332518,0.04,0.04,-0.0023360132172633996,0.006917791432717313,-0.004041757808437296,0.06212653801779105,-0.20131863425345287,0.12060403471749312,0.9572324284416994,0.039984097553155865,0.22259761376711779,0.18043739143440224
358.48333333333596,-0.14779407,-1.038982,-0.040947426,-2.5600746,0.4032494,1.917653,0.632218,0.04,0.04,-0.0038812721596670485,0.006791866802918767,-0.004100835220199883,0.06220975406015361,-0.20044158894330574,0.11970020257785782,0.9566548726027992,0.04043958634327825,0.2242143857372594,0.18139460799640614
358.5000000000026,-0.14878349,-1.0406842,-0.041221578,-2.5614362,0.40594584,1.9199713,0.6311896,0.04,0.04,-0.003356513730157218,0.006553925162927632,-0.0038564424030163025,0.06228076071458679,-0.1995410123658149,0.11878656804482828,0.9560765501241287,0.04089519963928454,0.22582333403600263,0.18234317852355025
358.51666666666927,-0.1497677,-1.0423775,-0.041494302,-2.5627909,0.40862823,1.9222777,0.63016665,0.04,0.04,-0.004048938516865164,0.0063012886245883415,-0.003956044105901668,0.06233807310549875,-0.19861578042970873,0.11786514913986681,0.9554975885638305,0.041350861938621565,0.22742421986823905,0.1832830834609697
358.5333333333359,-0.15074661,-1.0440618,-0.041765567,-2.5641382,0.41129613,1.9245715,0.6291491,0.04,0.04,-0.003588197806081439,0.00616685780603643,-0.0041516461154911255,0.06238245374973682,-0.19766758446655158,0.11693327730444564,0.9549181067700426,0.0418063021358546,0.22901699676418927,0.18421416247822683
358.55000000000257,-0.1517201,-1.0457368,-0.042035338,-2.565478,0.41394934,1.9268528,0.62813735,0.04,0.04,-0.004140933626795018,0.0059856829990545535,-0.0039017591167977983,0.06241339280179611,-0.19669420083034012,0.11599579922439315,0.9543382224021711,0.04226165567338104,0.230601397852007,0.185136449762626
358.5666666666692,-0.15268809,-1.0474021,-0.04230357,-2.5668104,0.4165876,1.9291211,0.6271313,0.04,0.04,-0.004498331659164023,0.005734262668199985,-0.0038647959458737446,0.06243120717275661,-0.1956948502221223,0.11504647598112815,0.9537580988239949,0.042716684149225644,0.2321771073909544,0.1860498982168584
358.5833333333359,-0.15365045,-1.0490578,-0.042570252,-2.5681348,0.41921037,1.9313763,0.626131,0.04,0.04,-0.0043210046085206955,0.005707957123882168,-0.003909844255356454,0.06243490609591579,-0.19467461096725328,0.11409059383822352,0.9531778461996296,0.04317127684128453,0.23374410792393605,0.18695434303853875
358.6000000000025,-0.1546071,-1.0507039,-0.042835344,-2.5694509,0.4218176,1.9336185,0.62513655,0.04,0.04,-0.003447807732914754,0.005548005849331794,-0.0037702479508405773,0.06242488179160055,-0.19362796250125472,0.11312907935147709,0.9525974847779055,0.04362532554625248,0.23530263498239384,0.1878497616078708
358.6166666666692,-0.15555792,-1.0523396,-0.043098815,-2.5707588,0.42440888,1.9358469,0.6241481,0.04,0.04,-0.005349957528189009,0.005185077428315754,-0.0037315318669017827,0.062404693426497494,-0.19255239612955163,0.11215135556840229,0.9520173076694455,0.04407875133420554,0.23685177385442094,0.18873618307217072
358.6333333333358,-0.15650277,-1.0539653,-0.043360647,-2.572059,0.42698392,1.9380606,0.623166,0.04,0.04,-0.0058972160614789715,0.004668362639309587,-0.004495343858357259,0.06236843662701958,-0.19145655285606714,0.11117462621920889,0.9514374704314831,0.04453152896942586,0.23839115032705427,0.1896136657320081
358.6500000000025,-0.15744148,-1.0555806,-0.04362079,-2.5733511,0.42954257,1.9402605,0.6221903,0.04,0.04,-0.006254796111848648,0.004686660300670664,-0.003636350112423692,0.062317169474466035,-0.19034259548188223,0.11019295202770334,0.9508580460799487,0.04498360700800841,0.23992083026019073,0.1904821422412923
358.66666666666913,-0.1583741,-1.0571852,-0.04387924,-2.5746346,0.43208438,1.9424458,0.62122095,0.04,0.04,-0.0053068574466852425,0.004631401298246796,-0.0037757451415432186,0.062252867960163466,-0.18920558290118752,0.10920228534750864,0.9502791656006443,0.04543479591727313,0.24144071571525644,0.19134149455934468
358.6833333333358,-0.15930042,-1.0587792,-0.04413595,-2.5759094,0.4346092,1.9446166,0.62025815,0.04,0.04,-0.005510274470710286,0.004297919547682771,-0.0038209759518403885,0.062174635040752914,-0.18804829841126758,0.10820531210563507,0.9497008949256017,0.04588503465009752,0.24295084603178363,0.19219172767086276
358.70000000000243,-0.1602204,-1.0603623,-0.044390894,-2.5771751,0.4371166,1.9467725,0.6193019,0.039999995,0.04,-0.005569701155883067,0.004234787148524322,-0.003668724384287003,0.06208196747802809,-0.18686651433811105,0.10720256504406854,0.9491234078946748,0.0463341750152929,0.24445094824258162,0.1930327296479895
358.7166666666691,-0.16113393,-1.0619341,-0.044644054,-2.5784318,0.4396064,1.948913,0.6183524,0.039999995,0.04,-0.006348381176746187,0.0038641498983083,-0.0036241063833930554,0.06197771165608654,-0.18565988034281614,0.10618909663240328,0.9485468794953595,0.04678216885563396,0.2459405730544282,0.19386459347296547
358.73333333333574,-0.1620409,-1.0634946,-0.044895396,-2.5796795,0.44207823,1.9510382,0.61740965,0.039999995,0.04,-0.006473074232227205,0.0037840896624175002,-0.0035486288319841464,0.061858681872328826,-0.18443318970638845,0.10517238506788833,0.9479714187879529,0.047228894776970454,0.2474197206927771,0.19468719133936283
358.7500000000024,-0.16294117,-1.0650436,-0.045144886,-2.5809183,0.44453195,1.9531479,0.6164738,0.03999999,0.04,-0.007390169463983298,0.0033504105125509165,-0.0036261793521896735,0.0617259723324005,-0.18318709174185271,0.10415059336694925,0.9473971923467954,0.04767429562511257,0.2488879938876296,0.1955006086145252
358.76666666666904,-0.16383469,-1.0665809,-0.045392513,-2.5821476,0.4469672,1.9552418,0.6155451,0.03999998,0.04,-0.006484364745551474,0.003340746541177775,-0.003422857600154927,0.061580655124694614,-0.1819207060136653,0.10312073383198411,0.9468242692716696,0.048118331130475145,0.2503454977192488,0.19630476585933523
358.7833333333357,-0.16472133,-1.0681064,-0.04563824,-2.5833676,0.44938388,1.9573193,0.6146234,0.03999998,0.04,-0.0075914795569786975,0.002783833668434932,-0.0036666024498588357,0.06142053332667312,-0.1806322163434706,0.10208570270412623,0.9462528629688344,0.04856076551968305,0.25179170124002775,0.19709974774737565
358.80000000000234,-0.16560104,-1.06962,-0.045882046,-2.584578,0.4517816,1.9593807,0.61370903,0.039999973,0.04,-0.007174363937334505,0.0029466392205745873,-0.003302981520691972,0.061248429100247,-0.179326335713126,0.10104446058801762,0.9456830215664189,0.049001662732584376,0.2532268153312308,0.19788542080621488
358.816666666669,-0.16647372,-1.0711217,-0.0461239,-2.5857785,0.4541601,1.9614259,0.61280197,0.039999973,0.04,-0.006578946511970329,0.0026409673016231094,-0.0033985403725234065,0.061061255510481006,-0.17800008812359003,0.09999824578537482,0.9451148409552121,0.04944081978487749,0.25465084580912223,0.19866174637786246
358.83333333333564,-0.16733922,-1.072611,-0.046363756,-2.5869691,0.45651925,1.9634539,0.6119023,0.03999996,0.04,-0.008139714961652444,0.0020667307835370297,-0.003433987184209286,0.060859616845549816,-0.1766508271663392,0.0989491251682913,0.9445485816417193,0.04987811932467798,0.2560630262511369,0.19942887634031117
358.8500000000023,-0.16819753,-1.074088,-0.046601623,-2.58815,0.4588587,1.9654652,0.6110102,0.03999996,0.04,-0.007914744266379614,0.0022103618985386264,-0.0032596818078767242,0.06064567767990922,-0.17528614400989534,0.09789457031332692,0.9439842896853337,0.0503136023239956,0.2574635765934107,0.20018668531195508
358.86666666666895,-0.16904853,-1.0755521,-0.04683747,-2.589321,0.46117815,1.9674593,0.61012554,0.03999996,0.04,-0.008521795922522557,0.0019491445619773673,-0.0030077563208052993,0.06041722105919368,-0.17390223594260215,0.09683520211742362,0.9434221745056705,0.050747073272181774,0.2588520765822155,0.20093515783549407
358.8833333333356,-0.16989218,-1.0770031,-0.04707128,-2.5904815,0.4634776,1.9694362,0.60924864,0.039999958,0.04,-0.008451739342785203,0.0016961396152592734,-0.0028123672263014043,0.06017548032886265,-0.17250147724024287,0.09577302312613534,0.9428623185729235,0.05117858255276719,0.26022842124569195,0.201674415033626
358.90000000000225,-0.17072836,-1.0784425,-0.04730302,-2.591632,0.46575662,1.9713955,0.6083796,0.039999954,0.04,-0.007174883524907472,0.0013213192170402621,-0.003903553478457056,0.05991983773427281,-0.17108352491158896,0.09470488358128465,0.9423047192481772,0.051607840795800726,0.2615931062370341,0.20240428261345955
358.9166666666689,-0.17155695,-1.0798672,-0.047532663,-2.5927718,0.4680151,1.9733372,0.6075183,0.039999943,0.04,-0.010054279407833988,0.00135232319929679,-0.001861913799738879,0.05965113139506488,-0.1696450143273211,0.09363336882870797,0.9417497752338321,0.052034982503629965,0.26294482790032647,0.20312493427282977
358.93333333333555,-0.17237788,-1.0812799,-0.047760196,-2.5939016,0.47025263,1.975261,0.60666496,0.039999936,0.04,-0.008639374514585185,0.0008548678895520245,-0.003657640339205237,0.05936946509069191,-0.16819225646149014,0.0925555998690919,0.9411974218662853,0.052459702850491736,0.2642843062245973,0.20383620417501694
358.9500000000022,-0.1731911,-1.0826793,-0.04798558,-2.5950208,0.47246918,1.9771668,0.60581964,0.03999992,0.04,-0.008565013456474091,0.0007359503736426021,-0.00283307007833411,0.0590737861490103,-0.16672295944811105,0.09147792731120465,0.9406477928403153,0.052882009014767806,0.2656112857009065,0.2045381819013669
358.96666666666886,-0.17399651,-1.0840653,-0.04820881,-2.596129,0.47466442,1.9790541,0.60498244,0.03999992,0.04,-0.008632708536815414,0.00046783992067866986,-0.0029106656910693474,0.058764898227775336,-0.16523589451916934,0.09039545173587318,0.9401010425863359,0.05330174226744588,0.2669255584393607,0.20523084624679233
358.9833333333355,-0.17479405,-1.0854375,-0.048429858,-2.5972254,0.47683823,1.9809232,0.6041536,0.03999992,0.04,-0.00771492259836748,0.000471685953720713,-0.002353779722130689,0.05844203721439374,-0.16373313494238573,0.08931366151271239,0.9395572036984648,0.05371893307728887,0.2682272962989956,0.2059141926324891
359.00000000000216,-0.17558363,-1.0867963,-0.04864871,-2.5983107,0.4789904,1.9827735,0.6033329,0.03999992,0.04,-0.008627702040397978,5.734829561232502e-06,-0.0028059387213730247,0.058106369975482755,-0.16221192556308345,0.08822512258278195,0.9390164486025205,0.0541333344376394,0.26951621016553934,0.20658824703883233
359.0166666666688,-0.1763652,-1.0881411,-0.048865344,-2.5993857,0.48112074,1.9846052,0.6025204,0.039999917,0.04,-0.011159848514497028,-0.00020160551151005013,-0.0024665101463261507,0.05775877702150554,-0.16067167737968346,0.08713433685843176,0.9384790408369327,0.05454503681183785,0.270791593658029,0.20725308604006626
359.03333333333546,-0.17713863,-1.0894722,-0.04907973,-2.6004496,0.483229,1.9864177,0.6017164,0.039999913,0.04,-0.009379636117001766,-0.000565435246499546,-0.00273281308562634,0.05739832983253458,-0.15912138375936763,0.08604086958046714,0.9379449980435618,0.05495383191841377,0.2720537284390877,0.20790869593390413
359.0500000000021,-0.17790395,-1.090789,-0.049291845,-2.601502,0.485315,1.988211,0.60092086,0.03999991,0.04,-0.009626916722194068,-0.0004765784294452624,-0.002181636062603687,0.05702581033406963,-0.15755452088586777,0.08494411647435289,0.9374144522141041,0.05535972369085479,0.27330248148550734,0.20855502723949668
359.06666666666877,-0.17866103,-1.0920918,-0.049501687,-2.6025436,0.48737857,1.9899852,0.600134,0.039999902,0.04,-0.010788808507777858,-0.0009098291194692409,-0.002464200791418847,0.05664134494808791,-0.15597655395533708,0.08384513795612945,0.9368875406227615,0.05576272293468118,0.2745375770977126,0.20919219325314478
359.0833333333354,-0.1794098,-1.09338,-0.04970923,-2.6035733,0.48941955,1.9917402,0.59935546,0.0399999,0.04,-0.009324727656023768,-0.0009012619883397299,-0.0018236458835030334,0.056242945166587434,-0.1543856419314415,0.08274460901232676,0.9363643204379161,0.05616249181567746,0.27575925704712734,0.20982008025141494
359.10000000000207,-0.1801502,-1.0946538,-0.049914464,-2.6045918,0.4914377,1.9934756,0.59858596,0.039999895,0.04,-0.010713376350057757,-0.0013503717300605844,-0.002271470041659285,0.055833876989135,-0.15277857404316586,0.08164132578404881,0.9358449696361473,0.05655926793496452,0.276967027099281,0.21043884602697696
359.1166666666687,-0.18088219,-1.0959136,-0.050117347,-2.6055987,0.49343294,1.995191,0.5978247,0.03999989,0.04,-0.009705904743517735,-0.0016420934330546588,-0.0024484246875955407,0.05541035602850933,-0.15116166551326773,0.08053823213877742,0.9353295439956153,0.056952467088467275,0.27816118338050705,0.21104837521726497
359.1333333333354,-0.18160567,-1.0971587,-0.050317902,-2.6065943,0.49540505,1.9968865,0.5970727,0.039999887,0.04,-0.011543748998699144,-0.0017631959956077026,-0.001897356704350095,0.054977573091027056,-0.14953154334557608,0.07943409269031126,0.9348182491962453,0.05734263142491797,0.2793410310159267,0.2116488884494588
359.150000000002,-0.18232065,-1.0983891,-0.050516076,-2.607577,0.49735397,1.9985623,0.5963295,0.039999887,0.04,-0.007900136172445116,-0.001715829971979388,-0.001809043936851218,0.05453138622396154,-0.14789297876146978,0.07832762118294746,0.9343109327403403,0.05772926609427842,0.28050761506461397,0.21224017218437585
359.1666666666687,-0.18302701,-1.099605,-0.05071189,-2.6085486,0.4992794,2.0002172,0.5955951,0.039999884,0.04,-0.01217524075278753,-0.0025643630174321252,-0.0023204522831221652,0.05407357427345094,-0.14623307838842756,0.07721938954441239,0.9338080646302913,0.0581123016042252,0.28165946459012087,0.21282247259275883
359.1833333333353,-0.18372475,-1.1008058,-0.050905313,-2.6095085,0.50118124,2.0018523,0.59486985,0.039999872,0.04,-0.011052539277400797,-0.002126320023979056,-0.0014429718592001706,0.05360598245544344,-0.14457002234856703,0.07611172663056852,0.9333095700085091,0.05849196422695153,0.28279713269793877,0.21339568502954626
359.200000000002,-0.1844138,-1.1019914,-0.0510963,-2.610456,0.5030595,2.0034666,0.59415364,0.039999872,0.04,-0.010316613053440449,-0.002716672957842059,-0.0016572360449940149,0.0531269886786304,-0.14289635684142557,0.07500172075809308,0.9328155647014174,0.05886795947509291,0.28392046259893067,0.21395994138067997
359.21666666666863,-0.18509409,-1.103162,-0.051284876,-2.6113915,0.5049139,2.0050607,0.5934466,0.039999865,0.04,-0.010974558373666454,-0.0027193140526349246,-0.001496921683008523,0.052636261224329545,-0.14121229458445986,0.07389119943418077,0.9323261327313557,0.05924033557314558,0.28502946257860395,0.21451519836488966
359.2333333333353,-0.18576553,-1.1043174,-0.051471014,-2.6123147,0.5067443,2.0066347,0.59274846,0.03999987,0.04,-0.010246649337419811,-0.0027151270684255824,-0.001137029725972738,0.0521345810885043,-0.13951836880457355,0.07278037464222596,0.9318413208513322,0.05960887001610737,0.2861243628772657,0.21506135017135483
359.25000000000193,-0.18642819,-1.1054575,-0.0516547,-2.6132262,0.50855064,2.008188,0.5920597,0.03999987,0.04,-0.012106916268317391,-0.0031853421277899807,-0.0013927233330601752,0.05162211998239426,-0.13781231553235673,0.07167080821943375,0.9313613594428649,0.05997374021562723,0.2872044540244851,0.21559863220759198
359.2666666666686,-0.1870819,-1.1065825,-0.05183593,-2.614125,0.5103327,2.0097198,0.5913802,0.039999858,0.04,-0.010545014286167387,-0.003659293782562467,-0.0016862614402812781,0.05109847384444999,-0.1361000554866167,0.07056027498188544,0.9308863022037306,0.06033457033082195,0.28826989173714906,0.21612704946468908
359.28333333333524,-0.18772672,-1.1076919,-0.05201469,-2.6150122,0.5120904,2.0112312,0.59070987,0.039999858,0.04,-0.01251763496457059,-0.003369154233026639,-0.0008855462393375646,0.050566349389421346,-0.1343802006365827,0.06944872082863908,0.9304162913962907,0.06069156708887801,0.2893204494513995,0.21664656913486835
359.3000000000019,-0.1883626,-1.1087859,-0.052190967,-2.6158872,0.5138237,2.0127199,0.59004897,0.03999985,0.04,-0.012498760295942546,-0.004475074602108831,-0.0018735555672888538,0.050023396965748465,-0.1326540431373494,0.06833901896433875,0.9299515599394165,0.06104440313409205,0.29035546244098603,0.21715750607089168
359.31666666666854,-0.18898948,-1.1098645,-0.05236474,-2.6167486,0.51553243,2.014189,0.5893974,0.039999846,0.04,-0.008035935168093644,-0.0031961866813701167,-0.0004499764137300133,0.049475215984140015,-0.13092676323231295,0.06722587291191585,0.9294916549891039,0.06139318387098455,0.2913769862896808,0.21765934884709873
359.3333333333352,-0.18960726,-1.1109278,-0.05253602,-2.6175985,0.51721656,2.0156374,0.5887552,0.039999843,0.04,-0.012865175194365364,-0.0041500989706289015,-0.0010237062723517099,0.048911891783504996,-0.12918179011621211,0.06611921916205397,0.9290370324486066,0.061737950919867265,0.29238351504270227,0.2181524647730953
359.35000000000184,-0.19021599,-1.1119754,-0.05270478,-2.6184356,0.518876,2.0170646,0.58812237,0.03999983,0.04,-0.01084591726550066,-0.004255699531000023,-0.000767453792716033,0.04834041448927795,-0.12743210873902594,0.06501082141699716,0.9285877087420134,0.06207847477037923,0.29337528500551796,0.2186368502594483
359.3666666666685,-0.19081564,-1.1130073,-0.052871026,-2.61926,0.5205107,2.01847,0.5874991,0.03999983,0.04,-0.01163434133872876,-0.004602949831564174,-0.0009017143715706055,0.0477580261856796,-0.1256758563715899,0.06390558601499147,0.9281438432242511,0.062414743053487945,0.29435194395204084,0.2191126176789884
359.38333333333514,-0.19140618,-1.1140234,-0.05303474,-2.6200724,0.5221203,2.0198543,0.5868853,0.039999828,0.04,-0.012413333522687253,-0.0045557332494450264,-0.0006463662645117552,0.04716958440936261,-0.12391403248641245,0.06279856087505399,0.9277055328040559,0.06274676397763665,0.29531347228618027,0.21957969191470553
359.4000000000018,-0.19198757,-1.1150239,-0.05319592,-2.6208723,0.5237052,2.0212169,0.586281,0.03999982,0.04,-0.012130299757462382,-0.005041620019163862,-0.0007352334273402761,0.04657120860757594,-0.12214901890503037,0.0616957867838398,0.9272728251040193,0.06307445219851895,0.29625977917008256,0.22003832518350375
359.41666666666845,-0.19255981,-1.1160088,-0.05335456,-2.6216583,0.5252649,2.0225575,0.58568615,0.03999982,0.04,-0.009273856111446932,-0.005030198775962669,-0.000940860975129354,0.04596508473016312,-0.12038141926460784,0.06059305378034725,0.9268456643497641,0.06339743025779325,0.2971915185820152,0.2204882799508137
359.4333333333351,-0.19312285,-1.1169775,-0.05351064,-2.6224325,0.52680004,2.0238764,0.5851009,0.03999981,0.04,-0.013611564242932417,-0.00546316779242717,-0.0002209844759182289,0.04535258351403966,-0.11860652734080972,0.059494267039394005,0.9264243265176484,0.06371612389887066,0.2981075931892455,0.22093004701611044
359.45000000000175,-0.19367664,-1.1179304,-0.05366418,-2.6231947,0.52830964,2.0251741,0.5845252,0.03999981,0.04,-0.013087181221527189,-0.005110555420601015,-0.00036421121138996426,0.04473322393641031,-0.11683173791460795,0.058393532055558306,0.9260088714307126,0.06403039733863018,0.2990083799636446,0.22136320145812804
359.4666666666684,-0.1942212,-1.1188676,-0.053815164,-2.6239433,0.529794,2.02645,0.58395916,0.03999981,0.04,-0.01009069661268569,-0.005489243153547485,-0.0005427078608510882,0.04410400918992878,-0.11505642181377077,0.05729933638407986,0.9255992066352229,0.06433994780220692,0.29989435239244244,0.22178786530415256
359.48333333333505,-0.19475652,-1.1197892,-0.05396357,-2.6246793,0.5312532,2.0277045,0.5834027,0.039999805,0.04,-0.011434124711051652,-0.005541770601863449,-0.0002544018691708061,0.04346923404894987,-0.11327486850867743,0.056207243186148496,0.9251953776046115,0.06464493941525878,0.30076545431145707,0.22220415513639857
359.5000000000017,-0.19528255,-1.1206944,-0.054109428,-2.6254027,0.5326874,2.0289376,0.5828559,0.03999981,0.04,-0.012481071737324712,-0.0057262119925488575,0.0003374939130162957,0.0428270499928924,-0.11148920458123766,0.05511762799036779,0.9247975610438075,0.06494543271162073,0.30162119166930673,0.22261226065361447
359.51666666666836,-0.19579929,-1.1215836,-0.054252725,-2.626113,0.5340963,2.030149,0.5823186,0.039999805,0.04,-0.01122309175713987,-0.00584519247758819,-5.4524528292354546e-05,0.042177492671325034,-0.10970475763769888,0.054030630557240014,0.924405765789177,0.06524116034887556,0.3024618979287278,0.2230120433371467
359.533333333335,-0.19630678,-1.1224571,-0.054393455,-2.6268106,0.5354798,2.0313387,0.5817909,0.0399998,0.04,-0.011805121857255685,-0.0060254736493292604,-0.000249602968294127,0.04152170582574635,-0.10791644399671599,0.05294798193559114,0.9240200639523231,0.06553212919869573,0.3032875130453715,0.22340354940551763
359.55000000000166,-0.196805,-1.1233147,-0.054531615,-2.6274958,0.5368382,2.0325062,0.5812729,0.039999798,0.04,-0.012862028219284838,-0.006486180890186155,-8.142921956721949e-05,0.04085871818583677,-0.10612855525024702,0.05187088208579293,0.9236405988818439,0.06581836472250369,0.30409756433305646,0.22378708257883576
359.5666666666683,-0.19729397,-1.1241561,-0.05466719,-2.628168,0.53817123,2.0336523,0.58076453,0.03999979,0.04,-0.011860239552063945,-0.006111070166203714,0.0004404150050651978,0.040194729935346396,-0.10434209789947199,0.05079138995234348,0.9232673358956334,0.06609989158243149,0.3048924718160958,0.22416246659697917
359.58333333333496,-0.19777372,-1.1249816,-0.05480021,-2.6288278,0.53947896,2.0347764,0.58026594,0.039999783,0.04,-0.012199854770811314,-0.006436608856733028,5.20670007109203e-05,0.03952296856478705,-0.10255578927799366,0.04971788548574482,0.9229003587282234,0.06637667487158042,0.3056720764634512,0.224529834460437
359.6000000000016,-0.1982442,-1.1257912,-0.05493066,-2.6294744,0.5407615,2.0358794,0.57977706,0.039999787,0.04,-0.01095847860854704,-0.00632317402155802,0.0005080081783237489,0.03884647103917016,-0.10077345155480932,0.04864753876770988,0.922539568607967,0.06664868952736984,0.306436871873995,0.22488917291188346
359.61666666666827,-0.19870536,-1.1265849,-0.055058543,-2.6301088,0.5420187,2.0369604,0.5792977,0.039999783,0.04,-0.013148608904867132,-0.006884921898597796,0.0002024179599935394,0.038165063940460146,-0.09898734155311438,0.0475805188920299,0.9221852237663314,0.06691579947910842,0.30718617114473085,0.22524063821733684
359.6333333333349,-0.19915731,-1.1273626,-0.055183865,-2.63073,0.54325086,2.0380192,0.57882786,0.03999978,0.04,-0.01097223399217917,-0.0069152734848171304,0.0002706813563291277,0.037479663465821864,-0.0972081725335053,0.046518949987794274,0.9218372367128778,0.0671778550412414,0.3079204008791479,0.22558428917823256
359.65000000000157,-0.19960003,-1.1281244,-0.055306625,-2.6313384,0.5444578,2.0390565,0.5783676,0.039999776,0.04,-0.012051853276950908,-0.006769385594049271,0.0006177352475544851,0.03679136154149602,-0.09543068589939188,0.045463387702104674,0.9214956658138129,0.06743504372890885,0.30863952900811026,0.22592010511968502
359.6666666666682,-0.2000335,-1.1288704,-0.05542683,-2.631935,0.5456395,2.0400727,0.577917,0.03999978,0.04,-0.01309093846484366,-0.006872210052322192,0.0006068246984902714,0.036099420114692846,-0.09365652576252115,0.04441168227372601,0.9211605812912691,0.06768745435109394,0.3093434395243025,0.22624815672591495
359.6833333333349,-0.20045777,-1.1296005,-0.055544477,-2.632518,0.5467962,2.0410676,0.5774757,0.039999772,0.04,-0.010304819588036196,-0.006859191394545383,0.0007607045861224293,0.03540239693248956,-0.09188787331212278,0.04336559605696584,0.920831842549345,0.0679347962705517,0.31003279176036036,0.22656842065065874
359.7000000000015,-0.20087287,-1.130315,-0.05565958,-2.6330886,0.54792786,2.0420403,0.5770442,0.039999772,0.04,-0.01212581435461324,-0.00741975847597387,0.0003634082053283194,0.03470402038299391,-0.09011920220411974,0.04232432949548172,0.9205096735830229,0.06817716484881639,0.3107068581102862,0.22688116571564126
359.7166666666682,-0.20127878,-1.1310136,-0.055772156,-2.6336467,0.5490346,2.0429916,0.5766222,0.03999977,0.04,-0.01217569025002696,-0.007293095279967132,0.0007188188380524707,0.03400360994862756,-0.08835687409726403,0.0412877680063007,0.9201940415543108,0.06841458471934535,0.31136587718006703,0.2271864014713693
359.7333333333348,-0.20167556,-1.1316967,-0.055882204,-2.6341922,0.55011636,2.0439215,0.5762097,0.039999764,0.04,-0.011581432729235175,-0.007273665326071321,0.000682537452756371,0.033300517337425534,-0.08660130418191618,0.04025730968988345,0.9198849453682799,0.06864701401958048,0.31201002400585925,0.22748410861169027
359.7500000000015,-0.20206325,-1.1323636,-0.055989727,-2.6347249,0.55117327,2.04483,0.57580644,0.03999976,0.04,-0.011599351802660252,-0.007182611790559901,0.0012825315555575756,0.03259677299543487,-0.08485132376919317,0.03923225847717604,0.9195824342689384,0.06887437158917731,0.31263929672998236,0.22777431299949386
359.76666666666813,-0.2024419,-1.133015,-0.05609474,-2.6352453,0.5522055,2.0457175,0.5754128,0.039999757,0.04,-0.012050960101417374,-0.0074500037193586666,0.0007427002810755923,0.031891689253880535,-0.08310802835921993,0.03821435611673378,0.9192864819528996,0.06909687690598917,0.3132537197003947,0.22805721386171124
359.7833333333348,-0.2028115,-1.1336511,-0.05619725,-2.6357536,0.55321306,2.0465832,0.5750288,0.03999976,0.04,-0.012309107164343303,-0.007784325437068529,0.0006150516933756123,0.031184142147965953,-0.08137224721303818,0.037202943195630264,0.9189971884592352,0.06931439869657001,0.31385309156586494,0.22833291188942254
359.80000000000143,-0.20317209,-1.1342721,-0.05629727,-2.6362495,0.5541961,2.0474288,0.5746539,0.03999975,0.04,-0.010596406098972722,-0.00711875729082212,0.0011479278253956338,0.030476203551465974,-0.07964810745433545,0.0361980160620417,0.9187142951755594,0.06952694883615722,0.3144384415596213,0.22860121105358636
359.8166666666681,-0.20352371,-1.1348774,-0.056394808,-2.6367326,0.55515486,2.0482533,0.5742884,0.03999975,0.04,-0.010764070977753448,-0.007658395880785762,0.0010960946606353161,0.029767055826794096,-0.07792546112605736,0.035199599345775476,0.9184379571485529,0.06973445793338615,0.3150092444825576,0.22886240437445796
