rsonawane2002/My_IMU/logs_2/traj_399/clean_399.csv
time,j1,j2,j3,j4,j5,j6,j7,gripper1,gripper2,imu_ax,imu_ay,imu_az,imu_gx,imu_gy,imu_gz,quat_x,quat_y,quat_z,quat_w
1636.4333333321738,0.00016700293,-0.785875,4.0107683e-05,-2.3551247,9.29385e-05,1.570997,0.786,0.04,0.04,0.0,-0.0,0.0,2.875329272945135e-08,-0.0011641195053377316,4.421952117202833e-08,0.9999995971961153,0.00020320632366974898,0.0008736418299892524,3.263050917662294e-05
1636.4499999988404,0.00016700546,-0.78576016,4.011687e-05,-2.3552213,9.297883e-05,1.5709941,0.786,0.04,0.04,-0.2919984599798031,-4.120137537296908e-05,0.020128407121067227,-3.0287404906153523e-07,-0.002238181306870227,2.7065291852317223e-07,0.9999996850588566,0.0002032065525942373,0.0007665025181049893,3.260635439078458e-05
1636.466666665507,0.00016700555,-0.7856542,4.0141014e-05,-2.35531,9.304966e-05,1.5709913,0.786,0.04,0.04,0.023196975265249442,-3.793214077474805e-05,-0.0016027245009153646,-3.0428097414820197e-06,-0.0032249046116390383,1.5921757629211735e-06,0.9999997558863687,0.00020320232370109098,0.0006677376432895984,3.2595373717328204e-05
1636.4833333321737,0.00016700024,-0.7855566,4.0205712e-05,-2.355391,9.3205716e-05,1.5709884,0.786,0.04,0.04,0.022263114767917536,-0.00010572886171728046,-0.0014234407556656947,-1.0558908138897413e-05,-0.004132043849221582,5.019433512360685e-06,0.9999998123673159,0.00020318607008030747,0.0005769895727079366,3.2615747568694426e-05
1636.4999999988404,0.00016698572,-0.78546655,4.0347695e-05,-2.3554652,9.352573e-05,1.5709856,0.786,0.04,0.04,0.020057806695561453,-0.0002036080001080866,-0.0012223706357117337,-2.4623463598712877e-05,-0.00496029381928826,1.1463482959629817e-05,0.9999998570830119,0.00020314673955146003,0.0004934536346720775,3.2693553127103155e-05
1636.516666665507,0.00016695732,-0.7853831,4.0613693e-05,-2.3555326,9.411138e-05,1.5709857,0.786,0.04,0.04,0.019609205056525525,-0.0003299075073749582,0.0014092928684039663,-4.779049404789992e-05,-0.0057157098437826005,2.173692298990803e-05,0.9999998914567918,0.00020307020693926666,0.00041805368792287035,3.2863502292779046e-05
1636.5333333321737,0.00016690968,-0.7853056,4.1059317e-05,-2.3555977,9.510065e-05,1.5709863,0.7859981,0.04,0.03999999,0.010794394296409493,-0.0004916601737874743,-0.001993676390776855,-8.175610033988592e-05,-0.0063872942013281,3.809741172869417e-05,0.9999999188237416,0.00020198593673074536,0.00034706445472018193,3.3173120304494715e-05
1636.5499999988403,0.0001668371,-0.7852334,4.1748648e-05,-2.3556561,9.659789e-05,1.5709871,0.7859962,0.04,0.039999995,0.01722137849025085,-0.0006394965938735038,0.0001600160981718446,-0.00012022400140984442,-0.00701003588111647,5.73341278199356e-05,0.999999939462182,0.00020082768632454566,0.00028215482162048645,3.365307291807876e-05
1636.566666665507,0.00016673282,-0.78516597,4.275243e-05,-2.3557117,9.877465e-05,1.570988,0.7859943,0.04,0.03999999,0.010238518997218726,-0.0008429612580447207,-0.0013929318092964493,-0.00017332464708224454,-0.007564395876312964,8.396928815881217e-05,0.9999999550412141,0.00019957397011369525,0.00022114919451287572,3.436326699568296e-05
1636.5833333321737,0.00016659012,-0.78510237,4.4148386e-05,-2.3557625,0.00010176674,1.5709925,0.7859905,0.04,0.04,0.01341785324608935,-0.001029341512490345,0.0025268213109885806,-0.0002434770925448556,-0.0080716334386073,0.00011463750999410877,0.9999999661170093,0.0001972470463685032,0.00016616355448576897,3.534482008162447e-05
1636.5999999988403,0.00016640115,-0.7850417,4.6019162e-05,-2.355812,0.00010578176,1.5709972,0.78598666,0.04,0.039999995,0.005368438078079407,-0.0012721822796932518,-0.0008737756908017147,-0.00032320717421929594,-0.0085086037142686,0.00015450213931546156,0.9999999739276321,0.0001947754336844155,0.00011341294437610079,3.667110155399585e-05
1636.616666665507,0.00016615835,-0.78498334,4.845307e-05,-2.355857,0.00011098766,1.5710047,0.78598094,0.04,0.04,0.01154227116084705,-0.0014941730991923112,0.0028455091029444546,-0.0004233845481366191,-0.008910445608526413,0.00020003419022644734,0.9999999788380215,0.00019117800983096633,6.557958709484224e-05,3.839587202003208e-05
1636.6333333321736,0.00016585329,-0.78492683,5.15425e-05,-2.3559,0.00011759177,1.5710133,0.7859733,0.04,0.04,0.0052185570820650895,-0.001747856780353078,0.00048560542287301445,-0.0005370324285164549,-0.009251357032728816,0.0002539666048591726,0.9999999815980196,0.00018642649587821678,2.004085424728489e-05,4.0589239542211696e-05
1636.6499999988403,0.00016547748,-0.78487164,5.5383505e-05,-2.3559425,0.00012579905,1.5710256,0.7859638,0.04,0.04,0.0038355057500050194,-0.0020048756773065487,0.002317486587033457,-0.0006656555700843172,-0.009552518709541718,0.00031580849122795707,0.999999982516898,0.00018049137893314353,-2.263703151927978e-05,4.332009179600364e-05
1636.666666665507,0.0001650221,-0.7848168,6.007567e-05,-2.3559844,0.0001358307,1.5710396,0.7859523,0.04,0.039999995,0.0017336683416857568,-0.0022773053160480704,0.0012410817933350415,-0.0008107385165901197,-0.009809575046918591,0.0003865982268433112,0.9999999818354807,0.00017334200011480231,-6.40634175132927e-05,4.66633465412877e-05
1636.6833333321736,0.00016447817,-0.7847618,6.57215e-05,-2.3560264,0.00014789449,1.5710558,0.785939,0.04,0.039999995,0.0005188432753433503,-0.0025432705565819457,0.0017752021538752771,-0.0009737465869251785,-0.010032454278479428,0.0004650062145398169,0.999999979657123,0.00016494680398352775,-0.00010444693680968835,5.068671216700991e-05
1636.6999999988402,0.00016383675,-0.7847062,7.2425806e-05,-2.3560665,0.00016219665,1.5710758,0.78592324,0.04,0.04,0.003788695496131922,-0.0028113181959616125,0.004022780279089311,-0.001156680984761993,-0.010225498329395373,0.0005504826695270311,0.9999999763242975,0.0001550349466141856,-0.0001422676719577741,5.5457004378415e-05
1636.7166666655069,0.00016308812,-0.7846492,8.029513e-05,-2.3561065,0.000178991,1.5710996,0.78590447,0.04,0.04,-0.0003095855164225725,-0.003115177047311227,0.003605058016908913,-0.001358506520786924,-0.010372885092019734,0.0006471748372491573,0.9999999718792606,0.00014324614891052953,-0.0001788667237858639,6.106319785417604e-05
1636.7333333321735,0.00016222295,-0.7845903,8.9438e-05,-2.3561478,0.00019849847,1.5711278,0.78588283,0.04,0.04,-0.002777963878730638,-0.0033973966229724293,0.003727726085611671,-0.0015776260811144595,-0.010483564850504539,0.000751964286324811,0.9999999662292907,0.0001296365007683062,-0.00021486994716517964,6.757737109995008e-05
1636.7499999988402,0.00016123142,-0.78452903,9.996379e-05,-2.3561897,0.00022096264,1.5711615,0.7858578,0.039999995,0.03999999,-0.0020808149807205467,-0.003697329157416069,0.005187896896274857,-0.001816548375054599,-0.010564352029461883,0.0008665519440124353,0.9999999595386603,0.00011390441592625887,-0.0002496216715256862,7.508317365115433e-05
1636.7666666655068,0.00016010425,-0.7844646,0.0001119835,-2.356232,0.00024659096,1.5712003,0.7858294,0.03999999,0.039999995,-0.0023170143933493037,-0.003972588403801342,0.005394955479354202,-0.0020736521702643877,-0.010607539240230394,0.0009879291723108715,0.9999999516837054,9.604549154533175e-05,-0.0002835689163787559,8.364520461250019e-05
1636.7833333321735,0.00015883149,-0.7843965,0.00012560833,-2.3562748,0.00027563368,1.5712434,0.7857972,0.039999988,0.039999995,-0.003844114664586229,-0.0042790193734220635,0.005004337330127839,-0.002350867269874126,-0.01061551784146103,0.0011192778482850567,0.9999999423744936,7.57576636573434e-05,-0.00031748650057234797,9.334938518170105e-05
1636.7999999988401,0.00015740337,-0.7843244,0.00014094985,-2.3563182,0.0003083334,1.5712925,0.7857608,0.039999984,0.03999999,-0.0034114009325403316,-0.004580717046214909,0.006500745572446398,-0.002647099111521088,-0.010594699294239496,0.0012607194342312482,0.9999999316731046,5.2887806257362574e-05,-0.0003506889246774935,0.0001042782053456888
1636.8166666655068,0.00015581015,-0.7842479,0.00015812016,-2.3563654,0.00034492768,1.5713472,0.78572005,0.03999998,0.03999999,-0.009592572492733709,-0.00487799968738377,0.004931362999749389,-0.002962066377499818,-0.010538066166521406,0.0014105605729764752,0.9999999186507132,2.7253151615009394e-05,-0.00038520268093327533,0.00011651063029106724
1636.8333333321734,0.00015404192,-0.7841661,0.00017723117,-2.3564153,0.00038565515,1.5714083,0.78567475,0.039999977,0.039999988,-0.0082653452248449,-0.005176883720575524,0.0064686297346572275,-0.0032960212600222118,-0.010463294051218298,0.001570535380415733,0.9999999031262439,-1.2396986987615056e-06,-0.0004204912555330835,0.00013012712960044508
1636.84999999884,0.0001520891,-0.78407866,0.0001983945,-2.3564663,0.00043075279,1.5714762,0.7856246,0.03999997,0.03999998,-0.00610986247915335,-0.005474728608569654,0.007789191572538101,-0.0036492177567269335,-0.010363609936706038,0.001739762331074358,0.9999998850663416,-3.27736255316682e-05,-0.000455749885229186,0.00014520755867304094
1636.8666666655067,0.00014994178,-0.78398526,0.00022172151,-2.3565228,0.0004804573,1.5715513,0.78556937,0.03999996,0.039999973,-0.013657665836275257,-0.005769399362468384,0.006196497600430284,-0.004021612406110921,-0.010231454761933798,0.0019182383135550834,0.9999998630247378,-6.753032182198968e-05,-0.0004931540159280009,0.0001618310161018518
1636.8833333321734,0.00014759053,-0.78388494,0.00024732295,-2.356581,0.00053500436,1.5716337,0.7855086,0.03999995,0.03999996,-0.008196244411573517,-0.006066000229007322,0.008537499889049727,-0.004412899764173981,-0.010083602088494195,0.0021059209167597877,0.9999998371004727,-0.0001057520406061733,-0.0005312133725721766,0.0001800774472191131
1636.89999999884,0.00014502564,-0.7837778,0.0002753088,-2.3566427,0.0005946271,1.5717237,0.78544223,0.039999943,0.039999958,-0.011260849211103263,-0.006357140766064043,0.007904419188986544,-0.00482220332643202,-0.00990863337872577,0.0023019060373450227,0.9999998062873372,-0.00014747106668754374,-0.0005706728625798415,0.00020002513923126188
1636.9166666655067,0.0001422375,-0.7836633,0.00030578818,-2.3567085,0.00065955904,1.5718216,0.7853701,0.039999936,0.039999947,-0.012526411599389498,-0.006648091824720229,0.008128744276891808,-0.005250555471121106,-0.009711134634037359,0.0025087184525308262,0.9999997696147381,-0.00019283861119393325,-0.0006118899182818425,0.0002217531706182704
1636.9333333321733,0.00013921672,-0.7835407,0.0003388694,-2.3567789,0.000730028,1.5719279,0.78529173,0.03999993,0.039999943,-0.013943299165464218,-0.006933842321570896,0.008752673442224967,-0.005697902871870698,-0.009493568111322213,0.0027228617686076624,0.9999997259735244,-0.00024212455617028778,-0.0006551623074218997,0.000245338391762544
1636.94999999884,0.00013595387,-0.7834095,0.0003746596,-2.3568528,0.00080626365,1.5720427,0.785207,0.03999993,0.039999943,-0.01305282621368864,-0.007220131150823851,0.009543875512085798,-0.0061630715550445424,-0.009257124177290995,0.002946843852136202,0.999999674442639,-0.0002954197569420928,-0.0007003407666776122,0.00027085899181758
1636.9666666655066,0.0001324398,-0.78326976,0.00041326473,-2.3569329,0.00088849,1.5721668,0.78511554,0.039999925,0.039999943,-0.0169859736208533,-0.007498785988462758,0.008835127644091223,-0.0066462561798055955,-0.009000903417298247,0.0031788633005231477,0.9999996133096171,-0.0003529029803721204,-0.0007481998468098683,0.0002983908376688101
1636.9833333321733,0.00012866539,-0.78312063,0.00045478926,-2.3570154,0.0009769303,1.5723,0.78501713,0.039999925,0.039999943,-0.011641062732170582,-0.00777906148641211,0.010909290287330897,-0.00714684831463695,-0.008729833692204585,0.003420545294703944,0.9999995422484352,-0.00041475401963448044,-0.0007974278942737512,0.0003280103302025803
1636.99999999884,0.0001246216,-0.7829619,0.00049933646,-2.3571043,0.0010718032,1.572443,0.7849116,0.03999993,0.039999947,-0.01846755547365575,-0.008049153095331931,0.009784415743019359,-0.0076647342439406865,-0.008431325042053182,0.00367094927145939,0.9999994585361339,-0.0004810900139719474,-0.0008497232635301805,0.00035979190200267246
1637.0166666655066,0.00012029949,-0.78279316,0.0005470084,-2.3572001,0.0011733256,1.5725963,0.7847987,0.03999993,0.039999947,-0.01963331523018308,-0.008318414113974142,0.010053701821055583,-0.008199553335144376,-0.008120873281754024,0.003929986637583454,0.9999993602563403,-0.0005520283365337407,-0.000905353756056499,0.0003938098555256375
1637.0333333321732,0.000115690316,-0.7826139,0.0005979049,-2.3572984,0.0012817096,1.5727599,0.78467816,0.039999932,0.039999954,-0.012538591176136649,-0.008585976481566273,0.012394920498182138,-0.008751781850065046,-0.007799502524562988,0.0041966749757785735,0.9999992474256824,-0.0006277470208829119,-0.0009623221281591882,0.00043013703453677804
1637.04999999884,0.000110785426,-0.7824237,0.0006521249,-2.3574035,0.0013971662,1.5729339,0.7845497,0.039999932,0.039999954,-0.0205634888361228,-0.008843487810397902,0.010700812992103792,-0.009320194086261401,-0.007448669803767064,0.0044726395168328496,0.9999991159459206,-0.0007084199832910831,-0.0010229524134076776,0.0004688463119330988
1637.0666666655065,0.000105576364,-0.7822223,0.0007097655,-2.3575156,0.0015199003,1.573119,0.7844132,0.03999994,0.03999996,-0.020714463846016606,-0.009098290671792327,0.0112920173873432,-0.009904683239334851,-0.007088509755772188,0.0047569268623998025,0.9999989637342521,-0.0007941323659416723,-0.0010870950391822219,0.0005100084147816326
1637.0833333321732,0.00010005477,-0.78200954,0.0007709217,-2.3576345,0.0016501154,1.5733154,0.78426844,0.039999947,0.03999997,-0.020818543228928732,-0.009348990687914034,0.011425603935566464,-0.01050515200949085,-0.006717564758846161,0.005049424025147898,0.9999987883503473,-0.0008850279674481647,-0.0011547493618047503,0.0005536941806054919
1637.0999999988398,9.421247e-05,-0.78178483,0.0008356876,-2.3577607,0.0017880093,1.5735234,0.78411514,0.03999995,0.039999977,-0.021810176891112754,-0.00959417921941666,0.012016344421494907,-0.011120929105753567,-0.0063352397813464575,0.0053491604385116085,0.9999985869010021,-0.0009812495688187373,-0.0012261232916215118,0.0005999724631377175
1637.1166666655065,8.804145e-05,-0.7815479,0.00090415485,-2.3578897,0.0019337788,1.5737436,0.783953,0.039999947,0.039999973,-0.014644826089216245,-0.009841696265815419,0.014439331641158404,-0.011752206427553763,-0.005941501184402608,0.005657694815863805,0.9999983594049007,-0.001082971500835381,-0.001298951064137603,0.000648911680090518
1637.1333333321732,8.153382e-05,-0.78129834,0.00097641343,-2.358026,0.0020876129,1.5739759,0.7837819,0.039999954,0.03999998,-0.022815597292047407,-0.010069950510582272,0.012580987694432721,-0.012398001730359633,-0.005516108569094758,0.005974075620037541,0.9999980999003046,-0.0011903023890330036,-0.0013757054434297804,0.0007005787151107765
1637.1499999988398,7.468192e-05,-0.781036,0.0010525513,-2.3581698,0.0022497007,1.5742207,0.78360164,0.03999996,0.03999999,-0.02288601406785773,-0.010301103066467183,0.012795473994753337,-0.013057915212773715,-0.005080664452082943,0.006297341644021062,0.9999978051870246,-0.0013033224903520838,-0.0014563259531516647,0.000755040619858643
1637.1666666655065,6.747796e-05,-0.78076047,0.0011326552,-2.3583212,0.0024202357,1.5744783,0.7834119,0.03999997,0.039999995,-0.023684060181250466,-0.010533064930446073,0.013276514420446084,-0.013732104601018076,-0.004634611985321601,0.006629931476322579,0.9999974714235087,-0.001422229833991847,-0.0015409307669243572,0.000812367687519122
1637.183333332173,5.9914924e-05,-0.7804714,0.0012168091,-2.3584802,0.0025993746,1.5747488,0.7832126,0.039999973,0.04,-0.024030072306202577,-0.010735649150446546,0.013408282956128836,-0.014419345166171148,-0.004176910428243127,0.006967421946412755,0.9999970945969846,-0.0015471026974684583,-0.0016296678776841792,0.0008726129963259502
1637.1999999988398,5.1985273e-05,-0.7801684,0.0013050956,-2.3586469,0.0027873158,1.5750327,0.78300357,0.03999997,0.04,-0.02425595334827335,-0.010966000698186514,0.014015695417857188,-0.015119766457443142,-0.003710520927725329,0.007314894695087967,0.9999966708543218,-0.0016780175795017476,-0.001722416973471977,0.0009358509740919549
1637.2166666655064,4.368209e-05,-0.7798514,0.001397596,-2.3588212,0.002984213,1.5753299,0.7827845,0.03999997,0.04,-0.02454700488394579,-0.011162393724424586,0.01389826999407262,-0.015833235885547532,-0.003231975883658318,0.0076678402939863895,0.9999961954066967,-0.0018151403559633445,-0.0018193854169943717,0.001002134883290886
1637.233333332173,3.499857e-05,-0.7795199,0.0014943881,-2.359003,0.003190233,1.575641,0.7825554,0.03999997,0.04,-0.02473807012517426,-0.011364042112442085,0.014589845550694314,-0.016558781678861875,-0.0027441738281023045,0.00802799260610412,0.9999956640609143,-0.001958515392538849,-0.0019203931616999879,0.0010715255165183817
1637.2499999988397,2.5927862e-05,-0.77917373,0.0015955481,-2.359193,0.0034055512,1.5759662,0.7823159,0.039999966,0.04,-0.025861727712750415,-0.011568482148675667,0.014580366825689417,-0.017296834559052367,-0.0022439130635490273,0.008395982998589357,0.9999950711777134,-0.002108304756838183,-0.0020257665836366156,0.0011440896297772115
1637.2666666655064,1.6463531e-05,-0.7788126,0.0017011515,-2.3593915,0.0036303217,1.5763056,0.78206575,0.03999996,0.04,-0.026515471043020433,-0.01175636501042623,0.014643943727432607,-0.018046129391812927,-0.0017347802456876144,0.008770853538049562,0.9999944109900356,-0.00226467015014583,-0.002135682945438156,0.0012198836663885736
1637.283333332173,6.599307e-06,-0.7784362,0.0018112704,-2.359598,0.003864687,1.5766597,0.78180504,0.03999996,0.04,-0.02631459262152358,-0.011932850480304326,0.015225312682809466,-0.01880597514759818,-0.0012165228304655273,0.009151662801107033,0.9999936787033821,-0.0024275632988671305,-0.0022499322395595155,0.0012989590541572016
1637.2999999988397,-3.671203e-06,-0.7780446,0.001925976,-2.3598127,0.0041088136,1.5770286,0.7815334,0.039999958,0.04,-0.026602446242462996,-0.01212436312411809,0.015206895842756474,-0.019577069249260858,-0.000688465357733821,0.009539940072812857,0.9999928683592967,-0.002597173008183184,-0.002368482874792658,0.0013813803906146966
1637.3166666655063,-1.4353834e-05,-0.7776371,0.0020453362,-2.3600361,0.004362833,1.5774124,0.7812509,0.039999954,0.04,-0.02779888963941879,-0.01228555663469813,0.015314265961552387,-0.020358395143599405,-0.00014781468136818715,0.009933898808696006,0.9999919728293758,-0.0027735075034027866,-0.002491839842254047,0.001467197035866871
1637.333333332173,-2.54545e-05,-0.7772138,0.0021694184,-2.3602688,0.004626895,1.5778112,0.78095716,0.039999947,0.03999999,-0.028928497543434517,-0.012457187091056109,0.015187807921113183,-0.0211498276611487,0.0003990559233312402,0.010335130201766407,0.9999909848889162,-0.002956722464790727,-0.0026201799880024965,0.0015564671509922467
1637.3499999988396,-3.6978883e-05,-0.7767743,0.002298287,-2.3605106,0.004901135,1.5782254,0.7806521,0.039999947,0.039999995,-0.028911861731306665,-0.012618393275616764,0.015521528149564645,-0.021950380161855226,0.0009535293460022284,0.010741797211703697,0.9999898976226359,-0.0031468837840798462,-0.002753501362815418,0.001649243876654894
1637.3666666655063,-4.893246e-05,-0.77631825,0.0024320045,-2.3607607,0.005185688,1.5786551,0.78033555,0.039999947,0.039999995,-0.027945990161981626,-0.012777123686264196,0.016221474290611937,-0.02276017755418476,0.0015119479581919733,0.01115547140828244,0.9999887048155511,-0.0033440864754297906,-0.002891414430949633,0.0017455800039065598
1637.383333332173,-6.132053e-05,-0.7758455,0.0025706317,-2.36102,0.005480682,1.5791006,0.78000736,0.03999995,0.04,-0.029758803738033635,-0.012923351901117375,0.015893063370753246,-0.023578213327149933,0.0020816085455185145,0.011575171269588954,0.9999873975282515,-0.0035483922492784443,-0.0030344236544219186,0.0018455270806857578
1637.3999999988396,-7.414807e-05,-0.7753561,0.0027142272,-2.3612885,0.00578624,1.5795622,0.77966744,0.03999995,0.04,-0.029274233854614806,-0.0130669675197999,0.016198883002371822,-0.024404684931399072,0.0026563286799193876,0.011999070354904311,0.9999859687643312,-0.0037598633255632296,-0.003182228728410303,0.0019491337960690182
1637.4166666655062,-8.742034e-05,-0.77484965,0.0028628474,-2.3615663,0.006102495,1.5800397,0.77931553,0.039999954,0.04,-0.030148488544856633,-0.013212296691880038,0.01611777313115237,-0.025238488999085224,0.0032409440177748328,0.012431292607432249,0.9999844089383089,-0.0039786190052589114,-0.003335184737482072,0.002056456631864293
1637.4333333321729,-0.000101141704,-0.77432615,0.0030165473,-2.3618531,0.006429545,1.5805334,0.7789519,0.039999954,0.04,-0.02974118423797467,-0.013333155390349467,0.016239773913429012,-0.026079549652290503,0.003831144615474208,0.012867501459683453,0.9999827107568192,-0.004204540646419847,-0.0034931107331559797,0.0021675338064612803
1637.4499999988395,-0.00011531732,-0.7737852,0.003175379,-2.3621497,0.006767534,1.5810437,0.77857596,0.039999954,0.04,-0.03127217372136393,-0.013478099091195767,0.016491808897711735,-0.026928475740645712,0.004428575188945207,0.013312491721401472,0.9999808634712236,-0.004437891573607327,-0.003656271809977134,0.002282429884662745
1637.4666666655062,-0.00012995108,-0.7732265,0.0033393933,-2.3624563,0.0071165385,1.5815707,0.77818775,0.039999958,0.04,-0.03198159755783969,-0.013574103726563848,0.01641998666195299,-0.027782952849354194,0.005031035719098187,0.013759634807928042,0.9999788570410978,-0.004678668266052341,-0.003824903753330779,0.0024011758189899624
1637.4833333321728,-0.00014504738,-0.77265036,0.0035086393,-2.3627725,0.0074766623,1.5821146,0.7777871,0.039999954,0.04,-0.030907720005757255,-0.013691298553188298,0.016513952245866825,-0.02864364099977524,0.00563855332620531,0.014212105287575827,0.9999766831067158,-0.004926956927492286,-0.003998586348019114,0.0025238156713208453
1637.4999999988395,-0.00016061026,-0.7720561,0.0036831643,-2.3630984,0.007848,1.5826756,0.7773739,0.039999947,0.04,-0.03197495480908863,-0.01379529779646331,0.016930175719553908,-0.029509527217939056,0.006252987594869905,0.0146698436714897,0.9999743306700163,-0.005182779918674569,-0.004177584833095987,0.002650392108689597
1637.5166666655061,-0.00017664357,-0.7714439,0.0038630117,-2.3634343,0.008230644,1.5832534,0.77694815,0.039999943,0.04,-0.03233379600784403,-0.013892472759829966,0.016351978964079805,-0.030380167970536366,0.006872731602469116,0.01513186733798864,0.9999717884631637,-0.005446159407937399,-0.004362104715663584,0.002780947308875264
1637.5333333321728,-0.0001931512,-0.77081347,0.004048226,-2.36378,0.008624701,1.5838486,0.77650976,0.03999994,0.04,-0.03212085636132844,-0.014002846898692953,0.016971050669778442,-0.0312556832714302,0.00749554187383613,0.015600543933395272,0.9999690468740114,-0.005717116251130706,-0.004551874526862845,0.00291552978784688
1637.5499999988394,-0.00021013654,-0.7701648,0.0042388467,-2.3641357,0.009030239,1.5844611,0.7760585,0.039999932,0.04,-0.03260835497420622,-0.014077409500415534,0.016660921670097473,-0.03213560949837188,0.00812450022852669,0.016073295042312762,0.9999660935432191,-0.005995758895244377,-0.004747069464473692,0.003054172667585618
1637.566666665506,-0.00022760307,-0.76949763,0.0044349134,-2.3645015,0.009447356,1.5850909,0.7755944,0.039999932,0.04,-0.03292193111785746,-0.014173397891053055,0.01667934164224505,-0.03301900459361171,0.008759562555738377,0.016551544942261465,0.9999629167143297,-0.006282045655457357,-0.004947805367549742,0.003196923614674891
1637.5833333321727,-0.00024555405,-0.7688118,0.004636464,-2.3648772,0.009876131,1.5857387,0.7751174,0.039999936,0.04,-0.032949414435679,-0.014253801107401952,0.017196725923063205,-0.033905965742594545,0.009396644583154382,0.017033749067666665,0.9999595056974727,-0.006576022175196092,-0.005153810277459574,0.003343820754963135
1637.5999999988394,-0.00026399244,-0.7681072,0.0048435302,-2.365264,0.010316635,1.5864041,0.7746272,0.039999936,0.04,-0.034930460461701784,-0.014311680135430105,0.016441857682347738,-0.03479603445722078,0.010041125772120005,0.01752035112676284,0.999955843816766,-0.00687778896922864,-0.005365825107651794,0.0034949043632376696
1637.616666665506,-0.00028292116,-0.76738364,0.005056147,-2.3656607,0.010768941,1.5870874,0.774124,0.039999936,0.04,-0.03335532805279762,-0.01439061412468589,0.016992695997708473,-0.035688220981794534,0.010684918436382106,0.018011393880618027,0.9999519220804861,-0.007187244081324896,-0.005583280086785049,0.0036502100665077152
1637.6333333321727,-0.0003023431,-0.7666411,0.0052743475,-2.366067,0.011233145,1.5877886,0.7736076,0.03999994,0.04,-0.03273206222405012,-0.014479387238790914,0.017165281838926738,-0.03658318429059072,0.011334089344414842,0.018509930212965445,0.9999477279260766,-0.007504491333553669,-0.005805991942373314,0.0038097877719171953
1637.6499999988393,-0.00032226046,-0.76587945,0.0054981587,-2.3664846,0.011709274,1.5885077,0.7730779,0.039999943,0.04,-0.036092938016318854,-0.01448965805700246,0.01612976067530969,-0.03747963493413362,0.011987507777274455,0.01900931920435426,0.9999432423535293,-0.007829534386361909,-0.006034939899693746,0.0039736586681462455
1637.666666665506,-0.00034267595,-0.7650987,0.0057276087,-2.3669124,0.0121974135,1.5892447,0.77253485,0.039999943,0.04,-0.03374894665650885,-0.014571995869392534,0.016818413453512093,-0.03837720313405049,0.012641204924672349,0.019515129060284585,0.9999384557566909,-0.008162387527596992,-0.006269374455793152,0.004141868262809997
1637.6833333321727,-0.00036359142,-0.76429874,0.0059627234,-2.3673508,0.012697578,1.5899999,0.7719784,0.03999994,0.04,-0.03505119930082845,-0.014580729875517118,0.016447601582103566,-0.03927567756552303,0.013297681808240445,0.020021687511290548,0.9999333520672565,-0.008503056689469034,-0.006509618935972576,0.0043144306442678484
1637.6999999988393,-0.0003850091,-0.7634795,0.0062035276,-2.3677995,0.013209838,1.5907736,0.7714085,0.039999943,0.04,-0.03432395081319761,-0.014638013191026894,0.016872382506538663,-0.04017437124941654,0.013956440677536527,0.02053368380118887,0.9999279193143036,-0.008851519864442202,-0.006755311094834768,0.004491385517737823
1637.716666665506,-0.00040693092,-0.7626409,0.006450043,-2.3682587,0.01373425,1.5915654,0.7708251,0.039999943,0.04,-0.034898171713826365,-0.01467571980249445,0.01633972878780643,-0.04107336055314601,0.014619199085317426,0.02105017184567752,0.9999221404461144,-0.009207811920905671,-0.007006743897852111,0.004672770617111381
1637.7333333321726,-0.00042935825,-0.7617828,0.0067022895,-2.3687289,0.014270829,1.5923756,0.77022815,0.03999994,0.04,-0.0358608405482741,-0.014676802864934183,0.016311905305887997,-0.041972000100685705,0.015283424405656769,0.021567868187219487,0.9999159994913709,-0.009571904018206352,-0.007264061497287114,0.004858603215172479
1637.7499999988393,-0.00045229297,-0.76090527,0.006960285,-2.3692093,0.014819634,1.5932045,0.7696177,0.03999994,0.04,-0.03467202832561078,-0.01471965402055804,0.016605028194449645,-0.042869794609981124,0.015949536275242947,0.02209069039472509,0.9999094841368467,-0.00994377150035647,-0.00752684158126832,0.005048920413755452
1637.766666665506,-0.0004757361,-0.7600081,0.0072240476,-2.3697014,0.015380674,1.594052,0.7689935,0.039999932,0.04,-0.03729948577901876,-0.014702677626551863,0.015785693230174758,-0.043766905575787454,0.01661966630358286,0.022614655287367665,0.9999025721720523,-0.010323468938374004,-0.007795853354972182,0.005243741341810658
1637.7833333321726,-0.00049968925,-0.7590912,0.0074935947,-2.370203,0.015953993,1.5949179,0.7683557,0.039999932,0.04,-0.03389179276624965,-0.014747970600357749,0.016680894408760416,-0.04466207583348554,0.017285790794064747,0.023143392825208674,0.9998952554327465,-0.010710918132761532,-0.008070138136289335,0.005443093449241745
1637.7999999988392,-0.00052415323,-0.7581547,0.007768936,-2.3707166,0.016539624,1.5958028,0.7677041,0.039999932,0.04,-0.037725998290327745,-0.014725544638823085,0.01559776250998901,-0.04555530934162707,0.017958602672941498,0.023675307802401558,0.9998875094243029,-0.011106192449279085,-0.0083505836755144,0.005647011494792964
1637.8166666655059,-0.0005491295,-0.75719833,0.008050081,-2.3712401,0.01713762,1.5967063,0.7670389,0.039999932,0.04,-0.0349330351839372,-0.014766682109068965,0.016253318615588874,-0.046446045843859037,0.01862821185956346,0.024212548687550073,0.9998793236697443,-0.011509178937300489,-0.00863652906079936,0.005855532743128089
1637.8333333321725,-0.0005746184,-0.7562222,0.008337042,-2.371775,0.017748004,1.5976282,0.76635975,0.039999936,0.04,-0.03699399703132045,-0.014749482420954585,0.015347201284221512,-0.04733406818301518,0.019301600731992767,0.024752655501916392,0.9998706745802683,-0.011919957597086394,-0.008928593501415092,0.0060686854729144965
1637.8499999988392,-0.00060062075,-0.75522625,0.008629825,-2.3723204,0.018370762,1.5985689,0.765667,0.03999994,0.04,-0.03618136157379492,-0.01472060091973898,0.015590843115531605,-0.04821842861090936,0.019972857061736723,0.025293904810452055,0.9998615497761931,-0.01233834580068756,-0.00922641433737674,0.006286476002250312
1637.8666666655058,-0.0006271369,-0.7542106,0.008928438,-2.372877,0.0190059,1.5995283,0.76496017,0.039999936,0.04,-0.03658873912468774,-0.014696436035632754,0.015253385355995519,-0.0491003981635998,0.020643990603343446,0.025836238637481076,0.9998519276594355,-0.012764574836819179,-0.009530073123144205,0.006508923967438685
1637.8833333321725,-0.00065416686,-0.75317514,0.009232889,-2.3734443,0.019653419,1.6005061,0.76423997,0.039999932,0.04,-0.03683540420325038,-0.01467339452037135,0.014827104531556223,-0.04997648503180227,0.02131571894472313,0.026381184471086817,0.9998417932289345,-0.013198222006115177,-0.009839774637248628,0.006736043624712681
1637.8999999988391,-0.000681711,-0.75211984,0.009543177,-2.3740225,0.02031335,1.6015028,0.7635061,0.039999932,0.04,-0.03638979263140829,-0.014662171090570192,0.015238362468461553,-0.050850581336539996,0.021983569447687062,0.026930268786342977,0.9998311303392062,-0.01363939419230246,-0.010155123940170261,0.006967868286052943
1637.9166666655058,-0.00070976955,-0.7510447,0.009859301,-2.3746116,0.020985682,1.6025182,0.76275766,0.039999932,0.04,-0.03693954188792592,-0.014613223117995039,0.014739223123005907,-0.05172070659565127,0.02265421079265898,0.02748119151282131,0.9998199117353808,-0.01408852660020555,-0.010476349385491142,0.00720441664841032
1637.9333333321724,-0.0007383422,-0.74994975,0.010181264,-2.3752117,0.021670418,1.6035525,0.7619955,0.039999932,0.04,-0.03690939578930852,-0.014583016594078499,0.014598925042652589,-0.05258234216965686,0.023321854357250524,0.02803440542993805,0.9998081256495885,-0.01454513100251326,-0.010803357739534229,0.007445704179463412
1637.949999998839,-0.0007674285,-0.74883515,0.010509063,-2.3758225,0.022367563,1.6046056,0.7612198,0.039999925,0.04,-0.036443163176991256,-0.014549066842365482,0.014462967686079686,-0.0534391102849265,0.02398954762773168,0.028586086741077,0.9997957565982124,-0.01500907676813362,-0.011135963864298472,0.00769174957921553
1637.9666666655057,-0.0007970281,-0.74770033,0.010842696,-2.376444,0.02307707,1.6056775,0.76043034,0.03999994,0.04,-0.03713044488473649,-0.014475893311162447,0.014527184155421757,-0.05429105982943608,0.024658281713908957,0.029141093728923248,0.9997827810821354,-0.015480438717872497,-0.011474428068245715,0.007942554329673952
1637.9833333321724,-0.0008271409,-0.7465459,0.011182158,-2.3770764,0.023798978,1.606768,0.75962716,0.039999954,0.04,-0.03659765467378673,-0.014458045824957896,0.013839432809947816,-0.05513737206057554,0.02532461399638926,0.029700586875429796,0.9997691821355524,-0.015959143452430175,-0.011818564246398251,0.008198154147551108
1637.999999998839,-0.0008577657,-0.7453716,0.011527438,-2.3777194,0.024533289,1.6078773,0.7588102,0.039999954,0.04,-0.036977917395697446,-0.014407861689794826,0.013865673738377993,-0.05597742870535227,0.025989363650153086,0.03026163456183506,0.9997549387635416,-0.01644517045192363,-0.01216845387328504,0.008458576537937556
1638.0166666655057,-0.0008889017,-0.74417764,0.01187853,-2.3783736,0.02527994,1.6090051,0.75797963,0.039999954,0.04,-0.03755923351993484,-0.014307990114766078,0.013152693516116365,-0.056810794167909774,0.026653511868247756,0.03082340136632138,0.999740030581633,-0.016938412646817787,-0.01252423898453905,0.008723810377345546
1638.0333333321723,-0.0009205478,-0.7429639,0.012235427,-2.3790386,0.026038898,1.6101518,0.7571353,0.039999958,0.04,-0.03696104966548486,-0.014244636673466787,0.013458170560576299,-0.05763757490863315,0.027313782184068727,0.031387601355539474,0.9997244400258566,-0.01743888438787322,-0.012885643134750411,0.008993860533600783
1638.049999998839,-0.0009527034,-0.74173045,0.012598114,-2.3797145,0.026810184,1.611317,0.75627714,0.03999996,0.04,-0.03744539312102724,-0.014192540385914165,0.01289494863647711,-0.05845665772338882,0.027972577556914957,0.03195306373286254,0.9997081441875679,-0.017946531551951184,-0.013252866563490005,0.009268763572035961
1638.0666666655056,-0.0009853671,-0.74047744,0.012966581,-2.3804014,0.027593758,1.6125008,0.7554054,0.03999996,0.04,-0.03735376704310234,-0.014111114179599094,0.012489100169643663,-0.0592675641048811,0.028628693613480874,0.03251965981536539,0.9996911247185403,-0.018461216581030736,-0.01362587218796618,0.009548520746451085
1638.0833333321723,-0.0010185376,-0.7392047,0.01334081,-2.3810985,0.028389603,1.613703,0.75452,0.039999954,0.04,-0.03642374607386589,-0.014050566717935947,0.01274169623231014,-0.06007088092788848,0.029280486749798884,0.03308726168386942,0.9996733636611602,-0.018982951432245983,-0.014004382839234946,0.009833148152796232
1638.099999998839,-0.0010522122,-0.7379125,0.013720789,-2.3818061,0.02919761,1.6149236,0.7536211,0.03999997,0.04,-0.036669229800812,-0.013909351882473303,0.012174033923950667,-0.06086543745456135,0.029930779535021296,0.03365495178397437,0.9996548423875847,-0.019511566918997858,-0.01438845121415341,0.010122614241219267
1638.1166666655056,-0.0010863907,-0.73660094,0.014106494,-2.3825245,0.03001785,1.6161627,0.7527085,0.039999958,0.04,-0.036909215471347956,-0.013883512205094262,0.011809941702578541,-0.06165214334978804,0.03058018711336366,0.034225107084231626,0.9996355381235239,-0.020047120685370592,-0.014778036968384655,0.010416981140432591
1638.1333333321722,-0.0011210706,-0.7352699,0.014497913,-2.3832533,0.030850187,1.6174201,0.7517824,0.03999996,0.04,-0.036825775222837365,-0.013730415639887777,0.011702119198653271,-0.06242891170659028,0.03122616759056407,0.03479406127827288,0.9996154324560879,-0.020589445804826752,-0.015173162900319134,0.010716204770297102
1638.149999998839,-0.0011562498,-0.7339195,0.014895023,-2.3839931,0.031694602,1.6186956,0.75084305,0.039999973,0.04,-0.03764486662973798,-0.013635862740302845,0.010953789686896087,-0.06319673265651247,0.03186915677510392,0.035363753505141746,0.9995945018168054,-0.0211383920084072,-0.015574118751752703,0.011020306076408281
1638.1666666655055,-0.0011919267,-0.73255,0.0152978,-2.3847435,0.032551084,1.6199892,0.7498901,0.039999973,0.04,-0.03660522919040066,-0.013564686410179327,0.010746625075030991,-0.06395552658403152,0.032506235375861975,0.0359346820958865,0.9995727268678477,-0.021694056978463227,-0.015980565843844188,0.011329303116289092
1638.1833333321722,-0.0012280991,-0.7311614,0.015706224,-2.3855045,0.03341956,1.621301,0.74892384,0.03999997,0.04,-0.03705134038458624,-0.013435823436368927,0.010662901050118023,-0.06470377994373269,0.033140602744370626,0.03650572372019355,0.9995500905351373,-0.022256230368319436,-0.016392466862244714,0.011643184751652498
1638.1999999988388,-0.0012647641,-0.7297536,0.016120268,-2.3862755,0.03429997,1.6226308,0.74794436,0.039999973,0.04,-0.036125792971475335,-0.013329499008900292,0.010492625089386642,-0.06544230635186751,0.033771014503120284,0.03707708273045078,0.9995265739225094,-0.022824833726784476,-0.01680972345869687,0.011961947388153241
1638.2166666655055,-0.0013019203,-0.72832674,0.016539913,-2.3870573,0.035192303,1.6239786,0.74695164,0.039999966,0.04,-0.03724214366136458,-0.013236601134775788,0.00986325655270015,-0.06617076193804107,0.03439847312232423,0.03764811676701327,0.9995021519489219,-0.023399800030529553,-0.017232564111775477,0.012285615252771352
1638.2333333321722,-0.0013395638,-0.72688097,0.016965125,-2.387849,0.03609642,1.6253443,0.7459458,0.039999977,0.04,-0.035936915529788394,-0.013065911945424336,0.009851135634431074,-0.06688839720344883,0.03501988670947459,0.03821917770419729,0.9994768118992492,-0.02398102071737517,-0.01766059312602259,0.012614141726754239
1638.2499999988388,-0.0013776928,-0.7254164,0.01739588,-2.3886518,0.03701234,1.6267279,0.74492675,0.039999977,0.04,-0.0374548341407932,-0.012977017202388946,0.009073162508910215,-0.06759553224592516,0.035638553432128794,0.038789910043855,0.9994505248894913,-0.024568481123217075,-0.018094156788485454,0.01294756824783786
1638.2666666655055,-0.0014163047,-0.723933,0.017832143,-2.3894641,0.037939962,1.628129,0.7438946,0.039999973,0.04,-0.035420202951463864,-0.012853969521569447,0.009258031300185543,-0.06829073178557493,0.03625239032834436,0.03935912984843902,0.9994232773814609,-0.025162079250479058,-0.018532888578525135,0.013285873581672583
1638.283333332172,-0.001455396,-0.722431,0.01827388,-2.3902867,0.038879223,1.6295478,0.7428496,0.039999977,0.04,-0.03618862908658649,-0.012698741146634218,0.008686633948951084,-0.06897437852523267,0.03686186424267705,0.039929470458338764,0.9993950525566548,-0.025761594683477097,-0.018976780288737737,0.013629048922009552
1638.2999999988388,-0.0014949633,-0.7209105,0.018721068,-2.39112,0.03983006,1.6309844,0.74179167,0.039999973,0.04,-0.037071064171789736,-0.012560829944388563,0.008139424943043316,-0.06964704048988465,0.03746752894913778,0.04049735601496518,0.9993658235673821,-0.02636702019928131,-0.01942605921529238,0.013977093927659702
1638.3166666655054,-0.0015350046,-0.7193714,0.019173674,-2.3919628,0.040792372,1.6324376,0.740721,0.039999977,0.04,-0.0355403660261544,-0.012436945525608895,0.007710523035653338,-0.07030730691769413,0.03806671213644745,0.04106528558646461,0.9993355705457619,-0.026978226972412245,-0.0198807463152912,0.014329990835599495
1638.333333332172,-0.001575516,-0.7178142,0.019631652,-2.3928158,0.041766103,1.6339091,0.7396375,0.03999998,0.04,-0.03568634241573054,-0.01226660077269931,0.008131506894826224,-0.07095575710371846,0.038658453861455014,0.04163211724819311,0.9993042886317652,-0.027595158237337946,-0.02034002606122175,0.01468772629942682
1638.3499999988387,-0.0016164943,-0.71623886,0.020094972,-2.3936784,0.04275119,1.6353962,0.7385415,0.039999988,0.04,-0.03547152161598177,-0.01215934255919468,0.006274799935845898,-0.0715918659629593,0.03924982837578497,0.042197765069063475,0.9992719384301085,-0.028217629667824276,-0.02080496240441845,0.015050314993835278
1638.3666666655054,-0.001657936,-0.71464545,0.020563595,-2.3945508,0.04374759,1.6369022,0.73743296,0.039999977,0.04,-0.03488880478779155,-0.01202055320722109,0.00825146847029945,-0.07221556478306321,0.03983071328121665,0.042761806863427496,0.999238532485839,-0.028845548786378395,-0.02127399530620252,0.015417737657355744
1638.383333332172,-0.0016998376,-0.71303433,0.021037484,-2.3954334,0.04475513,1.6384239,0.736312,0.039999984,0.04,-0.036232326216500965,-0.011790810034522509,0.005183849273837637,-0.07282669134728859,0.04041462595043879,0.04332437868776025,0.9992040171497462,-0.029478841851987146,-0.0217487236883274,0.015789965573238963
1638.3999999988387,-0.0017421951,-0.7114055,0.021516593,-2.3963253,0.04577379,1.6399624,0.7351784,0.039999984,0.04,-0.03438198171827889,-0.011695790434696623,0.006314494737691412,-0.07342492565927983,0.040986277854867734,0.0438853287771926,0.9991683914912861,-0.030117504377975213,-0.022228122361456458,0.016167001918814834
1638.4166666655053,-0.001785005,-0.709759,0.02200089,-2.3972268,0.04680346,1.6415174,0.7340328,0.03999998,0.04,-0.03495569829152778,-0.011521363015494501,0.00562840874807069,-0.07400905426514412,0.0415549382035027,0.04444431604458175,0.9991316369320415,-0.030761204294127712,-0.02271248266630958,0.016548822405437254
1638.433333332172,-0.0018282628,-0.70809495,0.022490337,-2.3981385,0.047844026,1.6430895,0.7328751,0.039999988,0.04,-0.03582149595948714,-0.011316072290531304,0.005374338879327034,-0.0745806591800963,0.042116566755693724,0.04500142243841969,0.9990937353498942,-0.03140989207510049,-0.02320170397081433,0.016935394807225834
1638.4499999988386,-0.0018719656,-0.7064136,0.022984874,-2.3990595,0.04889542,1.6446779,0.73170525,0.03999999,0.04,-0.03426431737161284,-0.011171939239255912,0.0048712010399354355,-0.0751394098945418,0.04267156430870063,0.045556470989419146,0.9990546680493738,-0.03206354582555395,-0.023695655034261014,0.01732671954945195
1638.4666666655053,-0.0019161084,-0.70471525,0.023484465,-2.3999898,0.049957607,1.6462824,0.7305235,0.039999977,0.04,-0.034047571213391414,-0.011058538409429441,0.004498975460176524,-0.07568384246007107,0.043220166088509177,0.046109125946630185,0.999014422554424,-0.032721952345431564,-0.024194207531179165,0.01772280127102819
1638.483333332172,-0.0019606866,-0.7029997,0.023989068,-2.4009297,0.051030368,1.6479031,0.7293299,0.039999984,0.04,-0.03469049634352572,-0.010785341072963583,0.004035667801338683,-0.07621489534669754,0.043764098490292364,0.04665923121160091,0.9989729736798595,-0.0333850767936557,-0.024697589101993624,0.018123564694884017
1638.4999999988386,-0.002005696,-0.7012674,0.024498632,-2.4018788,0.052113652,1.6495395,0.7281245,0.039999984,0.04,-0.03395685767251244,-0.01064419409059908,0.0034658774108686785,-0.07673160949577656,0.04430042857179643,0.04720596330927258,0.9989303081129027,-0.03405276757498127,-0.025205640444193534,0.018529010867923888
1638.5166666655052,-0.0020511334,-0.6995185,0.025013106,-2.4028368,0.053207386,1.6511916,0.72690755,0.039999988,0.04,-0.033070981303851,-0.010493629646449176,0.003451928404318849,-0.07723412779589414,0.04482917863504468,0.04775177028638463,0.998886417167338,-0.03472487350327375,-0.025718053629928874,0.01893912554128623
1638.5333333321719,-0.0020969934,-0.69775295,0.02553244,-2.4038036,0.054311458,1.6528594,0.72567916,0.039999988,0.04,-0.03313079177662548,-0.010301058105847971,0.003182994038541942,-0.0777225792229651,0.045352364308337695,0.04829358695833966,0.9988412846110907,-0.03540126694331795,-0.026234818297383666,0.01935388240579238
1638.5499999988385,-0.0021432708,-0.6959711,0.026056586,-2.4047797,0.05542573,1.6545428,0.7244393,0.039999995,0.04,-0.033707647487224435,-0.010075297709158382,0.002296306569893325,-0.07819720265660086,0.045870711574244286,0.04883230418860044,0.9987948869886747,-0.036081878682833,-0.026756131665536843,0.01977324389913226
1638.5666666655052,-0.0021899615,-0.6941732,0.026585497,-2.4057646,0.05655012,1.6562412,0.72318834,0.039999995,0.04,-0.03266646406114848,-0.009923868399941416,0.001826526614756574,-0.07865673506087653,0.04637939617192978,0.04936776936716189,0.9987472155477756,-0.036766506813512616,-0.027281806216706114,0.02019718945425765
1638.5833333321718,-0.0022370615,-0.6923592,0.027119119,-2.4067583,0.057684503,1.6579547,0.72192615,0.03999999,0.04,-0.03289942675528401,-0.009715541202448552,0.0017190150632950818,-0.07910240582234106,0.04688201773443572,0.049899986921972506,0.9986982507877249,-0.037455109019837944,-0.027811859480782533,0.020625691602266356
1638.5999999988385,-0.0022845643,-0.69052935,0.027657399,-2.4077606,0.058828797,1.6596832,0.720653,0.03999999,0.04,-0.032229230478608706,-0.009549773909368897,0.001395103748125237,-0.07953262532812781,0.04737697422380577,0.050428451669877694,0.99864798498951,-0.03814750562202779,-0.028346073519270796,0.02105872757905358
1638.6166666655051,-0.002332466,-0.6886839,0.028200284,-2.4087715,0.059982836,1.6614265,0.719369,0.04,0.04,-0.03199278315089149,-0.009313445924799546,0.000826468675896308,-0.0799483709426857,0.04786419049048313,0.0509532114374035,0.9985964045316562,-0.03884357612323352,-0.02888440871710592,0.021496241147477564
1638.6333333321718,-0.0023807613,-0.6868232,0.028747719,-2.4097905,0.061146546,1.6631844,0.71807396,0.04,0.04,-0.031018972746577056,-0.009162980911750496,0.0006048068452058075,-0.08034958094092705,0.04834492468762468,0.05147404247037779,0.9985434953584197,-0.03954335358763046,-0.02942661278495058,0.021938220630622906
1638.6499999988384,-0.0024294448,-0.684947,0.029299645,-2.4108179,0.062319793,1.6649567,0.7167687,0.04,0.04,-0.03164208225636678,-0.008932458759158823,0.00013472341702236434,-0.08073411934474442,0.04882025563665374,0.05199065437300257,0.9984892496543399,-0.040246377663202444,-0.029972920587936838,0.02238462510593651
1638.666666665505,-0.002478511,-0.68305594,0.029856,-2.4118538,0.06350246,1.6667429,0.71545285,0.04,0.04,-0.03157745522084365,-0.008713538748501837,-0.0008671126986437017,-0.08110532423226303,0.04928767418398247,0.052503082057042225,0.9984336425113871,-0.040952732507775584,-0.03052340632275308,0.022835430104258963
1638.6833333321717,-0.002527955,-0.6811499,0.030416736,-2.412898,0.06469441,1.6685435,0.7141265,0.04,0.04,-0.031194292095615417,-0.00851127751581443,-0.0006763368095574762,-0.08146096739755093,0.04974437623692324,0.053011161138509386,0.9983766674798344,-0.041662325015764036,-0.031077791290405332,0.023290585966245014
1638.6999999988384,-0.0025777712,-0.6792292,0.03098179,-2.4139502,0.0658955,1.670358,0.7127901,0.04,0.04,-0.03017528134743319,-0.008298836000709964,-0.0009979526101489,-0.08180105497357883,0.05019440761522295,0.05351465321297259,0.998318322869106,-0.042374925842840756,-0.0316358598509234,0.02375003694990258
1638.716666665505,-0.0026279546,-0.67729414,0.031551104,-2.4150097,0.06710564,1.6721858,0.71144354,0.04,0.04,-0.029215235043378307,-0.008148082571482473,-0.001492251958601365,-0.08212581996460065,0.050635904936066484,0.054013454896973276,0.9982585968921552,-0.043090455495662726,-0.0321975111994211,0.024213769814814302
1638.7333333321717,-0.0026784996,-0.6753448,0.03212461,-2.4160771,0.06832471,1.6740272,0.7100871,0.04,0.04,-0.029846962527102505,-0.007888104487084602,-0.0019418818051564202,-0.08243517591673408,0.051072314805707855,0.05450721030507151,0.9981974778970568,-0.04380874381986434,-0.032762795200793136,0.02468174093355608
1638.7499999988383,-0.0027293998,-0.6733813,0.032702245,-2.4171526,0.06955255,1.6758819,0.708721,0.04,0.04,-0.03030640061068013,-0.007652307115731116,-0.002665844213978197,-0.08272937760401625,0.051500060550591004,0.05499596651105344,0.9981349468255851,-0.044529635394349676,-0.03333197038252033,0.02515391117801729
1638.766666665505,-0.0027806496,-0.6714043,0.03328396,-2.4182355,0.07078902,1.6777496,0.70734525,0.04,0.04,-0.028384678973258914,-0.0074669339594310435,-0.002748647305561569,-0.08300852689249717,0.05191743312618019,0.05547492403223493,0.9980710128932309,-0.04525303516852143,-0.0339044024596158,0.02563020725966116
1638.7833333321717,-0.0028322435,-0.6694137,0.033869687,-2.4193258,0.07203399,1.6796303,0.70596015,0.04,0.04,-0.02854919323267424,-0.007244426305079432,-0.003158506410616546,-0.08327244424908367,0.05232858114736809,0.055951261523497275,0.9980056634222311,-0.04597875822034117,-0.034480231529126666,0.02611059561491864
1638.7999999988383,-0.0028841759,-0.66740966,0.034459364,-2.4204237,0.07328733,1.6815236,0.70456564,0.04,0.04,-0.028824887680745093,-0.007014018644853348,-0.0038275860063441414,-0.08352097317391269,0.05273246487661125,0.056423034220509566,0.9979388790944945,-0.04670676754519919,-0.035059593956511564,0.026595043310871425
1638.816666665505,-0.0029364405,-0.6653925,0.03505292,-2.4215295,0.07454891,1.6834292,0.7031619,0.04,0.04,-0.028953598177605677,-0.00676879200495889,-0.004541486720488486,-0.08375387917739313,0.05312701685464245,0.05688913715827858,0.9978706482807508,-0.047436908976043336,-0.03564256984674162,0.027083503858861373
1638.8333333321716,-0.002989031,-0.66336226,0.035650294,-2.4226418,0.07581858,1.6853476,0.70174915,0.04,0.04,-0.026519011290315753,-0.00661733393844538,-0.003568081782834298,-0.08397054659704847,0.05350881873569609,0.05735031453981894,0.9978009934514925,-0.04816903063919559,-0.03622831807650348,0.027575912021954526
1638.8499999988383,-0.0030419405,-0.6613194,0.036251415,-2.4237611,0.07709621,1.6872778,0.7003274,0.04,0.04,-0.027351600899572226,-0.006345974401367194,-0.005042480908223901,-0.08417208356449293,0.05388782502904557,0.057804490167395056,0.9977298863950849,-0.04890306681356996,-0.0368173034892299,0.028072228519667345
1638.866666665505,-0.0030951651,-0.659264,0.036856215,-2.4248874,0.078381635,1.6892197,0.6988971,0.04,0.04,-0.02681763104763757,-0.006120886931729186,-0.005351889874471993,-0.08435702950653821,0.054256022741971055,0.058254284123447235,0.9976573306802076,-0.049638727501130825,-0.03740943245466617,0.028572392891235268
1638.8833333321716,-0.0031486973,-0.6571963,0.037464626,-2.4260192,0.079674736,1.6911728,0.6974584,0.04,0.04,-0.02449336658694179,-0.00598258996080403,-0.004910298649285494,-0.08452770609513423,0.054614712478922856,0.0586959756375475,0.9975833345734247,-0.05037596328751943,-0.038004189113697046,0.02907635661549567
1638.8999999988382,-0.0032025315,-0.6551165,0.038076594,-2.4271574,0.08097535,1.6931373,0.6960112,0.04,0.04,-0.02564278578915946,-0.005704665754879823,-0.005872354177527406,-0.08468306780654938,0.054968800112394106,0.05913016580490571,0.997507880586308,-0.051114698834700614,-0.03860180101491926,0.02958406141242813
1638.9166666655049,-0.0032566593,-0.6530251,0.038692027,-2.4283023,0.08228334,1.6951131,0.69455564,0.04,0.04,-0.025547430802053128,-0.005427626537987673,-0.006416114965723807,-0.08482197803271335,0.05531511425772101,0.05956120495132208,0.997430966381732,-0.05185480550648313,-0.0392021692142704,0.03009545443392943
1638.9333333321715,-0.0033110764,-0.6509221,0.03931088,-2.429454,0.08359856,1.6970996,0.6930923,0.04,0.04,-0.026036057591882766,-0.005214758080064608,-0.0073051746356078695,-0.08494515636038169,0.055651838732972456,0.059982805717063464,0.9973525808604237,-0.052595964841397606,-0.03980567805059107,0.030610487228844567
1638.9499999988382,-0.0033657753,-0.6488078,0.03993307,-2.4306118,0.084920846,1.699097,0.6916212,0.04,0.04,-0.024102367898515276,-0.005004857798733553,-0.006700406865545183,-0.08505394496698843,0.05597736782944082,0.06039848833535874,0.9972727453201371,-0.05333811231061231,-0.040411604552755304,0.03112907698999345
1638.9666666655048,-0.0034207506,-0.6466826,0.040558517,-2.431776,0.08625005,1.701105,0.6901426,0.04,0.04,-0.024517148535352362,-0.00473165092233635,-0.007781197433787135,-0.08514812128805502,0.05629473097737629,0.060806262449955614,0.9971914479119551,-0.0540810645418282,-0.041020209282360644,0.031651178488525285
1638.9833333321715,-0.003475994,-0.64454645,0.041187152,-2.4329462,0.08758604,1.7031235,0.6886563,0.04,0.04,-0.02379812803081638,-0.004534813639800461,-0.007613830974895208,-0.08522749925368774,0.05660304593152354,0.061208608452271676,0.9971086844143052,-0.054824867122551135,-0.04163127103432945,0.03217674133025745
1638.9999999988381,-0.0035315,-0.64239985,0.041818906,-2.434122,0.088928625,1.7051518,0.6871624,0.04,0.04,-0.022901036357270144,-0.004296483778179483,-0.00826544246645966,-0.08529139233538856,0.05690242376585401,0.06160071993220537,0.9970244541694118,-0.055569430127522156,-0.04224469301397912,0.032705689652471816
1639.0166666655048,-0.0035872597,-0.6402429,0.04245371,-2.4353037,0.090277664,1.7071899,0.68566096,0.04,0.04,-0.022857584195601355,-0.004068362796549874,-0.008581419287367886,-0.08533902339668593,0.057193995075507,0.061986167668509354,0.9969387491180773,-0.056314703446065366,-0.04286049489242225,0.033237970158264525
1639.0333333321714,-0.0036432692,-0.6380757,0.043091487,-2.4364905,0.09163302,1.7092373,0.68415296,0.04,0.04,-0.021961180260721136,-0.0038671427582681606,-0.008830682783211863,-0.08536957252501501,0.057475496612366866,0.06236669233851773,0.9968515943666723,-0.057060146280659384,-0.04347859400828194,0.03377351592766678
1639.049999998838,-0.0036995213,-0.6358989,0.04373216,-2.4376826,0.09299452,1.711294,0.68263775,0.04,0.04,-0.021302182191806907,-0.003605499158944314,-0.00918490373038594,-0.08538723281441182,0.05774724519160833,0.06273658198836758,0.996762978284185,-0.057806041794802074,-0.044098702776597234,0.03431225826843844
1639.0666666655047,-0.0037560074,-0.6337125,0.044375643,-2.4388802,0.09436199,1.71336,0.68111616,0.04,0.04,-0.021647541476577103,-0.0033358232608943217,-0.009674916186797056,-0.08538797202964597,0.05801157136345929,0.06309934941734392,0.9966729140745264,-0.05855191564920297,-0.04472097446333545,0.034854124103901186
1639.0833333321714,-0.003812722,-0.63151675,0.04502188,-2.4400826,0.095735304,1.7154346,0.6795883,0.04,0.04,-0.020203261500362224,-0.0031786691679303036,-0.009748307937473832,-0.08537543779563844,0.058266559937089415,0.06345500536962971,0.996581411317236,-0.05929769458075294,-0.04534513492278188,0.0353990504560307
1639.099999998838,-0.003869658,-0.6293119,0.04567079,-2.44129,0.09711428,1.7175176,0.67805386,0.04,0.04,-0.02042778451734062,-0.0028995900381745265,-0.010355355050450932,-0.08534919212092223,0.058512794816775446,0.06379786858217695,0.9964884494859755,-0.06004350523793935,-0.04597131762414961,0.03594698145432489
1639.1166666655047,-0.003926808,-0.62709856,0.046322297,-2.4425025,0.09849872,1.7196091,0.6765132,0.04,0.04,-0.02008029673159495,-0.002617359843659628,-0.010897416996180631,-0.08530621581895712,0.05874835717420257,0.06413586819576517,0.99639404672749,-0.06078909987051991,-0.046599343976782594,0.03649780985048361
1639.1333333321713,-0.0039841654,-0.6248766,0.04697631,-2.4437194,0.09988849,1.7217088,0.67496675,0.04,0.04,-0.018640696715199745,-0.0024438881438298976,-0.010552883550207781,-0.0852486411123121,0.05897514137132073,0.06446656686224002,0.9962982238449447,-0.061534246394370974,-0.0472289444166304,0.03705148436130657
1639.149999998838,-0.0040417216,-0.6226464,0.047632758,-2.4449408,0.10128341,1.7238164,0.67341465,0.04,0.04,-0.018683742996938868,-0.0021807023854431007,-0.011088064273945264,-0.08517736470956473,0.059193769573520544,0.06478668649091354,0.9962009818916118,-0.06227884548952046,-0.047860143596605835,0.037607921208079695
1639.1666666655046,-0.004099471,-0.6204083,0.04829158,-2.4461665,0.10268334,1.7259313,0.671857,0.04,0.04,-0.017928324567528797,-0.0019955420237999233,-0.011720756844280089,-0.08509197537961019,0.0594040589722615,0.06509921880842688,0.9961023197800405,-0.06302282138603213,-0.04849296553448166,0.03816706442782611
1639.1833333321713,-0.004157407,-0.6181626,0.048952676,-2.447397,0.104088105,1.7280536,0.670294,0.04,0.04,-0.018371380936921256,-0.001675522091595938,-0.012243812776446816,-0.08499251036601473,0.05960388007809553,0.06540291981151376,0.9960022408916237,-0.06376602177643342,-0.04912746497180279,0.038728836686838616
1639.199999998838,-0.00421552,-0.6159092,0.049615983,-2.4486315,0.10549756,1.7301828,0.66872555,0.04,0.04,-0.01727775203308468,-0.001527298806774935,-0.012175375812950584,-0.08487862789385608,0.059793855346250646,0.06569862600100985,0.9959007458601212,-0.06450846799812057,-0.04976351419498935,0.03929318779069478
1639.2166666655046,-0.0042738053,-0.6136487,0.050281413,-2.4498699,0.10691146,1.7323186,0.6671523,0.04,0.04,-0.0163312005390992,-0.0012324212333908457,-0.012427934050474043,-0.0847498689372245,0.05997235219964006,0.06598429351700297,0.995797866123288,-0.06524984804793368,-0.05040088180617715,0.03985998328132333
1639.2333333321712,-0.0043322537,-0.61138153,0.050948888,-2.4511118,0.10832971,1.734461,0.6655741,0.04,0.04,-0.015373956239872477,-0.0010725663918520478,-0.012670212917242907,-0.08460826739235057,0.0601406747964951,0.06626092605974963,0.9956936088963625,-0.0659901958914254,-0.05103931933278378,0.04042918662544101
1639.249999998838,-0.004390859,-0.60910755,0.051618326,-2.4523573,0.10975212,1.7366098,0.66399145,0.04,0.04,-0.015466175291067863,-0.000795036803741267,-0.012679731454201537,-0.0844520319715219,0.06030253288985929,0.06652808632905886,0.9955879943054793,-0.06672920423620779,-0.05167883160533875,0.041000698295300946
1639.2666666655045,-0.004449614,-0.60682714,0.052289642,-2.4536068,0.111178525,1.7387649,0.66240436,0.04,0.04,-0.01586103816726414,-0.0005228616136054853,-0.013585098245938454,-0.08428288207382904,0.06045504917196087,0.06678696687883134,0.9954810100622483,-0.06746685668150902,-0.05231964791927334,0.041574466882520075
1639.2833333321712,-0.0045085116,-0.60454077,0.052962765,-2.454859,0.112608716,1.7409254,0.6608129,0.04,0.04,-0.013053493982928543,-0.0003834212531472758,-0.013149955246105627,-0.08410055578283915,0.06059637249489133,0.06703535640532673,0.9953726898086196,-0.06820314080165656,-0.05296117277174324,0.04215037540265096
1639.2999999988378,-0.0045675407,-0.6022486,0.053637616,-2.4561148,0.11404257,1.7430917,0.65921754,0.04,0.04,-0.014308434981247231,-0.0001018774137301337,-0.013945463276154868,-0.0839045402494473,0.06073056933734636,0.06727418368560188,0.9952630383566833,-0.06893777650695118,-0.05360367503627379,0.04272836849104225
1639.3166666655045,-0.0046266974,-0.59995073,0.054314107,-2.4573731,0.11547988,1.7452629,0.65761834,0.04,0.04,-0.012825648256642452,9.533510955672675e-05,-0.013889650395038089,-0.08369571976323455,0.06085443512512137,0.06750343566162978,0.9951520649691199,-0.06967072295388979,-0.05424706364695191,0.04330835989116049
1639.3333333321712,-0.0046859747,-0.5976478,0.054992147,-2.4586344,0.116920464,1.7474389,0.6560154,0.04,0.04,-0.012365612029530126,0.00036573813422813295,-0.014348622824500445,-0.08347390940007984,0.06096786809236679,0.06772286778989171,0.9950397875865299,-0.07040192093660683,-0.05489112678129316,0.04389025915700719
1639.3499999988378,-0.0047453633,-0.59533983,0.055671662,-2.4598985,0.11836416,1.7496201,0.654409,0.04,0.04,-0.012197678666114875,0.0005943153848053662,-0.014276886091946217,-0.08323900728203061,0.061072843880810995,0.06793245540885162,0.9949262298442908,-0.07113119171587141,-0.05553571772408039,0.04447397879408394
1639.3666666655045,-0.0048048557,-0.5930273,0.05635257,-2.461165,0.11981082,1.7518055,0.65279925,0.04,0.04,-0.011046425724736686,0.0007710389634763004,-0.014687363391496788,-0.08299155747574674,0.06116872521896935,0.06813306520398428,0.9948113995173178,-0.07185848825408532,-0.05618080474532246,0.045059452220383794
1639.383333332171,-0.004864445,-0.5907104,0.057034794,-2.4624343,0.12126023,1.7539952,0.6511865,0.04,0.04,-0.01151620549082466,0.0010663684795686468,-0.015343247430377183,-0.08273122882092983,0.06125622372757997,0.06832258315138383,0.9946953058249606,-0.0725835989869952,-0.05682657041732055,0.04564658390820064
1639.3999999988378,-0.004924124,-0.5883893,0.057718243,-2.4637055,0.12271224,1.7561886,0.6495708,0.04,0.04,-0.009842875523036199,0.0012168436784698589,-0.0148744023170444,-0.08245911804623758,0.06133234703239601,0.0685032287588645,0.994577971896526,-0.07330654119595255,-0.05747265448078967,0.04623529845270858
1639.4166666655044,-0.004983884,-0.5860645,0.05840284,-2.4649787,0.12416668,1.7583858,0.64795256,0.04,0.04,-0.00908265816677023,0.001432188351638275,-0.015159863465563639,-0.08217455071825641,0.061399166771027774,0.06867264985437346,0.9944594327241371,-0.07402710008253154,-0.058118825682412334,0.04682549754840504
1639.433333332171,-0.0050437166,-0.5837361,0.059088502,-2.466254,0.12562332,1.7605865,0.6463318,0.04,0.04,-0.009456527111773028,0.0017360553937417755,-0.015534994077137654,-0.08187848787168182,0.06145925190447954,0.06883188474544398,0.9943396884472848,-0.07474522532528778,-0.05876526200729252,0.0474170776286637
1639.4499999988377,-0.0051036156,-0.5814043,0.059775136,-2.467531,0.1270821,1.76279,0.64470875,0.04,0.04,-0.008510237305858759,0.0018397734376202068,-0.015860327207972702,-0.0815705120391225,0.061508871678838006,0.0689809746477772,0.9942187467802887,-0.07546079794519646,-0.05941202169515497,0.04801003230785179
1639.4666666655044,-0.0051635755,-0.57906973,0.060462665,-2.4688098,0.12854274,1.7649962,0.64308363,0.04,0.04,-0.008111624683948548,0.002165511770352291,-0.0162489066917626,-0.08125110207864429,0.06154769357146839,0.06911938338997424,0.9940966345488486,-0.07617372829504891,-0.06005893172098447,0.048604207809810056
1639.483333332171,-0.005223585,-0.5767323,0.061151,-2.4700897,0.13000499,1.767205,0.64145666,0.04,0.04,-0.006614352376410615,0.0023546632780091503,-0.01549924904800104,-0.08092034696202093,0.061576077308366034,0.06924756451028441,0.9939733905867522,-0.07688393241251394,-0.06070561250256509,0.04919947512882922
1639.4999999988377,-0.0052836398,-0.5743924,0.061840057,-2.471371,0.13146879,1.7694161,0.63982797,0.04,0.04,-0.006889689194355952,0.0025594645947646377,-0.016334894650915643,-0.08057858952061028,0.06159720812644898,0.06936551480561327,0.9938490146840095,-0.07759131303473445,-0.06135226916057813,0.04979581530627939
1639.5166666655043,-0.005343729,-0.5720505,0.06252976,-2.4726536,0.13293393,1.7716295,0.6381977,0.04,0.04,-0.006243404699435295,0.0027967163282488494,-0.016459140968350106,-0.08022562588453844,0.06160743944380284,0.0694729100398733,0.9937235376501231,-0.07829578785421847,-0.061998669003545975,0.05039310832048728
1639.533333332171,-0.0054038474,-0.5697068,0.06322002,-2.4739373,0.13440016,1.7738442,0.63656616,0.04,0.04,-0.0054514287642026815,0.0030205345693146146,-0.016713354270359027,-0.07986146924286198,0.06160953698103763,0.06956991139021973,0.9935969680503832,-0.0789972744798014,-0.06264493753895559,0.05099124931386947
1639.5499999988376,-0.005463985,-0.5673614,0.06391073,-2.4752219,0.13586743,1.7760607,0.6349335,0.04,0.04,-0.005112335224355391,0.003184829898356112,-0.01657921605462409,-0.07948681734671816,0.061601062430624576,0.06965663512653168,0.9934693353298778,-0.07969564763320373,-0.06329086641082259,0.05159020969624211
1639.5666666655043,-0.0055241347,-0.56501496,0.06460182,-2.4765072,0.1373355,1.7782784,0.63329995,0.04,0.04,-0.004032179430346616,0.0034192809252237,-0.016841316430027398,-0.0791013805099445,0.06158242908358899,0.06973344303086487,0.9933406717203632,-0.08039079850533302,-0.06393628795053716,0.05218985059298709
1639.583333332171,-0.00558429,-0.56266755,0.06529325,-2.4777927,0.13880418,1.7804967,0.6316657,0.04,0.04,-0.003159969521249195,0.0035320176101361067,-0.016789948818463074,-0.07870641224099485,0.06155633603712016,0.06979778912623015,0.9932109928183716,-0.08108270843748111,-0.06458114744333679,0.05279008933587056
1639.5999999988376,-0.0056444416,-0.5603195,0.065984905,-2.479079,0.14027332,1.7827164,0.63003105,0.04,0.04,-0.003373103297477087,0.003846492778916688,-0.016825879508886032,-0.07830107298287772,0.06152089238333491,0.06985233714328432,0.9930803396336669,-0.08177118612717664,-0.06522524456620038,0.05339081965764233
1639.6166666655042,-0.005704584,-0.5579711,0.066676676,-2.4803653,0.14174269,1.7849362,0.62839603,0.04,0.04,-0.0019640200743742398,0.004016241834578493,-0.017116460551513946,-0.07788662099545146,0.061477278433522575,0.06989541388407138,0.9929487170730055,-0.08245625980856694,-0.06586864107618452,0.053991967960349815
1639.6333333321709,-0.005764708,-0.5556226,0.06736847,-2.4816513,0.14321215,1.787156,0.62676096,0.04,0.04,-0.0013953417987044858,0.004200197716630605,-0.016980236397357018,-0.07746190979303844,0.06142365134733235,0.06992983165933231,0.9928161558680523,-0.08313778723441541,-0.06651122615534893,0.05459345909960672
1639.6499999988375,-0.005824806,-0.55327415,0.06806025,-2.4829373,0.14468153,1.7893758,0.625126,0.04,0.04,-0.0013525648625112296,0.004390382681232485,-0.01724300574683646,-0.07702817569744558,0.061362532181894525,0.0699524167041959,0.9926826775757539,-0.0838156939482639,-0.06715297872678958,0.055195185814725205
1639.6666666655042,-0.005884872,-0.5509262,0.0687519,-2.4842231,0.1461506,1.7915953,0.6234914,0.04,0.04,-0.0005105881207834173,0.00462808644840218,-0.017219096077991658,-0.07658540724996192,0.06129250067551237,0.06996434155252432,0.9925483163146294,-0.08448988064608697,-0.06779372933629518,0.05579704393676722
1639.6833333321708,-0.0059448965,-0.5485791,0.06944333,-2.485509,0.14761925,1.7938137,0.62185746,0.04,0.04,-0.0005762026384026342,0.004833881933130613,-0.018218649103740603,-0.0761341672215457,0.061212654673691025,0.06996579301563108,0.9924130659107233,-0.08516020944986966,-0.06843390098624683,0.056398994068487945
1639.6999999988375,-0.0060048713,-0.546233,0.07013448,-2.4867942,0.14908716,1.7960315,0.62022424,0.04,0.04,0.0005856000624415714,0.005046127188926275,-0.01727506459261452,-0.07567450220064571,0.0611214171867937,0.06995651051700613,0.9922769863862911,-0.08582669971467809,-0.06907288177015992,0.05700085006552312
1639.7166666655041,-0.0060647903,-0.5438883,0.07082527,-2.4880786,0.1505543,1.7982476,0.6185918,0.04,0.04,0.0016501405591951013,0.0051007670893304935,-0.017640937615293062,-0.07520665115281125,0.061021572001505625,0.06993708619695775,0.9921400782856554,-0.08648936145060303,-0.06971079025368483,0.05760261398068004
1639.7333333321708,-0.0061246436,-0.5415452,0.071515575,-2.489362,0.15202044,1.8004621,0.61696047,0.04,0.04,0.0021087031275124346,0.005377171285037008,-0.017525777897930972,-0.0747292613110982,0.060911201113263674,0.06990671293215597,0.9920023870313368,-0.08714802349327572,-0.07034743263173975,0.05820416520720899
1639.7499999988374,-0.0061844257,-0.53920406,0.07220534,-2.4906447,0.15348543,1.802675,0.6153305,0.04,0.04,0.0020621560111511172,0.005555333715845379,-0.01783553639038704,-0.07424427728653421,0.06079343580977867,0.06986558537058389,0.9918639323342259,-0.08780258101883204,-0.07098287919433545,0.05880541949684791
1639.766666665504,-0.006244129,-0.5368651,0.07289446,-2.4919257,0.15494902,1.8048856,0.61370206,0.04,0.04,0.003898893673315307,0.005716333912345051,-0.01730566829578617,-0.0737518953995733,0.06066514809806897,0.06981382236913701,0.9917247528875786,-0.08845305440657777,-0.07161681327951845,0.05940626003970356
1639.7833333321707,-0.006303745,-0.53452843,0.073582895,-2.493205,0.15641105,1.8070941,0.6120754,0.04,0.04,0.004050470988015142,0.0058553485973583674,-0.017151744997079277,-0.0732517223095997,0.06052890833944016,0.06974951463054495,0.9915848823996465,-0.08909932433157523,-0.07224916126707825,0.06000658377494692
1639.7999999988374,-0.0063632675,-0.5321946,0.07427051,-2.4944828,0.15787138,1.8093004,0.6104506,0.04,0.04,0.004866442198814269,0.006085586052509417,-0.01712577852350794,-0.07274415368927828,0.06038494875571204,0.06967872273227288,0.9914443639420523,-0.08974133414658107,-0.07287963210064541,0.06060631467104281
1639.816666665504,-0.006422689,-0.52986395,0.07495726,-2.4957595,0.15932988,1.8115032,0.6088279,0.04,0.04,0.003882829975943025,0.0062623625946389705,-0.018937814929431696,-0.07222958941604185,0.06023621875658822,0.06959518916613536,0.991303145123286,-0.0903790542551016,-0.07350915139187895,0.06120543833909371
1639.8333333321707,-0.0064819986,-0.52753663,0.07564304,-2.4970343,0.16078612,1.8137028,0.60720754,0.04,0.04,0.005764571711774913,0.006528445354714307,-0.017512169546085588,-0.07170794076797557,0.060071795035709336,0.06949912013039872,0.991161317958399,-0.09101239766076745,-0.07413694444426197,0.06180371124355035
1639.8499999988373,-0.0065411916,-0.525213,0.07632777,-2.4983072,0.16224019,1.8158996,0.60558957,0.04,0.04,0.006336997279721146,0.006567507575197529,-0.01726025497308381,-0.07117908159824178,0.059899729036766935,0.06939740895514426,0.9910189187441749,-0.09164134615607449,-0.07476271305855807,0.06240114663972611
1639.866666665504,-0.00660026,-0.52289325,0.07701137,-2.4995773,0.1636918,1.8180927,0.60397446,0.04,0.04,0.007961705935533026,0.006685634753011982,-0.016834145196020778,-0.07064410293633108,0.05972018084114397,0.06928186123110042,0.9908759904512856,-0.09226577591287745,-0.0753863342366781,0.06299760910331732
1639.8833333321707,-0.0066591967,-0.52057767,0.07769377,-2.5008454,0.1651409,1.8202817,0.60236216,0.04,0.04,0.006821856585226271,0.006889747900495902,-0.0180285985424522,-0.07010228247931015,0.05953697606537248,0.06915986267509322,0.9907325084606803,-0.09288569212617866,-0.07600831173412764,0.06359309258698198
1639.8999999988373,-0.006717993,-0.51826674,0.07837487,-2.5021112,0.16658713,1.8224663,0.60075307,0.04,0.04,0.008136601082497918,0.007124247289952423,-0.017827231225830964,-0.06955394810759827,0.05934218467302088,0.06902947604748445,0.9905885241483716,-0.09350098421731644,-0.07662843445594471,0.06418741939644447
1639.916666665504,-0.006776642,-0.5159604,0.07905456,-2.5033736,0.16803041,1.8246464,0.59914726,0.03999999,0.04,0.009654503540623693,0.007176418905729953,-0.016592904555357002,-0.06900103384022778,0.05913737552546533,0.06888411586593232,0.9904440923471822,-0.09411166318333306,-0.07724620420053631,0.06478054278903612
1639.9333333321706,-0.0068351375,-0.51365924,0.07973276,-2.504634,0.1694705,1.8268217,0.5975449,0.03999999,0.04,0.008508824596709097,0.007522376186278046,-0.018054380533194525,-0.06844214165535036,0.058926283750679376,0.0687272477474822,0.9902992046873741,-0.09471764565566164,-0.07786211008812777,0.06537235355735024
1639.9499999988373,-0.006893471,-0.5113634,0.08040942,-2.5058913,0.17090732,1.8289919,0.59594625,0.039999988,0.04,0.009780963762917594,0.007518839865292004,-0.01745870674909611,-0.06787804995334124,0.05870531784039473,0.06856062177464288,0.9901539009503013,-0.09531888660233302,-0.07847592939971115,0.06596279856588985
1639.966666665504,-0.0069516343,-0.50907314,0.0810845,-2.5071454,0.17234062,1.8311568,0.5943515,0.039999984,0.04,0.010931458846719089,0.007626693795104167,-0.016928239892455288,-0.06730863219973365,0.0584756670738778,0.06838369991153888,0.9900082293798858,-0.09591539062482175,-0.07908735574481335,0.06655173748809788
1639.9833333321706,-0.007009621,-0.50678885,0.08175785,-2.5083966,0.17377023,1.8333163,0.59276074,0.03999998,0.04,0.010649705824805622,0.007908801479067362,-0.017496739974265374,-0.06673417258167824,0.058237249382205314,0.06819610776719709,0.9898622033698734,-0.09650706643950595,-0.07969657758707872,0.0671391092276828
1639.9999999988372,-0.0070674233,-0.5045105,0.08242941,-2.5096443,0.175196,1.83547,0.5911743,0.03999997,0.04,0.011759118144816227,0.007961697159128422,-0.016861478983654088,-0.06615475438695428,0.05799135809389655,0.06799751220446376,0.9897158602766244,-0.09709387623514096,-0.08030343431708728,0.06772483703500204
1640.0166666655039,-0.007125037,-0.5022389,0.08309906,-2.5108883,0.17661777,1.8376178,0.5895924,0.03999996,0.04,0.012795121529496356,0.008160617035274376,-0.016733866365981065,-0.06557051855745015,0.05773676337535791,0.0677932539459711,0.9895692610736991,-0.09767574469859283,-0.08090755775051225,0.06830881007949029
1640.0333333321705,-0.007182451,-0.49997383,0.08376677,-2.512129,0.1780353,1.8397592,0.5880152,0.039999958,0.04,0.012074476656520616,0.008315290447052925,-0.0172128090656809,-0.06498280224384853,0.05747642142976711,0.06757511056897712,0.9894223907045923,-0.09825263873896425,-0.08150944007856367,0.06889094956029396
1640.0499999988372,-0.00723966,-0.49771568,0.08443245,-2.513366,0.17944849,1.841894,0.58644277,0.039999947,0.04,0.013378371109329379,0.008390003729888407,-0.016825602902148518,-0.06439114695503134,0.05720476809285108,0.06734888002539555,0.9892752878800964,-0.09882459802630282,-0.08210880977691049,0.06947119526617558
1640.0666666655038,-0.007296657,-0.49546483,0.08509601,-2.5145993,0.18085709,1.8440219,0.5848754,0.039999947,0.04,0.013463535444313557,0.008620485248458931,-0.017119194007575445,-0.06379441910395606,0.0569259945360476,0.06711496149428696,0.9891279801577669,-0.09939152051787568,-0.08270574758898284,0.07004943849816717
1640.0833333321705,-0.0073534357,-0.49322152,0.08575737,-2.5158284,0.18226103,1.8461428,0.58331335,0.039999947,0.04,0.014913330289290094,0.008618681422820074,-0.016256981145867933,-0.06319445329919327,0.05663674715998876,0.06687198642194354,0.9889805261877552,-0.09995336561136826,-0.08329985627800351,0.07062561481796029
1640.0999999988371,-0.0074099884,-0.49098593,0.08641648,-2.517052,0.18366018,1.8482562,0.5817565,0.039999943,0.04,0.016973621247129422,0.008533105419036846,-0.015037915906113142,-0.06259109525284548,0.05634023294733648,0.06661942527019142,0.9888329710338069,-0.10051032367713908,-0.0838906411553456,0.07119965278929587
1640.1166666655038,-0.007466307,-0.48875847,0.08707321,-2.518272,0.18505424,1.8503622,0.58020526,0.039999947,0.04,0.014557870507481141,0.009095828407917894,-0.017066019498579443,-0.06198316878958028,0.05604080766323202,0.06635801756339038,0.9886853002413171,-0.10106209738099167,-0.08447892699392245,0.07177144594925786
1640.1333333321704,-0.0075223865,-0.4865393,0.08772752,-2.5194871,0.18644314,1.8524604,0.57866,0.03999994,0.04,0.016601812915606473,0.008960546334174646,-0.01574683998315507,-0.061372605102416544,0.055732021328536385,0.0660856986971866,0.9885375833912491,-0.10160866905301155,-0.08506418987690326,0.07234091647782062
1640.149999998837,-0.0075782193,-0.48432878,0.08837931,-2.5206985,0.18782666,1.8545505,0.5771207,0.03999994,0.04,0.015559881499260797,0.009276604228830587,-0.016911001330877085,-0.060759656636014736,0.05541643557208431,0.06580651567237633,0.9883898007626326,-0.10215004033285753,-0.0856469125275312,0.07290800630178233
1640.1666666655037,-0.007633799,-0.4821271,0.089028515,-2.5219045,0.1892047,1.856632,0.5755874,0.039999943,0.04,0.01837020041084436,0.009134360781409834,-0.01521053963522423,-0.06014451343895551,0.055088811184202086,0.06551766909551288,0.9882420177057383,-0.1026863714155857,-0.0862264125308504,0.07347264353792765
1640.1833333321704,-0.007689118,-0.47993457,0.089675054,-2.5231047,0.19057705,1.8587047,0.57406026,0.039999936,0.04,0.019111578407637886,0.009241449275856906,-0.014916159852274014,-0.059525485151733906,0.05475562450542923,0.06521937914760324,0.9880942743947866,-0.10321762189049896,-0.08680256321950783,0.074034738184405
1640.199999998837,-0.007744169,-0.47775128,0.090318866,-2.5243006,0.19194351,1.8607692,0.57254004,0.039999936,0.04,0.017149791958148697,0.009616128627626397,-0.015869636240117835,-0.05890337059399159,0.05441779543843345,0.06491212810300408,0.9879466042557133,-0.10374339943660169,-0.08737577471881418,0.07459415664265902
1640.2166666655037,-0.0077989465,-0.47557777,0.09095986,-2.5254912,0.19330397,1.8628241,0.5710263,0.03999994,0.04,0.019124693119554337,0.009556499296553556,-0.015604943053348919,-0.05828127731483558,0.054069977192217206,0.06459605858709208,0.9877989972092579,-0.10426405434825627,-0.08794595226772275,0.07515089861719484
1640.2333333321703,-0.007853443,-0.4734141,0.091597974,-2.526676,0.19465826,1.8648701,0.5695197,0.039999936,0.04,0.02043361420387413,0.00959186838371262,-0.0140942725090909,-0.05765601321828261,0.053713999407203436,0.06427221091138585,0.98765156219909,-0.10477937350095685,-0.0885124538363819,0.07570482210735585
1640.249999998837,-0.007907651,-0.47126058,0.0922331,-2.5278559,0.19600628,1.8669063,0.56801975,0.039999936,0.04,0.018920539321087837,0.009867314628175805,-0.015898535130598468,-0.05702980038562404,0.05335481250949749,0.06394004036923955,0.9875042203470522,-0.10528954920409424,-0.08907611153758735,0.07625596356025117
1640.2666666655036,-0.0079615675,-0.4691174,0.09286521,-2.5290298,0.19734778,1.8689327,0.56652737,0.039999936,0.04,0.020999607093230566,0.009824442633596386,-0.014306026984045594,-0.05640084585375921,0.0529849911251649,0.06359923534824449,0.9873570902027782,-0.10579430453785282,-0.08963630094114544,0.07680413470148247
1640.2833333321703,-0.008015186,-0.46698493,0.09349421,-2.5301979,0.19868264,1.8709494,0.5650425,0.039999932,0.04,0.021488835619720703,0.009931774401195081,-0.014063476429804211,-0.05577136747749033,0.05260834435953611,0.06325092267838979,0.9872102023192034,-0.10629371481813049,-0.0901928533211304,0.07734928465624115
1640.299999998837,-0.008068498,-0.4648633,0.094119996,-2.5313594,0.2000107,1.8729556,0.563565,0.039999936,0.04,0.02232108374073949,0.009989160241924422,-0.013829553067123967,-0.05514116649768917,0.052226534983600525,0.06289462658487883,0.9870635569719031,-0.10678793369154352,-0.09074581935798273,0.07789138581970041
1640.3166666655036,-0.008121495,-0.4627528,0.09474257,-2.532515,0.20133187,1.8749511,0.5620953,0.039999932,0.04,0.021938380079378206,0.010063992866021776,-0.01424998601997629,-0.05450928652641571,0.0518395889218472,0.06253003522180887,0.9869171742979339,-0.10727683875512789,-0.09129539011032178,0.07843036839829264
1640.3333333321702,-0.008174175,-0.4606536,0.095361784,-2.5336647,0.20264584,1.8769356,0.5606334,0.039999932,0.04,0.02214948863521471,0.01032403810189153,-0.014374484296264534,-0.053876158675071006,0.05144423446043718,0.062157786084606134,0.9867710652335442,-0.10776044408216143,-0.09184171792708368,0.07896613424293805
1640.349999998837,-0.008226534,-0.45856616,0.09597759,-2.534808,0.2039526,1.8789093,0.5591794,0.03999993,0.04,0.02349898195330713,0.010278567431937224,-0.013271992830343748,-0.05324180411633078,0.051039562828485124,0.06177808575256827,0.9866253022574559,-0.10823881543676346,-0.0923841934089846,0.0794986326071161
1640.3666666655035,-0.008278559,-0.4564905,0.096589915,-2.5359452,0.205252,1.8808718,0.55773354,0.039999917,0.04,0.022742030059741403,0.010415146086548144,-0.014068399937006149,-0.05260596882018214,0.05062965486466331,0.06139057054263562,0.9864798641797811,-0.10871187700117597,-0.09292335385186179,0.08002784312752423
1640.3833333321702,-0.008330251,-0.45442683,0.097198725,-2.5370753,0.2065438,1.8828229,0.55629635,0.039999917,0.04,0.024864392007128977,0.010376513012058663,-0.01240163677171946,-0.051969453890492706,0.05021020335954961,0.060995696095693996,0.9863348602604377,-0.10917950844821765,-0.09345853744937509,0.08055358556794388
1640.3999999988368,-0.0083816005,-0.4523756,0.09780391,-2.538199,0.20782791,1.8847624,0.55486757,0.039999917,0.04,0.024300734443105654,0.010570707216225883,-0.013162845535141798,-0.05133375016942318,0.0497864812269463,0.060592919173173596,0.9861902683816233,-0.10964186098578618,-0.09399000614678085,0.08107586332246806
1640.4166666655035,-0.008432601,-0.4503368,0.09840543,-2.539315,0.20910417,1.8866905,0.55344766,0.039999917,0.04,0.026175582368814787,0.010473642339264844,-0.01138900036758983,-0.05069691429350047,0.049356714387642234,0.060183979256718145,0.9860461880063855,-0.11009884066858051,-0.0945171331332729,0.08159455830983724
1640.4333333321702,-0.008483252,-0.44831073,0.09900319,-2.5404239,0.2103725,1.8886061,0.5520365,0.039999913,0.04,0.025612770542671193,0.010581340648885273,-0.012533915643975213,-0.050060755150329865,0.04892476735710714,0.05976810235953344,0.9859025614409042,-0.11055054819092797,-0.09504056987944307,0.08210971754877962
1640.4499999988368,-0.00853354,-0.44629785,0.09959714,-2.5415263,0.21163268,1.8905095,0.55063426,0.039999917,0.04,0.02524127199954318,0.010818125243516885,-0.012829987606521875,-0.049424569606566,0.048484901240598344,0.05934410201514961,0.9857594250872916,-0.11099696718172937,-0.09556026680256845,0.08262121117880153
1640.4666666655035,-0.0085834665,-0.44429806,0.10018721,-2.5426214,0.21288462,1.8924005,0.54924136,0.03999991,0.04,0.02650914154669337,0.010745265104245005,-0.011615024461431034,-0.04878785010128931,0.048037428134217755,0.0589124804835024,0.9856168423654789,-0.11143797292792502,-0.09607596144278903,0.08312898332147141
1640.48333333217,-0.008633023,-0.44231182,0.10077335,-2.5437086,0.2141281,1.8942788,0.5478578,0.039999906,0.04,0.027782685415456143,0.010752036355354821,-0.011024664125813821,-0.04815225299692409,0.04758415173769934,0.05847658962446296,0.9854748521900948,-0.11187370220604274,-0.09658737755362073,0.08363294179292506
1640.4999999988368,-0.0086822,-0.44033927,0.10135549,-2.5447881,0.21536303,1.896144,0.5464837,0.039999902,0.04,0.027548959271816997,0.010839835334341963,-0.011229045041005747,-0.04751700767884992,0.04712662680052035,0.05803340096182344,0.9853334552293783,-0.1123041800454858,-0.09709470804727677,0.0841330542608536
1640.5166666655034,-0.008730997,-0.43838063,0.101933524,-2.5458605,0.21658926,1.8979964,0.54511917,0.039999887,0.04,0.02717006373587072,0.011064158272017233,-0.011420453107002793,-0.04688157987785574,0.04666531956894554,0.05758388991519549,0.9851926771402135,-0.11272932017204415,-0.09759802953659862,0.08462927338351102
1640.53333333217,-0.008779411,-0.43643612,0.102507435,-2.5469253,0.21780665,1.8998355,0.5437648,0.03999988,0.04,0.028080774865579805,0.010988909784725998,-0.010945280021523729,-0.046247533336160884,0.046196349979116744,0.057126578778756654,0.9850525683140363,-0.11314896804573918,-0.09809728264182795,0.08512151212469313
1640.5499999988367,-0.008827432,-0.4345059,0.10307714,-2.5479825,0.21901515,1.901661,0.5424204,0.039999876,0.04,0.02830495731898086,0.011031195123256676,-0.010752920251011489,-0.04561536477401461,0.045721399584769964,0.0566669234991505,0.9849131286867906,-0.11356331773927981,-0.09859243557151345,0.08560977428145622
1640.5666666655034,-0.008875058,-0.4325902,0.1036426,-2.5490317,0.22021458,1.9034729,0.5410858,0.039999876,0.04,0.028853183716259778,0.011074137103328496,-0.0103658976308596,-0.04498432354525525,0.045240283168721,0.05620140044663971,0.984774375212363,-0.11397250036806797,-0.09908341453280445,0.08609399543215042
1640.58333333217,-0.008922284,-0.43068916,0.10420375,-2.550073,0.22140478,1.9052706,0.5397618,0.03999987,0.04,0.029404224594786754,0.011073618237827931,-0.010163427942044834,-0.0443536286661354,0.04475355807971118,0.0557281525929762,0.98463635900295,-0.11437624390994461,-0.09957028358005517,0.08657409535336733
1640.5999999988367,-0.008969102,-0.42880303,0.10476052,-2.5511057,0.22258568,1.9070542,0.53844786,0.03999986,0.04,0.030049515419561246,0.011102598376466766,-0.009471502655178377,-0.04372511311277374,0.04425899308101752,0.05525082277773544,0.9844990920506052,-0.11477487002530168,-0.10005275110944255,0.08705006581066539
1640.6166666655033,-0.009015509,-0.42693195,0.10531285,-2.5521305,0.22375713,1.9088238,0.53714466,0.039999858,0.04,0.02989668613593288,0.011218552982533714,-0.00938694541336993,-0.04309696974643555,0.043760825356622846,0.05476795211682275,0.9843626305321174,-0.1151681092885482,-0.10053084741680715,0.0875218083248392
1640.63333333217,-0.009061501,-0.42507625,0.10586069,-2.553147,0.22491899,1.9105791,0.53585213,0.03999985,0.04,0.03024013937058534,0.011260050724626325,-0.009462676374072387,-0.04247154705560157,0.043258084569463756,0.054280182593000534,0.9842269734438753,-0.11555608889389868,-0.10100465968157793,0.08798928223177534
1640.6499999988366,-0.009107076,-0.42323604,0.10640398,-2.5541549,0.22607112,1.9123197,0.5345702,0.039999846,0.04,0.031414899475978864,0.01120045132915748,-0.008465314935834911,-0.041847623590972355,0.04275017424430651,0.053787626605505276,0.9840921549421335,-0.11593895777947355,-0.1014739057049357,0.08845244547972204
1640.6666666655033,-0.009152226,-0.42141154,0.10694267,-2.555154,0.2272135,1.9140453,0.53329915,0.039999843,0.04,0.03129470470744078,0.011208780482574454,-0.008654374010630406,-0.04122505274702326,0.04223723740962872,0.05328812962337467,0.9839581869510134,-0.11631664009910275,-0.1019387384088856,0.0889112995053786
1640.68333333217,-0.009196949,-0.41960284,0.10747669,-2.5561447,0.22834595,1.9157561,0.53203917,0.03999983,0.04,0.03139697521410412,0.011327286248524748,-0.008365924492759191,-0.04060333835710556,0.04172010953188299,0.052785748969120694,0.983825102754727,-0.11668909005268813,-0.10239914124009157,0.08936576148401626
1640.6999999988366,-0.00924124,-0.4178101,0.108006,-2.557126,0.22946824,1.9174517,0.5307904,0.039999828,0.04,0.03262794145704184,0.011272133677264762,-0.007358050485306578,-0.039983942879134954,0.04119779471785896,0.05228020972747022,0.9836929493841763,-0.11705640237186399,-0.10285481642136712,0.08981573767744415
1640.7166666655032,-0.009285093,-0.41603374,0.10853055,-2.5580993,0.23058051,1.919132,0.52955294,0.039999828,0.04,0.03133989121757441,0.011379964257779429,-0.008732145513268286,-0.039366171301503175,0.04067295476680455,0.05177040865250016,0.9835616970979775,-0.11741846692787758,-0.10330628675779278,0.09026130257408221
1640.7333333321699,-0.009328505,-0.41427374,0.10905028,-2.5590632,0.23168254,1.9207965,0.5283268,0.039999817,0.04,0.033030186757909696,0.0112577887990295,-0.007227141051813213,-0.038751268887762966,0.040140649491447244,0.051256400650530644,0.9834313910328286,-0.11777545670388453,-0.10375315889929884,0.09070238667115674
1640.7499999988365,-0.0093714725,-0.41253027,0.10956515,-2.5600183,0.23277415,1.9224453,0.52711225,0.039999817,0.04,0.03253583570441698,0.011410181994242485,-0.007540001686212605,-0.03813763406416301,0.03960326608526603,0.05073825139355072,0.9833020457748625,-0.1181273089193316,-0.10419560922206521,0.09113890871241394
1640.7666666655032,-0.00941399,-0.4108036,0.1100751,-2.5609639,0.23385534,1.9240783,0.5259095,0.03999982,0.04,0.033884545825002554,0.011280612087988251,-0.006311344280196529,-0.037526523367561404,0.03906076741722002,0.05021521620657504,0.9831737322790135,-0.11847400001647437,-0.10463318801750865,0.09157084384204271
1640.7833333321698,-0.009456061,-0.40909377,0.110580094,-2.5619,0.23492597,1.9256957,0.5247184,0.039999813,0.04,0.033977148271113755,0.011309790313973611,-0.00602305147816562,-0.036918510267193144,0.038515256333131825,0.04968943469633665,0.9830464605201218,-0.1188156600196732,-0.10506586194906245,0.0919981524045498
1640.7999999988365,-0.009497673,-0.407401,0.11108008,-2.5628269,0.23598593,1.9272968,0.5235392,0.039999813,0.04,0.03342490854976177,0.011409701696940555,-0.006717711106984936,-0.03631279952452113,0.037968812050603484,0.04916016293190349,0.9829202109616516,-0.11915225386733708,-0.10549403500784667,0.0924208194034174
1640.8166666655031,-0.009538827,-0.40572542,0.11157502,-2.563744,0.2370351,1.9288815,0.52237195,0.03999981,0.04,0.034622719527566126,0.01131440981415599,-0.005596874995861256,-0.03570930157600902,0.03741616218195375,0.048627360997339275,0.9827950354449266,-0.11948385389063838,-0.1059173619665329,0.09283878175792891
1640.8333333321698,-0.009579519,-0.4040673,0.11206482,-2.5646522,0.23807341,1.9304497,0.52121675,0.039999805,0.04,0.03387894812170167,0.011484982738441118,-0.006386149356929494,-0.035108468827388065,0.03686169608813433,0.0480901778397074,0.9826709168631403,-0.11981042312457645,-0.10633619076227993,0.09325205732976173
1640.8499999988364,-0.009619746,-0.40242675,0.112549484,-2.5655506,0.23910072,1.9320012,0.5200738,0.039999798,0.04,0.03499187336086784,0.011354203966629228,-0.005279951775594149,-0.03451006945442005,0.036299995019505704,0.04755118807705527,0.9825479059515948,-0.12013202193035913,-0.10675021148297217,0.09366056889321325
1640.866666665503,-0.009659502,-0.4008038,0.11302898,-2.5664392,0.24011704,1.9335362,0.5189432,0.039999794,0.04,0.035067226125296,0.011297030997520219,-0.004906980015317863,-0.03391398140580625,0.035736243082953895,0.047010289901827894,0.9824260334825858,-0.12044860914329807,-0.1071593556792408,0.09406430662864675
1640.8833333321697,-0.009698788,-0.3991986,0.113503195,-2.567318,0.24112228,1.9350547,0.51782465,0.039999794,0.04,0.03521870115501535,0.011413546987276701,-0.004503269487310391,-0.03332013559838731,0.035169678905584256,0.04647090872340693,0.9823053061479642,-0.12076038292386473,-0.10756349763556354,0.09446327014263256
1640.8999999988364,-0.0097376,-0.39761138,0.11397218,-2.5681875,0.24211629,1.9365563,0.5167189,0.039999798,0.04,0.034784586962222086,0.011422283471912431,-0.0051252121392897365,-0.03272951753020889,0.034600392236185384,0.04592278957382647,0.9821857475822701,-0.12106705964167826,-0.10796297435120326,0.09485736916664445
1640.916666665503,-0.009775936,-0.39604223,0.11443585,-2.5690465,0.24309899,1.9380401,0.5156256,0.03999979,0.04,0.0364342193886813,0.011201572320107545,-0.004133211793622138,-0.03214368140876427,0.034025931541741106,0.045371983460335254,0.9820673337067517,-0.12136900744012401,-0.10835768605610532,0.09524666908442146
1640.9333333321697,-0.009813792,-0.3944912,0.11489416,-2.5698953,0.24407028,1.939508,0.5145451,0.03999978,0.04,0.036375167674562725,0.011384503502209764,-0.002641733563901738,-0.03155923007692721,0.033448495183281135,0.04481921666342797,0.9819502165106034,-0.12166600257127189,-0.10874682050686879,0.09563098421930602
1640.9499999988363,-0.009851164,-0.39295852,0.11534708,-2.5707347,0.2450302,1.9409572,0.51347715,0.039999776,0.04,0.03495641778419323,0.011341471300457817,-0.005688537348769174,-0.03097930823728182,0.032874370625491256,0.044264720899638205,0.9818341874739676,-0.121958218145072,-0.10913200989566639,0.09601055020332443
1640.966666665503,-0.009888056,-0.39144424,0.11579456,-2.571564,0.24597853,1.9423898,0.51242214,0.03999978,0.04,0.0365879194083929,0.011375036488436852,-0.0025463690781935,-0.030401072525635606,0.03228803424781833,0.043706665234732954,0.9817194583305686,-0.12224556305184053,-0.10951181396484065,0.09638511322503798
1640.9833333321697,-0.009924458,-0.38994852,0.11623661,-2.5723832,0.24691519,1.9438047,0.5113801,0.039999776,0.04,0.03628858361823806,0.011320133095504836,-0.0035341090540041975,-0.02982716920310539,0.031703969913274635,0.043147957570165194,0.9816059573810851,-0.12252814845491139,-0.10988686311419228,0.09675471350325708
1640.9999999988363,-0.009960374,-0.3884714,0.11667315,-2.5731921,0.24784018,1.9452015,0.510351,0.039999772,0.04,0.03661213580108402,0.011261946554769198,-0.003226252739563229,-0.029256367800729984,0.03111437733563162,0.0425870917160721,0.9814936878832724,-0.1228059858225297,-0.11025720771618336,0.09711940402453352
1641.016666665503,-0.009995799,-0.3870131,0.117104165,-2.5739908,0.24875344,1.946581,0.509335,0.03999977,0.04,0.036984444800713945,0.01127052413331664,-0.0022666267514903637,-0.028688263285041142,0.030520900993950897,0.04202541486363963,0.9813827296527131,-0.12307909324125871,-0.11062233940656824,0.09747908888842453
1641.0333333321696,-0.010030732,-0.3855737,0.11752962,-2.574779,0.24965495,1.9479425,0.508332,0.03999977,0.04,0.03725238088083671,0.011165281333042065,-0.002257711066500079,-0.028123846762738748,0.029927120044131394,0.041462294829076415,0.9812730570215826,-0.12334755330652308,-0.11098248588136679,0.09783382075951291
1641.0499999988363,-0.010065167,-0.38415325,0.11794952,-2.5755568,0.25054464,1.9492861,0.50734234,0.039999764,0.04,0.03738413109577454,0.01112365409258742,-0.0018956482283893905,-0.027562770662126736,0.02933043992540449,0.040896531837580366,0.9811647063006962,-0.12361131662644563,-0.11133755615043425,0.09818355311453224
1641.066666665503,-0.010099108,-0.38275188,0.1183638,-2.576324,0.25142235,1.9506117,0.50636584,0.039999764,0.04,0.03744651152179923,0.011212669768267958,-0.0017164189012097708,-0.027005380248126716,0.028732601453721862,0.040330538866381424,0.9810576779017693,-0.12387050721355977,-0.11168757305805797,0.09852825024856891
1641.0833333321696,-0.010132551,-0.38136962,0.11877243,-2.5770814,0.25228807,1.9519192,0.5054026,0.039999753,0.04,0.036421352851445654,0.011285072467404067,-0.002522049971065421,-0.026451144980454776,0.028133734473277924,0.039762390400614675,0.9809519454523729,-0.12412506002393683,-0.11203294727512333,0.09886793672424132
1641.0999999988362,-0.010165497,-0.3800066,0.11917541,-2.577828,0.2531418,1.9532086,0.5044528,0.03999976,0.04,0.038283824175811,0.011010386190529742,-0.0006523103956990184,-0.025900303368899806,0.027529054328346764,0.03919502415325174,0.9808475891253458,-0.12437506182998094,-0.11237303642181808,0.09920257853063041
1641.1166666655029,-0.010197941,-0.3786629,0.1195727,-2.5785635,0.25398344,1.9544796,0.50351673,0.039999757,0.04,0.0382978585648619,0.010992553749805678,-0.0005843317345988197,-0.025353194034119488,0.026924824447084106,0.03862541824024788,0.9807446227837255,-0.1246204237765781,-0.11270795346103037,0.09953216608303314
1641.1333333321695,-0.01022989,-0.37733856,0.119964294,-2.5792885,0.25481293,1.9557323,0.502594,0.03999975,0.04,0.037630593026038994,0.011079329784513536,-0.0008914791840730629,-0.024810860500558706,0.026319811496352874,0.03805638785287442,0.9806430180419438,-0.12486134733066523,-0.11303785664169673,0.09985668767894465
1641.1499999988362,-0.010261332,-0.37603372,0.12035017,-2.5800025,0.25563014,1.9569668,0.5016849,0.039999746,0.04,0.03848243538728813,0.010989675352435224,-7.406919837471548e-05,-0.02427156503925924,0.02571421351633496,0.03748591892165341,0.980542825769254,-0.12509780329232947,-0.113362511780806,0.10017608180911675
1641.1666666655028,-0.010292269,-0.37474826,0.12073029,-2.5807066,0.25643513,1.9581828,0.5007893,0.039999746,0.04,0.0369166505952645,0.011113901250703329,-0.0011574127778191112,-0.023735973578067525,0.025108058926333374,0.03691572544060789,0.9804439868503348,-0.12532981331155363,-0.11368245583864296,0.10049042630423366
1641.1833333321695,-0.010322703,-0.37348238,0.12110464,-2.5813992,0.25722793,1.9593801,0.49990726,0.039999746,0.04,0.0391441024937933,0.010733566600129585,0.000768037604115257,-0.023203456279594675,0.024498533543569526,0.036347530339356206,0.9803465715754817,-0.1255574810909269,-0.11399707116615956,0.10079973366947963
1641.1999999988361,-0.01035264,-0.3722361,0.12147321,-2.5820823,0.25800848,1.9605589,0.49903896,0.039999746,0.04,0.036455743835905885,0.01112470838569024,-0.0014929763589410783,-0.02267491859795604,0.02388967648607916,0.03577671082915628,0.9802505134208376,-0.12578062787684974,-0.11430724016068278,0.1011040030658424
1641.2166666655028,-0.010382074,-0.37100974,0.121835984,-2.582754,0.2587767,1.961719,0.4981843,0.039999742,0.04,0.03949555391755677,0.010710349924397677,0.0013778077143200562,-0.022150588252551895,0.023273400530536115,0.03520749485538727,0.9801559204350992,-0.12599954329895338,-0.11461188818078788,0.10140316470462331
1641.2333333321694,-0.010410997,-0.36980295,0.12219294,-2.583415,0.25953278,1.9628606,0.49734333,0.03999974,0.04,0.03772184510932863,0.010743016962921903,0.00023833612183832287,-0.021629538770704854,0.02266166749558511,0.03463840750241341,0.9800627374959564,-0.12621407257275724,-0.11491164487678304,0.10169735654501091
1641.249999998836,-0.010439415,-0.36861596,0.12254408,-2.584065,0.2602762,1.9639835,0.49651623,0.03999974,0.04,0.038914008668800015,0.010836999023206006,0.0014582399557871994,-0.021113515111757804,0.022047538695352142,0.03406678363727881,0.9799710296847378,-0.12642438204239254,-0.11520610161470309,0.10198632631179795
1641.2666666655027,-0.010467332,-0.3674488,0.12288938,-2.5847042,0.26100728,1.9650877,0.49570292,0.039999735,0.04,0.038288691964183386,0.010697938061360324,0.0008559823212239692,-0.020600145206547148,0.021434701362475758,0.033500085020056095,0.9798807607564456,-0.12663042142755312,-0.11549556629089947,0.10227025586940817
1641.2833333321694,-0.010494743,-0.36630142,0.12322884,-2.5853324,0.261726,1.9661733,0.49490333,0.03999974,0.04,0.038515746821699004,0.010608895241792649,0.0016515724679866395,-0.02009143367953318,0.020819391711777213,0.0329317306049675,0.9797919609509074,-0.12683228922514395,-0.11577979748032947,0.10254912072416265
1641.299999998836,-0.010521648,-0.36517388,0.12356247,-2.5859497,0.26243243,1.9672402,0.49411756,0.039999727,0.04,0.038577215373347684,0.010480983679650446,0.0016875022899043302,-0.019586330296730375,0.02020779424267022,0.032365056645429435,0.9797046305815176,-0.1270299550142971,-0.11605887736933418,0.1028229756910766
1641.3166666655027,-0.010548053,-0.36406615,0.12389021,-2.5865562,0.26312637,1.9682883,0.4933456,0.03999973,0.04,0.03814482483237569,0.010637163270510452,0.001465045698556544,-0.01908583671616386,0.01959488983233805,0.0317979504869585,0.9796187538199209,-0.12722348346472162,-0.11633300966308643,0.1030917711659612
1641.3333333321693,-0.010573953,-0.36297825,0.124212146,-2.587152,0.26380783,1.9693176,0.49258745,0.039999727,0.04,0.03810561240387145,0.0104879739273811,0.0016399121702592723,-0.01858924010793872,0.018983145694574904,0.031232056800296063,0.9795343334270434,-0.12741293183089922,-0.11660220955388748,0.10335549896857613
1641.349999998836,-0.0105993515,-0.3619103,0.124528185,-2.5877364,0.26447675,1.9703281,0.49184337,0.039999727,0.04,0.03927988342788957,0.01041111201739442,0.0029688959191087605,-0.01809597851488033,0.018368526266603277,0.030668749976832756,0.9794514453883174,-0.1275982585226211,-0.11686601228147915,0.10361411931853276
1641.3666666655026,-0.0106242495,-0.36086234,0.12483835,-2.58831,0.26513323,1.9713196,0.4911132,0.039999723,0.04,0.03821369930530061,0.010388078953138535,0.001884628915727049,-0.01760817621825981,0.01775896437500092,0.030106076067390682,0.9793700200605683,-0.12777952081314856,-0.11712493692156932,0.10386773810208241
1641.3833333321693,-0.0106486445,-0.35983422,0.12514265,-2.5888731,0.26577732,1.9722922,0.4903966,0.039999716,0.04,0.037727074596172194,0.01037330785884083,0.0019018419549210464,-0.0171240672280346,0.017147285668067357,0.029546015255280063,0.9792900398185451,-0.1279568606470562,-0.1173790331821199,0.1041163882142135
1641.399999998836,-0.010672542,-0.35882595,0.12544115,-2.589425,0.2664089,1.9732461,0.48969388,0.039999716,0.04,0.03869083900065462,0.010163545027735976,0.0031472189962133967,-0.016643530608782868,0.016534333339595017,0.02898644240286222,0.9792115694860958,-0.12813027990971385,-0.11762792633432355,0.104359975570725
1641.4166666655026,-0.010695945,-0.3578376,0.12573373,-2.5899663,0.26702803,1.9741814,0.48900506,0.039999716,0.04,0.0380991565528177,0.01029730155533981,0.0028080274143915673,-0.01616655938376921,0.01592509933579403,0.02842993592162965,0.9791346056581558,-0.12829969759553111,-0.11787175684938668,0.10459856852166739
1641.4333333321692,-0.010718849,-0.356869,0.1260205,-2.5904968,0.26763487,1.975098,0.48833,0.039999712,0.04,0.03790634022891037,0.01004952515669122,0.00283361220927425,-0.015695350618686467,0.01531645172600754,0.027873321459814387,0.9790591234819803,-0.1284652189088217,-0.11811064314820233,0.10483222897812979
1641.449999998836,-0.010741255,-0.3559202,0.12630141,-2.5910158,0.26822928,1.9759958,0.48766878,0.03999971,0.04,0.038817952381475784,0.009966960098500843,0.003908353179293833,-0.015227391971508245,0.014708618159706074,0.027321926980195265,0.9789851589333523,-0.12862691058166922,-0.11834431884163202,0.10506092832430376
1641.4666666655025,-0.010763168,-0.35499117,0.12657648,-2.5915244,0.2688112,1.976875,0.48702136,0.03999971,0.04,0.03750843910086399,0.010118650764678883,0.0029332454249519913,-0.014764297559341236,0.014104270641213043,0.026770200892357564,0.9789126830257412,-0.12878476941723502,-0.11857313285860799,0.1052846348789289
1641.4833333321692,-0.010784592,-0.35408175,0.12684579,-2.5920222,0.26938084,1.9777353,0.4863877,0.039999705,0.04,0.03757534087558412,0.009823647479578757,0.00318434961279479,-0.014304782563035317,0.013501278619134596,0.02622364505754655,0.9788416777577083,-0.12893882840970247,-0.11879716933364458,0.10550346426123437
1641.4999999988358,-0.010805526,-0.35319206,0.12710924,-2.592509,0.2699382,1.9785773,0.48576766,0.039999705,0.04,0.038084397934290415,0.009851380919273511,0.004110287595482376,-0.013850602073771357,0.012896737987486098,0.025676264535163428,0.9787721940505258,-0.12908916027314646,-0.1190160127469935,0.10571740425919053
1641.5166666655025,-0.010825975,-0.35232198,0.12736689,-2.5929854,0.27048326,1.9794005,0.48516133,0.03999971,0.04,0.03719798138253072,0.009850897389757085,0.003270964960089273,-0.013400615887686089,0.012297926176917912,0.02513218377187762,0.9787041819924707,-0.1292357430691046,-0.11923014499687838,0.10592648105100319
1641.5333333321691,-0.0108459415,-0.3514717,0.12761876,-2.5934515,0.27101606,1.9802052,0.4845687,0.039999712,0.04,0.03707613799455167,0.009782958258885976,0.003217934453303428,-0.012954234505761827,0.011698344306883185,0.024594253457766054,0.97863764773218,-0.1293786085316672,-0.11943954194120585,0.10613070204474295
1641.5499999988358,-0.010865423,-0.35064077,0.12786488,-2.5939064,0.27153662,1.9809914,0.48398957,0.039999705,0.04,0.03785880038504885,0.009516887713689748,0.004686701664158299,-0.01251315930712511,0.011100123789950886,0.024057371611931354,0.9785726153814261,-0.12951791612423585,-0.119643880670038,0.10633008815290512
