rsonawane2002/My_IMU/logs_2/traj_366/clean_366.csv
time,j1,j2,j3,j4,j5,j6,j7,gripper1,gripper2,imu_ax,imu_ay,imu_az,imu_gx,imu_gy,imu_gz,quat_x,quat_y,quat_z,quat_w
1271.7833333325054,0.00016700293,-0.785875,4.0107683e-05,-2.3551247,9.29385e-05,1.570997,0.786,0.04,0.04,0.0,-0.0,0.0,2.875329272945135e-08,-0.0011641195053377316,4.421952117202833e-08,0.9999995971961153,0.00020320632366974898,0.0008736418299892524,3.263050917662294e-05
1271.799999999172,0.00016700053,-0.78576016,4.0118586e-05,-2.3552213,9.297164e-05,1.5709941,0.786,0.04,0.04,-0.29199846046741307,-3.242460103675734e-05,0.02012840917362535,-8.659081097157221e-08,-0.002238954312353371,-2.165690683675727e-07,0.9999996850586141,0.00020320841384599816,0.0007665025198232879,3.260215132791993e-05
1271.8166666658387,0.00016696232,-0.7856542,4.0156337e-05,-2.35531,9.298561e-05,1.5709913,0.786,0.04,0.04,0.023196971890149243,2.1894072998568078e-05,-0.001602710540882235,-1.3385201321836363e-06,-0.003226900316268343,-2.251490381871983e-06,0.9999997558842841,0.00020321853592007076,0.0006677376585901305,3.255791883539526e-05
1271.8333333325054,0.00016682986,-0.7855566,4.0265924e-05,-2.355391,9.295355e-05,1.5709884,0.786,0.04,0.04,0.022263105858244536,5.325685361989418e-05,-0.0014234036207705358,-4.378906071809157e-06,-0.0041365996667676284,-7.683913364730342e-06,0.9999998123590847,0.00020325000837659025,0.0005769896329290218,3.24683376949638e-05
1271.849999999172,0.00016651987,-0.7854667,4.0511804e-05,-2.3554647,9.2837196e-05,1.5709856,0.786,0.04,0.04,0.021000023289508007,9.759251753441145e-05,-0.0010769192227977342,-1.0479420932851879e-05,-0.004972095301344769,-1.7977857998133053e-05,0.9999998569133367,0.0002033217070349166,0.0004937518222197138,3.229129301385443e-05
1271.8666666658387,0.00016592657,-0.7853836,4.0975865e-05,-2.3555315,9.2597395e-05,1.5709827,0.786,0.04,0.039999995,0.01933186024600797,0.00014682465246127017,-0.000839073879776997,-2.0702947864802435e-05,-0.005734841220336513,-3.368981843518514e-05,0.999999891680495,0.00020345756428811636,0.0004173983985702198,3.1978032959669287e-05
1271.8833333325053,0.0001649241,-0.78530675,4.1755946e-05,-2.355592,9.215477e-05,1.5709798,0.7859981,0.04,0.04,0.017456319785269514,0.00022949456086682608,-0.0008113467767634219,-3.58957548499531e-05,-0.006431542568320148,-5.832412664313182e-05,0.9999999186556076,0.00020273226147137418,0.00034727377139357374,3.145371341202201e-05
1271.899999999172,0.00016336828,-0.7852355,4.2963733e-05,-2.3556492,9.1452705e-05,1.570977,0.7859962,0.04,0.04,0.011868395757375083,0.00029938107411726185,-0.0017119314851710143,-4.900968027629858e-05,-0.007067975900172944,-9.055416750880257e-05,0.999999939446776,0.00020213214034326047,0.00028161959948620416,3.065034033996763e-05
1271.9166666658386,0.00016109896,-0.7851691,4.4723434e-05,-2.3556998,9.0418085e-05,1.5709741,0.7859943,0.04,0.04,0.01668408640203012,0.0003835827214931475,0.00022683727076699967,-6.950014238587132e-05,-0.007659824938835849,-0.00013214415118355689,0.9999999546458417,0.00020169323674361348,0.00022171741276123024,2.948799375268316e-05
1271.9333333325053,0.00015794158,-0.7851071,4.717059e-05,-2.3557436,8.8979985e-05,1.5709711,0.7859905,0.04,0.039999995,0.016118325437952663,0.0004691624142914841,0.0004145898984120322,-9.863990085843883e-05,-0.008194674946129403,-0.0001831742331728854,0.9999999655214048,0.0002005011814933549,0.0001672692444548253,2.7883062323885145e-05
1271.949999999172,0.00015370874,-0.7850485,5.0450635e-05,-2.355784,8.703921e-05,1.570968,0.78598666,0.04,0.039999995,0.009862234500057632,0.0005787695262392462,-0.0004619924696802613,-0.0001289712010830333,-0.00867348339266998,-0.00024594665747457417,0.9999999729980521,0.00019955199661065296,0.00011627834305922819,2.5734075056399028e-05
1271.9666666658386,0.0001482021,-0.7849933,5.4717788e-05,-2.3558187,8.4505074e-05,1.5709647,0.78598094,0.04,0.039999995,0.01299939985874854,0.0006830851478349187,0.00034103323105494354,-0.0001703496251286545,-0.009116344299305128,-0.00032031153031354426,0.9999999777247026,0.00019793651835389397,6.96090270778699e-05,2.294149853692098e-05
1271.9833333325053,0.00014121343,-0.78494066,6.0133934e-05,-2.3558466,8.1269216e-05,1.570958,0.7859736,0.04,0.04,0.013525296413052779,0.0008028476465737509,-0.0008508900624093485,-0.00021539105113365758,-0.009512277072333123,-0.0004076021365816731,0.9999999802949812,0.00019585051350964067,2.6009615573504863e-05,1.93936514578312e-05
1271.999999999172,0.00013252557,-0.7848902,6.6867404e-05,-2.3558712,7.724388e-05,1.5709513,0.7859652,0.04,0.04,0.008044417142016869,0.0009094735026629261,0.00027241134927802335,-0.0002663419261265666,-0.00987540613282062,-0.0005067523573294433,0.9999999810347884,0.0001936113426709136,-1.4847713087913106e-05,1.4987207423782867e-05
1272.0166666658386,0.00012191439,-0.7848411,7.5092474e-05,-2.3558903,7.232408e-05,1.5709444,0.78595483,0.04,0.04,0.010824042682755497,0.0010291990237499583,0.0014642101407336128,-0.0003271252774527708,-0.01020568480833054,-0.0006190060447700697,0.9999999803761213,0.00019082227813553768,-5.2366903847347904e-05,9.608472723472851e-06
1272.0333333325052,0.000109149245,-0.7847933,8.4988395e-05,-2.3559027,6.639831e-05,1.5709366,0.7859421,0.039999995,0.04,0.012424941582200866,0.0011552836783278696,0.0015695982523711294,-0.00039510988511266436,-0.010498715098291344,-0.0007455738348231888,0.9999999787170732,0.00018732651217357298,-8.639895976538195e-05,3.1385852898451295e-06
1272.0499999991719,9.399413e-05,-0.78474593,9.673842e-05,-2.3559108,5.9360787e-05,1.570926,0.7859268,0.03999999,0.039999995,0.006884837604426153,0.0012790074002515207,-0.0003583622754543825,-0.0004690592514244449,-0.010753915296488158,-0.000885061293833827,0.9999999760898252,0.00018311763848626253,-0.00011944731533239618,-4.540766441462313e-06
1272.0666666658385,7.620863e-05,-0.78469867,0.00011052941,-2.3559146,5.1099738e-05,1.5709151,0.7859095,0.039999988,0.039999988,0.007347896858167502,0.00140693217621219,0.001677272006683772,-0.0005499572235177575,-0.010990123903754962,-0.001037727661429341,0.9999999726730155,0.00017845831433284742,-0.00015040934489515289,-1.3550903658108322e-05
1272.0833333325052,5.5548884e-05,-0.7846512,0.0001265511,-2.355911,4.1500407e-05,1.5709008,0.785889,0.039999984,0.039999984,0.011265438842578135,0.0015374925667522741,0.0008397258900227911,-0.0006407266309431664,-0.011199753895213082,-0.001205498654540887,0.9999999686560014,0.00017289655069840237,-0.00017949376057013858,-2.4016013226321902e-05
1272.0999999991718,3.1767755e-05,-0.784603,0.00014499524,-2.3559017,3.044874e-05,1.5708861,0.78586555,0.03999998,0.039999977,0.008751659768480025,0.0016688891168480644,0.002739280686681056,-0.000738275549550275,-0.011384197406438918,-0.0013868250059850171,0.9999999642092936,0.00016651782750541874,-0.00020628346101981022,-3.606048030158753e-05
1272.1166666658385,4.616355e-06,-0.78455365,0.00016605569,-2.3558867,1.7827842e-05,1.570868,0.7858386,0.03999998,0.039999977,0.007374973763885073,0.001802287717193437,0.0006325917218052979,-0.0008436445547248545,-0.011538735896321874,-0.0015835427526822007,0.9999999590621793,0.0001591693468827817,-0.00023250716127255904,-4.981143376173986e-05
1272.1333333325051,-2.6156022e-05,-0.78450257,0.00018992717,-2.3558662,3.5216008e-06,1.570849,0.7858082,0.039999977,0.039999973,0.007102917475587667,0.0019354139079136058,0.002729507833554301,-0.0009565233550720446,-0.011677850165981746,-0.0017948833162850287,0.9999999533656901,0.00015090741327739937,-0.0002573306207206938,-6.5395121285771e-05
1272.1499999991718,-6.080085e-05,-0.7844496,0.00021680542,-2.3558393,-1.258723e-05,1.5708269,0.785774,0.039999973,0.03999997,0.00788383672885029,0.0020692529601175347,0.0017492843929378665,-0.0010777087337929983,-0.01179431077490352,-0.002020893652769845,0.9999999469465669,0.00014160960793771163,-0.00028137997929831795,-8.293907280519097e-05
1272.1666666658384,-9.957019e-05,-0.7843943,0.00024688616,-2.3558052,-3.0616065e-05,1.5708023,0.7857356,0.03999997,0.039999966,0.008854100657651465,0.0022034874623520187,0.0026291109017861913,-0.0012069155448140019,-0.011893510960640914,-0.0022615954789976965,0.9999999398584943,0.00013115372808967572,-0.000304238367820708,-0.00010257057476272923
1272.183333332505,-0.00014271594,-0.78433657,0.0002803653,-2.3557644,-5.0682385e-05,1.5707756,0.7856929,0.03999997,0.039999966,0.007892998805147933,0.002337705429471673,0.002817090406548317,-0.001343596868052467,-0.011972071305186793,-0.0025169816725931033,0.9999999319535161,0.00011950685383102345,-0.0003260850344376641,-0.00012441714197851113
1272.1999999991717,-0.00019048966,-0.7842756,0.00031743853,-2.3557167,-7.2903145e-05,1.5707457,0.7856456,0.03999997,0.039999966,0.0071673357377122215,0.002471268425563672,0.0025297531593526656,-0.0014880442198218604,-0.012030498197896372,-0.00278700955295433,0.9999999228264889,0.00010663595625882833,-0.0003476953577981172,-0.00014860594633416064
1272.2166666658384,-0.00024314172,-0.7842111,0.00035830055,-2.3556616,-9.739522e-05,1.5707122,0.78559357,0.039999973,0.03999997,0.007534204540649014,0.002604453085451509,0.0026465869741754133,-0.0016405522591041565,-0.012075316084914443,-0.0030716173884332955,0.9999999122259418,9.247796477462144e-05,-0.000369159361454722,-0.00017526351818357124
1272.233333332505,-0.0003009213,-0.7841429,0.00040314533,-2.3555992,-0.00012427465,1.570676,0.7855364,0.039999973,0.03999997,0.0075996891835572455,0.002736375535744781,0.003370338012276264,-0.0018011620280033581,-0.0121077903570117,-0.003370721583386459,0.9999999000206272,7.690972808400534e-05,-0.0003901499546434307,-0.00020451562817343634
1272.2499999991717,-0.000364076,-0.78407073,0.00045216538,-2.355529,-0.00015365613,1.5706367,0.7854738,0.039999973,0.039999966,0.007598969252242682,0.002867299593036737,0.003468899707281814,-0.001969363359390644,-0.012123440579569066,-0.0036833641991792657,0.9999998858614078,5.9837679158141255e-05,-0.00041081700077296113,-0.00023648681914589277
1272.2666666658383,-0.0004328517,-0.78399414,0.00050555187,-2.3554513,-0.00018565543,1.5705941,0.78540576,0.03999997,0.03999996,0.006985936308234741,0.0029987187037207297,0.0033500338409320207,-0.002144930462683179,-0.01212453503795888,-0.004011130444380189,0.9999998692024539,4.1287049122049635e-05,-0.0004316084866136384,-0.00027130162019124027
1272.283333332505,-0.0005074917,-0.78391296,0.0005634941,-2.3553658,-0.00022038531,1.5705477,0.7853319,0.03999997,0.03999996,0.007116852620825398,0.0031270018614138503,0.0033811313169263,-0.0023284866248570735,-0.012113787463597482,-0.004353022578833788,0.9999998495799962,2.1163219294269193e-05,-0.0004526149346518183,-0.00030908222854280807
1272.2999999991716,-0.0005882367,-0.78382677,0.0006261795,-2.3552718,-0.00025795828,1.5704975,0.7852519,0.03999997,0.03999996,0.007426682758970848,0.003254192838276495,0.003743178274340231,-0.002519537578131003,-0.012092800558081394,-0.004708879066899532,0.9999998264921384,-6.589616233885574e-07,-0.00047386742821053105,-0.00034994988137540246
1272.3166666658383,-0.00067532546,-0.7837352,0.00069379376,-2.3551693,-0.00029848533,1.5704434,0.7851656,0.03999997,0.03999996,0.007397228421401891,0.0033800398987963586,0.003964404553835621,-0.0027178807360829843,-0.012059994868061039,-0.005078527788601706,0.9999997993257091,-2.4215669544041562e-05,-0.0004954865956390367,-0.00039402433444291047
1272.333333332505,-0.0007689933,-0.78363794,0.00076651963,-2.3550582,-0.00034207638,1.5703851,0.78507286,0.03999997,0.03999996,0.006924934204666222,0.0035049624341762747,0.0039896732641597765,-0.0029233353435761736,-0.012018312336948186,-0.005461782732214484,0.99999976730283,-4.951390719184074e-05,-0.0005177720362944382,-0.0004414235801533405
1272.3499999991716,-0.0008694721,-0.7835348,0.000844538,-2.354937,-0.0003888392,1.5703225,0.7849734,0.03999997,0.03999996,0.009183697325010343,0.0036252241481893495,0.004611760444928059,-0.0031362443594717755,-0.01196827614047341,-0.005858447390984335,0.9999997300304114,-7.665123958836122e-05,-0.0005401294996717462,-0.0004922639692766377
1272.3666666658382,-0.0009769913,-0.78342575,0.00092802715,-2.3548067,-0.000438881,1.5702554,0.78486687,0.039999973,0.039999966,0.007759793233974577,0.003746723952792689,0.004180688852906123,-0.0033566896856777784,-0.011904770381875466,-0.00626830869409722,0.9999996864529337,-0.00010572552501715663,-0.0005630974293875507,-0.0005466602533060629
1272.383333332505,-0.0010917758,-0.78331053,0.0010171625,-2.354667,-0.0004923072,1.5701838,0.78475314,0.039999973,0.039999966,0.007560138845352782,0.003865088235651868,0.004282580977843509,-0.0035839558260418406,-0.011832008300999272,-0.006691144227732167,0.999999635651814,-0.00013677621695365653,-0.0005867674176074009,-0.0006047251467990999
1272.3999999991715,-0.0012140489,-0.78318834,0.0011121166,-2.3545177,-0.00054922083,1.5701076,0.784632,0.039999973,0.039999966,0.007039918473372708,0.0039826530649751625,0.004863024750689782,-0.0038181186151884493,-0.01175200165440604,-0.007126716514215101,0.9999995764902867,-0.00016984312203834073,-0.0006114398916353793,-0.0006665686910495469
1272.4166666658382,-0.0013440276,-0.78305966,0.0012130599,-2.3543575,-0.00060972304,1.5700265,0.7845033,0.039999973,0.039999966,0.00988175539535785,0.00409243412280479,0.004969884659011825,-0.004059076200956172,-0.011665453265409104,-0.007574812945026545,0.9999995083902303,-0.0002049976528415623,-0.0006363426480107053,-0.0007323000029597621
1272.4333333325048,-0.0014819265,-0.78292346,0.0013201587,-2.3541873,-0.0006739149,1.5699404,0.78436667,0.039999973,0.03999996,0.007100746862498397,0.004207758084240495,0.005027326434947632,-0.0043070759059439705,-0.0115659321833332,-0.008034302855312696,0.999999429552921,-0.00024231147851985763,-0.0006625216754810633,-0.0008020249432614512
1272.4499999991715,-0.0016279572,-0.78278035,0.0014335772,-2.3540065,-0.00074189395,1.5698496,0.7842219,0.039999973,0.03999996,0.00864261997408633,0.004316463648509454,0.005082579180926139,-0.004561535089613288,-0.011463220643991034,-0.008506660852312478,0.9999993391305005,-0.00028188660427244465,-0.0006893245225576528,-0.0008758482785627955
1272.4666666658381,-0.0017823252,-0.7826296,0.0015534764,-2.3538144,-0.00081375724,1.5697534,0.784069,0.039999973,0.03999996,0.009279585836940996,0.00442178616520939,0.005472818371488053,-0.004821922161864236,-0.011349645651536063,-0.008990838228888284,0.9999992356926433,-0.0003236484082531595,-0.0007169333178174516,-0.0009538723472511493
1272.4833333325048,-0.0019452334,-0.7824711,0.0016800133,-2.353612,-0.0008895988,1.569652,0.78390765,0.039999973,0.03999996,0.007157558042458767,0.004529666934757755,0.0050948610412548945,-0.005089789798738857,-0.011227841698896667,-0.009487261388528467,0.9999991173168183,-0.0003677306027212299,-0.0007459478808350218,-0.0010361957088641468
1272.4999999991715,-0.0021168801,-0.78230435,0.0018133427,-2.3533976,-0.0009695115,1.5695451,0.78373754,0.039999973,0.03999997,0.009356874203647614,0.004629272438883198,0.006060960580023256,-0.005363560951679784,-0.011102544577332594,-0.009995840446288592,0.9999989827480312,-0.0004142392505897709,-0.0007758656346536931,-0.0011229164095913262
1272.516666665838,-0.0022974582,-0.78212935,0.0019536153,-2.353172,-0.0010535836,1.5694325,0.78355867,0.039999973,0.039999966,0.008053827276688352,0.004727666297576218,0.005351645696594076,-0.005643109299528073,-0.010968367763681708,-0.010512593326794231,0.9999988298689072,-0.00046313190079197875,-0.0008072570283129574,-0.001214127567000459
1272.5333333325048,-0.0024871598,-0.78194565,0.0021009794,-2.3529348,-0.0011419063,1.5693145,0.7833707,0.039999977,0.039999973,0.008482096629469638,0.004828671546041447,0.006193282501842923,-0.005929101832399022,-0.010830205716245161,-0.011042730757339404,0.9999986569650012,-0.0005145454879946446,-0.0008398883723680893,-0.0013099231490070157
1272.5499999991714,-0.002686169,-0.7817537,0.0022555785,-2.352685,-0.0012345647,1.5691906,0.7831735,0.039999977,0.03999998,0.010474418319295076,0.0049191531651997245,0.005996756775350498,-0.006220830332718625,-0.010688530539427553,-0.011583148777998589,0.9999984624995837,-0.000568469199923398,-0.0008732877088501304,-0.0014103934965442246
1272.566666665838,-0.0028946663,-0.781553,0.0024175544,-2.3524237,-0.001331638,1.5690609,0.7829669,0.039999973,0.039999995,0.007785693028083962,0.00500876067478812,0.00580130068164042,-0.006518425259000122,-0.010534113795744399,-0.012134357077052758,0.9999982435872588,-0.0006249837442145093,-0.0009083544315211835,-0.0015156219660115739
1272.5833333325047,-0.0031128288,-0.7813431,0.0025870441,-2.3521495,-0.0014332178,1.5689253,0.7827507,0.039999973,0.039999995,0.009841923923237239,0.005103359386165107,0.006525483316099923,-0.006821647777970721,-0.010377967048771888,-0.012692911088969116,0.9999979984031455,-0.0006841400906410468,-0.0009445875561371032,-0.001625698738395517
1272.5999999991714,-0.003340829,-0.78112394,0.0027641826,-2.351863,-0.0015393858,1.5687834,0.7825248,0.039999977,0.039999988,0.00875365366033165,0.005191624304350033,0.006237018612575973,-0.007130111062594075,-0.010214999815001216,-0.01326012645871576,0.9999977241453623,-0.0007459607663381317,-0.0009824400770144942,-0.0017407062147247443
1272.616666665838,-0.0035788345,-0.78089535,0.0029491005,-2.3515642,-0.0016501993,1.5686352,0.782289,0.039999973,0.039999995,0.008173540500822085,0.0052612172283713916,0.0061108980819568615,-0.007444304141585416,-0.01004798786834096,-0.013838165457381289,0.9999974180135015,-0.0008104989750305137,-0.0010221567622091228,-0.0018607131146868526
1272.6333333325047,-0.003827008,-0.7806574,0.0031419247,-2.3512514,-0.00176576,1.5684811,0.7820433,0.03999998,0.04,0.011584338871561961,0.005355043217553776,0.007201532694378621,-0.007763699006884992,-0.009880342717849759,-0.014423419097473399,0.9999970785074404,-0.0008777503402997031,-0.0010625819910351946,-0.001985812286311454
1272.6499999991713,-0.0040855105,-0.78040975,0.0033427787,-2.350926,-0.0018861068,1.5683202,0.78178716,0.03999998,0.04,0.008490040344955041,0.005415305686505825,0.006142767702099761,-0.008088723174793238,-0.009698638322737143,-0.015018206685245549,0.9999967013497242,-0.0009478876141752529,-0.001105034397101122,-0.002116057117080091
1272.666666665838,-0.004354494,-0.7801521,0.0035517814,-2.3505874,-0.0020113394,1.5681527,0.7815206,0.03999998,0.04,0.009037748835916126,0.005509862506684893,0.006706388584265532,-0.008418457701956915,-0.009517695102727614,-0.015621261961358521,0.9999962837043411,-0.001020909135216564,-0.0011493128362607067,-0.0022515332662208383
1272.6833333325046,-0.004634109,-0.77988446,0.0037690517,-2.3502355,-0.0021415271,1.5679787,0.78124356,0.03999998,0.04,0.009538876323622603,0.0055793576250089474,0.006870857273333364,-0.00875239579226834,-0.009334519597775467,-0.016232285474152976,0.9999958226433053,-0.0010968137801577354,-0.0011952165217947266,-0.0023923112123626525
1272.6999999991713,-0.004924501,-0.7796068,0.0039947024,-2.3498697,-0.0022767347,1.5677979,0.7809558,0.03999998,0.04,0.010124388005161578,0.005647449722447594,0.006765415769605099,-0.009091540274315893,-0.009146186843887764,-0.016851063194120733,0.9999953147319143,-0.0011756890859920114,-0.0012427836932774143,-0.002538455846457429
1272.716666665838,-0.0052258126,-0.7793188,0.004228842,-2.3494895,-0.0024170321,1.5676103,0.78065723,0.03999998,0.04,0.01097137629766376,0.005719324512717082,0.0073812079592450175,-0.009435217622385701,-0.008954470718086537,-0.017477969290847613,0.9999947567952937,-0.0012575348481327167,-0.00129178458991731,-0.002690033568618346
1272.7333333325046,-0.0055381763,-0.77902037,0.004471578,-2.3490946,-0.0025624644,1.567416,0.7803477,0.03999998,0.04,0.010934108176274826,0.0057638655218777285,0.007506872811169352,-0.009783239238595077,-0.008754794336970831,-0.018111131320813847,0.999994145214209,-0.0013424149219166217,-0.0013421985959681608,-0.0028470971901149297
1272.7499999991712,-0.005861727,-0.7787113,0.004723012,-2.348686,-0.0027131112,1.5672147,0.78002703,0.039999977,0.04,0.009438083530510788,0.005848480206867247,0.007113391910507083,-0.010135718978943581,-0.008547334381439429,-0.01875186836307515,0.9999934753330942,-0.0014303891001204835,-0.0013946016516439618,-0.0030097116964306883
1272.7666666658379,-0.0061965906,-0.77839154,0.004983243,-2.348263,-0.0028690477,1.5670063,0.7796952,0.03999997,0.04,0.010030816107531315,0.005915736792695215,0.00722036255524916,-0.010492013224476654,-0.008337875509509794,-0.019399806056308276,0.999992743221124,-0.001521432080790983,-0.0014489440229586985,-0.0031779412727510766
1272.7833333325045,-0.0065428903,-0.77806103,0.005252367,-2.3478255,-0.0030303188,1.5667908,0.77935207,0.039999966,0.04,0.010425638256505998,0.00596286071023913,0.007330464497012912,-0.010852760082134595,-0.008126263072292436,-0.020052979281933662,0.9999919447905542,-0.0016156079033852945,-0.0015051170219685906,-0.003351833506893297
1272.7999999991712,-0.006900743,-0.77771956,0.0055304775,-2.3473737,-0.0031969682,1.5665681,0.77899724,0.039999966,0.04,0.009746393408938125,0.006006419787315696,0.00736336171855978,-0.011217260679496474,-0.007909643888650057,-0.020711121859114782,0.9999910750794803,-0.0017130732230432272,-0.0015633703605224694,-0.003531432377035176
1272.8166666658378,-0.007270263,-0.777367,0.005817661,-2.3469074,-0.003369058,1.5663382,0.77863103,0.03999996,0.04,0.009970599179487394,0.006066858956337972,0.007452999963786233,-0.011584825434765649,-0.007690271837940639,-0.021375597971076826,0.9999901297923045,-0.0018136552496319496,-0.001623714695142109,-0.0037167893664055616
1272.8333333325045,-0.0076515623,-0.77700335,0.0061140046,-2.346426,-0.003546625,1.566101,0.7782532,0.03999996,0.04,0.010768403687344552,0.006102975368771357,0.007670289793515472,-0.011956706638200337,-0.007469419222303306,-0.022044460919534367,0.9999891044479883,-0.0019174508596884563,-0.0016859235759216636,-0.003907944371072519
1272.8499999991711,-0.008044744,-0.7766283,0.0064195897,-2.3459294,-0.0037297325,1.5658562,0.77786356,0.039999958,0.04,0.010755447886312552,0.006157368672579308,0.007773414098211084,-0.012332448956336516,-0.007244487989488811,-0.022719045380206523,0.9999879937498815,-0.0020245299483825532,-0.001750158411730936,-0.00410494581074159
1272.8666666658378,-0.008449905,-0.77624196,0.006734494,-2.3454177,-0.0039184275,1.5656042,0.77746207,0.039999954,0.04,0.0104800693996987,0.00619793762017826,0.007814814476736487,-0.01271163631353398,-0.007015542376136257,-0.023398183088509106,0.9999867926297084,-0.0021349048235618524,-0.0018164019994747038,-0.004307833715371877
1272.8833333325044,-0.0088671455,-0.77584416,0.0070587946,-2.3448904,-0.0041127573,1.5653446,0.7770486,0.03999995,0.04,0.011435874295528947,0.006239053030347719,0.007940280455542847,-0.013094099247613953,-0.006782587837665086,-0.02408158224076551,0.9999854959465473,-0.0022486145909287798,-0.0018845483329023058,-0.004516647710432524
1272.899999999171,-0.009296558,-0.77543485,0.0073925606,-2.3443477,-0.004312762,1.5650775,0.7766231,0.039999947,0.04,0.010622760518219643,0.006279909175073688,0.007943640635477145,-0.013479698781221284,-0.006544865422980705,-0.024768881453482675,0.9999840979635053,-0.002365671840390033,-0.0019547599199016084,-0.004731419503057727
1272.9166666658377,-0.009738228,-0.7750138,0.0077358596,-2.3437898,-0.0045184707,1.5648028,0.7761853,0.039999947,0.04,0.010231960472495416,0.006307115068446972,0.007818263499204114,-0.013868284438533971,-0.006302004552440843,-0.02545903495837539,0.9999825922274067,-0.0024861795431921747,-0.0020273491231993447,-0.004952172146410362
1272.9333333325044,-0.01019224,-0.77458113,0.00808876,-2.3432164,-0.0047299294,1.5645205,0.7757353,0.039999943,0.04,0.010829681663038215,0.006337965840466815,0.008039374300672364,-0.014259465692251687,-0.006059854328859221,-0.026153429351567156,0.9999809736092045,-0.002610064749452607,-0.0021020319584095126,-0.005178942289417285
1272.949999999171,-0.01065867,-0.77413666,0.008451321,-2.3426268,-0.004947167,1.5642302,0.7752731,0.039999943,0.04,0.011679367874828372,0.006359151414262083,0.008110503673464109,-0.014653578646430262,-0.00581311288404366,-0.02685004468560926,0.9999792360834626,-0.0027373719095004252,-0.0021787935857015216,-0.005411751608720593
1272.9666666658377,-0.011137598,-0.77368015,0.008823599,-2.3420217,-0.0051702303,1.5639323,0.77479845,0.03999994,0.04,0.01029870064628291,0.006408999961253058,0.008200359163912374,-0.015050801089799126,-0.005562676782480614,-0.027550217667218213,0.9999773726584379,-0.002868146433276404,-0.0022579475371893453,-0.005650626521399634
1272.9833333325043,-0.01162909,-0.7732119,0.0092056515,-2.3414006,-0.0053991377,1.5636265,0.7743114,0.039999936,0.039999995,0.011348217540274597,0.0064074652074797706,0.008069504493812829,-0.015450379252927,-0.005310757428785957,-0.02825206282351387,0.9999753775697425,-0.0030023785689176612,-0.0023392411521271595,-0.005895585468138428
1272.999999999171,-0.012133212,-0.77273154,0.0095975315,-2.3407638,-0.0056339605,1.5633129,0.7738118,0.039999932,0.04,0.010530486155269081,0.0064641492702218264,0.008174366549251744,-0.015852745728855103,-0.0050533581289309015,-0.028957591486474678,0.999973243201425,-0.003140147470734469,-0.002422989158089446,-0.0061466640241178315
1273.0166666658376,-0.012650027,-0.77223927,0.009999284,-2.3401103,-0.0058746855,1.5629914,0.7732995,0.039999936,0.04,0.012328896684965507,0.006446962091490819,0.008502654875774951,-0.01625686220167545,-0.0047959842183640244,-0.029662513923190397,0.999970964089746,-0.0032815012478738374,-0.002508642035158257,-0.006403861500990971
1273.0333333325043,-0.013179592,-0.77173483,0.010410953,-2.3394408,-0.006121342,1.5626619,0.7727747,0.039999932,0.04,0.010796755667707991,0.006471599260906343,0.008237988809911556,-0.01666293021839632,-0.0045311214947514646,-0.030370728084683246,0.9999685323337124,-0.003426342590410966,-0.0025967525409566635,-0.006667187942107862
1273.049999999171,-0.013721963,-0.77121806,0.010832585,-2.3387554,-0.006373974,1.5623244,0.7722371,0.039999936,0.04,0.010580125039871824,0.006501496982740541,0.008347531793995167,-0.017071549971782615,-0.004264076231965355,-0.03108018066472587,0.9999659401021415,-0.003574782982794182,-0.002687428269883688,-0.006936662854764508
1273.0666666658376,-0.014277185,-0.77068913,0.011264216,-2.3380535,-0.00663258,1.5619788,0.7716868,0.039999936,0.04,0.011531566408762295,0.006485120189729,0.008374419992462911,-0.01748179651849969,-0.003995884524715679,-0.031789807304261036,0.9999631808497157,-0.0037268169746900023,-0.002780418644293278,-0.007212284819565834
1273.0833333325043,-0.014845308,-0.7701478,0.011705883,-2.337335,-0.0068972064,1.5616255,0.7711239,0.039999936,0.04,0.01135909800979995,0.006518331402472974,0.008785766704355602,-0.01789375343319767,-0.003725008281798649,-0.03250176485126824,0.9999602475510689,-0.0038823498146148515,-0.0028756816861029507,-0.007494073148971333
1273.099999999171,-0.015426368,-0.76959413,0.012157619,-2.3366,-0.0071678585,1.5612639,0.77054805,0.039999932,0.04,0.011660713228400788,0.0065050573856232155,0.008508276392027447,-0.018308596473978554,-0.0034496773186378053,-0.033213285065875654,0.999957131711489,-0.004041556364755161,-0.0029733265737012897,-0.007782023552297265
1273.1166666658376,-0.016020406,-0.7690282,0.012619453,-2.3358488,-0.0074445573,1.5608945,0.76995933,0.03999993,0.04,0.011011547865336091,0.006520185551624376,0.008535741430670818,-0.018724539720030648,-0.003169593818269211,-0.03392486633951837,0.9999538255270939,-0.004204402844216048,-0.0030734018968450122,-0.008076138386277193
1273.1333333325042,-0.016627455,-0.7684499,0.013091408,-2.3350816,-0.007727316,1.5605165,0.76935774,0.039999925,0.04,0.010297853780905086,0.006527575518451914,0.007937227465282248,-0.019141687595470264,-0.002887412820920924,-0.034636270627578014,0.99995031948531,-0.004370882613851171,-0.0031764335742926137,-0.008376408308495717
1273.1499999991709,-0.017247548,-0.7678593,0.013573509,-2.3342977,-0.008016158,1.5601307,0.76874316,0.039999925,0.04,0.011749087531476299,0.006527702540655607,0.0088861114304839,-0.019560485473773974,-0.002606606302661369,-0.035347174056489364,0.9999466074302945,-0.004541056068641078,-0.0032816671147031253,-0.008682842816386155
1273.1666666658375,-0.017880699,-0.767256,0.014065775,-2.333497,-0.008311086,1.5597368,0.7681156,0.039999917,0.04,0.011283024024488775,0.006508089882943657,0.008799699033645858,-0.019980185696196338,-0.0023200117696876923,-0.036057434124267165,0.9999426800504265,-0.0047149285123511955,-0.0033894503056297355,-0.00899542602212061
1273.1833333325042,-0.018526942,-0.7666406,0.014568223,-2.3326795,-0.008612116,1.5593348,0.767475,0.039999913,0.04,0.012160125786508935,0.006514610786573227,0.00854712867701668,-0.02040077512765044,-0.0020302976278751515,-0.03676658483934562,0.9999385298497577,-0.004892490335491962,-0.003499505753234394,-0.00931415695087859
1273.1999999991708,-0.019186292,-0.7660124,0.015080867,-2.3318458,-0.008919247,1.5589244,0.76682144,0.039999913,0.04,0.010194305954391858,0.00651274786694217,0.008618888198941299,-0.020822296565377298,-0.001736100000417875,-0.03747444940858467,0.9999341459057788,-0.005073747642300288,-0.0036125395373140046,-0.0096390090068602
1273.2166666658375,-0.019858751,-0.76537174,0.015603721,-2.330996,-0.009232499,1.5585059,0.76615494,0.03999991,0.04,0.010234536910957992,0.006496186447165972,0.008279218923235021,-0.02124475448136228,-0.0014427003147520281,-0.03818070232285539,0.9999295196561515,-0.0052586771484608805,-0.00372848316464766,-0.009969977339855121
1273.2333333325041,-0.020544345,-0.7647186,0.016136792,-2.330129,-0.009551866,1.5580792,0.76547545,0.039999906,0.04,0.012535681337966231,0.006475302291648541,0.009080664749339107,-0.021668200188782186,-0.0011490172446717156,-0.03888518669193163,0.9999246446118497,-0.005447306308216616,-0.0038466431867940584,-0.010307050404656964
1273.2499999991708,-0.021243077,-0.76405305,0.016680079,-2.3292458,-0.0098773595,1.5576444,0.76478297,0.0399999,0.04,0.01018756086510475,0.006491505503773698,0.008296260336315697,-0.022092538549647493,-0.0008476226932333346,-0.0395883661643015,0.9999195090650994,-0.005639635884259331,-0.003967756589259952,-0.010650202146056989
1273.2666666658374,-0.021954942,-0.76337487,0.017233595,-2.328345,-0.010208984,1.5572014,0.7640775,0.0399999,0.04,0.012756780895628594,0.006432858834752586,0.009273237272267032,-0.022517604405690648,-0.0005479204856476579,-0.040288303035231676,0.9999141065933141,-0.005835681452780416,-0.004091070679706919,-0.010999427183699824
1273.283333332504,-0.022679945,-0.7626843,0.017797336,-2.3274288,-0.0105467,1.5567502,0.76335907,0.0399999,0.04,0.009331230421949499,0.006427667471744364,0.008103686111149422,-0.022943345141064726,-0.00024177373148156003,-0.040983961647395886,0.9999084243096477,-0.006035412260774478,-0.00421762035743693,-0.011354667408633137
1273.2999999991707,-0.023418084,-0.76198125,0.018371291,-2.326496,-0.010890535,1.5562909,0.7626276,0.039999895,0.04,0.011293324296723917,0.0064216155971023176,0.008764682436823712,-0.023369476438713066,6.385309862207145e-05,-0.04167859153358533,0.9999024546274546,-0.006238892515524679,-0.004346803332798758,-0.011715918698789407
1273.3166666658374,-0.024169343,-0.76126575,0.018955464,-2.3255458,-0.0112405075,1.5558236,0.7618828,0.039999887,0.04,0.012110839895340675,0.006390306631608687,0.009074157318145204,-0.02379611810359712,0.0003712115718434057,-0.04237159148605499,0.9998961879955249,-0.006446285952134709,-0.004478346551825882,-0.012083171835367454
1273.333333332504,-0.024933707,-0.7605375,0.019549835,-2.324579,-0.011596593,1.5553479,0.7611253,0.039999887,0.04,0.010832361308144023,0.006369765249524331,0.008780255241469526,-0.024220995907135404,0.0006855684039864286,-0.0430594280034961,0.9998896147128296,-0.006657241833651325,-0.00461283476613003,-0.012456374914797494
1273.3499999991707,-0.025711168,-0.7597969,0.020154405,-2.323596,-0.011958772,1.5548643,0.7603549,0.039999876,0.04,0.010577738968731154,0.006331712057515947,0.008602528207579674,-0.024647588659706985,0.0010000167059085012,-0.04374451794110583,0.9998827243534575,-0.006871948383660213,-0.004750144532731921,-0.012835497335054537
1273.3666666658373,-0.02650171,-0.75904393,0.020769143,-2.3225965,-0.012327047,1.5543723,0.7595712,0.039999876,0.04,0.010776241924204122,0.00633115924745728,0.00848502295305309,-0.025074072900769715,0.0013173891853932689,-0.04442397932786691,0.9998755056795617,-0.007090525595380496,-0.004890390398258324,-0.013220501903283152
1273.383333332504,-0.0273053,-0.7582783,0.021394048,-2.3215802,-0.012701409,1.5538725,0.7587747,0.039999872,0.04,0.011433978144492762,0.006265975264018245,0.009203341275476618,-0.025499276050516016,0.0016348528334150444,-0.04510105833360355,0.9998679514695207,-0.0073127920553553456,-0.005033235907046077,-0.013611364105163852
1273.3999999991706,-0.028121926,-0.7575004,0.02202909,-2.3205473,-0.013081847,1.5533645,0.7579651,0.039999865,0.04,0.010927403721483486,0.006264058509322656,0.008614059045264355,-0.025924626905879034,0.001958290166859649,-0.04577368483046674,0.9998600497012032,-0.007538894240014412,-0.005178885948140522,-0.014008041457737722
1273.4166666658373,-0.02895155,-0.75671005,0.022674251,-2.319498,-0.013468335,1.5528482,0.7571428,0.03999987,0.04,0.010623748017501988,0.006210735322640867,0.008551983453997103,-0.02634861530408488,0.002283807520661787,-0.04643997628547028,0.999851790603779,-0.007768641516809195,-0.005327570103850969,-0.014410483412733948
1273.433333332504,-0.029794144,-0.7559074,0.023329508,-2.318432,-0.0138608655,1.5523238,0.75630754,0.03999986,0.04,0.011271949631086464,0.00617322700619434,0.008740663464212872,-0.026773116843652203,0.0026094318762808523,-0.04710323498611631,0.9998431644111914,-0.008002165709905336,-0.00547898670693351,-0.014818658131961654
1273.4499999991706,-0.030649666,-0.75509256,0.023994828,-2.3173504,-0.014259425,1.5517915,0.7554596,0.039999858,0.04,0.009772607014624235,0.0061577725685491025,0.008474710042727374,-0.0271962812252245,0.0029388659343116616,-0.0477604626119493,0.999834159838334,-0.008239363777439985,-0.005633486155807222,-0.015232515834490163
1273.4666666658372,-0.03151808,-0.7542651,0.024670184,-2.3162522,-0.014664005,1.551251,0.7545989,0.03999985,0.04,0.010437694488318883,0.0061160298125879226,0.008745118172015509,-0.027619681481613235,0.0032688889454282853,-0.04841395346682864,0.999824765961382,-0.008480280842439684,-0.005791093333162927,-0.015652010896608077
1273.483333332504,-0.032399345,-0.75342566,0.02535554,-2.3151379,-0.015074554,1.5507028,0.75372535,0.039999854,0.04,0.010754736633256101,0.006054943540722071,0.008691088922740953,-0.028042131114740448,0.0035989979888238453,-0.04905870592455074,0.999814973882888,-0.008724989382110108,-0.005951446323259437,-0.016077090735061268
1273.4999999991705,-0.033293415,-0.7525739,0.02605086,-2.3140066,-0.015491057,1.5501466,0.75283915,0.03999985,0.04,0.011588917907512375,0.006003270894066812,0.008979711133472179,-0.028462991708776572,0.003932984606203858,-0.04969953554202111,0.999804774648241,-0.008973387896067967,-0.006114448664051721,-0.016507707829423197
1273.5166666658372,-0.034200214,-0.75170994,0.026756119,-2.3128593,-0.015913507,1.5495824,0.7519403,0.039999843,0.04,0.010014913118605584,0.005946020813306363,0.008537495555516195,-0.028883120208605808,0.004271654878562178,-0.0503351067266469,0.9997941546236687,-0.009225510312030293,-0.006280572042153956,-0.01694381169186864
1273.5333333325038,-0.03511973,-0.75083375,0.02747126,-2.3116963,-0.016341873,1.5490102,0.75102895,0.03999984,0.04,0.009580986435420158,0.00596952368764371,0.008443997535589887,-0.029301844203200176,0.004611939702391984,-0.05096357148785232,0.9997831031426551,-0.00948128822225494,-0.006449959445760552,-0.0173853348324894
1273.5499999991705,-0.03605188,-0.7499455,0.02819625,-2.3105175,-0.01677613,1.5484302,0.750105,0.03999983,0.04,0.009823917135176607,0.005872719995559522,0.008529380315436264,-0.02971992910492241,0.004950292090842485,-0.05158655211634493,0.9997716099190007,-0.009740789989903928,-0.00662242750759522,-0.017832231050784044
1273.5666666658371,-0.036996625,-0.7490453,0.028931033,-2.309323,-0.017216254,1.5478425,0.7491686,0.03999983,0.04,0.009859045742199868,0.005862563883189675,0.008505547833048688,-0.03013638989232478,0.005290858617461126,-0.052202037927969056,0.9997596646229875,-0.010003990358683908,-0.006797970830076613,-0.018284440446136863
1273.5833333325038,-0.03795389,-0.74813336,0.02967557,-2.3081126,-0.01766222,1.5472469,0.7482197,0.039999824,0.04,0.010461008962470153,0.005780017776939317,0.00839097387632659,-0.0305513637988672,0.005632798146034502,-0.05281167182715992,0.999747257848564,-0.010270855635710782,-0.006976434394666019,-0.018741913240765313
1273.5999999991704,-0.038923632,-0.7472094,0.030429805,-2.3068862,-0.018113995,1.5466437,0.7472586,0.039999824,0.04,0.010231528404514023,0.005759888205435909,0.00872391545323481,-0.030964869997921474,0.005976110184918757,-0.053413390516054045,0.9997343794512255,-0.010541340193744283,-0.00715784178396401,-0.01920458255699587
1273.616666665837,-0.03990576,-0.7462737,0.031193696,-2.3056436,-0.018571556,1.5460325,0.7462851,0.039999817,0.04,0.010691947765750776,0.005664608520287995,0.008466299011455902,-0.03137676757486216,0.00632296010294766,-0.05400954766231312,0.999721017794802,-0.010815534471783171,-0.007342189005460519,-0.019672393195106577
1273.6333333325038,-0.040900197,-0.7453263,0.03196718,-2.304386,-0.01903485,1.5454136,0.7452994,0.039999817,0.04,0.00885653712827672,0.005626262092639153,0.008064782634908951,-0.03178647776006936,0.006672522034401482,-0.054595770938822716,0.9997071604832699,-0.011093343227930479,-0.00752991501294097,-0.020145257367499562
1273.6499999991704,-0.0419069,-0.7443672,0.032750204,-2.3031125,-0.019503858,1.5447869,0.7443015,0.039999805,0.04,0.010028408594142668,0.0056001747623525555,0.008389556191756853,-0.03219464878616505,0.007020468625919041,-0.05517688989923963,0.9996927986124452,-0.011374802806384804,-0.007720687868416871,-0.02062312397216496
1273.666666665837,-0.042925764,-0.74339646,0.03354271,-2.301824,-0.019978544,1.5441527,0.7432916,0.0399998,0.04,0.00892928836251361,0.005517461466021667,0.008233933932078052,-0.032600639227161624,0.007371107784379632,-0.05574867265305816,0.9996779207582588,-0.01165983723432444,-0.00791473773496709,-0.02110592027607506
1273.6833333325037,-0.04395673,-0.7424141,0.03434464,-2.3005202,-0.020458875,1.543511,0.7422697,0.0399998,0.04,0.009697883262838047,0.0054783771399179865,0.00845486422353936,-0.03300500793242406,0.007720862343384788,-0.05631409446605279,0.999662517380231,-0.011948488371299103,-0.00811185135235824,-0.0215935832667388
1273.6999999991704,-0.04499972,-0.7414205,0.035155922,-2.299201,-0.020944765,1.5428619,0.74123585,0.039999798,0.04,0.009701568506548242,0.005384289796192543,0.008238209657851492,-0.033406558717080356,0.00807202614617561,-0.05686820135407192,0.9996465796563959,-0.012240717755092662,-0.008311931759418018,-0.02208602274145446
1273.716666665837,-0.046054624,-0.74041545,0.035976484,-2.2978668,-0.021436226,1.5422055,0.7401902,0.039999794,0.04,0.009064038637252025,0.005364644512339742,0.008254748144631563,-0.03380611067019437,0.008426959718573247,-0.05741648839165135,0.9996300952898242,-0.012536498886476235,-0.008515210315525436,-0.022583179134231104
1273.7333333325037,-0.047121372,-0.73939896,0.03680627,-2.296518,-0.02193321,1.5415416,0.7391327,0.039999787,0.04,0.008225507915993191,0.005313544144571261,0.008061110771895308,-0.034203376093280384,0.008781643950748555,-0.05795708696660001,0.9996130510877327,-0.012835885065254375,-0.008721949728478093,-0.023084967892533705
1273.7499999991703,-0.048199862,-0.73837143,0.037645217,-2.2951546,-0.022435676,1.5408703,0.7380637,0.03999978,0.04,0.009065261828000715,0.005214350719253899,0.007926453409834444,-0.03459793001868995,0.0091348492605429,-0.05848827829629649,0.9995954407151885,-0.013138726799517107,-0.00893184192715243,-0.023591332291416488
1273.766666665837,-0.049289998,-0.73733264,0.03849324,-2.2937758,-0.02294357,1.5401919,0.736983,0.039999776,0.04,0.009632838568807145,0.005143365495183239,0.008470528686665979,-0.03499027741791676,0.009488249260101222,-0.059010678689450605,0.9995772545082781,-0.01344514357009895,-0.009144673219109369,-0.024102185290717608
1273.7833333325036,-0.050391704,-0.73628294,0.039350253,-2.2923818,-0.023456858,1.5395063,0.73589087,0.039999772,0.04,0.010003398386038143,0.005112175015218809,0.008265425028408657,-0.03537915050094001,0.009845091919383583,-0.05952337628621922,0.999558484938088,-0.01375502587396091,-0.009360285643738472,-0.024617463397930733
1273.7999999991703,-0.051504873,-0.7352224,0.0402162,-2.2909737,-0.023975478,1.5388136,0.73478746,0.03999977,0.04,0.008029260472897093,0.005039721133246605,0.007725680378034561,-0.03576549498145304,0.010206556676669323,-0.06002690908174997,0.9995391178382785,-0.014068321821792563,-0.009579265213161015,-0.025137062480931224
1273.816666665837,-0.052629407,-0.7341509,0.041091006,-2.2895522,-0.024499383,1.5381138,0.7336728,0.039999757,0.04,0.006691518358614701,0.005004642660776104,0.007591730379341577,-0.03614956842676306,0.010566418665775582,-0.06052214400402183,0.9995191393613684,-0.014385061784762652,-0.009801991477396656,-0.025660884841230212
1273.8333333325036,-0.0537652,-0.7330687,0.04197458,-2.2881155,-0.025028545,1.5374068,0.7325469,0.03999975,0.04,0.010129453915252995,0.00488154411767347,0.008071666984199588,-0.036530949888724025,0.01092208473588812,-0.0610080669907533,0.9994985477773104,-0.014705238241786557,-0.010027503252460995,-0.026188893405822075
1273.8499999991702,-0.054912146,-0.73197573,0.04286686,-2.2866645,-0.025562907,1.5366935,0.73141,0.039999746,0.04,0.00864154949278273,0.004827795822580708,0.008461269842174879,-0.03690866967594323,0.011281254715542671,-0.061483604427393396,0.9994773334078693,-0.015028809828475584,-0.010255879462712905,-0.026720999522487233
1273.8666666658369,-0.056070134,-0.73087233,0.043767735,-2.2852004,-0.02610243,1.5359731,0.7302623,0.039999742,0.04,0.006794675129739858,0.004823813651990555,0.0072020938473027485,-0.03728350115183346,0.011645367222326994,-0.061950935161618766,0.9994554803580517,-0.015355695995308408,-0.01048791330501726,-0.02725709187096736
1273.8833333325035,-0.057239044,-0.7297585,0.044677135,-2.283722,-0.026647039,1.5352454,0.72910357,0.039999742,0.04,0.008687601112500332,0.004667104740277775,0.007553935819060165,-0.03765549234846666,0.012004446724635125,-0.062407829081064084,0.9994329819474279,-0.015685992919334313,-0.01072315025497912,-0.0277970910423384
1273.8999999991702,-0.058418784,-0.7286344,0.045594953,-2.28223,-0.027196683,1.5345116,0.7279341,0.039999735,0.04,0.007978317182111283,0.004663782985434711,0.007953016907635835,-0.038023854090383585,0.012363298285475853,-0.06285491074273876,0.9994098326600859,-0.016019608193158633,-0.010961339948624256,-0.02834091674959985
1273.9166666658368,-0.059609238,-0.7275001,0.046521127,-2.2807245,-0.027751314,1.5337702,0.7267541,0.039999727,0.04,0.007145425613597212,0.004572013838959055,0.006879559941519453,-0.038388413300136925,0.012725270151353711,-0.0632918710434292,0.999386016209277,-0.016356474304008765,-0.011203274176685369,-0.02888845792725986
1273.9333333325035,-0.060810268,-0.7263558,0.047455534,-2.2792053,-0.028310876,1.5330229,0.72556365,0.039999723,0.04,0.008717920376000166,0.004489397326240541,0.008079250878312294,-0.03875015784792664,0.013082796103682487,-0.06371810045428507,0.9993615346470526,-0.016696610120745855,-0.011447810309337824,-0.029439665716261464
1273.9499999991701,-0.06202176,-0.72520137,0.04839812,-2.2776732,-0.028875316,1.5322695,0.7243626,0.039999716,0.04,0.0068388023664045505,0.004421506553924093,0.007703853141016737,-0.03910840688656532,0.013445590176983498,-0.06413478554289886,0.9993363711029929,-0.01704008960303367,-0.011695593995603786,-0.029994429784744016
1273.9666666658368,-0.063243605,-0.7240371,0.049348753,-2.2761276,-0.029444583,1.5315089,0.7231515,0.03999971,0.04,0.00802154239991637,0.004372929681405874,0.007033149636881397,-0.039461735104371023,0.013806839970817802,-0.06454120326387815,0.9993105204512163,-0.017386665920438835,-0.01194666657968532,-0.030552654898130447
1273.9833333325034,-0.064475656,-0.722863,0.050307356,-2.2745695,-0.03001861,1.5307422,0.7219302,0.039999705,0.04,0.006271626237142058,0.004294742128380102,0.0072519482824828785,-0.03981247410209152,0.014167403291816726,-0.06493703160692721,0.9992839703670018,-0.017736464701732877,-0.012201166780859097,-0.031114239772662297
1273.99999999917,-0.065717824,-0.72167933,0.051273834,-2.2729986,-0.03059734,1.5299693,0.72069883,0.0399997,0.04,0.00734353477707117,0.004231328210962948,0.007412095310321831,-0.040159092250013184,0.014525624385775787,-0.06532413761473616,0.9992567172355907,-0.018089439873210298,-0.01245869463960347,-0.03167911224294707
1274.0166666658367,-0.06696997,-0.72048604,0.052248087,-2.2714143,-0.031180719,1.5291904,0.7194576,0.039999694,0.04,0.008105760931265138,0.004126906069179537,0.0076306624994693095,-0.040501485681395465,0.014885015192240794,-0.0657006167020644,0.999228756653545,-0.018445512624970888,-0.012719025307264188,-0.032247191131100986
1274.0333333325034,-0.06823192,-0.71928346,0.05323,-2.269818,-0.031768683,1.5284052,0.71820676,0.03999969,0.04,0.005943219087267693,0.004073683453271332,0.006665128208149795,-0.04083971261786005,0.01524681323855949,-0.06606541624203216,0.9992000737135426,-0.018804632581981104,-0.012982856487136554,-0.032818347334106115
1274.04999999917,-0.06950359,-0.7180716,0.054219473,-2.26821,-0.03236117,1.5276139,0.7169462,0.039999682,0.04,0.005978639083004111,0.004047967339414205,0.0068568404040680875,-0.0411745264322957,0.015605986902046703,-0.06641859848557623,0.9991706606709716,-0.019166844623711675,-0.013250086876967555,-0.03339248597001235
1274.0666666658367,-0.07078482,-0.71685046,0.055216424,-2.2665894,-0.032958105,1.5268167,0.7156762,0.039999675,0.04,0.006879749260679802,0.003885801227169333,0.007219456451856843,-0.04150467910805,0.015961435141410824,-0.06676191666382418,0.9991405156316269,-0.01953205977644078,-0.01352033977758327,-0.03396953159163524
1274.0833333325033,-0.072075486,-0.7156206,0.05622073,-2.264957,-0.03355944,1.5260135,0.7143967,0.03999967,0.04,0.00652412590911311,0.0038526852567659364,0.006548973198738928,-0.04183097412533189,0.016317774042311176,-0.06709339271421141,0.9991096284413188,-0.019900318362859406,-0.013793750949541444,-0.03454938667543549
1274.09999999917,-0.07337545,-0.7143817,0.05723227,-2.2633126,-0.03416513,1.5252047,0.71310806,0.03999967,0.04,0.006357086834540837,0.0038200213395886418,0.007068599106041518,-0.0421521991219444,0.016672860607483263,-0.06741618933095575,0.9990779952407283,-0.020271512343604227,-0.014070210458418688,-0.035131956830301736
1274.1166666658366,-0.07468455,-0.7131342,0.058250953,-2.261657,-0.034775056,1.5243901,0.7118104,0.03999967,0.04,0.005567028745190328,0.003681288362988172,0.006426974037365696,-0.042469212041962356,0.01702822121766133,-0.06772469810340985,0.9990456075415741,-0.020645593760243733,-0.014349936620630426,-0.03571712235270273
1274.1333333325033,-0.07600266,-0.7118781,0.05927667,-2.2599897,-0.035389192,1.52357,0.7105038,0.039999668,0.04,0.006298176462360416,0.0036135963637634605,0.006769825006180952,-0.042781850915743734,0.01738221369694498,-0.0680236160048849,0.9990124609265275,-0.021022570768705208,-0.014632674230929506,-0.03630481065436905
1274.14999999917,-0.07732963,-0.7106134,0.060309287,-2.2583117,-0.03600746,1.5227442,0.7091885,0.039999664,0.04,0.004737023497458637,0.0036147113832527,0.0063361819627072435,-0.04309000980138403,0.017733136818613403,-0.06831214016212787,0.9989785454424785,-0.021402345154935994,-0.014918877164943568,-0.036894884084869795
1274.1666666658366,-0.07866532,-0.70934063,0.061348706,-2.2566226,-0.036629792,1.521913,0.70786446,0.039999656,0.04,0.006120877082782528,0.0034750379711290247,0.006432432385339304,-0.04339387443440622,0.018081283538413963,-0.06858791677799557,0.9989438601611857,-0.02178498281266314,-0.015207964397197972,-0.03748728569815118
1274.1833333325033,-0.0800096,-0.70805955,0.062394816,-2.2549226,-0.03725609,1.5210764,0.70653194,0.039999653,0.04,0.005045587245211536,0.0034131660752598214,0.006264538540312614,-0.0436924300715652,0.018429719058714246,-0.0688506639870181,0.9989083968839734,-0.022170370504034045,-0.015500327147813072,-0.03808187449056355
1274.19999999917,-0.081362315,-0.7067704,0.06344751,-2.2532117,-0.037886303,1.5202347,0.705191,0.03999964,0.04,0.005791434572310905,0.0033071834580337967,0.006497640134139893,-0.043986545639562044,0.018774688835417455,-0.06910565003641611,0.9988721542398977,-0.02255852172772071,-0.015795559179773166,-0.03867858440796543
1274.2166666658366,-0.08272327,-0.70547324,0.06450665,-2.25149,-0.038520396,1.5193878,0.70384187,0.039999634,0.04,0.005361858362107341,0.003259313319892848,0.006406810404002705,-0.044275297782350925,0.01911973612522768,-0.0693473277803427,0.9988351254671941,-0.022949394028468698,-0.016093785397947247,-0.03927731556796255
1274.2333333325032,-0.084092356,-0.7041685,0.065572105,-2.2497587,-0.03915827,1.5185359,0.7024848,0.039999634,0.04,0.004287020533366714,0.0032488873013693242,0.005708823121430839,-0.044558784056183715,0.019463075175695482,-0.06957759873699629,0.9987973053533954,-0.02334283985877757,-0.016395247902162007,-0.039877944936396875
1274.2499999991699,-0.08546937,-0.702856,0.06664376,-2.248017,-0.039799836,1.5176789,0.7011198,0.03999963,0.04,0.00487675497704565,0.003077181712059923,0.006129314494152105,-0.0448378730575173,0.019803785220802055,-0.0697957558792582,0.9987586904591611,-0.023738930698611715,-0.016699744489624933,-0.04048036481516894
1274.2666666658365,-0.086854205,-0.70153624,0.06772154,-2.2462654,-0.040445022,1.5168171,0.69974697,0.039999615,0.04,0.005067827772231581,0.0029790913503330296,0.005916907234571056,-0.04511184249996541,0.02014138944040844,-0.07000345064193016,0.998719278865276,-0.024137634817725608,-0.017007045316372385,-0.04108451068025504
1274.2833333325032,-0.08824669,-0.700209,0.06880528,-2.2445042,-0.041093793,1.5159506,0.6983666,0.039999608,0.04,0.004035957932257972,0.003011985782529897,0.005835759051997513,-0.04537995493831198,0.020477660956862417,-0.07019941397554558,0.9986790634021674,-0.02453886095804612,-0.01731747902689596,-0.041690257197629796
1274.2999999991698,-0.08964665,-0.69887483,0.06989486,-2.2427332,-0.04174604,1.5150794,0.69697875,0.039999604,0.04,0.004988443277254007,0.0028473726618016837,0.0057349938440198756,-0.0456428338457107,0.02081136740329758,-0.07038399994750827,0.9986380465007716,-0.02494258849161626,-0.01763063274283939,-0.04229751942546617
1274.3166666658365,-0.09105395,-0.69753355,0.07099017,-2.2409532,-0.0424017,1.5142037,0.6955837,0.03999959,0.04,0.0036611650319429145,0.002826284178723132,0.005608295440251432,-0.04590028155804363,0.021144381512359624,-0.07055780289052073,0.9985962203812736,-0.025348739634869225,-0.01794686416638163,-0.04290617794387988
1274.3333333325031,-0.0924684,-0.6961854,0.07209109,-2.239164,-0.043060716,1.5133233,0.69418156,0.039999582,0.04,0.003873356426398189,0.002723666343737441,0.0053767659093040265,-0.04615263026631501,0.021473862946560868,-0.07071921577816748,0.9985535820392579,-0.02575729205344989,-0.01826611647687521,-0.04351614288391531
1274.3499999991698,-0.09388988,-0.69483066,0.07319744,-2.2373664,-0.043722983,1.5124387,0.69277257,0.039999582,0.04,0.003431524267538677,0.0027360843322686568,0.005297991558461668,-0.04639946080073077,0.021798319642794467,-0.07086919204721005,0.9985101326819145,-0.026168137065128695,-0.01858832806078966,-0.04412728854111259
1274.3666666658364,-0.09531815,-0.6934694,0.07430917,-2.23556,-0.044388436,1.5115498,0.6913567,0.039999574,0.04,0.003970115037921218,0.002484298901045401,0.005429619035779432,-0.046641169555420095,0.02212127864318393,-0.07100850239059736,0.9984658690026116,-0.026581367471881952,-0.018913265024915134,-0.04473955460531467
1274.383333332503,-0.09675312,-0.69210166,0.07542609,-2.2337449,-0.045057006,1.510657,0.68993425,0.03999957,0.04,0.003581158081278346,0.002576730480217254,0.00542063017592298,-0.04687698811374219,0.022441014336277737,-0.07113536295745486,0.9984207913920699,-0.026996853528733683,-0.01924098381331795,-0.04535281421782664
1274.3999999991697,-0.098194584,-0.69072783,0.076548085,-2.2319214,-0.045728594,1.5097598,0.68850535,0.039999567,0.04,0.003570338037217624,0.0024048512855340265,0.004883817022394155,-0.04710684378105642,0.022758451003667975,-0.07125077906289318,0.9983748976226962,-0.027414552385284806,-0.01957151177012817,-0.0459669668503059
1274.4166666658364,-0.09964238,-0.6893479,0.07767506,-2.2300897,-0.046403125,1.5088587,0.6870703,0.03999956,0.04,0.0036449612460298653,0.0023001590554051765,0.005164155511816482,-0.04733101374526656,0.02307290691942917,-0.07135482433755261,0.9983281905336273,-0.027834370001141202,-0.019904665124231547,-0.04658192931583464
1274.433333332503,-0.101096325,-0.68796223,0.07880681,-2.22825,-0.047080528,1.507954,0.6856288,0.039999545,0.04,0.0032796515163635576,0.0023122606011956315,0.005044159650768876,-0.04755020050986093,0.023385061493656968,-0.07144798274370943,0.9982806646500666,-0.02825650641934659,-0.020240362342268555,-0.04719758641125931
1274.4499999991697,-0.10255625,-0.6865706,0.079943255,-2.226403,-0.04776071,1.5070456,0.6841813,0.03999954,0.04,0.0022120387385804463,0.0022081679823461597,0.004881769025821825,-0.04776124212216424,0.023695110274719357,-0.0715281934238681,0.9982323175047618,-0.028680750055528118,-0.02057897643604896,-0.04781381175109779
1274.4666666658363,-0.10402202,-0.6851734,0.08108425,-2.2245488,-0.048443604,1.5061336,0.68272805,0.039999533,0.04,0.0022792761801948558,0.002175129669298309,0.004516669893495084,-0.0479665128066197,0.024000946892790052,-0.07159796811595118,0.9981831515465981,-0.029106991869794863,-0.020920413025574857,-0.048430520455930506
1274.483333332503,-0.10549341,-0.68377095,0.08222966,-2.2226875,-0.04912914,1.5052179,0.68126917,0.039999522,0.04,0.0026387830188934203,0.002043682434963584,0.004421793249753669,-0.04816603435542394,0.0243017229810929,-0.07165713623432832,0.9981331681300337,-0.029535254957235784,-0.02126446022022985,-0.049047631184954504
1274.4999999991696,-0.10697026,-0.6823633,0.083379336,-2.2208192,-0.049817216,1.5042988,0.67980504,0.039999515,0.04,0.0022508427709677647,0.001978874085170612,0.00441876790417961,-0.048359066040414136,0.024598519456853193,-0.0717040572921617,0.9980823711885158,-0.029965369447961635,-0.021611162998929744,-0.04966502381345043
1274.5166666658363,-0.108452395,-0.68095064,0.08453317,-2.2189455,-0.050507747,1.5033764,0.67833626,0.03999951,0.04,0.0002350124019390165,0.0019589504187789153,0.0037236549391916896,-0.048546937062184006,0.024890940840691433,-0.07173883793349375,0.9980307583936431,-0.030397074672043528,-0.021961009037455688,-0.05028257385664188
1274.533333332503,-0.109939665,-0.67953306,0.08569098,-2.2170646,-0.051200666,1.502451,0.676862,0.039999507,0.04,0.0030878631475772522,0.0018561696787537663,0.004695143828925552,-0.048731644859292975,0.025173907082417915,-0.07176335602058115,0.9979783350816834,-0.030830810874849596,-0.022313003859031313,-0.05090023248647541
1274.5499999991696,-0.11143187,-0.6781108,0.086852685,-2.2151775,-0.05189587,1.5015221,0.67538273,0.039999496,0.04,0.0016210959810525338,0.0017205411195202192,0.003790928320657194,-0.04890820870305377,0.02545747184408547,-0.07177735118016754,0.9979250956622853,-0.03126639027257315,-0.02266772447992042,-0.05151786635376569
1274.5666666658362,-0.11292879,-0.67668384,0.08801811,-2.213284,-0.052593302,1.5005904,0.67389894,0.039999485,0.04,0.002272079701981511,0.0016364995855944198,0.004397539802503125,-0.04907814797144541,0.02573422408819139,-0.07178029869411048,0.9978710555230906,-0.0317036366966695,-0.02302464688883712,-0.05213541603442892
1274.583333332503,-0.114430316,-0.6752527,0.08918711,-2.2113843,-0.05329287,1.4996562,0.6724106,0.03999948,0.04,0.002380500913190531,0.001627997466947806,0.00411489579810187,-0.04924199995219304,0.026008208531848598,-0.07177054134243926,0.9978162184528973,-0.032142548467751476,-0.023383617732572262,-0.05275279321604956
1274.5999999991695,-0.11593625,-0.67381716,0.09035957,-2.2094798,-0.053994454,1.498719,0.67091763,0.039999478,0.04,-0.00025962440597382397,0.0015791367122368338,0.0033352214885873366,-0.049399607913220914,0.02628261836965789,-0.07174943269029649,0.9977605646751524,-0.03258323417000773,-0.02374558087817049,-0.05336980250012059
1274.6166666658362,-0.117446385,-0.67237777,0.091535315,-2.2075696,-0.054698024,1.497779,0.6694205,0.039999463,0.04,0.0019383507646963949,0.0014557018004762723,0.0036006401985977377,-0.04954974029470514,0.02654651571531358,-0.07172020632277216,0.9977041167849813,-0.033025486850117705,-0.024109685632776993,-0.05398643929082184
1274.6333333325028,-0.11896055,-0.6709345,0.09271423,-2.2056544,-0.055403482,1.4968369,0.6679192,0.03999945,0.04,0.0009019547560829011,0.0014075323405179918,0.003759868385233567,-0.04969373734687505,0.026807164849994153,-0.07167981637711701,0.9976468746617612,-0.03346933563659961,-0.024475980839986054,-0.0546025952825103
1274.6499999991695,-0.12047859,-0.6694874,0.093896165,-2.2037342,-0.05611072,1.4958922,0.6664141,0.039999448,0.04,0.0008151784711252219,0.0013369497610493664,0.003362570807796672,-0.04983021167666806,0.02706291895267962,-0.07162546987163888,0.9975888406276558,-0.03391467342499346,-0.02484465688989444,-0.055218140186618615
1274.6666666658361,-0.122000284,-0.6680369,0.095080994,-2.2018092,-0.05681967,1.4949452,0.6649057,0.03999945,0.04,0.0009281685564133113,0.0012032598422639929,0.0033039247963495555,-0.04996008384533943,0.027314871952436502,-0.07156197376161057,0.9975300299401586,-0.034361234917230435,-0.025215448276204932,-0.05583301953843445
1274.6833333325028,-0.12352547,-0.666583,0.09626855,-2.1998796,-0.05753022,1.4939961,0.66339415,0.03999944,0.04,0.0007242362345838416,0.0011795485778620662,0.0033066389246716454,-0.05008529349598573,0.02756179544898038,-0.0714885006512147,0.9974704471840155,-0.03480904140088051,-0.02558828316163598,-0.056447120352696695
1274.6999999991694,-0.12505394,-0.66512585,0.09745869,-2.1979465,-0.058242325,1.493045,0.661879,0.039999425,0.04,-0.0008293153032301603,0.001170422133386917,0.002783940340655988,-0.05020475031845767,0.02780419451328575,-0.07140505534127452,0.99741007616558,-0.03525831591250454,-0.025963664331040123,-0.05706031244999477
1274.716666665836,-0.12658551,-0.6636659,0.098651275,-2.196009,-0.058955878,1.492092,0.66036063,0.03999942,0.04,0.001397314458939647,0.0009620549443214998,0.0031371549899850137,-0.05031626121789598,0.02803804045197831,-0.07130904872952494,0.9973489434736815,-0.03570891833801796,-0.02634067952523415,-0.0576725819190438
1274.7333333325028,-0.12812,-0.66220313,0.09984616,-2.194068,-0.05967078,1.4911369,0.65883964,0.039999418,0.04,-0.000690246189805066,0.0009723547247375564,0.002373449174397635,-0.05042037862277934,0.02827096109629141,-0.07120233397629035,0.9972870468898996,-0.03616057645874121,-0.026720068173568087,-0.05828376079659552
1274.7499999991694,-0.12965725,-0.6607377,0.10104321,-2.1921232,-0.06038694,1.4901805,0.65731573,0.039999418,0.04,0.00046055996976157587,0.0008716465310906751,0.003125292206829222,-0.050519240809855516,0.028494573507639787,-0.07108468666784235,0.9972243986210257,-0.03661349020549136,-0.02710111324376799,-0.05889380944423799
1274.766666665836,-0.13119704,-0.6592697,0.10224227,-2.1901758,-0.061104283,1.4892222,0.65578914,0.039999403,0.04,-0.0015468127442908042,0.0008481977650368067,0.0021030813140976434,-0.050610315407442534,0.028716372325060725,-0.07095974405219001,0.9971609877805737,-0.037067573198653656,-0.027484622069242005,-0.05950256309894517
1274.7833333325027,-0.13273917,-0.6577995,0.10344318,-2.1882253,-0.061822746,1.4882623,0.65426034,0.039999392,0.04,-0.00024141724859205738,0.0007497056434657701,0.0023306507777709484,-0.05069402936415898,0.028926360521379216,-0.0708250151135898,0.997096838438575,-0.0375226173599328,-0.027869973693463404,-0.0601100035649988
1274.7999999991694,-0.13428348,-0.65632725,0.10464584,-2.186272,-0.062542215,1.4873012,0.65272933,0.03999938,0.04,-0.00033723610703972895,0.0006219642116958579,0.0023880738916348676,-0.05077146662018371,0.029132382454544775,-0.07067848790136343,0.9970319570377262,-0.03797867646563247,-0.02825700368422423,-0.0607160483087481
1274.816666665836,-0.13582985,-0.65485317,0.10585004,-2.184316,-0.063262604,1.4863387,0.65119636,0.039999377,0.04,-0.0005914287527719608,0.0007067285018327873,0.001977584404433408,-0.05084186620128581,0.029333092804724965,-0.07052195772122218,0.996966352202558,-0.03843560094323923,-0.028645836488017686,-0.06132057736159149
1274.8333333325027,-0.137378,-0.6533774,0.10705569,-2.1823583,-0.063983835,1.4853753,0.64966166,0.039999377,0.04,-0.0018278040001540319,0.0005430101948714072,0.0018361227660301793,-0.05090552970122171,0.02952822502094095,-0.07035410069814908,0.9969000251277703,-0.03889337796548771,-0.02903659530210314,-0.06192351075275408
1274.8499999991693,-0.13892768,-0.6519001,0.108262606,-2.1803977,-0.064705804,1.4844109,0.64812523,0.039999366,0.04,0.0002705306962447196,0.00027991194291171473,0.00224942110578219,-0.05096277362730271,0.029715553648137404,-0.07017879611149408,0.9968329954112318,-0.03935207359766286,-0.029428604711032973,-0.06252480138150678
1274.866666665836,-0.14047883,-0.65042144,0.10947066,-2.178436,-0.06542839,1.4834458,0.6465877,0.03999936,0.04,-0.0022107630814005574,0.0004745043264683946,0.0016138421605083053,-0.051011803998086844,0.02990023035995204,-0.06999291670424317,0.9967652695500823,-0.03981133134304619,-0.029822451541189912,-0.06312429563582853
1274.8833333325026,-0.14203116,-0.6489416,0.11067968,-2.1764724,-0.06615159,1.4824795,0.64504886,0.039999347,0.04,-0.0009490854302462992,0.00027168212776984557,0.0014253454438728497,-0.051055850017348296,0.03007630289993976,-0.06979858961370224,0.9966968482925124,-0.040271361587239984,-0.030217916810026516,-0.06372195495545394
1274.8999999991693,-0.14358456,-0.6474607,0.111889526,-2.1745079,-0.06687528,1.4815129,0.64350903,0.039999336,0.04,-0.0020488589948630676,0.00033924168769128293,0.001631545520286437,-0.051092229966337784,0.03024590694524179,-0.06959456649668593,0.9966277485598013,-0.04073198050166987,-0.030614880594105293,-0.06431769314303477
1274.916666665836,-0.1451388,-0.6459791,0.11310006,-2.1725426,-0.067599334,1.4805456,0.64196825,0.039999332,0.04,-0.0022254102141072707,0.0001584998754369793,0.0009727546806059806,-0.051121899177303434,0.03040961912903361,-0.0693797255963383,0.9965579714831323,-0.04119322762243833,-0.031013526497907454,-0.06491139072330912
1274.9333333325026,-0.1466937,-0.6444967,0.11431114,-2.1705759,-0.06832368,1.4795781,0.640427,0.039999332,0.04,-0.0010626485303699695,6.753645546558884e-05,0.0017050895823267354,-0.05114403304583178,0.030563884115518664,-0.06915524601277609,0.9964875455850096,-0.04165491305567912,-0.03141328379222893,-0.0655030175921397
1274.9499999991692,-0.14824907,-0.64301395,0.1155226,-2.1686087,-0.069048256,1.4786104,0.63888514,0.039999317,0.04,-0.0019873844382178874,3.620115168884164e-05,0.0009454673500108868,-0.051160039372909596,0.030714539240760202,-0.06892555480072443,0.9964164680649806,-0.04211711973085342,-0.03181434491260071,-0.06609249467427203
1274.9666666658359,-0.14980471,-0.6415308,0.11673431,-2.1666405,-0.069772944,1.4776424,0.63734293,0.039999314,0.04,-0.0013530273213824273,-0.00010679159646587166,0.0012202541751049623,-0.05116819016801884,0.030858842422606524,-0.06868446889385577,0.9963447561366878,-0.042579776178573475,-0.03221649776239138,-0.06667973343852178
1274.9833333325025,-0.1513604,-0.64004767,0.11794611,-2.1646724,-0.07049766,1.4766744,0.6358006,0.039999306,0.04,-0.002353312196312629,-0.00015921821280157067,0.0007242766196791095,-0.05116881496035395,0.030998776130650177,-0.06843460685166997,0.9962724165330106,-0.04304280718695074,-0.032619860468667085,-0.06726465273787775
1274.9999999991692,-0.15291598,-0.6385645,0.11915784,-2.1627042,-0.07122233,1.4757065,0.63425845,0.0399993,0.04,-0.002352469643085442,-0.00014939616162917835,0.0007143968934419931,-0.05116217178979285,0.031130972704594875,-0.06817624745569828,0.9961994643498929,-0.043506070048313854,-0.03302439960958422,-0.06784716743066005
1275.0166666658358,-0.15447123,-0.63708156,0.12036937,-2.160737,-0.07194685,1.4747386,0.6327168,0.03999929,0.04,-0.003670026931956727,-0.00023786858047020187,0.00029480848242613433,-0.05114873361102688,0.03125673473880414,-0.067908436755751,0.9961259030663636,-0.0439694847910226,-0.03343040462748395,-0.06842717072827402
1275.0333333325025,-0.15602599,-0.6355993,0.121580526,-2.1587708,-0.07267114,1.473771,0.63117564,0.039999288,0.04,-0.0029882000162295697,-0.0003125941556103573,9.831819558492327e-06,-0.05112908017470815,0.031372243483659204,-0.06763245274227109,0.9960517506658886,-0.04443301995078287,-0.03383752624692473,-0.06900462702573341
1275.0499999991691,-0.15758008,-0.6341175,0.12279119,-2.1568053,-0.07339511,1.472804,0.6296349,0.039999273,0.04,-0.0028557134029494335,-0.0003799488084904601,0.0005794327317953929,-0.05110299463342234,0.03147954418024961,-0.06735041108419806,0.9959770153803196,-0.04489679808502543,-0.03424559329561126,-0.0695794631745221
1275.0666666658358,-0.1591333,-0.6326368,0.12400122,-2.154841,-0.07411869,1.4718374,0.6280954,0.03999926,0.04,-0.0028026130372449387,-0.0004853267347254553,-0.00020262410149740617,-0.051068536377221925,0.03158055437719684,-0.06705963077640047,0.9959017231773772,-0.04536044013539287,-0.03465449837182886,-0.07015164991396283
1275.0833333325024,-0.16068545,-0.6311568,0.12521045,-2.1528776,-0.074841745,1.4708713,0.62655663,0.039999254,0.04,-0.002915567005823405,-0.0005769382680972934,0.00017693985316924454,-0.05102876035798953,0.03167471327988039,-0.06675973983142627,0.9958258730415444,-0.045824213237712165,-0.035064310283508385,-0.07072104500452803
1275.099999999169,-0.16223633,-0.62967813,0.1264187,-2.1509159,-0.07556423,1.469906,0.6250194,0.03999925,0.04,-0.0032901403429708154,-0.0005701703003485603,-0.00035526819106568297,-0.05098020551940315,0.03176216871941255,-0.06645231960167013,0.9957494903915374,-0.04628776914529583,-0.03547492229130585,-0.07128761954905886
1275.1166666658357,-0.16378577,-0.6282008,0.12762587,-2.1489563,-0.076286025,1.4689419,0.6234834,0.039999247,0.04,-0.003836920793087728,-0.0006855176191575274,-0.00013447316700165857,-0.05092599982175608,0.03184143298799219,-0.0661372922270094,0.995672580172904,-0.04675127183708689,-0.035886225447438656,-0.0718513082454483
1275.1333333325024,-0.16533358,-0.62672514,0.12883179,-2.1469984,-0.07700704,1.467979,0.62194896,0.03999924,0.04,-0.002824225941910896,-0.0007855825432667718,-0.0002990102391686733,-0.050863977210190356,0.031914017617370886,-0.06581377692966318,0.9955951644240039,-0.04721463317530031,-0.03629794791254601,-0.07241205677924442
1275.149999999169,-0.16687953,-0.62525105,0.13003634,-2.1450424,-0.07772719,1.4670168,0.62041634,0.03999923,0.04,-0.00327340180601432,-0.0009329203279645482,-0.0005779301525343783,-0.05079416323190051,0.03198080610225537,-0.06548298029839894,0.9955172525331588,-0.04767773701434939,-0.036710282852265165,-0.07296977754473657
1275.1666666658357,-0.16842352,-0.6237789,0.13123932,-2.1430895,-0.07844641,1.466056,0.6188857,0.03999922,0.04,-0.0047183463971922635,-0.0007351116895454313,-0.0009250501788571341,-0.05071721497758284,0.032041049092709356,-0.06514476927355825,0.9954388527719037,-0.04814050475940573,-0.037123409214101386,-0.07352438154781135
1275.1833333325023,-0.16996527,-0.6223089,0.1324406,-2.1411395,-0.079164594,1.4650966,0.6173573,0.039999202,0.04,-0.003925427732065501,-0.0009730867853996461,-0.0009450680574119019,-0.05063403333386304,0.03209082757541163,-0.06480049624117099,0.995359989563901,-0.04860285610410644,-0.037536958976978695,-0.07407584130224178
1275.199999999169,-0.17150469,-0.6208414,0.13364005,-2.1391923,-0.079881676,1.4641385,0.61583126,0.039999194,0.04,-0.0036573639117243317,-0.0009996740465173515,-0.0012138429421604258,-0.050543764998196815,0.03213353443548446,-0.06444931978080565,0.9952806759917335,-0.049064749166423886,-0.0379508480840426,-0.07462412154508716
1275.2166666658356,-0.17304152,-0.6193758,0.13483754,-2.1372488,-0.08059755,1.4631821,0.6143079,0.039999187,0.04,-0.005300593313473101,-0.0010474464903181824,-0.0008993693993541996,-0.050446905510425764,0.03216997433745632,-0.06409083223901343,0.9952009181372059,-0.04952611388740071,-0.038365437746841285,-0.07516907454909792
1275.2333333325023,-0.17457557,-0.61791325,0.1360329,-2.1353085,-0.08131212,1.4622273,0.6127871,0.039999176,0.04,-0.0036648668915617577,-0.0012581627044455646,-0.0015183369809435021,-0.05034344046318577,0.03219452163231986,-0.06372636678152216,0.9951207422128766,-0.04998697073283872,-0.03878008606040097,-0.07571073965954743
1275.249999999169,-0.17610663,-0.61645335,0.13722599,-2.133372,-0.082025334,1.4612747,0.6112695,0.03999917,0.04,-0.004661739265809928,-0.0012410025325246266,-0.001147802771028772,-0.05023227266157688,0.03221459755050969,-0.06335495271265781,0.9950401642643647,-0.050447154983242995,-0.03919489076065108,-0.0762490432274611
1275.2666666658356,-0.1776346,-0.61499643,0.13841662,-2.1314397,-0.08273705,1.4603238,0.6097546,0.039999157,0.04,-0.004804655128554103,-0.0012221630239714343,-0.0018350231626218516,-0.05011495197089065,0.03222678444808472,-0.06297634614994317,0.994959187860159,-0.05090676740465339,-0.03961003791283495,-0.07678385521452577
1275.2833333325023,-0.17915918,-0.61354285,0.13960475,-2.1295114,-0.08344723,1.459375,0.60824335,0.039999157,0.04,-0.004226462024359279,-0.0015592029673258678,-0.0017104054878425146,-0.04998963728977582,0.032229914565635946,-0.06259137738587879,0.9948778457102911,-0.051365547825354727,-0.04002505835329354,-0.07731524633128142
1275.299999999169,-0.18068026,-0.61209255,0.14079021,-2.1275873,-0.084155746,1.4584284,0.6067357,0.039999153,0.04,-0.0046771776156084854,-0.0015295221884412125,-0.0017805641271406714,-0.04985806425224915,0.032225732876502246,-0.06220052227105817,0.9947961509526199,-0.05182346457020838,-0.040440063001712455,-0.07784309779428222
1275.3166666658356,-0.18219762,-0.6106458,0.14197274,-2.125668,-0.08486257,1.4574841,0.60523176,0.039999146,0.04,-0.005065453305208578,-0.0014054985057548874,-0.001985060241782577,-0.0497203401067912,0.032215705950334,-0.06180462341966793,0.9947141177740759,-0.05228048885258056,-0.04085501730289374,-0.07836735256123753
1275.3333333325022,-0.18371116,-0.6092025,0.14315228,-2.1237543,-0.08556756,1.4565423,0.6037315,0.039999135,0.04,-0.0062282212998976405,-0.0014677242549956948,-0.0022730997909947703,-0.049576303806380506,0.03219765035809245,-0.06140274462966985,0.9946317468135664,-0.052736649261324715,-0.041270246326937925,-0.07888790036118132
1275.3499999991689,-0.18522058,-0.607763,0.14432867,-2.121845,-0.086270645,1.4556029,0.60223526,0.039999124,0.04,-0.004327632507550305,-0.0017492677530858702,-0.00197295919122098,-0.049425276754745895,0.03216765290434779,-0.060997368892793676,0.994549075314623,-0.05319186803115498,-0.04168505241174707,-0.07940477549627852
1275.3666666658355,-0.18672575,-0.6063278,0.14550179,-2.1199412,-0.08697175,1.4546661,0.6007433,0.039999116,0.04,-0.005175661044942714,-0.0018007909183451187,-0.0026499085354014795,-0.04926684117483873,0.03213218921166586,-0.06058509119685428,0.9944661158934572,-0.05364601069878686,-0.042099547196494114,-0.0799179454299013
1275.3833333325022,-0.1882265,-0.6048968,0.14667152,-2.1180432,-0.0876708,1.4537324,0.59925556,0.039999112,0.04,-0.005520997377672643,-0.0018006926058619643,-0.0024432007724950466,-0.0491016094110427,0.03208990052226263,-0.06016584669563198,0.9943828794346705,-0.05409914418832191,-0.04251367172845876,-0.08042735480835954
1275.3999999991688,-0.18972267,-0.6034701,0.14783765,-2.1161509,-0.0883677,1.4528012,0.5977722,0.0399991,0.04,-0.005519473684501008,-0.001818179095106065,-0.0027772563812700213,-0.04892929342045948,0.03203941659819316,-0.05974357964288273,0.9942993804056746,-0.0545512023447302,-0.04292753224995983,-0.08093290692026855
1275.4166666658355,-0.19121398,-0.6020479,0.14900017,-2.1142642,-0.089062355,1.4518731,0.5962939,0.039999098,0.04,-0.00512075902281417,-0.0021907018028621827,-0.0026577311123876513,-0.048749381752652296,0.03198055103882881,-0.05931427155118815,0.9942156530379936,-0.05500192613050631,-0.043340771173409336,-0.08143464207733823
1275.4333333325021,-0.19270034,-0.6006307,0.1501588,-2.1123843,-0.089754686,1.4509479,0.5948202,0.039999094,0.04,-0.006125727884942478,-0.0019229352380661924,-0.0033731085682608963,-0.048564144851066526,0.031913719104749584,-0.05888003745800952,0.994131692073741,-0.055451529528174975,-0.04375364866272715,-0.08193244117128126
1275.4499999991688,-0.19418155,-0.599218,0.15131347,-2.1105096,-0.09044462,1.4500262,0.59335214,0.03999909,0.04,-0.004171372618122504,-0.002236872146310631,-0.0021388726112236967,-0.04837078849117444,0.03184011262298277,-0.05844116457880037,0.9940475612960623,-0.05589956770181109,-0.04416534280949442,-0.08242637142699949
1275.4666666658354,-0.19565748,-0.5978105,0.15246397,-2.1086423,-0.091132045,1.4491078,0.59188926,0.039999083,0.04,-0.006855941612027294,-0.001987908361660018,-0.0035794674680289518,-0.048172562582217665,0.031762441779008006,-0.057998350593724456,0.993963238729218,-0.05634621347908557,-0.044576642325563735,-0.08291626644073997
1275.483333332502,-0.19712792,-0.5964084,0.15361024,-2.1067824,-0.091816925,1.448193,0.5904314,0.03999907,0.04,-0.006475267049355082,-0.002214168389798321,-0.0035643363770487824,-0.04796852068016658,0.031674642295764305,-0.05755294907194911,0.9938787323531176,-0.05679163297299091,-0.04498729120770983,-0.08340215482955848
1275.4999999991687,-0.19859265,-0.5950118,0.15475212,-2.1049297,-0.09249916,1.4472814,0.588979,0.03999906,0.04,-0.00615595364124033,-0.0023695308438501095,-0.003752559866843086,-0.04775569086013,0.031578658161529244,-0.057102465903379765,0.99379406760995,-0.057235625282520054,-0.04539728856998878,-0.08388397089004787
1275.5166666658354,-0.20005153,-0.5936205,0.15588945,-2.1030838,-0.093178675,1.4463735,0.5875327,0.039999053,0.04,-0.0056905252602046374,-0.0023649070256218097,-0.003269671857664136,-0.04753597336817378,0.03147396241962613,-0.05664796244333056,0.9937092865679169,-0.05767791657570028,-0.04580625212913265,-0.08436171521519895
1275.533333332502,-0.20150442,-0.59223485,0.15702213,-2.1012456,-0.09385536,1.4454694,0.58609265,0.03999904,0.04,-0.006433422331264538,-0.002436467047592372,-0.003682133706539581,-0.04731097653639969,0.031362428432292956,-0.056190362244612574,0.9936244018646011,-0.05811844299524117,-0.046214291399037016,-0.08483533387396718
1275.5499999991687,-0.20295109,-0.5908553,0.15815003,-2.0994155,-0.09452918,1.4445692,0.58465874,0.039999038,0.04,-0.006625835516249623,-0.0025590092801411335,-0.004085729717950848,-0.047081156135864194,0.031243183429154615,-0.05572813773818565,0.9935394186353189,-0.05855731146888359,-0.04662135350055713,-0.0853048315695232
1275.5666666658353,-0.20439138,-0.58948183,0.159273,-2.0975935,-0.09520002,1.443673,0.58323085,0.03999903,0.04,-0.006602998336102672,-0.0026190840310774677,-0.004099707239091366,-0.04684496121787275,0.031116442790998573,-0.05526226585195026,0.9934543500033816,-0.05899459650111641,-0.04702740599209819,-0.08577012958299393
1275.583333332502,-0.20582512,-0.5881143,0.16039091,-2.0957804,-0.095867805,1.442781,0.58180964,0.039999027,0.04,-0.0078178428019271,-0.0025859781743339805,-0.004126358424350052,-0.04660099102543715,0.03098163676748491,-0.05479224345771532,0.993369216252586,-0.05943002113381322,-0.047432681773080534,-0.08623116309995658
1275.5999999991686,-0.2072522,-0.5867534,0.16150361,-2.0939755,-0.09653246,1.4418929,0.58039486,0.039999023,0.04,-0.006264709706593763,-0.002714783840854218,-0.0046105026990206355,-0.046352003848119196,0.03083552407202164,-0.0543193245541299,0.9932840417028047,-0.059863654272675454,-0.047836722740154276,-0.08668796544586865
1275.6166666658353,-0.20867243,-0.58539885,0.16261104,-2.0921795,-0.09719395,1.4410088,0.57898706,0.039999023,0.04,-0.007343997588060702,-0.002778956081050943,-0.004495694180728371,-0.04609619616526515,0.030681753483218013,-0.05384240084973377,0.9931988378819021,-0.06029531787553687,-0.04823979635316482,-0.0871404907039907
1275.633333332502,-0.21008568,-0.5840512,0.16371302,-2.090392,-0.097852126,1.4401296,0.57758623,0.03999902,0.04,-0.00598174289261344,-0.002932218253154373,-0.004204482937808507,-0.045835342160585144,0.030518589525172925,-0.05336337834473638,0.9931136497601074,-0.060725026607605787,-0.048641048008647006,-0.08758880209413053
1275.6499999991686,-0.21149167,-0.5827104,0.1648094,-2.0886137,-0.09850697,1.4392546,0.5761925,0.039999012,0.04,-0.0069698077033830685,-0.0029617656998437436,-0.004912274390456162,-0.04556812473646947,0.030352786648891704,-0.05288169289941529,0.9930284710359498,-0.06115274575130438,-0.04904105351675434,-0.08803279200983465
1275.6666666658352,-0.21289031,-0.5813767,0.1659001,-2.086845,-0.099158354,1.4383845,0.5748061,0.039999004,0.04,-0.007241281791792176,-0.0030510746904466313,-0.004729377176482252,-0.04529517123538992,0.030177786677304065,-0.05239808062488746,0.9929433298002716,-0.061578405226539616,-0.049439537084688914,-0.08847245892229383
1275.683333332502,-0.21428138,-0.5800501,0.16698493,-2.085086,-0.09980625,1.4375187,0.5734272,0.039998993,0.04,-0.008048404499660933,-0.0030473563799121584,-0.005434567577355942,-0.04501634571516607,0.02999480967465385,-0.05191127229187012,0.9928582264508568,-0.06200191851330286,-0.04983695703115997,-0.08890771610722793
1275.6999999991685,-0.2156648,-0.57873094,0.16806383,-2.083336,-0.10045054,1.4366579,0.5720559,0.039998986,0.04,-0.00562032345143848,-0.00329040059490332,-0.004596681490842691,-0.04473209346867605,0.029801500020080002,-0.05142229888026509,0.9927732148671602,-0.06242328647009156,-0.050232223354311926,-0.08933868638769384
1275.7166666658352,-0.21704036,-0.57741916,0.16913667,-2.0815964,-0.10109119,1.435802,0.5706922,0.039998975,0.04,-0.00792343222193459,-0.0032269357062464366,-0.005261683669965933,-0.04444142132778522,0.029606356849246382,-0.050931276894849796,0.9926882786173237,-0.06284252833812697,-0.05062606549723813,-0.08976524728488186
1275.7333333325018,-0.21840794,-0.57611513,0.17020328,-2.079867,-0.10172812,1.434951,0.5693365,0.03999897,0.04,-0.007443273922413951,-0.0032424158016644555,-0.00554301391246792,-0.04414450382469949,0.0294010106348803,-0.05043620520163648,0.9926034523366332,-0.06325943417807461,-0.0510182622547664,-0.09018740107892453
1275.7499999991685,-0.21976738,-0.5748185,0.17126356,-2.0781472,-0.10236125,1.4341052,0.56798893,0.039998967,0.04,-0.0069969210421572114,-0.0033655434389129324,-0.004829039975495775,-0.04384256079023759,0.029188185165787424,-0.04993976866459884,0.9925187629372201,-0.06367399597082724,-0.05140853041963012,-0.0906051348145972
1275.7666666658351,-0.2211185,-0.5735297,0.1723174,-2.0764382,-0.10299049,1.4332645,0.5666497,0.039998956,0.04,-0.00794233433580871,-0.003443347268117236,-0.0056468076904403475,-0.043535348620636925,0.0289694826705618,-0.04944307115294024,0.9924342143657949,-0.0640861647440004,-0.0517971328619975,-0.09101840842285001
1275.7833333325018,-0.22246116,-0.57224923,0.17336468,-2.0747402,-0.10361581,1.4324287,0.5653187,0.03999895,0.04,-0.007828144198862574,-0.003513582157596562,-0.00624069475576583,-0.04322280367816182,0.028742413941468918,-0.04894401255484428,0.9923498175868443,-0.06449592368053793,-0.052184074820190475,-0.0914272262464088
1275.7999999991684,-0.22379522,-0.5709769,0.1744053,-2.0730534,-0.10423712,1.4315987,0.5639962,0.039998945,0.04,-0.008118328293615917,-0.003576622196035939,-0.00561318220004825,-0.04290512172569658,0.02850543157105448,-0.0484426505462241,0.9922655979140269,-0.06490327125366213,-0.052569078478125225,-0.09183158805581437
1275.816666665835,-0.22512056,-0.5697129,0.17543915,-2.0713775,-0.10485434,1.4307739,0.56268245,0.039998945,0.04,-0.007670798525172273,-0.0036402867002419126,-0.005989421732177647,-0.042581181707092464,0.02826230540257288,-0.047939017707402116,0.9921815790560105,-0.06530803174374075,-0.05295215896022201,-0.09223146986322867
1275.8333333325018,-0.22643693,-0.56845725,0.17646606,-2.0697126,-0.105467394,1.4299545,0.5613776,0.03999894,0.04,-0.00742544239815679,-0.003822332039707388,-0.005897848193825439,-0.04225264294359512,0.028011358551796567,-0.047434153048762306,0.9920977830327752,-0.06571021686451442,-0.05333309710546895,-0.09262687004433266
1275.8499999991684,-0.22774434,-0.5672103,0.17748594,-2.0680594,-0.10607623,1.4291409,0.5600816,0.039998934,0.04,-0.00810785857532359,-0.0036512724483281356,-0.006239034923094522,-0.04191910469488799,0.0277534342661553,-0.04692978281216349,0.9920142215862071,-0.06610977290265682,-0.053711964055977945,-0.09301777794980987
1275.866666665835,-0.22904259,-0.5659721,0.1784987,-2.066418,-0.10668081,1.428333,0.5587947,0.039998926,0.04,-0.00807074011222042,-0.0038193227007043973,-0.006240399535917263,-0.04158060335166608,0.027489390242489156,-0.046424062172444464,0.9919309095115211,-0.06650667632858173,-0.05408871904141344,-0.09340419279577682
1275.8833333325017,-0.23033147,-0.56474274,0.1795042,-2.0647879,-0.10728106,1.4275308,0.5575171,0.03999892,0.04,-0.007455087630026114,-0.004001898279909488,-0.006376959194898113,-0.04123719793675568,0.027217082681915875,-0.045917560001632204,0.991847874858346,-0.06690081165539966,-0.05446316804001404,-0.09378612832331164
1275.8999999991684,-0.23161088,-0.56352246,0.18050234,-2.0631695,-0.10787687,1.4267344,0.55624896,0.03999891,0.04,-0.007496652296934414,-0.00404712968792853,-0.006337997413696783,-0.04088901548505026,0.026938362199637148,-0.0454094311680661,0.991765140301649,-0.06729216238462433,-0.054835133410777406,-0.09416357845724786
1275.916666665835,-0.23288067,-0.5623112,0.18149307,-2.0615637,-0.10846823,1.4259442,0.5549903,0.0399989,0.04,-0.009037030987935069,-0.004066738520885904,-0.006574699478645307,-0.0405359198393697,0.02665622773073119,-0.04490188954145211,0.9916826955659502,-0.06768076895193308,-0.05520502753321678,-0.09453649963999383
1275.9333333325017,-0.23414072,-0.5611092,0.1824762,-2.0599701,-0.10905504,1.4251599,0.5537413,0.03999889,0.04,-0.007884540640379356,-0.004084190728864678,-0.00672858496340023,-0.04017818054249618,0.02636311421263795,-0.04439386262697627,0.9916005806487406,-0.06806648775492866,-0.055572487801623396,-0.0949049013556573
1275.9499999991683,-0.23539093,-0.55991673,0.18345168,-2.0583887,-0.10963728,1.4243823,0.55250204,0.03999888,0.04,-0.007372855783094323,-0.004271687188797668,-0.006349710202635528,-0.03981545971749128,0.02606524774745011,-0.043884761127865685,0.991518821993548,-0.06844933548057258,-0.05593702106704723,-0.09526890247577978
1275.966666665835,-0.23663114,-0.5587339,0.18441942,-2.0568204,-0.11021484,1.4236109,0.55127275,0.03999888,0.04,-0.008920206917917284,-0.004273621648615,-0.007139825039192971,-0.039447720849435375,0.02576476442573461,-0.0433733446496037,0.9914374149713141,-0.06882922396043877,-0.05629926037900464,-0.09562836088095956
1275.9833333325016,-0.23786122,-0.55756056,0.18537927,-2.055264,-0.110787645,1.4228455,0.5500534,0.03999888,0.04,-0.007097547850642982,-0.00441994629406528,-0.0068349654238408775,-0.03907552995309327,0.025455179478964092,-0.042861894946703685,0.9913563948641836,-0.0692061465743572,-0.05665873066954664,-0.09598331040932769
1275.9999999991683,-0.23908101,-0.55639714,0.18633115,-2.0537214,-0.11135568,1.4220861,0.5488443,0.039998878,0.04,-0.009643689574101444,-0.004370335745970677,-0.007748363427473315,-0.038698848462573966,0.02514215740884551,-0.04235113838665649,0.9912757460780849,-0.06958002233378044,-0.0570161077875139,-0.09633368664246802
1276.016666665835,-0.24029045,-0.5552435,0.18727495,-2.0521917,-0.11191887,1.4213338,0.5476454,0.03999887,0.04,-0.007984708085118086,-0.004411391177774893,-0.006577791481499062,-0.038318297181742914,0.02481917521208301,-0.04184126017843812,0.9911955211858559,-0.0699508594181064,-0.05737047884042272,-0.09667959560004565
1276.0333333325016,-0.24148943,-0.5540998,0.1882106,-2.0506756,-0.11247715,1.4205878,0.546457,0.039998867,0.04,-0.009054519297935215,-0.004481534724121161,-0.007539060824224286,-0.03793319485086115,0.024491018644343464,-0.041330783924190304,0.9911157149043357,-0.07031852608254056,-0.05772242557340789,-0.09702095724722992
1276.0499999991682,-0.2426777,-0.5529664,0.18913803,-2.049173,-0.11303052,1.4198484,0.5452792,0.03999886,0.04,-0.008469054681548016,-0.0047090997794208,-0.00752600032973838,-0.03754437865143199,0.024155095526869994,-0.04082136999617289,0.9910363499773149,-0.07068303556112424,-0.058071566981073894,-0.09735786879275993
1276.0666666658349,-0.24385522,-0.5518431,0.1900571,-2.0476835,-0.11357885,1.4191158,0.5441119,0.039998855,0.04,-0.0075959727200203275,-0.004785074477253737,-0.007087529009885962,-0.03715149443033529,0.023814738323379832,-0.04031121862923168,0.9909574520588394,-0.0710444488811424,-0.058417638238876024,-0.09769029652334774
1276.0833333325015,-0.24502195,-0.55073035,0.19096771,-2.0462074,-0.11412213,1.4183899,0.54295534,0.039998855,0.04,-0.008063255745494047,-0.004649756244759495,-0.007651759563165328,-0.03675365177224625,0.023470257205372158,-0.039800902216675184,0.9908790385140505,-0.0714025916750733,-0.05876067731838406,-0.09801828266521712
1276.0999999991682,-0.2461777,-0.5496279,0.19186977,-2.0447452,-0.11466029,1.4176706,0.54180974,0.039998855,0.04,-0.008771872062318664,-0.004759743606128075,-0.007751063834970928,-0.0363521571756197,0.023121007864302247,-0.0392909732249566,0.990801115054758,-0.07175740608696043,-0.05910098735516571,-0.09834174277265899
1276.1166666658348,-0.24732234,-0.54853606,0.19276324,-2.0432978,-0.11519329,1.4169583,0.54067504,0.03999885,0.04,-0.00977294366992787,-0.004853877717808652,-0.007966327571207188,-0.03594745811946418,0.02276588109204227,-0.03878254475300774,0.9907236790263129,-0.07210898656347346,-0.0594386431410175,-0.09866069924195343
1276.1333333325015,-0.24845576,-0.54745495,0.193648,-2.041864,-0.1157211,1.4162532,0.5395516,0.039998837,0.04,-0.007636603189009605,-0.004977260162994379,-0.007523048705793123,-0.03553895176587938,0.022401689388837735,-0.03827647185221908,0.990646787586177,-0.07245714107520443,-0.05977289960769516,-0.09897527683661346
1276.1499999991681,-0.24957798,-0.54638445,0.19452396,-2.0404446,-0.11624365,1.4155548,0.5384393,0.03999883,0.04,-0.009398404085780854,-0.004784512238273364,-0.008190301952448742,-0.0351271269382248,0.02203586157046765,-0.03776983693493996,0.9905704188057448,-0.07280190966646481,-0.06010450510419802,-0.09928532521025887
1276.1666666658348,-0.2506887,-0.5453249,0.19539104,-2.0390406,-0.11676089,1.4148635,0.53733826,0.039998826,0.04,-0.009938134057696502,-0.005060326403205639,-0.00834682655153074,-0.03471233298795816,0.021661274532440107,-0.03726404213881568,0.9904945852833505,-0.07314329358741405,-0.06043336262801341,-0.09959088215805556
1276.1833333325014,-0.25178802,-0.54427624,0.1962492,-2.037651,-0.11727276,1.4141796,0.53624845,0.039998822,0.04,-0.008851089581263238,-0.004972582312937068,-0.00782462539041795,-0.034293637621836785,0.02127992296649947,-0.03675926690781051,0.9904193169712245,-0.07348129987171924,-0.06075905261048516,-0.09989200501187256
1276.199999999168,-0.2528757,-0.5432387,0.19709839,-2.0362754,-0.1177792,1.4135029,0.53517014,0.03999882,0.04,-0.007327483203400931,-0.005438870415666597,-0.007842167254779042,-0.033871684587698084,0.02089118287004458,-0.03625609478431324,0.9903446479816944,-0.07381586371131109,-0.06108109467577574,-0.10018880352502298
1276.2166666658347,-0.2539516,-0.54221237,0.19793846,-2.034915,-0.11828024,1.4128336,0.5341038,0.03999881,0.04,-0.009486508065492671,-0.005157842220951392,-0.008465023071502209,-0.033445393480179914,0.020503803020650573,-0.03575400471659888,0.9902705778060962,-0.07414672708939359,-0.06140012104477751,-0.10048119589852697
1276.2333333325014,-0.2550158,-0.5411971,0.19876938,-2.0335698,-0.11877574,1.4121716,0.533049,0.039998807,0.04,-0.009590270237547216,-0.005197028770231871,-0.008288606278528121,-0.03301779033366206,0.02010980151949565,-0.03525237492306806,0.9901971044970816,-0.07447413201154415,-0.06171613059318742,-0.10076912786824752
1276.249999999168,-0.2560681,-0.5401932,0.19959106,-2.0322392,-0.11926571,1.411517,0.53200597,0.039998803,0.04,-0.008097259026484949,-0.005363555375562101,-0.00820029223185248,-0.03258679882253758,0.019708543356083248,-0.03475201426434738,0.9901242675345489,-0.07479793456450529,-0.062028623492566055,-0.1010527272846926
1276.2666666658347,-0.25710854,-0.5392006,0.20040345,-2.0309236,-0.119750135,1.41087,0.53097486,0.039998796,0.04,-0.008794125659283836,-0.005300305251224047,-0.00830224656982459,-0.032153044849462215,0.019304558910476208,-0.0342542862485528,0.9900520729669837,-0.0751180782654066,-0.06233775434407307,-0.10133198663220096
1276.2833333325013,-0.2581368,-0.53821963,0.20120649,-2.029623,-0.12022893,1.4102302,0.5299556,0.03999879,0.04,-0.008442902784100426,-0.005665493319284565,-0.00868996994143334,-0.031716585673073054,0.018897825038468687,-0.03375717341175591,0.9899805251971984,-0.07543466570812045,-0.06264346953106784,-0.10160692232763195
1276.299999999168,-0.259153,-0.53725016,0.20199998,-2.028338,-0.12070211,1.409598,0.5289484,0.03999878,0.04,-0.009211739213421666,-0.005179111294753569,-0.008566760464612244,-0.03127698954576134,0.018485657554204102,-0.03326227900887483,0.9899096464401472,-0.07574750853041666,-0.06294586293062586,-0.1018775008335793
1276.3166666658346,-0.26015696,-0.5362922,0.20278399,-2.0270681,-0.1211696,1.4089733,0.52795327,0.039998777,0.04,-0.00884548519191064,-0.005622173677011233,-0.00852991087383348,-0.030835476180551824,0.018069167420104885,-0.032768554156662834,0.9898394396703428,-0.07605672090501145,-0.06324485283943004,-0.10214375882841598
1276.3333333325013,-0.2611486,-0.535346,0.20355842,-2.0258136,-0.12163134,1.4083563,0.5269705,0.039998777,0.04,-0.008476403829638102,-0.005642441490988359,-0.008630815940735559,-0.03039104235433958,0.017649668142955207,-0.03227667384143698,0.989769938706838,-0.07636210572509006,-0.06354022951027692,-0.10240574434705121
1276.349999999168,-0.26212797,-0.5344117,0.20432323,-2.0245748,-0.12208733,1.4077468,0.5259998,0.03999877,0.04,-0.008926220806104723,-0.005565494630979662,-0.009097755253550943,-0.02994539034249965,0.017226299200273576,-0.03178726435248007,0.9897011313539642,-0.07666379122018739,-0.06383218252773072,-0.10266346081336554
1276.3666666658346,-0.2630948,-0.53348947,0.2050784,-2.0233514,-0.122537516,1.407145,0.52504146,0.039998766,0.04,-0.008457412547091536,-0.005887418628913732,-0.008803110625055233,-0.02949672462658004,0.016798444929194304,-0.03129843019151533,0.9896330442450539,-0.07696171365311273,-0.06412043202602676,-0.10291696928417256
1276.3833333325013,-0.2640492,-0.5325791,0.20582384,-2.022144,-0.122981906,1.4065511,0.5240954,0.039998762,0.04,-0.009223420553716721,-0.005653333301067209,-0.008875088353632599,-0.02904588037730231,0.016369486741854265,-0.030811918474555614,0.989565675162471,-0.0772558863450555,-0.06440518055723943,-0.10316625069601161
1276.399999999168,-0.2649911,-0.5316805,0.20655951,-2.0209527,-0.12342044,1.405965,0.5231618,0.039998762,0.04,-0.009450385232767644,-0.005628741769106438,-0.008843449898776612,-0.028592681563505674,0.015936673017338022,-0.030327267014074857,0.9894990379987733,-0.07754621570952881,-0.06468654273992516,-0.10341126349189195
1276.4166666658346,-0.2659203,-0.53079396,0.20728536,-2.0197773,-0.12385309,1.4053868,0.5222409,0.03999876,0.04,-0.008979719045942858,-0.0059234382062345325,-0.008865842238758859,-0.02813807600619123,0.015497868681330788,-0.02984528463860691,0.9894331520298149,-0.07783269408723573,-0.06496422966402267,-0.10365210205117985
1276.4333333325012,-0.26683682,-0.52991945,0.20800135,-2.0186183,-0.12427982,1.4048166,0.52133256,0.039998755,0.04,-0.009707124542179812,-0.00583018199563079,-0.009059639447039913,-0.02768186884119929,0.015056840076402199,-0.02936509386657684,0.9893680167909035,-0.0781153038621926,-0.06523846305298583,-0.10388873659948032
1276.4499999991679,-0.2677406,-0.5290572,0.20870738,-2.0174756,-0.12470061,1.4042543,0.5204368,0.039998755,0.04,-0.009012385408357915,-0.0058500083363749456,-0.009255915052808206,-0.02722390749852585,0.014610807627605464,-0.02888684063760729,0.9893036496789475,-0.07839402964596018,-0.06550905999567133,-0.10412121736834595
1276.4666666658345,-0.26863158,-0.5282073,0.20940344,-2.0163486,-0.12511544,1.4036999,0.5195536,0.03999875,0.04,-0.008147313384743171,-0.006057620661081842,-0.009112018406209899,-0.02676468251910612,0.01416152135830883,-0.028411556352602306,0.9892400660481978,-0.07866893385208627,-0.0657757452701515,-0.10434961382626008
1276.4833333325012,-0.26950976,-0.5273694,0.21008952,-2.015238,-0.1255243,1.4031533,0.5186831,0.03999875,0.04,-0.0097102271887195,-0.005842172689118907,-0.00912954161889079,-0.026303224587775655,0.013712291044235124,-0.02793778655302301,0.9891772576931852,-0.0789399280219629,-0.06603902131405921,-0.1045738413292654
1276.4999999991678,-0.270375,-0.52654386,0.21076551,-2.0141432,-0.12592709,1.4026148,0.5178255,0.039998747,0.04,-0.007954773788076963,-0.006146045822974511,-0.00898309479782089,-0.02584090822973445,0.013256212325495582,-0.027467632443532227,0.9891152748507415,-0.07920691609301764,-0.0662981850967894,-0.10479402727659508
1276.5166666658345,-0.2712274,-0.5257306,0.21143144,-2.013065,-0.12632395,1.4020845,0.51698065,0.039998747,0.04,-0.00957387869742199,-0.0058726558539362594,-0.009272685560590688,-0.025377791408842783,0.012802502958269103,-0.0269997538634228,0.9890540848652787,-0.07946996861094618,-0.06655377860192645,-0.10501017024120549
1276.5333333325011,-0.2720667,-0.52492976,0.21208732,-2.0120041,-0.12671472,1.401562,0.51614875,0.03999874,0.04,-0.010235692264570773,-0.006208086231934695,-0.00969499737510926,-0.02491354644278177,0.01234441224029275,-0.026534066626925736,0.9889936881911554,-0.07972907453151253,-0.06680605733526851,-0.10522219393132323
1276.5499999991678,-0.2728931,-0.5241413,0.21273309,-2.0109591,-0.12709944,1.4010481,0.5153298,0.039998736,0.04,-0.008123240913127106,-0.006117121191684394,-0.008719587822580976,-0.02444866937889978,0.011879117030645807,-0.026071662742285687,0.9889341377520161,-0.07998419077866621,-0.0670540873069775,-0.1054303077373237
1276.5666666658344,-0.27370638,-0.5233653,0.21336861,-2.0099306,-0.12747811,1.400542,0.5145237,0.039998733,0.04,-0.008930486231317758,-0.006102236237215397,-0.009511011347895781,-0.023982863345247445,0.011416530182280907,-0.025611981068221837,0.9888754157696562,-0.08023532621607245,-0.06729840468448631,-0.10563441314416927
1276.583333332501,-0.27450666,-0.5226016,0.21399403,-2.0089188,-0.12785071,1.4000438,0.51373047,0.03999873,0.04,-0.009528214597320783,-0.006127236357963972,-0.009452898393846887,-0.023516535465116478,0.010951404892052173,-0.025154531957634868,0.9888175145191888,-0.0804824949670239,-0.06753921419366529,-0.10583451955802961
1276.5999999991677,-0.27529383,-0.5218506,0.21460919,-2.0079234,-0.1282172,1.3995543,0.51295024,0.039998725,0.04,-0.008406145884176652,-0.006214784618480129,-0.009137066571951458,-0.023049436778872008,0.010481450076144014,-0.0247000017842266,0.98876047787722,-0.08072565306116573,-0.06777582729902826,-0.10603076704330817
1276.6166666658344,-0.27606785,-0.5211119,0.21521416,-2.0069444,-0.1285776,1.3990726,0.51218283,0.03999873,0.04,-0.00898182410686843,-0.006282462520637577,-0.009317354506732656,-0.022581504973859634,0.010013261977679572,-0.024247327434443095,0.9887042806283066,-0.0809649117912348,-0.06800870586320545,-0.10622308813394653
1276.633333332501,-0.27682883,-0.520386,0.2158089,-2.0059822,-0.12893187,1.3985994,0.5114288,0.03999872,0.04,-0.00871576633065807,-0.006198055412409698,-0.009464240430956394,-0.02211256262864067,0.009541937514769845,-0.023798459722481305,0.9886489668254453,-0.08119994155473197,-0.0682375636979828,-0.10641158201554543
1276.6499999991677,-0.27757648,-0.5196726,0.2163934,-2.0050364,-0.12927996,1.3981339,0.5106877,0.039998718,0.04,-0.00876173048913742,-0.006577357494277902,-0.009620625508444114,-0.021644808928116835,0.009071506813466614,-0.02335201277461877,0.9885945083146401,-0.08143102986460186,-0.06846268084375548,-0.10659618584645263
1276.6666666658343,-0.27831095,-0.5189716,0.21696769,-2.004107,-0.12962195,1.3976768,0.50995946,0.03999871,0.04,-0.008630803782461172,-0.006360682443826149,-0.009043508487471819,-0.021176682361901802,0.008598352856609565,-0.02290899289384933,0.9885409150003901,-0.08165824445447585,-0.0686837559647326,-0.1067770206991263
1276.683333332501,-0.27903247,-0.51828325,0.21753168,-2.0031946,-0.12995781,1.3972282,0.5092446,0.039998703,0.04,-0.009207140378109102,-0.0059652108588215125,-0.009360267600011518,-0.020706845076982158,0.008125832637493072,-0.022469330708080687,0.9884882231079405,-0.08188114604651578,-0.06890093460235336,-0.10695406448535649
1276.6999999991676,-0.27974063,-0.5176074,0.21808542,-2.0022993,-0.13028751,1.3967876,0.5085429,0.0399987,0.04,-0.009756672399996447,-0.0065244688395471595,-0.009713254586052322,-0.02023976516671179,0.007652539642191817,-0.022031966360379966,0.9884363912770018,-0.08210006736294419,-0.0691145840133183,-0.10712727764189557
1276.7166666658343,-0.28043568,-0.51694405,0.2186288,-2.00142,-0.1306111,1.3963553,0.50785416,0.039998695,0.04,-0.007758889376985323,-0.0061766245459032865,-0.009141058501738186,-0.019772725427744255,0.007175434240006648,-0.021598038129045656,0.9883854687353607,-0.08231490577866225,-0.06932401514036854,-0.10729679587130828
1276.733333332501,-0.28111756,-0.5162932,0.21916191,-2.0005577,-0.13092856,1.3959309,0.5071784,0.03999869,0.04,-0.00932386289376197,-0.006343330439742556,-0.009651511946850988,-0.019306308330012675,0.006699913332890526,-0.02116660704753239,0.9883354228871949,-0.08252573010790963,-0.06952980684355964,-0.10746255951187565
1276.7499999991676,-0.28178632,-0.51565504,0.21968481,-1.9997119,-0.13123985,1.3955148,0.50651556,0.039998688,0.04,-0.0085021689596676,-0.006415901232267873,-0.009329170002914111,-0.018840443469785122,0.006222672232175659,-0.020739275075393332,0.9882862730759963,-0.08273259658793365,-0.0697315576225941,-0.10762467088406018
1276.7666666658342,-0.28244182,-0.51502943,0.22019744,-1.998883,-0.13154507,1.395107,0.5058658,0.039998688,0.04,-0.009125895168748954,-0.006417386034024419,-0.009511125885075522,-0.018374194671508196,0.005745846276170783,-0.02031455517415975,0.9882380122727994,-0.08293543157847554,-0.0699295104949155,-0.10778315661521519
1276.783333332501,-0.28308415,-0.51441634,0.22069983,-1.9980707,-0.13184415,1.3947074,0.5052291,0.039998688,0.04,-0.00862823299447868,-0.006453527867675279,-0.009331971911619164,-0.017908857106035278,0.005267837438761393,-0.019892874820572448,0.9881906557639385,-0.08313423934260189,-0.07012351572105652,-0.10793803153978197
1276.7999999991675,-0.2837134,-0.51381576,0.22119199,-1.9972752,-0.13213709,1.3943157,0.5046055,0.03999868,0.04,-0.009067654474481657,-0.00632561630992956,-0.009712437341580227,-0.017444622832254862,0.004790408145880842,-0.01947517921343934,0.9881441985298886,-0.083328953434604,-0.07031386485490837,-0.10808926329836545
1276.8166666658342,-0.28432956,-0.51322776,0.22167389,-1.996496,-0.13242397,1.3939321,0.5039948,0.03999868,0.04,-0.007950435948789192,-0.006351104345861391,-0.009357568236079139,-0.016981909741893227,0.004311156092901797,-0.019060619092471504,0.9880986598081347,-0.08351959986297441,-0.07050012641593288,-0.10823699505914895
