rsonawane2002/My_IMU/logs_2/traj_366/imu_400hz_366.csv
time,j1,j2,j3,j4,j5,j6,j7,gripper1,gripper2,imu_ax,imu_ay,imu_az,imu_gx,imu_gy,imu_gz
0.0,0.00016700293,-0.785875,4.0107683e-05,-2.3551247,9.29385e-05,1.570997,0.786,0.04,0.04,-9.547719,0.0071293502114713,0.082101986,-4.784392e-07,-0.0011641273740679,4.252989e-07
0.0025,0.00016700257,-0.785857774,4.0109318450000004e-05,-2.35513919,9.294347100000001e-05,1.570996565,0.786,0.04,0.04,-9.59071260000004,0.006153822908526308,0.07115474389999005,-4.414917999999664e-07,-0.0013253590790556216,4.6536884250003645e-07
0.005,0.00016700221,-0.785840548,4.0110953900000005e-05,-2.3551536800000004,9.294844200000001e-05,1.57099613,0.786,0.04,0.04,-9.633706200000079,0.005178295605581315,0.060207501799980086,-4.0454439999993284e-07,-0.0014865907840433431,5.054387850000729e-07
0.0075,0.00016700185,-0.7858233219999999,4.011258935000001e-05,-2.3551681700000002,9.295341300000002e-05,1.570995695,0.786,0.04,0.04,-9.676699800000119,0.004202768302636323,0.04926025969997013,-3.675969999998992e-07,-0.001647822489031065,5.455087275001093e-07
0.01,0.00016700149,-0.785806096,4.011422480000001e-05,-2.35518266,9.295838400000002e-05,1.5709952600000001,0.786,0.04,0.04,-9.719693400000157,0.003227240999691331,0.03831301759996017,-3.3064959999986563e-07,-0.0018090541940187865,5.855786700001458e-07
0.0125,0.00016700112999999998,-0.78578887,4.011586025000001e-05,-2.3551971500000004,9.296335500000003e-05,1.570994825,0.786,0.04,0.04,-9.762687000000197,0.0022517136967463384,0.027365775499950215,-2.9370219999983195e-07,-0.001970285899006508,6.256486125001822e-07
0.015,0.00016700076999999998,-0.785771644,4.011749570000001e-05,-2.3552116400000003,9.296832600000003e-05,1.57099439,0.786,0.04,0.04,-9.805680600000235,0.001276186393801347,0.01641853339994026,-2.5675479999979837e-07,-0.00213151760399423,6.657185550002186e-07
0.0175,0.00016699861949999995,-0.7857548619999999,4.012047355000004e-05,-2.3552257350000003,9.297233850000002e-05,1.57099396,0.786,0.04,0.04,-9.834253899999998,0.0006259543471969273,0.009042999999998523,-2.9804635500125923e-07,-0.0022883974830628685,6.10817234498441e-07
0.02,0.00016699288799999995,-0.7857389679999999,4.0126136200000044e-05,-2.3552390400000003,9.297443400000002e-05,1.5709935400000001,0.786,0.04,0.04,-9.8339866,0.0006263128132559026,0.008810883999998312,-4.958158200014391e-07,-0.0024365737102935783,3.6597338799821847e-07
0.0225,0.00016698715649999995,-0.7857230739999999,4.0131798850000045e-05,-2.3552523450000002,9.297652950000002e-05,1.57099312,0.786,0.04,0.04,-9.833719299999998,0.000626671279314878,0.0085787679999981,-6.935852850016188e-07,-0.002584749937524288,1.2112954149799587e-07
0.025,0.00016698142499999995,-0.7857071799999998,4.013746150000005e-05,-2.35526565,9.297862500000001e-05,1.5709927,0.786,0.04,0.04,-9.833451999999998,0.0006270297453738532,0.008346651999997888,-8.913547500017989e-07,-0.002732926164754998,-1.2371430500222705e-07
0.0275,0.00016697569349999992,-0.7856912859999998,4.014312415000006e-05,-2.355278955,9.298072050000002e-05,1.57099228,0.786,0.04,0.04,-9.833184699999997,0.0006273882114328286,0.008114535999997678,-1.0891242150019786e-06,-0.0028811023919857078,-3.6855815150244954e-07
0.03,0.00016696996199999992,-0.7856753919999998,4.0148786800000067e-05,-2.35529226,9.298281600000002e-05,1.57099186,0.786,0.04,0.04,-9.832917399999998,0.0006277466774918039,0.007882419999997467,-1.2868936800021583e-06,-0.003029278619216417,-6.13401998002672e-07
0.0325,0.00016696423049999992,-0.7856594979999998,4.015444945000007e-05,-2.355305565,9.298491150000002e-05,1.57099144,0.786,0.04,0.04,-9.832650099999997,0.0006281051435507792,0.007650303999997256,-1.4846631450023384e-06,-0.0031774548464471274,-8.58245844502895e-07
0.035,0.00016694907399999974,-0.7856444399999998,4.016729570000021e-05,-2.3553181,9.298240399999993e-05,1.57099101,0.786,0.04,0.04,-9.832371499999997,0.0006271539779845295,0.007447536979997605,-1.86104103000593e-06,-0.003317824890838718,-1.4459159140096663e-06
0.0375,0.0001669292049999997,-0.7856297999999998,4.0183733750000224e-05,-2.35533025,9.297759499999993e-05,1.570990575,0.786,0.04,0.04,-9.832087249999997,0.0006255479966057031,0.007259444449997434,-2.3267231250063528e-06,-0.0034542918438109616,-2.2049990950103553e-06
0.04,0.0001669093359999997,-0.7856151599999998,4.020017180000024e-05,-2.3553424,9.297278599999993e-05,1.57099014,0.786,0.04,0.04,-9.831802999999995,0.0006239420152268766,0.007071351919997262,-2.7924052200067767e-06,-0.0035907587967832057,-2.964082276011046e-06
0.0425,0.0001668894669999997,-0.7856005199999998,4.0216609850000255e-05,-2.35535455,9.296797699999992e-05,1.5709897050000001,0.786,0.04,0.04,-9.831518749999995,0.0006223360338480501,0.006883259389997091,-3.2580873150072007e-06,-0.0037272257497554502,-3.723165457011737e-06
0.045,0.00016686959799999966,-0.7855858799999997,4.023304790000027e-05,-2.3553667000000003,9.296316799999992e-05,1.57098927,0.786,0.04,0.04,-9.831234499999995,0.0006207300524692236,0.006695166859996921,-3.723769410007623e-06,-0.003863692702727694,-4.4822486380124265e-06
0.0475,0.00016684972899999964,-0.7855712399999998,4.0249485950000285e-05,-2.35537885,9.295835899999992e-05,1.570988835,0.786,0.04,0.04,-9.830950249999995,0.0006191240710903972,0.006507074329996749,-4.189451505008047e-06,-0.0040001596556999384,-5.241331819013118e-06
0.05,0.00016682985999999915,-0.7855565999999998,4.026592400000067e-05,-2.355391,9.295354999999969e-05,1.5709884,0.786,0.04,0.04,-9.830665999999997,0.0006175180897115676,0.006318981799996669,-4.6551336000168174e-06,-0.004136626608671979,-6.000415000027151e-06
0.0525,0.00016678336149999912,-0.7855431149999997,4.0302806000000704e-05,-2.3554020550000003,9.293609689999967e-05,1.57098798,0.786,0.04,0.04,-9.830448199999996,0.000615735328756181,0.0061359047299965035,-5.579626710017656e-06,-0.004261948144997013,-7.4929703500285055e-06
0.055,0.00016673686299999906,-0.7855296299999998,4.033968800000074e-05,-2.35541311,9.291864379999965e-05,1.57098756,0.786,0.04,0.04,-9.830230399999996,0.0006139525678007943,0.005952827659996337,-6.504119820018498e-06,-0.0043872696813220475,-8.985525700029865e-06
0.0575,0.00016669036449999902,-0.7855161449999998,4.037657000000077e-05,-2.3554241650000005,9.290119069999964e-05,1.57098714,0.786,0.04,0.04,-9.830012599999996,0.0006121698068454077,0.0057697505899961705,-7.42861293001934e-06,-0.004512591217647082,-1.0478081050031223e-05
0.06,0.000166643865999999,-0.7855026599999997,4.0413452000000804e-05,-2.3554352200000004,9.288373759999962e-05,1.57098672,0.786,0.04,0.04,-9.829794799999997,0.0006103870458900212,0.005586673519996004,-8.353106040020178e-06,-0.004637912753972116,-1.1970636400032579e-05
0.0625,0.00016659736749999893,-0.7854891749999997,4.045033400000084e-05,-2.3554462750000003,9.28662844999996e-05,1.5709863,0.786,0.04,0.04,-9.829576999999995,0.0006086042849346345,0.0054035964499958376,-9.27759915002102e-06,-0.00476323429029715,-1.3463191750033936e-05
0.065,0.0001665508689999989,-0.7854756899999996,4.048721600000087e-05,-2.3554573300000006,9.284883139999959e-05,1.57098588,0.786,0.04,0.04,-9.829359199999995,0.0006068215239792479,0.005220519379995671,-1.0202092260021862e-05,-0.004888555826622184,-1.4955747100035296e-05
0.0675,0.0001664902049999978,-0.7854625449999997,4.0535007050001707e-05,-2.3554680400000003,9.282520594999911e-05,1.570985455,0.786,0.04,0.03999999975,-9.829130299999994,0.0006046392169081668,0.005047918914996276,-1.1332364550037865e-05,-0.00501024452969708,-1.6720633800056718e-05
0.07,0.00016640120999999775,-0.7854500799999996,4.060461620000177e-05,-2.3554780600000003,9.278923579999908e-05,1.57098502,0.786,0.04,0.039999999,-9.828879199999994,0.0006016578176057841,0.004896271659996138,-1.287419520003927e-05,-0.0051246675662724945,-1.903018320005882e-05
0.0725,0.00016631221499999765,-0.7854376149999996,4.067422535000183e-05,-2.35548808,9.275326564999905e-05,1.570984585,0.786,0.04,0.03999999825,-9.828628099999994,0.0005986764183034014,0.0047446244049960005,-1.4416025850040664e-05,-0.005239090602847908,-2.133973260006091e-05
0.075,0.00016622321999999756,-0.7854251499999996,4.0743834500001896e-05,-2.3554981000000006,9.271729549999902e-05,1.57098415,0.786,0.04,0.0399999975,-9.828376999999994,0.0005956950190010187,0.004592977149995863,-1.5957856500042067e-05,-0.005353513639423322,-2.364928200006301e-05
0.0775,0.0001661342249999975,-0.7854126849999996,4.081344365000196e-05,-2.3555081200000005,9.268132534999898e-05,1.5709837150000001,0.786,0.04,0.03999999675,-9.828125899999993,0.000592713619698636,0.004441329894995724,-1.7499687150043473e-05,-0.005467936675998737,-2.5958831400065114e-05
0.08,0.0001660452299999974,-0.7854002199999996,4.088305280000202e-05,-2.3555181400000005,9.264535519999895e-05,1.57098328,0.786,0.04,0.039999996,-9.827874799999993,0.0005897322203962533,0.004289682639995586,-1.9041517800044876e-05,-0.00558235971257415,-2.8268380800067214e-05
0.0825,0.00016595623499999733,-0.7853877549999996,4.0952661950002086e-05,-2.3555281600000004,9.260938504999892e-05,1.570982845,0.786,0.04,0.03999999525,-9.827623699999993,0.0005867508210938706,0.004138035384995449,-2.058334845004628e-05,-0.0056967827491495645,-3.057793020006932e-05
0.085,0.000165826322999994,-0.7853759149999995,4.1053873100004684e-05,-2.3555375500000006,9.255313249999735e-05,1.57098241,0.78599981,0.04,0.0399999955,-9.827416499999993,0.0005826188717034817,0.0039888400999940786,-2.262200660009153e-05,-0.005804587295283002,-3.378230950014614e-05
0.08750000000000001,0.00016567595249999178,-0.7853643874999994,4.1170885250006384e-05,-2.3555466250000006,9.248673874999638e-05,1.570981975,0.785999525,0.04,0.03999999625,-9.82723124999999,0.0005779116472691681,0.003840870799991925,-2.490907850012481e-05,-0.005909082596195903,-3.743410375019929e-05
0.09,0.0001655255819999896,-0.7853528599999992,4.1287897400008084e-05,-2.355555700000001,9.242034499999541e-05,1.57098154,0.78599924,0.04,0.039999997,-9.827045999999987,0.0005732044228348547,0.0036929014999897724,-2.7196150400158082e-05,-0.006013577897108803,-4.108589800025241e-05
0.0925,0.0001653752114999874,-0.785341332499999,4.140490955000979e-05,-2.355564775000001,9.235395124999444e-05,1.570981105,0.785998955,0.04,0.03999999775,-9.826860749999984,0.0005684971984005412,0.003544932199987619,-2.9483222300191366e-05,-0.006118073198021703,-4.4737692250305556e-05
0.095,0.00016522484099998523,-0.7853298049999989,4.152192170001149e-05,-2.355573850000001,9.228755749999348e-05,1.57098067,0.78599867,0.04,0.0399999985,-9.826675499999983,0.0005637899739662276,0.0033969628999854654,-3.177029420022465e-05,-0.006222568498934604,-4.83894865003587e-05
0.0975,0.00016507447049998305,-0.7853182774999987,4.163893385001319e-05,-2.355582925000001,9.222116374999251e-05,1.570980235,0.785998385,0.04,0.03999999925,-9.82649024999998,0.0005590827495319141,0.0032489935999833125,-3.4057366100257934e-05,-0.006327063799847505,-5.204128075041185e-05
0.1,0.0001649240999999703,-0.7853067499999987,4.175594600002306e-05,-2.355592000000001,9.21547699999866e-05,1.5709798,0.7859981,0.04,0.04,-9.826304999999975,0.0005543755250976676,0.0031010242999845255,-3.634443800025128e-05,-0.006431559100759257,-5.5693075000610896e-05
0.10250000000000001,0.00016469072699997327,-0.7852960624999988,4.193711405002076e-05,-2.3556005800000013,9.204946024998793e-05,1.5709793799999998,0.785997815,0.04,0.04,-9.826111499999978,0.0005501938372611908,0.002979495919986073,-3.831783080022615e-05,-0.006527034915063281,-6.049075825054981e-05
0.105,0.00016445735399997624,-0.785285374999999,4.2118282100018454e-05,-2.355609160000001,9.194415049998927e-05,1.57097896,0.78599753,0.04,0.04,-9.82591799999998,0.000546012149424714,0.002857967539987621,-4.0291223600201015e-05,-0.006622510729367305,-6.52884415004887e-05
0.1075,0.00016422398099997918,-0.7852746874999991,4.229945015001615e-05,-2.355617740000001,9.183884074999062e-05,1.57097854,0.785997245,0.04,0.04,-9.825724499999982,0.0005418304615882373,0.0027364391599891684,-4.226461640017589e-05,-0.00671798654367133,-7.008612475042762e-05
0.11,0.00016399060799998215,-0.7852639999999992,4.248061820001384e-05,-2.3556263200000007,9.173353099999195e-05,1.57097812,0.78599696,0.04,0.04,-9.825530999999986,0.0005376487737517605,0.0026149107799907155,-4.4238009200150765e-05,-0.006813462357975354,-7.488380800036653e-05
0.1125,0.00016375723499998513,-0.7852533124999993,4.266178625001153e-05,-2.3556349000000005,9.16282212499933e-05,1.5709777,0.785996675,0.04,0.04,-9.825337499999987,0.0005334670859152837,0.002493382399992263,-4.6211402000125634e-05,-0.006908938172279378,-7.968149125030545e-05
0.115,0.0001635238619999881,-0.7852426249999994,4.284295430000923e-05,-2.355643480000001,9.152291149999465e-05,1.5709772800000001,0.78599639,0.04,0.04,-9.825143999999991,0.000529285398078807,0.00237185401999381,-4.818479480010051e-05,-0.007004413986583403,-8.447917450024436e-05
0.11750000000000001,0.00016325481399998544,-0.7852321799999995,4.305171805001129e-05,-2.3556517300000004,9.140097399999337e-05,1.570976855,0.7859961050000001,0.04,0.04,-9.824984099999996,0.0005244342348302253,0.002251307069994931,-5.052644380013158e-05,-0.0070976545568593044,-8.974574900026523e-05
0.12,0.00016291441599998514,-0.7852222199999995,4.3315673200011525e-05,-2.3556593200000004,9.124578099999323e-05,1.57097642,0.78599582,0.04,0.04,-9.824891399999997,0.0005182441207576897,0.0021327229799948237,-5.360460520013437e-05,-0.007186424639079815,-9.595010600027085e-05
0.1225,0.00016257401799998482,-0.7852122599999996,4.357962835001176e-05,-2.3556669100000005,9.10905879999931e-05,1.570975985,0.785995535,0.04,0.04,-9.824798699999995,0.0005120540066851541,0.0020141388899947155,-5.6682766600137174e-05,-0.007275194721300326,-0.00010215446300027649
0.125,0.0001622336199999845,-0.7852022999999995,4.3843583500012e-05,-2.3556745000000006,9.093539499999294e-05,1.57097555,0.78599525,0.04,0.04,-9.824705999999995,0.0005058638926126185,0.0018955547999946075,-5.976092800013997e-05,-0.007363964803520837,-0.00010835882000028215
0.1275,0.0001618932219999842,-0.7851923399999995,4.4107538650012245e-05,-2.3556820900000006,9.07802019999928e-05,1.570975115,0.785994965,0.04,0.04,-9.824613299999996,0.0004996737785400828,0.0017769707099944995,-6.283908940014278e-05,-0.007452734885741348,-0.00011456317700028779
0.13,0.0001615528239999839,-0.7851823799999995,4.437149380001248e-05,-2.3556896800000002,9.062500899999267e-05,1.57097468,0.7859946800000001,0.04,0.04,-9.824520599999996,0.0004934836644675472,0.0016583866199943915,-6.591725080014557e-05,-0.007541504967961859,-0.00012076753400029345
0.1325,0.0001612124259999836,-0.7851724199999994,4.463544895001272e-05,-2.3556972700000003,9.046981599999252e-05,1.570974245,0.785994395,0.04,0.04,-9.824427899999995,0.0004872935503950116,0.0015398025299942835,-6.899541220014838e-05,-0.007630275050182369,-0.0001269718910002991
0.135,0.00016078322199997673,-0.7851628999999994,4.496814960001803e-05,-2.3557041800000005,9.027427499998941e-05,1.5709738,0.78599392,0.04,0.0399999995,-9.82427779999999,0.0004802824696521355,0.0014324698649950045,-7.293655590021476e-05,-0.007713350607086111,-0.00013412277100037447
0.1375,0.0001603096149999763,-0.7851535999999995,4.533522300001836e-05,-2.35571075,9.005855999998921e-05,1.5709733499999998,0.78599335,0.04,0.03999999875,-9.82409899999999,0.0004728609055741787,0.001330762912494912,-7.730919075021875e-05,-0.007793578901332089,-0.00014174691250038143
0.14,0.00015983600799997588,-0.7851442999999995,4.5702296400018696e-05,-2.35571732,8.9842844999989e-05,1.5709729,0.7859927800000001,0.04,0.039999998,-9.823920199999991,0.000465439341496222,0.0012290559599948193,-8.168182560022273e-05,-0.007873807195578068,-0.00014937105400038837
0.14250000000000002,0.00015936240099997544,-0.7851349999999995,4.606936980001903e-05,-2.35572389,8.962712999998882e-05,1.57097245,0.78599221,0.04,0.03999999725,-9.82374139999999,0.0004580177774182652,0.0011273490074947268,-8.605446045022671e-05,-0.007954035489824044,-0.0001569951955003953
0.145,0.00015888879399997502,-0.7851256999999995,4.643644320001936e-05,-2.35573046,8.941141499998863e-05,1.5709719999999998,0.78599164,0.04,0.0399999965,-9.82356259999999,0.0004505962133403086,0.0010256420549946354,-9.042709530023065e-05,-0.008034263784070022,-0.00016461933700040216
0.1475,0.00015841518699997458,-0.7851163999999995,4.680351660001969e-05,-2.3557370300000002,8.919569999998842e-05,1.5709715499999999,0.78599107,0.04,0.03999999575,-9.82338379999999,0.0004431746492623518,0.0009239351024945427,-9.479973015023461e-05,-0.008114492078316,-0.0001722434785004091
0.15,0.00015794157999996536,-0.7851070999999995,4.7170590000026845e-05,-2.3557436000000003,8.897998499998411e-05,1.5709711,0.7859905,0.04,0.039999995,-9.823204999999993,0.0004357530851842571,0.0008222281499947618,-9.917236500024817e-05,-0.00819472037256152,-0.0001798676200005125
0.1525,0.00015730665399996477,-0.7850983099999995,4.7662596750027294e-05,-2.3557496600000003,8.868886874998385e-05,1.570970635,0.785989924,0.04,0.039999995,-9.823065049999991,0.000425803399411363,0.0007262325869946744,-0.00010372044825025231,-0.008266554679725535,-0.00018925979800052105
0.155,0.0001566717279999642,-0.7850895199999994,4.815460350002774e-05,-2.3557557200000003,8.839775249998359e-05,1.5709701699999998,0.785989348,0.04,0.039999995,-9.822925099999992,0.00041585371363846895,0.000630237023994587,-0.00010826853150025646,-0.008338388986889551,-0.0001986519760005296
0.1575,0.00015603680199996361,-0.7850807299999994,4.864661025002819e-05,-2.3557617800000004,8.810663624998332e-05,1.570969705,0.785988772,0.04,0.039999995,-9.822785149999993,0.00040590402786557493,0.0005342414609944996,-0.0001128166147502606,-0.008410223294053566,-0.00020804415400053815
0.16,0.00015540187599996305,-0.7850719399999995,4.9138617000028634e-05,-2.3557678400000004,8.781551999998305e-05,1.57096924,0.7859881959999999,0.04,0.039999995,-9.822645199999991,0.00039595434209268085,0.0004382458979944122,-0.00011736469800026473,-0.00848205760121758,-0.0002174363320005467
0.1625,0.00015476694999996246,-0.7850631499999995,4.963062375002908e-05,-2.3557739000000004,8.75244037499828e-05,1.5709687749999999,0.7859876199999999,0.04,0.039999995,-9.822505249999992,0.0003860046563197868,0.0003422503349943248,-0.00012191278125026887,-0.008553891908381597,-0.00022682851000055526
0.165,0.0001541320239999619,-0.7850543599999995,5.012263050002953e-05,-2.3557799600000005,8.723328749998253e-05,1.5709683099999998,0.785987044,0.04,0.039999995,-9.82236529999999,0.0003760549705468927,0.0002462547719942374,-0.00012646086450027302,-0.008625726215545611,-0.0002362206880005638
0.1675,0.00015343340799994968,-0.7850457399999995,5.0663992650039e-05,-2.355785735,8.691250319997684e-05,1.5709678349999998,0.7859863739999999,0.04,0.039999995,-9.822242749999994,0.0003658002198782879,0.00015473812599496885,-0.00013156017600037792,-0.008695755060766152,-0.0002461933995006785
0.17,0.0001526074119999489,-0.7850374599999995,5.130406560003958e-05,-2.3557909400000003,8.65323827999765e-05,1.57096734,0.7859855159999999,0.04,0.039999995,-9.822154999999995,0.000354935339418428,7.21793139948937e-05,-0.00013776194400038358,-0.008762172982100727,-0.00025732717800068864
0.17250000000000001,0.00015178141599994817,-0.7850291799999995,5.194413855004017e-05,-2.3557961450000002,8.615226239997615e-05,1.5709668449999998,0.785984658,0.04,0.039999995,-9.822067249999995,0.0003440704589585681,-1.0379498005181476e-05,-0.00014396371200038922,-0.008828590903435303,-0.0002684609565006988
0.17500000000000002,0.00015095541999994743,-0.7850208999999995,5.258421150004075e-05,-2.35580135,8.57721419999758e-05,1.57096635,0.7859837999999999,0.04,0.039999995,-9.821979499999994,0.0003332055784987082,-9.293831000525661e-05,-0.00015016548000039488,-0.008895008824769879,-0.00027959473500070893
0.1775,0.00015012942399994668,-0.7850126199999995,5.322428445004133e-05,-2.3558065550000005,8.539202159997546e-05,1.5709658549999999,0.7859829419999999,0.04,0.039999995,-9.821891749999995,0.0003223406980388484,-0.00017549712200533088,-0.00015636724800040046,-0.008961426746104452,-0.0002907285135007189
0.18,0.0001493034279999459,-0.7850043399999995,5.386435740004191e-05,-2.3558117600000004,8.501190119997511e-05,1.57096536,0.7859820839999999,0.04,0.039999995,-9.821803999999995,0.00031147581757898853,-0.000258055934005406,-0.0001625690160004061,-0.009027844667439028,-0.00030186229200072906
0.1825,0.00014847743199994517,-0.7849960599999994,5.450443035004249e-05,-2.3558169650000003,8.463178079997476e-05,1.5709648649999999,0.7859812259999999,0.04,0.039999995,-9.821716249999994,0.00030061093711912864,-0.0003406147460054812,-0.00016877078400041174,-0.009094262588773603,-0.0003129960705007392
0.185,0.00014750323299992946,-0.7849880359999994,5.5259402600054674e-05,-2.3558214900000003,8.418148819996732e-05,1.5709640299999998,0.7859802059999998,0.04,0.0399999955,-9.821611099999993,0.0002874463447359266,-0.000415948775004827,-0.00017533559900045404,-0.009156005177650868,-0.0003254268320008802
0.1875,0.0001464549324999285,-0.7849801399999995,5.6071824500055414e-05,-2.355825675,8.36961094999669e-05,1.570963025,0.7859791049999999,0.04,0.03999999625,-9.821497249999993,0.0002731318963913986,-0.0004876704125048923,-0.0001820819375004602,-0.009215410100300176,-0.00033850608500089215
0.19,0.00014540663199992754,-0.7849722439999994,5.6884246400056154e-05,-2.35582986,8.321073079996645e-05,1.5709620199999998,0.785978004,0.04,0.039999997,-9.821383399999993,0.00025881744804687055,-0.0005593920500049576,-0.00018882827600046634,-0.009274815022949487,-0.00035158533800090403
0.1925,0.00014435833149992658,-0.7849643479999995,5.7696668300056894e-05,-2.3558340450000004,8.272535209996601e-05,1.570961015,0.7859769029999999,0.04,0.03999999775,-9.821269549999993,0.0002445029997023425,-0.0006311136875050228,-0.0001955746145004725,-0.009334219945598795,-0.00036466459100091596
0.195,0.00014331003099992562,-0.7849564519999994,5.850909020005763e-05,-2.3558382300000003,8.223997339996557e-05,1.57096001,0.785975802,0.04,0.0399999985,-9.821155699999993,0.00023018855135781448,-0.0007028353250050881,-0.0002023209530004786,-0.009393624868248105,-0.0003777438440009279
0.1975,0.00014226173049992468,-0.7849485559999994,5.932151210005837e-05,-2.355842415,8.175459469996513e-05,1.570959005,0.785974701,0.04,0.03999999925,-9.821041849999991,0.00021587410301328645,-0.0007745569625051535,-0.00020906729150048476,-0.009453029790897413,-0.0003908230970009398
0.2,0.00014121342999990518,-0.7849406599999994,6.013393400007349e-05,-2.3558466000000005,8.126921599995606e-05,1.570958,0.7859735999999999,0.04,0.04,-9.820927999999993,0.00020155965466872675,-0.0008462786000042842,-0.00021581363000055504,-0.009512434713546365,-0.00040390235000108154
0.2025,0.00013991025099990397,-0.7849330909999994,6.11439545000744e-05,-2.3558502900000002,8.066541559995552e-05,1.570956995,0.7859723399999999,0.04,0.04,-9.820832149999994,0.00018680988869051332,-0.0009051565100043378,-0.000223441575500562,-0.009566913871098535,-0.00041876585750109507
0.20500000000000002,0.0001386070719999028,-0.7849255219999994,6.215397500007533e-05,-2.3558539800000005,8.006161519995496e-05,1.5709559899999999,0.7859710799999999,0.04,0.04,-9.820736299999993,0.00017206012271229988,-0.0009640344200043914,-0.00023106952100056895,-0.009621393028650704,-0.0004336293650011086
0.20750000000000002,0.00013730389299990161,-0.7849179529999994,6.316399550007624e-05,-2.3558576700000002,7.945781479995442e-05,1.570954985,0.7859698199999999,0.04,0.04,-9.820640449999994,0.00015731035673408647,-0.001022912330004445,-0.0002386974665005759,-0.009675872186202873,-0.0004484928725011221
0.21,0.00013600071399990044,-0.7849103839999994,6.417401600007716e-05,-2.3558613600000005,7.885401439995387e-05,1.5709539799999999,0.7859685599999999,0.04,0.04,-9.820544599999993,0.0001425605907558732,-0.0010817902400044978,-0.0002463254120005828,-0.009730351343755042,-0.0004633563800011355
0.2125,0.00013469753499989926,-0.7849028149999994,6.518403650007807e-05,-2.3558650500000002,7.825021399995333e-05,1.570952975,0.7859672999999999,0.04,0.04,-9.820448749999994,0.00012781082477765975,-0.0011406681500045514,-0.0002539533575005897,-0.009784830501307212,-0.000478219887501149
0.215,0.00013339435599989808,-0.7848952459999994,6.6194057000079e-05,-2.3558687400000005,7.764641359995277e-05,1.5709519699999999,0.7859660399999999,0.04,0.04,-9.820352899999993,0.00011306105879944633,-0.0011995460600046051,-0.00026158130300059666,-0.009839309658859381,-0.0004930833950011625
0.2175,0.00013199501099987407,-0.7848877449999994,6.727865750009761e-05,-2.3558721550000006,7.69978899999416e-05,1.5709509549999998,0.7859646814999999,0.04,0.04,-9.820268299999995,9.712558821623419e-05,-0.001258986125004792,-0.00026969860250071974,-0.00989214130677667,-0.0005086033600013319
0.22,0.00013040333399987262,-0.7848803799999994,6.851241800009874e-05,-2.3558750200000005,7.625991999994094e-05,1.5709499199999999,0.7859631259999998,0.04,0.04,-9.820206199999996,7.881870842386572e-05,-0.0013195505000048473,-0.000278794610000728,-0.009941677935425365,-0.0005254362400013472
0.2225,0.00012881165699987117,-0.7848730149999994,6.974617850009987e-05,-2.3558778850000004,7.552194999994027e-05,1.5709488849999997,0.7859615704999999,0.04,0.04,-9.820144099999995,6.051182863149725e-05,-0.0013801148750049023,-0.0002878906175007363,-0.00999121456407406,-0.0005422691200013625
0.225,0.00012721997999986972,-0.7848656499999994,7.097993900010098e-05,-2.3558807500000003,7.478397999993959e-05,1.5709478499999998,0.7859600149999999,0.04,0.04,-9.820081999999996,4.2204948839128786e-05,-0.0014406792500049575,-0.0002969866250007446,-0.010040751192722755,-0.0005591020000013779
0.2275,0.00012562830299986828,-0.7848582849999993,7.221369950010211e-05,-2.355883615,7.404600999993892e-05,1.5709468149999999,0.7859584594999999,0.04,0.04,-9.820019899999995,2.3898069046760328e-05,-0.0015012436250050128,-0.00030608263250075284,-0.01009028782137145,-0.0005759348800013932
0.23,0.0001240366259998668,-0.7848509199999993,7.344746000010324e-05,-2.35588648,7.330803999993825e-05,1.5709457799999997,0.7859569039999998,0.04,0.04,-9.819957799999994,5.591189254391856e-06,-0.0015618080000050678,-0.0003151786400007611,-0.010139824450020145,-0.0005927677600014086
0.2325,0.00012244494899986535,-0.7848435549999994,7.468122050010435e-05,-2.355889345,7.257006999993757e-05,1.5709447449999998,0.7859553484999998,0.04,0.04,-9.819895699999995,-1.2715690537976615e-05,-0.0016223723750051228,-0.0003242746475007694,-0.01018936107866884,-0.0006096006400014239
0.23500000000000001,0.00012063787549983629,-0.7848363199999994,7.608206610012691e-05,-2.35589154,7.1731502999924e-05,1.5709436199999998,0.7859535569999998,0.0399999995,0.04,-9.819833999999995,-3.383727598894698e-05,-0.0016816845300050174,-0.0003340866150008695,-0.01023519327864426,-0.0006278693050016233
0.23750000000000002,0.00011872310374983455,-0.7848291499999993,7.756645425012826e-05,-2.3558934000000002,7.08426374999232e-05,1.5709424499999998,0.7859516474999998,0.03999999875,0.04,-9.819772499999994,-5.63662142686807e-05,-0.0017403705750050709,-0.00034425656250087875,-0.01027917326428375,-0.0006468558625016406
0.24,0.00011680833199983283,-0.7848219799999994,7.90508424001296e-05,-2.35589526,6.99537719999224e-05,1.5709412799999998,0.7859497379999998,0.039999998,0.04,-9.819710999999995,-7.889515254841416e-05,-0.0017990566200051237,-0.0003544265100008879,-0.01032315324992324,-0.0006658424200016577
0.2425,0.00011489356024983108,-0.7848148099999994,8.053523055013095e-05,-2.3558971200000003,6.906490649992158e-05,1.5709401099999998,0.7859478284999998,0.03999999725,0.04,-9.819649499999993,-0.00010142409082814788,-0.0018577426650051771,-0.00036459645750089716,-0.01036713323556273,-0.0006848289775016749
0.245,0.00011297878849982934,-0.7848076399999994,8.201961870013231e-05,-2.35589898,6.817604099992078e-05,1.5709389399999998,0.7859459189999998,0.0399999965,0.04,-9.819587999999994,-0.00012395302910788158,-0.0019164287100052306,-0.0003747664050009064,-0.01041111322120222,-0.0007038155350016922
0.2475,0.0001110640167498276,-0.7848004699999994,8.350400685013365e-05,-2.3559008400000003,6.728717549991997e-05,1.5709377699999998,0.7859440094999998,0.03999999575,0.04,-9.819526499999993,-0.0001464819673876153,-0.001975114755005284,-0.00038493635250091567,-0.01045509320684171,-0.0007228020925017095
0.25,0.00010914924499979325,-0.7847932999999994,8.49883950001603e-05,-2.3559027,6.6398309999904e-05,1.5709365999999998,0.7859420999999998,0.039999995,0.04,-9.81946499999999,-0.0001690109056674438,-0.002033800800004005,-0.00039510630000100564,-0.010499073192480682,-0.0007417886500019037
0.2525,0.0001068759777498222,-0.7847861944999994,8.675089875013786e-05,-2.3559039150000003,6.534268154991744e-05,1.57093501,0.7859398049999998,0.039999994250000004,0.03999999925,-9.819369149999991,-0.00019258214670296868,-0.0020778355500034444,-0.0004061636925008649,-0.010537358373406514,-0.0007627201225016371
0.255,0.00010460271049985115,-0.7847790889999996,8.851340250011542e-05,-2.35590513,6.428705309993088e-05,1.57093342,0.7859375099999999,0.039999993500000004,0.0399999985,-9.819273299999994,-0.00021615338773849356,-0.0021218703000028837,-0.0004172210850007241,-0.010575643554332348,-0.0007836515950013707
0.2575,0.00010232944324988008,-0.7847719834999997,9.027590625009298e-05,-2.355906345,6.323142464994431e-05,1.57093183,0.7859352149999999,0.039999992750000005,0.03999999775,-9.819177449999994,-0.00023972462877401847,-0.002165905050002323,-0.0004282784775005833,-0.01061392873525818,-0.0008045830675011042
0.26,0.00010005617599990903,-0.7847648779999997,9.203841000007053e-05,-2.3559075600000003,6.217579619995775e-05,1.57093024,0.7859329199999999,0.039999992,0.039999997,-9.819081599999995,-0.0002632958698095434,-0.002209939800001762,-0.0004393358700004425,-0.010652213916184013,-0.0008255145400008377
0.2625,9.778290874993796e-05,-0.7847577724999999,9.38009137500481e-05,-2.355908775,6.112016774997119e-05,1.57092865,0.785930625,0.03999999125,0.03999999625,-9.818985749999998,-0.00028686711084506826,-0.0022539745500012014,-0.00045039326250030176,-0.010690499097109845,-0.0008464460125005712
0.265,9.550964149996691e-05,-0.784750667,9.556341750002566e-05,-2.3559099900000002,6.0064539299984634e-05,1.57092706,0.78592833,0.0399999905,0.0399999955,-9.818889899999999,-0.00031043835188059314,-0.002298009300000641,-0.00046145065500016096,-0.010728784278035678,-0.0008673774850003047
0.2675,9.310485499997087e-05,-0.7847435669999999,9.742796950002258e-05,-2.3559109900000004,5.8947734549986466e-05,1.570925455,0.785925935,0.0399999899,0.03999999465,-9.81881875,-0.00033565626217777633,-0.002340644390000435,-0.000472852607500132,-0.010766118019819602,-0.0008889699300002503
0.27,9.043702999993205e-05,-0.7847364779999999,9.949661800005269e-05,-2.35591156,5.7708577199968435e-05,1.57092382,0.78592334,0.0399999896,0.039999993600000006,-9.818796999999998,-0.00036416751099818624,-0.0023804801600010145,-0.000484943680000308,-0.010801548883319762,-0.0009118843200005837
0.2725,8.776920499989322e-05,-0.7847293889999998,0.00010156526650008279,-2.35591213,5.6469419849950404e-05,1.570922185,0.785920745,0.0399999893,0.03999999255,-9.818775249999998,-0.0003926787598185962,-0.0024203159300015945,-0.000497034752500484,-0.010836979746819924,-0.0009347987100009172
0.275,8.51013799998544e-05,-0.7847222999999997,0.0001036339150001129,-2.3559127,5.5230262499932366e-05,1.5709205499999999,0.7859181499999999,0.039999989,0.0399999915,-9.818753499999998,-0.00042119000863900607,-0.002460151700002174,-0.0005091258250006599,-0.010872410610320083,-0.0009577131000012507
0.2775,8.243355499981557e-05,-0.7847152109999995,0.000105702563500143,-2.3559132700000003,5.3991105149914334e-05,1.5709189149999998,0.7859155549999999,0.0399999887,0.03999999045,-9.818731749999998,-0.00044970125745941603,-0.0024999874700027537,-0.0005212168975008358,-0.010907841473820245,-0.0009806274900015842
0.28,7.976572999977675e-05,-0.7847081219999994,0.00010777121200017311,-2.3559138400000004,5.27519477998963e-05,1.5709172799999997,0.7859129599999998,0.0399999884,0.0399999894,-9.818709999999998,-0.0004782125062798259,-0.0025398232400033333,-0.0005333079700010118,-0.010943272337320405,-0.0010035418800019176
0.28250000000000003,7.709790499973792e-05,-0.7847010329999994,0.00010983986050020321,-2.3559144100000005,5.151279044987827e-05,1.5709156449999997,0.7859103649999998,0.0399999881,0.03999998835,-9.818688249999997,-0.0005067237551002359,-0.0025796590100039133,-0.0005453990425011877,-0.010978703200820564,-0.001026456270002251
0.28500000000000003,7.414265539967866e-05,-0.7846939229999993,0.00011213157900024921,-2.35591424,5.013980489985069e-05,1.5709136699999997,0.7859074499999997,0.0399999876,0.0399999876,-9.818660299999996,-0.0005383209208991765,-0.002621951970004513,-0.0005584714060014064,-0.0110114781186017,-0.0010508848000026117
0.28750000000000003,7.104369349967583e-05,-0.7846868024999993,0.00011453483250025139,-2.3559137,4.869990524984938e-05,1.5709115249999996,0.7859043749999997,0.039999987,0.039999987,-9.818629249999997,-0.0005714610451866666,-0.0026654735250045527,-0.0005720344150014188,-0.01104292506352394,-0.0010760704000026347
0.29,6.794473159967308e-05,-0.7846796819999993,0.00011693808600025353,-2.35591316,4.72600055998481e-05,1.5709093799999998,0.7859012999999997,0.0399999864,0.0399999864,-9.818598199999997,-0.000604601169474156,-0.002708995080004591,-0.0005855974240014307,-0.011074372008446177,-0.001101256000002657
0.2925,6.484576969967026e-05,-0.7846725614999993,0.00011934133950025572,-2.35591262,4.582010594984679e-05,1.5709072349999997,0.7858982249999996,0.0399999858,0.0399999858,-9.818567149999996,-0.0006377412937616462,-0.002752516635004631,-0.0005991604330014431,-0.011105818953368415,-0.0011264416000026799
0.295,6.174680779966744e-05,-0.7846654409999992,0.00012174459300025791,-2.35591208,4.438020629984548e-05,1.5709050899999997,0.7858951499999997,0.039999985200000004,0.039999985200000004,-9.818536099999998,-0.0006708814180491364,-0.0027960381900046707,-0.0006127234420014554,-0.011137265898290654,-0.0011516272000027029
0.2975,5.8647845899664614e-05,-0.7846583204999993,0.0001241478465002601,-2.3559115399999997,4.294030664984417e-05,1.5709029449999998,0.7858920749999996,0.0399999846,0.0399999846,-9.818505049999997,-0.0007040215423366265,-0.00283955974500471,-0.0006262864510014678,-0.011168712843212893,-0.0011768128000027257
0.3,5.55488839996107e-05,-0.7846511999999992,0.00012655110000030193,-2.355911,4.150040699981908e-05,1.5709007999999998,0.7858889999999996,0.039999984,0.039999984,-9.818473999999993,-0.0007371616666244625,-0.0028830813000028516,-0.0006398494600015902,-0.011200159788134722,-0.0012019984000029714
0.3025,5.198171464960745e-05,-0.7846439699999992,0.00012931772100030446,-2.355909605,3.984265694981757e-05,1.5708985949999998,0.7858854824999996,0.0399999834,0.03999998295,-9.818415949999993,-0.0007734699145697656,-0.0029092074450028753,-0.0006544202260016035,-0.01122784158215229,-0.0012292246450029962
0.305,4.8414545299604205e-05,-0.7846367399999992,0.00013208434200030699,-2.35590821,3.818490689981606e-05,1.5708963899999997,0.7858819649999996,0.0399999828,0.0399999819,-9.818357899999993,-0.0008097781625150686,-0.002935333590002899,-0.0006689909920016167,-0.01125552337616986,-0.001256450890003021
0.3075,4.484737594960096e-05,-0.7846295099999993,0.00013485096300030948,-2.3559068149999995,3.6527156849814554e-05,1.5708941849999998,0.7858784474999996,0.0399999822,0.03999998085,-9.818299849999994,-0.0008460864104603717,-0.0029614597350029227,-0.00068356175800163,-0.011283205170187431,-0.0012836771350030458
0.31,4.128020659959771e-05,-0.7846222799999992,0.000137617584000312,-2.3559054199999996,3.486940679981305e-05,1.5708919799999999,0.7858749299999996,0.0399999816,0.0399999798,-9.818241799999994,-0.0008823946584056747,-0.0029875858800029464,-0.0006981325240016433,-0.011310886964205001,-0.0013109033800030707
0.3125,3.7713037249594464e-05,-0.7846150499999992,0.00014038420500031454,-2.3559040249999996,3.3211656749811534e-05,1.5708897749999997,0.7858714124999996,0.039999981,0.03999997875,-9.818183749999994,-0.0009187029063509778,-0.00301371202500297,-0.0007127032900016564,-0.011338568758222572,-0.0013381296250030953
0.315,3.414586789959122e-05,-0.7846078199999992,0.00014315082600031704,-2.3559026299999997,3.155390669981003e-05,1.5708875699999998,0.7858678949999996,0.039999980399999996,0.0399999777,-9.818125699999994,-0.0009550111542962808,-0.003039838170002994,-0.0007272740560016697,-0.011366250552240142,-0.00136535587000312
0.3175,3.0410184999529573e-05,-0.7846005324999992,0.0001460482625003649,-2.3559009499999997,2.981769509978133e-05,1.5708851949999998,0.7858642024999996,0.03999998,0.039999977,-9.818072449999995,-0.0009931394655771045,-0.003070240010004499,-0.0007422326935018175,-0.01139243654907011,-0.0013933544050034126
0.32,2.6337474999525866e-05,-0.7845931299999992,0.00014920733000036777,-2.3558986999999996,2.7924560399779606e-05,1.5708824799999996,0.7858601599999996,0.03999998,0.039999977,-9.818028799999995,-0.0010349079035270826,-0.0031091932400045346,-0.0007579670740018318,-0.01141563095152642,-0.0014228975200034394
0.3225,2.2264764999522156e-05,-0.7845857274999991,0.00015236639750037064,-2.35589645,2.6031425699777883e-05,1.5708797649999997,0.7858561174999995,0.03999998,0.039999977,-9.817985149999995,-0.0010766763414770605,-0.00314814647000457,-0.0007737014545018461,-0.011438825353982732,-0.0014524406350034662
0.325,1.8192054999518447e-05,-0.7845783249999991,0.00015552546500037352,-2.3558942,2.413829099977616e-05,1.5708770499999998,0.7858520749999995,0.03999998,0.039999977,-9.817941499999995,-0.0011184447794270387,-0.0031870997000046056,-0.0007894358350018604,-0.011462019756439042,-0.0014819837500034932
0.3275,1.411934499951474e-05,-0.7845709224999992,0.0001586845325003764,-2.3558919499999997,2.2245156299774435e-05,1.5708743349999996,0.7858480324999996,0.03999998,0.039999977,-9.817897849999994,-0.0011602132173770168,-0.003226052930004641,-0.0008051702155018748,-0.011485214158895354,-0.00151152686500352
0.33,1.0046634999511034e-05,-0.7845635199999991,0.00016184360000037927,-2.3558896999999996,2.0352021599772712e-05,1.5708716199999997,0.7858439899999996,0.03999998,0.039999977,-9.817854199999994,-0.0012019816553269947,-0.0032650061600046766,-0.0008209045960018891,-0.011508408561351664,-0.001541069980003547
0.3325,5.973924999507324e-06,-0.7845561174999991,0.00016500266750038215,-2.35588745,1.845888689977099e-05,1.5708689049999995,0.7858399474999995,0.03999998,0.039999977,-9.817810549999994,-0.0012437500932769728,-0.003303959390004712,-0.0008366389765019034,-0.011531602963807976,-0.0015706130950035738
0.335,1.539117299437418e-06,-0.784548541999999,0.00016844283800043642,-2.3558846499999997,1.6397217879738454e-05,1.5708660999999995,0.7858355599999994,0.0399999797,0.0399999766,-9.817787099999999,-0.0012892900966165303,-0.003331618550002683,-0.0008531164570020536,-0.011553255654873976,-0.0016016230600038688
0.3375,-3.076739250566784e-06,-0.7845408799999991,0.00017202356000043967,-2.3558815749999997,1.42512816997365e-05,1.5708632499999995,0.7858309999999995,0.03999997925,0.039999976,-9.817773749999999,-0.0013367158826498484,-0.003353630675002703,-0.000869965487502069,-0.01157413749024524,-0.0016333664500038977
0.34,-7.692595800570986e-06,-0.7845332179999991,0.00017560428200044293,-2.3558784999999998,1.2105345519734545e-05,1.5708603999999995,0.7858264399999995,0.039999978799999995,0.0399999754,-9.817760399999997,-0.0013841416686831668,-0.003375642800002723,-0.0008868145180020842,-0.011595019325616504,-0.0016651098400039266
0.3425,-1.2308452350575191e-05,-0.7845255559999991,0.0001791850040004462,-2.355875425,9.959409339732592e-06,1.5708575499999995,0.7858218799999994,0.03999997835,0.0399999748,-9.817747049999998,-0.0014315674547164849,-0.003397654925002743,-0.0009036635485020996,-0.011615901160987768,-0.0016968532300039555
0.34500000000000003,-1.6924308900579394e-05,-0.784517893999999,0.00018276572600044947,-2.3558723499999994,7.813473159730637e-06,1.5708546999999995,0.7858173199999994,0.0399999779,0.0399999742,-9.817733699999998,-0.001478993240749803,-0.003419667050002763,-0.0009205125790021149,-0.011636782996359032,-0.0017285966200039846
0.34750000000000003,-2.1540165450583596e-05,-0.784510231999999,0.0001863464480004527,-2.3558692749999994,5.667536979728685e-06,1.5708518499999995,0.7858127599999994,0.03999997745,0.0399999736,-9.817720349999998,-0.001526419026783121,-0.003441679175002783,-0.0009373616095021302,-0.011657664831730296,-0.0017603400100040135
0.35000000000000003,-2.615602200066176e-05,-0.784502569999999,0.00018992717000051342,-2.3558661999999995,3.521600799692299e-06,1.5708489999999995,0.7858081999999993,0.039999977,0.039999973,-9.817706999999999,-0.0015738448128169724,-0.003463691300004707,-0.0009542106400023028,-0.011678546667101126,-0.0017920834000043234
0.3525,-3.1352746200666376e-05,-0.784494624499999,0.000193958907500517,-2.3558621649999996,1.105276179690153e-06,1.5708456849999994,0.7858030699999993,0.0399999764,0.03999997255,-9.817688399999998,-0.0016254576563435484,-0.0035006515100047394,-0.0009722946190023189,-0.011696029501037966,-0.0018260347000043536
0.355,-3.654947040067111e-05,-0.784486678999999,0.00019799064500052065,-2.355858129999999,-1.3110484403120471e-06,1.5708423699999996,0.7857979399999993,0.0399999758,0.0399999721,-9.817669799999997,-0.0016770704998701252,-0.0035376117200047732,-0.0009903785980023355,-0.011713512334974809,-0.0018599860000043846
0.3575,-4.174619460067584e-05,-0.784478733499999,0.00020202238250052433,-2.3558540949999993,-3.727373060314246e-06,1.5708390549999995,0.7857928099999993,0.0399999752,0.03999997165,-9.817651199999998,-0.0017286833433967023,-0.003574571930004807,-0.0010084625770023518,-0.01173099516891165,-0.0018939373000044155
0.36,-4.694291880068057e-05,-0.7844707879999989,0.00020605412000052802,-2.3558500599999994,-6.143697680316447e-06,1.5708357399999995,0.7857876799999993,0.0399999746,0.039999971200000005,-9.817632599999998,-0.0017802961869232794,-0.0036115321400048404,-0.0010265465560023684,-0.01174847800284849,-0.0019278886000044463
0.3625,-5.21396430006853e-05,-0.784462842499999,0.00021008585750053167,-2.3558460249999995,-8.560022300318645e-06,1.5708324249999994,0.7857825499999993,0.039999974,0.03999997075,-9.817613999999999,-0.0018319090304498562,-0.003648492350004874,-0.0010446305350023848,-0.011765960836785331,-0.001961839900004477
0.365,-5.7336367200690035e-05,-0.7844548969999989,0.00021411759500053536,-2.3558419899999996,-1.0976346920320844e-05,1.5708291099999996,0.7857774199999993,0.0399999734,0.0399999703,-9.817595399999998,-0.0018835218739764333,-0.003685452560004908,-0.0010627145140024012,-0.011783443670722172,-0.001995791200004508
0.3675,-6.273931700077747e-05,-0.7844468349999989,0.00021830945700060324,-2.3558375949999992,-1.348867175036155e-05,1.5708256699999994,0.7857720799999992,0.03999997285,0.0399999698,-9.817579049999999,-0.0019371451635456366,-0.0037169824750027634,-0.001081195795002577,-0.011800063354896508,-0.0020304795550048346
0.37,-6.855471800078277e-05,-0.7844385399999989,0.00022282156800060735,-2.3558324799999992,-1.619299700036401e-05,1.5708219799999994,0.7857663199999992,0.0399999724,0.0399999692,-9.8175672,-0.0019947893451976793,-0.003737651800002782,-0.0011004716800025946,-0.011814956739546864,-0.0020666420200048676
0.3725,-7.437011900078807e-05,-0.7844302449999988,0.00022733367900061146,-2.3558273649999992,-1.8897322250366473e-05,1.5708182899999994,0.7857605599999992,0.039999971950000004,0.0399999686,-9.81755535,-0.0020524335268497216,-0.003758321125002801,-0.0011197475650026121,-0.011829850124197223,-0.0021028044850049006
0.375,-8.018552000079335e-05,-0.7844219499999988,0.00023184579000061557,-2.3558222499999992,-2.1601647500368934e-05,1.5708145999999994,0.7857547999999992,0.0399999715,0.039999968,-9.8175435,-0.0021100777085017643,-0.00377899045000282,-0.0011390234500026296,-0.011844743508847582,-0.0021389669500049336
0.3775,-8.600092100079866e-05,-0.7844136549999988,0.00023635790100061968,-2.3558171349999992,-2.4305972750371395e-05,1.5708109099999994,0.7857490399999992,0.03999997105,0.0399999674,-9.817531649999998,-0.0021677218901538066,-0.0037996597750028387,-0.0011582993350026474,-0.01185963689349794,-0.0021751294150049666
0.38,-9.181632200080394e-05,-0.7844053599999988,0.00024087001200062376,-2.3558120199999992,-2.7010298000373856e-05,1.5708072199999994,0.7857432799999992,0.039999970600000004,0.0399999668,-9.817519799999998,-0.002225366071805849,-0.0038203291000028575,-0.0011775752200026649,-0.011874530278148299,-0.002211291880004999
0.3825,-9.763172300080925e-05,-0.7843970649999988,0.0002453821230006279,-2.3558069049999992,-2.9714623250376317e-05,1.5708035299999994,0.7857375199999992,0.03999997015,0.0399999662,-9.817507949999998,-0.0022830102534578916,-0.003840998425002876,-0.0011968511050026824,-0.011889423662798658,-0.002247454345005032
0.385,-0.00010388476500090648,-0.7843885269999987,0.0002502340740007034,-2.355801119999999,-3.2622697000421586e-05,1.5707996299999993,0.7857313299999991,0.03999997,0.039999966,-9.817482999999996,-0.0023444302613003973,-0.003866457330003901,-0.0012168656800028552,-0.011902258172632884,-0.002285091350005375
0.3875,-0.00011035662750091238,-0.7843798674999988,0.00025525594500070797,-2.355794999999999,-3.563264500042433e-05,1.5707956249999995,0.7857249249999991,0.03999997,0.039999966,-9.817451499999995,-0.00240773818223695,-0.0038943110250039266,-0.0012372496000028737,-0.011914063245059689,-0.00232346562500541
0.39,-0.00011682849000091827,-0.7843712079999988,0.00026027781600071253,-2.355788879999999,-3.864259300042707e-05,1.5707916199999994,0.7857185199999991,0.03999997,0.039999966,-9.817419999999995,-0.0024710461031735025,-0.003922164720003952,-0.0012576335200028923,-0.011925868317486495,-0.002361839900005445
0.3925,-0.00012330035250092416,-0.7843625484999988,0.0002652996870007171,-2.355782759999999,-4.165254100042981e-05,1.5707876149999993,0.785712114999999,0.03999997,0.039999966,-9.817388499999996,-0.002534354024110055,-0.003950018415003978,-0.0012780174400029106,-0.0119376733899133,-0.0024002141750054796
0.395,-0.00012977221500093004,-0.7843538889999988,0.0002703215580007217,-2.355776639999999,-4.4662489000432554e-05,1.5707836099999994,0.7857057099999991,0.03999997,0.039999966,-9.817356999999996,-0.002597661945046608,-0.003977872110004003,-0.0012984013600029292,-0.011949478462340107,-0.0024385884500055144
0.3975,-0.00013624407750093594,-0.7843452294999987,0.00027534342900072627,-2.355770519999999,-4.767243700043529e-05,1.5707796049999994,0.7856993049999991,0.03999997,0.039999966,-9.817325499999995,-0.0026609698659831606,-0.004005725805004029,-0.0013187852800029477,-0.011961283534766913,-0.0024769627250055496
0.4,-0.00014271594000104287,-0.7843365699999987,0.0002803653000008093,-2.355764399999999,-5.068238500048506e-05,1.5707755999999993,0.785692899999999,0.03999997,0.039999966,-9.817294,-0.002724277786920897,-0.004033579500002693,-0.001339169200003134,-0.011973088607193276,-0.0025153370000059053
0.4025,-0.00014988199800114715,-0.7843274244999986,0.0002859262845008902,-2.3557572449999986,-5.4015499000533565e-05,1.5707711149999992,0.7856858049999988,0.03999997,0.039999966,-9.81728815,-0.0027957202401126167,-0.004052081565002962,-0.0013607048650034475,-0.01198186110705273,-0.0025559160200064957
0.405,-0.00015704805600125142,-0.7843182789999984,0.0002914872690009712,-2.3557500899999986,-5.734861300058208e-05,1.5707666299999992,0.7856787099999988,0.03999997,0.039999966,-9.817282299999999,-0.002867162693304336,-0.004070583630003231,-0.0013822405300037608,-0.01199063360691218,-0.0025964950400070865
0.40750000000000003,-0.00016421411400135573,-0.7843091334999983,0.0002970482535010521,-2.3557429349999985,-6.0681727000630585e-05,1.570762144999999,0.7856716149999987,0.03999997,0.039999966,-9.81727645,-0.002938605146496056,-0.004089085695003501,-0.0014037761950040743,-0.011999406106771634,-0.002637074060007677
0.41000000000000003,-0.00017138017200146,-0.7842999879999981,0.00030260923800113303,-2.3557357799999985,-6.401484100067909e-05,1.570757659999999,0.7856645199999986,0.03999997,0.039999966,-9.817270599999999,-0.0030100475996877756,-0.00410758776000377,-0.0014253118600043877,-0.012008178606631087,-0.0026776530800082673
0.41250000000000003,-0.0001785462300015643,-0.784290842499998,0.00030817022250121393,-2.3557286249999985,-6.73479550007276e-05,1.570753174999999,0.7856574249999985,0.03999997,0.039999966,-9.817264749999998,-0.003081490052879495,-0.004126089825004039,-0.0014468475250047012,-0.01201695110649054,-0.002718232100008858
0.41500000000000004,-0.0001857122880016686,-0.7842816969999978,0.0003137312070012949,-2.3557214699999984,-7.06810690007761e-05,1.570748689999999,0.7856503299999984,0.03999997,0.039999966,-9.817258899999999,-0.0031529325060712147,-0.0041445918900043085,-0.0014683831900050145,-0.012025723606349991,-0.0027588111200094485
0.4175,-0.0001931222630018819,-0.7842723749999977,0.0003194816310014605,-2.355713944999998,-7.41277487508754e-05,1.5707440249999989,0.7856429984999982,0.03999997015,0.0399999662,-9.817251449999997,-0.003226004750485963,-0.004165982520006474,-0.0014903176900054166,-0.012033821828664868,-0.002800121930010192
0.42,-0.00020102007200178135,-0.7842626999999978,0.00032561093400138247,-2.355705679999998,-7.780156000082862e-05,1.5707389999999988,0.7856351939999983,0.039999970600000004,0.0399999668,-9.817240799999997,-0.0033023365773432165,-0.004193150280006127,-0.0015130498600051273,-0.012040571495892062,-0.0028428963200096474
0.4225,-0.0002089178810016808,-0.7842530249999979,0.00033174023700130445,-2.355697414999998,-8.147537125078185e-05,1.570733974999999,0.7856273894999983,0.03999997105,0.0399999674,-9.817230149999997,-0.0033786684042004696,-0.0042203180400057815,-0.0015357820300048379,-0.012047321163119256,-0.002885670710009103
0.425,-0.00021681569000158024,-0.7842433499999981,0.0003378695400012264,-2.355689149999998,-8.514918250073507e-05,1.570728949999999,0.7856195849999984,0.0399999715,0.039999968000000004,-9.817219499999997,-0.0034550002310577226,-0.004247485800005436,-0.0015585142000045485,-0.012054070830346451,-0.0029284451000085583
0.4275,-0.00022471349900147968,-0.7842336749999982,0.00034399884300114836,-2.355680884999998,-8.88229937506883e-05,1.5707239249999991,0.7856117804999986,0.039999971950000004,0.0399999686,-9.817208849999997,-0.0035313320579149756,-0.00427465356000509,-0.001581246370004259,-0.012060820497573645,-0.0029712194900080135
0.43,-0.00023261130800137912,-0.7842239999999984,0.0003501281460010703,-2.3556726199999987,-9.249680500064152e-05,1.570718899999999,0.7856039759999986,0.0399999724,0.0399999692,-9.817198199999998,-0.003607663884772229,-0.004301821320004744,-0.0016039785400039695,-0.01206757016480084,-0.003013993880007469
0.4325,-0.00024050911700127856,-0.7842143249999984,0.00035625744900099227,-2.3556643549999987,-9.617061625059474e-05,1.5707138749999991,0.7855961714999987,0.03999997285,0.0399999698,-9.817187549999998,-0.003683995711629482,-0.004328989080004397,-0.0016267107100036802,-0.012074319832028033,-0.0030567682700069244
0.435,-0.0002489196780013715,-0.7842042799999984,0.00036278502800106454,-2.3556553599999983,-0.00010008316300063805,1.5707085799999991,0.7855878529999986,0.039999973,0.03999997,-9.8171834,-0.003766459738849185,-0.00435317120000359,-0.001650242150003787,-0.012079823575914663,-0.0031009984300071143
0.4375,-0.00025758661500137944,-0.7841940499999984,0.00036951174500107065,-2.3556459999999984,-0.00010411507750064173,1.570703149999999,0.7855792774999986,0.039999973,0.03999997,-9.8171825,-0.003851989866247938,-0.004375860500003611,-0.001674173225003809,-0.012084704358131453,-0.0031459564750071552
0.44,-0.00026625355200138735,-0.7841838199999984,0.00037623846200107676,-2.3556366399999984,-0.0001081469920006454,1.5706977199999992,0.7855707019999986,0.039999973,0.03999997,-9.8171816,-0.003937519993646691,-0.004398549800003632,-0.0016981043000038308,-0.012089585140348242,-0.003190914520007196
0.4425,-0.0002749204890013952,-0.7841735899999983,0.0003829651790010829,-2.3556272799999984,-0.00011217890650064906,1.570692289999999,0.7855621264999986,0.039999973,0.03999997,-9.8171807,-0.004023050121045444,-0.0044212391000036525,-0.0017220353750038524,-0.012094465922565032,-0.003235872565007237
0.445,-0.0002835874260014031,-0.7841633599999983,0.00038969189600108903,-2.3556179199999985,-0.00011621082100065273,1.570686859999999,0.7855535509999986,0.039999973,0.03999997,-9.8171798,-0.004108580248444197,-0.004443928400003673,-0.0017459664500038743,-0.01209934670478182,-0.0032808306100072784
0.4475,-0.000292254363001411,-0.7841531299999983,0.00039641861300109514,-2.3556085599999985,-0.0001202427355006564,1.5706814299999992,0.7855449754999986,0.039999973,0.03999997,-9.8171789,-0.00419411037584295,-0.004466617700003694,-0.001769897525003896,-0.01210422748699861,-0.0033257886550073193
0.45,-0.0003009213000015509,-0.7841428999999982,0.0004031453300012038,-2.355599199999998,-0.0001242746500007215,1.570675999999999,0.7855363999999985,0.039999973,0.03999997,-9.817178,-0.004279640503242785,-0.00448930700000372,-0.001793828600004102,-0.012109108269214987,-0.0033707467000076937
0.4525,-0.00031039450500155953,-0.7841320744999982,0.0004104983375012105,-2.355588669999998,-0.00012868187200072552,1.570670104999999,0.7855270099999985,0.039999973,0.0399999694,-9.8171801,-0.004371781018577774,-0.004512031550003741,-0.001818885455004125,-0.012111473921686764,-0.0034177440400077366
0.455,-0.00031986771000156816,-0.7841212489999982,0.00041785134500121716,-2.355578139999998,-0.00013308909400072954,1.570664209999999,0.7855176199999985,0.039999973,0.0399999688,-9.817182200000001,-0.004463921533912763,-0.004534756100003761,-0.0018439423100041477,-0.012113839574158541,-0.0034647413800077795
0.4575,-0.00032934091500157675,-0.7841104234999982,0.0004252043525012239,-2.3555676099999983,-0.00013749631600073355,1.570658314999999,0.7855082299999985,0.039999973,0.0399999682,-9.817184300000001,-0.004556062049247751,-0.004557480650003783,-0.0018689991650041706,-0.012116205226630318,-0.0035117387200078224
0.46,-0.0003388141200015854,-0.7840995979999982,0.00043255736000123057,-2.3555570799999983,-0.00014190353800073757,1.5706524199999992,0.7854988399999985,0.039999973,0.0399999676,-9.8171864,-0.0046482025645827405,-0.004580205200003803,-0.0018940560200041935,-0.012118570879102095,-0.0035587360600078653
0.4625,-0.000348287325001594,-0.7840887724999982,0.00043991036750123724,-2.3555465499999984,-0.0001463107600007416,1.570646524999999,0.7854894499999985,0.039999973,0.039999967,-9.8171885,-0.00474034307991773,-0.004602929750003823,-0.0019191128750042164,-0.012120936531573872,-0.003605733400007908
0.465,-0.00035776053000160265,-0.7840779469999982,0.0004472633750012439,-2.3555360199999984,-0.00015071798200074559,1.570640629999999,0.7854800599999984,0.039999973,0.039999966399999996,-9.8171906,-0.004832483595252718,-0.0046256543000038446,-0.001944169730004239,-0.01212330218404565,-0.003652730740007951
0.4675,-0.00036751478500175467,-0.784066900499998,0.000454834704501362,-2.355525114999998,-0.0001552560950008164,1.570634569999999,0.7854703979999983,0.03999997285,0.0399999657,-9.817189549999998,-0.004927349928783542,-0.004650167080004777,-0.0019695897350044474,-0.012124940427020156,-0.0037004877000083813
0.47000000000000003,-0.00037783114000176406,-0.7840554119999981,0.00046284267800136933,-2.3555134599999983,-0.00016005599000082078,1.570628179999999,0.7854601919999983,0.0399999724,0.039999964799999996,-9.8171822,-0.005027667898701874,-0.0046782563200048035,-0.001995736040004471,-0.012125123851001231,-0.003749763900008426
0.47250000000000003,-0.00038814749500177344,-0.7840439234999981,0.0004708506515013766,-2.355501804999998,-0.00016485588500082514,1.570621789999999,0.7854499859999983,0.039999971950000004,0.0399999639,-9.817174849999999,-0.005127985868620205,-0.004706345560004829,-0.002021882345004495,-0.012125307274982306,-0.0037990401000084707
0.47500000000000003,-0.0003984638500017829,-0.7840324349999981,0.0004788586250013839,-2.355490149999998,-0.0001696557800008295,1.570615399999999,0.7854397799999983,0.0399999715,0.039999963,-9.817167499999998,-0.0052283038385385365,-0.004734434800004854,-0.002048028650004519,-0.012125490698963381,-0.0038483163000085155
0.47750000000000004,-0.00040878020500179226,-0.784020946499998,0.0004868665985013912,-2.355478494999998,-0.00017445567500083388,1.570609009999999,0.7854295739999982,0.03999997105,0.0399999621,-9.81716015,-0.005328621808456868,-0.004762524040004879,-0.0020741749550045423,-0.012125674122944456,-0.0038975925000085607
0.48,-0.00041909656000180143,-0.784009457999998,0.0004948745720013984,-2.355466839999998,-0.00017925557000083813,1.570602619999999,0.7854193679999982,0.039999970600000004,0.0399999612,-9.817152799999999,-0.0054289397783751974,-0.004790613280004905,-0.0021003212600045657,-0.012125857546925533,-0.003946868700008604
0.4825,-0.0004294129150018108,-0.783997969499998,0.0005028825455014056,-2.355455184999998,-0.00018405546500084252,1.570596229999999,0.7854091619999982,0.03999997015,0.0399999603,-9.817145449999998,-0.005529257748293529,-0.00481870252000493,-0.0021264675650045895,-0.012126040970906608,-0.003996144900008649
0.485,-0.0004403157000019754,-0.7839860219999979,0.0005113460930015335,-2.3554427499999977,-0.00018912841800091914,1.5705894599999988,0.785398373999998,0.03999997,0.03999996,-9.817154200000003,-0.00563550889493954,-0.004842902970003927,-0.002153402230004822,-0.012125047296285312,-0.004046839370009069
0.4875,-0.0004515117000019856,-0.7839738449999979,0.0005200374275015414,-2.3554299249999975,-0.00019433790000092388,1.5705824999999989,0.785387294999998,0.03999997,0.03999996,-9.817171000000002,-0.0057447266299470445,-0.004865159025003947,-0.002180731075004847,-0.012123465072363294,-0.004098242975009116
0.49,-0.0004627077000019958,-0.7839616679999978,0.0005287287620015493,-2.3554170999999977,-0.00019954738200092864,1.5705755399999988,0.785376215999998,0.03999997,0.03999996,-9.817187800000003,-0.005853944364954549,-0.004887415080003967,-0.002208059920004872,-0.012121882848441278,-0.004149646580009163
0.4925,-0.000473903700002006,-0.7839494909999978,0.0005374200965015572,-2.3554042749999975,-0.00020475686400093338,1.5705685799999989,0.785365136999998,0.03999997,0.03999996,-9.817204600000002,-0.0059631620999620535,-0.004909671135003987,-0.0022353887650048967,-0.012120300624519261,-0.00420105018500921
0.495,-0.00048509970000201616,-0.7839373139999978,0.0005461114310015651,-2.3553914499999977,-0.00020996634600093812,1.5705616199999988,0.785354057999998,0.03999997,0.03999996,-9.817221400000003,-0.006072379834969558,-0.004931927190004007,-0.0022627176100049216,-0.012118718400597245,-0.004252453790009257
0.4975,-0.0004962957000020264,-0.7839251369999978,0.000554802765501573,-2.3553786249999975,-0.00021517582800094286,1.5705546599999989,0.7853429789999979,0.03999997,0.03999996,-9.817238200000002,-0.0061815975699770626,-0.0049541832450040275,-0.0022900464550049465,-0.012117136176675229,-0.004303857395009303
0.5,-0.0005074917000022031,-0.7839129599999977,0.0005634941000017104,-2.3553657999999973,-0.00022038531000102517,1.5705476999999988,0.7853318999999978,0.03999997,0.03999996,-9.817255,-0.006290815304985984,-0.0049764393000054676,-0.0023173753000051726,-0.01211555395275293,-0.0043552610000097336
0.5025000000000001,-0.0005196034500022144,-0.7839000314999977,0.0005728969100017192,-2.3553516999999973,-0.00022602125550103043,1.5705401699999988,0.7853198999999977,0.03999997,0.03999996,-9.81725785,-0.006407828000395454,-0.005006497755005495,-0.002345811010005199,-0.012112416885792588,-0.0044087710100097835
0.505,-0.0005317152000022252,-0.7838871029999976,0.0005822997200017275,-2.3553375999999973,-0.00023165720100103544,1.5705326399999988,0.7853078999999977,0.03999997,0.03999996,-9.8172607,-0.006524840695804918,-0.005036556210005522,-0.0023742467200052243,-0.012109279818832244,-0.004462281020009831
0.5075000000000001,-0.0005438269500022365,-0.7838741744999976,0.0005917025300017362,-2.3553234999999972,-0.0002372931465010407,1.5705251099999986,0.7852958999999977,0.03999997,0.03999996,-9.81726355,-0.006641853391214387,-0.00506661466500555,-0.0024026824300052508,-0.012106142751871902,-0.004515791030009881
0.51,-0.0005559387000022472,-0.7838612459999976,0.0006011053400017446,-2.3553093999999977,-0.0002429290920010457,1.5705175799999986,0.7852838999999978,0.03999997,0.03999996,-9.8172664,-0.006758866086623851,-0.005096673120005577,-0.002431118140005276,-0.012103005684911558,-0.004569301040009928
0.5125,-0.000568050450002258,-0.7838483174999976,0.0006105081500017529,-2.3552952999999976,-0.0002485650375010507,1.5705100499999987,0.7852718999999978,0.03999997,0.03999996,-9.81726925,-0.006875878782033315,-0.005126731575005604,-0.0024595538500053016,-0.012099868617951216,-0.0046228110500099754
0.515,-0.0005801622000022693,-0.7838353889999976,0.0006199109600017617,-2.3552811999999976,-0.00025420098300105593,1.5705025199999987,0.7852598999999978,0.03999997,0.03999996,-9.8172721,-0.006992891477442784,-0.005156790030005632,-0.002487989560005328,-0.012096731550990872,-0.004676321060010025
0.5175,-0.0005925911380023998,-0.7838221914999974,0.0006295602130018631,-2.355266674999997,-0.00025998463250111675,1.5704947949999986,0.7852475849999976,0.03999997,0.03999996,-9.817278650000002,-0.007113327831053212,-0.0051851318000045755,-0.002516784715005422,-0.012093009054659822,-0.004730523780010211
0.52,-0.0006056544520022338,-0.7838084559999976,0.0006397023520017342,-2.3552512999999973,-0.00026606369000103946,1.5704866799999988,0.7852346399999978,0.03999997,0.03999996,-9.817292600000002,-0.007240611501059785,-0.005210040200004259,-0.002546298760005047,-0.012088115699588344,-0.004786111920009505
0.5225,-0.0006187177660020671,-0.7837947204999978,0.0006498444910016048,-2.3552359249999975,-0.0002721427475009619,1.5704785649999988,0.7852216949999979,0.03999997,0.03999996,-9.817306550000001,-0.007367895171066351,-0.005234948600003941,-0.0025758128050046704,-0.012083222344516866,-0.0048417000600087965
0.525,-0.000631781080001901,-0.7837809849999979,0.0006599866300014759,-2.3552205499999976,-0.0002782218050008847,1.5704704499999989,0.7852087499999981,0.03999997,0.03999996,-9.817320500000003,-0.007495178841072924,-0.005259857000003625,-0.002605326850004295,-0.012078328989445388,-0.00489728820000809
0.5275,-0.0006448443940017344,-0.7837672494999982,0.0006701287690013466,-2.355205174999998,-0.00028430086250080713,1.5704623349999989,0.7851958049999983,0.03999997,0.03999996,-9.817334450000002,-0.00762246251107949,-0.005284765400003308,-0.002634840895003919,-0.012073435634373911,-0.004952876340007381
0.53,-0.0006579077080015684,-0.7837535139999984,0.0006802709080012177,-2.355189799999998,-0.0002903799200007299,1.5704542199999991,0.7851828599999985,0.03999997,0.03999996,-9.817348400000002,-0.007749746181086063,-0.005309673800002991,-0.0026643549400035436,-0.012068542279302433,-0.005008464480006675
0.5325,-0.0006709710220014018,-0.7837397784999985,0.0006904130470010883,-2.355174424999998,-0.00029645897750065235,1.5704461049999991,0.7851699149999987,0.03999997,0.03999996,-9.817362350000002,-0.00787702985109263,-0.005334582200002673,-0.002693868985003167,-0.012063648924230955,-0.005064052620005965
0.535,-0.0006846922440015847,-0.7837254739999984,0.0007010663470012303,-2.3551581899999983,-0.0003028444350007375,1.570437569999999,0.7851563259999984,0.03999997,0.03999996,-9.8173714,-0.00800959048794243,-0.005366601770004013,-0.002724081300003447,-0.01205786978825852,-0.0051210086600065015
0.5375,-0.0006987424200017888,-0.7837108849999981,0.0007119752275013889,-2.355141524999998,-0.0003093830925008325,1.570428824999999,0.7851424149999983,0.03999997,0.03999996,-9.817378000000001,-0.008144789608212613,-0.005402176925004529,-0.0027546427500038913,-0.012051647761835808,-0.005178648650007339
0.54,-0.0007127925960019936,-0.7836962959999979,0.0007228841080015478,-2.355124859999998,-0.00031592175000092783,1.5704200799999988,0.785128503999998,0.03999997,0.03999996,-9.817384600000002,-0.008279988728482804,-0.005437752080005048,-0.0027852042000043363,-0.012045425735413097,-0.005236288640008179
0.5425,-0.0007268427720021979,-0.7836817069999977,0.0007337929885017064,-2.3551081949999975,-0.00032246040750102283,1.5704113349999986,0.7851145929999979,0.03999997,0.03999996,-9.817391200000001,-0.008415187848752989,-0.005473327235005565,-0.0028157656500047805,-0.012039203708990387,-0.005293928630009017
0.545,-0.0007408929480024026,-0.7836671179999974,0.0007447018690018654,-2.3550915299999975,-0.00032899906500111816,1.5704025899999985,0.7851006819999976,0.03999997,0.03999996,-9.817397800000002,-0.00855038696902318,-0.005508902390006083,-0.002846327100005226,-0.012032981682567676,-0.005351568620009857
0.5475,-0.0007549431240026068,-0.7836525289999973,0.0007556107495020239,-2.355074864999997,-0.00033553772250121316,1.5703938449999983,0.7850867709999975,0.03999997,0.03999996,-9.817404400000001,-0.008685586089293365,-0.0055444775450066005,-0.00287688855000567,-0.012026759656144966,-0.005409208610010694
0.55,-0.000768993300003016,-0.7836379399999969,0.0007665196300023418,-2.3550581999999967,-0.00034207638000140363,1.5703850999999982,0.785072859999997,0.03999997,0.03999996,-9.817411000000005,-0.008820785209565828,-0.005580052700006066,-0.002907450000006336,-0.012020537629722002,-0.005466848600011938
0.5525,-0.0007840651200030293,-0.7836224689999969,0.0007782223855023522,-2.3550400199999966,-0.00034909080300140987,1.5703757099999982,0.785057940999997,0.03999997,0.03999996,-9.817434850000005,-0.008967346418678359,-0.005610368090006093,-0.0029391130650063637,-0.012013047700746295,-0.005526509810011991
0.555,-0.0007991369400030434,-0.7836069979999969,0.0007899251410023631,-2.3550218399999965,-0.0003561052260014164,1.5703663199999982,0.785043021999997,0.03999997,0.03999996,-9.817458700000005,-0.009113907627790895,-0.005640683480006121,-0.0029707761300063933,-0.012005557771770588,-0.005586171020012048
0.5575,-0.0008142087600030568,-0.7835915269999968,0.0008016278965023735,-2.3550036599999964,-0.00036311964900142266,1.5703569299999982,0.785028102999997,0.03999997,0.03999996,-9.817482550000005,-0.009260468836903426,-0.005670998870006149,-0.0030024391950064216,-0.011998067842794882,-0.0056458322300121004
0.56,-0.0008292805800030708,-0.7835760559999968,0.0008133306520023844,-2.3549854799999963,-0.00037013407200142917,1.5703475399999982,0.785013183999997,0.03999997,0.03999996,-9.817506400000005,-0.009407030046015962,-0.005701314260006177,-0.003034102260006451,-0.011990577913819174,-0.005705493440012156
0.5625,-0.0008443524000030842,-0.7835605849999968,0.0008250334075023949,-2.354967299999996,-0.0003771484950014354,1.5703381499999982,0.784998264999997,0.03999997,0.03999996,-9.817530250000004,-0.009553591255128493,-0.005731629650006204,-0.003065765325006479,-0.011983087984843467,-0.005765154650012209
0.5650000000000001,-0.0008594242200030983,-0.7835451139999968,0.0008367361630024058,-2.354949119999996,-0.00038416291800144197,1.5703287599999982,0.784983345999997,0.03999997,0.03999996,-9.817554100000004,-0.00970015246424103,-0.005761945040006232,-0.0030974283900065086,-0.01197559805586776,-0.005824815860012265
0.5675,-0.0008748480600033297,-0.7835293474999966,0.0008487124575025856,-2.354930484999996,-0.0003913412900015497,1.570319144999998,0.7849680734999968,0.03999997015,0.0399999603,-9.817564899999997,-0.009849468944626141,-0.005795605855008331,-0.003129462585006767,-0.011967438645658874,-0.005885140725012729
0.5700000000000001,-0.0008909759400033447,-0.7835129899999966,0.0008612358300025973,-2.354910939999996,-0.0003988475600015567,1.570309079999998,0.7849520939999968,0.039999970600000004,0.0399999612,-9.817549599999996,-0.01000429596755131,-0.005835957520008369,-0.003162239040006797,-0.01195794027298487,-0.005946792900012786
0.5725,-0.0009071038200033591,-0.7834966324999966,0.0008737592025026084,-2.354891394999996,-0.0004063538300015634,1.570299014999998,0.7849361144999967,0.03999997105,0.0399999621,-9.817534299999997,-0.010159122990476473,-0.005876309185008405,-0.0031950154950068266,-0.011948441900310866,-0.006008445075012841
0.5750000000000001,-0.0009232317000033741,-0.7834802749999966,0.00088628257500262,-2.354871849999996,-0.0004138601000015704,1.570288949999998,0.7849201349999967,0.0399999715,0.039999963,-9.817518999999997,-0.010313950013401641,-0.005916660850008442,-0.0032277919500068573,-0.011938943527636862,-0.006070097250012898
0.5775,-0.0009393595800033885,-0.7834639174999966,0.0008988059475026312,-2.354852304999996,-0.00042136637000157707,1.5702788849999978,0.7849041554999967,0.039999971950000004,0.0399999639,-9.817503699999996,-0.010468777036326805,-0.005957012515008478,-0.0032605684050068862,-0.011929445154962859,-0.006131749425012953
0.58,-0.0009554874600034029,-0.7834475599999966,0.0009113293200026423,-2.354832759999996,-0.00042887264000158375,1.570268819999998,0.7848881759999966,0.0399999724,0.039999964799999996,-9.817488399999997,-0.010623604059251966,-0.005997364180008514,-0.003293344860006915,-0.011919946782288856,-0.006193401600013008
0.5825,-0.0009716153400034179,-0.7834312024999965,0.000923852692502654,-2.354813214999996,-0.00043637891000159075,1.5702587549999978,0.7848721964999966,0.03999997285,0.0399999657,-9.817473099999997,-0.010778431082177136,-0.006037715845008552,-0.003326121315006946,-0.011910448409614851,-0.006255053775013066
0.585,-0.000988469750003664,-0.7834142279999964,0.0009369406850028454,-2.354792729999996,-0.00044422362000170546,1.5702482399999977,0.7848554969999963,0.039999973,0.039999966,-9.817480700000004,-0.010941163729911703,-0.006071145660006378,-0.0033595674200071887,-0.011900022719053011,-0.006318010320013537
0.5875,-0.0010056874250036802,-0.7833969449999963,0.0009503109875028578,-2.3547717749999957,-0.0004522375500017129,1.5702374999999977,0.7848384374999964,0.039999973,0.039999966,-9.817499750000005,-0.011107849190047203,-0.006101114550006406,-0.0033933483500072203,-0.011889133369547698,-0.006381619050013596
0.59,-0.0010229051000036954,-0.7833796619999963,0.0009636812900028697,-2.3547508199999956,-0.00046025148000172,1.5702267599999977,0.7848213779999963,0.039999973,0.039999966,-9.817518800000004,-0.011274534650182695,-0.006131083440006432,-0.0034271292800072506,-0.011878244020042382,-0.006445227780013652
0.5925,-0.0010401227750037115,-0.7833623789999963,0.000977051592502882,-2.3547298649999955,-0.0004682654100017275,1.5702160199999977,0.7848043184999963,0.039999973,0.039999966,-9.817537850000004,-0.011441220110318196,-0.006161052330006461,-0.0034609102100072817,-0.011867354670537067,-0.006508836510013711
0.595,-0.0010573404500037267,-0.7833450959999962,0.000990421895002894,-2.3547089099999954,-0.0004762793400017346,1.5702052799999977,0.7847872589999962,0.039999973,0.039999966,-9.817556900000005,-0.01160790557045369,-0.006191021220006487,-0.003494691140007312,-0.011856465321031752,-0.006572445240013768
0.5975,-0.0010745581250037428,-0.7833278129999962,0.0010037921975029065,-2.3546879549999957,-0.00048429327000174205,1.5701945399999975,0.7847701994999963,0.039999973,0.039999966,-9.817575950000005,-0.01177459103058919,-0.006220990110006515,-0.003528472070007343,-0.011845575971526436,-0.006636053970013827
0.6,-0.0010917758000040033,-0.783310529999996,0.0010171625000031089,-2.354666999999995,-0.0004923072000018634,1.5701837999999975,0.784753139999996,0.039999973,0.039999966,-9.817595000000003,-0.011941276490726694,-0.006250959000009324,-0.003562253000007595,-0.011834686622020887,-0.006699662700014304
0.6025,-0.0011101167650040204,-0.7832922014999959,0.0010314056150031222,-2.354644604999995,-0.0005008442445018713,1.5701723699999974,0.784734968999996,0.039999973,0.039999966,-9.817606400000003,-0.012117181904652503,-0.006293675055009364,-0.0035970497750076277,-0.011822719080370936,-0.006765194745014365
0.605,-0.0011284577300040366,-0.783273872999996,0.0010456487300031347,-2.354622209999995,-0.0005093812890018789,1.5701609399999974,0.7847167979999959,0.039999973,0.039999966,-9.817617800000003,-0.012293087318578306,-0.006336391110009401,-0.0036318465500076585,-0.011810751538720986,-0.006830726790014423
0.6075,-0.0011467986950040537,-0.7832555444999959,0.001059891845003148,-2.3545998149999954,-0.0005179183335018868,1.5701495099999974,0.7846986269999959,0.039999973,0.039999966,-9.817629200000002,-0.012468992732504115,-0.006379107165009441,-0.003666643325007691,-0.011798783997071034,-0.006896258835014484
0.61,-0.00116513966000407,-0.783237215999996,0.0010741349600031608,-2.354577419999995,-0.0005264553780018944,1.5701380799999975,0.7846804559999959,0.039999973,0.039999966,-9.817640600000002,-0.012644898146429915,-0.0064218232200094795,-0.003701440100007722,-0.011786816455421083,-0.006961790880014543
0.6125,-0.001183480625004087,-0.7832188874999959,0.001088378075003174,-2.3545550249999954,-0.0005349924225019025,1.5701266499999975,0.7846622849999959,0.039999973,0.039999966,-9.817652000000002,-0.012820803560355724,-0.006464539275009519,-0.003736236875007754,-0.011774848913771133,-0.007027322925014604
0.615,-0.0012018215900041034,-0.783200558999996,0.0011026211900031866,-2.354532629999995,-0.0005435294670019101,1.5701152199999975,0.7846441139999959,0.039999973,0.039999966,-9.817663400000002,-0.012996708974281526,-0.006507255330009557,-0.003771033650007785,-0.011762881372121182,-0.007092854970014662
0.6175,-0.0012205478350043803,-0.7831819059999957,0.0011171637650034018,-2.3545096899999947,-0.0005522459405020389,1.5701035449999974,0.7846255649999957,0.039999973,0.039999966,-9.817681300000007,-0.013176861126018187,-0.006550121400009697,-0.003806163075008042,-0.011750580416989296,-0.007159016150015147
0.62,-0.0012400446400043976,-0.7831626039999957,0.0011323052600034152,-2.3544856599999946,-0.000561321272002047,1.5700913799999974,0.7846062599999957,0.039999973,0.039999966,-9.817712200000008,-0.01336550675336797,-0.006593287500009736,-0.0038419578000080737,-0.011737612634894215,-0.007226435600015207
0.6225,-0.0012595414450044158,-0.7831433019999957,0.0011474467550034292,-2.3544616299999945,-0.0005703966035020554,1.5700792149999974,0.7845869549999956,0.039999973,0.039999966,-9.817743100000007,-0.013554152380717761,-0.006636453600009776,-0.0038777525250081072,-0.011724644852799133,-0.00729385505001527
0.625,-0.001279038250004433,-0.7831239999999956,0.0011625882500034429,-2.3544375999999945,-0.0005794719350020635,1.5700670499999974,0.7845676499999956,0.039999973,0.039999966,-9.817774000000007,-0.013742798008067544,-0.006679619700009814,-0.003913547250008139,-0.01171167707070405,-0.00736127450001533
0.6275000000000001,-0.0012985350550044513,-0.7831046979999956,0.001177729745003457,-2.3544135699999944,-0.000588547266502072,1.5700548849999971,0.7845483449999956,0.039999973,0.039999966,-9.817804900000008,-0.013931443635417333,-0.006722785800009855,-0.003949341975008173,-0.011698709288608968,-0.007428693950015393
0.63,-0.0013180318600044686,-0.7830853959999956,0.0011928712400034703,-2.3543895399999943,-0.0005976225980020801,1.5700427199999971,0.7845290399999956,0.039999973,0.039999966,-9.817835800000006,-0.014120089262767116,-0.006765951900009893,-0.003985136700008204,-0.011685741506513888,-0.007496113400015453
0.6325000000000001,-0.0013375286650044867,-0.7830660939999956,0.0012080127350034844,-2.3543655099999943,-0.0006066979295020885,1.570030554999997,0.7845097349999955,0.039999973,0.039999966,-9.817866700000007,-0.014308734890116907,-0.006809118000009933,-0.004020931425008238,-0.011672773724418805,-0.007563532850015515
0.635,-0.0013578174900047786,-0.7830460399999953,0.0012237697800037111,-2.354340479999994,-0.0006161422260022244,1.570017889999997,0.7844896369999953,0.039999973,0.0399999654,-9.817866399999996,-0.014503983035729457,-0.006855519190011093,-0.004057417900008509,-0.01165852211415417,-0.007632100600015973
0.6375000000000001,-0.0013785023250047978,-0.7830256099999953,0.0012398346000037262,-2.354314949999994,-0.0006257710050022334,1.570004974999997,0.7844691424999952,0.039999973,0.0399999645,-9.817850499999995,-0.014702532440469977,-0.0069035379250111375,-0.004094250250008543,-0.01164362858980542,-0.007701242500016038
0.64,-0.0013991871600048161,-0.7830051799999953,0.0012558994200037403,-2.354289419999994,-0.000635399784002242,1.569992059999997,0.7844486479999953,0.039999973,0.0399999636,-9.817834599999996,-0.014901081845210488,-0.0069515566600111805,-0.004131082600008576,-0.011628735065456672,-0.007770384400016098
0.6425,-0.0014198719950048345,-0.7829847499999952,0.0012719642400037547,-2.354263889999994,-0.0006450285630022505,1.569979144999997,0.7844281534999953,0.039999973,0.0399999627,-9.817818699999997,-0.015099631249951,-0.0069995753950112235,-0.004167914950008608,-0.011613841541107924,-0.00783952630001616
0.645,-0.0014405568300048539,-0.7829643199999953,0.0012880290600037695,-2.354238359999994,-0.0006546573420022595,1.5699662299999968,0.7844076589999952,0.039999973,0.0399999618,-9.817802799999996,-0.01529818065469152,-0.007047594130011268,-0.004204747300008643,-0.011598948016759175,-0.007908668200016225
0.6475,-0.0014612416650048722,-0.7829438899999952,0.001304093880003784,-2.354212829999994,-0.000664286121002268,1.569953314999997,0.7843871644999952,0.039999973,0.0399999609,-9.817786899999996,-0.01549673005943203,-0.007095612865011311,-0.004241579650008675,-0.011584054492410427,-0.007977810100016285
0.65,-0.0014819265000051798,-0.7829234599999949,0.001320158700004023,-2.3541872999999938,-0.0006739149000024114,1.5699403999999966,0.7843666699999949,0.039999973,0.03999996,-9.81777100000001,-0.015695279464175874,-0.007143631600011324,-0.004278412000008934,-0.011569160968061562,-0.008046952000016809
0.6525,-0.0015038311050051994,-0.7829019934999949,0.0013371714750040381,-2.3541601799999934,-0.0006841117575024204,1.5699267799999967,0.7843449544999949,0.039999973,0.03999996,-9.81780655000001,-0.015907875541648037,-0.007191515410011366,-0.0043161931000089675,-0.011553779058154693,-0.008118035350016872
0.655,-0.0015257357100052198,-0.7828805269999949,0.001354184250004054,-2.3541330599999934,-0.0006943086150024299,1.5699131599999967,0.7843232389999949,0.039999973,0.03999996,-9.817842100000009,-0.01612047161912021,-0.007239399220011411,-0.0043539742000090025,-0.011538397148247824,-0.008189118700016939
0.6575,-0.0015476403150052392,-0.7828590604999949,0.0013711970250040691,-2.3541059399999935,-0.000704505472502439,1.5698995399999967,0.7843015234999948,0.039999973,0.03999996,-9.817877650000009,-0.016333067696592374,-0.007287283030011454,-0.0043917553000090365,-0.011523015238340956,-0.008260202050017002
0.66,-0.0015695449200052597,-0.7828375939999949,0.001388209800004085,-2.3540788199999936,-0.0007147023300024484,1.5698859199999966,0.7842798079999949,0.039999973,0.03999996,-9.817913200000008,-0.016545663774064547,-0.007335166840011498,-0.004429536400009071,-0.011507633328434087,-0.008331285400017069
0.6625,-0.0015914495250052793,-0.7828161274999949,0.0014052225750041001,-2.3540516999999936,-0.0007248991875024576,1.5698722999999966,0.7842580924999948,0.039999973,0.03999996,-9.81794875000001,-0.01675825985153671,-0.007383050650011541,-0.0044673175000091055,-0.011492251418527218,-0.00840236875001713
0.665,-0.0016133541300052995,-0.7827946609999948,0.001422235350004116,-2.3540245799999937,-0.000735096045002467,1.5698586799999967,0.7842363769999948,0.039999973,0.03999996,-9.81798430000001,-0.016970855929008884,-0.0074309344600115845,-0.00450509860000914,-0.01147686950862035,-0.008473452100017197
0.6675,-0.001635675600005728,-0.7827728124999944,0.001439572160004449,-2.3539968949999928,-0.0007454871145026665,1.5698447899999963,0.7842142549999943,0.039999973,0.03999996,-9.818008550000002,-0.01718623097991447,-0.007481588250013901,-0.004543169730009561,-0.011460951948534219,-0.008545129950018025
0.67,-0.0016588308000060655,-0.7827501999999941,0.001457557040004711,-2.3539680799999925,-0.0007562666080028237,1.569830359999996,0.784191319999994,0.039999973,0.03999996,-9.818010200000002,-0.017407163977680832,-0.00753778200001472,-0.004581820920010125,-0.01144396308809073,-0.008617996800019087
0.6725,-0.0016819860000064021,-0.7827275874999937,0.0014755419200049725,-2.353939264999992,-0.0007670461015029804,1.5698159299999959,0.7841683849999936,0.039999973,0.03999996,-9.818011850000001,-0.017628096975447188,-0.007593975750015536,-0.004620472110010686,-0.011426974227647243,-0.008690863650020145
0.675,-0.0017051412000067395,-0.7827049749999935,0.0014935268000052346,-2.353910449999992,-0.0007778255950031375,1.5698014999999959,0.7841454499999934,0.039999973,0.03999996,-9.818013500000001,-0.017849029973213554,-0.007650169500016356,-0.00465912330001125,-0.011409985367203756,-0.008763730500021208
0.6775,-0.001728296400007076,-0.7826823624999931,0.0015115116800054958,-2.353881634999991,-0.000788605088503294,1.5697870699999956,0.784122514999993,0.039999973,0.03999996,-9.81801515,-0.01806996297097991,-0.007706363250017172,-0.0046977744900118116,-0.011392996506760268,-0.008836597350022266
0.68,-0.0017514516000074133,-0.7826597499999928,0.0015294965600057581,-2.353852819999991,-0.0007993845820034512,1.5697726399999954,0.7840995799999927,0.039999973,0.03999996,-9.8180168,-0.018290895968746272,-0.007762557000017991,-0.004736425680012374,-0.01137600764631678,-0.008909464200023328
0.6825,-0.00177460680000775,-0.7826371374999924,0.0015474814400060193,-2.3538240049999906,-0.0008101640755036079,1.5697582099999952,0.7840766449999923,0.039999973,0.03999996,-9.81801845,-0.018511828966512628,-0.007818750750018807,-0.004775076870012936,-0.011359018785873294,-0.008982331050024387
0.685,-0.0017986160200080903,-0.7826137499999921,0.0015661300900062839,-2.35379415999999,-0.0008213413960037664,1.569743259999995,0.784052864999992,0.039999973,0.03999996,-9.818022800000001,-0.018743009492833085,-0.007874865700018566,-0.004814462140013161,-0.01134119704365122,-0.009056432300024737
0.6875,-0.0018230522500077787,-0.7825899749999925,0.001585110625006042,-2.3537637999999905,-0.0008327176300036214,1.569728049999995,0.7840286624999923,0.039999973,0.03999996,-9.818028500000002,-0.018979313783422744,-0.00793094125001785,-0.004854214450012654,-0.011322958860540494,-0.009131150750023784
0.6900000000000001,-0.001847488480007468,-0.7825661999999928,0.0016040911600058007,-2.3537334399999907,-0.0008440938640034767,1.5697128399999953,0.7840044599999926,0.039999973,0.03999996,-9.818034200000001,-0.019215618074012418,-0.007987016800017137,-0.004893966760012149,-0.011304720677429766,-0.009205869200022835
0.6925,-0.0018719247100071564,-0.782542424999993,0.0016230716950055585,-2.353703079999991,-0.0008554700980033317,1.5696976299999956,0.7839802574999929,0.039999973,0.03999996,-9.8180399,-0.019451922364602078,-0.008043092350016422,-0.004933719070011642,-0.01128648249431904,-0.009280587650021882
0.6950000000000001,-0.0018963609400068457,-0.7825186499999933,0.0016420522300053175,-2.3536727199999916,-0.000866846332003187,1.5696824199999957,0.7839560549999932,0.039999973,0.03999996,-9.818045600000001,-0.01968822665519175,-0.008099167900015709,-0.004973471380011136,-0.011268244311208311,-0.009355306100020932
0.6975,-0.0019207971700065342,-0.7824948749999936,0.0016610327650050753,-2.353642359999992,-0.000878222566003042,1.569667209999996,0.7839318524999935,0.039999973,0.03999996,-9.8180513,-0.01992453094578141,-0.008155243450014994,-0.005013223690010629,-0.011250006128097583,-0.00943002455001998
0.7000000000000001,-0.0019452334000065574,-0.7824710999999936,0.0016800133000050936,-2.353611999999992,-0.0008895988000030529,1.569651999999996,0.7839076499999934,0.039999973,0.03999996,-9.818057000000008,-0.020160835236374717,-0.008211319000013617,-0.005052976000010344,-0.01123176794498672,-0.009504743000019496
0.7025,-0.001970980405006229,-0.7824460874999939,0.0017000127100048384,-2.353579839999992,-0.0009015857050029,1.5696359649999962,0.7838821334999938,0.039999973,0.0399999615,-9.81809450000001,-0.020411402732194425,-0.008264785675012935,-0.005093592550009826,-0.011212999327103644,-0.00958129535001852
0.705,-0.0019967274100059005,-0.7824210749999942,0.0017200121200045835,-2.3535476799999926,-0.0009135726100027471,1.5696199299999964,0.7838566169999941,0.039999973,0.039999963,-9.81813200000001,-0.020661970228014134,-0.008318252350012253,-0.005134209100009308,-0.011194230709220569,-0.009657847700017543
0.7075,-0.002022474415005573,-0.7823960624999946,0.0017400115300043291,-2.353515519999993,-0.0009255595150025948,1.5696038949999966,0.7838311004999944,0.039999973,0.0399999645,-9.818169500000009,-0.020912537723833856,-0.008371719025011574,-0.005174825650008792,-0.011175462091337492,-0.009734400050016571
0.71,-0.002048221420005245,-0.7823710499999948,0.0017600109400040741,-2.3534833599999936,-0.0009375464200024418,1.5695878599999968,0.7838055839999948,0.039999973,0.039999966000000005,-9.818207000000008,-0.021163105219653564,-0.008425185700010893,-0.005215442200008274,-0.011156693473454417,-0.009810952400015595
0.7125,-0.002073968425004918,-0.7823460374999952,0.0017800103500038198,-2.353451199999994,-0.0009495333250022895,1.569571824999997,0.7837800674999951,0.039999973,0.039999967500000004,-9.818244500000008,-0.021413672715473283,-0.008478652375010214,-0.005256058750007757,-0.01113792485557134,-0.009887504750014622
0.715,-0.002099715430004589,-0.7823210249999956,0.0018000097600035648,-2.353419039999994,-0.0009615202300021367,1.5695557899999972,0.7837545509999954,0.039999973,0.039999969,-9.818282000000007,-0.02166424021129299,-0.00853211905000953,-0.005296675300007239,-0.011119156237688265,-0.009964057100013645
0.7175,-0.00212590900500473,-0.7822955999999954,0.0018203563300036743,-2.353386319999994,-0.0009737151050022022,1.5695394699999972,0.7837285964999953,0.039999973,0.0399999698,-9.8183055,-0.02191670779143272,-0.008592941425013191,-0.00533757367500724,-0.011099947988983437,-0.010041022600013584
0.72,-0.0021529957200051237,-0.782269349999995,0.0018413972200039801,-2.3533524799999936,-0.0009863259200023856,1.5695225799999968,0.7837017659999949,0.039999973,0.0399999692,-9.818301,-0.022172975540209534,-0.008668475200014288,-0.005379035700007843,-0.01107986047863578,-0.010118814400014714
0.7225,-0.0021800824350055184,-0.7822430999999946,0.0018624381100042868,-2.3533186399999932,-0.0009989367350025694,1.5695056899999966,0.7836749354999946,0.039999973,0.0399999686,-9.818296499999999,-0.022429243288986364,-0.008744008975015389,-0.005420497725008447,-0.011059772968288122,-0.01019660620001585
0.725,-0.0022071691500059124,-0.7822168499999942,0.0018834790000045924,-2.3532847999999924,-0.0010115475500027526,1.5694887999999962,0.7836481049999942,0.039999973,0.039999968,-9.818292,-0.022685511037763183,-0.008819542750016486,-0.005461959750009049,-0.011039685457940466,-0.01027439800001698
0.7275,-0.002234255865006307,-0.7821905999999939,0.0019045198900048991,-2.353250959999992,-0.0010241583650029364,1.569471909999996,0.7836212744999937,0.039999973,0.0399999674,-9.818287499999999,-0.022941778786540013,-0.008895076525017588,-0.005503421775009654,-0.011019597947592807,-0.010352189800018114
0.73,-0.0022613425800067006,-0.7821643499999935,0.0019255607800052047,-2.3532171199999916,-0.0010367691800031197,1.569455019999996,0.7835944439999933,0.039999973,0.0399999668,-9.818283,-0.023198046535316832,-0.008970610300018686,-0.005544883800010256,-0.01099951043724515,-0.010429981600019244
0.7325,-0.0022884292950070954,-0.7821380999999931,0.0019466016700055114,-2.3531832799999908,-0.0010493799950033035,1.5694381299999955,0.7835676134999929,0.039999973,0.0399999662,-9.818278499999998,-0.023454314284093662,-0.009046144075019786,-0.005586345825010861,-0.010979422926897494,-0.010507773400020378
0.735,-0.0023164283600076085,-0.7821109799999926,0.00196835171000591,-2.3531482799999903,-0.0010624158700035424,1.5694206999999953,0.7835398729999925,0.0399999734,0.0399999667,-9.818297700000008,-0.02372549157597116,-0.009111742000016212,-0.005628436850011339,-0.010958932247007298,-0.01058691220002134
0.7375,-0.002344883600007635,-0.7820834249999926,0.001990456325005931,-2.3531126999999903,-0.001075664275003555,1.5694029999999952,0.7835116774999924,0.039999974,0.03999996775,-9.818328750000008,-0.02400412363939006,-0.009172372000016268,-0.0056708423750113784,-0.010938239982346073,-0.010666724500021414
0.74,-0.0023733388400076602,-0.7820558699999925,0.0020125609400059507,-2.3530771199999903,-0.0010889126800035665,1.5693852999999953,0.7834834819999924,0.0399999746,0.0399999688,-9.818359800000009,-0.02428275570280895,-0.009233002000016323,-0.0057132479000114155,-0.01091754771768485,-0.010746536800021486
0.7425,-0.0024017940800076867,-0.7820283149999926,0.002034665555005971,-2.35304153999999,-0.001102161085003579,1.5693675999999952,0.7834552864999924,0.0399999752,0.03999996985,-9.818390850000009,-0.02456138776622785,-0.009293632000016379,-0.005755653425011455,-0.010896855453023626,-0.01082634910002156
0.745,-0.002430249320007712,-0.7820007599999925,0.002056770170005991,-2.35300595999999,-0.0011154094900035906,1.569349899999995,0.7834270909999923,0.0399999758,0.0399999709,-9.818421900000008,-0.024840019829646738,-0.009354262000016432,-0.005798058950011493,-0.010876163188362403,-0.010906161400021631
0.7475,-0.0024587045600077385,-0.7819732049999926,0.0020788747850060117,-2.35297037999999,-0.001128657895003603,1.5693321999999952,0.7833988954999923,0.0399999764,0.03999997195,-9.818452950000008,-0.025118651893065638,-0.00941489200001649,-0.005840464475011533,-0.010855470923701179,-0.010985973700021705
0.75,-0.002487159800008145,-0.7819456499999922,0.0021009794000063273,-2.3529347999999897,-0.0011419063000037922,1.5693144999999948,0.7833706999999919,0.039999977,0.039999973,-9.818484000000005,-0.025397283956486497,-0.009475522000023164,-0.005882870000011799,-0.010834778659039812,-0.0110657860000222
0.7525000000000001,-0.002517011180008173,-0.7819168574999922,0.002124169265006349,-2.3528973299999896,-0.001155805060003805,1.5692959149999948,0.7833411199999919,0.039999977,0.03999997405,-9.818501550000004,-0.02568314932294565,-0.009560419750023244,-0.005926112855011839,-0.010813565738493264,-0.011147152600022275
0.755,-0.002546862560008199,-0.7818880649999921,0.0021473591300063695,-2.3528598599999895,-0.0011697038200038175,1.569277329999995,0.7833115399999918,0.039999977,0.0399999751,-9.818519100000005,-0.02596901468940479,-0.009645317500023318,-0.005969355710011877,-0.010792352817946714,-0.011228519200022349
0.7575000000000001,-0.002576713940008227,-0.7818592724999921,0.002170548995006391,-2.35282238999999,-0.0011836025800038305,1.5692587449999948,0.7832819599999918,0.039999977,0.03999997615,-9.818536650000004,-0.02625488005586394,-0.009730215250023398,-0.0060125985650119175,-0.010771139897400164,-0.011309885800022425
0.76,-0.0026065653200082533,-0.781830479999992,0.0021937388600064118,-2.3527849199999897,-0.001197501340003843,1.5692401599999948,0.7832523799999918,0.039999977,0.0399999772,-9.818554200000005,-0.02654074542232308,-0.009815113000023473,-0.006055841420011956,-0.010749926976853615,-0.011391252400022497
0.7625000000000001,-0.0026364167000082813,-0.781801687499992,0.0022169287250064333,-2.3527474499999896,-0.001211400100003856,1.569221574999995,0.7832227999999918,0.039999977,0.03999997825,-9.818571750000004,-0.02682661078878223,-0.009900010750023553,-0.006099084275011997,-0.010728714056307065,-0.011472619000022574
0.765,-0.002666268080008308,-0.781772894999992,0.002240118590006454,-2.3527099799999895,-0.0012252988600038681,1.5692029899999949,0.7831932199999917,0.039999977,0.039999979299999995,-9.818589300000005,-0.027112476155241372,-0.009984908500023627,-0.006142327130012035,-0.010707501135760517,-0.011553985600022645
0.7675000000000001,-0.002696593865008733,-0.7817436649999916,0.0022636772950067846,-2.3526719349999894,-0.0012394183650040662,1.5691841149999946,0.7831631699999914,0.039999976799999996,0.03999998075,-9.818600199999999,-0.0274041270838034,-0.01006356725001848,-0.006185857365012316,-0.010685650631778853,-0.011635896150023178
0.77,-0.0027278684600087607,-0.7817135599999916,0.002287973680006806,-2.352632739999989,-0.001253979360004079,1.5691646599999944,0.7831321799999913,0.0399999762,0.039999982999999996,-9.8185978,-0.027707349136556644,-0.01012974800001854,-0.006229962360012355,-0.010662524960928562,-0.01171889460002325
0.7725,-0.0027591430550087887,-0.7816834549999916,0.0023122700650068276,-2.3525935449999893,-0.001268540355004092,1.5691452049999945,0.7831011899999912,0.0399999756,0.03999998525,-9.8185954,-0.028010571189309885,-0.010195928750018598,-0.006274067355012394,-0.010639399290078271,-0.011801893050023325
0.775,-0.002790417650008818,-0.7816533499999916,0.0023365664500068503,-2.352554349999989,-0.0012831013500041056,1.5691257499999944,0.7830701999999913,0.039999975,0.0399999875,-9.818593,-0.028313793242063144,-0.01026210950001866,-0.006318172350012435,-0.01061627361922798,-0.011884891500023403
0.7775,-0.0028216922450088455,-0.7816232449999915,0.002360862835006872,-2.352515154999989,-0.0012976623450041184,1.5691062949999945,0.7830392099999912,0.0399999744,0.03999998975,-9.8185906,-0.02861701529481639,-0.010328290250018718,-0.006362277345012475,-0.01059314794837769,-0.011967889950023475
0.78,-0.0028529668400088747,-0.7815931399999915,0.0023851592200068946,-2.352475959999989,-0.001312223340004132,1.5690868399999944,0.7830082199999913,0.0399999738,0.039999992000000005,-9.818588199999999,-0.028920237347569645,-0.01039447100001878,-0.006406382340012516,-0.010570022277527399,-0.012050888400023553
0.7825,-0.0028842414350089027,-0.7815630349999915,0.002409455605006916,-2.352436764999989,-0.001326784335004145,1.5690673849999945,0.7829772299999912,0.039999973200000004,0.039999994250000004,-9.8185858,-0.02922345940032289,-0.010460651750018838,-0.0064504873350125546,-0.010546896606677108,-0.012133886850023626
0.785,-0.0029164825500093455,-0.7815320099999911,0.0024345033700072607,-2.3523962799999882,-0.0013417959800043516,1.5690473399999942,0.7829452799999908,0.039999973,0.039999995,-9.818598300000007,-0.029532120190649717,-0.01054244810002559,-0.00649513895001283,-0.010523585975163417,-0.012217627300024021
0.7875,-0.002949206925009375,-0.781500524999991,0.0024599268250072833,-2.352355149999988,-0.001357032950004365,1.5690269999999942,0.7829128499999908,0.039999973,0.039999995,-9.818618250000005,-0.02984350034975983,-0.01063205225002567,-0.00654006387501287,-0.010500182863318146,-0.012301738750024096
0.79,-0.0029819313000094055,-0.781469039999991,0.002485350280007307,-2.352314019999988,-0.0013722699200043793,1.5690066599999941,0.7828804199999907,0.039999973,0.039999995,-9.818638200000006,-0.030154880508869955,-0.010721656400025753,-0.006584988800012912,-0.010476779751472874,-0.012385850200024175
0.7925,-0.0030146556750094344,-0.7814375549999909,0.0025107737350073297,-2.352272889999988,-0.0013875068900043928,1.5689863199999943,0.7828479899999907,0.039999973,0.039999995,-9.818658150000006,-0.03046626066798007,-0.010811260550025834,-0.006629913725012952,-0.010453376639627603,-0.01246996165002425
0.795,-0.003047380050009465,-0.7814060699999908,0.0025361971900073536,-2.352231759999988,-0.001402743860004407,1.5689659799999942,0.7828155599999906,0.039999973,0.039999995,-9.818678100000007,-0.030777640827090193,-0.010900864700025915,-0.006674838650012994,-0.01042997352778233,-0.012554073100024328
0.7975,-0.003080104425009494,-0.7813745849999908,0.002561620645007376,-2.352190629999988,-0.0014179808300044206,1.5689456399999941,0.7827831299999907,0.039999973,0.039999995,-9.818698050000007,-0.031089020986200307,-0.010990468850025996,-0.006719763575013034,-0.01040657041593706,-0.012638184550024401
0.8,-0.0031128288000099543,-0.7813430999999904,0.0025870441000077336,-2.3521494999999875,-0.001433217800004635,1.5689252999999939,0.7827506999999901,0.039999973,0.039999995,-9.818718000000008,-0.03140040114531583,-0.011080073000023546,-0.006764688500013299,-0.0103831673040915,-0.012722296000024863
0.8025,-0.0031470288300099844,-0.7813102259999903,0.0026136148750077574,-2.3521065249999875,-0.0014491430000046492,1.5689040149999938,0.7827168149999901,0.0399999736,0.03999999395,-9.818739900000006,-0.031730321236051066,-0.011160976400023618,-0.006810378875013339,-0.010358779178925175,-0.01280772220002494
0.805,-0.0031812288600100162,-0.7812773519999904,0.002640185650007782,-2.352063549999987,-0.001465068200004664,1.568882729999994,0.7826829299999901,0.0399999742,0.0399999929,-9.818761800000006,-0.032060241326786316,-0.011241879800023695,-0.006856069250013382,-0.010334391053758846,-0.012893148400025018
0.8075,-0.0032154288900100468,-0.7812444779999903,0.0026667564250078056,-2.352020574999987,-0.0014809934000046781,1.5688614449999938,0.7826490449999901,0.0399999748,0.03999999185,-9.818783700000006,-0.03239016141752155,-0.011322783200023766,-0.0069017596250134225,-0.010310002928592521,-0.012978574600025095
0.81,-0.0032496289200100786,-0.7812116039999902,0.0026933272000078307,-2.3519775999999872,-0.0014969186000046931,1.5688401599999937,0.78261515999999,0.0399999754,0.0399999908,-9.818805600000006,-0.0327200815082568,-0.011403686600023843,-0.006947450000013465,-0.010285614803426192,-0.013064000800025176
0.8125,-0.003283828950010109,-0.7811787299999903,0.002719897975007854,-2.3519346249999873,-0.0015128438000047073,1.5688188749999938,0.78258127499999,0.039999976,0.03999998975,-9.818827500000006,-0.033050001598992046,-0.011484590000023914,-0.006993140375013506,-0.010261226678259867,-0.01314942700002525
0.8150000000000001,-0.003318028980010141,-0.7811458559999902,0.002746468750007879,-2.351891649999987,-0.001528769000004722,1.5687975899999937,0.78254738999999,0.0399999766,0.0399999887,-9.818849400000007,-0.033379921689727296,-0.01156549340002399,-0.007038830750013548,-0.01023683855309354,-0.013234853200025331
0.8175,-0.0033527292750106176,-0.7811125104999898,0.0027734284950082498,-2.3518480599999867,-0.0015449264750049434,1.5687759899999933,0.7825130099999895,0.039999976799999996,0.03999998835,-9.818865350000001,-0.03371436893950178,-0.01165301770002997,-0.0070847989500138365,-0.010212244605638044,-0.013320825250025894
0.8200000000000001,-0.003388430100010651,-0.7810782219999898,0.0028011661800082755,-2.3518032399999864,-0.001561548500004959,1.5687537599999934,0.7824776399999894,0.0399999762,0.0399999894,-9.8188694,-0.0340578705073427,-0.011753783800030063,-0.00713132280001388,-0.01018723901360476,-0.013407889000025975
0.8225,-0.0034241309250106827,-0.7810439334999897,0.0028289038650083,-2.3517584199999866,-0.0015781705250049738,1.5687315299999933,0.7824422699999894,0.0399999756,0.03999999045,-9.818873450000002,-0.034401372075183595,-0.011854549900030152,-0.007177846650013921,-0.010162233421571479,-0.013494952750026053
0.8250000000000001,-0.003459831750010716,-0.7810096449999897,0.002856641550008326,-2.3517135999999863,-0.0015947925500049893,1.5687092999999932,0.7824068999999894,0.039999975,0.039999991500000005,-9.818877500000001,-0.034744873643024504,-0.011955316000030247,-0.007224370500013965,-0.010137227829538195,-0.013582016500026134
0.8275,-0.0034955325750107478,-0.7809753564999896,0.0028843792350083503,-2.3516687799999865,-0.0016114145750050041,1.5686870699999933,0.7823715299999894,0.0399999744,0.03999999255,-9.818881550000002,-0.0350883752108654,-0.012056082100030336,-0.007270894350014006,-0.010112222237504912,-0.01366908025002621
0.8300000000000001,-0.003531233400010781,-0.7809410679999896,0.002912116920008376,-2.351623959999986,-0.0016280366000050197,1.5686648399999932,0.7823361599999893,0.0399999738,0.039999993600000006,-9.818885600000002,-0.03543187677870631,-0.01215684820003043,-0.00731741820001405,-0.010087216645471629,-0.013756144000026291
0.8325,-0.003566934225010813,-0.7809067794999897,0.0029398546050084006,-2.3515791399999864,-0.0016446586250050343,1.5686426099999933,0.7823007899999893,0.039999973200000004,0.03999999465,-9.818889650000003,-0.035775378346547204,-0.01225761430003052,-0.007363942050014091,-0.010062211053438347,-0.013843207750026369
