rsonawane2002/My_IMU/logs_2/traj_498/clean_498.csv
time,j1,j2,j3,j4,j5,j6,j7,gripper1,gripper2,imu_ax,imu_ay,imu_az,imu_gx,imu_gy,imu_gz,quat_x,quat_y,quat_z,quat_w
2730.383333340488,0.00016700293,-0.785875,4.0107683e-05,-2.3551247,9.29385e-05,1.570997,0.786,0.04,0.04,0.0,-0.0,0.0,2.875329272945135e-08,-0.0011641195053377316,4.421952117202833e-08,0.9999995971961153,0.00020320632366974898,0.0008736418299892524,3.263050917662294e-05
2730.400000007155,0.00016701124,-0.78576016,4.010924e-05,-2.3552213,9.297417e-05,1.5709941,0.786,0.04,0.04,-0.2919984595741276,-3.5089752628558735e-05,0.020128408195407843,2.369042726137607e-07,-0.0022386662456813406,3.1236803604062747e-07,0.999999685058883,0.00020320636365765316,0.0007665025180279686,3.260672441036466e-05
2730.416666673822,0.00016705757,-0.7856543,4.0073304e-05,-2.35531,9.300805e-05,1.5709913,0.786,0.04,0.04,0.0233287283387007,3.472416616745466e-06,-0.001670435741929488,2.0978562476641937e-06,-0.0032299075600557845,1.9212830324743706e-06,0.9999997558468815,0.0002032002690351262,0.0006677972472782131,3.259853682058421e-05
2730.433333340489,0.00016720378,-0.785557,3.993915e-05,-2.355391,9.30419e-05,1.5709884,0.786,0.04,0.04,0.022394878498044335,5.605562201671825e-06,-0.0014910515022670268,7.584668607889053e-06,-0.004145032234450856,6.1028421661331994e-06,0.999999812265238,0.00020317861031943758,0.0005771683841066316,3.262816787102055e-05
2730.4500000071557,0.00016753814,-0.7854673,3.9619666e-05,-2.3554654,9.307794e-05,1.5709856,0.786,0.04,0.04,0.01985021954209465,9.418721978179468e-06,-0.0014302419988343473,1.7896105058932138e-05,-0.004990574325788665,1.3968536244164657e-05,0.9999998569533114,0.0002031280987800954,0.000493721848831646,3.272718095875999e-05
2730.4666666738226,0.00016817266,-0.7853849,3.9004175e-05,-2.355533,9.311942e-05,1.570986,0.786,0.04,0.04,0.020786798015670627,1.3556088265250866e-05,0.0014442015405569109,3.4825150031922534e-05,-0.005775630536224143,2.6515325072132467e-05,0.9999998910630111,0.000203031934985281,0.0004190073477221131,3.29369359057866e-05
2730.4833333404895,0.0001692407,-0.785309,3.7960694e-05,-2.3555982,9.316958e-05,1.5709869,0.7860019,0.04,0.04,0.01101013070314849,2.0694015171824004e-05,-0.002526680528003311,5.993016521865828e-05,-0.006485772383622321,4.463540354687496e-05,0.999999917834674,0.00020382390833513652,0.0003488227046104588,3.330435719966137e-05
2730.5000000071564,0.00017089455,-0.7852394,3.633816e-05,-2.3556569,9.323264e-05,1.5709878,0.7860038,0.04,0.04,0.018303592648738487,2.7137442071235515e-05,-0.0005027587232531161,8.658172728004977e-05,-0.007163183697635223,6.913107460902328e-05,0.999999937850696,0.00020452749420301434,0.0002851646841911456,3.3885266398331934e-05
2730.5166666738232,0.00017330362,-0.78517544,3.396844e-05,-2.355714,9.331382e-05,1.5709894,0.78600675,0.04,0.04,0.008881093230628245,3.523890789160168e-05,-0.0021501951191549296,0.000125187436428055,-0.007789374551085927,0.00010071431369866592,0.999999952864323,0.00020562427951187999,0.00022535103475832482,3.474073477247493e-05
2730.53333334049,0.0001766523,-0.78511655,3.0668358e-05,-2.3557653,9.3417046e-05,1.570994,0.78601056,0.04,0.04,0.01671407530818847,4.3973050046532125e-05,0.0020855530872276873,0.00017219950159345177,-0.008391085415534431,0.000140027519535307,0.9999999630286348,0.00020702717819020284,0.00017260037831773892,3.5938641881275434e-05
2730.550000007157,0.00018113856,-0.78506273,2.6241267e-05,-2.3558154,9.354749e-05,1.5709988,0.7860163,0.04,0.04,0.007664811691143747,5.460396587537975e-05,-0.002265660004607817,0.00023040689274501217,-0.00893894742357912,0.00018762639237562354,0.9999999698406541,0.00020921350300344223,0.00012303835853600496,3.754947958771391e-05
2730.566666673824,0.00018697209,-0.78501326,2.0478827e-05,-2.355863,9.37105e-05,1.5710074,0.7860235,0.04,0.04,0.010071139896639103,6.423122151928522e-05,0.0014303098727408425,0.00029659462054332323,-0.009471011958128628,0.0002440153130121134,0.9999999736530311,0.00021194353113816213,7.875110099372282e-05,3.965023355472668e-05
2730.5833333404908,0.00019437289,-0.784968,1.3162019e-05,-2.355907,9.391179e-05,1.5710196,0.78603226,0.04,0.04,0.012331617080074686,7.534468629039233e-05,0.002053613351571393,0.0003744229902017269,-0.009968145525690858,0.00030962624642472537,0.9999999751323687,0.00021521451693179783,4.033459840807605e-05,4.232131535014541e-05
2730.6000000071576,0.00020357012,-0.78492653,4.0631935e-06,-2.35595,9.415794e-05,1.5710348,0.78604335,0.04,0.04,0.006272554123309959,8.640145088993959e-05,0.0003151318472172093,0.00046538611067799886,-0.01042731346370841,0.00038483442785914565,0.9999999748788816,0.00021937992811870398,5.583398602099288e-06,4.564546967712137e-05
2730.6166666738245,0.00021480065,-0.7848888,-7.0533447e-06,-2.355993,9.445077e-05,1.5710524,0.7860567,0.04,0.04,0.0053486484143716595,0.0001016360810573427,-0.00016351235545553067,0.0005671570472443599,-0.010868200223056484,0.00046940038298515685,0.9999999732566565,0.00022437491959426348,-2.5919808043325038e-05,4.9706594118978645e-05
2730.6333333404914,0.00022830798,-0.7848545,-2.042985e-05,-2.356036,9.4800984e-05,1.571074,0.78607225,0.04,0.04,0.005001029815265845,0.00011030131151697773,0.000999465636253305,0.0006820924605012188,-0.011297241017299476,0.0005644998830305506,0.9999999705839393,0.0002301336909901475,-5.375788376192623e-05,5.4595738833550406e-05
2730.6500000071583,0.0002443414,-0.78482324,-3.6314545e-05,-2.3560789,9.5218675e-05,1.5711004,0.78609115,0.04,0.04,0.004935463262678574,0.00012010358148823006,0.00179129966879632,0.0008117390485230359,-0.011711304430833156,0.0006711607499459842,0.9999999670312949,0.00023718570495645747,-7.766275672319775e-05,6.0405683316604236e-05
2730.666666673825,0.0002631547,-0.7847949,-5.4960074e-05,-2.356122,9.570568e-05,1.5711318,0.7861132,0.04,0.04,0.00444548151010693,0.00013636871388449491,0.002053137300972452,0.0009527268564784527,-0.012108959433992554,0.0007876143186965706,0.9999999628595431,0.00024540409921846034,-9.766436982478823e-05,6.722656783095138e-05
2730.683333340492,0.0002850055,-0.7847694,-7.662309e-05,-2.356166,9.627961e-05,1.5711671,0.78613883,0.04,0.039999995,0.003087857043859721,0.00014153323966081756,0.0009301583253629175,0.0011074587719421465,-0.012491190597361552,0.0009156441614196402,0.9999999580935645,0.0002549594845408269,-0.00011471659037090475,7.515739791676582e-05
2730.700000007159,0.00031015475,-0.7847464,-0.00010156289,-2.356213,9.692496e-05,1.5712086,0.78616834,0.04,0.04,-0.0009433651128265552,0.0001701260757444882,0.0016982746379179403,0.0012750619402408215,-0.012868869464758164,0.0010530495584005193,0.9999999527484817,0.00026596225896356,-0.00012908785976193483,8.428188167655975e-05
2730.716666673826,0.0003388653,-0.7847257,-0.00013004159,-2.3562627,9.76603e-05,1.5712557,0.7862019,0.04,0.04,0.0002903152632294237,0.00017484252057483078,0.0017835767986529305,0.0014563178063213824,-0.013244229160419844,0.0012023151160693247,0.9999999468481946,0.00027846317560353167,-0.0001406890392172938,9.470196411913156e-05
2730.7333333404927,0.0003714018,-0.78470737,-0.00016232267,-2.3563132,9.8487864e-05,1.5713094,0.7862401,0.04,0.04,0.003060308121516364,0.00019114809668109773,0.003226242102072341,0.0016514752026245225,-0.013618758978535383,0.0013618679048928415,0.999999940492856,0.00029272124854749256,-0.00014826876706741128,0.00010651257020167395
2730.7500000071595,0.00040802977,-0.784691,-0.00019867078,-2.356366,9.942054e-05,1.5713701,0.7862831,0.039999995,0.039999995,0.0007143795151431931,0.00019984968943281638,0.0030708533370171764,0.0018596933214488744,-0.013979760099961077,0.0015343066243987096,0.9999999335313491,0.0003087571006699385,-0.0001524830713310527,0.0001198134510332936
2730.7666666738264,0.00044901532,-0.7846767,-0.0002393508,-2.3564236,0.00010046345,1.5714381,0.7863312,0.03999999,0.03999999,-0.0039026430183497496,0.00021341257863644416,0.0019838175004727177,0.002081511093518685,-0.014336179815938252,0.0017170740388474427,0.9999999256192103,0.0003267102646709631,-0.0001545244989288325,0.00013470024533347152
2730.7833333404933,0.0004946246,-0.78466433,-0.00028462772,-2.3564825,0.000101623635,1.5715138,0.7863847,0.039999988,0.03999999,0.002598119863850279,0.00022635691838720335,0.004121425421943492,0.002316934493863914,-0.014699517543182668,0.0019101925960319454,0.9999999168624721,0.0003466906496947432,-0.00015230741624559487,0.0001512715875664654
2730.80000000716,0.00054512295,-0.78465384,-0.00033476617,-2.3565478,0.00010290942,1.5715976,0.78644395,0.039999984,0.039999984,-0.006334031741705992,0.00023707496630021594,0.0020964288125480124,0.0025659696392279904,-0.015050919033923364,0.0021162041170228315,0.9999999066023293,0.0003688082873561509,-0.00014833583254101343,0.00016962387984354818
2730.816666673827,0.0006007747,-0.7846451,-0.0003900296,-2.3566144,0.000104326136,1.5716897,0.7865093,0.03999998,0.03999998,0.0025221738707559282,0.00025176883885832274,0.004700197672669049,0.0028283664892973857,-0.01541534992061169,0.0023325270490371594,0.9999998948831247,0.00039320337475574646,-0.00013992825400402264,0.00018985502199200113
2730.833333340494,0.00066184346,-0.78463817,-0.0004506802,-2.3566878,0.000105880994,1.5717913,0.786581,0.03999998,0.03999998,-0.006730602058890867,0.0002612820090121498,0.0028578736809059535,0.003104407007771305,-0.015767790079748,0.0025599448185845554,0.999999880955343,0.00041998597830008824,-0.0001293504734404345,0.00021206021034069527
2730.850000007161,0.00072859036,-0.7846329,-0.0005169784,-2.356765,0.0001075809,1.571902,0.7866594,0.03999998,0.03999998,-0.0017375628795779363,0.0002739187068348634,0.004174953093838418,0.003393596845027756,-0.016129829776866188,0.002798421427712794,0.9999998644960308,0.0004492967987694605,-0.00011526232644944958,0.0002363364186042673
2730.8666666738277,0.0008012746,-0.7846292,-0.00058918307,-2.3568468,0.00010943245,1.5720229,0.7867448,0.039999977,0.039999977,-0.0027836672592984613,0.0002857228049154474,0.0046305540408075885,0.0036956786723486333,-0.016490752365056184,0.00304787507345193,0.999999844939371,0.0004811876246633663,-9.760525486558026e-05,0.0002627792191313745
2730.8833333404946,0.0008801535,-0.7846271,-0.00066755,-2.3569355,0.00011144249,1.5721544,0.7868375,0.03999997,0.03999997,-0.006685459945643402,0.0002943501516142568,0.0039115083823926255,0.0040112494549859054,-0.016851251050007173,0.003308218874287655,0.9999998214734974,0.000515858914841422,-7.733415411801268e-05,0.00029148238713364797
2730.9000000071615,0.00096548145,-0.7846263,-0.00075233274,-2.3570313,0.000113617374,1.5722969,0.7869378,0.03999996,0.03999996,-0.007176425886745719,0.0003041600859648942,0.004169987839630629,0.004339257599210198,-0.017219822979210243,0.003579349004295639,0.9999997934113355,0.0005533331016778729,-5.4480150471801936e-05,0.000322539421082548
2730.9166666738283,0.0010575099,-0.784627,-0.00084378227,-2.3571298,0.00011596386,1.5724503,0.78704596,0.039999958,0.039999958,0.0006533925055007828,0.00031765044418627635,0.0061420310445647885,0.004680586902155949,-0.017597881331747327,0.0038612004774632195,0.9999997599697026,0.0005937827537724747,-2.672019211462763e-05,0.0003560457974564371
2730.933333340495,0.0011564876,-0.7846291,-0.0009421462,-2.3572357,0.00011848824,1.5726154,0.7871623,0.03999995,0.03999995,-0.007357400567387096,0.00032323845417665245,0.004593061746538396,0.005034165261489326,-0.01796371532264058,0.004153612970188635,0.9999997200552004,0.0006372904058694871,3.857884621429125e-06,0.00039209128528213056
2730.950000007162,0.00126266,-0.78463244,-0.001047669,-2.3573487,0.000121197576,1.5727923,0.7872871,0.039999943,0.03999994,-0.007047851410080241,0.0003311178844515026,0.00485463231534311,0.005400360894623205,-0.018338795039717352,0.004457348992743904,0.9999996726144026,0.0006839693880488201,3.737141857150448e-05,0.0004307671539329293
2730.966666673829,0.0013762687,-0.7846372,-0.0011605918,-2.357469,0.00012409709,1.5729814,0.7874207,0.039999936,0.039999932,-0.007143723493552301,0.00034002665976095225,0.004910744029618108,0.005778946485007538,-0.018723038405013506,0.004770554889752218,0.9999996164660665,0.0007339337637704321,7.396735252272963e-05,0.00047216287559946705
2730.983333340496,0.0014975514,-0.78464335,-0.001281152,-2.3575969,0.000127193,1.5731835,0.78756326,0.039999932,0.039999932,-0.006909246888819887,0.0003472582080335561,0.0056528119535270704,0.0061697298849474605,-0.01911424559854731,0.005093107208031642,0.9999995502779437,0.0007872685794697366,0.00011409045504542165,0.0005163675648715674
2731.0000000071627,0.0016267431,-0.7846508,-0.0014095833,-2.3577325,0.00013049277,1.5733988,0.78771514,0.039999925,0.03999992,-0.007787747309828674,0.00035175409742675256,0.005468908934713745,0.006572484170925371,-0.01950955044763889,0.005427442294762493,0.9999994726099113,0.0008440887315532696,0.00015747000168964438,0.0005634689975595103
2731.0166666738296,0.0017640741,-0.7846594,-0.0015461153,-2.357876,0.00013400121,1.573628,0.78787667,0.03999992,0.039999917,-0.0077610201957067915,0.00035812973163190306,0.0060999287395224755,0.006987003272808191,-0.01991211628043333,0.00577083673376207,0.9999993817959453,0.0009045400727887089,0.0002043714548385507,0.0006135530070910296
2731.0333333404965,0.0019097707,-0.78466934,-0.001690974,-2.3580272,0.000137724,1.5738709,0.78804797,0.03999992,0.03999992,-0.00709408155439295,0.0003643269361549889,0.0060704030112601615,0.007412838888824909,-0.02031954653576632,0.00612315428723648,0.9999992760905226,0.0009686498007306547,0.0002550302945305919,0.000666704989572879
2731.0500000071634,0.0020640555,-0.7846807,-0.0018443807,-2.3581867,0.00014166796,1.5741284,0.7882293,0.03999992,0.03999992,-0.008019782229107264,0.00036582668303479894,0.006243834577568386,0.007850315078463212,-0.020730932956821033,0.006485952391280827,0.9999991535704598,0.0010365049833991242,0.0003094730949260932,0.0007230091195454994
2731.0666666738302,0.0022271462,-0.7846932,-0.0020065533,-2.358354,0.00014583895,1.5744004,0.78842115,0.039999917,0.039999913,-0.007607334794301757,0.00037074011095528363,0.006657383772057379,0.008299531321116488,-0.021146471093565947,0.0068590994632134585,0.9999990119741718,0.0011083434090783171,0.0003677558458569917,0.0007825478934350368
2731.083333340497,0.002399257,-0.78470683,-0.002177704,-2.3585305,0.00015024132,1.5746875,0.78862345,0.039999917,0.039999913,-0.009354164983599311,0.00037002490521894976,0.006403237016416874,0.008758631508388624,-0.021566981226235075,0.007240698004117009,0.9999988493641627,0.001184074179224845,0.0004295768673678661,0.0008454007356090354
2731.100000007164,0.0025805968,-0.78472185,-0.002358042,-2.3587165,0.00015488108,1.5749902,0.78883666,0.039999917,0.039999913,-0.00978124787045509,0.0003712550887689965,0.0065268706159749,0.009229349727449664,-0.02199262191594948,0.0076314544810260326,0.9999986631656017,0.0012639064083842016,0.0004950809862352814,0.0009116481873715102
2731.116666673831,0.0027713708,-0.784738,-0.002547772,-2.358913,0.00015976363,1.5753084,0.789061,0.03999992,0.039999917,-0.0116709919296909,0.0003687346864986109,0.006224879435912101,0.009710391674866424,-0.022425963116310645,0.008031196946737455,0.9999984511399207,0.0013479300678474388,0.0005636677499323408,0.0009813668831881674
2731.1333333404978,0.0029717798,-0.7847554,-0.0027470943,-2.3591182,0.00016489429,1.5756428,0.78929675,0.039999925,0.03999992,-0.008552613480028448,0.0003723740279945489,0.007263158504433598,0.010201593179992599,-0.022871981822711666,0.00843980248964205,0.9999982099373741,0.0014362369106555826,0.0006364649091502559,0.0010546364318206184
2731.1500000071646,0.0031820189,-0.78477395,-0.0029562034,-2.3593328,0.00017027819,1.5759937,0.78954387,0.039999932,0.03999993,-0.009385842102727082,0.00036926304240665923,0.007375948311727498,0.01070246618103917,-0.023319977738202505,0.008857080590378815,0.9999979367689767,0.0015287996455883536,0.0007133483208545331,0.0011315315313109382
2731.1666666738315,0.0034022792,-0.78479385,-0.003175291,-2.3595576,0.00017592026,1.5763613,0.7898029,0.039999943,0.03999994,-0.010634753870331082,0.00036534699830438567,0.007071034746330973,0.011214190519981931,-0.023771660752685365,0.009282880922056445,0.999997628337895,0.0016258598229498876,0.0007941335973025506,0.0012121263345221454
2731.1833333404984,0.003632748,-0.78481495,-0.003404541,-2.3597927,0.0001818256,1.576746,0.79007405,0.039999947,0.039999943,-0.010761586147611801,0.0003576192836574868,0.007343051783026411,0.011734938935161074,-0.02422960601922288,0.009717028084643602,0.999997281271917,0.001727480123307428,0.0008788447923581458,0.0012964925872970584
2731.2000000071653,0.0038736062,-0.7848371,-0.0036441376,-2.3600378,0.0001879995,1.577148,0.79035735,0.03999995,0.039999943,-0.010416908500587851,0.0003574387201393456,0.007689346242134576,0.012264561156720848,-0.024693764796382543,0.010160235408979378,0.9999968919485321,0.001833667189377844,0.0009676546807753773,0.001384702976495175
2731.216666673832,0.004125031,-0.78486073,-0.0038942553,-2.3602936,0.00019444534,1.5775673,0.79065305,0.03999995,0.039999943,-0.011205056408924996,0.000347070608172715,0.007246397177707031,0.012803909868170604,-0.02516192941946137,0.010610606779076414,0.9999964566547602,0.0019445143328404777,0.0010604375354697658,0.001476825706378465
2731.233333340499,0.0043871957,-0.78488547,-0.0041550677,-2.3605604,0.0002011684,1.5780047,0.79096144,0.039999954,0.039999947,-0.011756937373053056,0.0003392268526453959,0.007741907802838455,0.013352034038540708,-0.025637784850962575,0.011068831693022757,0.999995971258246,0.0020601480572106654,0.0011572161885754343,0.0015729297353987931
2731.250000007166,0.004660269,-0.78491145,-0.004426742,-2.360838,0.00020817289,1.5784605,0.79128265,0.039999954,0.039999947,-0.011110779028422613,0.00033006257911629474,0.008041911851441874,0.013908708401389913,-0.02611965833561903,0.011534758232137926,0.9999954311563638,0.0021806048692800165,0.0012583410230602211,0.0016730829841689792
2731.266666673833,0.004944412,-0.7849388,-0.004709439,-2.361126,0.00021546334,1.5789346,0.79161686,0.039999954,0.039999947,-0.010578439410435792,0.0003212911966640926,0.00807577742638621,0.014474042871150821,-0.026604555686406642,0.012008238585753806,0.9999948315641967,0.002305952537051382,0.0013639831600156225,0.001777351324290064
2731.2833333404997,0.0052397843,-0.7849671,-0.0050033173,-2.361426,0.00022304378,1.5794278,0.79196435,0.039999954,0.039999947,-0.013623193834422231,0.00030137269396452587,0.00816302099015953,0.015047855792733402,-0.027092082819640283,0.01248906446454575,0.9999941684311834,0.0024363189229339834,0.0014735085313691677,0.0018857959432605554
2731.3000000071665,0.0055465368,-0.78499687,-0.005308528,-2.361737,0.00023091835,1.5799396,0.7923251,0.039999958,0.03999995,-0.010893234736242263,0.00029713010709559763,0.008005399638988386,0.015629143600266095,-0.02758735833222324,0.012977112374572062,0.9999934362253022,0.0025716543316990806,0.0015875048510506234,0.001998481588326157
2731.3166666738334,0.00586482,-0.78502804,-0.0056252237,-2.3620603,0.00023909088,1.580471,0.79269934,0.039999954,0.039999947,-0.013362353630785861,0.00027757870848554075,0.008123356985878516,0.01621883637759863,-0.028085364136079094,0.013472224296201974,0.999992629905209,0.002712088761050847,0.0017057245962484302,0.0021154700228400132
2731.3333333405003,0.0061947783,-0.7850603,-0.0059535466,-2.3623943,0.00024756533,1.5810219,0.7930875,0.03999995,0.039999943,-0.010999519760224175,0.0002685397114557701,0.008896200498464957,0.016816441121507614,-0.028589207946721235,0.013974224452813603,0.9999917427537948,0.0028577833700630475,0.0018286945657627082,0.002236822438922618
2731.350000007167,0.0065365476,-0.7850939,-0.0062936344,-2.3627408,0.00025634532,1.5815923,0.7934895,0.03999995,0.039999943,-0.013481706491380585,0.0002454808177804234,0.008047107812303445,0.01742069371712568,-0.02909421809163013,0.014482936521543198,0.9999907702977145,0.0030087198887806363,0.001955779194592889,0.0023625942851699592
2731.366666673834,0.0068902657,-0.7851289,-0.0066456217,-2.3630993,0.00026543508,1.5821829,0.7939056,0.039999954,0.039999943,-0.012893193236052092,0.0002250177035638401,0.008587959821082514,0.01803194745495084,-0.029605681982530413,0.014999099737243629,0.999989705702194,0.00316497011920657,0.0020873853234795324,0.0024928450202865537
2731.383333340501,0.007256062,-0.78516495,-0.007009637,-2.3634696,0.00027483684,1.5827934,0.79433596,0.039999958,0.039999947,-0.012495984820692918,0.0002086552727453752,0.008783043022875248,0.01865034120512804,-0.030119892500090346,0.015520792586128518,0.9999885426436993,0.0033266080336263873,0.002223472302495822,0.002627628444260418
2731.400000007168,0.00763406,-0.78520244,-0.007385805,-2.3638523,0.0002845545,1.5834243,0.7947807,0.03999996,0.03999995,-0.013135987165813212,0.00018419991186565537,0.008688023362934949,0.019274823128202313,-0.030638304398668458,0.016048730339228098,0.9999872742835672,0.0034936776846328462,0.0023641480637936942,0.0027670003776931744
2731.4166666738347,0.0080243815,-0.78524125,-0.007774246,-2.3642476,0.0002945913,1.5840759,0.7952399,0.039999966,0.039999954,-0.013645866438816157,0.0001598905831691564,0.008721073546524849,0.0199060907704096,-0.031159259455282803,0.016582788626712603,0.9999858939456406,0.0036662540201319637,0.0025092815609978687,0.0029110130960618074
2731.4333333405016,0.00842714,-0.7852813,-0.008175075,-2.3646548,0.00030495023,1.5847483,0.79571384,0.039999966,0.039999954,-0.012463563298226177,0.00014279858809090537,0.009157102494672387,0.020543072240423146,-0.031683067176711044,0.017122770098924447,0.9999843934884654,0.0038443846995292155,0.002659247966689584,0.0030597199283484895
2731.4500000071685,0.00884245,-0.7853229,-0.008588404,-2.365075,0.00031563424,1.5854415,0.79620236,0.03999997,0.039999958,-0.014137023442883923,0.00010852046698020014,0.008519918661775705,0.021185897665937706,-0.032209086034053605,0.017668562386583653,0.9999827668244612,0.004028024685811135,0.002813647379444435,0.0032131697200891364
2731.4666666738353,0.009270411,-0.7853657,-0.009014337,-2.365509,0.00032664646,1.5861558,0.7967058,0.039999977,0.039999966,-0.015282296136365225,7.713664058901087e-05,0.008661846650936944,0.021835204698449462,-0.03273779829298943,0.018219911465593014,0.9999810068713084,0.004217312541715513,0.002972168298694765,0.0033714072987417725
2731.483333340502,0.009711129,-0.7854098,-0.009452977,-2.365955,0.00033798956,1.5868912,0.7972243,0.039999973,0.03999996,-0.012719881598211025,6.22554733764602e-05,0.009236877217899675,0.022490279214342775,-0.03327413130579252,0.01877679564090286,0.9999791032615748,0.004412327750074726,0.003135571677176953,0.0035344864209343003
2731.500000007169,0.010164703,-0.7854552,-0.009904417,-2.3664136,0.00034966593,1.5876483,0.79775786,0.039999977,0.039999966,-0.012945450470391862,2.3142667384019877e-05,0.009555208073575017,0.02315008126666679,-0.03380999226521019,0.019339018405601493,0.9999770472247393,0.004613057675495509,0.003304022252472648,0.0037024531771785406
2731.516666673836,0.010631221,-0.7855019,-0.010368753,-2.3668857,0.0003616781,1.5884271,0.79830676,0.03999998,0.03999997,-0.015057786787453509,-9.648638709877644e-06,0.009023249379080944,0.02381527447053962,-0.03434474912136565,0.01990639455155636,0.9999748318325016,0.004819614444110904,0.0034768791808272533,0.0038753489303972066
2731.533333340503,0.011110774,-0.78554994,-0.010846076,-2.3673708,0.00037402866,1.5892276,0.79887104,0.039999973,0.03999996,-0.014123051870185144,-3.75592783004048e-05,0.009159134167302518,0.024484855819290156,-0.03488360946090035,0.02047881383395848,0.9999724473021484,0.005032018912538703,0.003654425225794003,0.004053220754525478
2731.5500000071697,0.011603445,-0.78559947,-0.011336459,-2.3678691,0.0003867198,1.5900501,0.79945076,0.039999977,0.039999966,-0.013886901837056875,-8.031074020847968e-05,0.009341125766493263,0.025158864238298356,-0.03542425689626309,0.021056111575902918,0.9999698836200475,0.005250290590044103,0.003836883088284014,0.004236110219960016
2731.5666666738366,0.012109306,-0.78565043,-0.011839991,-2.3683808,0.000399754,1.5908945,0.80004597,0.03999998,0.039999966,-0.014449713963760047,-0.00010068992971744989,0.009068672773127062,0.0258374479188369,-0.035964404654159315,0.02163899681677444,0.99996713230441,0.005474457899888666,0.004023968280763407,0.004424059320590864
2731.5833333405035,0.01262844,-0.7857025,-0.012356743,-2.3689055,0.0004131323,1.5917611,0.80065674,0.039999988,0.039999977,-0.014233151998399585,-0.00015045870170775702,0.009678346021813056,0.02652013543565552,-0.03650674778328324,0.022224728454382208,0.9999641828406595,0.005704540662365041,0.004215872662127613,0.004617106165139861
2731.6000000071704,0.01316091,-0.7857562,-0.012886783,-2.3694444,0.00042685805,1.5926499,0.80128324,0.039999988,0.039999973,-0.015449763802899419,-0.0001934298785175731,0.008898262076972863,0.02720720228444996,-0.037047969863903595,0.02281662370133578,0.9999610262628053,0.005940622586739476,0.004412250841855251,0.00481528828087791
2731.6166666738372,0.013706785,-0.78581107,-0.013430174,-2.3699968,0.0004409314,1.5935612,0.80192554,0.03999999,0.03999998,-0.01490367915419899,-0.00023264171348800003,0.00943916443427728,0.027897833639671944,-0.03759248869472143,0.023411048230899355,0.9999576514109622,0.0061827293588842995,0.004613293615220037,0.005018641685482327
2731.633333340504,0.014266125,-0.7858674,-0.013986979,-2.3705626,0.0004553559,1.5944949,0.8025836,0.039999995,0.03999998,-0.01427179004596102,-0.00027160664924485295,0.009518406028363735,0.028591936514814245,-0.03813931986059044,0.024011414628126476,0.9999540467403119,0.006430827177584049,0.0048192510996784834,0.005227206550802974
2731.650000007171,0.014838988,-0.7859253,-0.0145572545,-2.371142,0.00047013038,1.5954514,0.8032576,0.039999988,0.039999977,-0.014455230911458727,-0.0003119800224964629,0.009376275570560644,0.029289993765892884,-0.03868353917877186,0.02461402932752134,0.9999502004685865,0.006685032040143998,0.0050301337361952055,0.005441018659407128
2731.666666673838,0.015425424,-0.78598446,-0.015141052,-2.3717349,0.00048526,1.5964303,0.80394775,0.039999984,0.03999997,-0.014973700066267526,-0.0003624156002372293,0.009494399091325434,0.029990875735816498,-0.03922641854506201,0.025222248350466103,0.9999461021831128,0.006945432103479373,0.005245653578522809,0.005660107793120858
2731.6833333405048,0.01602548,-0.78604496,-0.015738422,-2.3723412,0.0005007442,1.597432,0.8046536,0.03999999,0.039999977,-0.014303448826757936,-0.0003968964485216546,0.009660865803939878,0.03069390732872543,-0.039769679350003084,0.02583334040318519,0.9999417403897395,0.007211789717613695,0.005466119978805492,0.0058845091371408096
2731.7000000071716,0.016639212,-0.7861069,-0.016349407,-2.3729615,0.00051658385,1.5984567,0.8053756,0.039999995,0.03999998,-0.015398522215526178,-0.00047072141928401756,0.00944756694036819,0.0314013290215248,-0.04031039878498297,0.026447996916212343,0.999937102889386,0.0074843342887994085,0.005691302671504385,0.006114252148575979
2731.7166666738385,0.017266642,-0.7861703,-0.016974041,-2.3735962,0.00053277996,1.5995044,0.8061139,0.039999988,0.039999973,-0.015794594872398093,-0.0005094281718184129,0.00918960948717018,0.03211086560387222,-0.04084974418881003,0.027066068546251456,0.999932177851131,0.007763161093667171,0.005921031342377789,0.00634936339884003
2731.7333333405054,0.017907813,-0.7862349,-0.017612368,-2.3742447,0.0005493354,1.6005749,0.80686843,0.03999999,0.039999977,-0.015327247648078135,-0.0005553946884825044,0.009549093964555944,0.032821973651522035,-0.041390590659910645,0.027687470883262406,0.9999269529379257,0.008048212294415377,0.006155374340376013,0.006589873585212997
2731.7500000071723,0.018562758,-0.786301,-0.018264413,-2.3749073,0.00056624936,1.6016684,0.807639,0.04,0.039999984,-0.015379836688000914,-0.0006162384587350342,0.009336360099232444,0.03353472507466146,-0.0419318469075285,0.02831203072957171,0.9999214158326307,0.008339395589194607,0.006394399824938639,0.006835809487761942
2731.766666673839,0.019231496,-0.78636867,-0.0189302,-2.3755834,0.000583523,1.6027852,0.80842584,0.04,0.039999984,-0.014395215303375508,-0.0006534204090279279,0.009765369547998226,0.03425059622995302,-0.04247072021116133,0.028939606902165963,0.9999155496696297,0.008636837946927005,0.00663853168058088,0.007087203700091017
2731.783333340506,0.019914055,-0.78643775,-0.019609762,-2.3762736,0.0006011571,1.6039249,0.809229,0.039999995,0.03999998,-0.01555698999362587,-0.0007138671938593591,0.009137313783802448,0.034967749717030726,-0.04300512358955453,0.029570276000229583,0.9999093448556781,0.008940569495008948,0.006887150800896031,0.007344075247375995
2731.800000007173,0.02061045,-0.78650796,-0.020303113,-2.3769777,0.0006191526,1.6050875,0.8100485,0.039999995,0.03999998,-0.015420975821900385,-0.0007687057486838351,0.009559083157828496,0.03568622476726359,-0.04353779155060761,0.030203214302573687,0.9999027873879425,0.009250596996050195,0.007140323302606565,0.0076064454361959005
2731.81666667384,0.021320697,-0.78657967,-0.021010267,-2.377696,0.0006375112,1.6062733,0.81088424,0.04,0.039999984,-0.01581677484225885,-0.0008376192873476782,0.009198704284085757,0.0364057964799015,-0.04407148046426443,0.03083913038276843,0.9998958641679367,0.00956686102529195,0.007398025750450514,0.007874338383227401
2731.8333333405067,0.022044819,-0.786653,-0.021731237,-2.3784285,0.00065623125,1.6074826,0.8117363,0.04,0.039999988,-0.015174361535308378,-0.0008965728334362974,0.009480759681723683,0.03712695424270499,-0.04460242951703158,0.03147738921101361,0.9998885579334962,0.009889423456083691,0.007660590847211036,0.008147782842659572
2731.8500000071735,0.022782806,-0.7867277,-0.022466026,-2.3791747,0.0006753128,1.6087147,0.8126047,0.04,0.039999984,-0.015178384763259167,-0.0009407784500144872,0.00921813303809138,0.037848905357185054,-0.04512797206726881,0.03211791717186699,0.9998808559922403,0.010218325245476705,0.007927725497256292,0.008426791669583903
2731.8666666738404,0.02353467,-0.7868037,-0.023214633,-2.379935,0.00069475913,1.6099701,0.81348956,0.04,0.03999999,-0.015688514541278842,-0.0010268440061822828,0.009434808976682696,0.03857155478905451,-0.04565198181447583,0.03276085824072309,0.9998727440454916,0.010553568229332051,0.008199374625366898,0.00871138153914148
2731.8833333405073,0.024300408,-0.7868811,-0.023977071,-2.3807094,0.0007145681,1.6112486,0.81439066,0.04,0.039999984,-0.015612609803383748,-0.001064964454041556,0.009249312661974152,0.03929440254281523,-0.04617323639232497,0.03340583568627116,0.9998642077801234,0.010895105836070656,0.00847551287068302,0.009001574896974937
2731.900000007174,0.025080014,-0.78696007,-0.024753321,-2.3814976,0.00073473935,1.6125503,0.815308,0.04,0.03999999,-0.01495321445725839,-0.0011389632681053918,0.009200694542843557,0.040017667872250806,-0.04669268114817053,0.03405268829011994,0.9998552304358167,0.011242909690621349,0.00875635278130175,0.00929738876233012
2731.916666673841,0.02587348,-0.78704035,-0.025543377,-2.3823001,0.00075527385,1.613875,0.81624156,0.04,0.039999984,-0.016125851572468264,-0.0012170010209823154,0.009100202418421688,0.040741999190070655,-0.0472060520942353,0.0347013687881696,0.9998457997337605,0.011597018680765453,0.009041480175619386,0.009598830590679132
2731.933333340508,0.026680788,-0.787122,-0.026347233,-2.3831167,0.0007761701,1.615223,0.81719154,0.04,0.04,-0.01562881328753818,-0.001260736215945562,0.009234193196494545,0.041466433280508946,-0.047717417330571145,0.0353522157834652,0.999835897408832,0.011957508140320856,0.009331075926369016,0.009905921148796838
2731.950000007175,0.027501924,-0.78720516,-0.027164869,-2.3839467,0.000797429,1.6165942,0.81815773,0.04,0.03999999,-0.014322175573910911,-0.0013154612513652242,0.009388174354518775,0.04219000167683905,-0.04822485077870773,0.03600400277094296,0.9998255050657497,0.012324297315649456,0.009625470890924841,0.010218680238761473
2731.9666666738417,0.028336871,-0.7872895,-0.027996263,-2.3847904,0.00081905175,1.6179883,0.8191402,0.039999995,0.039999977,-0.01553536280818335,-0.001408882576398908,0.009196024190938346,0.04291347160808296,-0.04872598765674137,0.03665738487877233,0.9998146104425568,0.012697422758908016,0.009924190019718396,0.010537108395223461
2731.9833333405086,0.029185606,-0.7873753,-0.028841395,-2.385649,0.0008410352,1.6194056,0.82013893,0.04,0.03999998,-0.016889012450160834,-0.0014959213593065263,0.008661540060783679,0.043636590435808045,-0.04922187832592933,0.037312274042518606,0.9998032002977786,0.013076892266537398,0.0102269069485093,0.010861212512235768
2732.0000000071755,0.030048097,-0.78746253,-0.029700233,-2.3865216,0.0008633798,1.6208462,0.8211539,0.04,0.03999998,-0.01557051726053249,-0.0015484518692546884,0.009021301641509716,0.04435878097735515,-0.04971794017774282,0.037967741988935474,0.999791253831089,0.013462691069681173,0.010534040199578576,0.01119101019098582
2732.0166666738423,0.030924309,-0.7875513,-0.03057275,-2.3874075,0.00088608474,1.6223098,0.82218504,0.04,0.03999998,-0.014396756102463826,-0.0015886885297987374,0.0092387344628575,0.045079876003036444,-0.05020734286756484,0.038624521914003465,0.999778750626006,0.013854837308601656,0.01084585849551971,0.011526518700372157
2732.033333340509,0.031814214,-0.78764135,-0.03145891,-2.3883076,0.00090914976,1.6237965,0.8232323,0.04,0.03999998,-0.01588911196794829,-0.0016940279152116364,0.008862094509431984,0.0457993912865414,-0.050689269553869924,0.039282086863493944,0.999765679862375,0.014253278297166945,0.011161826589827301,0.011867731640255189
2732.050000007176,0.032717783,-0.78773284,-0.03235868,-2.3892212,0.0009325739,1.6253062,0.82429564,0.04,0.03999998,-0.014912264606348202,-0.0017583007838873482,0.009076167161037318,0.046518037037799255,-0.05116570876224393,0.03994026733536122,0.9997520200752051,0.014658025803204258,0.011482271966184936,0.012214666004183666
2732.066666673843,0.03363496,-0.7878256,-0.033272002,-2.3901484,0.00095635647,1.6268374,0.8253749,0.03999999,0.039999973,-0.01573062147401938,-0.0018378056124049302,0.0078112142134489915,0.047235022252476236,-0.05163411657410746,0.040598895680141266,0.9997377668570491,0.015068996878578007,0.011806182808065311,0.012567294866301067
2732.08333334051,0.03456571,-0.78791976,-0.034198854,-2.3910897,0.0009804949,1.6283911,0.82647,0.04,0.03999998,-0.01593438078983933,-0.0019079041538279731,0.008411181850420668,0.04795078806696157,-0.05210381340716755,0.04125851486539841,0.9997228971356388,0.015486184091884481,0.012134035055942509,0.01292564266325946
2732.1000000071767,0.035509977,-0.78801537,-0.03513917,-2.3920443,0.0010049904,1.6299678,0.82758117,0.04,0.039999984,-0.014638880527573228,-0.0019777227031340244,0.00889113090831728,0.04866574995269787,-0.0525702482670566,0.041918444468462844,0.9997073857095403,0.01590969260151411,0.012466273544259714,0.013289720201766806
2732.1166666738436,0.036467712,-0.7881124,-0.036092922,-2.3930128,0.001029841,1.6315669,0.8287081,0.039999995,0.039999977,-0.01564200602404142,-0.002042031084995878,0.008264986137684893,0.0493780005039218,-0.05302625534939073,0.04257791159660931,0.9996912220487756,0.01633942238162391,0.012802391695491282,0.01365952421337514
2732.1333333405105,0.037438866,-0.78821075,-0.037060034,-2.393995,0.0010550454,1.6331882,0.8298509,0.039999988,0.03999997,-0.01583635256110494,-0.0021580740115793515,0.008194694374674683,0.05008830007793019,-0.053478708688083396,0.04323761227882369,0.9996743894092832,0.016775407517757357,0.013142238829289091,0.014035042584335316
2732.1500000071774,0.038423363,-0.7883104,-0.038040448,-2.3949902,0.0010806022,1.6348323,0.8310095,0.03999999,0.03999997,-0.014087267362428157,-0.0021775295162460365,0.008879251160931467,0.05079618253465537,-0.05392498830409355,0.04389866898823,0.9996568605812793,0.017217652107272215,0.01348643894237468,0.014416293328973966
2732.1666666738442,0.039421145,-0.78841144,-0.0390341,-2.3959992,0.0011065081,1.6364983,0.8321838,0.04,0.03999998,-0.015888189557800025,-0.0023021382322978637,0.007897047957161618,0.05150114581361305,-0.05436295152413801,0.044557236523776494,0.9996386282599731,0.017666100311755077,0.013834216274116629,0.014803251344733722
2732.183333340511,0.04043216,-0.7885139,-0.04004094,-2.3970213,0.0011327639,1.6381867,0.83337367,0.039999995,0.039999977,-0.014523281116729514,-0.0023440450708862165,0.00834608953768079,0.05220310644756848,-0.054795513103566694,0.0452164181213192,0.9996196667554813,0.018120746634192993,0.014186044845877759,0.01519593724357777
2732.200000007178,0.04145633,-0.7886176,-0.041060884,-2.3980572,0.0011593681,1.6398969,0.834579,0.039999995,0.039999977,-0.01614344226976705,-0.0024778145854921496,0.007689091365015166,0.0529021879881451,-0.05521953379538293,0.04587556877520625,0.9995999690421676,0.01858150846351314,0.014541208981604424,0.015594315485819497
2732.216666673845,0.042493597,-0.78872263,-0.042093866,-2.3991063,0.0011863179,1.641629,0.8357997,0.04,0.039999984,-0.014817628557151075,-0.0025265130715905124,0.008049692501566064,0.053598718882510415,-0.05564027317060348,0.046533329475124965,0.999579510045728,0.01904837859300808,0.014900123015263767,0.015998396915000292
2732.2333333405118,0.04354388,-0.7888291,-0.04313983,-2.4001682,0.0012136123,1.6433828,0.8370357,0.04,0.039999977,-0.014369592527874175,-0.002569408882256534,0.007882917357671104,0.054292458690952755,-0.056053017677976776,0.04719157759961007,0.9995582697890703,0.0195213538720602,0.015262813701920654,0.01640818567613497
2732.2500000071786,0.044607088,-0.7889368,-0.044198677,-2.4012437,0.0012412503,1.6451582,0.838287,0.039999995,0.039999977,-0.015870554151664606,-0.0027034579735445846,0.007484209645425288,0.054982524243706504,-0.05645705949861596,0.047847724144995364,0.999536237765869,0.02000041702325497,0.0156287427560244,0.01682364739329859
2732.2666666738455,0.045683146,-0.7890458,-0.045270324,-2.4023323,0.0012692278,1.6469547,0.8395535,0.04,0.039999984,-0.015158619663502293,-0.002767025780512841,0.007288768631452669,0.055668963654189205,-0.05685707605457278,0.04850261172688367,0.9995133950037889,0.02048555544494966,0.015997907226912685,0.01724477284486462
2732.2833333405124,0.04677198,-0.7891561,-0.04635472,-2.4034343,0.0012975433,1.6487727,0.8408349,0.04,0.039999988,-0.015497814375020624,-0.002841987773617889,0.007500322183728869,0.056351898985662854,-0.05725262428836558,0.04915678258655167,0.9994897228127934,0.020976677628285305,0.01637036449734657,0.017671563414384667
2732.3000000071793,0.04787351,-0.7892677,-0.04745174,-2.4045484,0.001326198,1.6506122,0.8421312,0.03999999,0.039999973,-0.013351310953613194,-0.0029094747666852383,0.007894087910553793,0.05703119303654969,-0.05764069287050052,0.04981034826658114,0.9994651928930243,0.021473738770410995,0.016746678127014355,0.01810401917365604
2732.316666673846,0.048987627,-0.7893806,-0.048561312,-2.405675,0.0013551868,1.6524726,0.8434424,0.04,0.039999988,-0.014122228265200931,-0.0029708570423912783,0.007349209776341681,0.0577070695993565,-0.05801694459207131,0.05046059801395314,0.9994397925463833,0.021976796436811274,0.01712633744189873,0.018542115818954315
2732.333333340513,0.050114233,-0.78949445,-0.049683344,-2.4068143,0.0013845079,1.654354,0.8447682,0.04,0.039999977,-0.015266685849302242,-0.0030789968028422862,0.007297649506288195,0.058378432778512124,-0.058384418922606145,0.051112235204315855,0.9994135104392208,0.02248575742453589,0.017508983881478885,0.018985819656692958
2732.35000000718,0.05125325,-0.78960985,-0.050817728,-2.4079657,0.001414158,1.6562562,0.84610873,0.04,0.039999984,-0.012988797610669067,-0.0031307300408404265,0.007332197784726269,0.05904572854521868,-0.05874686989201481,0.0517603155702507,0.999386313794887,0.023000631723707768,0.017895297634647384,0.019435150175527504
2732.366666673847,0.05240458,-0.78972656,-0.051964395,-2.4091299,0.0014441357,1.6581789,0.8474637,0.04,0.039999988,-0.015058762197206477,-0.0032348022810817223,0.006659653682516975,0.05970830362896336,-0.05909613600778961,0.05240621492216169,0.9993581985851573,0.0235213562659305,0.01828447220755947,0.019890067775941798
2732.3833333405137,0.053568117,-0.7898444,-0.053123206,-2.4103067,0.0014744396,1.6601219,0.8488331,0.04,0.039999995,-0.014946945875804474,-0.0033612396976714226,0.006639917529804862,0.06036656531135425,-0.059438953062503574,0.053050539236238356,0.9993291488509963,0.024047880319779218,0.018676386492338794,0.020350535532447877
2732.4000000071806,0.054743763,-0.7899633,-0.0542941,-2.4114952,0.0015050661,1.662085,0.8502168,0.04,0.04,-0.013415916479742052,-0.0033445617569991676,0.0070113168519014835,0.06101996526307303,-0.05977586639116175,0.0536928163017206,0.9992991363968009,0.024580249657101413,0.019071392890269222,0.020816563035897677
2732.4166666738474,0.055931397,-0.79008377,-0.055476937,-2.4126966,0.0015360119,1.6640686,0.8516144,0.04,0.03999999,-0.014878835353981934,-0.003502492219628617,0.006284990878935304,0.06166828717190434,-0.06010333890533386,0.05433254088234201,0.999268152070544,0.025118232969790523,0.019469224475096927,0.021288117068771078
2732.4333333405143,0.057130918,-0.7902054,-0.056671627,-2.4139097,0.0015672785,1.6660718,0.8530262,0.04,0.04,-0.013476097646392127,-0.0035263276643653085,0.006491850813516997,0.06231267918516095,-0.06042386680775986,0.054970752591615504,0.9992361707637037,0.025662010506664532,0.01986990381234828,0.02176518267173808
2732.450000007181,0.058342215,-0.790328,-0.05787804,-2.4151351,0.0015988566,1.6680944,0.8544518,0.04,0.04,-0.015093588481862596,-0.0036747164052101933,0.006015821798510679,0.06295079572340755,-0.06073345158194035,0.05560460521024233,0.9992031908318313,0.0262113856778122,0.020272807106909214,0.02224769615807541
2732.466666673848,0.05956517,-0.7904519,-0.05909608,-2.416372,0.0016307484,1.6701369,0.8558909,0.04,0.04,-0.012941115321352115,-0.003672410942580015,0.006645412126982109,0.06358470160150374,-0.06104023501479761,0.05623713720514599,0.9991691758065944,0.026766311629135724,0.020678764981285857,0.02273568469590645
2732.483333340515,0.06079968,-0.790577,-0.060325626,-2.4176204,0.0016629498,1.6721985,0.8573441,0.04,0.04,-0.013245504884906723,-0.003768949379711825,0.005979669265543386,0.0642132431562477,-0.06133407667138452,0.05686668677702453,0.9991341090636773,0.027327007739840207,0.021087322290462864,0.023229110877012998
2732.500000007182,0.062045608,-0.7907032,-0.061566554,-2.4188807,0.0016954582,1.6742795,0.85881084,0.04,0.04,-0.01421348278274337,-0.0038803928032637297,0.00594023739077798,0.06483468001064097,-0.06161873024883372,0.05749309388559959,0.9990979806678588,0.027893295150571353,0.021498242386781077,0.023727930489805593
2732.5166666738487,0.063302845,-0.79083043,-0.06281876,-2.4201515,0.0017282694,1.676379,0.860291,0.04,0.04,-0.011981240749325828,-0.003864427268325879,0.006097726261922176,0.06544941367261195,-0.061895990491504634,0.05811615428513354,0.9990607646443888,0.028465116098713987,0.02191185046108125,0.024232138226475054
2732.5333333405156,0.06457128,-0.79095906,-0.0640821,-2.4214344,0.0017613823,1.6784971,0.86178356,0.04,0.04,-0.014566788847947265,-0.004077792313854356,0.005030551447604559,0.06605794117862707,-0.062160509070556064,0.05873670850560935,0.9990224721190434,0.029041960197348237,0.02232744098199137,0.02474166785498478
2732.5500000071825,0.06585074,-0.79108864,-0.06535644,-2.4227276,0.0017947884,1.6806338,0.86328924,0.04,0.04,-0.011725826644859438,-0.004016760002552647,0.00616545539382507,0.06666468058733752,-0.06242030434154542,0.059342699278700284,0.9989830552550217,0.029624246672186147,0.02274571784449399,0.025256516826084832
2732.5666666738493,0.06714114,-0.7912196,-0.06664169,-2.424033,0.0018284979,1.6827887,0.8648082,0.04,0.04,-0.014720619517349931,-0.004212569624272716,0.004650490970314891,0.06726365938740458,-0.06266643277487854,0.059966142086407284,0.9989425134328277,0.030212063948161505,0.023165721105467826,0.025776644742103765
2732.583333340516,0.06844233,-0.7913516,-0.06793767,-2.4253488,0.0018624929,1.6849617,0.86633956,0.04,0.04,-0.012239734793295654,-0.004218993322371162,0.005430681643181501,0.06785515541790944,-0.06290765189585319,0.0605753261570892,0.9989008273140975,0.03080499686570471,0.023587996693273553,0.026302010784604896
2732.600000007183,0.06975417,-0.7914846,-0.06924429,-2.426676,0.0018967778,1.6871525,0.86788344,0.04,0.04,-0.014101012914125022,-0.004328161287935409,0.004844531479175629,0.06844164126195715,-0.06313812930666857,0.0611820420398006,0.9988579899791161,0.03140313957063257,0.02401191535196795,0.026832566055396252
2732.61666667385,0.07107654,-0.7916187,-0.07056139,-2.4280133,0.0019313431,1.6893607,0.8694399,0.04,0.04,-0.011570487638801197,-0.004335953417111682,0.005098212730181295,0.06902222720584017,-0.0633623687506025,0.061775623538044964,0.9988139671685953,0.03200653973855893,0.024438009163764006,0.02736830486179541
2732.633333340517,0.0724093,-0.79175395,-0.07188884,-2.429361,0.001966196,1.6915861,0.87100834,0.04,0.04,-0.012500316483521345,-0.0044325781195321545,0.004616236000254403,0.06959441700931249,-0.06357538975206045,0.06238007472153873,0.9987687577279353,0.03261492835122028,0.024865896977946122,0.027909177750767046
2732.6500000071837,0.0737523,-0.7918901,-0.073226534,-2.4307194,0.0020013219,1.693829,0.872589,0.04,0.04,-0.012659972046691337,-0.0044763722118847105,0.0049320502595984195,0.07016146698208937,-0.06377928013688956,0.06297304102803586,0.9987223365353887,0.03322847084959214,0.02529560381976362,0.02845515168972257
2732.6666666738506,0.0751054,-0.7920273,-0.07457426,-2.4320874,0.0020367221,1.696089,0.87418145,0.04,0.04,-0.011374231724881056,-0.004573504399815048,0.004814139622344449,0.07072064468015701,-0.06397347254519295,0.06356160720877671,0.9986746866584783,0.03384696160035747,0.025727313498960402,0.029006184825661707
2732.6833333405175,0.07646846,-0.7921655,-0.075931914,-2.4334662,0.0020723923,1.6983653,0.87578577,0.04,0.04,-0.01338170420233098,-0.004696961908462471,0.0037576951974038764,0.07127358240915627,-0.06415499275027575,0.0641381234860901,0.9986258117527855,0.03447044786357222,0.02616013115786199,0.029562203283555424
2732.7000000071844,0.07784132,-0.7923048,-0.07729934,-2.434855,0.0021083327,1.700658,0.8774016,0.04,0.04,-0.01206688122243893,-0.004699595556971123,0.004046390589196314,0.07181881720130621,-0.06433205496612429,0.06471694439635141,0.9985756882094361,0.035098794476153876,0.026594418212220604,0.03012318813348666
2732.7166666738513,0.07922384,-0.79244494,-0.0786764,-2.4362528,0.002144539,1.702967,0.87902886,0.04,0.04,-0.010632404895716263,-0.004710331094823564,0.004695162400869535,0.07235609256902163,-0.06449926819346806,0.06530024062943074,0.9985242861210943,0.035732012165104445,0.027030561850815458,0.030689119554347034
2732.733333340518,0.080615886,-0.79258627,-0.08006294,-2.4376607,0.002181002,1.7052919,0.8806673,0.04,0.04,-0.012156522897721622,-0.00486717314050894,0.003435466787249375,0.07288622271227298,-0.06465356265467335,0.06587138266436982,0.9984716108044636,0.03636997595790765,0.027467881251845128,0.03125992267897607
2732.750000007185,0.08201728,-0.7927283,-0.081458814,-2.439078,0.0022177165,1.7076322,0.88231677,0.04,0.04,-0.011963802904157994,-0.004883907719684458,0.003682770740165431,0.07340938656922771,-0.06479902989816845,0.06642443520222625,0.9984176515759903,0.03701261777223579,0.027906233266487234,0.03183553505137326
2732.766666673852,0.08342787,-0.7928714,-0.082863845,-2.4405046,0.0022546921,1.7099878,0.88397706,0.04,0.04,-0.010800588636050712,-0.004935511358003172,0.003534500250679251,0.07392405947309415,-0.06493773146388351,0.06699362255823904,0.9983623839585417,0.037659897011761034,0.028345887772727507,0.0324159389815686
2732.7833333405188,0.08484755,-0.79301536,-0.084277876,-2.4419403,0.0022919097,1.7123587,0.8856479,0.04,0.04,-0.011458506063588558,-0.005086297974461751,0.003544230707919205,0.07443132979871017,-0.06506498803591387,0.06754752669717475,0.9983058023875201,0.038311668651286664,0.028786643289309532,0.03300106259952375
2732.8000000071856,0.08627608,-0.7931602,-0.08570079,-2.4433856,0.0023293726,1.7147446,0.88732934,0.04,0.04,-0.011988478378621714,-0.005045715396888306,0.002979707667805087,0.07493146710561281,-0.06518328193868032,0.0680973078044597,0.9982478960989165,0.038968034180495756,0.029228143875783267,0.0335908596462066
2732.8166666738525,0.08771334,-0.79330605,-0.08713239,-2.444839,0.0023670723,1.717145,0.88902086,0.04,0.04,-0.009461339768046528,-0.005060576034849121,0.0033783236654150173,0.07542365420799035,-0.06529378238838185,0.0686269157123936,0.9981886405474959,0.03962873442735353,0.029670965811557024,0.034185304992610535
2732.8333333405194,0.08915915,-0.79345256,-0.08857255,-2.4463012,0.0024050197,1.7195596,0.8907227,0.04,0.04,-0.011270581723299422,-0.005159913506160366,0.0028387752790459686,0.07590727129434549,-0.0653923022018937,0.069176368231385,0.9981280356111019,0.040293929285350936,0.03011436493523656,0.03478431851304934
2732.8500000071863,0.09061337,-0.7936001,-0.09002106,-2.4477718,0.0024431914,1.7219882,0.89243424,0.04,0.04,-0.01005767655140044,-0.005220939052948126,0.002783633776881622,0.07638205722971117,-0.0654832902167828,0.06970767288027005,0.9980660663378355,0.04096332475050774,0.03055868278837084,0.03538785323445915
2732.866666673853,0.09207586,-0.79374844,-0.091477774,-2.4492514,0.0024815907,1.7244306,0.89415544,0.04,0.04,-0.01165992137182048,-0.005388181987430601,0.0021551117660445485,0.07685013567788437,-0.06556208164819828,0.0702224135601574,0.9980027388669003,0.04163689720622299,0.031003270395336784,0.035995822396462346
2732.88333334052,0.093546405,-0.79389775,-0.09294253,-2.4507391,0.002520218,1.7268865,0.8958862,0.04,0.04,-0.00988304623299463,-0.005295543202000347,0.002474955904818721,0.07730970914237756,-0.06563474155115988,0.07073944919545387,0.9979380220183676,0.04231465201672234,0.03144858053005288,0.0366082124313159
2732.900000007187,0.09502487,-0.7940478,-0.09441519,-2.4522345,0.0025590651,1.7293556,0.89762634,0.04,0.04,-0.009494921692287939,-0.005318200664553366,0.0024442732751817076,0.07776056246919036,-0.06569759739537467,0.07124991857467686,0.9978719059559191,0.04299655723922261,0.03189447130441376,0.037224965677448825
2732.916666673854,0.09651106,-0.7941985,-0.095895536,-2.453738,0.0025981264,1.7318377,0.8993757,0.04,0.04,-0.010332768631715616,-0.0054508262926643986,0.002119089551433362,0.07820254313825206,-0.06574939318321979,0.07174990933189762,0.9978043891121279,0.04368251078927125,0.032340687988124464,0.03784599344941812
2732.9333333405207,0.098004825,-0.79435015,-0.09738343,-2.455249,0.0026374024,1.7343323,0.9011339,0.04,0.04,-0.009544602821098813,-0.005450978092821218,0.001725226598781049,0.07863466224524024,-0.0657929444754078,0.0722511288669449,0.9977354632903648,0.04437238510199439,0.03278718122601551,0.03847125524822073
2732.9500000071876,0.09950597,-0.7945025,-0.0988787,-2.4567676,0.0026768832,1.7368397,0.90290093,0.04,0.04,-0.009197030910246262,-0.0054578865864577525,0.0021377437024572288,0.07905868714985786,-0.06582815515492739,0.07274165311905542,0.9976651063746559,0.04506620414108041,0.0332341392807964,0.0391007001603008
2732.9666666738544,0.10101432,-0.79465556,-0.10038111,-2.4582934,0.0027165685,1.739359,0.9046763,0.04,0.04,-0.009453187421848419,-0.005579144346322049,0.0015604743213604166,0.0794725520184072,-0.06585081081824562,0.07322906356657119,0.9975933287385408,0.04576372674550377,0.033681194870759636,0.039734228101204055
2732.9833333405213,0.10252972,-0.7948094,-0.10189055,-2.4598262,0.0027564524,1.7418902,0.90646,0.04,0.04,-0.008626549123436078,-0.005535001121696401,0.0015709017023191052,0.07987867327169368,-0.06586531042954724,0.07371075580571844,0.9975201105751412,0.04646496757180821,0.034128475043600594,0.04037180919784215
2733.000000007188,0.10405198,-0.79496384,-0.103406824,-2.4613655,0.0027965265,1.7444326,0.90825176,0.04,0.04,-0.008206079834649493,-0.00554073465286499,0.001432505588749855,0.08027574390062635,-0.06586929557228885,0.07417607756497362,0.9974454474101249,0.04716986709031679,0.03457581590344313,0.04101336409158376
2733.016666673855,0.10558091,-0.795119,-0.104929775,-2.4629116,0.0028367923,1.7469862,0.9100514,0.04,0.04,-0.008906389056262398,-0.005615703886910697,0.001054011207313188,0.08066281691585714,-0.06586282689848595,0.07464291482337061,0.9973693371866077,0.047878334848705885,0.03502302379866813,0.04165882974904324
2733.033333340522,0.10711635,-0.7952747,-0.106459185,-2.4644647,0.0028772405,1.7495507,0.91185874,0.04,0.04,-0.00919534948804479,-0.005722767670821027,0.0009015191926975419,0.08104070034905586,-0.06584753656899374,0.07509826528794147,0.9972917804420722,0.04859029186078648,0.03546987852645202,0.04230810698771508
2733.050000007189,0.10865811,-0.7954312,-0.10799494,-2.4660242,0.0029178692,1.7521259,0.91367346,0.04,0.04,-0.008131649722376011,-0.005636031228386379,0.0007256102952490906,0.08140950314057296,-0.06582423995071454,0.0755413244254196,0.9972127611765129,0.04930563576034272,0.0359165724099013,0.042961180795080676
2733.0666666738557,0.11020599,-0.79558843,-0.10953677,-2.4675896,0.002958676,1.7547112,0.9154954,0.04,0.04,-0.00758741781163863,-0.005691982187002592,0.0006479590074492947,0.08176835528066695,-0.06579212761622634,0.07599027189329488,0.9971322750067272,0.05002429261510208,0.03636303727918758,0.043617952818762976
2733.0833333405226,0.11175986,-0.795746,-0.111084536,-2.4691617,0.0029996492,1.7573063,0.9173243,0.04,0.04,-0.00936128979454054,-0.00584483767516325,0.00017089252712931824,0.08211818743920363,-0.06574901919703645,0.0764143907716449,0.9970503429210997,0.05074615214679504,0.036808609106331866,0.04427830189685582
2733.1000000071895,0.1133195,-0.79590434,-0.112638064,-2.4707384,0.0030407908,1.7599113,0.91916025,0.04,0.04,-0.005164861761675077,-0.005585581772717119,0.0010998947992391095,0.082458786020882,-0.06570103196022271,0.07683981362439606,0.9969669004848015,0.05147131309748543,0.037254455744593615,0.04494228290732972
2733.1166666738563,0.11488471,-0.7960634,-0.11419714,-2.472322,0.0030820938,1.7625254,0.9210026,0.04,0.04,-0.009541328128981341,-0.005905419571581444,-0.0007749326000894285,0.08278786068603303,-0.06563853027380354,0.0772586766925214,0.9968820132456123,0.052199457332074976,0.03769912446263423,0.04560969563987986
2733.133333340523,0.11645533,-0.79622287,-0.1157616,-2.4739103,0.0031235542,1.7651489,0.92285144,0.04,0.04,-0.006162762452754933,-0.005714611478568193,0.0006703288418341558,0.0831089398655833,-0.06557158026402438,0.07765677495290736,0.996795630543384,0.052930654262576905,0.03814352197729455,0.04628054126866672
2733.15000000719,0.11803116,-0.7963828,-0.117331244,-2.4755032,0.0031651643,1.7677805,0.9247064,0.04,0.04,-0.005988293894754193,-0.0057056584731686455,-6.335257758394164e-05,0.08341851063277697,-0.06549211157044907,0.07806000712382392,0.9967077645918344,0.053664769086835824,0.038587286949783695,0.04695472124355515
2733.166666673857,0.119612,-0.79654324,-0.118905894,-2.477103,0.0032069231,1.7704208,0.92656726,0.04,0.04,-0.010014474093988923,-0.006025119998814138,-0.0012680220843330758,0.08371837169983194,-0.0654028060540142,0.07844674859187625,0.9966184550010948,0.05440167837550982,0.03902943452438179,0.0476320877336417
2733.183333340524,0.121197686,-0.7967043,-0.12048537,-2.4787066,0.003248826,1.773069,0.9284337,0.04,0.04,-0.004639732647682138,-0.0056656124794038365,2.4982137958318162e-05,0.08400889470949846,-0.06531242403147196,0.07882750731153847,0.9965276428098512,0.05514130224265234,0.039471234487222596,0.04831268519634234
2733.2000000071907,0.122788,-0.79686594,-0.122069456,-2.480315,0.0032908623,1.7757251,0.9303056,0.04,0.04,-0.006363909544737645,-0.005820224400657215,-0.0006648203769499261,0.08428906668287725,-0.06520956579452036,0.0792018225567135,0.9964353478884925,0.05588355945758044,0.03991215034485362,0.048996382678106416
2733.2166666738576,0.124382734,-0.7970278,-0.12365797,-2.4819272,0.0033330296,1.7783889,0.9321828,0.04,0.04,-0.005161714907297998,-0.005704522854250993,-0.00017415091329020527,0.08455899618522367,-0.06509569014385001,0.07956919738805207,0.9963415546516997,0.05662845290421318,0.04035235544620692,0.049683117915970736
2733.2333333405245,0.12598175,-0.7971902,-0.12525073,-2.4835439,0.00337533,1.7810596,0.934065,0.04,0.04,-0.006364281169468633,-0.005873225259458992,-0.0011703291685760675,0.08481833462201407,-0.06497226959381425,0.07992104744036171,0.9962462888775862,0.05737580867753457,0.0407913133999233,0.05037278260474743
2733.2500000071914,0.12758479,-0.79735297,-0.12684752,-2.4851646,0.0034177534,1.7837373,0.935952,0.04,0.04,-0.0056116983661924635,-0.005767560365986524,-0.0009988444413577824,0.0850673642394045,-0.06484025056898468,0.08026676184897642,0.9961495391022771,0.0581256005256662,0.04122917264756138,0.05106530752525865
2733.2666666738583,0.12919173,-0.79751605,-0.12844816,-2.4867895,0.0034602839,1.7864212,0.9378434,0.04,0.04,-0.006008193027295938,-0.00588064616537376,-0.001508302051256294,0.0853054108668807,-0.06469881440410138,0.08060637018431399,0.9960513340464887,0.05887756761054123,0.04166552461867169,0.05176056447457958
2733.283333340525,0.13080233,-0.79767954,-0.13005246,-2.488418,0.0035029412,1.7891113,0.9397393,0.04,0.04,-0.005423091195111418,-0.005804261846997089,-0.0014643301351480176,0.08553462060785125,-0.06455343452497724,0.08093186197528779,0.9959516502288802,0.05963185832491201,0.04210053614543409,0.052458523953262406
2733.300000007192,0.13241646,-0.7978434,-0.13166028,-2.4900503,0.0035456938,1.7918073,0.9416393,0.04,0.04,-0.005145587555444031,-0.005775773459947703,-0.001512101772993546,0.08575214827931829,-0.06439842904340595,0.0812510229978104,0.9958504948323466,0.060388285023169175,0.0425341830053168,0.053159103173408696
2733.316666673859,0.13403383,-0.79800785,-0.13327135,-2.4916859,0.0035885575,1.7945088,0.94354326,0.04,0.04,-0.004590478412391796,-0.005753867575866017,-0.001856596777716213,0.08595907174719208,-0.06423597052130892,0.08155898819867993,0.995747866726749,0.061146785876216386,0.04296646997611182,0.05386222186215952
2733.3333333405258,0.1356543,-0.79817253,-0.13488549,-2.4933252,0.0036315247,1.7972155,0.94545066,0.04,0.04,-0.00598484790925724,-0.005893033573473039,-0.0022939090992712963,0.0861544237683754,-0.06406443357022581,0.08186066166261166,0.9956438055609825,0.06190712301851034,0.04339681699329786,0.054567727114712604
2733.3500000071926,0.13727766,-0.7983374,-0.13650247,-2.4949675,0.003674558,1.7999266,0.94736165,0.04,0.04,-0.004557943672889309,-0.005765486638147077,-0.0021674146261752014,0.08634078320147384,-0.06388859749953783,0.08214764405149541,0.9955382968579993,0.06266938389886514,0.043825372466393175,0.055275532914595665
2733.3666666738595,0.13890368,-0.79850256,-0.1381221,-2.4966123,0.0037176996,1.8026423,0.94927573,0.04,0.04,-0.003962499155796273,-0.005722455746953042,-0.0021155961108965116,0.08651556662605106,-0.0637067551985727,0.08242723503903332,0.995431339113133,0.06343338076894672,0.0442523259707695,0.05598559602106027
2733.3833333405264,0.14053221,-0.7986681,-0.13974422,-2.4982598,0.0037609192,1.8053625,0.9511926,0.04,0.04,-0.003921979059717806,-0.005710726663810811,-0.0022621526118316027,0.08668000378240569,-0.06351662892564476,0.08269696793123411,0.9953229390201043,0.0641989771189521,0.044677653802884694,0.05669784517891142
2733.4000000071933,0.14216302,-0.79883385,-0.14136866,-2.499909,0.0038042166,1.8080863,0.9531124,0.04,0.04,-0.0026077899573762053,-0.00552786669409458,-0.0021818095895964618,0.08683380676796479,-0.0633176097672874,0.08295744038948658,0.9952130835771426,0.06496628804040191,0.04510141593160433,0.05741221103643005
2733.41666667386,0.14379592,-0.7989997,-0.14299518,-2.5015604,0.003847587,1.8108138,0.9550347,0.04,0.04,-0.004001830599698053,-0.005676454521062052,-0.0026070864657112836,0.08697572117551602,-0.06311093764548165,0.08320744129320526,0.9951018077839182,0.06573507809490975,0.045523217818131706,0.05812854971971039
2733.433333340527,0.14543068,-0.7991657,-0.14462358,-2.5032141,0.0038910338,1.8135444,0.956959,0.04,0.04,-0.0037790386442138058,-0.005629661667732461,-0.002924542445414957,0.0871062462613851,-0.06289580137491572,0.0834478377488532,0.9949891296726777,0.06650519566539928,0.04594289836400334,0.0588467575370893
2733.450000007194,0.1470672,-0.799332,-0.14625368,-2.5048695,0.003934552,1.8162779,0.9588853,0.04,0.04,-0.002779857400869723,-0.005631021821909249,-0.0029100616386612543,0.08722687415672306,-0.06267664217762026,0.08367728718143108,0.9948750418214991,0.06727656801866413,0.04636066878175261,0.05956679399135897
2733.466666673861,0.14870511,-0.79949844,-0.1478852,-2.5065258,0.0039781164,1.8190138,0.9608134,0.04,0.04,-0.0018142115737695974,-0.005376700814668095,-0.002686962145381777,0.0873368151883153,-0.06244919441907351,0.08389618429470479,0.9947595405441881,0.06804920347195878,0.04677664179238384,0.060288541081821065
2733.4833333405277,0.15034434,-0.799665,-0.14951806,-2.508184,0.0040217456,1.8217516,0.9627431,0.04,0.04,-0.003786632420421654,-0.005604684440677077,-0.0038119436055694678,0.08743476324729696,-0.06221221026504109,0.08410437002608677,0.9946426772251812,0.06882296530069024,0.04718999285623486,0.06101187313771509
2733.5000000071946,0.15198463,-0.7998316,-0.15115197,-2.5098433,0.004065422,1.8244917,0.96467406,0.04,0.04,-0.0022330432223327534,-0.005454953792752987,-0.0029844771963771777,0.08752167435853968,-0.06197282667056035,0.08430197199522596,0.9945244270199439,0.06959774090537381,0.04760139891765994,0.06173674224157371
2733.5166666738614,0.15362586,-0.7999982,-0.15278675,-2.511504,0.004109139,1.8272328,0.96660596,0.04,0.04,-0.0029794420890461026,-0.005557277047559678,-0.00396034551533031,0.08759735012882207,-0.06172574640154241,0.0844886248006516,0.9944048487562568,0.07037333677845638,0.04801008126793021,0.06246296772775568
2733.5333333405283,0.15526775,-0.80016506,-0.15442224,-2.5131648,0.0041529047,1.8299757,0.96853876,0.04,0.04,-0.0005564924471235244,-0.005201462095513754,-0.0029183218503758823,0.08766313632951249,-0.06147581084232437,0.08466502914443406,0.9942838784131117,0.07114984654702301,0.04841708312621605,0.06319062055135077
2733.550000007195,0.15691018,-0.80033195,-0.1560582,-2.5148258,0.004196703,1.8327192,0.9704721,0.04,0.04,-0.0012033488277829463,-0.005355624058571429,-0.0037207181691645275,0.08771681474766821,-0.06121392988750421,0.08482473522991774,0.994161574064681,0.07192702799464637,0.04882175071750186,0.06391951152794738
2733.566666673862,0.1585529,-0.80049896,-0.15769444,-2.5164871,0.004240514,1.8354633,0.97240573,0.04,0.04,-0.0010997883395980068,-0.0052460599633000204,-0.0037678045545552763,0.08775913020398499,-0.060946233407694575,0.08498391243299455,0.9940379418877063,0.0727048146895694,0.04922413805205271,0.0646495494310728
2733.583333340529,0.16019566,-0.8006659,-0.15933073,-2.5181484,0.00428437,1.8382075,0.9743395,0.04,0.04,-0.001034528782239974,-0.005199898292495425,-0.0039127597502019995,0.08779066832584073,-0.06067091755234137,0.08512673649637886,0.993913000426742,0.07348315439692077,0.04962406139343214,0.06538062506133004
2733.600000007196,0.16183828,-0.8008329,-0.16096692,-2.5198095,0.0043282392,1.8409513,0.97627306,0.04,0.04,-0.0006290711247913805,-0.005045311406459696,-0.004163010474744766,0.08781046903982118,-0.06039006292680445,0.08525844249911081,0.9937867644391798,0.07426193090228941,0.05002148406857991,0.06611265821116741
2733.6166666738627,0.16348061,-0.80099994,-0.16260274,-2.5214703,0.0043721157,1.8436948,0.97820634,0.04,0.04,-0.0006556336675567209,-0.0051910333190650915,-0.004167914187380717,0.08781921913187762,-0.0601030286884444,0.08537896759765765,0.9936592487574453,0.07504104711616622,0.05041640125693444,0.06684553156942087
2733.6333333405296,0.1651224,-0.8011669,-0.16423802,-2.523131,0.0044159745,1.8464371,0.9801391,0.04,0.04,-0.0010309581730316708,-0.005057572652902853,-0.004751689833204509,0.08781669530720612,-0.05981016342775938,0.08548605434298027,0.9935304901733678,0.07582042402689605,0.050808398473738345,0.06757910210104102
2733.6500000071965,0.16676347,-0.8013339,-0.16587262,-2.5247905,0.004459867,1.8491781,0.9820708,0.04,0.04,0.0003851100152774123,-0.004874621249407324,-0.004443142470944572,0.0878026009986972,-0.0595150254071659,0.08558616582782821,0.9934004838519753,0.07659988112807165,0.05119785699465898,0.06831336862562883
2733.6666666738633,0.1684036,-0.80150074,-0.1675063,-2.5264497,0.0045037395,1.8519177,0.9840016,0.04,0.04,-0.0007245649746190352,-0.004925726269879027,-0.004676057892094576,0.08777763512275491,-0.05921173245371751,0.0856723278947297,0.9932692564085316,0.07737945619319264,0.05158444924064935,0.06904816166580743
2733.68333334053,0.17004254,-0.8016674,-0.16913879,-2.5281074,0.004547604,1.8546553,0.985931,0.04,0.04,0.000710882619969766,-0.004795900283761229,-0.004675452203994901,0.08774119487496303,-0.05890701699142978,0.08574729610707114,0.993136827408735,0.07815895093856032,0.051968277028909104,0.0697833691888177
2733.700000007197,0.17168021,-0.8018339,-0.17077003,-2.5297637,0.0045914557,1.857391,0.98785883,0.04,0.04,0.0009407562854724105,-0.004672113167909775,-0.004451206191036228,0.08769340351464855,-0.058595279493190836,0.08581087381233576,0.9930031905574949,0.07893832324443607,0.05234956099952701,0.07051899126582362
2733.716666673864,0.17331633,-0.8020002,-0.1723997,-2.531419,0.0046352604,1.860124,0.9897849,0.04,0.04,-0.0003912274946005212,-0.004798236067015543,-0.005405819443682347,0.08763414367882769,-0.05827820869926986,0.08586155356163869,0.9928684165709245,0.0797174182355082,0.05272758256094498,0.07125477277410225
2733.733333340531,0.17495076,-0.8021665,-0.17402762,-2.5330718,0.004679036,1.8628539,0.99170893,0.04,0.04,0.002797564845180567,-0.0044799254840174885,-0.004675682522758962,0.08756368126933381,-0.05795928324525067,0.08590204760294277,0.9927324703481951,0.08049615031270492,0.053103132515290884,0.07199075925608556
2733.7500000071977,0.17658322,-0.80233264,-0.17565367,-2.534723,0.00472279,1.8655806,0.9936307,0.04,0.04,0.0004141659565304323,-0.004487907185317386,-0.005469172145966539,0.08748193719729601,-0.057632519959013764,0.08593068998823647,0.9925954090905708,0.08127446681897972,0.05347550979765456,0.07272678150099925
2733.7666666738646,0.17821352,-0.8024985,-0.17727755,-2.5363717,0.0047665047,1.8683035,0.99554986,0.04,0.04,0.002351874400630116,-0.0043468835083125545,-0.005020534439781343,0.08738829520832067,-0.05730289778983387,0.08594733586125233,0.9924572385763146,0.08205218265987295,0.05384508487558189,0.07346275078547167
2733.7833333405315,0.17984158,-0.8026641,-0.17889914,-2.5380185,0.0048101586,1.8710227,0.9974664,0.04,0.04,0.0009693678124200744,-0.004472871739641393,-0.005553340386144079,0.08728448865191221,-0.05696735608331785,0.08595139326884604,0.992317997660843,0.08282927272046399,0.05421143896463041,0.07419853761603454
2733.8000000071984,0.18146709,-0.8028295,-0.18051814,-2.5396624,0.004853766,1.8737376,0.99937993,0.04,0.04,0.0026981934692527076,-0.004231777279613963,-0.005315838329322808,0.08716906861951307,-0.056631148529435946,0.08594480361818573,0.9921776891341817,0.08360560418552522,0.05457491679123996,0.07493406828911313
2733.8166666738653,0.18308984,-0.8029946,-0.18213446,-2.5413034,0.0048973225,1.8764479,1.00129,0.04,0.04,0.002481558824229957,-0.004036960511290266,-0.005433967216394997,0.08704254174390456,-0.056288019489792174,0.08592645383053588,0.9920363489734727,0.08438097944297719,0.05493538626371841,0.07566925372753576
2733.833333340532,0.18470968,-0.8031595,-0.18374783,-2.5429413,0.004940821,1.879154,1.0031967,0.04,0.04,0.003137144703213579,-0.004090077214382454,-0.0051393729282311895,0.08690529723514062,-0.055940228690412916,0.08589614896653325,0.9918939644728888,0.08515548872611868,0.055293139408309704,0.07640402290746652
2733.850000007199,0.18632638,-0.80332404,-0.1853581,-2.544577,0.0049842545,1.8818544,1.0050997,0.04,0.04,0.0012679320373631953,-0.004064605618175204,-0.0065040084807899134,0.08675574636011348,-0.05558681176603808,0.0858537053753441,0.9917506350677608,0.08592887577447227,0.05564719717907941,0.07713815914928826
2733.866666673866,0.18793973,-0.8034882,-0.1869651,-2.5462096,0.00502762,1.8845496,1.0069987,0.04,0.04,0.0021750159445499406,-0.003909264084014236,-0.005898684502048113,0.08659663398435348,-0.055233971999684967,0.08579956870231918,0.9916063509799767,0.08670113203824074,0.05599795422860626,0.07787160921461304
2733.8833333405328,0.18954955,-0.8036519,-0.18856853,-2.5478382,0.005070916,1.8872386,1.0088938,0.04,0.04,0.003993151920722582,-0.003702131613007864,-0.005773717728718708,0.08642580871813496,-0.05487828025795005,0.08573351659028654,0.9914611125184369,0.08747231203033662,0.056345561731528666,0.07860429164447327
2733.9000000071997,0.19115569,-0.8038155,-0.19016826,-2.5494633,0.005114099,1.8899219,1.0107849,0.04,0.04,0.003647983456911419,-0.0037083286876925248,-0.005832249936799094,0.08624310403765248,-0.054519841508293504,0.08565465472673299,0.9913149389823529,0.08824223559376455,0.05669018230633191,0.0793361382845377
2733.9166666738665,0.1927579,-0.80397844,-0.19176412,-2.551084,0.0051572006,1.8925985,1.012671,0.04,0.04,0.0040902780026996766,-0.0034692069729572172,-0.0058667430953285304,0.0860480535457168,-0.05415659547652557,0.08556450592585352,0.9911678910301811,0.08901060974312001,0.05703156089529079,0.08006699823140377
2733.9333333405334,0.19435601,-0.8041411,-0.19335583,-2.552701,0.0052002277,1.8952681,1.0145522,0.04,0.04,0.0034946437198035696,-0.003575024516915687,-0.006534777404199055,0.0858425512865624,-0.05378976530122255,0.08546354541100898,0.9910200040880828,0.08977739163375055,0.057369471373862675,0.08079675242842457
2733.9500000072003,0.19594981,-0.8043034,-0.19494331,-2.554313,0.00524312,1.8979303,1.0164286,0.04,0.04,0.005457970963784753,-0.003111551892636538,-0.005940316434149828,0.08562715532719477,-0.05342084034304592,0.08534768147231066,0.9908712582692415,0.09054265823287679,0.05770433235293606,0.08152537398722234
2733.966666673867,0.19753917,-0.8044651,-0.1965263,-2.5559194,0.005285898,1.900585,1.0182997,0.04,0.04,0.006089845736489963,-0.003101073493956552,-0.005527373664371282,0.08539916999446136,-0.05304769391421833,0.08522063560795654,0.9907216771241862,0.09130622601868907,0.05803631918894611,0.08225276421776083
2733.983333340534,0.1991238,-0.8046264,-0.1981046,-2.5575218,0.0053285835,1.9032321,1.0201651,0.04,0.04,0.003614776578064749,-0.0032500804205790046,-0.006790477198137523,0.08515968213470615,-0.05266793108586382,0.08508345623295331,0.9905713512141218,0.09206785771403134,0.058364699814528846,0.08297872947531691
2734.000000007201,0.20070353,-0.80478716,-0.1996781,-2.5591195,0.005371149,1.9058713,1.0220249,0.04,0.04,0.004748863955472693,-0.002952597035234955,-0.006329584562680957,0.084910300777287,-0.05228841768984324,0.08493254862592081,0.9904202679638248,0.09282767048293773,0.05868974405221403,0.08370322778879323
2734.016666673868,0.20227823,-0.80494756,-0.20124649,-2.5607126,0.005413598,1.9085021,1.0238788,0.04,0.04,0.004394903627424895,-0.003099814240661164,-0.006876555330159739,0.08464910458794969,-0.051906435577647056,0.08477041235789,0.9902684802832257,0.09358547307335342,0.05901124152389623,0.08442611895021407
2734.0333333405347,0.20384766,-0.8051075,-0.20280966,-2.5622997,0.0054558925,1.9111238,1.0257262,0.04,0.04,0.006530127748338721,-0.0025894570821520524,-0.006413021751239256,0.08437754456063877,-0.05152381076958662,0.08459444694566888,0.990116013459849,0.09434098830862576,0.05932950173550279,0.08514733136831024
2734.0500000072016,0.20541167,-0.8052667,-0.20436743,-2.5638819,0.0054980596,1.9137365,1.0275676,0.04,0.04,0.004657991805068207,-0.0027852279735812724,-0.006803960436063683,0.08409635067303525,-0.051137183839349856,0.08440853239971488,0.9899628905229632,0.09509450513256436,0.05964407548147585,0.08586672662313641
2734.0666666738684,0.20697007,-0.80542535,-0.20591955,-2.5654573,0.00554011,1.9163395,1.029402,0.04,0.04,0.007660453846658477,-0.002384622910121814,-0.006192512010771978,0.08380204188747449,-0.05075191674895013,0.08421178062292747,0.9898091352278331,0.09584551813363719,0.05995561125312533,0.08658427774421791
2734.0833333405353,0.20852268,-0.8055834,-0.20746589,-2.5670283,0.005582015,1.9189332,1.0312297,0.04,0.04,0.003826651985483487,-0.002741549481120875,-0.007460468448217128,0.08349922123017611,-0.05036024227996813,0.08400203704020838,0.9896548222730474,0.09659416793855767,0.06026317054171808,0.08729976946258562
2734.100000007202,0.21006922,-0.80574095,-0.2090062,-2.568592,0.0056237997,1.9215167,1.0330503,0.04,0.04,0.008418643155194694,-0.0020225266088913507,-0.006139346315925387,0.08318543550434022,-0.04997301140335561,0.08378160014186392,0.9894999096361218,0.09734032526509871,0.060567793481836864,0.08801325070768208
2734.116666673869,0.21160962,-0.8058977,-0.2105404,-2.5701501,0.005665415,1.9240899,1.0348637,0.04,0.04,0.005510102767858349,-0.0022846156244690774,-0.0071046948218578265,0.08286084071318259,-0.049579243310257926,0.0835469718299484,0.9893444860305313,0.09808394163151443,0.060868646364053536,0.0887244963063608
2734.133333340536,0.2131436,-0.8060539,-0.2120683,-2.5717015,0.0057068793,1.9266526,1.0366695,0.04,0.04,0.007353546080857143,-0.0018765545297547148,-0.006715772979726253,0.08252509893734877,-0.049186779565820654,0.08330164329133778,0.9891885546324171,0.09882485407499092,0.06116617640031264,0.08943349744839753
2734.150000007203,0.21467112,-0.80620944,-0.21358964,-2.5732458,0.0057481816,1.9292039,1.0384675,0.04,0.04,0.007981603113238478,-0.0019453370839445094,-0.0068566774949818665,0.0821791369604366,-0.04879241945075208,0.08304433014803665,0.9890321601855463,0.09956291089971274,0.06146032434161669,0.0901401210544513
2734.1666666738697,0.21619187,-0.80636436,-0.21510433,-2.5747838,0.0057893135,1.9317441,1.0402577,0.04,0.04,0.0063031440724836685,-0.0018140704329955293,-0.007295990026934263,0.0818236249367546,-0.04839486515267617,0.0827753377786299,0.9888753450408916,0.10029814469292554,0.061750763247021355,0.09084424791820789
2734.1833333405366,0.21770571,-0.80651873,-0.21661212,-2.5763147,0.005830266,1.9342728,1.0420398,0.04,0.04,0.008037901227209154,-0.0016136682537193359,-0.006967813014968627,0.08145741771972453,-0.04799929817607816,0.08249451790632045,0.9887181205745641,0.10103041972551487,0.062037850297387544,0.09154582168546452
2734.2000000072035,0.21921244,-0.8066722,-0.21811286,-2.5778387,0.005871053,1.9367896,1.0438136,0.04,0.04,0.007111380959701208,-0.0015656955407797324,-0.007152176252644971,0.08108081952937089,-0.04760183616158033,0.08220182339341067,0.9885605409547932,0.10175970993348299,0.062321236371271196,0.09224468439198069
2734.2166666738703,0.22071195,-0.8068249,-0.21960633,-2.5793555,0.0059116366,1.9392945,1.0455791,0.04,0.04,0.007638880481963817,-0.0015140079255293593,-0.0071554116248151445,0.08069340306604468,-0.04720563751411384,0.0818964200139545,0.9884026331174532,0.10248591557462068,0.0626010395901223,0.09294074347428463
2734.2333333405372,0.222204,-0.806977,-0.2210924,-2.580865,0.005952051,1.9417871,1.0473356,0.04,0.04,0.008206297949375774,-0.0012563244410665475,-0.007064114478771977,0.0802951147094021,-0.04680832131537073,0.08158176893431628,0.9882444279920685,0.10320880557514879,0.0628774494252734,0.09363396471448088
2734.250000007204,0.22368844,-0.8071282,-0.2225709,-2.5823665,0.0059922514,1.9442669,1.0490831,0.04,0.04,0.008598527667280642,-0.001082902397678276,-0.007125416094755366,0.07988765384265807,-0.04641089350436718,0.08125333427748768,0.9880859717635883,0.10392831422003801,0.06315032870014166,0.09432419568939081
2734.266666673871,0.22516514,-0.8072787,-0.22404164,-2.5838597,0.006032269,1.9467338,1.0508217,0.039999995,0.04,0.0096578480716758,-0.0009343600992167689,-0.006782041527575444,0.07947068437918668,-0.046012982719065315,0.08091473865171371,0.9879272520549957,0.10464450804916328,0.06342000943950071,0.09501144133685897
2734.283333340538,0.22663392,-0.8074285,-0.22550452,-2.5853448,0.006072074,1.9491873,1.0525508,0.04,0.04,0.009005005035245262,-0.0008089329339752704,-0.007312988276542143,0.07904243904493036,-0.0456116534610497,0.08056427594391888,0.9877683451387461,0.10535716167705232,0.06368615831891822,0.0956955488191389
2734.3000000072047,0.22809456,-0.8075773,-0.22695923,-2.5868216,0.0061116572,1.9516273,1.0542706,0.04,0.04,0.009214589069972412,-0.0007518189156605071,-0.00703437088118708,0.07860490037216857,-0.04521046195885138,0.0802012141575918,0.987609270329,0.10606633584018081,0.0639488429595114,0.09637638219915658
2734.3166666738716,0.22954692,-0.80772525,-0.2284057,-2.58829,0.0061510466,1.9540536,1.0559807,0.039999995,0.04,0.009267843080373872,-0.0005904702258516248,-0.007084227110931707,0.07815635476780593,-0.04480997277508948,0.0798293119482667,0.9874500681114027,0.10677183154630353,0.06420809970958759,0.09705389691670095
2734.3333333405385,0.23099083,-0.80787253,-0.22984378,-2.5897503,0.0061901845,1.9564656,1.0576802,0.039999995,0.04,0.00880502648292758,-0.0005086993309838528,-0.007852311833955739,0.07769841120025309,-0.044408523480876774,0.07944282876498107,0.9872908357098873,0.10747325626346554,0.06446360898003317,0.09772792860113909
2734.3500000072054,0.23242615,-0.8080187,-0.23127325,-2.5912018,0.006229106,1.9588631,1.05937,0.039999984,0.04,0.009583503799137638,-0.00038216577184085887,-0.007155700348659977,0.07723347756906163,-0.04400948216880786,0.079047603430943,0.9871315476308903,0.10817098858442652,0.06471551993209604,0.09839840639171768
2734.3666666738723,0.23385268,-0.8081642,-0.23269399,-2.5926445,0.0062677846,1.961246,1.0610495,0.039999984,0.04,0.010096787082214398,-0.00013595003289373908,-0.007404199756311236,0.07675819550004692,-0.04361131768627112,0.07864170787418762,0.9869722423120227,0.10886475382074323,0.06496402568006884,0.09906529992164842
2734.383333340539,0.23527032,-0.80830854,-0.23410581,-2.5940785,0.0063062524,1.963614,1.0627182,0.039999977,0.04,0.009028802094168675,-0.00024317782094246398,-0.00755790394648681,0.07627286039964377,-0.04321408591231482,0.07822434470358842,0.9868130040105696,0.1095543595995089,0.06520874037478495,0.09972841915477766
2734.400000007206,0.23667888,-0.8084523,-0.23550864,-2.5955029,0.0063444832,1.9659669,1.0643765,0.039999977,0.04,0.01183220551996822,0.00031385745712375623,-0.006869002103115918,0.07578067729858598,-0.04282110694768261,0.07779930189294551,0.9866537581674047,0.11024004300063495,0.06545047684041934,0.10038789516030454
2734.416666673873,0.2380781,-0.8085948,-0.23690222,-2.5969179,0.006382467,1.9683043,1.066024,0.039999973,0.04,0.009965022478586327,0.0002893590323349571,-0.007383811886718661,0.07527634440939986,-0.04242296014266904,0.07736209377772561,0.9864946280211785,0.11092159034650585,0.06568849870936633,0.10104341056035433
2734.43333334054,0.23946798,-0.8087364,-0.23828645,-2.5983233,0.0064202035,1.9706262,1.0676602,0.039999977,0.04,0.010901168491694868,0.0003274394290958549,-0.007081933750630043,0.07476249067681232,-0.042027762944163674,0.07691345046433165,0.9863356259223612,0.11159877959571364,0.06592324375600743,0.10169499182249413
2734.4500000072067,0.24084829,-0.8088771,-0.23966113,-2.5997195,0.0064577134,1.9729322,1.0692854,0.03999997,0.04,0.010408500737901782,0.0003920308651955695,-0.007646347050727087,0.07424088342718263,-0.04163330392546166,0.0764542759889956,0.986176796725666,0.11227166657485525,0.0661544164646516,0.10234252130287924
2734.4666666738735,0.24221891,-0.8090168,-0.2410261,-2.6011055,0.006494961,1.9752218,1.0708991,0.039999966,0.04,0.01176130710922596,0.0007036644018465488,-0.007164898568845501,0.07371024672432151,-0.04124014751963312,0.07598239334736903,0.9860181716163134,0.1129400891970735,0.06638224523602097,0.10298591657117041
2734.4833333405404,0.24357964,-0.80915546,-0.2423813,-2.6024814,0.0065319263,1.9774953,1.0725011,0.03999996,0.04,0.01148457436450645,0.0009198710742869265,-0.006928722304100354,0.07317100985522747,-0.040847222386403884,0.07550019858774029,0.9858597762287976,0.11360394906291849,0.06660689443520301,0.10362512236476568
2734.5000000072073,0.2449304,-0.80929327,-0.2437265,-2.6038475,0.006568631,1.9797517,1.0740914,0.039999958,0.04,0.01088554609152137,0.0007580061389067527,-0.007941099076913538,0.0726238873241677,-0.04045473653827972,0.07500890395444115,0.9857016825114101,0.11426324657102727,0.0668278230119877,0.10425999064215609
2734.516666673874,0.246271,-0.80943006,-0.24506159,-2.6052036,0.0066050505,1.9819912,1.0756698,0.039999958,0.04,0.0112371185264859,0.001021230333360379,-0.007487494265201455,0.07206729238088522,-0.04006421924005889,0.07450611892018935,0.9855439222901727,0.11491781251965735,0.06704526756427404,0.10489044617997349
2734.533333340541,0.24760132,-0.8095658,-0.24638642,-2.6065488,0.006641218,1.9842135,1.0772358,0.03999995,0.04,0.012842313546390649,0.0013335769644698403,-0.006866804734628751,0.0715031580655187,-0.039677425615486775,0.07399459437162786,0.9853864989871962,0.11556756495053601,0.06725961636526512,0.10551648947703593
2734.550000007208,0.24892122,-0.8097002,-0.24770091,-2.6078835,0.006677092,1.9864184,1.0787896,0.03999995,0.04,0.011603830561623951,0.0013550778438967126,-0.0072514090708075685,0.07093199007681439,-0.03929036253351613,0.0734733184198625,0.9852294781618818,0.11621250594315252,0.0674704678532336,0.10613795169940153
2734.566666673875,0.25023055,-0.80983377,-0.24900492,-2.609208,0.0067126853,1.9886059,1.080331,0.039999947,0.04,0.011359568611957194,0.0013562899241328918,-0.0076781459432462285,0.07035235084680845,-0.038906343159017726,0.07294114264750257,0.9850728889172953,0.1168525508039969,0.06767787589873733,0.10675481255928702
2734.5833333405417,0.25152916,-0.80996615,-0.25029823,-2.6105216,0.006748002,1.9907755,1.0818595,0.039999943,0.04,0.012940078091050466,0.001718602005257308,-0.006956602646535082,0.06976435945162049,-0.03852359809705698,0.0724000368190598,0.984916765866953,0.11748750783955587,0.06788211539184258,0.10736697921503081
2734.6000000072086,0.25281703,-0.8100977,-0.25158072,-2.6118243,0.0067830146,1.9929267,1.0833758,0.039999932,0.04,0.012339378281356339,0.0015334563389715616,-0.007678461177884621,0.06916928354471899,-0.038141562842481186,0.07184855923767519,0.9847611288778647,0.11811760878360593,0.06808290395710848,0.10797438462526072
2734.6166666738754,0.25409383,-0.81022793,-0.25285235,-2.6131153,0.0068177143,1.9950597,1.0848802,0.03999993,0.04,0.013561383419635753,0.0022832634626615556,-0.00666489822851446,0.06856561411096732,-0.037763238924120354,0.07128737180368373,0.9846059345323449,0.11874319526321003,0.06828059278742823,0.108577013732044
2734.6333333405423,0.25535962,-0.81035715,-0.2541129,-2.6143954,0.006852119,1.9971743,1.0863699,0.039999932,0.04,0.012577532502500155,0.0018033524341945495,-0.007400727883721814,0.06794793723722244,-0.037385807681768204,0.07071699112278554,0.9844514265199235,0.11936267116991515,0.06847506496893833,0.1091746629560637
2734.650000007209,0.25661412,-0.8104851,-0.2553623,-2.615664,0.0068862545,1.9992701,1.0878472,0.03999992,0.04,0.01307798342320421,0.0022875398021440785,-0.007061058552859656,0.06733133581845122,-0.03700826269561776,0.07013859205165532,0.9842974613746945,0.11997740934048849,0.06866625036975264,0.10976736691492169
2734.666666673876,0.25785723,-0.8106119,-0.25660038,-2.6169214,0.0069200834,2.001347,1.0893103,0.039999925,0.04,0.012706487950620016,0.002242379276300166,-0.007277312717635098,0.06670294123286682,-0.036635011909644036,0.06955040930221834,0.9841442056120521,0.1205863598605405,0.06885417904184025,0.11035494734846048
2734.683333340543,0.25908896,-0.8107376,-0.25782704,-2.6181672,0.006953584,2.0034049,1.0907607,0.039999925,0.04,0.01359361211374921,0.0023690073388357713,-0.0071265245422891255,0.06607175075457672,-0.036263510624866935,0.06895336451406509,0.983991576110676,0.12119029830722278,0.06903892349627055,0.11093744535507566
2734.70000000721,0.2603091,-0.8108621,-0.2590422,-2.619401,0.006986822,2.005443,1.0921971,0.03999992,0.04,0.013762117638083105,0.002627820817159565,-0.007084387729050512,0.06542977828574581,-0.035894142888593675,0.06834868751305871,0.9838396811032749,0.12178859316537652,0.06922050332776412,0.11151476306057345
2734.7166666738767,0.2615175,-0.8109854,-0.26024565,-2.6206234,0.0070197065,2.0074618,1.0936198,0.03999992,0.04,0.01286088923737605,0.002581385530893432,-0.007366491567939448,0.0647833351581234,-0.03552807535311868,0.06773243582480733,0.9836885511830786,0.12238143668506797,0.06939871086148372,0.1120867394342373
2734.7333333405436,0.2627141,-0.8111075,-0.26143733,-2.6218328,0.007052286,2.0094612,1.0950285,0.039999917,0.04,0.015750393827174136,0.0030717039029098947,-0.006072913153754023,0.06412878385113603,-0.03516509228548743,0.06711031376290233,0.9835381447258091,0.12296866390444777,0.0695744853756213,0.11265352436380244
2734.7500000072105,0.26389873,-0.8112286,-0.26261717,-2.6230314,0.0070845466,2.0114398,1.0964231,0.039999917,0.04,0.011736624975888788,0.0026900051211406484,-0.008444307439092746,0.06346780330527911,-0.034798272769686764,0.06647937735900758,0.9833886428511208,0.12355017672080973,0.06974628429634515,0.11321478159030701
2734.7666666738774,0.2650714,-0.8113482,-0.26378492,-2.624217,0.007116447,2.0133986,1.0978038,0.039999917,0.04,0.01525635826491456,0.0031008670872148536,-0.006189395475142412,0.06280178298231026,-0.03444266516245284,0.06583852583877263,0.9832399537067588,0.1241260677801762,0.06991540340164906,0.11377059857162895
2734.7833333405442,0.26623183,-0.81146663,-0.26494062,-2.6253905,0.0071480735,2.015337,1.0991702,0.039999913,0.04,0.013936895604382826,0.003281327616697083,-0.007196401045872491,0.06212813793255003,-0.034085701541302214,0.06519425526053312,0.9830921554861456,0.12469623780440538,0.07008131473498944,0.1143209142022872
2734.800000007211,0.26738003,-0.81158394,-0.26608407,-2.6265523,0.007179348,2.0172553,1.1005219,0.039999902,0.04,0.01339174929069209,0.0030978839921938506,-0.007195566232653938,0.06144870943706475,-0.033733323375274835,0.06453746694959725,0.9829453072550001,0.125260426834094,0.07024413720112321,0.11486561541028587
2734.816666673878,0.26851603,-0.81169987,-0.26721528,-2.627701,0.007210299,2.0191526,1.1018593,0.039999895,0.04,0.01530538294203243,0.003452759038367892,-0.006611082056395823,0.06076414426753881,-0.033383657959579364,0.06387690169504773,0.9827993966999772,0.12581880648356225,0.07040400736540536,0.11540472056248177
2734.833333340545,0.26963946,-0.8118144,-0.26833412,-2.6288366,0.007240903,2.0210297,1.1031821,0.03999989,0.04,0.01565037094859445,0.003930057441094148,-0.006036260485653422,0.060073217049153714,-0.03303558839189579,0.06320617044547001,0.982654415892328,0.1263713679311393,0.07056137076209408,0.11593821307357949
2734.8500000072117,0.27075043,-0.8119278,-0.26944044,-2.62996,0.0072711636,2.0228858,1.1044899,0.039999887,0.04,0.013853667037744266,0.003404992149923236,-0.007251401024843673,0.059375223867116605,-0.03268722891795411,0.06252802829089471,0.9825104957550728,0.12691779536495496,0.07071555874506891,0.11646591218976156
2734.8666666738786,0.2718487,-0.81204003,-0.27053416,-2.6310701,0.007301096,2.0247207,1.1057829,0.039999884,0.04,0.016027640810145627,0.0040266552085291285,-0.006422592307386843,0.05867369740769937,-0.03234330445999001,0.061844181943919434,0.9823675954135088,0.12745820375940167,0.0708671237668519,0.1169878820430617
2734.8833333405455,0.27293408,-0.8121509,-0.27161518,-2.6321676,0.0073306873,2.0265343,1.1070611,0.039999884,0.04,0.014454017924148133,0.004049074264765584,-0.006840265044782967,0.05796568936110963,-0.03199855841193621,0.06115302062486309,0.9822257629027136,0.12799275257555495,0.0710156577563629,0.11750396730215568
2734.9000000072124,0.27400678,-0.8122604,-0.27268347,-2.633252,0.007359894,2.0283265,1.1083242,0.03999988,0.04,0.01522946348730958,0.0039478655615099445,-0.006571482140649287,0.057251201954100106,-0.031659309871627225,0.06045306455647306,0.9820850645875197,0.1285210159698615,0.07116134546072683,0.11801414017151148
2734.9166666738793,0.27506667,-0.8123687,-0.27373892,-2.634324,0.0073887757,2.030097,1.1095719,0.039999872,0.04,0.013640749576482314,0.0037708086809903896,-0.007453211710406471,0.056532519875331616,-0.03132252221285922,0.05974998864473923,0.9819455697765904,0.1290429677856293,0.07130374280340956,0.11851829699852061
2734.933333340546,0.2761135,-0.8124757,-0.27478144,-2.6353827,0.0074172737,2.0318458,1.1108043,0.039999876,0.04,0.016127060625326095,0.00450143877304271,-0.006223270865834962,0.055811433918796595,-0.03099269260941276,0.05903763670158748,0.9818072331060793,0.12955868144416416,0.07144356721105016,0.119016476956741
2734.950000007213,0.27714732,-0.8125812,-0.27581102,-2.6364284,0.0074454295,2.0335727,1.1120216,0.039999876,0.04,0.0145073504525417,0.004278605667475122,-0.006832109369647732,0.055084923939705016,-0.030663492091609235,0.05832106608457611,0.9816701170562643,0.13006822836948362,0.0715802927057523,0.11950857267879575
2734.96666667388,0.27816802,-0.8126855,-0.27682742,-2.6374605,0.0074732746,2.0352778,1.113223,0.03999987,0.04,0.016345853404020616,0.004443807577651782,-0.006124461229162215,0.05435324444628174,-0.03034129637065578,0.057600928648078475,0.9815342331394197,0.13057123779590274,0.07171462584037958,0.1199946393653965
2734.983333340547,0.27917555,-0.81278837,-0.27783072,-2.6384797,0.007500717,2.0369606,1.1144091,0.039999865,0.04,0.014414519910688206,0.004439224738243819,-0.007028735222047722,0.05361952050611457,-0.030018068494437583,0.05686955848726267,0.9813996478740917,0.13106798108342735,0.07184577456789873,0.12047447930604065
2735.0000000072137,0.28016976,-0.81288993,-0.27882084,-2.6394854,0.0075278147,2.0386217,1.1155797,0.03999986,0.04,0.016209950260481776,0.004857293065775592,-0.005935545169566403,0.05288108553857074,-0.029701463552856286,0.05613627623716279,0.9812663047483915,0.1315584526566992,0.07197454893243936,0.12094824102062714
2735.0166666738805,0.2811506,-0.8129902,-0.27979767,-2.6404772,0.0075545604,2.0402606,1.1167345,0.039999858,0.04,0.016465314710467638,0.004900446060478181,-0.006005063280434264,0.05213740828573093,-0.02938706981834905,0.055398321878389084,0.9811342669389533,0.1320424283688144,0.07210090771097945,0.12141584104177638
2735.0333333405474,0.2821181,-0.813089,-0.28076112,-2.6414552,0.007580932,2.041877,1.1178735,0.039999858,0.04,0.016235944386133738,0.0048714678313868665,-0.006072341993634822,0.05138967250717525,-0.029071418426526913,0.05465264225956369,0.9810035730954534,0.13251991860471998,0.07222472352748786,0.12187719252727153
2735.0500000072143,0.28307208,-0.81318647,-0.28171125,-2.6424196,0.0076069706,2.0434713,1.118997,0.03999985,0.04,0.01597762644749423,0.005146315211317087,-0.0060267186831053365,0.05063891995428038,-0.02875930226564012,0.053904623644417136,0.9808742112123511,0.13299109123918376,0.07234605362633206,0.1223323340505489
2735.066666673881,0.28401256,-0.8132826,-0.2826479,-2.6433709,0.0076326267,2.0450428,1.1201042,0.039999846,0.04,0.01489420881009007,0.004874962482043221,-0.006845854941528451,0.049883044081341914,-0.02844945815620087,0.05314890711670321,0.9807463183578434,0.1334555132375226,0.07246443945603223,0.12278106543098592
2735.083333340548,0.28493947,-0.8133773,-0.28357103,-2.6443086,0.0076579032,2.0465913,1.1211956,0.039999846,0.04,0.015637193122164383,0.005091646724267318,-0.006371485776179853,0.04912611835490241,-0.028146487587476843,0.052390490537633456,0.9806198706390901,0.1339133875996238,0.07258008321509409,0.1232233965197245
2735.100000007215,0.2858529,-0.8134706,-0.28448063,-2.6452327,0.0076828264,2.0481172,1.122271,0.03999984,0.04,0.01575154135504686,0.005039503211284879,-0.006147899112596278,0.04836642704717781,-0.027847455880889355,0.05162787293090022,0.9804948854711419,0.13436462204452465,0.07269313585391259,0.12365935430645363
2735.116666673882,0.28675258,-0.81356263,-0.2853766,-2.6461425,0.007707359,2.0496213,1.1233304,0.039999843,0.04,0.01772369266030971,0.005679112582651635,-0.004891494007441821,0.0476044833970775,-0.027553984399251122,0.050861569883691504,0.9803712700320462,0.13480938337191273,0.07280455534362049,0.1240890799863356
2735.1333333405487,0.28763857,-0.81365323,-0.28625894,-2.6470387,0.0077315327,2.0511017,1.1243734,0.039999843,0.04,0.015256397812679623,0.005264416756410595,-0.006811450793198226,0.046837692272055344,-0.027254908993062738,0.05009042379179564,0.9802492382109341,0.13524732020425245,0.07291292543578763,0.1245122430480103
2735.1500000072156,0.28851083,-0.8137425,-0.28712767,-2.6479206,0.0077553657,2.0525591,1.1254007,0.039999828,0.04,0.01712860601155164,0.005724221700655063,-0.005544646084865157,0.04606999553917465,-0.026963846263910546,0.04931729965188899,0.9801286674278127,0.1356787848133305,0.07301910992242718,0.12492906877062117
2735.1666666738824,0.28936934,-0.8138303,-0.28798264,-2.6487887,0.00777879,2.0539932,1.1264116,0.039999824,0.04,0.015860237084464046,0.0054551282507073195,-0.006153893103699737,0.04529912394879785,-0.02667616056890651,0.04853916220091778,0.9800096888125324,0.13610342522864452,0.07312265724776741,0.1253393173414465
2735.1833333405493,0.290214,-0.8139166,-0.28882387,-2.6496427,0.0078018466,2.0554042,1.1274061,0.039999824,0.04,0.016404755578958152,0.005761041942110856,-0.005725948741552855,0.04452713393693607,-0.0263921984186358,0.04775952763482008,0.9798922797834424,0.13652133475045533,0.07322383252124728,0.12574305360401555
2735.200000007216,0.29104486,-0.8140017,-0.2896513,-2.650483,0.00782452,2.0567923,1.1283845,0.039999817,0.04,0.016384657135848357,0.005642051301932294,-0.005752916785350948,0.043753194947482484,-0.026111890486314696,0.046976975630257024,0.9797764465197025,0.13693250132757567,0.07332277390621131,0.12614030185510378
2735.216666673883,0.29186186,-0.81408536,-0.290465,-2.6513095,0.00784681,2.0581574,1.1293464,0.03999981,0.04,0.015793869201874422,0.00575293531575316,-0.00584428670198367,0.04297841796881882,-0.02583356584227329,0.046189514255524505,0.9796622323607022,0.137336850509498,0.07341935791726309,0.12653101541201034
2735.23333334055,0.29266495,-0.81416756,-0.29126483,-2.6521215,0.007868736,2.0594995,1.1302919,0.0399998,0.04,0.017315020484209853,0.006039907859768656,-0.0051532109165863815,0.0422025297312837,-0.025560546159780505,0.045401893939116825,0.9795496166191441,0.137734460029636,0.07351391711005141,0.12691521221969027
2735.250000007217,0.29345423,-0.81424826,-0.29205096,-2.6529198,0.00789026,2.0608182,1.1312213,0.039999805,0.04,0.015868639877925084,0.005880762089056912,-0.005819762753711544,0.041425455703340906,-0.025287071698331873,0.044609921688981875,0.9794386588460776,0.13812533175355526,0.0736059954481733,0.1272928266629765
2735.2666666738837,0.29422963,-0.81432766,-0.2928231,-2.653704,0.007911423,2.062113,1.1321343,0.039999805,0.04,0.016377543556922447,0.005821189657968795,-0.005946109718801829,0.04064734154375838,-0.025020175148370266,0.04381686042890125,0.9793294003828708,0.13850933210043612,0.07369562673278202,0.12766379701105732
2735.2833333405506,0.29499114,-0.8144057,-0.29358158,-2.6544735,0.007932196,2.0633852,1.1330309,0.03999981,0.04,0.017644304904940178,0.0063946081280130684,-0.004651590415849505,0.03986914044199642,-0.024758598381827153,0.04302270768819486,0.9792217514999146,0.1388865850994859,0.07378360248136874,0.12802834793011333
2735.3000000072175,0.29573864,-0.81448215,-0.29432613,-2.6552293,0.007952605,2.064634,1.1339109,0.03999981,0.04,0.0158552185660632,0.006071032659830944,-0.005628798476520203,0.03909011139529311,-0.02449607046888594,0.042226221946886244,0.9791158356289291,0.13925694531260094,0.07386921869916632,0.12838622251488654
2735.3166666738844,0.29647225,-0.8145572,-0.2950568,-2.6559708,0.007972652,2.0658598,1.1347746,0.039999805,0.04,0.016977104509008356,0.006173484077143243,-0.0050529190965376,0.03831126632357145,-0.024237172612176852,0.04142901038817122,0.9790116101537306,0.13962050464946849,0.07395287898711397,0.12873753747506841
2735.3333333405512,0.29719195,-0.81463075,-0.29577357,-2.656699,0.007992309,2.0670624,1.135622,0.0399998,0.04,0.015161266618557434,0.005964395571908532,-0.00575409801546467,0.037532575631511474,-0.023981462895610636,0.040629778074387245,0.978909138549333,0.13997728761313616,0.07403412246461058,0.1290821681254509
2735.350000007218,0.29789788,-0.8147029,-0.29647654,-2.6574128,0.008011603,2.068242,1.1364529,0.039999794,0.04,0.01714404897306121,0.006229554662480485,-0.004789271874283685,0.03675405804378193,-0.023731426758553956,0.03983139172761031,0.9788083870797154,0.14032712826503366,0.07411360874059339,0.12942028996544938
2735.366666673885,0.29858983,-0.8147738,-0.2971657,-2.6581125,0.008030485,2.069398,1.1372676,0.039999794,0.04,0.01635746102488511,0.006423778056523222,-0.005566163869219487,0.03597706600817208,-0.023481839308509448,0.03903132093143888,0.9787094010867075,0.1406702200687426,0.07419081587804384,0.12975176395587124
2735.383333340552,0.2992679,-0.8148432,-0.297841,-2.6587985,0.008049022,2.0705304,1.1380658,0.039999787,0.04,0.015925374436576156,0.006256687632476277,-0.005355485551428174,0.035199905815878486,-0.023238705952037517,0.03823320823411691,0.9786122086498736,0.14100643207097813,0.0742658089445285,0.13007659596500618
2735.4000000072188,0.29993212,-0.8149111,-0.29850248,-2.65947,0.008067147,2.0716398,1.1388481,0.03999979,0.04,0.016978824818103533,0.006399620945836404,-0.004767836263197545,0.0344250385176159,-0.022998414006729632,0.037432218379920924,0.9785167575322006,0.14133597067441223,0.07433896439560381,0.13039485033842235
2735.4166666738856,0.30058232,-0.8149777,-0.29915026,-2.6601276,0.00808492,2.0727265,1.139614,0.03999979,0.04,0.01680067694045384,0.00680975891827057,-0.004571098940764351,0.03364948223480417,-0.022763299571912955,0.03663490896314124,0.9784230341914156,0.14165884706393123,0.07441046057895274,0.13070662021722432
2735.4333333405525,0.3012189,-0.8150429,-0.2997842,-2.6607714,0.008102325,2.0737896,1.1403633,0.039999787,0.04,0.015969481836508592,0.006063413086758451,-0.005398710328985423,0.03287399780548693,-0.022526771842916557,0.03583651256519284,0.9783311806726347,0.14197462083650192,0.07447975423044519,0.13101173295469615
2735.4500000072194,0.30184165,-0.8151068,-0.30040446,-2.661401,0.0081193745,2.0748298,1.1410967,0.03999979,0.04,0.016777472873386046,0.00659900335734237,-0.004657550107189934,0.03210364117100962,-0.022298316482115804,0.03504100833575617,0.9782410831977316,0.14228377158548072,0.07454731833673281,0.13131035304324437
2735.4666666738863,0.3024507,-0.81516916,-0.301011,-2.6620169,0.008136042,2.0758474,1.1418144,0.03999979,0.04,0.016154429540460313,0.0064201321686815915,-0.004600654726383269,0.03133314902233536,-0.022069695665190854,0.03424383400112433,0.9781527605231403,0.14258636233167932,0.07461305118626549,0.1316024276016778
2735.483333340553,0.30304596,-0.81523013,-0.301604,-2.6626194,0.008152346,2.0768425,1.1425152,0.039999783,0.04,0.01557511359864261,0.006575932488314673,-0.004800494905188302,0.030562755760914308,-0.02184462439534214,0.033448999183319714,0.9780662838223586,0.14288194554198172,0.07467699418057452,0.13188798515488126
2735.50000000722,0.30362767,-0.81528986,-0.30218336,-2.6632075,0.008168266,2.0778148,1.1432003,0.03999978,0.04,0.017275966387453323,0.006540760241049992,-0.004339323918389759,0.029797660897403436,-0.021621430242214572,0.03265518976208298,0.9779815810264066,0.14317090573478689,0.07473938572065732,0.13216710311673427
2735.516666673887,0.30419573,-0.8153482,-0.3027492,-2.6637821,0.008183786,2.0787642,1.1438692,0.039999776,0.04,0.01579524467201221,0.006579596078096217,-0.004837234249355227,0.02903451906816982,-0.021401272017711997,0.0318621240088568,0.9778987301005911,0.14345306581637365,0.07479987640104528,0.13243968463388434
2735.533333340554,0.30475014,-0.81540495,-0.30330154,-2.664343,0.008198964,2.079691,1.1445221,0.039999776,0.04,0.015603537485486818,0.006644365476453362,-0.004579798865345097,0.028274402927909097,-0.02118468850815837,0.03107468162504302,0.9778177147318798,0.14372859679147038,0.0748584681797442,0.13270575331409343
