rsonawane2002/My_IMU/logs_2/traj_498/imu_498.csv
time,j1,j2,j3,j4,j5,j6,j7,gripper1,gripper2,imu_ax,imu_ay,imu_az,imu_gx,imu_gy,imu_gz
2730.383333340488,0.00016700293,-0.785875,4.0107683e-05,-2.3551247,9.29385e-05,1.570997,0.786,0.04,0.04,-9.438165,-0.0012982335174456239,0.109819114,-3.241576e-09,-0.0011641276068985462,-7.392739e-08
2730.400000007155,0.00016701124,-0.78576016,4.010924e-05,-2.3552213,9.297417e-05,1.5709941,0.786,0.04,0.04,-9.834506,0.0006318319938145578,0.009075419,9.2234394e-08,-0.0022387139033526182,1.2208285e-06
2730.416666673822,0.00016705757,-0.7856543,4.0073304e-05,-2.35531,9.300805e-05,1.5709913,0.786,0.04,0.04,-9.832177,0.0006226112018339336,0.007675678,1.8913482e-06,-0.003229850670322776,3.2300486e-06
2730.433333340489,0.00016720378,-0.785557,3.993915e-05,-2.355391,9.30419e-05,1.5709884,0.786,0.04,0.04,-9.830613,0.0006027368945069611,0.006248912,7.3243245e-06,-0.004145073238760233,7.777845e-06
2730.4500000071557,0.00016753814,-0.7854673,3.9619666e-05,-2.3554654,9.307794e-05,1.5709856,0.786,0.04,0.04,-9.828817,0.0005774837918579578,0.005066936,1.7587621e-05,-0.004990593995898962,1.5979203e-05
2730.4666666738226,0.00016817266,-0.7853849,3.9004175e-05,-2.355533,9.311942e-05,1.570986,0.786,0.04,0.04,-9.827151,0.0005470618489198387,0.003998922,3.447189e-05,-0.005775596015155315,2.8835222e-05
2730.4833333404895,0.0001692407,-0.785309,3.7960694e-05,-2.3555982,9.316958e-05,1.5709869,0.7860019,0.04,0.04,-9.825133,0.0005089320475235581,0.0030473368,5.953846e-05,-0.006485730409622192,4.7232847e-05
2730.5000000071564,0.00017089455,-0.7852394,3.633816e-05,-2.3556569,9.323264e-05,1.5709878,0.7860038,0.04,0.04,-9.824341,0.0004697647818829864,0.002120954,8.614717e-05,-0.00716319028288126,7.201545e-05
2730.5166666738232,0.00017330362,-0.78517544,3.396844e-05,-2.355714,9.331382e-05,1.5709894,0.78600675,0.04,0.04,-9.822689,0.00042562431190162897,0.0013654423,0.00012470855,-0.007789401337504387,0.000103865816
2730.53333334049,0.0001766523,-0.78511655,3.0668358e-05,-2.3557653,9.3417046e-05,1.570994,0.78601056,0.04,0.04,-9.82175,0.0003916258574463427,0.0006873375,0.0001716633,-0.008391075767576694,0.0001434505
2730.550000007157,0.00018113856,-0.78506273,2.6241267e-05,-2.3558154,9.354749e-05,1.5709988,0.7860163,0.04,0.04,-9.820035,0.0003593257861211896,4.860037e-05,0.00022980581,-0.008938929997384548,0.00019132016
2730.566666673824,0.00018697209,-0.78501326,2.0478827e-05,-2.355863,9.37105e-05,1.5710074,0.7860235,0.04,0.04,-9.819283,0.00031877041328698397,-0.00048370752,0.00029591404,-0.009470920078456402,0.0002479976
2730.5833333404908,0.00019437289,-0.784968,1.3162019e-05,-2.355907,9.391179e-05,1.5710196,0.78603226,0.04,0.04,-9.818143,0.0002952464565169066,-0.0010234255,0.00037364181,-0.009968058206140995,0.00031390824
2730.6000000071576,0.00020357012,-0.78492653,4.0631935e-06,-2.35595,9.415794e-05,1.5710348,0.78604335,0.04,0.04,-9.816847,0.0002748193801380694,-0.0014481277,0.00046448671,-0.010427185334265232,0.00038943326
2730.6166666738245,0.00021480065,-0.7848888,-7.0533447e-06,-2.355993,9.445077e-05,1.5710524,0.7860567,0.04,0.04,-9.815857,0.0002757240436039865,-0.001765838,0.0005661094,-0.01086808554828167,0.00047434523
2730.6333333404914,0.00022830798,-0.7848545,-2.042985e-05,-2.356036,9.4800984e-05,1.571074,0.78607225,0.04,0.04,-9.815122,0.0002745708334259689,-0.0020330264,0.00068086525,-0.011297053657472134,0.0005698256
2730.6500000071583,0.0002443414,-0.78482324,-3.6314545e-05,-2.3560789,9.5218675e-05,1.5711004,0.78609115,0.04,0.04,-9.814284,0.00030152080580592155,-0.0022551962,0.00081029796,-0.011711153201758862,0.0006768982
2730.666666673825,0.0002631547,-0.7847949,-5.4960074e-05,-2.356122,9.570568e-05,1.5711318,0.7861132,0.04,0.04,-9.813379,0.0003422232693992555,-0.0024304378,0.0009510363,-0.01210867241024971,0.00079381774
2730.683333340492,0.0002850055,-0.7847694,-7.662309e-05,-2.356166,9.627961e-05,1.5711671,0.78613883,0.04,0.039999995,-9.812576,0.00039170985110104084,-0.0025638496,0.0011054766,-0.012490893714129925,0.00092235836
2730.700000007159,0.00031015475,-0.7847464,-0.00010156289,-2.356213,9.692496e-05,1.5712086,0.78616834,0.04,0.04,-9.811836,0.0004616458900272846,-0.002581333,0.0012727386,-0.012868509627878666,0.0010603298
2730.716666673826,0.0003388653,-0.7847257,-0.00013004159,-2.3562627,9.76603e-05,1.5712557,0.7862019,0.04,0.04,-9.811354,0.0005630862433463335,-0.0026072508,0.001453609,-0.013243854977190495,0.0012102268
2730.7333333404927,0.0003714018,-0.78470737,-0.00016232267,-2.3563132,9.8487864e-05,1.5713094,0.7862401,0.04,0.04,-9.810754,0.0006992248818278313,-0.0025703514,0.001648324,-0.013618282042443752,0.0013704768
2730.7500000071595,0.00040802977,-0.784691,-0.00019867078,-2.356366,9.942054e-05,1.5713701,0.7862831,0.039999995,0.039999995,-9.809913,0.0008424828993156552,-0.002494427,0.0018560488,-0.013979234732687473,0.0015436732
2730.7666666738264,0.00044901532,-0.7846767,-0.0002393508,-2.3564236,0.00010046345,1.5714381,0.7863312,0.03999999,0.03999999,-9.809252,0.0010215751826763153,-0.0023562321,0.0020773103,-0.014335652813315392,0.0017272729
2730.7833333404933,0.0004946246,-0.78466433,-0.00028462772,-2.3564825,0.000101623635,1.5715138,0.7863847,0.039999988,0.03999999,-9.808909,0.001231249887496233,-0.0021536816,0.0023121114,-0.014698941260576248,0.0019213057
2730.80000000716,0.00054512295,-0.78465384,-0.00033476617,-2.3565478,0.00010290942,1.5715976,0.78644395,0.039999984,0.039999984,-9.808085,0.0015078779542818666,-0.0019251973,0.002560471,-0.015050310641527176,0.0021283121
2730.816666673827,0.0006007747,-0.7846451,-0.0003900296,-2.3566144,0.000104326136,1.5716897,0.7865093,0.03999998,0.03999998,-9.807865,0.0017589728813618422,-0.0016013609,0.0028221144,-0.015414606779813766,0.002345707
2730.833333340494,0.00066184346,-0.78463817,-0.0004506802,-2.3566878,0.000105880994,1.5717913,0.786581,0.03999998,0.03999998,-9.806962,0.002080177888274193,-0.0012499188,0.0030973412,-0.015767041593790054,0.00257429
2730.850000007161,0.00072859036,-0.7846329,-0.0005169784,-2.356765,0.0001075809,1.571902,0.7866594,0.03999998,0.03999998,-9.80675,0.002438421593979001,-0.0008356611,0.0033856293,-0.016128987073898315,0.0028140256
2730.8666666738277,0.0008012746,-0.7846292,-0.00058918307,-2.3568468,0.00010943245,1.5720229,0.7867448,0.039999977,0.039999977,-9.80619,0.002864004112780094,-0.00039484212,0.0036867391,-0.016489747911691666,0.0030648261
2730.8833333404946,0.0008801535,-0.7846271,-0.00066755,-2.3569355,0.00011144249,1.5721544,0.7868375,0.03999997,0.03999997,-9.805609,0.003281786572188139,0.0001524965,0.0040012677,-0.01685018464922905,0.0033266142
2730.9000000071615,0.00096548145,-0.7846263,-0.00075233274,-2.3570313,0.000113617374,1.5722969,0.7869378,0.03999996,0.03999996,-9.805344,0.0037704878486692905,0.0007209887,0.004328147,-0.017218828201293945,0.0035993096
2730.9166666738283,0.0010575099,-0.784627,-0.00084378227,-2.3571298,0.00011596386,1.5724503,0.78704596,0.039999958,0.039999958,-9.805156,0.0043356530368328094,0.0013011211,0.004668249,-0.017596755176782608,0.0038828014
2730.933333340495,0.0011564876,-0.7846291,-0.0009421462,-2.3572357,0.00011848824,1.5726154,0.7871623,0.03999995,0.03999995,-9.804198,0.0048957709223032,0.0020247423,0.005020545,-0.017962530255317688,0.004176968
2730.950000007162,0.00126266,-0.78463244,-0.001047669,-2.3573487,0.000121197576,1.5727923,0.7872871,0.039999943,0.03999994,-9.80395,0.005536266602575779,0.002787563,0.0053853635,-0.018337495625019073,0.0044825715
2730.966666673829,0.0013762687,-0.7846372,-0.0011605918,-2.357469,0.00012409709,1.5729814,0.7874207,0.039999936,0.039999932,-9.803652,0.006219219882041216,0.0035917042,0.005762476,-0.01872173696756363,0.00479776
2730.983333340496,0.0014975514,-0.78464335,-0.001281152,-2.3575969,0.000127193,1.5731835,0.78756326,0.039999932,0.039999932,-9.803427,0.006994038354605436,0.0044359104,0.0061516864,-0.01911282166838646,0.0051224143
2731.0000000071627,0.0016267431,-0.7846508,-0.0014095833,-2.3577325,0.00013049277,1.5733988,0.78771514,0.039999925,0.03999992,-9.802956,0.007771131116896868,0.0054007936,0.006552769,-0.019508006051182747,0.005458971
2731.0166666738296,0.0017640741,-0.7846594,-0.0015461153,-2.357876,0.00013400121,1.573628,0.78787667,0.03999992,0.039999917,-9.80267,0.008630749769508839,0.006387138,0.0069655306,-0.01991039142012596,0.005804708
2731.0333333404965,0.0019097707,-0.78466934,-0.001690974,-2.3580272,0.000137724,1.5738709,0.78804797,0.03999992,0.03999992,-9.80234,0.00954377930611372,0.007421273,0.007389504,-0.02031782828271389,0.006159484
2731.0500000071634,0.0020640555,-0.7846807,-0.0018443807,-2.3581867,0.00014166796,1.5741284,0.7882293,0.03999992,0.03999992,-9.802076,0.010572176426649094,0.008496563,0.00782502,-0.02072909101843834,0.006524865
2731.0666666738302,0.0022271462,-0.7846932,-0.0020065533,-2.358354,0.00014583895,1.5744004,0.78842115,0.039999917,0.039999913,-9.801631,0.011586330831050873,0.009744244,0.008272181,-0.0211445614695549,0.0069007054
2731.083333340497,0.002399257,-0.78470683,-0.002177704,-2.3585305,0.00015024132,1.5746875,0.78862345,0.039999917,0.039999913,-9.801276,0.012695616111159325,0.010993789,0.008729127,-0.021565042436122894,0.007285131
2731.100000007164,0.0025805968,-0.78472185,-0.002358042,-2.3587165,0.00015488108,1.5749902,0.78883666,0.039999917,0.039999913,-9.800965,0.013874901458621025,0.01231244,0.009197584,-0.021990424022078514,0.0076788436
2731.116666673831,0.0027713708,-0.784738,-0.002547772,-2.358913,0.00015976363,1.5753084,0.789061,0.03999992,0.039999917,-9.8009,0.015164433978497982,0.0136609245,0.0096762655,-0.02242369018495083,0.008081703
2731.1333333404978,0.0029717798,-0.7847554,-0.0027470943,-2.3591182,0.00016489429,1.5756428,0.78929675,0.039999925,0.03999992,-9.800677,0.01644326187670231,0.015170807,0.010164962,-0.02286963351070881,0.008493552
2731.1500000071646,0.0031820189,-0.78477395,-0.0029562034,-2.3593328,0.00017027819,1.5759937,0.78954387,0.039999932,0.03999993,-9.800295,0.01783781126141548,0.01669362,0.010663233,-0.023317527025938034,0.008914201
2731.1666666738315,0.0034022792,-0.78479385,-0.003175291,-2.3595576,0.00017592026,1.5763613,0.7898029,0.039999943,0.03999994,-9.80013,0.01934170164167881,0.018220896,0.011172264,-0.023769155144691467,0.009343505
2731.1833333404984,0.003632748,-0.78481495,-0.003404541,-2.3597927,0.0001818256,1.576746,0.79007405,0.039999947,0.039999943,-9.799772,0.020841648802161217,0.019975988,0.0116902,-0.024226849898695946,0.00978131
2731.2000000071653,0.0038736062,-0.7848371,-0.0036441376,-2.3600378,0.0001879995,1.577148,0.79035735,0.03999995,0.039999943,-9.799546,0.022462986409664154,0.021715574,0.012216885,-0.024690916761755943,0.010228305
2731.216666673832,0.004125031,-0.78486073,-0.0038942553,-2.3602936,0.00019444534,1.5775673,0.79065305,0.03999995,0.039999943,-9.799263,0.024152185767889023,0.023522254,0.012753191,-0.02515891194343567,0.0106826015
2731.233333340499,0.0043871957,-0.78488547,-0.0041550677,-2.3605604,0.0002011684,1.5780047,0.79096144,0.039999954,0.039999947,-9.799232,0.025973666459321976,0.025380068,0.013298146,-0.025634601712226868,0.011144919
2731.250000007166,0.004660269,-0.78491145,-0.004426742,-2.360838,0.00020817289,1.5784605,0.79128265,0.039999954,0.039999947,-9.7988825,0.02778242714703083,0.027408488,0.01385154,-0.026116378605365753,0.011615075
2731.266666673833,0.004944412,-0.7849388,-0.004709439,-2.361126,0.00021546334,1.5789346,0.79161686,0.039999954,0.039999947,-9.79863,0.029723143205046654,0.02946466,0.014413482,-0.026601212099194527,0.012092927
2731.2833333404997,0.0052397843,-0.7849671,-0.0050033173,-2.361426,0.00022304378,1.5794278,0.79196435,0.039999954,0.039999947,-9.798342,0.0317460298538208,0.03160932,0.014983795,-0.027088526636362076,0.012578262
2731.3000000071665,0.0055465368,-0.78499687,-0.005308528,-2.361737,0.00023091835,1.5799396,0.7923251,0.039999958,0.03999995,-9.798427,0.03389621526002884,0.033712886,0.015561454,-0.027583645656704903,0.013070971
2731.3166666738334,0.00586482,-0.78502804,-0.0056252237,-2.3620603,0.00023909088,1.580471,0.79269934,0.039999954,0.039999947,-9.797966,0.036039937287569046,0.036104262,0.016147397,-0.02808147855103016,0.013570898
2731.3333333405003,0.0061947783,-0.7850603,-0.0059535466,-2.3623943,0.00024756533,1.5810219,0.7930875,0.03999995,0.039999943,-9.797845,0.038324326276779175,0.038482085,0.016741134,-0.028585102409124374,0.0140778385
2731.350000007167,0.0065365476,-0.7850939,-0.0062936344,-2.3627408,0.00025634532,1.5815923,0.7934895,0.03999995,0.039999943,-9.797566,0.040694739669561386,0.040916674,0.017341426,-0.029089950025081635,0.0145916445
2731.366666673834,0.0068902657,-0.7851289,-0.0066456217,-2.3630993,0.00026543508,1.5821829,0.7939056,0.039999954,0.039999943,-9.797598,0.04321020469069481,0.04339673,0.01794858,-0.029601173475384712,0.01511307
2731.383333340501,0.007256062,-0.78516495,-0.007009637,-2.3634696,0.00027483684,1.5827934,0.79433596,0.039999958,0.039999947,-9.797248,0.045705657452344894,0.046096057,0.018562758,-0.03011525794863701,0.015640156
2731.400000007168,0.00763406,-0.78520244,-0.007385805,-2.3638523,0.0002845545,1.5834243,0.7947807,0.03999996,0.03999995,-9.797034,0.048345379531383514,0.04879033,0.019182917,-0.03063349239528179,0.016173659
2731.4166666738347,0.0080243815,-0.78524125,-0.007774246,-2.3642476,0.0002945913,1.5840759,0.7952399,0.039999966,0.039999954,-9.79704,0.05113464966416359,0.051508483,0.019809715,-0.031154179945588112,0.016713407
2731.4333333405016,0.00842714,-0.7852813,-0.008175075,-2.3646548,0.00030495023,1.5847483,0.79571384,0.039999966,0.039999954,-9.796686,0.053921040147542953,0.054451995,0.020442156,-0.031677793711423874,0.017259233
2731.4500000071685,0.00884245,-0.7853229,-0.008588404,-2.365075,0.00031563424,1.5854415,0.79620236,0.03999997,0.039999958,-9.796463,0.056848298758268356,0.05740913,0.02108031,-0.03220348432660103,0.017810995
2731.4666666738353,0.009270411,-0.7853657,-0.009014337,-2.365509,0.00032664646,1.5861558,0.7967058,0.039999977,0.039999966,-9.796323,0.05987536534667015,0.060474306,0.021724835,-0.03273189067840576,0.018368524
2731.483333340502,0.009711129,-0.7854098,-0.009452977,-2.365955,0.00033798956,1.5868912,0.7972243,0.039999973,0.03999996,-9.796466,0.06304614990949631,0.06352059,0.022374984,-0.033268045634031296,0.018931745
2731.500000007169,0.010164703,-0.7854552,-0.009904417,-2.3664136,0.00034966593,1.5876483,0.79775786,0.039999977,0.039999966,-9.796004,0.06622280925512314,0.06680565,0.023029748,-0.03380359709262848,0.019500399
2731.516666673836,0.010631221,-0.7855019,-0.010368753,-2.3668857,0.0003616781,1.5884271,0.79830676,0.03999998,0.03999997,-9.795769,0.06954099982976913,0.070097595,0.02368983,-0.03433799371123314,0.020074373
2731.533333340503,0.011110774,-0.78554994,-0.010846076,-2.3673708,0.00037402866,1.5892276,0.79887104,0.039999973,0.03999996,-9.795692,0.07296405732631683,0.07347737,0.024354165,-0.034876499325037,0.020653522
2731.5500000071697,0.011603445,-0.78559947,-0.011336459,-2.3678691,0.0003867198,1.5900501,0.79945076,0.039999977,0.039999966,-9.795718,0.07653980702161789,0.076875,0.025022844,-0.03541674464941025,0.021237683
2731.5666666738366,0.012109306,-0.78565043,-0.011839991,-2.3683808,0.000399754,1.5908945,0.80004597,0.03999998,0.039999966,-9.795317,0.08012746274471283,0.08052003,0.025695996,-0.035956550389528275,0.02182758
2731.5833333405035,0.01262844,-0.7857025,-0.012356743,-2.3689055,0.0004131323,1.5917611,0.80065674,0.039999988,0.039999977,-9.795176,0.08384712785482407,0.084184475,0.026373139,-0.03649847209453583,0.022420475
2731.6000000071704,0.01316091,-0.7857562,-0.012886783,-2.3694444,0.00042685805,1.5926499,0.80128324,0.039999988,0.039999973,-9.794963,0.08769669383764267,0.08788894,0.027054638,-0.03703919053077698,0.023019662
2731.6166666738372,0.013706785,-0.78581107,-0.013430174,-2.3699968,0.0004409314,1.5935612,0.80192554,0.03999999,0.03999998,-9.795075,0.09167768806219101,0.091653384,0.027739476,-0.03758332133293152,0.02362153
2731.633333340504,0.014266125,-0.7858674,-0.013986979,-2.3705626,0.0004553559,1.5944949,0.8025836,0.039999995,0.03999998,-9.794754,0.0956903025507927,0.09562778,0.028427748,-0.038129549473524094,0.024229487
2731.650000007171,0.014838988,-0.7859253,-0.0145572545,-2.371142,0.00047013038,1.5954514,0.8032576,0.039999988,0.039999977,-9.794518,0.09983396530151367,0.09962725,0.029119892,-0.03867333382368088,0.024839798
2731.666666673838,0.015425424,-0.78598446,-0.015141052,-2.3717349,0.00048526,1.5964303,0.80394775,0.039999984,0.03999997,-9.7945385,0.10416176915168762,0.103646114,0.029814793,-0.03921564668416977,0.025455842
2731.6833333405048,0.01602548,-0.78604496,-0.015738422,-2.3723412,0.0005007442,1.597432,0.8046536,0.03999999,0.039999977,-9.794164,0.10848120599985123,0.10788618,0.030511757,-0.03975822404026985,0.026074855
2731.7000000071716,0.016639212,-0.7861069,-0.016349407,-2.3729615,0.00051658385,1.5984567,0.8053756,0.039999995,0.03999998,-9.793942,0.11296819150447845,0.11213452,0.03121309,-0.040298327803611755,0.026697515
2731.7166666738385,0.017266642,-0.7861703,-0.016974041,-2.3735962,0.00053277996,1.5995044,0.8061139,0.039999988,0.039999973,-9.793763,0.11756137758493423,0.11648503,0.031916447,-0.0408368781208992,0.027323721
2731.7333333405054,0.017907813,-0.7862349,-0.017612368,-2.3742447,0.0005493354,1.6005749,0.80686843,0.03999999,0.039999977,-9.793891,0.12231370806694031,0.12084015,0.03262125,-0.041377123445272446,0.027953424
2731.7500000071723,0.018562758,-0.786301,-0.018264413,-2.3749073,0.00056624936,1.6016684,0.807639,0.04,0.039999984,-9.793509,0.1270836889743805,0.12542939,0.033327628,-0.041917502880096436,0.02858645
2731.766666673839,0.019231496,-0.78636867,-0.0189302,-2.3755834,0.000583523,1.6027852,0.80842584,0.04,0.039999984,-9.793334,0.13201135396957397,0.13002132,0.034037102,-0.04245565086603165,0.029222496
2731.783333340506,0.019914055,-0.78643775,-0.019609762,-2.3762736,0.0006011571,1.6039249,0.809229,0.039999995,0.03999998,-9.793098,0.13705778121948242,0.13471624,0.034747873,-0.042989086359739304,0.029861748
2731.800000007173,0.02061045,-0.78650796,-0.020303113,-2.3769777,0.0006191526,1.6050875,0.8100485,0.039999995,0.03999998,-9.793105,0.14225736260414124,0.13940844,0.035459846,-0.04352085664868355,0.030503364
2731.81666667384,0.021320697,-0.78657967,-0.021010267,-2.377696,0.0006375112,1.6062733,0.81088424,0.04,0.039999984,-9.79275,0.14748583734035492,0.14433214,0.03617288,-0.044053513556718826,0.03114814
2731.8333333405067,0.022044819,-0.786653,-0.021731237,-2.3784285,0.00065623125,1.6074826,0.8117363,0.04,0.039999988,-9.792558,0.15287268161773682,0.1492651,0.0368874,-0.04458345100283623,0.031795293
2731.8500000071735,0.022782806,-0.7867277,-0.022466026,-2.3791747,0.0006753128,1.6087147,0.8126047,0.04,0.039999984,-9.792316,0.15837135910987854,0.15429246,0.037602797,-0.045107800513505936,0.03244475
2731.8666666738404,0.02353467,-0.7868037,-0.023214633,-2.379935,0.00069475913,1.6099701,0.81348956,0.04,0.03999999,-9.792335,0.16403475403785706,0.15932831,0.03831891,-0.045630618929862976,0.03309677
2731.8833333405073,0.024300408,-0.7868811,-0.023977071,-2.3807094,0.0007145681,1.6112486,0.81439066,0.04,0.039999984,-9.791913,0.16972406208515167,0.1645703,0.039035093,-0.04615068808197975,0.033750862
2731.900000007174,0.025080014,-0.78696007,-0.024753321,-2.3814976,0.00073473935,1.6125503,0.815308,0.04,0.03999999,-9.791721,0.1755770891904831,0.16983362,0.039751694,-0.046668730676174164,0.03440693
2731.916666673841,0.02587348,-0.78704035,-0.025543377,-2.3823001,0.00075527385,1.613875,0.81624156,0.04,0.039999984,-9.791659,0.18158036470413208,0.17510009,0.040469397,-0.047180671244859695,0.03506481
2731.933333340508,0.026680788,-0.787122,-0.026347233,-2.3831167,0.0007761701,1.615223,0.81719154,0.04,0.04,-9.791249,0.18762879073619843,0.1806011,0.04118719,-0.04769072309136391,0.03572494
2731.950000007175,0.027501924,-0.78720516,-0.027164869,-2.3839467,0.000797429,1.6165942,0.81815773,0.04,0.03999999,-9.7910185,0.19383133947849274,0.18608788,0.041904185,-0.048196498304605484,0.036386073
2731.9666666738417,0.028336871,-0.7872895,-0.027996263,-2.3847904,0.00081905175,1.6179883,0.8191402,0.039999995,0.039999977,-9.790706,0.20015737414360046,0.19167398,0.042621113,-0.048695918172597885,0.037048742
2731.9833333405086,0.029185606,-0.7873753,-0.028841395,-2.385649,0.0008410352,1.6194056,0.82013893,0.04,0.03999998,-9.790643,0.20663660764694214,0.19723858,0.043337747,-0.04919023439288139,0.037713014
2732.0000000071755,0.030048097,-0.78746253,-0.029700233,-2.3865216,0.0008633798,1.6208462,0.8211539,0.04,0.03999998,-9.790301,0.2131560891866684,0.20304479,0.044053353,-0.04968436434864998,0.038377944
2732.0166666738423,0.030924309,-0.7875513,-0.03057275,-2.3874075,0.00088608474,1.6223098,0.82218504,0.04,0.03999998,-9.789998,0.21984264254570007,0.20883863,0.044768006,-0.0501718632876873,0.039044093
2732.033333340509,0.031814214,-0.78764135,-0.03145891,-2.3883076,0.00090914976,1.6237965,0.8232323,0.04,0.03999998,-9.789673,0.22664539515972137,0.2147197,0.04548122,-0.05065172538161278,0.03971106
2732.050000007176,0.032717783,-0.78773284,-0.03235868,-2.3892212,0.0009325739,1.6253062,0.82429564,0.04,0.03999998,-9.789608,0.2335972785949707,0.22058848,0.04619364,-0.05112602189183235,0.040378526
2732.066666673843,0.03363496,-0.7878256,-0.033272002,-2.3901484,0.00095635647,1.6268374,0.8253749,0.03999999,0.039999973,-9.789042,0.24060851335525513,0.22667852,0.046904553,-0.05159220099449158,0.04104648
2732.08333334051,0.03456571,-0.78791976,-0.034198854,-2.3910897,0.0009804949,1.6283911,0.82647,0.04,0.03999998,-9.788767,0.24777370691299438,0.23279862,0.0476142,-0.05205952748656273,0.04171555
2732.1000000071767,0.035509977,-0.78801537,-0.03513917,-2.3920443,0.0010049904,1.6299678,0.82758117,0.04,0.039999984,-9.788511,0.2550560534000397,0.2389657,0.048322976,-0.05252351239323616,0.042384967
2732.1166666738436,0.036467712,-0.7881124,-0.036092922,-2.3930128,0.001029841,1.6315669,0.8287081,0.039999995,0.039999977,-9.788314,0.26248636841773987,0.24510251,0.04902932,-0.05297699198126793,0.04305373
2732.1333333405105,0.037438866,-0.78821075,-0.037060034,-2.393995,0.0010550454,1.6331882,0.8298509,0.039999988,0.03999997,-9.787809,0.2699883282184601,0.25147042,0.049733724,-0.05342664569616318,0.043722797
2732.1500000071774,0.038423363,-0.7883104,-0.038040448,-2.3949902,0.0010806022,1.6348323,0.8310095,0.03999999,0.03999997,-9.787455,0.27764129638671875,0.25782597,0.050435916,-0.05387014523148537,0.044393096
2732.1666666738442,0.039421145,-0.78841144,-0.0390341,-2.3959992,0.0011065081,1.6364983,0.8321838,0.04,0.03999998,-9.78727,0.28542327880859375,0.2641607,0.051135335,-0.05430516600608826,0.04506086
2732.183333340511,0.04043216,-0.7885139,-0.04004094,-2.3970213,0.0011327639,1.6381867,0.83337367,0.039999995,0.039999977,-9.786687,0.2932932376861572,0.27071616,0.051831927,-0.05473453179001808,0.045729157
2732.200000007178,0.04145633,-0.7886176,-0.041060884,-2.3980572,0.0011593681,1.6398969,0.834579,0.039999995,0.039999977,-9.786269,0.30130910873413086,0.27725816,0.05252589,-0.055155348032712936,0.04639734
2732.216666673845,0.042493597,-0.78872263,-0.042093866,-2.3991063,0.0011863179,1.641629,0.8357997,0.04,0.039999984,-9.78594,0.30943572521209717,0.28386256,0.053217202,-0.05557261407375336,0.047064096
2732.2333333405118,0.04354388,-0.7888291,-0.04313983,-2.4001682,0.0012136123,1.6433828,0.8370357,0.04,0.039999977,-9.785717,0.3177228569984436,0.29044986,0.05390605,-0.05598190054297447,0.047731195
2732.2500000071786,0.044607088,-0.7889368,-0.044198677,-2.4012437,0.0012412503,1.6451582,0.838287,0.039999995,0.039999977,-9.785022,0.3260735869407654,0.2972329,0.054591507,-0.056382253766059875,0.048396096
2732.2666666738455,0.045683146,-0.7890458,-0.045270324,-2.4023323,0.0012692278,1.6469547,0.8395535,0.04,0.039999984,-9.784667,0.33457472920417786,0.3040006,0.05527337,-0.056778378784656525,0.049059764
2732.2833333405124,0.04677198,-0.7891561,-0.04635472,-2.4034343,0.0012975433,1.6487727,0.8408349,0.04,0.039999988,-9.784236,0.34319305419921875,0.3108323,0.055951826,-0.057169996201992035,0.049722698
2732.3000000071793,0.04787351,-0.7892677,-0.04745174,-2.4045484,0.001326198,1.6506122,0.8421312,0.03999999,0.039999973,-9.784014,0.3519609272480011,0.31762928,0.056626894,-0.05755375698208809,0.0503848
2732.316666673846,0.048987627,-0.7893806,-0.048561312,-2.405675,0.0013551868,1.6524726,0.8434424,0.04,0.039999988,-9.783207,0.3607896864414215,0.32460406,0.057298902,-0.057925719767808914,0.051043287
2732.333333340513,0.050114233,-0.78949445,-0.049683344,-2.4068143,0.0013845079,1.654354,0.8447682,0.04,0.039999977,-9.782647,0.3697880804538727,0.33157277,0.05796677,-0.05828862264752388,0.051702973
2732.35000000718,0.05125325,-0.78960985,-0.050817728,-2.4079657,0.001414158,1.6562562,0.84610873,0.04,0.039999984,-9.782211,0.3788788616657257,0.33857554,0.05863069,-0.05864644795656204,0.052358933
2732.366666673847,0.05240458,-0.78972656,-0.051964395,-2.4091299,0.0014441357,1.6581789,0.8474637,0.04,0.039999988,-9.781754,0.38812074065208435,0.34560034,0.059290364,-0.05899081006646156,0.05301234
2732.3833333405137,0.053568117,-0.7898444,-0.053123206,-2.4103067,0.0014744396,1.6601219,0.8488331,0.04,0.039999995,-9.781026,0.39745739102363586,0.35277906,0.05994598,-0.05932861194014549,0.05366414
2732.4000000071806,0.054743763,-0.7899633,-0.0542941,-2.4114952,0.0015050661,1.662085,0.8502168,0.04,0.04,-9.780512,0.4069201946258545,0.35993016,0.060596935,-0.0596604123711586,0.0543138
2732.4166666738474,0.055931397,-0.79008377,-0.055476937,-2.4126966,0.0015360119,1.6640686,0.8516144,0.04,0.03999999,-9.780062,0.4165133237838745,0.36706156,0.06124308,-0.0599823072552681,0.054960527
2732.4333333405143,0.057130918,-0.7902054,-0.056671627,-2.4139097,0.0015672785,1.6660718,0.8530262,0.04,0.04,-9.779343,0.42621490359306335,0.37436354,0.06188567,-0.06029723584651947,0.055605613
2732.450000007181,0.058342215,-0.790328,-0.05787804,-2.4151351,0.0015988566,1.6680944,0.8544518,0.04,0.04,-9.778619,0.43602651357650757,0.38163987,0.06252236,-0.06060115247964859,0.056246053
2732.466666673848,0.05956517,-0.7904519,-0.05909608,-2.416372,0.0016307484,1.6701369,0.8558909,0.04,0.04,-9.778095,0.44597312808036804,0.38893452,0.06315489,-0.060901939868927,0.056885093
2732.483333340515,0.06079968,-0.790577,-0.060325626,-2.4176204,0.0016629498,1.6721985,0.8573441,0.04,0.04,-9.77757,0.4560410678386688,0.39622176,0.06378262,-0.0611896812915802,0.05752071
2732.500000007182,0.062045608,-0.7907032,-0.061566554,-2.4188807,0.0016954582,1.6742795,0.85881084,0.04,0.04,-9.776637,0.46621087193489075,0.40363652,0.06440369,-0.06146777793765068,0.05815296
2732.5166666738487,0.063302845,-0.79083043,-0.06281876,-2.4201515,0.0017282694,1.676379,0.860291,0.04,0.04,-9.775979,0.47650545835494995,0.41103658,0.065018356,-0.06173843890428543,0.058781676
2732.5333333405156,0.06457128,-0.79095906,-0.0640821,-2.4214344,0.0017613823,1.6784971,0.86178356,0.04,0.04,-9.775122,0.48691850900650024,0.41844922,0.065627486,-0.06199602037668228,0.059407443
2732.5500000071825,0.06585074,-0.79108864,-0.06535644,-2.4227276,0.0017947884,1.6806338,0.86328924,0.04,0.04,-9.774684,0.49738937616348267,0.42590708,0.0662344,-0.062249425798654556,0.06001827
2732.5666666738493,0.06714114,-0.7912196,-0.06664169,-2.424033,0.0018284979,1.6827887,0.8648082,0.04,0.04,-9.773597,0.5081425905227661,0.4333934,0.066835195,-0.062487754970788956,0.060646083
2732.583333340516,0.06844233,-0.7913516,-0.06793767,-2.4253488,0.0018624929,1.6849617,0.86633956,0.04,0.04,-9.772923,0.5188490748405457,0.4409297,0.06742825,-0.06272144615650177,0.061259646
2732.600000007183,0.06975417,-0.7914846,-0.06924429,-2.426676,0.0018967778,1.6871525,0.86788344,0.04,0.04,-9.772073,0.5297247171401978,0.44844186,0.06801683,-0.06294421851634979,0.06187025
2732.61666667385,0.07107654,-0.7916187,-0.07056139,-2.4280133,0.0019313431,1.6893607,0.8694399,0.04,0.04,-9.771522,0.54066002368927,0.45595607,0.06859934,-0.06316129863262177,0.06246755
2732.633333340517,0.0724093,-0.79175395,-0.07188884,-2.429361,0.001966196,1.6915861,0.87100834,0.04,0.04,-9.770373,0.551841676235199,0.46353722,0.06917471,-0.06336557865142822,0.06307524
2732.6500000071837,0.0737523,-0.7918901,-0.073226534,-2.4307194,0.0020013219,1.693829,0.872589,0.04,0.04,-9.769497,0.5630102157592773,0.47111854,0.06974505,-0.06356121599674225,0.063671015
2732.6666666738506,0.0751054,-0.7920273,-0.07457426,-2.4320874,0.0020367221,1.696089,0.87418145,0.04,0.04,-9.768804,0.5743334889411926,0.47866452,0.07030801,-0.06374691426753998,0.064262
2732.6833333405175,0.07646846,-0.7921655,-0.075931914,-2.4334662,0.0020723923,1.6983653,0.87578577,0.04,0.04,-9.767625,0.5857229828834534,0.4862796,0.07086509,-0.0639202669262886,0.06484038
2732.7000000071844,0.07784132,-0.7923048,-0.07729934,-2.434855,0.0021083327,1.700658,0.8774016,0.04,0.04,-9.766788,0.5973087549209595,0.49390733,0.07141492,-0.06408831477165222,0.06542105
2732.7166666738513,0.07922384,-0.79244494,-0.0786764,-2.4362528,0.002144539,1.702967,0.87902886,0.04,0.04,-9.765777,0.6090137362480164,0.5015245,0.07195783,-0.06424574553966522,0.06600566
2732.733333340518,0.080615886,-0.79258627,-0.08006294,-2.4376607,0.002181002,1.7052919,0.8806673,0.04,0.04,-9.764897,0.6207213997840881,0.5091114,0.07249408,-0.06439045071601868,0.06657755
2732.750000007185,0.08201728,-0.7927283,-0.081458814,-2.439078,0.0022177165,1.7076322,0.88231677,0.04,0.04,-9.763704,0.6325294971466064,0.51677704,0.073022924,-0.0645269975066185,0.067131035
2732.766666673852,0.08342787,-0.7928714,-0.082863845,-2.4405046,0.0022546921,1.7099878,0.88397706,0.04,0.04,-9.762706,0.644620418548584,0.5243895,0.07354482,-0.06465505808591843,0.06770026
2732.7833333405188,0.08484755,-0.79301536,-0.084277876,-2.4419403,0.0022919097,1.7123587,0.8856479,0.04,0.04,-9.761582,0.6566473841667175,0.53201765,0.07405945,-0.06477220356464386,0.06825367
2732.8000000071856,0.08627608,-0.7931602,-0.08570079,-2.4433856,0.0023293726,1.7147446,0.88732934,0.04,0.04,-9.760678,0.6688156723976135,0.5396286,0.074567586,-0.06488008797168732,0.06880254
2732.8166666738525,0.08771334,-0.79330605,-0.08713239,-2.444839,0.0023670723,1.717145,0.88902086,0.04,0.04,-9.759457,0.681042492389679,0.5472721,0.075067244,-0.06498098373413086,0.06933095
2732.8333333405194,0.08915915,-0.79345256,-0.08857255,-2.4463012,0.0024050197,1.7195596,0.8907227,0.04,0.04,-9.758218,0.6935690641403198,0.5548756,0.0755606,-0.06506761908531189,0.069878474
2732.8500000071863,0.09061337,-0.7936001,-0.09002106,-2.4477718,0.0024431914,1.7219882,0.89243424,0.04,0.04,-9.757078,0.7059940695762634,0.5624771,0.076044776,-0.06514746695756912,0.070407614
2732.866666673853,0.09207586,-0.79374844,-0.091477774,-2.4492514,0.0024815907,1.7244306,0.89415544,0.04,0.04,-9.755988,0.7185119390487671,0.5700841,0.07652245,-0.06521578878164291,0.0709195
2732.88333334052,0.093546405,-0.79389775,-0.09294253,-2.4507391,0.002520218,1.7268865,0.8958862,0.04,0.04,-9.754677,0.7312598824501038,0.5776779,0.076992236,-0.06527725607156754,0.07143341
2732.900000007187,0.09502487,-0.7940478,-0.09441519,-2.4522345,0.0025590651,1.7293556,0.89762634,0.04,0.04,-9.753433,0.744044303894043,0.5852596,0.07745405,-0.06532853841781616,0.071940236
2732.916666673854,0.09651106,-0.7941985,-0.095895536,-2.453738,0.0025981264,1.7318377,0.8993757,0.04,0.04,-9.7522545,0.7568905353546143,0.5928098,0.07790719,-0.06536887586116791,0.07243598
2732.9333333405207,0.098004825,-0.79435015,-0.09738343,-2.455249,0.0026374024,1.7343323,0.9011339,0.04,0.04,-9.750825,0.7699281573295593,0.60033214,0.07835161,-0.06540004163980484,0.07293268
2732.9500000071876,0.09950597,-0.7945025,-0.0988787,-2.4567676,0.0026768832,1.7368397,0.90290093,0.04,0.04,-9.749511,0.7829718589782715,0.6078744,0.07878815,-0.06542307883501053,0.07341816
2732.9666666738544,0.10101432,-0.79465556,-0.10038111,-2.4582934,0.0027165685,1.739359,0.9046763,0.04,0.04,-9.748096,0.7961585521697998,0.6153514,0.07921558,-0.06543274968862534,0.07389982
2732.9833333405213,0.10252972,-0.7948094,-0.10189055,-2.4598262,0.0027564524,1.7418902,0.90646,0.04,0.04,-9.746878,0.8093931078910828,0.62285167,0.07963582,-0.06543413549661636,0.074375175
2733.000000007188,0.10405198,-0.79496384,-0.103406824,-2.4613655,0.0027965265,1.7444326,0.90825176,0.04,0.04,-9.745294,0.8227086663246155,0.63029265,0.08004704,-0.06542564928531647,0.07483364
2733.016666673855,0.10558091,-0.795119,-0.104929775,-2.4629116,0.0028367923,1.7469862,0.9100514,0.04,0.04,-9.743784,0.8361872434616089,0.6377149,0.08044962,-0.06540568172931671,0.075293
2733.033333340522,0.10711635,-0.7952747,-0.106459185,-2.4644647,0.0028772405,1.7495507,0.91185874,0.04,0.04,-9.742325,0.8496867418289185,0.6451186,0.080843225,-0.06537698209285736,0.075740404
2733.050000007189,0.10865811,-0.7954312,-0.10799494,-2.4660242,0.0029178692,1.7521259,0.91367346,0.04,0.04,-9.741005,0.8632405400276184,0.6525016,0.081227854,-0.06534050405025482,0.07617508
2733.0666666738557,0.11020599,-0.79558843,-0.10953677,-2.4675896,0.002958676,1.7547112,0.9154954,0.04,0.04,-9.739345,0.8770253658294678,0.65983737,0.081604026,-0.06529370695352554,0.07661501
2733.0833333405226,0.11175986,-0.795746,-0.111084536,-2.4691617,0.0029996492,1.7573063,0.9173243,0.04,0.04,-9.737751,0.8907119035720825,0.66714954,0.081970714,-0.06523744761943817,0.07702968
2733.1000000071895,0.1133195,-0.79590434,-0.112638064,-2.4707384,0.0030407908,1.7599113,0.91916025,0.04,0.04,-9.73626,0.9046069979667664,0.6744261,0.082328945,-0.06517531722784042,0.077445306
2733.1166666738563,0.11488471,-0.7960634,-0.11419714,-2.472322,0.0030820938,1.7625254,0.9210026,0.04,0.04,-9.7346115,0.9185150265693665,0.68166894,0.08267706,-0.06509807705879211,0.07785353
2733.133333340523,0.11645533,-0.79622287,-0.1157616,-2.4739103,0.0031235542,1.7651489,0.92285144,0.04,0.04,-9.732982,0.9324953556060791,0.68889785,0.08301616,-0.06501754373311996,0.07824073
2733.15000000719,0.11803116,-0.7963828,-0.117331244,-2.4755032,0.0031651643,1.7677805,0.9247064,0.04,0.04,-9.731233,0.9466322064399719,0.69601434,0.083345756,-0.06492306292057037,0.0786322
2733.166666673857,0.119612,-0.79654324,-0.118905894,-2.477103,0.0032069231,1.7704208,0.92656726,0.04,0.04,-9.7295685,0.9607290029525757,0.7031568,0.083665624,-0.06481923907995224,0.07900677
2733.183333340524,0.121197686,-0.7967043,-0.12048537,-2.4787066,0.003248826,1.773069,0.9284337,0.04,0.04,-9.727954,0.9750065803527832,0.71024305,0.08397616,-0.0647139921784401,0.07937538
2733.2000000071907,0.122788,-0.79686594,-0.122069456,-2.480315,0.0032908623,1.7757251,0.9303056,0.04,0.04,-9.726084,0.9893178343772888,0.7172651,0.08427755,-0.06459573656320572,0.0797367
2733.2166666738576,0.124382734,-0.7970278,-0.12365797,-2.4819272,0.0033330296,1.7783889,0.9321828,0.04,0.04,-9.724249,1.0036983489990234,0.72424257,0.084569514,-0.06446614861488342,0.08009015
2733.2333333405245,0.12598175,-0.7971902,-0.12525073,-2.4835439,0.00337533,1.7810596,0.934065,0.04,0.04,-9.722525,1.0180697441101074,0.73120326,0.084851004,-0.06432768702507019,0.08042756
2733.2500000071914,0.12758479,-0.79735297,-0.12684752,-2.4851646,0.0034177534,1.7837373,0.935952,0.04,0.04,-9.720573,1.0326155424118042,0.73806125,0.085122935,-0.0641801506280899,0.08075823
2733.2666666738583,0.12919173,-0.79751605,-0.12844816,-2.4867895,0.0034602839,1.7864212,0.9378434,0.04,0.04,-9.718685,1.0472004413604736,0.74490577,0.0853848,-0.06402263045310974,0.08108228
2733.283333340525,0.13080233,-0.79767954,-0.13005246,-2.488418,0.0035029412,1.7891113,0.9397393,0.04,0.04,-9.716874,1.0618093013763428,0.75171477,0.085637435,-0.06386163085699081,0.08139206
2733.300000007192,0.13241646,-0.7978434,-0.13166028,-2.4900503,0.0035456938,1.7918073,0.9416393,0.04,0.04,-9.715016,1.0764833688735962,0.7584838,0.08587931,-0.06369047611951828,0.08169494
2733.316666673859,0.13403383,-0.79800785,-0.13327135,-2.4916859,0.0035885575,1.7945088,0.94354326,0.04,0.04,-9.713,1.0912564992904663,0.765129,0.08611083,-0.06351198256015778,0.08198619
2733.3333333405258,0.1356543,-0.79817253,-0.13488549,-2.4933252,0.0036315247,1.7972155,0.94545066,0.04,0.04,-9.710982,1.1060831546783447,0.7717656,0.08633167,-0.06332366168498993,0.08227067
2733.3500000071926,0.13727766,-0.7983374,-0.13650247,-2.4949675,0.003674558,1.7999266,0.94736165,0.04,0.04,-9.709096,1.120914101600647,0.7783502,0.086543135,-0.06313180178403854,0.082540385
2733.3666666738595,0.13890368,-0.79850256,-0.1381221,-2.4966123,0.0037176996,1.8026423,0.94927573,0.04,0.04,-9.707148,1.1358040571212769,0.78489673,0.086743504,-0.06293333321809769,0.08280254
2733.3833333405264,0.14053221,-0.7986681,-0.13974422,-2.4982598,0.0037609192,1.8053625,0.9511926,0.04,0.04,-9.704995,1.150789499282837,0.7912955,0.086933866,-0.06272665411233902,0.083054215
2733.4000000071933,0.14216302,-0.79883385,-0.14136866,-2.499909,0.0038042166,1.8080863,0.9531124,0.04,0.04,-9.702903,1.1658109426498413,0.7976762,0.08711433,-0.06251086294651031,0.08329595
2733.41666667386,0.14379592,-0.7989997,-0.14299518,-2.5015604,0.003847587,1.8108138,0.9550347,0.04,0.04,-9.70082,1.1808300018310547,0.80405134,0.08728327,-0.06228712946176529,0.083526865
2733.433333340527,0.14543068,-0.7991657,-0.14462358,-2.5032141,0.0038910338,1.8135444,0.956959,0.04,0.04,-9.698595,1.195968508720398,0.8102477,0.08744154,-0.062054894864559174,0.08374777
2733.450000007194,0.1470672,-0.799332,-0.14625368,-2.5048695,0.003934552,1.8162779,0.9588853,0.04,0.04,-9.696525,1.211114525794983,0.8164529,0.08758971,-0.06181875988841057,0.08395752
2733.466666673861,0.14870511,-0.79949844,-0.1478852,-2.5065258,0.0039781164,1.8190138,0.9608134,0.04,0.04,-9.694285,1.2262930870056152,0.8225919,0.08772769,-0.061574093997478485,0.084156185
2733.4833333405277,0.15034434,-0.799665,-0.14951806,-2.508184,0.0040217456,1.8217516,0.9627431,0.04,0.04,-9.692051,1.2414783239364624,0.8286976,0.08785424,-0.061320096254348755,0.08434358
2733.5000000071946,0.15198463,-0.7998316,-0.15115197,-2.5098433,0.004065422,1.8244917,0.96467406,0.04,0.04,-9.689838,1.2567758560180664,0.83465743,0.0879696,-0.06106339022517204,0.08452059
2733.5166666738614,0.15362586,-0.7999982,-0.15278675,-2.511504,0.004109139,1.8272328,0.96660596,0.04,0.04,-9.687599,1.2720715999603271,0.84057635,0.08807416,-0.06079896539449692,0.08468634
2733.5333333405283,0.15526775,-0.80016506,-0.15442224,-2.5131648,0.0041529047,1.8299757,0.96853876,0.04,0.04,-9.685346,1.2873890399932861,0.8464421,0.08816848,-0.060531873255968094,0.084841706
2733.550000007195,0.15691018,-0.80033195,-0.1560582,-2.5148258,0.004196703,1.8327192,0.9704721,0.04,0.04,-9.682978,1.3026827573776245,0.8522692,0.08825112,-0.06025334820151329,0.08497958
2733.566666673862,0.1585529,-0.80049896,-0.15769444,-2.5164871,0.004240514,1.8354633,0.97240573,0.04,0.04,-9.680582,1.3181383609771729,0.857926,0.08832371,-0.05996772646903992,0.08511648
2733.583333340529,0.16019566,-0.8006659,-0.15933073,-2.5181484,0.00428437,1.8382075,0.9743395,0.04,0.04,-9.678184,1.3335210084915161,0.86356807,0.088385284,-0.05967525392770767,0.085236564
2733.600000007196,0.16183828,-0.8008329,-0.16096692,-2.5198095,0.0043282392,1.8409513,0.97627306,0.04,0.04,-9.675805,1.348956823348999,0.8691414,0.08843534,-0.0593770332634449,0.085345455
2733.6166666738627,0.16348061,-0.80099994,-0.16260274,-2.5214703,0.0043721157,1.8436948,0.97820634,0.04,0.04,-9.673391,1.3643749952316284,0.87470776,0.08847438,-0.05907285213470459,0.085442774
2733.6333333405296,0.1651224,-0.8011669,-0.16423802,-2.523131,0.0044159745,1.8464371,0.9801391,0.04,0.04,-9.670931,1.379865288734436,0.88007665,0.088502206,-0.05876309424638748,0.08552662
2733.6500000071965,0.16676347,-0.8013339,-0.16587262,-2.5247905,0.004459867,1.8491781,0.9820708,0.04,0.04,-9.66852,1.395374059677124,0.8854426,0.08851849,-0.058450378477573395,0.08560374
2733.6666666738633,0.1684036,-0.80150074,-0.1675063,-2.5264497,0.0045037395,1.8519177,0.9840016,0.04,0.04,-9.665982,1.4108315706253052,0.8907749,0.08852415,-0.05813005939126015,0.085666396
2733.68333334053,0.17004254,-0.8016674,-0.16913879,-2.5281074,0.004547604,1.8546553,0.985931,0.04,0.04,-9.663578,1.426384687423706,0.8959152,0.08851776,-0.05780814215540886,0.08571827
2733.700000007197,0.17168021,-0.8018339,-0.17077003,-2.5297637,0.0045914557,1.857391,0.98785883,0.04,0.04,-9.660972,1.441899061203003,0.9010167,0.088500395,-0.057479288429021835,0.08575832
2733.716666673864,0.17331633,-0.8020002,-0.1723997,-2.531419,0.0046352604,1.860124,0.9897849,0.04,0.04,-9.658456,1.4574297666549683,0.90605634,0.08847146,-0.0571453720331192,0.08578553
2733.733333340531,0.17495076,-0.8021665,-0.17402762,-2.5330718,0.004679036,1.8628539,0.99170893,0.04,0.04,-9.655941,1.4729368686676025,0.91109425,0.08843099,-0.05680934712290764,0.08580277
2733.7500000071977,0.17658322,-0.80233264,-0.17565367,-2.534723,0.00472279,1.8655806,0.9936307,0.04,0.04,-9.653233,1.4884958267211914,0.9159053,0.08837967,-0.05646573379635811,0.08580771
2733.7666666738646,0.17821352,-0.8024985,-0.17727755,-2.5363717,0.0047665047,1.8683035,0.99554986,0.04,0.04,-9.650686,1.504052758216858,0.92070925,0.08831609,-0.05611918121576309,0.085800916
2733.7833333405315,0.17984158,-0.8026641,-0.17889914,-2.5380185,0.0048101586,1.8710227,0.9974664,0.04,0.04,-9.647978,1.5195823907852173,0.9254287,0.08824224,-0.0557672493159771,0.085781306
2733.8000000071984,0.18146709,-0.8028295,-0.18051814,-2.5396624,0.004853766,1.8737376,0.99937993,0.04,0.04,-9.645433,1.5350826978683472,0.9301625,0.08815643,-0.05541444197297096,0.0857517
2733.8166666738653,0.18308984,-0.8029946,-0.18213446,-2.5413034,0.0048973225,1.8764479,1.00129,0.04,0.04,-9.642687,1.5506407022476196,0.93463653,0.08805964,-0.05505476891994476,0.08570979
2733.833333340532,0.18470968,-0.8031595,-0.18374783,-2.5429413,0.004940821,1.879154,1.0031967,0.04,0.04,-9.639984,1.5661695003509521,0.93911254,0.08795201,-0.054690759629011154,0.08565581
2733.850000007199,0.18632638,-0.80332404,-0.1853581,-2.544577,0.0049842545,1.8818544,1.0050997,0.04,0.04,-9.637274,1.5816683769226074,0.94351685,0.08783224,-0.05432121828198433,0.085589744
2733.866666673866,0.18793973,-0.8034882,-0.1869651,-2.5462096,0.00502762,1.8845496,1.0069987,0.04,0.04,-9.634612,1.5971416234970093,0.9479359,0.08770196,-0.053952429443597794,0.08551267
2733.8833333405328,0.18954955,-0.8036519,-0.18856853,-2.5478382,0.005070916,1.8872386,1.0088938,0.04,0.04,-9.631953,1.6126694679260254,0.95210093,0.08755951,-0.053580861538648605,0.08542408
2733.9000000071997,0.19115569,-0.8038155,-0.19016826,-2.5494633,0.005114099,1.8899219,1.0107849,0.04,0.04,-9.62916,1.6281245946884155,0.95625544,0.08740471,-0.05320672318339348,0.085323006
2733.9166666738665,0.1927579,-0.80397844,-0.19176412,-2.551084,0.0051572006,1.8925985,1.012671,0.04,0.04,-9.626348,1.6435317993164062,0.9603982,0.08723756,-0.052827537059783936,0.08521076
2733.9333333405334,0.19435601,-0.8041411,-0.19335583,-2.552701,0.0052002277,1.8952681,1.0145522,0.04,0.04,-9.623577,1.6589972972869873,0.9642976,0.08705979,-0.052444856613874435,0.08508773
2733.9500000072003,0.19594981,-0.8043034,-0.19494331,-2.554313,0.00524312,1.8979303,1.0164286,0.04,0.04,-9.620783,1.674378752708435,0.968235,0.086871356,-0.05206097662448883,0.08495017
2733.966666673867,0.19753917,-0.8044651,-0.1965263,-2.5559194,0.005285898,1.900585,1.0182997,0.04,0.04,-9.617898,1.6897609233856201,0.97204524,0.08667008,-0.051672711968421936,0.08480155
2733.983333340534,0.1991238,-0.8046264,-0.1981046,-2.5575218,0.0053285835,1.9032321,1.0201651,0.04,0.04,-9.614885,1.7050658464431763,0.9758354,0.08645797,-0.05127759277820587,0.0846425
2734.000000007201,0.20070353,-0.80478716,-0.1996781,-2.5591195,0.005371149,1.9058713,1.0220249,0.04,0.04,-9.612188,1.7204147577285767,0.979463,0.08623463,-0.050883546471595764,0.08447046
2734.016666673868,0.20227823,-0.80494756,-0.20124649,-2.5607126,0.005413598,1.9085021,1.0238788,0.04,0.04,-9.609349,1.7357019186019897,0.9830455,0.0859992,-0.05048679560422897,0.08428761
2734.0333333405347,0.20384766,-0.8051075,-0.20280966,-2.5622997,0.0054558925,1.9111238,1.0257262,0.04,0.04,-9.606553,1.7509418725967407,0.98658746,0.08575231,-0.05008995160460472,0.0840917
2734.0500000072016,0.20541167,-0.8052667,-0.20436743,-2.5638819,0.0054980596,1.9137365,1.0275676,0.04,0.04,-9.603481,1.7661222219467163,0.99006927,0.08549589,-0.04968905821442604,0.08388581
2734.0666666738684,0.20697007,-0.80542535,-0.20591955,-2.5654573,0.00554011,1.9163395,1.029402,0.04,0.04,-9.600765,1.7813336849212646,0.9933577,0.08522521,-0.04928925633430481,0.08367032
2734.0833333405353,0.20852268,-0.8055834,-0.20746589,-2.5670283,0.005582015,1.9189332,1.0312297,0.04,0.04,-9.597707,1.796437382698059,0.99659586,0.08494623,-0.04888398200273514,0.08344133
2734.100000007202,0.21006922,-0.80574095,-0.2090062,-2.568592,0.0056237997,1.9215167,1.0330503,0.04,0.04,-9.594994,1.8115369081497192,0.9998256,0.0846546,-0.04848288372159004,0.08320332
2734.116666673869,0.21160962,-0.8058977,-0.2105404,-2.5701501,0.005665415,1.9240899,1.0348637,0.04,0.04,-9.591823,1.8265169858932495,1.0029691,0.08435217,-0.04807590693235397,0.082950756
2734.133333340536,0.2131436,-0.8060539,-0.2120683,-2.5717015,0.0057068793,1.9266526,1.0366695,0.04,0.04,-9.589064,1.841548204421997,1.0059408,0.08403749,-0.047670118510723114,0.08268869
2734.150000007203,0.21467112,-0.80620944,-0.21358964,-2.5732458,0.0057481816,1.9292039,1.0384675,0.04,0.04,-9.586097,1.856492519378662,1.0088832,0.083711945,-0.04726282134652138,0.08241506
2734.1666666738697,0.21619187,-0.80636436,-0.21510433,-2.5747838,0.0057893135,1.9317441,1.0402577,0.04,0.04,-9.582953,1.8713231086730957,1.0118,0.08337647,-0.0468527227640152,0.08212989
2734.1833333405366,0.21770571,-0.80651873,-0.21661212,-2.5763147,0.005830266,1.9342728,1.0420398,0.04,0.04,-9.580187,1.8862007856369019,1.0145642,0.08302904,-0.046444617211818695,0.08183421
2734.2000000072035,0.21921244,-0.8066722,-0.21811286,-2.5778387,0.005871053,1.9367896,1.0438136,0.04,0.04,-9.5772085,1.9009689092636108,1.017273,0.082670555,-0.04603493586182594,0.08152721
2734.2166666738703,0.22071195,-0.8068249,-0.21960633,-2.5793555,0.0059116366,1.9392945,1.0455791,0.04,0.04,-9.574275,1.9156830310821533,1.0199126,0.08229995,-0.04562687501311302,0.08120878
2734.2333333405372,0.222204,-0.806977,-0.2210924,-2.580865,0.005952051,1.9417871,1.0473356,0.04,0.04,-9.571184,1.9302973747253418,1.0225223,0.081917964,-0.04521714150905609,0.08088167
2734.250000007204,0.22368844,-0.8071282,-0.2225709,-2.5823665,0.0059922514,1.9442669,1.0490831,0.04,0.04,-9.568366,1.94491446018219,1.024958,0.08152558,-0.04480836167931557,0.08054169
2734.266666673871,0.22516514,-0.8072787,-0.22404164,-2.5838597,0.006032269,1.9467338,1.0508217,0.039999995,0.04,-9.565357,1.959436297416687,1.0273592,0.08112301,-0.0443992093205452,0.08019215
2734.283333340538,0.22663392,-0.8074285,-0.22550452,-2.5853448,0.006072074,1.9491873,1.0525508,0.04,0.04,-9.562298,1.9738786220550537,1.0296704,0.08070871,-0.043986737728118896,0.07983101
2734.3000000072047,0.22809456,-0.8075773,-0.22695923,-2.5868216,0.0061116572,1.9516273,1.0542706,0.04,0.04,-9.55916,1.9882302284240723,1.0320026,0.080284044,-0.04357504844665527,0.07945824
2734.3166666738716,0.22954692,-0.80772525,-0.2284057,-2.58829,0.0061510466,1.9540536,1.0559807,0.039999995,0.04,-9.55631,2.0025761127471924,1.0341257,0.079847634,-0.043163448572158813,0.079077646
2734.3333333405385,0.23099083,-0.80787253,-0.22984378,-2.5897503,0.0061901845,1.9564656,1.0576802,0.039999995,0.04,-9.553325,2.0168039798736572,1.0362357,0.0794006,-0.04275193437933922,0.07868331
2734.3500000072054,0.23242615,-0.8080187,-0.23127325,-2.5912018,0.006229106,1.9588631,1.05937,0.039999984,0.04,-9.55037,2.0309813022613525,1.0383092,0.07894527,-0.04234308376908302,0.07828127
2734.3666666738723,0.23385268,-0.8081642,-0.23269399,-2.5926445,0.0062677846,1.961246,1.0610495,0.039999984,0.04,-9.547243,2.045025110244751,1.0403296,0.07847859,-0.041935164481401443,0.07786968
2734.383333340539,0.23527032,-0.80830854,-0.23410581,-2.5940785,0.0063062524,1.963614,1.0627182,0.039999977,0.04,-9.544395,2.0590739250183105,1.0421892,0.07800076,-0.04152815788984299,0.07744786
2734.400000007206,0.23667888,-0.8084523,-0.23550864,-2.5955029,0.0063444832,1.9659669,1.0643765,0.039999977,0.04,-9.541514,2.07300066947937,1.0440325,0.07751464,-0.04112550988793373,0.077019684
2734.416666673873,0.2380781,-0.8085948,-0.23690222,-2.5969179,0.006382467,1.9683043,1.066024,0.039999973,0.04,-9.538233,2.0868098735809326,1.0458304,0.07701625,-0.04071781411767006,0.07657956
2734.43333334054,0.23946798,-0.8087364,-0.23828645,-2.5983233,0.0064202035,1.9706262,1.0676602,0.039999977,0.04,-9.53543,2.1005938053131104,1.0474569,0.07650676,-0.04031343758106232,0.07612955
2734.4500000072067,0.24084829,-0.8088771,-0.23966113,-2.5997195,0.0064577134,1.9729322,1.0692854,0.03999997,0.04,-9.532471,2.1142613887786865,1.0490898,0.075988404,-0.03991008177399635,0.075669855
2734.4666666738735,0.24221891,-0.8090168,-0.2410261,-2.6011055,0.006494961,1.9752218,1.0708991,0.039999966,0.04,-9.529516,2.127830982208252,1.0506635,0.075459436,-0.039508819580078125,0.0751987
2734.4833333405404,0.24357964,-0.80915546,-0.2423813,-2.6024814,0.0065319263,1.9774953,1.0725011,0.03999996,0.04,-9.52633,2.1412861347198486,1.0522075,0.07492094,-0.03910807520151138,0.07471811
2734.5000000072073,0.2449304,-0.80929327,-0.2437265,-2.6038475,0.006568631,1.9797517,1.0740914,0.039999958,0.04,-9.523531,2.154719352722168,1.0535847,0.07437371,-0.038707878440618515,0.07422929
2734.516666673874,0.246271,-0.80943006,-0.24506159,-2.6052036,0.0066050505,1.9819912,1.0756698,0.039999958,0.04,-9.520569,2.1680123805999756,1.0549709,0.07381535,-0.038309987634420395,0.07373041
2734.533333340541,0.24760132,-0.8095658,-0.24638642,-2.6065488,0.006641218,1.9842135,1.0772358,0.03999995,0.04,-9.517671,2.1812357902526855,1.0562935,0.07324808,-0.037915874272584915,0.07322435
2734.550000007208,0.24892122,-0.8097002,-0.24770091,-2.6078835,0.006677092,1.9864184,1.0787896,0.03999995,0.04,-9.514502,2.194310188293457,1.0575839,0.07267289,-0.037522051483392715,0.07270912
2734.566666673875,0.25023055,-0.80983377,-0.24900492,-2.609208,0.0067126853,1.9886059,1.080331,0.039999947,0.04,-9.511758,2.2073452472686768,1.0587076,0.07208753,-0.037131648510694504,0.07218459
2734.5833333405417,0.25152916,-0.80996615,-0.25029823,-2.6105216,0.006748002,1.9907755,1.0818595,0.039999943,0.04,-9.508873,2.2202742099761963,1.0598637,0.071492754,-0.03674252703785896,0.07165224
2734.6000000072086,0.25281703,-0.8100977,-0.25158072,-2.6118243,0.0067830146,1.9929267,1.0833758,0.039999932,0.04,-9.505906,2.2330620288848877,1.060912,0.0708897,-0.03635492920875549,0.07111052
2734.6166666738754,0.25409383,-0.81022793,-0.25285235,-2.6131153,0.0068177143,1.9950597,1.0848802,0.03999993,0.04,-9.502828,2.2457332611083984,1.0620102,0.07027638,-0.03597094491124153,0.07056081
2734.6333333405423,0.25535962,-0.81035715,-0.2541129,-2.6143954,0.006852119,1.9971743,1.0863699,0.039999932,0.04,-9.500067,2.2583751678466797,1.062876,0.069648266,-0.03558657318353653,0.070003614
2734.650000007209,0.25661412,-0.8104851,-0.2553623,-2.615664,0.0068862545,1.9992701,1.0878472,0.03999992,0.04,-9.49717,2.2708580493927,1.0637934,0.06902022,-0.03520417958498001,0.06943802
2734.666666673876,0.25785723,-0.8106119,-0.25660038,-2.6169214,0.0069200834,2.001347,1.0893103,0.039999925,0.04,-9.494129,2.28322696685791,1.0646874,0.068378694,-0.034825459122657776,0.06886514
2734.683333340543,0.25908896,-0.8107376,-0.25782704,-2.6181672,0.006953584,2.0034049,1.0907607,0.039999925,0.04,-9.491467,2.295525550842285,1.0654485,0.06773304,-0.03444969654083252,0.06828395
2734.70000000721,0.2603091,-0.8108621,-0.2590422,-2.619401,0.006986822,2.005443,1.0921971,0.03999992,0.04,-9.488595,2.3076858520507812,1.0661954,0.06707556,-0.0340753048658371,0.067696795
2734.7166666738767,0.2615175,-0.8109854,-0.26024565,-2.6206234,0.0070197065,2.0074618,1.0936198,0.03999992,0.04,-9.485761,2.319732666015625,1.0669,0.06641154,-0.03370549902319908,0.06709944
2734.7333333405436,0.2627141,-0.8111075,-0.26143733,-2.6218328,0.007052286,2.0094612,1.0950285,0.039999917,0.04,-9.482767,2.331650495529175,1.0675865,0.06573837,-0.03333822265267372,0.0664977
2734.7500000072105,0.26389873,-0.8112286,-0.26261717,-2.6230314,0.0070845466,2.0114398,1.0964231,0.039999917,0.04,-9.480017,2.343475341796875,1.0681058,0.06505876,-0.03296777606010437,0.0658869
2734.7666666738774,0.2650714,-0.8113482,-0.26378492,-2.624217,0.007116447,2.0133986,1.0978038,0.039999917,0.04,-9.477384,2.3552119731903076,1.0687456,0.06437057,-0.0326090008020401,0.06526955
2734.7833333405442,0.26623183,-0.81146663,-0.26494062,-2.6253905,0.0071480735,2.015337,1.0991702,0.039999913,0.04,-9.474515,2.366785764694214,1.0691937,0.063675076,-0.032248031347990036,0.06464916
2734.800000007211,0.26738003,-0.81158394,-0.26608407,-2.6265523,0.007179348,2.0172553,1.1005219,0.039999902,0.04,-9.471575,2.378230333328247,1.0697185,0.06297131,-0.03189288452267647,0.064018145
2734.816666673878,0.26851603,-0.81169987,-0.26721528,-2.627701,0.007210299,2.0191526,1.1018593,0.039999895,0.04,-9.46908,2.3896119594573975,1.0701166,0.06226162,-0.03154005855321884,0.06338445
2734.833333340545,0.26963946,-0.8118144,-0.26833412,-2.6288366,0.007240903,2.0210297,1.1031821,0.03999989,0.04,-9.466291,2.400815963745117,1.0704683,0.061544023,-0.0311895702034235,0.06274166
2734.8500000072117,0.27075043,-0.8119278,-0.26944044,-2.62996,0.0072711636,2.0228858,1.1044899,0.039999887,0.04,-9.463543,2.4119224548339844,1.0707791,0.06081885,-0.030838852748274803,0.06209215
2734.8666666738786,0.2718487,-0.81204003,-0.27053416,-2.6310701,0.007301096,2.0247207,1.1057829,0.039999884,0.04,-9.460661,2.4228835105895996,1.0711294,0.060088646,-0.03049294464290142,0.06143831
2734.8833333405455,0.27293408,-0.8121509,-0.27161518,-2.6321676,0.0073306873,2.0265343,1.1070611,0.039999884,0.04,-9.458104,2.4337589740753174,1.0713394,0.059351362,-0.03014644794166088,0.060777705
2734.9000000072124,0.27400678,-0.8122604,-0.27268347,-2.633252,0.007359894,2.0283265,1.1083242,0.03999988,0.04,-9.455493,2.444504737854004,1.071577,0.05860552,-0.029805582016706467,0.060110454
2734.9166666738793,0.27506667,-0.8123687,-0.27373892,-2.634324,0.0073887757,2.030097,1.1095719,0.039999872,0.04,-9.452635,2.455087661743164,1.07178,0.05785485,-0.029466792941093445,0.059441026
2734.933333340546,0.2761135,-0.8124757,-0.27478144,-2.6353827,0.0074172737,2.0318458,1.1108043,0.039999876,0.04,-9.450354,2.4655845165252686,1.071963,0.057098955,-0.02913638763129711,0.058764547
2734.950000007213,0.27714732,-0.8125812,-0.27581102,-2.6364284,0.0074454295,2.0335727,1.1120216,0.039999876,0.04,-9.447684,2.4759390354156494,1.0720514,0.056337375,-0.028806066140532494,0.058084525
2734.96666667388,0.27816802,-0.8126855,-0.27682742,-2.6374605,0.0074732746,2.0352778,1.113223,0.03999987,0.04,-9.445177,2.486178159713745,1.0721464,0.05556884,-0.028482116758823395,0.057403184
2734.983333340547,0.27917555,-0.81278837,-0.27783072,-2.6384797,0.007500717,2.0369606,1.1144091,0.039999865,0.04,-9.442342,2.4962000846862793,1.0722128,0.054796953,-0.028159450739622116,0.05671071
2735.0000000072137,0.28016976,-0.81288993,-0.27882084,-2.6394854,0.0075278147,2.0386217,1.1155797,0.03999986,0.04,-9.440111,2.506204843521118,1.0722221,0.054018952,-0.027842309325933456,0.056018453
2735.0166666738805,0.2811506,-0.8129902,-0.27979767,-2.6404772,0.0075545604,2.0402606,1.1167345,0.039999858,0.04,-9.437603,2.516045331954956,1.0722082,0.053234965,-0.02752707153558731,0.055322535
2735.0333333405474,0.2821181,-0.813089,-0.28076112,-2.6414552,0.007580932,2.041877,1.1178735,0.039999858,0.04,-9.435011,2.525724411010742,1.0721325,0.05244627,-0.02721158228814602,0.054619033
2735.0500000072143,0.28307208,-0.81318647,-0.28171125,-2.6424196,0.0076069706,2.0434713,1.118997,0.03999985,0.04,-9.432325,2.53525447845459,1.0720886,0.051653665,-0.026899389922618866,0.053914268
2735.066666673881,0.28401256,-0.8132826,-0.2826479,-2.6433709,0.0076326267,2.0450428,1.1201042,0.039999846,0.04,-9.430116,2.5447139739990234,1.071977,0.050854623,-0.026589877903461456,0.053203125
2735.083333340548,0.28493947,-0.8133773,-0.28357103,-2.6443086,0.0076579032,2.0465913,1.1211956,0.039999846,0.04,-9.427782,2.5540287494659424,1.0719057,0.050052788,-0.026287324726581573,0.052491136
2735.100000007215,0.2858529,-0.8134706,-0.28448063,-2.6452327,0.0076828264,2.0481172,1.122271,0.03999984,0.04,-9.425413,2.563192844390869,1.0717704,0.0492469,-0.02598884329199791,0.051776305
2735.116666673882,0.28675258,-0.81356263,-0.2853766,-2.6461425,0.007707359,2.0496213,1.1233304,0.039999843,0.04,-9.422848,2.5721819400787354,1.0716298,0.048437174,-0.025695953518152237,0.051059272
2735.1333333405487,0.28763857,-0.81365323,-0.28625894,-2.6470387,0.0077315327,2.0511017,1.1243734,0.039999843,0.04,-9.420637,2.581087827682495,1.0713813,0.04762344,-0.02539789490401745,0.050336417
2735.1500000072156,0.28851083,-0.8137425,-0.28712767,-2.6479206,0.0077553657,2.0525591,1.1254007,0.039999828,0.04,-9.418378,2.589850902557373,1.0712132,0.046806972,-0.025107605382800102,0.04961367
2735.1666666738824,0.28936934,-0.8138303,-0.28798264,-2.6487887,0.00777879,2.0539932,1.1264116,0.039999824,0.04,-9.415827,2.598449945449829,1.070994,0.045986034,-0.024821093305945396,0.04888734
2735.1833333405493,0.290214,-0.8139166,-0.28882387,-2.6496427,0.0078018466,2.0554042,1.1274061,0.039999824,0.04,-9.413808,2.6069493293762207,1.0707455,0.04516307,-0.024538012221455574,0.04816033
2735.200000007216,0.29104486,-0.8140017,-0.2896513,-2.650483,0.00782452,2.0567923,1.1283845,0.039999817,0.04,-9.411576,2.6153011322021484,1.0704722,0.044337127,-0.024258844554424286,0.047431592
2735.216666673883,0.29186186,-0.81408536,-0.290465,-2.6513095,0.00784681,2.0581574,1.1293464,0.03999981,0.04,-9.409374,2.623491048812866,1.0702072,0.043509256,-0.023982655256986618,0.046698608
2735.23333334055,0.29266495,-0.81416756,-0.29126483,-2.6521215,0.007868736,2.0594995,1.1302919,0.0399998,0.04,-9.407011,2.631558418273926,1.0699478,0.042679362,-0.023711085319519043,0.04596672
2735.250000007217,0.29345423,-0.81424826,-0.29205096,-2.6529198,0.00789026,2.0608182,1.1312213,0.039999805,0.04,-9.405046,2.6394906044006348,1.069606,0.041847795,-0.02344011887907982,0.04523055
2735.2666666738837,0.29422963,-0.81432766,-0.2928231,-2.653704,0.007911423,2.062113,1.1321343,0.039999805,0.04,-9.402961,2.64729905128479,1.0692995,0.04101377,-0.02317531406879425,0.044495042
2735.2833333405506,0.29499114,-0.8144057,-0.29358158,-2.6544735,0.007932196,2.0633852,1.1330309,0.03999981,0.04,-9.400893,2.654940366744995,1.0689834,0.040178414,-0.022915786132216454,0.04375977
2735.3000000072175,0.29573864,-0.81448215,-0.29432613,-2.6552293,0.007952605,2.064634,1.1339109,0.03999981,0.04,-9.398495,2.6624319553375244,1.0686061,0.039342307,-0.022655924782156944,0.04302188
2735.3166666738844,0.29647225,-0.8145572,-0.2950568,-2.6559708,0.007972652,2.0658598,1.1347746,0.039999805,0.04,-9.39675,2.669839859008789,1.0682471,0.038505517,-0.022399745881557465,0.042284034
2735.3333333405512,0.29719195,-0.81463075,-0.29577357,-2.656699,0.007992309,2.0670624,1.135622,0.0399998,0.04,-9.394719,2.6770663261413574,1.0678848,0.037668064,-0.022147145122289658,0.04154496
2735.350000007218,0.29789788,-0.8147029,-0.29647654,-2.6574128,0.008011603,2.068242,1.1364529,0.039999794,0.04,-9.392824,2.684175729751587,1.067534,0.036829714,-0.021899783983826637,0.040808033
2735.366666673885,0.29858983,-0.8147738,-0.2971657,-2.6581125,0.008030485,2.069398,1.1372676,0.039999794,0.04,-9.390606,2.691096067428589,1.0671362,0.03599266,-0.021653827279806137,0.040069267
2735.383333340552,0.2992679,-0.8148432,-0.297841,-2.6587985,0.008049022,2.0705304,1.1380658,0.039999787,0.04,-9.388935,2.697964906692505,1.066774,0.035154488,-0.02141338214278221,0.039334137
2735.4000000072188,0.29993212,-0.8149111,-0.29850248,-2.65947,0.008067147,2.0716398,1.1388481,0.03999979,0.04,-9.387058,2.7046420574188232,1.0663681,0.034317426,-0.02117721363902092,0.038596574
2735.4166666738856,0.30058232,-0.8149777,-0.29915026,-2.6601276,0.00808492,2.0727265,1.139614,0.03999979,0.04,-9.384965,2.711164712905884,1.065965,0.03347943,-0.020944582298398018,0.03786376
2735.4333333405525,0.3012189,-0.8150429,-0.2997842,-2.6607714,0.008102325,2.0737896,1.1403633,0.039999787,0.04,-9.383317,2.7176125049591064,1.0655218,0.032641787,-0.020711170509457588,0.037129346
2735.4500000072194,0.30184165,-0.8151068,-0.30040446,-2.661401,0.0081193745,2.0748298,1.1410967,0.03999979,0.04,-9.381589,2.7238731384277344,1.0651613,0.03180783,-0.020485971122980118,0.036399268
2735.4666666738863,0.3024507,-0.81516916,-0.301011,-2.6620169,0.008136042,2.0758474,1.1418144,0.03999979,0.04,-9.37977,2.73000168800354,1.0647187,0.030973654,-0.020261157304048538,0.035667356
2735.483333340553,0.30304596,-0.81523013,-0.301604,-2.6626194,0.008152346,2.0768425,1.1425152,0.039999783,0.04,-9.377793,2.735971212387085,1.064289,0.03013935,-0.020039215683937073,0.03493849
2735.50000000722,0.30362767,-0.81528986,-0.30218336,-2.6632075,0.008168266,2.0778148,1.1432003,0.03999978,0.04,-9.37636,2.7418715953826904,1.063879,0.029309975,-0.01982024312019348,0.03421032
2735.516666673887,0.30419573,-0.8153482,-0.3027492,-2.6637821,0.008183786,2.0787642,1.1438692,0.039999776,0.04,-9.37466,2.74757981300354,1.0634743,0.028482106,-0.019604608416557312,0.033483356
2735.533333340554,0.30475014,-0.81540495,-0.30330154,-2.664343,0.008198964,2.079691,1.1445221,0.039999776,0.04,-9.373012,2.7531919479370117,1.0630463,0.027657436,-0.01939178630709648,0.032762274
2735.5500000072207,0.30529112,-0.81546044,-0.30384037,-2.66489,0.008213778,2.0805948,1.1451591,0.039999776,0.04,-9.371159,2.758634090423584,1.0626074,0.026834834,-0.019182991236448288,0.032043483
2735.5666666738875,0.30581865,-0.81551456,-0.3043658,-2.6654236,0.00822823,2.0814762,1.1457804,0.039999776,0.04,-9.369792,2.763960123062134,1.0622039,0.026016489,-0.018976857885718346,0.031327736
2735.5833333405544,0.3063329,-0.8155673,-0.30487803,-2.6659436,0.00824231,2.0823355,1.1463859,0.03999977,0.04,-9.368253,2.769155502319336,1.0617975,0.025200803,-0.01877601258456707,0.030614946
2735.6000000072213,0.30683377,-0.8156186,-0.30537698,-2.66645,0.008256013,2.0831723,1.1469759,0.039999772,0.04,-9.366685,2.7742042541503906,1.0613551,0.024389803,-0.018575942143797874,0.029905722
2735.616666673888,0.30732143,-0.81566864,-0.30586278,-2.6669436,0.0082693985,2.083987,1.1475502,0.039999772,0.04,-9.364982,2.7791240215301514,1.060939,0.02358191,-0.01838015206158161,0.029202273
2735.633333340555,0.3077959,-0.8157174,-0.30633548,-2.6674232,0.008282428,2.0847797,1.1481093,0.039999772,0.04,-9.363783,2.783940315246582,1.0605644,0.022778403,-0.018189769238233566,0.02850233
2735.650000007222,0.30825737,-0.81576484,-0.30679515,-2.66789,0.008295094,2.0855505,1.1486526,0.03999977,0.04,-9.362265,2.7885875701904297,1.0601226,0.021978728,-0.01800001785159111,0.027804649
2735.666666673889,0.30870584,-0.8158106,-0.30724195,-2.668343,0.008307382,2.0862997,1.1491805,0.039999764,0.04,-9.360666,2.793104410171509,1.0597295,0.021186711,-0.017815610393881798,0.027112331
2735.6833333405557,0.30914146,-0.81585544,-0.3076759,-2.668784,0.008319315,2.0870275,1.1496934,0.03999977,0.04,-9.359468,2.797523021697998,1.059288,0.020399773,-0.017632462084293365,0.026426043
2735.7000000072226,0.3095643,-0.81589895,-0.30809703,-2.6692114,0.008330909,2.0877345,1.1501914,0.039999764,0.04,-9.358163,2.801811695098877,1.0589349,0.019618142,-0.017452510073781013,0.025744466
2735.7166666738894,0.30997452,-0.8159409,-0.3085057,-2.6696262,0.008342179,2.0884197,1.1506742,0.039999757,0.04,-9.356788,2.8059346675872803,1.0585283,0.01884267,-0.01727275177836418,0.025067525
2735.7333333405563,0.3103721,-0.81598186,-0.30890188,-2.670028,0.008353092,2.089084,1.1511426,0.03999976,0.04,-9.355328,2.8099608421325684,1.0581392,0.018073538,-0.017101112753152847,0.024397887
2735.750000007223,0.3107573,-0.8160215,-0.30928564,-2.6704178,0.008363677,2.0897279,1.1515964,0.039999757,0.04,-9.35422,2.8138785362243652,1.0577611,0.017309984,-0.016928989440202713,0.023732526
2735.76666667389,0.31113017,-0.81605977,-0.3096571,-2.670795,0.008373916,2.0903509,1.1520356,0.039999764,0.04,-9.353018,2.8176581859588623,1.0573949,0.016552558,-0.016760189086198807,0.02307355
2735.783333340557,0.31149074,-0.81609696,-0.3100164,-2.6711593,0.008383841,2.090953,1.1524602,0.03999976,0.04,-9.35184,2.8213131427764893,1.0570419,0.015802901,-0.016596795991063118,0.022422165
2735.800000007224,0.31183934,-0.81613284,-0.31036368,-2.671512,0.008393418,2.0915353,1.1528708,0.03999976,0.04,-9.350355,2.824820041656494,1.0566487,0.015061786,-0.016435367986559868,0.021775806
2735.8166666738907,0.31217602,-0.81616735,-0.31069902,-2.6718524,0.00840267,2.0920982,1.153267,0.039999764,0.04,-9.349455,2.8282487392425537,1.0563222,0.014328297,-0.016277341172099113,0.0211378
2735.8333333405576,0.31250095,-0.81620085,-0.3110227,-2.672181,0.00841165,2.0926409,1.1536497,0.03999976,0.04,-9.348332,2.8315446376800537,1.0559603,0.013604029,-0.016120173037052155,0.020507706
2735.8500000072245,0.3128141,-0.8162331,-0.31133467,-2.672498,0.008420302,2.0931644,1.1540186,0.039999757,0.04,-9.347241,2.8347246646881104,1.0556486,0.012886993,-0.01596863381564617,0.019884212
2735.8666666738914,0.31311575,-0.8162639,-0.31163517,-2.672803,0.008428615,2.093669,1.1543738,0.039999757,0.04,-9.345964,2.8377678394317627,1.0552952,0.012178873,-0.01581929437816143,0.019267652
2735.8833333405582,0.31340602,-0.81629384,-0.31192437,-2.6730967,0.008436621,2.094154,1.1547155,0.039999757,0.04,-9.34509,2.840724229812622,1.0549582,0.011480641,-0.015671256929636,0.018660065
2735.900000007225,0.31368506,-0.81632257,-0.31220245,-2.673379,0.008444339,2.0946202,1.1550442,0.039999757,0.04,-9.3440695,2.843578577041626,1.0546693,0.010792175,-0.015528688207268715,0.018062675
2735.916666673892,0.31395298,-0.8163501,-0.31246945,-2.67365,0.008451748,2.0950682,1.1553599,0.039999757,0.04,-9.342875,2.84627628326416,1.0543461,0.010113256,-0.015389064326882362,0.01747152
2735.933333340559,0.31421012,-0.81637675,-0.31272575,-2.67391,0.008458855,2.0954978,1.1556629,0.03999976,0.04,-9.3420725,2.8489139080047607,1.0540489,0.009443881,-0.015251357108354568,0.016890518
2735.9500000072258,0.31445652,-0.816402,-0.3129713,-2.6741595,0.008465708,2.0959098,1.155953,0.039999757,0.04,-9.341075,2.8514280319213867,1.0537525,0.00878492,-0.015115638263523579,0.01631871
2735.9666666738926,0.31469235,-0.81642646,-0.31320643,-2.6743977,0.008472243,2.096304,1.1562312,0.039999764,0.04,-9.340247,2.853821039199829,1.0535007,0.008137886,-0.014986531808972359,0.01575624
2735.9833333405595,0.3149179,-0.8164497,-0.3134313,-2.674626,0.00847855,2.0966806,1.156497,0.039999753,0.04,-9.338996,2.8561038970947266,1.0531583,0.0075007346,-0.01485523022711277,0.015203539
2736.0000000072264,0.3151334,-0.8164721,-0.31364605,-2.6748443,0.008484551,2.097041,1.1567508,0.03999976,0.04,-9.338451,2.8583333492279053,1.052967,0.0068754153,-0.014733568765223026,0.014662279
2736.0166666738933,0.31533882,-0.8164933,-0.31385085,-2.6750512,0.0084902905,2.0973845,1.1569928,0.03999976,0.04,-9.337532,2.86041259765625,1.0526892,0.0062630456,-0.01461127307265997,0.014129739
2736.03333334056,0.31553456,-0.81651354,-0.31404603,-2.675249,0.008495786,2.097712,1.1572233,0.03999975,0.04,-9.336536,2.862384080886841,1.0523709,0.005663329,-0.014486564323306084,0.013606462
2736.050000007227,0.31572083,-0.8165328,-0.31423163,-2.675438,0.008500972,2.0980237,1.1574428,0.039999757,0.04,-9.3356495,2.8642983436584473,1.052177,0.005075596,-0.014369048178195953,0.013094014
2736.066666673894,0.3158978,-0.8165511,-0.314408,-2.6756175,0.008505913,2.0983193,1.1576513,0.039999753,0.04,-9.3350725,2.866112232208252,1.0519783,0.0045010727,-0.014256133697926998,0.012595142
2736.083333340561,0.31606555,-0.8165685,-0.3145753,-2.6757863,0.008510616,2.0985994,1.1578492,0.03999975,0.04,-9.334334,2.8678436279296875,1.0517771,0.0039396114,-0.014148479327559471,0.012109621
2736.1000000072277,0.3162244,-0.81658506,-0.31473377,-2.6759462,0.008515059,2.0988646,1.1580365,0.039999746,0.04,-9.333395,2.8694405555725098,1.051502,0.0033917206,-0.014040635898709297,0.011632505
2736.1166666738945,0.31637466,-0.8166007,-0.31488353,-2.6760976,0.008519261,2.0991156,1.1582134,0.039999746,0.04,-9.332453,2.870964765548706,1.0512704,0.0028582145,-0.013934231363236904,0.011168206
2736.1333333405614,0.31651646,-0.8166155,-0.31502497,-2.676241,0.008523239,2.0993533,1.1583804,0.039999746,0.04,-9.331956,2.8724286556243896,1.0511295,0.0023402858,-0.013833221048116684,0.010717559
2736.1500000072283,0.31665015,-0.8166293,-0.31515834,-2.6763759,0.008526974,2.0995774,1.158538,0.03999975,0.04,-9.331201,2.873796224594116,1.0509069,0.0018372627,-0.013730707578361034,0.010276517
2736.166666673895,0.3167759,-0.8166424,-0.31528375,-2.676503,0.008530499,2.0997875,1.158686,0.039999746,0.04,-9.330418,2.8750784397125244,1.0507339,0.0013480578,-0.013633797876536846,0.009850894
2736.183333340562,0.3168939,-0.8166545,-0.3154015,-2.6766224,0.008533831,2.0999846,1.158825,0.039999746,0.04,-9.329862,2.8763043880462646,1.050592,0.0008755821,-0.013542226515710354,0.009440639
2736.200000007229,0.31700456,-0.816666,-0.31551188,-2.6767342,0.0085369665,2.1001704,1.1589559,0.039999746,0.04,-9.329277,2.877441883087158,1.0504495,0.00041926967,-0.01345745474100113,0.009044897
2736.216666673896,0.3171081,-0.8166768,-0.31561515,-2.6768384,0.008539901,2.100343,1.1590778,0.039999746,0.04,-9.328551,2.878490686416626,1.0502551,-2.3739898e-05,-0.01337022241204977,0.008660663
2736.2333333405627,0.31720474,-0.8166868,-0.3157115,-2.6769352,0.008542655,2.100505,1.1591913,0.039999742,0.04,-9.327732,2.879460096359253,1.0500889,-0.0004468521,-0.01328898873180151,0.008291736
2736.2500000072296,0.31729484,-0.8166962,-0.31580135,-2.6770248,0.008545222,2.1006556,1.1592971,0.039999742,0.04,-9.327195,2.88037371635437,1.0499364,-0.000851813,-0.013206468895077705,0.007936144
2736.2666666738965,0.31737852,-0.816705,-0.31588492,-2.677111,0.008547608,2.1007962,1.1593956,0.039999746,0.04,-9.326488,2.8812315464019775,1.0497828,-0.0012400664,-0.013126574456691742,0.007594943
2736.2833333405633,0.31745622,-0.81671304,-0.31596237,-2.6771915,0.008549839,2.1009257,1.1594869,0.039999742,0.04,-9.326214,2.8820738792419434,1.0497838,-0.0016111588,-0.013059234246611595,0.007272814
2736.30000000723,0.3175282,-0.8167206,-0.3160342,-2.6772645,0.0085519105,2.101046,1.1595721,0.039999742,0.04,-9.325662,2.8828048706054688,1.0497073,-0.0019628797,-0.01300390250980854,0.0069702878
2736.316666673897,0.31759474,-0.81672764,-0.3161006,-2.6773305,0.008553835,2.101158,1.1596508,0.03999974,0.04,-9.324899,2.8834517002105713,1.0494655,-0.002299738,-0.01294065173715353,0.006678803
2736.333333340564,0.31765616,-0.8167341,-0.3161619,-2.6773944,0.00855561,2.1012614,1.1597232,0.039999742,0.04,-9.324105,2.8840248584747314,1.0492638,-0.0026168013,-0.0128726651892066,0.0064006634
2736.350000007231,0.31771284,-0.81674004,-0.31621838,-2.677452,0.008557255,2.1013567,1.1597903,0.03999974,0.04,-9.323945,2.884669542312622,1.0493261,-0.0029131405,-0.012821676209568977,0.0061444473
2736.3666666738977,0.31776494,-0.81674564,-0.31627062,-2.6775036,0.008558753,2.1014445,1.1598517,0.039999746,0.04,-9.323119,2.8851335048675537,1.049139,-0.003191016,-0.012769745662808418,0.005902419
2736.3833333405646,0.31781295,-0.81675076,-0.31631833,-2.6775532,0.008560161,2.101526,1.1599084,0.039999742,0.04,-9.322378,2.8856265544891357,1.0489436,-0.0034487718,-0.012712066061794758,0.005675733
2736.4000000072315,0.31785703,-0.8167555,-0.31636217,-2.6775963,0.008561462,2.1016004,1.1599607,0.03999974,0.04,-9.322133,2.886066436767578,1.0489856,-0.0036854397,-0.012666234746575356,0.005469544
2736.4166666738984,0.31789765,-0.81675977,-0.31640288,-2.6776383,0.008562648,2.1016672,1.1600087,0.03999975,0.04,-9.321238,2.8864150047302246,1.0487832,-0.003903892,-0.01261615939438343,0.005276997
2736.4333333405652,0.31793502,-0.8167637,-0.3164402,-2.6776752,0.008563759,2.101729,1.1600528,0.039999746,0.04,-9.321185,2.8868823051452637,1.0488609,-0.0041050715,-0.012587497942149639,0.005105638
2736.450000007232,0.31796935,-0.81676745,-0.31647456,-2.67771,0.008564789,2.1017873,1.1600934,0.03999974,0.04,-9.320516,2.8871655464172363,1.0486763,-0.0042897374,-0.012552636675536633,0.004944901
2736.466666673899,0.3180009,-0.816771,-0.3165062,-2.677744,0.00856572,2.1018388,1.1601311,0.03999975,0.04,-9.320173,2.8874917030334473,1.048621,-0.004460228,-0.012516813352704048,0.0047954475
2736.483333340566,0.31803,-0.81677413,-0.31653532,-2.6777725,0.0085666105,2.1018894,1.1601651,0.039999746,0.04,-9.320042,2.8878374099731445,1.048689,-0.004618588,-0.012500642798841,0.0046654684
2736.5000000072328,0.31805676,-0.816777,-0.31656206,-2.6777997,0.008567413,2.1019332,1.1601965,0.039999742,0.04,-9.319328,2.8880069255828857,1.0484191,-0.0047609424,-0.012462331913411617,0.0045344406
2736.5166666738996,0.31808147,-0.8167796,-0.31658673,-2.677826,0.008568152,2.101976,1.1602261,0.039999746,0.04,-9.319209,2.888291835784912,1.0484847,-0.004892715,-0.012441828846931458,0.0044209976
2736.5333333405665,0.31810418,-0.81678206,-0.31660947,-2.6778483,0.008568842,2.1020122,1.1602523,0.039999742,0.04,-9.319024,2.8885245323181152,1.0484364,-0.005016774,-0.01241852156817913,0.0043145916
2736.5500000072334,0.31812507,-0.8167843,-0.31663036,-2.6778688,0.0085694725,2.1020477,1.1602771,0.039999742,0.04,-9.318564,2.88871431350708,1.0483528,-0.0051265783,-0.012402565218508244,0.004218652
2736.5666666739003,0.31814423,-0.81678635,-0.3166495,-2.677888,0.00857005,2.1020796,1.1602995,0.039999746,0.04,-9.318284,2.8888845443725586,1.0482554,-0.005230595,-0.012377917766571045,0.004126581
2736.583333340567,0.31816188,-0.8167883,-0.31666723,-2.677907,0.008570608,2.1021082,1.1603206,0.039999742,0.04,-9.318117,2.8890717029571533,1.0482581,-0.0053243334,-0.012359213083982468,0.004044967
2736.600000007234,0.3181781,-0.81679016,-0.31668347,-2.677924,0.008571114,2.1021361,1.1603392,0.039999742,0.04,-9.31812,2.889282703399658,1.0483165,-0.0054133167,-0.012351726181805134,0.0039720447
2736.616666673901,0.318193,-0.81679195,-0.3166985,-2.6779382,0.008571583,2.1021624,1.1603574,0.039999742,0.04,-9.31777,2.88938307762146,1.0482042,-0.0054911594,-0.012335473671555519,0.0039014611
2736.633333340568,0.3182068,-0.8167935,-0.31671217,-2.6779516,0.008572013,2.1021833,1.1603736,0.03999974,0.04,-9.317427,2.889497756958008,1.0480926,-0.005567676,-0.012312007136642933,0.0038328508
2736.6500000072347,0.31821942,-0.81679493,-0.31672478,-2.6779637,0.008572417,2.102204,1.1603882,0.039999735,0.039999995,-9.317397,2.889641284942627,1.048171,-0.0056351004,-0.01230560801923275,0.0037760143
2736.6666666739015,0.31823105,-0.8167962,-0.31673643,-2.6779752,0.008572766,2.102224,1.1604024,0.039999746,0.04,-9.317177,2.889740467071533,1.0480914,-0.00569633,-0.012293028645217419,0.003720021
2736.6833333405684,0.31824178,-0.8167974,-0.31674713,-2.6779866,0.008573114,2.1022432,1.1604152,0.039999742,0.04,-9.317078,2.8898587226867676,1.0480579,-0.005756115,-0.012278052978217602,0.0036693264
2736.7000000072353,0.31825167,-0.81679845,-0.31675696,-2.6779976,0.008573426,2.1022599,1.1604263,0.039999746,0.04,-9.317059,2.8899664878845215,1.0480882,-0.005809563,-0.012265724129974842,0.003622165
2736.716666673902,0.31826073,-0.8167994,-0.316766,-2.6780078,0.008573716,2.1022732,1.1604367,0.039999746,0.04,-9.317018,2.890070915222168,1.0481122,-0.005855669,-0.01226004958152771,0.0035809926
2736.733333340569,0.318269,-0.81680036,-0.31677434,-2.678016,0.008573983,2.1022863,1.1604469,0.039999746,0.04,-9.316963,2.8901665210723877,1.0481237,-0.0058995187,-0.01226422656327486,0.0035469704
2736.750000007236,0.31827664,-0.8168013,-0.3167821,-2.678023,0.00857423,2.102299,1.1604567,0.039999746,0.04,-9.316669,2.890209674835205,1.0479957,-0.0059423917,-0.012258372269570827,0.0035116633
2736.766666673903,0.31828374,-0.81680214,-0.31678912,-2.6780298,0.008574464,2.1023114,1.1604648,0.039999742,0.04,-9.316521,2.890268325805664,1.0479409,-0.005984045,-0.012249214574694633,0.003477335
2736.7833333405697,0.3182902,-0.8168029,-0.31679562,-2.678036,0.008574677,2.1023235,1.1604718,0.039999742,0.04,-9.316441,2.890317440032959,1.047931,-0.0060176877,-0.012237709015607834,0.0034448416
2736.8000000072366,0.31829613,-0.8168036,-0.31680164,-2.6780417,0.00857487,2.1023345,1.1604785,0.039999742,0.04,-9.020027,2.771975517272949,1.0208651,0.0,-0.0,0.0
2736.8166666739035,0.31829613,-0.8168036,-0.31680164,-2.6780417,0.00857487,2.1023345,1.1604785,0.039999742,0.04,-9.315788,2.890340566635132,1.0479128,0.0,-0.0,0.0
2736.8333333405703,0.31829613,-0.8168036,-0.31680164,-2.6780417,0.00857487,2.1023345,1.1604785,0.039999742,0.04,-9.315788,2.890340566635132,1.0479128,0.0,-0.0,0.0
2736.850000007237,0.31829613,-0.8168036,-0.31680164,-2.6780417,0.00857487,2.1023345,1.1604785,0.039999742,0.04,-9.315788,2.890340566635132,1.0479128,0.0,-0.0,0.0
2736.866666673904,0.31829613,-0.8168036,-0.31680164,-2.6780417,0.00857487,2.1023345,1.1604785,0.039999742,0.04,-9.315788,2.890340566635132,1.0479128,0.0,-0.0,0.0
2736.883333340571,0.31829613,-0.8168036,-0.31680164,-2.6780417,0.00857487,2.1023345,1.1604785,0.039999742,0.04,-9.315788,2.890340566635132,1.0479128,0.0,-0.0,0.0
2736.900000007238,0.31829613,-0.8168036,-0.31680164,-2.6780417,0.00857487,2.1023345,1.1604785,0.039999742,0.04,-9.315788,2.890340566635132,1.0479128,0.0,-0.0,0.0
2736.9166666739047,0.31829613,-0.8168036,-0.31680164,-2.6780417,0.00857487,2.1023345,1.1604785,0.039999742,0.04,-9.315788,2.890340566635132,1.0479128,0.0,-0.0,0.0
2736.9333333405716,0.31829613,-0.8168036,-0.31680164,-2.6780417,0.00857487,2.1023345,1.1604785,0.039999742,0.04,-9.315788,2.890340566635132,1.0479128,0.0,-0.0,0.0
2736.9500000072385,0.31829613,-0.8168036,-0.31680164,-2.6780417,0.00857487,2.1023345,1.1604785,0.039999742,0.04,-9.315788,2.890340566635132,1.0479128,0.0,-0.0,0.0
2736.9666666739054,0.31829613,-0.8168036,-0.31680164,-2.6780417,0.00857487,2.1023345,1.1604785,0.039999742,0.04,-9.315788,2.890340566635132,1.0479128,0.0,-0.0,0.0
2736.9833333405722,0.31829613,-0.8168036,-0.31680164,-2.6780417,0.00857487,2.1023345,1.1604785,0.039999742,0.04,-9.315788,2.890340566635132,1.0479128,0.0,-0.0,0.0
2737.000000007239,0.31829613,-0.8168036,-0.31680164,-2.6780417,0.00857487,2.1023345,1.1604785,0.039999742,0.04,-9.315788,2.890340566635132,1.0479128,0.0,-0.0,0.0
2737.016666673906,0.31829613,-0.8168036,-0.31680164,-2.6780417,0.00857487,2.1023345,1.1604785,0.039999742,0.04,-9.315788,2.890340566635132,1.0479128,0.0,-0.0,0.0
2737.033333340573,0.31829613,-0.8168036,-0.31680164,-2.6780417,0.00857487,2.1023345,1.1604785,0.039999742,0.04,-9.315788,2.890340566635132,1.0479128,0.0,-0.0,0.0
2737.0500000072398,0.31829613,-0.8168036,-0.31680164,-2.6780417,0.00857487,2.1023345,1.1604785,0.039999742,0.04,-9.315788,2.890340566635132,1.0479128,0.0,-0.0,0.0
2737.0666666739066,0.31829613,-0.8168036,-0.31680164,-2.6780417,0.00857487,2.1023345,1.1604785,0.039999742,0.04,-9.315788,2.890340566635132,1.0479128,0.0,-0.0,0.0
2737.0833333405735,0.31829613,-0.8168036,-0.31680164,-2.6780417,0.00857487,2.1023345,1.1604785,0.039999742,0.04,-9.315788,2.890340566635132,1.0479128,0.0,-0.0,0.0
2737.1000000072404,0.31829613,-0.8168036,-0.31680164,-2.6780417,0.00857487,2.1023345,1.1604785,0.039999742,0.04,-9.315788,2.890340566635132,1.0479128,0.0,-0.0,0.0
2737.1166666739073,0.31829613,-0.8168036,-0.31680164,-2.6780417,0.00857487,2.1023345,1.1604785,0.039999742,0.04,-9.315788,2.890340566635132,1.0479128,0.0,-0.0,0.0
2737.133333340574,0.31829613,-0.8168036,-0.31680164,-2.6780417,0.00857487,2.1023345,1.1604785,0.039999742,0.04,-9.315788,2.890340566635132,1.0479128,0.0,-0.0,0.0
2737.150000007241,0.31829613,-0.8168036,-0.31680164,-2.6780417,0.00857487,2.1023345,1.1604785,0.039999742,0.04,-9.315788,2.890340566635132,1.0479128,0.0,-0.0,0.0
2737.166666673908,0.31829613,-0.8168036,-0.31680164,-2.6780417,0.00857487,2.1023345,1.1604785,0.039999742,0.04,-9.315788,2.890340566635132,1.0479128,0.0,-0.0,0.0
2737.183333340575,0.31829613,-0.8168036,-0.31680164,-2.6780417,0.00857487,2.1023345,1.1604785,0.039999742,0.04,-9.315788,2.890340566635132,1.0479128,0.0,-0.0,0.0
2737.2000000072417,0.31829613,-0.8168036,-0.31680164,-2.6780417,0.00857487,2.1023345,1.1604785,0.039999742,0.04,-9.315788,2.890340566635132,1.0479128,0.0,-0.0,0.0
2737.2166666739085,0.31829613,-0.8168036,-0.31680164,-2.6780417,0.00857487,2.1023345,1.1604785,0.039999742,0.04,-9.315788,2.890340566635132,1.0479128,0.0,-0.0,0.0
2737.2333333405754,0.31829613,-0.8168036,-0.31680164,-2.6780417,0.00857487,2.1023345,1.1604785,0.039999742,0.04,-9.315788,2.890340566635132,1.0479128,0.0,-0.0,0.0
2737.2500000072423,0.31829613,-0.8168036,-0.31680164,-2.6780417,0.00857487,2.1023345,1.1604785,0.039999742,0.04,-9.315788,2.890340566635132,1.0479128,0.0,-0.0,0.0
2737.266666673909,0.31829613,-0.8168036,-0.31680164,-2.6780417,0.00857487,2.1023345,1.1604785,0.039999742,0.04,-9.315788,2.890340566635132,1.0479128,0.0,-0.0,0.0
2737.283333340576,0.31829613,-0.8168036,-0.31680164,-2.6780417,0.00857487,2.1023345,1.1604785,0.039999742,0.04,-9.315788,2.890340566635132,1.0479128,0.0,-0.0,0.0
2737.300000007243,0.31829613,-0.8168036,-0.31680164,-2.6780417,0.00857487,2.1023345,1.1604785,0.039999742,0.04,-9.315788,2.890340566635132,1.0479128,0.0,-0.0,0.0
2737.31666667391,0.31829613,-0.8168036,-0.31680164,-2.6780417,0.00857487,2.1023345,1.1604785,0.039999742,0.04,-9.315788,2.890340566635132,1.0479128,0.0,-0.0,0.0
2737.3333333405767,0.31829613,-0.8168036,-0.31680164,-2.6780417,0.00857487,2.1023345,1.1604785,0.039999742,0.04,-9.315788,2.890340566635132,1.0479128,0.0,-0.0,0.0
2737.3500000072436,0.31829613,-0.8168036,-0.31680164,-2.6780417,0.00857487,2.1023345,1.1604785,0.039999742,0.04,-9.315788,2.890340566635132,1.0479128,0.0,-0.0,0.0
2737.3666666739105,0.31829613,-0.8168036,-0.31680164,-2.6780417,0.00857487,2.1023345,1.1604785,0.039999742,0.04,-9.315788,2.890340566635132,1.0479128,0.0,-0.0,0.0
2737.3833333405773,0.31829613,-0.8168036,-0.31680164,-2.6780417,0.00857487,2.1023345,1.1604785,0.039999742,0.04,-9.315788,2.890340566635132,1.0479128,0.0,-0.0,0.0
2737.400000007244,0.31829613,-0.8168036,-0.31680164,-2.6780417,0.00857487,2.1023345,1.1604785,0.039999742,0.04,-9.315788,2.890340566635132,1.0479128,0.0,-0.0,0.0
2737.416666673911,0.31829613,-0.8168036,-0.31680164,-2.6780417,0.00857487,2.1023345,1.1604785,0.039999742,0.04,-9.315788,2.890340566635132,1.0479128,0.0,-0.0,0.0
2737.433333340578,0.31829613,-0.8168036,-0.31680164,-2.6780417,0.00857487,2.1023345,1.1604785,0.039999742,0.04,-9.315788,2.890340566635132,1.0479128,0.0,-0.0,0.0
2737.450000007245,0.31829613,-0.8168036,-0.31680164,-2.6780417,0.00857487,2.1023345,1.1604785,0.039999742,0.04,-9.315788,2.890340566635132,1.0479128,0.0,-0.0,0.0
2737.4666666739117,0.31829613,-0.8168036,-0.31680164,-2.6780417,0.00857487,2.1023345,1.1604785,0.039999742,0.04,-9.315788,2.890340566635132,1.0479128,0.0,-0.0,0.0
2737.4833333405786,0.31829613,-0.8168036,-0.31680164,-2.6780417,0.00857487,2.1023345,1.1604785,0.039999742,0.04,-9.315788,2.890340566635132,1.0479128,0.0,-0.0,0.0
2737.5000000072455,0.31829613,-0.8168036,-0.31680164,-2.6780417,0.00857487,2.1023345,1.1604785,0.039999742,0.04,-9.315788,2.890340566635132,1.0479128,0.0,-0.0,0.0
2737.5166666739124,0.31829613,-0.8168036,-0.31680164,-2.6780417,0.00857487,2.1023345,1.1604785,0.039999742,0.04,-9.315788,2.890340566635132,1.0479128,0.0,-0.0,0.0
2737.5333333405792,0.31829613,-0.8168036,-0.31680164,-2.6780417,0.00857487,2.1023345,1.1604785,0.039999742,0.04,-9.315788,2.890340566635132,1.0479128,0.0,-0.0,0.0
2737.550000007246,0.31829613,-0.8168036,-0.31680164,-2.6780417,0.00857487,2.1023345,1.1604785,0.039999742,0.04,-9.315788,2.890340566635132,1.0479128,0.0,-0.0,0.0
2737.566666673913,0.31829613,-0.8168036,-0.31680164,-2.6780417,0.00857487,2.1023345,1.1604785,0.039999742,0.04,-9.315788,2.890340566635132,1.0479128,0.0,-0.0,0.0
2737.58333334058,0.31829613,-0.8168036,-0.31680164,-2.6780417,0.00857487,2.1023345,1.1604785,0.039999742,0.04,-9.315788,2.890340566635132,1.0479128,0.0,-0.0,0.0
2737.6000000072468,0.31829613,-0.8168036,-0.31680164,-2.6780417,0.00857487,2.1023345,1.1604785,0.039999742,0.04,-9.315788,2.890340566635132,1.0479128,0.0,-0.0,0.0
2737.6166666739136,0.31829613,-0.8168036,-0.31680164,-2.6780417,0.00857487,2.1023345,1.1604785,0.039999742,0.04,-9.315788,2.890340566635132,1.0479128,0.0,-0.0,0.0
2737.6333333405805,0.31829613,-0.8168036,-0.31680164,-2.6780417,0.00857487,2.1023345,1.1604785,0.039999742,0.04,-9.315788,2.890340566635132,1.0479128,0.0,-0.0,0.0
2737.6500000072474,0.31829613,-0.8168036,-0.31680164,-2.6780417,0.00857487,2.1023345,1.1604785,0.039999742,0.04,-9.315788,2.890340566635132,1.0479128,0.0,-0.0,0.0
2737.6666666739143,0.31829613,-0.8168036,-0.31680164,-2.6780417,0.00857487,2.1023345,1.1604785,0.039999742,0.04,-9.315788,2.890340566635132,1.0479128,0.0,-0.0,0.0
2737.683333340581,0.31829613,-0.8168036,-0.31680164,-2.6780417,0.00857487,2.1023345,1.1604785,0.039999742,0.04,-9.315788,2.890340566635132,1.0479128,0.0,-0.0,0.0
2737.700000007248,0.31829613,-0.8168036,-0.31680164,-2.6780417,0.00857487,2.1023345,1.1604785,0.039999742,0.04,-9.315788,2.890340566635132,1.0479128,0.0,-0.0,0.0
2737.716666673915,0.31829613,-0.8168036,-0.31680164,-2.6780417,0.00857487,2.1023345,1.1604785,0.039999742,0.04,-9.315788,2.890340566635132,1.0479128,0.0,-0.0,0.0
2737.733333340582,0.31829613,-0.8168036,-0.31680164,-2.6780417,0.00857487,2.1023345,1.1604785,0.039999742,0.04,-9.315788,2.890340566635132,1.0479128,0.0,-0.0,0.0
2737.7500000072487,0.31829613,-0.8168036,-0.31680164,-2.6780417,0.00857487,2.1023345,1.1604785,0.039999742,0.04,-9.315788,2.890340566635132,1.0479128,0.0,-0.0,0.0
2737.7666666739156,0.31829613,-0.8168036,-0.31680164,-2.6780417,0.00857487,2.1023345,1.1604785,0.039999742,0.04,-9.315788,2.890340566635132,1.0479128,0.0,-0.0,0.0
2737.7833333405824,0.31829613,-0.8168036,-0.31680164,-2.6780417,0.00857487,2.1023345,1.1604785,0.039999742,0.04,-9.315788,2.890340566635132,1.0479128,0.0,-0.0,0.0
2737.8000000072493,0.31829613,-0.8168036,-0.31680164,-2.6780417,0.00857487,2.1023345,1.1604785,0.039999742,0.04,-9.315788,2.890340566635132,1.0479128,0.0,-0.0,0.0
2737.816666673916,0.31829613,-0.8168036,-0.31680164,-2.6780417,0.00857487,2.1023345,1.1604785,0.039999742,0.04,-9.315788,2.890340566635132,1.0479128,0.0,-0.0,0.0
2737.833333340583,0.31829613,-0.8168036,-0.31680164,-2.6780417,0.00857487,2.1023345,1.1604785,0.039999742,0.04,-9.315788,2.890340566635132,1.0479128,0.0,-0.0,0.0
2737.85000000725,0.31829613,-0.8168036,-0.31680164,-2.6780417,0.00857487,2.1023345,1.1604785,0.039999742,0.04,-9.315788,2.890340566635132,1.0479128,0.0,-0.0,0.0
2737.866666673917,0.31829613,-0.8168036,-0.31680164,-2.6780417,0.00857487,2.1023345,1.1604785,0.039999742,0.04,-9.315788,2.890340566635132,1.0479128,0.0,-0.0,0.0
2737.8833333405837,0.31829613,-0.8168036,-0.31680164,-2.6780417,0.00857487,2.1023345,1.1604785,0.039999742,0.04,-9.315788,2.890340566635132,1.0479128,0.0,-0.0,0.0
2737.9000000072506,0.31829613,-0.8168036,-0.31680164,-2.6780417,0.00857487,2.1023345,1.1604785,0.039999742,0.04,-9.315788,2.890340566635132,1.0479128,0.0,-0.0,0.0
2737.9166666739175,0.31829613,-0.8168036,-0.31680164,-2.6780417,0.00857487,2.1023345,1.1604785,0.039999742,0.04,-9.315788,2.890340566635132,1.0479128,0.0,-0.0,0.0
2737.9333333405843,0.31829613,-0.8168036,-0.31680164,-2.6780417,0.00857487,2.1023345,1.1604785,0.039999742,0.04,-9.315788,2.890340566635132,1.0479128,0.0,-0.0,0.0
2737.950000007251,0.31829613,-0.8168036,-0.31680164,-2.6780417,0.00857487,2.1023345,1.1604785,0.039999742,0.04,-9.315788,2.890340566635132,1.0479128,0.0,-0.0,0.0
2737.966666673918,0.31829613,-0.8168036,-0.31680164,-2.6780417,0.00857487,2.1023345,1.1604785,0.039999742,0.04,-9.315788,2.890340566635132,1.0479128,0.0,-0.0,0.0
2737.983333340585,0.31829613,-0.8168036,-0.31680164,-2.6780417,0.00857487,2.1023345,1.1604785,0.039999742,0.04,-9.315788,2.890340566635132,1.0479128,0.0,-0.0,0.0
2738.000000007252,0.31829613,-0.8168036,-0.31680164,-2.6780417,0.00857487,2.1023345,1.1604785,0.039999742,0.04,-9.315788,2.890340566635132,1.0479128,0.0,-0.0,0.0
2738.0166666739187,0.31829613,-0.8168036,-0.31680164,-2.6780417,0.00857487,2.1023345,1.1604785,0.039999742,0.04,-9.315788,2.890340566635132,1.0479128,0.0,-0.0,0.0
2738.0333333405856,0.31829613,-0.8168036,-0.31680164,-2.6780417,0.00857487,2.1023345,1.1604785,0.039999742,0.04,-9.315788,2.890340566635132,1.0479128,0.0,-0.0,0.0
2738.0500000072525,0.31829613,-0.8168036,-0.31680164,-2.6780417,0.00857487,2.1023345,1.1604785,0.039999742,0.04,-9.315788,2.890340566635132,1.0479128,0.0,-0.0,0.0
2738.0666666739194,0.31829613,-0.8168036,-0.31680164,-2.6780417,0.00857487,2.1023345,1.1604785,0.039999742,0.04,-9.315788,2.890340566635132,1.0479128,0.0,-0.0,0.0
2738.0833333405863,0.31829613,-0.8168036,-0.31680164,-2.6780417,0.00857487,2.1023345,1.1604785,0.039999742,0.04,-9.315788,2.890340566635132,1.0479128,0.0,-0.0,0.0
2738.100000007253,0.31829613,-0.8168036,-0.31680164,-2.6780417,0.00857487,2.1023345,1.1604785,0.039999742,0.04,-9.315788,2.890340566635132,1.0479128,0.0,-0.0,0.0
2738.11666667392,0.31829613,-0.8168036,-0.31680164,-2.6780417,0.00857487,2.1023345,1.1604785,0.039999742,0.04,-9.315788,2.890340566635132,1.0479128,0.0,-0.0,0.0
2738.133333340587,0.31829613,-0.8168036,-0.31680164,-2.6780417,0.00857487,2.1023345,1.1604785,0.039999742,0.04,-9.315788,2.890340566635132,1.0479128,0.0,-0.0,0.0
2738.1500000072538,0.31829613,-0.8168036,-0.31680164,-2.6780417,0.00857487,2.1023345,1.1604785,0.039999742,0.04,-9.315788,2.890340566635132,1.0479128,0.0,-0.0,0.0
2738.1666666739206,0.31829613,-0.8168036,-0.31680164,-2.6780417,0.00857487,2.1023345,1.1604785,0.039999742,0.04,-9.315788,2.890340566635132,1.0479128,0.0,-0.0,0.0
2738.1833333405875,0.31829613,-0.8168036,-0.31680164,-2.6780417,0.00857487,2.1023345,1.1604785,0.039999742,0.04,-9.315788,2.890340566635132,1.0479128,0.0,-0.0,0.0
2738.2000000072544,0.31829613,-0.8168036,-0.31680164,-2.6780417,0.00857487,2.1023345,1.1604785,0.039999742,0.04,-9.315788,2.890340566635132,1.0479128,0.0,-0.0,0.0
2738.2166666739213,0.31829613,-0.8168036,-0.31680164,-2.6780417,0.00857487,2.1023345,1.1604785,0.039999742,0.04,-9.315788,2.890340566635132,1.0479128,0.0,-0.0,0.0
2738.233333340588,0.31829613,-0.8168036,-0.31680164,-2.6780417,0.00857487,2.1023345,1.1604785,0.039999742,0.04,-9.315788,2.890340566635132,1.0479128,0.0,-0.0,0.0
2738.250000007255,0.31829613,-0.8168036,-0.31680164,-2.6780417,0.00857487,2.1023345,1.1604785,0.039999742,0.04,-9.315788,2.890340566635132,1.0479128,0.0,-0.0,0.0
2738.266666673922,0.31829613,-0.8168036,-0.31680164,-2.6780417,0.00857487,2.1023345,1.1604785,0.039999742,0.04,-9.315788,2.890340566635132,1.0479128,0.0,-0.0,0.0
2738.283333340589,0.31829613,-0.8168036,-0.31680164,-2.6780417,0.00857487,2.1023345,1.1604785,0.039999742,0.04,-9.315788,2.890340566635132,1.0479128,0.0,-0.0,0.0
2738.3000000072557,0.31829613,-0.8168036,-0.31680164,-2.6780417,0.00857487,2.1023345,1.1604785,0.039999742,0.04,-9.315788,2.890340566635132,1.0479128,0.0,-0.0,0.0
2738.3166666739226,0.31829613,-0.8168036,-0.31680164,-2.6780417,0.00857487,2.1023345,1.1604785,0.039999742,0.04,-9.315788,2.890340566635132,1.0479128,0.0,-0.0,0.0
2738.3333333405894,0.31829613,-0.8168036,-0.31680164,-2.6780417,0.00857487,2.1023345,1.1604785,0.039999742,0.04,-9.315788,2.890340566635132,1.0479128,0.0,-0.0,0.0
2738.3500000072563,0.31829613,-0.8168036,-0.31680164,-2.6780417,0.00857487,2.1023345,1.1604785,0.039999742,0.04,-9.315788,2.890340566635132,1.0479128,0.0,-0.0,0.0
2738.366666673923,0.31829613,-0.8168036,-0.31680164,-2.6780417,0.00857487,2.1023345,1.1604785,0.039999742,0.04,-9.315788,2.890340566635132,1.0479128,0.0,-0.0,0.0
2738.38333334059,0.31829613,-0.8168036,-0.31680164,-2.6780417,0.00857487,2.1023345,1.1604785,0.039999742,0.04,-9.315788,2.890340566635132,1.0479128,0.0,-0.0,0.0
2738.400000007257,0.31829613,-0.8168036,-0.31680164,-2.6780417,0.00857487,2.1023345,1.1604785,0.039999742,0.04,-9.315788,2.890340566635132,1.0479128,0.0,-0.0,0.0
