rsonawane2002/My_IMU/logs_2/traj_277/imu_400hz_277.csv
time,j1,j2,j3,j4,j5,j6,j7,gripper1,gripper2,imu_ax,imu_ay,imu_az,imu_gx,imu_gy,imu_gz
0.0,0.00016700293,-0.785875,4.0107683e-05,-2.3551247,9.29385e-05,1.570997,0.786,0.04,0.04,-9.495727,-0.0117388544604182,0.07713762,-7.168585e-08,-0.0011641273740679,6.8668896e-07
0.0025,0.000167003128,-0.785857774,4.010723405e-05,-2.35513919,9.294314850000001e-05,1.570996565,0.786,0.04,0.04,-9.546527800000046,-0.009885047594432879,0.06693195179999073,-3.502924599996666e-08,-0.0013251610565931963,7.538625960000611e-07
0.005,0.000167003326,-0.785840548,4.0106785100000004e-05,-2.3551536800000004,9.294779700000002e-05,1.57099613,0.786,0.04,0.04,-9.597328600000093,-0.008031240728447558,0.05672628359998144,1.627358000066671e-09,-0.001486194739118493,8.210362320001222e-07
0.0075,0.000167003524,-0.7858233219999999,4.010633615e-05,-2.3551681700000002,9.295244550000002e-05,1.570995695,0.786,0.04,0.04,-9.648129400000139,-0.0061774338624622374,0.04652061539997216,3.82839620001e-08,-0.0016472284216437893,8.882098680001832e-07
0.01,0.000167003722,-0.785806096,4.01058872e-05,-2.35518266,9.295709400000002e-05,1.5709952600000001,0.786,0.04,0.04,-9.698930200000184,-0.004323626996476915,0.03631494719996288,7.494056600013334e-08,-0.0018082621041690858,9.553835040002444e-07
0.0125,0.00016700392,-0.78578887,4.010543825e-05,-2.3551971500000004,9.296174250000002e-05,1.570994825,0.786,0.04,0.04,-9.749731000000232,-0.0024698201304915943,0.026109278999953592,1.1159717000016669e-07,-0.001969295786694382,1.0225571400003055e-06
0.015,0.00016700411800000002,-0.785771644,4.01049893e-05,-2.3552116400000003,9.296639100000003e-05,1.57099439,0.786,0.04,0.04,-9.800531800000277,-0.0006160132645062748,0.015903610799944318,1.482537740002e-07,-0.0021303294692196786,1.0897307760003665e-06
0.0175,0.0001670037895,-0.7857548619999999,4.0101090199999936e-05,-2.3552257350000003,9.2969336e-05,1.57099396,0.786,0.04,0.04,-9.834301849999997,0.0006143856880952205,0.00902600097499859,2.3237246950113997e-07,-0.002287102187984579,1.2053635550013533e-06
0.02,0.000167002408,-0.7857389679999999,4.009029079999992e-05,-2.3552390400000003,9.2968874e-05,1.5709935400000001,0.786,0.04,0.04,-9.834010399999997,0.0005979688139630806,0.008804507899998388,4.114153480013027e-07,-0.0024353529792289184,1.4179146200015464e-06
0.0225,0.00016700102649999998,-0.7857230739999999,4.0079491399999915e-05,-2.3552523450000002,9.2968412e-05,1.57099312,0.786,0.04,0.04,-9.833718949999998,0.0005815519398309406,0.008583014824998188,5.904582265014655e-07,-0.0025836037704732584,1.6304656850017396e-06
0.025,0.000166999645,-0.7857071799999998,4.00686919999999e-05,-2.35526565,9.296795e-05,1.5709927,0.786,0.04,0.04,-9.833427499999997,0.0005651350656988007,0.008361521749997986,7.695011050016284e-07,-0.0027318545617175984,1.8430167500019333e-06
0.0275,0.0001669982635,-0.7856912859999998,4.0057892599999894e-05,-2.355278955,9.2967488e-05,1.57099228,0.786,0.04,0.04,-9.833136049999997,0.0005487181915666608,0.008140028674997784,9.485439835017912e-07,-0.0028801053529619383,2.0555678150021266e-06
0.03,0.00016699688199999998,-0.7856753919999998,4.004709319999988e-05,-2.35529226,9.2967026e-05,1.57099186,0.786,0.04,0.04,-9.832844599999998,0.0005323013174345208,0.007918535599997584,1.1275868620019539e-06,-0.0030283561442062783,2.2681188800023194e-06
0.0325,0.00016699550049999997,-0.7856594979999998,4.003629379999987e-05,-2.355305565,9.2966564e-05,1.57099144,0.786,0.04,0.04,-9.832553149999997,0.0005158844433023809,0.007697042524997381,1.306629740502117e-06,-0.0031766069354506182,2.480669945002513e-06
0.035,0.00016699102999999992,-0.7856444399999998,4.0007298599999515e-05,-2.3553181,9.295740739999983e-05,1.57099101,0.786,0.04,0.04,-9.832279399999997,0.000490257565979395,0.007491867769997491,1.7087494600065409e-06,-0.003316789469683334,2.85097597000572e-06
0.0375,0.00016698501499999991,-0.7856297999999998,3.996920549999948e-05,-2.35533025,9.294390349999981e-05,1.570990575,0.786,0.04,0.04,-9.832014499999996,0.0004600256870612376,0.007294852174997313,2.2224076000070072e-06,-0.0034529378754104573,3.3001594750061277e-06
0.04,0.0001669789999999999,-0.7856151599999998,3.9931112399999445e-05,-2.3553424,9.293039959999981e-05,1.57099014,0.786,0.04,0.04,-9.831749599999997,0.00042979380814308005,0.007097836579997133,2.736065740007475e-06,-0.003589086281137581,3.7493429800065364e-06
0.0425,0.00016697298499999993,-0.7856005199999998,3.989301929999941e-05,-2.35535455,9.29168956999998e-05,1.5709897050000001,0.786,0.04,0.04,-9.831484699999997,0.00039956192922492253,0.006900820984996954,3.2497238800079424e-06,-0.0037252346868647053,4.198526485006946e-06
0.045,0.00016696696999999992,-0.7855858799999997,3.9854926199999374e-05,-2.3553667000000003,9.290339179999978e-05,1.57098927,0.786,0.04,0.04,-9.831219799999996,0.0003693300503067651,0.006703805389996775,3.7633820200084083e-06,-0.0038613830925918287,4.647709990007353e-06
0.0475,0.0001669609549999999,-0.7855712399999998,3.9816833099999346e-05,-2.35537885,9.288988789999976e-05,1.570988835,0.786,0.04,0.04,-9.830954899999996,0.00033909817138860754,0.006506789794996595,4.277040160008876e-06,-0.003997531498318952,5.0968934950077614e-06
0.05,0.00016695493999999974,-0.7855565999999998,3.977873999999837e-05,-2.355391,9.28763839999993e-05,1.5709884,0.786,0.04,0.04,-9.830689999999995,0.00030886629247019995,0.0063097741999968565,4.790698300016587e-06,-0.0041336799040458646,5.5460770000143705e-06
0.0525,0.00016693967599999977,-0.7855430999999998,3.9689069999998594e-05,-2.3554021,9.28387093999994e-05,1.57098798,0.786,0.04,0.04,-9.830440699999997,0.00026488637231448554,0.006136970029997289,5.702569405014306e-06,-0.004258156893776753,6.3360716500123934e-06
0.055,0.0001669244119999998,-0.7855295999999998,3.959939999999882e-05,-2.3554132,9.28010347999995e-05,1.57098756,0.786,0.04,0.04,-9.830191399999997,0.00022090645215877103,0.005964165859997721,6.614440510012026e-06,-0.0043826338835076415,7.126066300010418e-06
0.0575,0.00016690914799999984,-0.7855160999999999,3.9509729999999045e-05,-2.3554243,9.27633601999996e-05,1.57098714,0.786,0.04,0.04,-9.829942099999997,0.00017692653200305648,0.0057913616899981524,7.526311615009746e-06,-0.00450711087323853,7.916060950008443e-06
0.06,0.00016689388399999987,-0.7855025999999999,3.9420059999999264e-05,-2.3554354,9.27256855999997e-05,1.57098672,0.786,0.04,0.04,-9.829692799999998,0.00013294661184734208,0.005618557519998586,8.438182720007464e-06,-0.0046315878629694185,8.706055600006466e-06
0.0625,0.0001668786199999999,-0.7854890999999999,3.933038999999949e-05,-2.3554465,9.268801099999978e-05,1.5709863,0.786,0.04,0.04,-9.829443499999998,8.896669169162756e-05,0.005445753349999017,9.350053825005183e-06,-0.004756064852700308,9.49605025000449e-06
0.065,0.00016686335599999994,-0.7854755999999999,3.9240719999999715e-05,-2.3554576000000003,9.265033639999989e-05,1.57098588,0.786,0.04,0.04,-9.829194199999998,4.498677153591302e-05,0.005272949179999449,1.0261924930002904e-05,-0.004880541842431196,1.0286044900002515e-05
0.0675,0.0001668429809999999,-0.7854624299999999,3.912353234999949e-05,-2.3554683350000003,9.259987599999978e-05,1.570985455,0.786,0.04,0.04,-9.828951299999998,-2.5610323065634995e-06,0.005106094664999542,1.1341524400004186e-05,-0.0050013782689350954,1.1221154500003623e-05
0.07,0.00016681238399999978,-0.7854499199999999,3.8951309399998745e-05,-2.3554783400000003,9.252384399999945e-05,1.57098502,0.786,0.04,0.04,-9.828721199999997,-5.72446035225153e-05,0.004951139459998872,1.27565806000103e-05,-0.005114933568985067,1.2446494000008918e-05
0.0725,0.00016678178699999963,-0.7854374099999999,3.8779086449998e-05,-2.355488345,9.244781199999912e-05,1.570984585,0.786,0.04,0.04,-9.828491099999997,-0.0001119281747384668,0.004796184254998203,1.4171636800016407e-05,-0.0052284888690350365,1.3671833500014207e-05
0.075,0.00016675118999999952,-0.7854248999999998,3.860686349999726e-05,-2.35549835,9.23717799999988e-05,1.57098415,0.786,0.04,0.04,-9.828260999999996,-0.0001666117459544186,0.004641229049997534,1.5586693000022523e-05,-0.005342044169085007,1.4897173000019502e-05
0.0775,0.0001667205929999994,-0.7854123899999997,3.843464054999651e-05,-2.355508355,9.229574799999846e-05,1.5709837150000001,0.786,0.04,0.04,-9.828030899999995,-0.00022129531717037039,0.004486273844996865,1.7001749200028637e-05,-0.005455599469134978,1.6122512500024795e-05
0.08,0.00016668999599999925,-0.7853998799999996,3.826241759999577e-05,-2.35551836,9.221971599999813e-05,1.57098328,0.786,0.04,0.04,-9.827800799999993,-0.0002759788883863222,0.004331318639996195,1.8416805400034752e-05,-0.005569154769184948,1.734785200003009e-05
0.0825,0.00016665939899999913,-0.7853873699999996,3.8090194649995025e-05,-2.355528365,9.21436839999978e-05,1.570982845,0.786,0.04,0.04,-9.827570699999994,-0.000330662459602274,0.0041763634349955255,1.9831861600040866e-05,-0.0056827100692349196,1.8573191500035386e-05
0.085,0.00016661366299999835,-0.7853754999999996,3.7838321099990976e-05,-2.35553778,9.203198949999599e-05,1.57098241,0.7859998100000001,0.04,0.0399999995,-9.827350499999993,-0.00039244149811765026,0.0040311638899956604,2.1601978300060233e-05,-0.00578934177756623,2.0220928200057488e-05
0.08750000000000001,0.0001665603574999983,-0.7853639499999996,3.754662224999071e-05,-2.3555469,9.190246374999587e-05,1.570981975,0.785999525,0.04,0.03999999875,-9.827135249999992,-0.00045776827028225475,0.003890842174995533,2.3549625250062006e-05,-0.005892511690038685,2.207986350005918e-05
0.09,0.00016650705199999826,-0.7853523999999996,3.725492339999045e-05,-2.3555560200000003,9.177293799999575e-05,1.57098154,0.78599924,0.04,0.039999998,-9.826919999999992,-0.0005230950424468589,0.0037505204599954057,2.549727220006377e-05,-0.0059956816025111374,2.393879880006086e-05
0.0925,0.0001664537464999982,-0.7853408499999995,3.6963224549990186e-05,-2.3555651400000004,9.164341224999565e-05,1.570981105,0.785998955,0.04,0.03999999725,-9.826704749999992,-0.0005884218146114634,0.0036101987449952784,2.744491915006554e-05,-0.006098851514983592,2.5797734100062555e-05
0.095,0.00016640044099999816,-0.7853292999999996,3.6671525699989916e-05,-2.3555742600000005,9.151388649999553e-05,1.57098067,0.78599867,0.04,0.0399999965,-9.826489499999994,-0.0006537485867760678,0.00346987702999515,2.9392566100067314e-05,-0.006202021427456046,2.7656669400064246e-05
0.0975,0.00016634713549999812,-0.7853177499999996,3.637982684998965e-05,-2.3555833800000006,9.13843607499954e-05,1.570980235,0.7859983850000001,0.04,0.03999999575,-9.826274249999994,-0.0007190753589406723,0.003329555314995023,3.1340213050069084e-05,-0.006305191339928499,2.9515604700065938e-05
0.1,0.00016629382999999693,-0.7853061999999995,3.608812799998351e-05,-2.3555925000000006,9.125483499999251e-05,1.5709798,0.7859981,0.04,0.039999995,-9.826058999999994,-0.0007844021311056689,0.003189233599995593,3.328786000013792e-05,-0.006408361252400604,3.137454000008062e-05
0.10250000000000001,0.00016620930199999685,-0.7852954374999995,3.5634756299983094e-05,-2.3556010800000005,9.104880714999232e-05,1.57097938,0.785997815,0.04,0.03999999575,-9.825872999999994,-0.0008605072798700732,0.0030680971549954823,3.707871310014137e-05,-0.0065019401721690346,3.359063400008264e-05
0.105,0.00016612477399999677,-0.7852846749999995,3.518138459998268e-05,-2.3556096600000003,9.084277929999213e-05,1.57097896,0.78599753,0.04,0.0399999965,-9.825686999999993,-0.0009366124286344771,0.0029469607099953726,4.08695662001448e-05,-0.006595519091937465,3.580672800008465e-05
0.1075,0.0001660402459999967,-0.7852739124999996,3.472801289998227e-05,-2.3556182400000005,9.063675144999194e-05,1.57097854,0.785997245,0.04,0.03999999725,-9.825500999999994,-0.0010127175773988813,0.0028258242649952625,4.4660419300148255e-05,-0.006689098011705895,3.8022822000086666e-05
0.11,0.0001659557179999966,-0.7852631499999996,3.427464119998186e-05,-2.3556268200000003,9.043072359999176e-05,1.57097812,0.78599696,0.04,0.039999998,-9.825314999999993,-0.0010888227261632857,0.0027046878199951524,4.8451272400151705e-05,-0.006782676931474324,4.023891600008868e-05
0.1125,0.00016587118999999656,-0.7852523874999996,3.382126949998145e-05,-2.3556354,9.022469574999156e-05,1.5709777,0.785996675,0.04,0.03999999875,-9.825128999999992,-0.0011649278749276898,0.002583551374995042,5.2242125500155155e-05,-0.006876255851242755,4.24550100000907e-05
0.115,0.00016578666199999648,-0.7852416249999996,3.3367897799981034e-05,-2.3556439800000004,9.001866789999138e-05,1.5709772800000001,0.78599639,0.04,0.0399999995,-9.824942999999992,-0.0012410330236920942,0.0024624149299949313,5.6032978600158605e-05,-0.006969834771011185,4.467110400009272e-05
0.11750000000000001,0.00016568853149999464,-0.7852311024999996,3.28449508999717e-05,-2.35565223,8.978059819998709e-05,1.57097685,0.7859961050000001,0.04,0.04,-9.824775399999995,-0.0013190341414918416,0.0023438621999951528,5.998771830018307e-05,-0.007060901471417328,4.714935300012836e-05
0.12,0.00016556319599999453,-0.7852210599999996,3.21828535999711e-05,-2.35565982,8.947844479998681e-05,1.5709764000000002,0.78599582,0.04,0.04,-9.824644599999994,-0.0014008271973615506,0.00223047689999505,6.427023120018694e-05,-0.007146943733099856,5.0151912000131076e-05
0.1225,0.00016543786049999442,-0.7852110174999996,3.1520756299970495e-05,-2.35566741,8.917629139998654e-05,1.57097595,0.785995535,0.04,0.04,-9.824513799999995,-0.00148262025323126,0.002117091599994947,6.855274410019085e-05,-0.007232985994782384,5.3154471000133806e-05
0.125,0.0001653125249999943,-0.7852009749999995,3.085865899996989e-05,-2.355675,8.887413799998627e-05,1.5709755,0.78599525,0.04,0.04,-9.824382999999994,-0.0015644133091009696,0.0020037062999948437,7.283525700019474e-05,-0.007319028256464913,5.615703000013654e-05
0.1275,0.0001651871894999942,-0.7851909324999996,3.019656169996929e-05,-2.3556825900000002,8.857198459998599e-05,1.5709750500000002,0.785994965,0.04,0.04,-9.824252199999995,-0.001646206364970679,0.0018903209999947407,7.711776990019865e-05,-0.007405070518147441,5.915958900013928e-05
0.13,0.00016506185399999408,-0.7851808899999996,2.9534464399968688e-05,-2.3556901800000003,8.826983119998572e-05,1.5709746,0.7859946800000001,0.04,0.04,-9.824121399999994,-0.0017279994208403884,0.0017769356999946374,8.140028280020255e-05,-0.007491112779829969,6.2162148000142e-05
0.1325,0.00016493651849999397,-0.7851708474999995,2.8872367099968083e-05,-2.3556977700000004,8.796767779998543e-05,1.57097415,0.785994395,0.04,0.04,-9.823990599999995,-0.0018097924767100978,0.0016635503999945342,8.568279570020645e-05,-0.007577155041512498,6.516470700014474e-05
0.135,0.00016477699999999134,-0.7851612249999995,2.8036949799954714e-05,-2.3557046800000006,8.758454949997919e-05,1.5709737000000001,0.78599392,0.0399999995,0.04,-9.823827999999992,-0.0018973437370776317,0.0015596599899951305,9.027771100023336e-05,-0.007656976114962267,6.856853700017704e-05
0.1375,0.00016460038999999117,-0.7851518124999995,2.7114872499953872e-05,-2.35571125,8.716093374997881e-05,1.57097325,0.78599335,0.03999999875,0.04,-9.823649499999991,-0.001987774099693449,0.0014605170249950403,9.502882750023768e-05,-0.007733686594296338,7.217300250018032e-05
0.14,0.000164423779999991,-0.7851423999999996,2.6192795199953034e-05,-2.35571782,8.673731799997842e-05,1.5709728,0.7859927800000001,0.039999998,0.04,-9.82347099999999,-0.002078204462309266,0.00136137405999495,9.977994400024201e-05,-0.0078103970736304075,7.57774680001836e-05
0.14250000000000002,0.00016424716999999085,-0.7851329874999995,2.5270717899952193e-05,-2.3557243900000002,8.631370224997804e-05,1.57097235,0.78599221,0.03999999725,0.04,-9.82329249999999,-0.0021686348249250836,0.0012622310949948598,0.00010453106050024633,-0.007887107552964477,7.938193350018688e-05
0.145,0.00016407055999999068,-0.7851235749999995,2.4348640599951365e-05,-2.3557309600000003,8.589008649997765e-05,1.5709719,0.78599164,0.0399999965,0.04,-9.82311399999999,-0.0022590651875409,0.0011630881299947706,0.0001092821770002506,-0.007963818032298547,8.298639900019013e-05
0.1475,0.0001638939499999905,-0.7851141624999995,2.3426563299950524e-05,-2.3557375300000003,8.546647074997727e-05,1.5709714499999998,0.78599107,0.03999999575,0.04,-9.82293549999999,-0.002349495550156717,0.0010639451649946804,0.00011403329350025493,-0.008040528511632616,8.65908645001934e-05
0.15,0.00016371733999998692,-0.7851047499999996,2.2504485999932494e-05,-2.3557441000000003,8.504285499996893e-05,1.570971,0.7859905,0.039999995,0.04,-9.82275699999999,-0.0024399259127726876,0.0009648021999952203,0.00011878441000035183,-0.008117238990966185,9.019533000025324e-05
0.1525,0.0001634781439999867,-0.7850958474999995,2.1267414549931368e-05,-2.3557503850000003,8.447345424996841e-05,1.57097052,0.7859897275,0.03999999395,0.0399999982,-9.82258299999999,-0.0025331593933566425,0.0008772097794951406,0.0001252322170003577,-0.008184768352661286,9.483622800025747e-05
0.155,0.0001632389479999865,-0.7850869449999995,2.0030343099930245e-05,-2.3557566700000003,8.39040534999679e-05,1.57097004,0.785988955,0.0399999929,0.0399999964,-9.82240899999999,-0.0026263928739405974,0.0007896173589950608,0.00013168002400036356,-0.008252297714356389,9.94771260002617e-05
0.1575,0.00016299975199998628,-0.7850780424999995,1.8793271649929118e-05,-2.3557629550000003,8.333465274996737e-05,1.57096956,0.7859881825,0.03999999185,0.0399999946,-9.82223499999999,-0.0027196263545245522,0.000702024938494981,0.00013812783100036944,-0.00831982707605149,0.00010411802400026591
0.16,0.00016276055599998606,-0.7850691399999995,1.755620019992799e-05,-2.3557692400000003,8.276525199996686e-05,1.57096908,0.7859874099999999,0.0399999908,0.0399999928,-9.822060999999989,-0.002812859835108507,0.0006144325179949014,0.0001445756380003753,-0.008387356437746591,0.00010875892200027014
0.1625,0.00016252135999998585,-0.7850602374999995,1.6319128749926865e-05,-2.3557755250000003,8.219585124996634e-05,1.5709686,0.7859866375,0.03999998975,0.039999991,-9.82188699999999,-0.002906093315692462,0.0005268400974948217,0.00015102344500038118,-0.008454885799441692,0.00011339982000027436
0.165,0.00016228216399998563,-0.7850513349999995,1.5082057299925739e-05,-2.3557818100000003,8.162645049996583e-05,1.57096812,0.785985865,0.0399999887,0.0399999892,-9.82171299999999,-0.002999326796276417,0.0004392476769947419,0.00015747125200038704,-0.008522415161136793,0.00011804071800027859
0.1675,0.00016201809949998087,-0.7850425649999995,1.3720539539901862e-05,-2.3557877700000005,8.099967899995481e-05,1.570967615,0.7859850625,0.0399999878,0.0399999876,-9.821577449999998,-0.003095601557294468,0.00035396218749508384,0.00016433673750046928,-0.008588222041729836,0.00012295644600033307
0.17,0.0001617042979999806,-0.7850340599999994,1.2110129159900397e-05,-2.3557930800000006,8.025816599995414e-05,1.57096706,0.7859842,0.0399999872,0.0399999864,-9.821518799999996,-0.003197958879179051,0.0002732905599950104,0.0001720375800004763,-0.008650583960119697,0.00012842183400033804
0.17250000000000001,0.00016139049649998031,-0.7850255549999995,1.049971877989893e-05,-2.3557983900000004,7.951665299995347e-05,1.570966505,0.7859833374999999,0.0399999866,0.0399999852,-9.821460149999997,-0.0033003162010636342,0.00019261893249493698,0.0001797384225004833,-0.00871294587850956,0.000133887222000343
0.17500000000000002,0.00016107669499998003,-0.7850170499999994,8.889308399897463e-06,-2.3558037000000005,7.877513999995278e-05,1.57096595,0.785982475,0.039999986,0.039999983999999995,-9.821401499999997,-0.0034026735229482174,0.00011194730499486356,0.00018743926500049032,-0.008775307796899421,0.00013935261000034798
0.1775,0.00016076289349997974,-0.7850085449999994,7.278898019896016e-06,-2.35580901,7.803362699995212e-05,1.570965395,0.7859816125,0.0399999854,0.0399999828,-9.821342849999997,-0.0035050308448327993,3.1275677494790996e-05,0.00019514010750049722,-0.008837669715289282,0.0001448179980003529
0.18,0.00016044909199997945,-0.7850000399999995,5.6684876398945496e-06,-2.3558143200000004,7.729211399995144e-05,1.57096484,0.7859807499999999,0.0399999848,0.0399999816,-9.821284199999996,-0.0036073881667173825,-4.939595000528243e-05,0.00020284095000050424,-0.008900031633679143,0.00015028338600035787
0.1825,0.00016013529049997916,-0.7849915349999994,4.058077259893084e-06,-2.3558196300000005,7.655060099995076e-05,1.570964285,0.7859798874999999,0.039999984200000005,0.039999980399999996,-9.821225549999996,-0.0037097454886019657,-0.00013006757750535591,0.00021054179250051125,-0.008962393552069006,0.00015574877400036287
0.185,0.000159763328999973,-0.7849832699999995,2.1579565698623696e-06,-2.35582436,7.56754599999366e-05,1.57096343,0.78597884,0.0399999833,0.039999979299999995,-9.82110999999999,-0.0038143857847969895,-0.00020563417200491398,0.00021865940900056034,-0.009019416105005788,0.00016170562500041744
0.1875,0.00015936228749997264,-0.7849751249999994,1.1298072486050795e-07,-2.3558288000000003,7.473350499993574e-05,1.570962425,0.7859776999999999,0.03999998225,0.03999997825,-9.82096599999999,-0.003920167568146891,-0.0002786482500049804,0.00022698541250056793,-0.009073768975216832,0.0001679082075004231
0.19,0.0001589612459999723,-0.7849669799999994,-1.9319951201413537e-06,-2.3558332400000004,7.379154999993489e-05,1.57096142,0.7859765599999999,0.0399999812,0.0399999772,-9.820821999999989,-0.004025949351496792,-0.00035166232800504693,0.00023531141600057552,-0.009128121845427878,0.00017411079000042873
0.1925,0.00015856020449997191,-0.7849588349999994,-3.976970965143215e-06,-2.35583768,7.284959499993403e-05,1.5709604149999998,0.7859754199999999,0.03999998015,0.03999997615,-9.82067799999999,-0.004131731134846693,-0.00042467640600511334,0.0002436374195005831,-0.009182474715638923,0.0001803133725004344
0.195,0.00015815916299997157,-0.7849506899999994,-6.021946810145077e-06,-2.35584212,7.190763999993318e-05,1.57095941,0.7859742799999999,0.0399999791,0.0399999751,-9.82053399999999,-0.004237512918196595,-0.0004976904840051799,0.0002519634230005907,-0.009236827585849967,0.00018651595500044003
0.1975,0.0001577581214999712,-0.7849425449999995,-8.066922655146938e-06,-2.3558465600000003,7.096568499993231e-05,1.5709584049999998,0.78597314,0.03999997805,0.03999997405,-9.820389999999989,-0.0043432947015464955,-0.0005707045620052464,0.00026028942650059827,-0.009291180456061011,0.00019271853750044566
0.2,0.00015735707999996353,-0.7849343999999995,-1.0111898500185061e-05,-2.3558510000000004,7.002372999991474e-05,1.5709574,0.7859719999999999,0.039999977,0.039999973,-9.82024599999999,-0.004449076484896547,-0.0006437186400039878,0.0002686154300007089,-0.009345533326271636,0.00019892112000052627
0.2025,0.00015685561499996305,-0.7849264874999995,-1.2655206925187376e-05,-2.35585499,6.885210399991369e-05,1.57095638,0.785970569,0.03999997595,0.03999997105,-9.82012937499999,-0.004556919308387156,-0.0006985226940040376,0.00027835828550071783,-0.009394124755639345,0.00020615368650053284
0.20500000000000002,0.0001563541499999626,-0.7849185749999994,-1.5198515350189693e-05,-2.3558589800000003,6.768047799991262e-05,1.57095536,0.7859691379999999,0.0399999749,0.0399999691,-9.820012749999991,-0.004664762131877763,-0.0007533267480040875,0.0002881011410007267,-0.009442716185007055,0.00021338625300053944
0.20750000000000002,0.00015585268499996216,-0.7849106624999994,-1.7741823775192007e-05,-2.35586297,6.650885199991155e-05,1.57095434,0.785967707,0.03999997385,0.03999996715,-9.81989612499999,-0.004772604955368372,-0.0008081308020041374,0.00029784399650073555,-0.009491307614374764,0.00022061881950054602
0.21,0.00015535121999996169,-0.7849027499999994,-2.0285132200194297e-05,-2.35586696,6.533722599991049e-05,1.5709533199999999,0.7859662759999999,0.0399999728,0.0399999652,-9.81977949999999,-0.004880447778858979,-0.0008629348560041867,0.0003075868520007443,-0.009539899043742472,0.0002278513860005525
0.2125,0.00015484975499996124,-0.7848948374999993,-2.2828440625196613e-05,-2.3558709500000004,6.416559999990942e-05,1.5709522999999999,0.785964845,0.03999997175,0.03999996325,-9.81966287499999,-0.004988290602349586,-0.0009177389100042367,0.00031732970750075317,-0.009588490473110181,0.0002350839525005591
0.215,0.0001543482899999608,-0.7848869249999993,-2.5371749050198927e-05,-2.35587494,6.299397399990837e-05,1.5709512799999998,0.7859634139999999,0.039999970700000005,0.0399999613,-9.81954624999999,-0.005096133425840195,-0.0009725429640042864,0.00032707256300076203,-0.00963708190247789,0.00024231651900056568
0.2175,0.0001538087969999513,-0.7848790774999994,-2.810315490024589e-05,-2.355878605,6.173562499988672e-05,1.5709502499999999,0.7859618669999999,0.0399999698,0.0399999599,-9.819449574999995,-0.0052053338382481405,-0.0010300315250049736,0.00033725716100087576,-0.009683913644406577,0.00024981676600063584
0.22,0.00015319324799995074,-0.7848713599999994,-3.121075560024872e-05,-2.3558816200000003,6.0303829999885406e-05,1.5709491999999998,0.785960088,0.0399999692,0.0399999596,-9.819392799999994,-0.005317249428489797,-0.0010928891000050308,0.00034832524400088587,-0.009727226011458466,0.00025785237400064316
0.2225,0.00015257769899995017,-0.7848636424999994,-3.431835630025155e-05,-2.3558846350000002,5.88720349998841e-05,1.57094815,0.7859583089999999,0.0399999686,0.0399999593,-9.819336024999995,-0.005429165018731454,-0.001155746675005088,0.00035939332700089593,-0.009770538378510355,0.00026588798200065047
0.225,0.00015196214999994962,-0.7848559249999993,-3.742595700025438e-05,-2.35588765,5.74402399998828e-05,1.5709471,0.7859565299999999,0.039999968,0.039999959,-9.819279249999994,-0.005541080608973111,-0.0012186042500051454,0.000370461410000906,-0.009813850745562245,0.0002739235900006578
0.2275,0.00015134660099994906,-0.7848482074999994,-4.0533557700257205e-05,-2.355890665,5.60084449998815e-05,1.5709460499999999,0.7859547509999999,0.0399999674,0.039999958700000005,-9.819222474999995,-0.0056529961992147675,-0.0012814618250052024,0.0003815294930009161,-0.009857163112614134,0.0002819591980006651
0.23,0.00015073105199994849,-0.7848404899999993,-4.364115840026004e-05,-2.3558936800000003,5.4576649999880194e-05,1.570945,0.7859529719999999,0.0399999668,0.0399999584,-9.819165699999994,-0.005764911789456425,-0.0013443194000052597,0.00039259757600092616,-0.009900475479666025,0.0002899948060006724
0.2325,0.00015011550299994794,-0.7848327724999994,-4.6748759100262866e-05,-2.355896695,5.314485499987889e-05,1.57094395,0.7859511929999999,0.0399999662,0.0399999581,-9.819108924999995,-0.005876827379698081,-0.001407176975005317,0.0004036656590009362,-0.009943787846717914,0.00029803041400067973
0.23500000000000001,0.00014941452899993641,-0.7848250899999993,-5.027777000031974e-05,-2.3558991700000003,5.151887529985268e-05,1.57094263,0.7859491299999999,0.039999966399999996,0.039999958200000005,-9.819010499999989,-0.005989890499050196,-0.0014630449000044778,0.00041568443800106824,-0.009982107952240183,0.0003067039790007689
0.23750000000000002,0.00014867084249993573,-0.7848174249999994,-5.4017486000323144e-05,-2.355901375,4.9795803249851114e-05,1.570941175,0.7859469249999999,0.039999967,0.0399999585,-9.81889124999999,-0.00610352738295732,-0.0015154180000045254,0.0004281785650010796,-0.010017931926998595,0.00031569652250077704
0.24,0.00014792715599993506,-0.7848097599999994,-5.77572020003265e-05,-2.35590358,4.8072731199849566e-05,1.57093972,0.7859447199999998,0.0399999676,0.0399999588,-9.81877199999999,-0.006217164266864441,-0.0015677911000045726,0.00044067269200109084,-0.010053755901757007,0.0003246890660007851
0.2425,0.00014718346949993438,-0.7848020949999993,-6.149691800032991e-05,-2.355905785,4.6349659149848e-05,1.570938265,0.7859425149999998,0.0399999682,0.0399999591,-9.81865274999999,-0.006330801150771565,-0.0016201642000046202,0.0004531668190011022,-0.01008957987651542,0.0003336816095007933
0.245,0.00014643978299993371,-0.7847944299999993,-6.523663400033331e-05,-2.35590799,4.462658709984643e-05,1.5709368099999999,0.7859403099999999,0.0399999688,0.0399999594,-9.81853349999999,-0.006444438034678688,-0.0016725373000046678,0.00046566094600111356,-0.010125403851273833,0.0003426741530008015
0.2475,0.00014569609649993303,-0.7847867649999992,-6.897635000033671e-05,-2.355910195,4.2903515049844854e-05,1.5709353549999998,0.7859381049999998,0.0399999694,0.039999959700000004,-9.81841424999999,-0.006558074918585811,-0.0017249104000047156,0.0004781550730011249,-0.010161227826032246,0.0003516666965008097
0.25,0.00014495240999991938,-0.7847790999999993,-7.271606600040393e-05,-2.3559124,4.11804429998139e-05,1.5709338999999998,0.7859358999999998,0.03999997,0.03999996,-9.818294999999994,-0.006671711802492934,-0.001777283500004248,0.0004906492000012882,-0.010197051800790221,0.00036065924000091865
0.2525,0.00014406617099991858,-0.7847714244999993,-7.715732960040797e-05,-2.35591414,3.913420899981203e-05,1.5709323099999999,0.7859333199999998,0.03999997,0.039999959700000004,-9.818215199999994,-0.006785340933139623,-0.0018239925400042906,0.0005048141875013012,-0.010228061769160449,0.0003707597870009278
0.255,0.00014317993199991779,-0.7847637489999992,-8.159859320041201e-05,-2.35591588,3.708797499981017e-05,1.5709307199999998,0.7859307399999997,0.03999997,0.0399999594,-9.818135399999994,-0.006898970063786311,-0.0018707015800043332,0.000518979175001314,-0.010259071737530677,0.00038086033400093705
0.2575,0.00014229369299991696,-0.7847560734999992,-8.603985680041605e-05,-2.35591762,3.5041740999808305e-05,1.57092913,0.7859281599999998,0.03999997,0.0399999591,-9.818055599999992,-0.007012599194433,-0.0019174106200043758,0.000533144162501327,-0.010290081705900905,0.0003909608810009462
0.26,0.00014140745399991616,-0.7847483979999992,-9.04811204004201e-05,-2.35591936,3.299550699980644e-05,1.5709275399999998,0.7859255799999998,0.03999997,0.0399999588,-9.817975799999992,-0.007126228325079688,-0.001964119660004418,0.0005473091500013399,-0.010321091674271133,0.0004010614280009554
0.2625,0.00014052121499991536,-0.7847407224999993,-9.492238400042415e-05,-2.3559211,3.0949272999804584e-05,1.57092595,0.7859229999999997,0.03999997,0.0399999585,-9.817895999999992,-0.0072398574557263765,-0.0020108287000044607,0.0005614741375013528,-0.010352101642641361,0.00041116197500096457
0.265,0.00013963497599991457,-0.7847330469999992,-9.936364760042819e-05,-2.35592284,2.890303899980272e-05,1.5709243599999998,0.7859204199999997,0.03999997,0.039999958200000005,-9.817816199999992,-0.007353486586373065,-0.0020575377400045033,0.0005756391250013657,-0.01038311161101159,0.0004212625220009738
0.2675,0.00013869632549989844,-0.7847253584999992,-0.00010406232800050739,-2.35592421,2.6738195999766226e-05,1.57092273,0.7859176874999997,0.03999997015,0.0399999581,-9.817748749999994,-0.007467004237707536,-0.0021044529600046063,0.0005902199825015001,-0.010412649810316723,0.0004316530260010676
0.27,0.0001376528519998975,-0.7847176439999992,-0.00010927584200051213,-2.35592484,2.433613499976404e-05,1.57092102,0.7859146499999997,0.039999970600000004,0.0399999584,-9.817705999999996,-0.007580298930417669,-0.0021517805400046493,0.0006056325800015141,-0.010439244471492953,0.0004426234440010776
0.2725,0.00013660937849989654,-0.7847099294999992,-0.00011448935600051689,-2.35592547,2.193407399976185e-05,1.5709193099999998,0.7859116124999996,0.03999997105,0.039999958700000005,-9.817663249999995,-0.007693593623127802,-0.0021991081200046923,0.0006210451775015281,-0.010465839132669182,0.0004535938620010876
0.275,0.0001355659049998956,-0.7847022149999993,-0.00011970287000052163,-2.3559261,1.9532012999759664e-05,1.5709175999999998,0.7859085749999997,0.0399999715,0.039999959,-9.817620499999995,-0.007806888315837935,-0.0022464357000047354,0.0006364577750015421,-0.01049243379384541,0.0004645642800010976
0.2775,0.00013452243149989464,-0.7846945004999992,-0.00012491638400052637,-2.35592673,1.712995199975748e-05,1.5709158899999998,0.7859055374999997,0.039999971950000004,0.0399999593,-9.817577749999995,-0.00792018300854807,-0.0022937632800047784,0.0006518703725015562,-0.01051902845502164,0.0004755346980011076
0.28,0.00013347895799989369,-0.7846867859999992,-0.00013012989800053113,-2.3559273600000004,1.4727890999755293e-05,1.57091418,0.7859024999999997,0.0399999724,0.0399999596,-9.817534999999996,-0.008033477701258201,-0.0023410908600048214,0.0006672829700015702,-0.01054562311619787,0.0004865051160011176
0.28250000000000003,0.00013243548449989274,-0.7846790714999992,-0.00013534341200053586,-2.35592799,1.2325829999753105e-05,1.57091247,0.7858994624999998,0.03999997285,0.0399999599,-9.817492249999995,-0.008146772393968335,-0.0023884184400048644,0.0006826955675015842,-0.0105722177773741,0.0004974755340011276
0.28500000000000003,0.00013127725099987394,-0.7846712399999992,-0.00014111964500062815,-2.35592815,9.664575999710603e-06,1.57091046,0.7858961009999996,0.0399999734,0.0399999606,-9.817410599999988,-0.00826296582819242,-0.00243319054000451,0.0006990873200017505,-0.010594228189440584,0.0005091194160012423
0.28750000000000003,0.00013006163749987282,-0.7846633499999992,-0.00014717723750063365,-2.355928075,6.873725499708062e-06,1.5709082999999997,0.7858925774999996,0.039999974,0.0399999615,-9.81730949999999,-0.008380608633172807,-0.0024766849000045494,0.0007159686500017659,-0.010613946476953262,0.0005211000300012533
0.29,0.00012884602399987176,-0.7846554599999992,-0.00015323483000063905,-2.355928,4.082874999705583e-06,1.5709061399999997,0.7858890539999996,0.0399999746,0.0399999624,-9.81720839999999,-0.008498251438153191,-0.002520179260004588,0.0007328499800017808,-0.01063366476446594,0.0005330806440012639
0.2925,0.00012763041049987066,-0.7846475699999992,-0.00015929242250064456,-2.355927925,1.2920244997030413e-06,1.5709039799999998,0.7858855304999997,0.0399999752,0.0399999633,-9.81710729999999,-0.008615894243133578,-0.0025636736200046278,0.0007497313100017963,-0.010653383051978618,0.0005450612580012748
0.295,0.00012641479699986954,-0.7846396799999992,-0.00016535001500065006,-2.35592785,-1.4988260002995e-06,1.5709018199999998,0.7858820069999997,0.0399999758,0.0399999642,-9.81700619999999,-0.008733537048113965,-0.0026071679800046673,0.0007666126400018116,-0.010673101339491295,0.0005570418720012857
0.2975,0.00012519918349986845,-0.7846317899999992,-0.0001714076075006556,-2.355927775,-4.2896765003020414e-06,1.5708996599999998,0.7858784834999997,0.0399999764,0.0399999651,-9.816905099999989,-0.008851179853094351,-0.002650662340004707,0.0007834939700018269,-0.010692819627003974,0.0005690224860012966
0.3,0.00012398356999984692,-0.7846238999999992,-0.00017746520000076115,-2.3559277,-7.080527000350651e-06,1.5708974999999998,0.7858749599999996,0.039999977,0.039999966,-9.816803999999994,-0.008968822658074268,-0.002694156700003812,0.0008003753000019985,-0.010712537914516268,0.0005810031000014334
0.3025,0.00012258071974984564,-0.7846157939999991,-0.0001844395025007675,-2.355927055,-1.0293531050353577e-05,1.5708952049999998,0.7858708919999996,0.0399999764,0.039999964799999996,-9.816757199999994,-0.009082151856285801,-0.002729088115003844,0.0008186876810020152,-0.010728738876061388,0.0005941379700014454
0.305,0.00012117786949984435,-0.7846076879999991,-0.00019141380500077384,-2.35592641,-1.3506535100356502e-05,1.5708929099999998,0.7858668239999995,0.0399999758,0.0399999636,-9.816710399999995,-0.009195481054497334,-0.002764019530003876,0.0008370000620020318,-0.010744939837606507,0.0006072728400014573
0.3075,0.00011977501924984308,-0.7845995819999991,-0.0001983881075007802,-2.355925765,-1.671953915035943e-05,1.5708906149999997,0.7858627559999996,0.0399999752,0.0399999624,-9.816663599999995,-0.009308810252708867,-0.0027989509450039073,0.0008553124430020486,-0.010761140799151627,0.0006204077100014693
0.31,0.0001183721689998418,-0.7845914759999991,-0.00020536241000078653,-2.3559251199999998,-1.9932543200362354e-05,1.5708883199999997,0.7858586879999995,0.0399999746,0.0399999612,-9.816616799999995,-0.0094221394509204,-0.0028338823600039392,0.0008736248240020652,-0.010777341760696748,0.0006335425800014813
0.3125,0.00011696931874984053,-0.784583369999999,-0.00021233671250079288,-2.355924475,-2.314554725036528e-05,1.5708860249999999,0.7858546199999995,0.039999974,0.03999996,-9.816569999999995,-0.009535468649131934,-0.002868813775003971,0.0008919372050020819,-0.010793542722241867,0.0006466774500014932
0.315,0.00011556646849983924,-0.784575263999999,-0.00021931101500079924,-2.35592383,-2.6358551300368205e-05,1.5708837299999998,0.7858505519999995,0.0399999734,0.0399999588,-9.816523199999995,-0.009648797847343467,-0.002903745190004003,0.0009102495860020985,-0.010809743683786987,0.0006598123200015052
0.3175,0.00011409612424981458,-0.784567061999999,-0.00022661533250091994,-2.35592283,-2.9723543050423795e-05,1.5708812899999998,0.7858462904999994,0.039999973200000004,0.0399999581,-9.816486149999998,-0.00976244369523048,-0.0029413596350049646,0.000929077833002294,-0.010824640747161066,0.0006732477125016214
0.32,0.00011249079199981312,-0.784558667999999,-0.00023457968000092718,-2.3559211199999996,-3.3392510200427135e-05,1.5708785599999997,0.7858416419999994,0.0399999738,0.0399999584,-9.816468599999999,-0.009876722842468124,-0.0029843401400050035,0.000948937812002312,-0.010836930014194411,0.0006872841500016341
0.3225,0.00011088545974981165,-0.784550273999999,-0.00024254402750093445,-2.35591941,-3.7061477350430474e-05,1.5708758299999996,0.7858369934999995,0.0399999744,0.039999958700000005,-9.816451049999998,-0.009991001989705768,-0.003027320645005043,0.0009687977910023301,-0.010849219281227757,0.0007013205875016469
0.325,0.00010928012749981019,-0.784541879999999,-0.0002505083750009417,-2.3559177,-4.0730444500433814e-05,1.5708730999999998,0.7858323449999994,0.039999975,0.039999959,-9.816433499999999,-0.010105281136943412,-0.003070301150005082,0.0009886577700023483,-0.010861508548261104,0.0007153570250016597
0.3275,0.00010767479524980873,-0.784533485999999,-0.0002584727225009489,-2.3559159899999997,-4.439941165043715e-05,1.5708703699999997,0.7858276964999994,0.0399999756,0.0399999593,-9.816415949999998,-0.010219560284181056,-0.003113281655005121,0.0010085177490023662,-0.01087379781529445,0.0007293934625016724
0.33,0.00010606946299980727,-0.784525091999999,-0.00026643707000095616,-2.35591428,-4.806837880044049e-05,1.5708676399999997,0.7858230479999995,0.0399999762,0.0399999596,-9.816398399999999,-0.0103338394314187,-0.00315626216000516,0.0010283777280023843,-0.010886087082327795,0.0007434299000016853
0.3325,0.0001044641307498058,-0.784516697999999,-0.00027440141750096345,-2.3559125699999997,-5.173734595044383e-05,1.5708649099999996,0.7858183994999994,0.039999976799999996,0.0399999599,-9.816380849999998,-0.010448118578656344,-0.0031992426650051995,0.0010482377070024024,-0.010898376349361142,0.0007574663375016981
0.335,0.00010271359039977779,-0.784508039999999,-0.00028307494000110036,-2.3559102999999997,-5.5732822500506866e-05,1.5708619599999996,0.7858133449999993,0.039999977,0.0399999598,-9.81631779999999,-0.010560425277812858,-0.0032370386500042907,0.0010690634900025972,-0.010907237604261221,0.0007722789700018527
0.3375,0.00010089044599977614,-0.7844992499999989,-0.00029210305000110855,-2.3559077499999996,-5.9891553750510655e-05,1.5708588999999997,0.7858080874999993,0.039999977,0.0399999595,-9.81623199999999,-0.010671745752929344,-0.0032722423750043226,0.0010903721750026166,-0.010914384853095602,0.0007874797000018666
0.34,9.906730159977447e-05,-0.7844904599999989,-0.0003011311600011168,-2.3559051999999996,-6.405028500051444e-05,1.5708558399999997,0.7858028299999994,0.039999977,0.039999959200000004,-9.81614619999999,-0.010783066228045831,-0.003307446100004355,0.0011116808600026358,-0.010921532101929983,0.0008026804300018804
0.3425,9.724415719977282e-05,-0.7844816699999989,-0.00031015927000112504,-2.3559026499999995,-6.820901625051822e-05,1.5708527799999996,0.7857975724999994,0.039999977,0.0399999589,-9.81606039999999,-0.010894386703162317,-0.003342649825004387,0.0011329895450026552,-0.010928679350764366,0.0008178811600018942
0.34500000000000003,9.542101279977115e-05,-0.7844728799999988,-0.0003191873800011332,-2.3559000999999995,-7.236774750052202e-05,1.5708497199999996,0.7857923149999994,0.039999977,0.0399999586,-9.81597459999999,-0.011005707178278803,-0.003377853550004419,0.0011542982300026747,-0.010935826599598747,0.0008330818900019081
0.34750000000000003,9.35978683997695e-05,-0.7844640899999988,-0.00032821549000114147,-2.3558975499999995,-7.65264787505258e-05,1.5708466599999995,0.7857870574999993,0.039999977,0.0399999583,-9.815888799999989,-0.01111702765339529,-0.0034130572750044512,0.001175606915002694,-0.010942973848433128,0.0008482826200019219
0.35000000000000003,9.177472399973814e-05,-0.7844552999999987,-0.00033724360000129456,-2.3558949999999994,-8.06852100005963e-05,1.5708435999999995,0.7857817999999992,0.039999977,0.039999958,-9.815802999999997,-0.0112283481285117,-0.003448261000005417,0.0011969156000028998,-0.010950121097267035,0.0008634833500020519
0.3525,8.971837189973632e-05,-0.7844460899999988,-0.00034740959200130363,-2.3558916099999996,-8.536788750060047e-05,1.5708401949999995,0.7857759259999992,0.03999997745,0.0399999583,-9.815772324999998,-0.011339068179964313,-0.003490798690005455,0.00121968677000292,-0.010953537281602992,0.0008795966875020662
0.355,8.766201979973445e-05,-0.7844368799999988,-0.00035757558400131286,-2.3558882199999993,-9.005056500060473e-05,1.5708367899999995,0.7857700519999993,0.0399999779,0.0399999586,-9.815741649999996,-0.01144978823141693,-0.0035333363800054934,0.0012424579400029407,-0.01095695346593895,0.0008957100250020809
0.3575,8.560566769973257e-05,-0.7844276699999988,-0.00036774157600132215,-2.3558848299999995,-9.473324250060899e-05,1.5708333849999996,0.7857641779999992,0.03999997835,0.0399999589,-9.815710974999996,-0.011560508282869544,-0.0035758740700055323,0.0012652291100029615,-0.01096036965027491,0.0009118233625020956
0.36,8.35493155997307e-05,-0.7844184599999988,-0.0003779075680013314,-2.3558814399999997,-9.941592000061326e-05,1.5708299799999994,0.7857583039999992,0.039999978799999995,0.039999959200000004,-9.815680299999997,-0.01167122833432216,-0.003618411760005571,0.001288000280002982,-0.010963785834610867,0.0009279367000021102
0.3625,8.149296349972882e-05,-0.7844092499999987,-0.0003880735600013406,-2.3558780499999994,-0.00010409859750061752,1.5708265749999994,0.7857524299999993,0.03999997925,0.0399999595,-9.815649624999995,-0.011781948385774775,-0.0036609494500056093,0.0013107714500030028,-0.010967202018946826,0.0009440500375021249
0.365,7.943661139972695e-05,-0.7844000399999987,-0.0003982395520013499,-2.3558746599999996,-0.00010878127500062179,1.5708231699999995,0.7857465559999992,0.0399999797,0.0399999598,-9.815618949999996,-0.011892668437227392,-0.0037034871400056482,0.0013335426200030236,-0.010970618203282784,0.0009601633750021396
0.3675,7.729738149969184e-05,-0.7843906649999987,-0.0004088095440015212,-2.355870994999999,-0.00011364996700070066,1.5708196049999994,0.7857404429999991,0.03999998,0.0399999599,-9.815585974999996,-0.01200187318028437,-0.0037445397200050914,0.0013567381300032145,-0.010972738591954027,0.00097666553000231
0.37,7.499239599968975e-05,-0.7843809599999987,-0.00042018753600153155,-2.3558667799999995,-0.00011889068800070542,1.5708157199999995,0.7857338519999991,0.03999998,0.0399999596,-9.815548399999996,-0.012108047306551892,-0.003782622080005126,0.0013807823200032365,-0.010972267389297397,0.0009939453200023258
0.3725,7.268741049968764e-05,-0.7843712549999986,-0.00043156552800154187,-2.3558625649999994,-0.0001241314090007102,1.5708118349999993,0.7857272609999991,0.03999998,0.0399999593,-9.815510824999995,-0.012214221432819413,-0.0038207044400051606,0.0014048265100032582,-0.010971796186640766,0.0010112251100023416
0.375,7.038242499968554e-05,-0.7843615499999986,-0.00044294352000155224,-2.355858349999999,-0.00012937213000071497,1.5708079499999994,0.7857206699999991,0.03999998,0.039999959,-9.815473249999995,-0.012320395559086934,-0.0038587868000051952,0.0014288707000032802,-0.010971324983984135,0.0010285049000023573
0.3775,6.807743949968345e-05,-0.7843518449999987,-0.0004543215120015626,-2.355854134999999,-0.00013461285100071973,1.5708040649999995,0.7857140789999991,0.03999998,0.039999958700000005,-9.815435674999994,-0.012426569685354457,-0.00389686916000523,0.001452914890003302,-0.010970853781327505,0.001045784690002373
0.38,6.577245399968135e-05,-0.7843421399999986,-0.000465699504001573,-2.3558499199999994,-0.0001398535720007245,1.5708001799999993,0.7857074879999991,0.03999998,0.0399999584,-9.815398099999994,-0.012532743811621979,-0.0039349515200052644,0.001476959080003324,-0.010970382578670874,0.0010630644800023888
0.3825,6.346746849967924e-05,-0.7843324349999986,-0.00047707749600158335,-2.3558457049999992,-0.00014509429300072927,1.5707962949999994,0.785700896999999,0.03999998,0.0399999581,-9.815360524999996,-0.0126389179378895,-0.0039730338800052995,0.001501003270003346,-0.010969911376014245,0.0010803442700024046
0.385,6.0986448999640164e-05,-0.7843223429999985,-0.0004893129640017738,-2.355840839999999,-0.00015072973500081696,1.5707921599999994,0.7856938099999989,0.039999980399999996,0.039999958200000005,-9.815332299999996,-0.012744919303819406,-0.00401152170000542,0.0015260777100035842,-0.010967416875063838,0.001098231440002548
0.3875,5.841741249963783e-05,-0.7843120574999985,-0.0005019771700017853,-2.355835649999999,-0.0001565625375008223,1.5707878999999993,0.7856864749999989,0.039999981,0.0399999585,-9.815308749999996,-0.012850834289580558,-0.004050212250005455,0.0015516672750036076,-0.01096391072496718,0.0011164223000025644
0.39,5.584837599963549e-05,-0.7843017719999985,-0.0005146413760017969,-2.355830459999999,-0.0001623953400008276,1.5707836399999993,0.7856791399999989,0.0399999816,0.0399999588,-9.815285199999996,-0.012956749275341708,-0.00408890280000549,0.0015772568400036309,-0.010960404574870523,0.001134613160002581
0.3925,5.327933949963315e-05,-0.7842914864999985,-0.0005273055820018083,-2.355825269999999,-0.0001682281425008329,1.5707793799999994,0.7856718049999989,0.0399999822,0.0399999591,-9.815261649999997,-0.01306266426110286,-0.004127593350005525,0.001602846405003654,-0.010956898424773865,0.0011528040200025976
0.395,5.071030299963081e-05,-0.7842812009999985,-0.0005399697880018199,-2.355820079999999,-0.0001740609450008382,1.5707751199999993,0.785664469999999,0.0399999828,0.0399999594,-9.815238099999997,-0.013168579246864012,-0.00416628390000556,0.0016284359700036773,-0.010953392274677206,0.001170994880002614
0.3975,4.8141266499628475e-05,-0.7842709154999985,-0.0005526339940018314,-2.355814889999999,-0.0001798937475008435,1.5707708599999994,0.7856571349999989,0.0399999834,0.039999959700000004,-9.815214549999997,-0.013274494232625163,-0.0042049744500055955,0.0016540255350037008,-0.010949886124580548,0.0011891857400026307
0.4,4.557222999958547e-05,-0.7842606299999985,-0.0005652982000020409,-2.355809699999999,-0.00018572655000093996,1.5707665999999993,0.7856497999999987,0.039999984,0.03999996,-9.815190999999995,-0.013380409218384931,-0.004243665000006575,0.0016796151000039441,-0.010946379974483358,0.001207376600002796
0.4025,4.272375654958287e-05,-0.7842497204999984,-0.0005793226300020536,-2.355803549999999,-0.00019218560700094584,1.5707619649999993,0.7856416849999988,0.0399999846,0.03999996,-9.815155899999995,-0.01347682108172694,-0.004288848690006617,0.0017067168750039689,-0.0109392112120975,0.0012265888700028135
0.405,3.987528309958028e-05,-0.7842388109999984,-0.0005933470600020665,-2.3557973999999993,-0.00019864466400095173,1.5707573299999993,0.7856335699999988,0.039999985200000004,0.03999996,-9.815120799999995,-0.013573232945068946,-0.004334032380006658,0.0017338186500039934,-0.010932042449711644,0.0012458011400028309
0.40750000000000003,3.702680964957769e-05,-0.7842279014999984,-0.0006073714900020793,-2.355791249999999,-0.0002051037210009576,1.5707526949999993,0.7856254549999988,0.0399999858,0.03999996,-9.815085699999996,-0.013669644808410954,-0.004379216070006698,0.0017609204250040181,-0.010924873687325786,0.0012650134100028485
0.41000000000000003,3.4178336199575094e-05,-0.7842169919999984,-0.000621395920002092,-2.355785099999999,-0.00021156277800096348,1.5707480599999992,0.7856173399999987,0.0399999864,0.03999996,-9.815050599999994,-0.013766056671752963,-0.00442439976000674,0.0017880222000040428,-0.01091770492493993,0.0012842256800028658
0.41250000000000003,3.13298627495725e-05,-0.7842060824999985,-0.0006354203500021048,-2.355778949999999,-0.00021802183500096937,1.5707434249999992,0.7856092249999987,0.039999987,0.03999996,-9.815015499999994,-0.01386246853509497,-0.004469583450006781,0.0018151239750040676,-0.010910536162554075,0.0013034379500028834
0.41500000000000004,2.8481389299569907e-05,-0.7841951729999984,-0.0006494447800021176,-2.355772799999999,-0.00022448089200097525,1.5707387899999992,0.7856011099999988,0.0399999876,0.03999996,-9.814980399999994,-0.013958880398436978,-0.004514767140006822,0.001842225750004092,-0.010903367400168217,0.001322650220002901
0.4175,2.553465864952261e-05,-0.7841840449999983,-0.0006639471875023478,-2.355766314999999,-0.00023115997050108123,1.5707339849999993,0.7855927199999987,0.039999988,0.0399999603,-9.814946749999995,-0.014057296793923372,-0.004560758405007231,0.00186979636000433,-0.01089490358717564,0.0013421626350030547
0.42,2.2391413599519748e-05,-0.7841724799999983,-0.0006794055500023619,-2.355759159999999,-0.00023827909200108772,1.5707288399999992,0.7855837799999986,0.039999988,0.0399999612,-9.814915999999995,-0.01415972225369581,-0.004608364820007274,0.0018983046400043557,-0.010883849672971391,0.001362275340003073
0.4225,1.9248168549516886e-05,-0.7841609149999983,-0.000694863912502376,-2.355752004999999,-0.0002453982135010942,1.5707236949999992,0.7855748399999987,0.039999988,0.0399999621,-9.814885249999994,-0.014262147713468249,-0.0046559712350073175,0.0019268129200043817,-0.01087279575876714,0.0013823880450030913
0.425,1.6104923499514023e-05,-0.7841493499999982,-0.00071032227500239,-2.355744849999999,-0.0002525173350011007,1.5707185499999992,0.7855658999999986,0.039999988,0.039999963,-9.814854499999996,-0.014364573173240686,-0.00470357765000736,0.0019553212000044074,-0.010861741844562891,0.0014025007500031096
0.4275,1.2961678449511162e-05,-0.7841377849999982,-0.000725780637502404,-2.355737694999999,-0.00025963645650110714,1.5707134049999991,0.7855569599999986,0.039999988,0.0399999639,-9.814823749999995,-0.014466998633013125,-0.004751184065007403,0.0019838294800044337,-0.01085068793035864,0.001422613455003128
0.43,9.818433399508302e-06,-0.7841262199999982,-0.0007412390000024181,-2.355730539999999,-0.00026675557800111364,1.570708259999999,0.7855480199999986,0.039999988,0.039999964799999996,-9.814792999999995,-0.014569424092785563,-0.004798790480007447,0.0020123377600044594,-0.010839634016154391,0.0014427261600031462
0.4325,6.675188349505439e-06,-0.7841146549999982,-0.0007566973625024322,-2.355723384999999,-0.00027387469950112013,1.570703114999999,0.7855390799999985,0.039999988,0.0399999657,-9.814762249999996,-0.014671849552558002,-0.00484639689500749,0.002040846040004485,-0.010828580101950142,0.0014628388650031645
0.435,3.325246799453513e-06,-0.784102579999998,-0.0007731606750026848,-2.3557155899999986,-0.0002814563390012364,1.570697589999999,0.7855295559999984,0.039999988,0.039999966399999996,-9.814734599999996,-0.014768763631597081,-0.004891641290006973,0.0020703066500047376,-0.01081545734777815,0.001483554500003326
0.4375,-1.2804300054962994e-07,-0.784090249999998,-0.0007901264625027002,-2.3557074749999987,-0.0002892692375012435,1.570691874999999,0.7855197399999984,0.039999988,0.039999967,-9.814708499999997,-0.014862922020271436,-0.004935704675007013,0.002100243425004765,-0.010801300173623022,0.001504571600003345
0.44,-3.581332800552774e-06,-0.784077919999998,-0.0008070922500027157,-2.3556993599999987,-0.0002970821360012506,1.570686159999999,0.7855099239999984,0.039999988,0.0399999676,-9.814682399999995,-0.014957080408945791,-0.004979768060007054,0.002130180200004792,-0.010787142999467893,0.0015255887000033643
0.4425,-7.034622600555917e-06,-0.784065589999998,-0.0008240580375027312,-2.3556912449999987,-0.0003048950345012577,1.5706804449999991,0.7855001079999984,0.039999988,0.0399999682,-9.814656299999996,-0.015051238797620149,-0.005023831445007094,0.002160116975004819,-0.010772985825312767,0.0015466058000033834
0.445,-1.048791240055906e-05,-0.784053259999998,-0.0008410238250027467,-2.3556831299999987,-0.00031270793300126486,1.570674729999999,0.7854902919999984,0.039999988,0.0399999688,-9.814630199999995,-0.015145397186294504,-0.005067894830007134,0.002190053750004847,-0.010758828651157638,0.0015676229000034026
0.4475,-1.3941202200562203e-05,-0.784040929999998,-0.000857989612502762,-2.3556750149999988,-0.00032052083150127194,1.5706690149999991,0.7854804759999984,0.039999988,0.0399999694,-9.814604099999995,-0.015239555574968859,-0.005111958215007174,0.002219990525004874,-0.010744671477002511,0.0015886400000034216
0.45,-1.739449200061859e-05,-0.7840285999999979,-0.0008749554000030362,-2.355666899999999,-0.00032833373000139813,1.570663299999999,0.7854706599999982,0.039999988,0.03999997,-9.814577999999997,-0.015333713963641986,-0.005156021600008595,0.0022499273000051393,-0.010730514302846975,0.0016096571000036703
0.4525,-2.117298930062203e-05,-0.7840154449999978,-0.0008935014300030531,-2.3556577049999987,-0.0003368738705014059,1.570657074999999,0.7854599319999982,0.0399999883,0.03999997,-9.814565999999997,-0.015420368313803605,-0.0052085218550086436,0.002281318535005168,-0.010713863372799934,0.0016320752600036906
0.455,-2.495148660062547e-05,-0.7840022899999978,-0.00091204746000307,-2.3556485099999986,-0.0003454140110014137,1.5706508499999992,0.7854492039999982,0.0399999886,0.03999997,-9.814553999999998,-0.015507022663965224,-0.005261022110008691,0.0023127097700051964,-0.010697212442752894,0.001654493420003711
0.4575,-2.872998390062891e-05,-0.7839891349999978,-0.0009305934900030868,-2.3556393149999986,-0.00035395415150142145,1.570644624999999,0.7854384759999982,0.0399999889,0.03999997,-9.814541999999998,-0.015593677014126844,-0.005313522365008739,0.002344101005005225,-0.010680561512705853,0.0016769115800037314
0.46,-3.2508481200632354e-05,-0.7839759799999978,-0.0009491395200031037,-2.3556301199999985,-0.00036249429200142926,1.570638399999999,0.7854277479999981,0.0399999892,0.03999997,-9.814529999999998,-0.015680331364288463,-0.005366022620008786,0.0023754922400052534,-0.010663910582658814,0.0016993297400037517
0.4625,-3.6286978500635794e-05,-0.7839628249999978,-0.0009676855500031206,-2.3556209249999984,-0.000371034432501437,1.570632174999999,0.7854170199999981,0.0399999895,0.03999997,-9.814517999999998,-0.015766985714450083,-0.005418522875008834,0.002406883475005282,-0.010647259652611773,0.0017217479000037723
0.465,-4.0065475800639234e-05,-0.7839496699999978,-0.0009862315800031375,-2.3556117299999983,-0.00037957457300144483,1.570625949999999,0.7854062919999982,0.039999989799999996,0.03999997,-9.814505999999998,-0.0158536400646117,-0.005471023130008882,0.0024382747100053104,-0.010630608722564733,0.0017441660600037926
0.4675,-4.395737530070054e-05,-0.7839362274999977,-0.0010053285050034353,-2.355602189999998,-0.000388368251001582,1.570619534999999,0.785395244999998,0.03999999,0.039999970350000004,-9.814491049999997,-0.01594027634711537,-0.005525476635009926,0.0024701666850055945,-0.010612944560122116,0.001766789725003918
0.47000000000000003,-4.807607920070428e-05,-0.7839222099999976,-0.0010255272200034539,-2.355591959999998,-0.0003976690040015904,1.570612739999999,0.785383559999998,0.03999999,0.0399999714,-9.814470199999997,-0.01602687649430317,-0.00558383664000998,0.0025030601400056244,-0.010593253932889892,0.0017898244000039388
0.47250000000000003,-5.2194783100708034e-05,-0.7839081924999977,-0.0010457259350034722,-2.355581729999998,-0.0004069697570015989,1.570605944999999,0.785371874999998,0.03999999,0.039999972450000004,-9.814449349999997,-0.016113476641490966,-0.005642196645010033,0.0025359535950056546,-0.01057356330565767,0.0018128590750039599
0.47500000000000003,-5.6313487000711785e-05,-0.7838941749999976,-0.0010659246500034907,-2.355571499999998,-0.00041627051000160735,1.570599149999999,0.785360189999998,0.03999999,0.0399999735,-9.814428499999996,-0.016200076788678765,-0.0057005566500100855,0.0025688470500056845,-0.010553872678425447,0.001835893750003981
0.47750000000000004,-6.043219090071553e-05,-0.7838801574999976,-0.001086123365003509,-2.355561269999998,-0.00042557126300161584,1.570592354999999,0.785348504999998,0.03999999,0.03999997455,-9.814407649999996,-0.016286676935866565,-0.005758916655010139,0.0026017405050057147,-0.010534182051193225,0.0018589284250040018
0.48,-6.45508948007192e-05,-0.7838661399999975,-0.001106322080003527,-2.355551039999998,-0.00043487201600162406,1.570585559999999,0.7853368199999979,0.03999999,0.0399999756,-9.814386799999996,-0.01637327708305436,-0.005817276660010191,0.0026346339600057437,-0.010514491423961003,0.0018819631000040224
0.4825,-6.866959870072294e-05,-0.7838521224999976,-0.0011265207950035454,-2.355540809999998,-0.00044417276900163256,1.570578764999999,0.785325134999998,0.03999999,0.03999997665,-9.814365949999996,-0.01645987723024216,-0.005875636665010244,0.002667527415005774,-0.010494800796728779,0.0019049977750040432
0.485,-7.302506700078936e-05,-0.7838375249999974,-0.001147869080003868,-2.3555298399999978,-0.000454002524001781,1.5705715899999988,0.7853127819999978,0.0399999905,0.0399999763,-9.814350199999998,-0.01653934195639039,-0.005936017600010832,0.002701354940006051,-0.010473448596890757,0.0019291223700043526
0.4875,-7.749891750079342e-05,-0.7838226374999974,-0.001169792150003888,-2.355518499999998,-0.0004640967800017902,1.5705642249999987,0.7853000949999978,0.03999999125,0.03999997525,-9.814336999999997,-0.01661523897202166,-0.0059974090000108875,0.0027356495000060823,-0.010451265610750491,0.001953791925004375
0.49,-8.19727680007975e-05,-0.7838077499999974,-0.001191715220003908,-2.355507159999998,-0.00047419103600179936,1.5705568599999986,0.7852874079999977,0.039999992,0.0399999742,-9.814323799999997,-0.016691135987652927,-0.006058800400010943,0.0027699440600061132,-0.010429082624610226,0.0019784614800043973
0.4925,-8.644661850080156e-05,-0.7837928624999974,-0.001213638290003928,-2.355495819999998,-0.0004842852920018085,1.5705494949999987,0.7852747209999977,0.039999992750000005,0.03999997315,-9.814310599999997,-0.016767033003284196,-0.006120191800010999,0.0028042386200061446,-0.01040689963846996,0.00200313103500442
0.495,-9.092046900080564e-05,-0.7837779749999974,-0.001235561360003948,-2.355484479999998,-0.0004943795480018177,1.5705421299999986,0.7852620339999977,0.039999993500000004,0.0399999721,-9.814297399999997,-0.016842930018915465,-0.0061815832000110555,0.0028385331800061756,-0.010384716652329696,0.002027800590004442
0.4975,-9.539431950080971e-05,-0.7837630874999973,-0.0012574844300039679,-2.3554731399999977,-0.0005044738040018269,1.5705347649999988,0.7852493469999977,0.039999994250000004,0.03999997105,-9.814284199999998,-0.016918827034546734,-0.006242974600011111,0.002872827740006207,-0.01036253366618943,0.002052470145004465
0.5,-9.986817000088106e-05,-0.7837481999999971,-0.0012794075000043142,-2.355461799999998,-0.0005145680600019863,1.5705273999999985,0.7852366599999975,0.039999995,0.03999997,-9.814270999999998,-0.01699472405017835,-0.006304366000011439,0.0029071223000064965,-0.010340350680048644,0.0020771397000045105
0.5025000000000001,-0.00010471189350086907,-0.7837323044999972,-0.0013031258300042555,-2.355449364999998,-0.0005254881605019592,1.5705194499999986,0.7852229259999975,0.03999999575,0.03999997375,-9.814256449999997,-0.017072534095509878,-0.006367257550011283,0.002942837375006408,-0.010315307788546321,0.002101937100004449
0.505,-0.00010955561700085685,-0.7837164089999972,-0.0013268441600041956,-2.355436929999998,-0.0005364082610019317,1.5705114999999985,0.7852091919999976,0.0399999965,0.039999977500000006,-9.814241899999997,-0.017150344140841402,-0.006430149100011125,0.002978552450006318,-0.010290264897044,0.0021267345000043863
0.5075000000000001,-0.00011439934050084485,-0.7837005134999973,-0.001350562490004137,-2.3554244949999976,-0.0005473283615019047,1.5705035499999986,0.7851954579999977,0.03999999725,0.039999981250000004,-9.814227349999998,-0.01722815418617293,-0.006493040650010969,0.003014267525006229,-0.010265222005541677,0.0021515319000043253
0.51,-0.00011924306400083264,-0.7836846179999972,-0.001374280820004077,-2.3554120599999977,-0.0005582484620018771,1.5704955999999985,0.7851817239999976,0.039999998,0.039999985,-9.814212799999996,-0.017305964231504455,-0.00655593220001081,0.003049982600006139,-0.010240179114039355,0.0021763293000042626
0.5125,-0.00012408678750082042,-0.7836687224999973,-0.0013979991500040173,-2.3553996249999978,-0.0005691685625018496,1.5704876499999987,0.7851679899999977,0.03999999875,0.03999998875000001,-9.814198249999997,-0.01738377427683598,-0.006618823750010652,0.003085697675006049,-0.010215136222537034,0.0022011267000042003
0.515,-0.00012893051100080843,-0.7836528269999974,-0.0014217174800039585,-2.355387189999998,-0.0005800886630018226,1.5704796999999986,0.7851542559999978,0.0399999995,0.039999992500000005,-9.814183699999997,-0.017461584322167507,-0.006681715300010496,0.0031214127500059606,-0.01019009333103471,0.002225924100004139
0.5175,-0.0001339023880008713,-0.7836365884999972,-0.0014460576700042634,-2.3553743549999977,-0.0005912944535019627,1.5704715499999986,0.7851401649999976,0.04,0.039999995,-9.814170249999998,-0.017533402889976936,-0.006748643500012499,0.003157626810006201,-0.01016426682471766,0.0022512271900043857
0.52,-0.000139130572000894,-0.7836196639999972,-0.0014716415800043745,-2.3553607199999975,-0.0006030716240020139,1.5704629999999984,0.7851253599999976,0.04,0.039999995,-9.814158999999998,-0.01759323850275109,-0.0068236450000128245,0.003194838840006363,-0.010136873088772317,0.0022775416600045
0.5225,-0.00014435875600091647,-0.783602739499997,-0.0014972254900044845,-2.3553470849999973,-0.0006148487945020645,1.5704544499999984,0.7851105549999975,0.04,0.039999995,-9.814147749999998,-0.017653074115525243,-0.006898646500013147,0.0032320508700065228,-0.010109479352826974,0.002303856130004613
0.525,-0.00014958694000093918,-0.783585814999997,-0.0015228094000045958,-2.355333449999997,-0.0006266259650021156,1.5704458999999984,0.7850957499999974,0.04,0.039999995,-9.814136499999998,-0.0177129097282994,-0.0069736480000134726,0.0032692629000066844,-0.01008208561688163,0.0023301706000047272
0.5275,-0.00015481512400096164,-0.7835688904999969,-0.0015483933100047058,-2.3553198149999974,-0.0006384031355021662,1.5704373499999984,0.7850809449999974,0.04,0.039999995,-9.814125249999998,-0.01777274534107355,-0.007048649500013795,0.0033064749300068443,-0.010054691880936287,0.00235648507000484
0.53,-0.00016004330800098435,-0.7835519659999969,-0.001573977220004817,-2.3553061799999973,-0.0006501803060022174,1.5704287999999984,0.7850661399999972,0.04,0.039999995,-9.814113999999998,-0.017832580953847706,-0.007123651000014121,0.003343686960007006,-0.010027298144990943,0.0023827995400049545
0.5325,-0.0001652714920010068,-0.7835350414999968,-0.001599561130004927,-2.355292544999997,-0.000661957476502268,1.5704202499999984,0.7850513349999971,0.04,0.039999995,-9.814102749999998,-0.01789241656662186,-0.007198652500014444,0.003380898990007166,-0.0099999044090456,0.0024091140100050675
0.535,-0.00017076558500109528,-0.7835173539999966,-0.0016264349100053564,-2.355278079999997,-0.0006743298500024662,1.570411279999998,0.785035783999997,0.04,0.0399999943,-9.814092449999999,-0.017958418279899687,-0.00727653450001544,0.0034190169200075077,-0.009970742557191893,0.0024360054000052904
0.5375,-0.00017639263250110028,-0.7834992849999965,-0.0016539536250053809,-2.355263199999997,-0.0006869998250024773,1.5704020999999981,0.7850198599999969,0.04,0.039999993250000004,-9.814082625,-0.01802750304342666,-0.00735585675001551,0.003457587800007542,-0.009940696647384775,0.0024631852500053147
0.54,-0.00018201968000110553,-0.7834812159999965,-0.0016814723400054065,-2.355248319999997,-0.0006996698000024892,1.5703929199999982,0.7850039359999968,0.04,0.0399999922,-9.814072799999998,-0.018096587806953633,-0.007435179000015584,0.0034961586800075777,-0.009910650737577657,0.00249036510000534
0.5425,-0.0001876467275011105,-0.7834631469999965,-0.001708991055005431,-2.355233439999997,-0.0007123397750025004,1.5703837399999983,0.7849880119999968,0.04,0.039999991150000004,-9.814062974999999,-0.018165672570480604,-0.007514501250015655,0.003534729560007612,-0.00988060482777054,0.002517544950005364
0.545,-0.00019327377500111576,-0.7834450779999965,-0.0017365097700054565,-2.355218559999997,-0.0007250097500025122,1.570374559999998,0.7849720879999968,0.04,0.0399999901,-9.81405315,-0.01823475733400758,-0.007593823500015729,0.003573300440007648,-0.009850558917963423,0.002544724800005389
0.5475,-0.00019890082250112077,-0.7834270089999964,-0.001764028485005481,-2.355203679999997,-0.0007376797250025235,1.5703653799999981,0.7849561639999968,0.04,0.039999989050000004,-9.814043324999998,-0.01830384209753455,-0.007673145750015799,0.0036118713200076823,-0.009820513008156305,0.0025719046500054135
0.55,-0.00020452787000120866,-0.7834089399999962,-0.0017915472000059076,-2.355188799999997,-0.0007503497000027197,1.570356199999998,0.7849402399999965,0.04,0.039999988,-9.814033499999999,-0.018372926861057504,-0.007752468000017905,0.003650442200007993,-0.009790467098348734,0.0025990845000058538
0.5525,-0.00021056799950121402,-0.7833897489999961,-0.0018210691500059337,-2.355172674999997,-0.0007639409900027318,1.570346404999998,0.7849231639999965,0.04,0.0399999835,-9.814024199999999,-0.01842192411423709,-0.007841943450017983,0.0036903858200080285,-0.00975815611890791,0.0026283383850058796
0.555,-0.00021660812900121967,-0.7833705579999961,-0.0018505911000059611,-2.3551565499999967,-0.0007775322800027445,1.570336609999998,0.7849060879999965,0.04,0.039999979,-9.814014899999998,-0.018470921367416685,-0.007931418900018068,0.0037303294400080657,-0.009725845139467086,0.0026575922700059072
0.5575,-0.00022264825850122502,-0.7833513669999962,-0.0018801130500059875,-2.355140424999997,-0.0007911235700027565,1.570326814999998,0.7848890119999965,0.04,0.0399999745,-9.814005599999998,-0.018519918620596272,-0.008020894350018147,0.003770273060008101,-0.009693534160026262,0.002686846155005933
0.56,-0.00022868838800123065,-0.7833321759999962,-0.001909635000006015,-2.355124299999997,-0.0008047148600027692,1.570317019999998,0.7848719359999965,0.04,0.03999997,-9.813996299999998,-0.018568915873775863,-0.008110369800018231,0.0038102166800081387,-0.009661223180585436,0.0027161000400059603
0.5625,-0.00023472851750123603,-0.7833129849999961,-0.001939156950006041,-2.3551081749999967,-0.0008183061500027813,1.570307224999998,0.7848548599999965,0.04,0.0399999655,-9.813986999999997,-0.01861791312695545,-0.00819984525001831,0.003850160300008174,-0.009628912201144613,0.002745353925005986
0.5650000000000001,-0.00024076864700124165,-0.7832937939999961,-0.0019686789000060686,-2.355092049999997,-0.000831897440002794,1.570297429999998,0.7848377839999965,0.04,0.039999961,-9.813977699999997,-0.018666910380135043,-0.008289320700018393,0.0038901039200082113,-0.009596601221703787,0.0027746078100060138
0.5675,-0.00024695113500133517,-0.7832742099999958,-0.0019988910900065222,-2.3550755349999966,-0.0008458062370030027,1.570287409999998,0.7848203149999963,0.0399999995,0.0399999569,-9.813967974999997,-0.018717230204503665,-0.008379241050018749,0.003930507470008532,-0.009563441760830828,0.0028039775650061114
0.5700000000000001,-0.0002534183400013412,-0.7832538399999958,-0.0020304837600065516,-2.3550582399999964,-0.0008603500480030162,1.5702769399999978,0.7848020599999962,0.039999998,0.0399999536,-9.813957399999998,-0.018770195171247905,-0.008470051200018834,0.00397183088000857,-0.00952858533709517,0.002833579060006139
0.5725,-0.00025988554500134696,-0.7832334699999958,-0.0020620764300065797,-2.3550409449999967,-0.0008748938590030291,1.5702664699999977,0.7847838049999962,0.0399999965,0.0399999503,-9.813946824999997,-0.01882316013799214,-0.008560861350018914,0.004013154290008607,-0.009493728913359515,0.0028631805550061655
0.5750000000000001,-0.000266352750001353,-0.7832130999999958,-0.002093669100006609,-2.3550236499999966,-0.0008894376700030427,1.5702559999999979,0.7847655499999963,0.039999994999999997,0.039999947,-9.813936249999998,-0.01887612510473638,-0.008651671500018998,0.004054477700008646,-0.009458872489623857,0.0028927820500061928
0.5775,-0.00027281995500135875,-0.7831927299999957,-0.0021252617700066373,-2.3550063549999964,-0.0009039814810030556,1.5702455299999978,0.7847472949999962,0.0399999935,0.0399999437,-9.813925674999997,-0.01892909007148062,-0.00874248165001908,0.004095801110008682,-0.009424016065888201,0.002922383545006219
0.58,-0.0002792871600013645,-0.7831723599999957,-0.0021568544400066654,-2.3549890599999963,-0.0009185252920030685,1.5702350599999977,0.7847290399999962,0.039999992,0.039999940399999996,-9.813915099999997,-0.018982055038224855,-0.00883329180001916,0.004137124520008719,-0.009389159642152546,0.0029519850400062456
0.5825,-0.00028575436500137053,-0.7831519899999957,-0.0021884471100066948,-2.3549717649999966,-0.0009330691030030821,1.5702245899999978,0.7847107849999961,0.0399999905,0.0399999371,-9.813904524999998,-0.019035020004969094,-0.008924101950019244,0.004178447930008758,-0.009354303218416888,0.0029815865350062733
0.585,-0.0002925155060014701,-0.7831308199999953,-0.002221464580007178,-2.3549536199999963,-0.0009482684260033043,1.5702136199999976,0.7846916899999958,0.0399999894,0.0399999344,-9.8139026,-0.019082884863028594,-0.009020587000021138,0.00422057226000905,-0.009318200778208266,0.0030115494300064147
0.5875,-0.0002994236150014765,-0.7831092499999953,-0.0022551944500072093,-2.3549350499999964,-0.0009637955050033187,1.5702023999999974,0.7846721749999959,0.0399999885,0.039999932,-9.813905,-0.019128199666748162,-0.00911990950002123,0.004263097050009089,-0.00928147532976375,0.003041693025006443
0.59,-0.00030633172400148265,-0.7830876799999954,-0.0022889243200072394,-2.354916479999996,-0.0009793225840033326,1.5701911799999975,0.7846526599999958,0.0399999876,0.0399999296,-9.8139074,-0.019173514470467726,-0.009219232000021317,0.004305621840009127,-0.009244749881319238,0.00307183662000647
0.5925,-0.0003132398330014891,-0.7830661099999954,-0.0023226541900072707,-2.354897909999996,-0.000994849663003347,1.5701799599999975,0.7846331449999958,0.039999986700000004,0.0399999272,-9.813909800000001,-0.019218829274187294,-0.009318554500021411,0.004348146630009167,-0.009208024432874723,0.0031019802150064977
0.595,-0.0003201479420014952,-0.7830445399999953,-0.0023563840600073008,-2.354879339999996,-0.0010103767420033608,1.5701687399999975,0.7846136299999958,0.0399999858,0.0399999248,-9.8139122,-0.01926414407790686,-0.009417877000021498,0.004390671420009205,-0.00917129898443021,0.0031321238100065246
0.5975,-0.0003270560510015017,-0.7830229699999953,-0.002390113930007332,-2.354860769999996,-0.0010259038210033752,1.5701575199999975,0.7845941149999958,0.0399999849,0.0399999224,-9.8139146,-0.019309458881626426,-0.00951719950002159,0.004433196210009244,-0.009134573535985697,0.003162267405006553
0.6,-0.000333964160001607,-0.783001399999995,-0.002423843800007843,-2.3548421999999958,-0.0010414309000036104,1.5701462999999973,0.7845745999999955,0.039999984,0.03999992,-9.813917,-0.019354773685344082,-0.009616522000022262,0.004475721000009603,-0.00909784808754079,0.0031924110000067524
0.6025,-0.00034132668350161385,-0.782978599999995,-0.0024597762250078764,-2.3548222799999956,-0.0010579714750036256,1.5701343899999973,0.7845538249999955,0.039999984,0.03999991955,-9.81391895,-0.019391344208278316,-0.009718511050022357,0.004519713510009644,-0.009059315919867634,0.003223346895006781
0.605,-0.0003486892070016204,-0.782955799999995,-0.0024957086500079083,-2.354802359999996,-0.0010745120500036405,1.5701224799999973,0.7845330499999954,0.039999984,0.0399999191,-9.8139209,-0.019427914731212546,-0.009820500100022446,0.004563706020009682,-0.00902078375219448,0.003254282790006809
0.6075,-0.0003560517305016273,-0.782932999999995,-0.002531641075007942,-2.3547824399999957,-0.0010910526250036557,1.5701105699999973,0.7845122749999954,0.039999984,0.03999991865,-9.81392285,-0.01946448525414678,-0.009922489150022543,0.004607698530009723,-0.008982251584521324,0.0032852186850068376
0.61,-0.00036341425400163385,-0.7829101999999949,-0.002567573500007974,-2.3547625199999955,-0.0011075932000036706,1.5700986599999973,0.7844914999999953,0.039999984,0.039999918200000005,-9.8139248,-0.019501055777081014,-0.010024478200022632,0.004651691040009762,-0.00894371941684817,0.003316154580006865
0.6125,-0.0003707767775016407,-0.7828873999999949,-0.0026035059250080076,-2.354742599999996,-0.0011241337750036858,1.5700867499999973,0.7844707249999954,0.039999984,0.03999991775,-9.81392675,-0.019537626300015248,-0.010126467250022727,0.004695683550009803,-0.008905187249175014,0.003347090475006894
0.615,-0.00037813930100164726,-0.7828645999999949,-0.0026394383500080395,-2.3547226799999956,-0.0011406743500037007,1.5700748399999973,0.7844499499999953,0.039999984,0.0399999173,-9.8139287,-0.01957419682294948,-0.010228456300022818,0.0047396760600098425,-0.00886665508150186,0.0033780263700069215
0.6175,-0.0003856577700017592,-0.7828413649999946,-0.0026761264000085823,-2.3547023549999953,-0.0011575626200039503,1.5700626749999973,0.784428741999995,0.039999984200000005,0.039999917,-9.813925499999996,-0.019608610123402676,-0.010333533400024995,0.004784112060010182,-0.008827307308083438,0.0034092456450071414
0.62,-0.0003934881300017662,-0.7828172599999946,-0.002714325700008616,-2.3546812199999954,-0.001175146280003966,1.5700499999999973,0.784406667999995,0.0399999848,0.039999917,-9.813911999999997,-0.019638708978898148,-0.010444786600025093,0.0048294350400102225,-0.008786328323176138,0.0034410316800071697
0.6225,-0.0004013184900017735,-0.7827931549999946,-0.0027525250000086515,-2.354660084999995,-0.0011927299400039824,1.5700373249999973,0.784384593999995,0.0399999854,0.039999917,-9.813898499999997,-0.01966880783439362,-0.010556039800025197,0.004874758020010265,-0.008745349338268834,0.0034728177150071993
0.625,-0.0004091488500017804,-0.7827690499999945,-0.0027907243000086855,-2.354638949999995,-0.001210313600003998,1.5700246499999972,0.784362519999995,0.039999986,0.039999917,-9.813884999999997,-0.019698906689889092,-0.010667293000025295,0.004920081000010305,-0.008704370353361532,0.0035046037500072276
0.6275000000000001,-0.0004169792100017877,-0.7827449449999945,-0.002828923600008721,-2.3546178149999952,-0.0012278972600040143,1.5700119749999972,0.784340445999995,0.0399999866,0.039999917,-9.813871499999998,-0.019729005545384565,-0.010778546200025399,0.004965403980010347,-0.00866339136845423,0.003536389785007257
0.63,-0.0004248095700017947,-0.7827208399999945,-0.0028671229000087547,-2.3545966799999953,-0.00124548092000403,1.5699992999999972,0.784318371999995,0.0399999872,0.039999917,-9.813857999999998,-0.019759104400880037,-0.0108897994000255,0.005010726960010387,-0.008622412383546928,0.003568175820007285
0.6325000000000001,-0.000432639930001802,-0.7826967349999945,-0.0029053222000087905,-2.354575544999995,-0.0012630645800040465,1.5699866249999972,0.784296297999995,0.0399999878,0.039999917,-9.813844499999998,-0.01978920325637551,-0.011001052600025603,0.00505604994001043,-0.008581433398639624,0.003599961855007315
0.635,-0.00044079087800192,-0.7826717299999941,-0.0029450748500093626,-2.354553409999995,-0.0012813629100043098,1.5699734199999968,0.7842733159999946,0.0399999882,0.039999917,-9.813846000000003,-0.01981436368078512,-0.011118721400027924,0.005102184890010752,-0.008539460320015829,0.0036322337100075115
0.6375000000000001,-0.00044910212000192777,-0.7826462749999941,-0.0029856041750094004,-2.354530774999995,-0.0013000185750043271,1.5699599499999968,0.7842498799999946,0.0399999885,0.039999917,-9.813855000000002,-0.019837054889654364,-0.011239598000028037,0.005148725825010795,-0.0084969901945343,0.0036647484750075418
0.64,-0.00045741336200193515,-0.7826208199999941,-0.0030261335000094365,-2.3545081399999948,-0.0013186742400043436,1.569946479999997,0.7842264439999945,0.0399999888,0.039999917,-9.813864000000002,-0.019859746098523604,-0.011360474600028144,0.005195266760010837,-0.008454520069052772,0.0036972632400075704
0.6425,-0.0004657246040019426,-0.782595364999994,-0.0030666628250094726,-2.3544855049999946,-0.0013373299050043602,1.5699330099999969,0.7842030079999945,0.0399999891,0.039999917,-9.813873000000003,-0.019882437307392843,-0.011481351200028252,0.005241807695010878,-0.008412049943571243,0.0037297780050075994
0.645,-0.0004740358460019503,-0.782569909999994,-0.0031071921500095104,-2.354462869999995,-0.0013559855700043776,1.5699195399999968,0.7841795719999946,0.0399999894,0.039999917,-9.813882000000003,-0.019905128516262083,-0.011602227800028364,0.005288348630010921,-0.008369579818089714,0.0037622927700076297
0.6475,-0.0004823470880019577,-0.7825444549999939,-0.0031477214750095465,-2.354440234999995,-0.0013746412350043942,1.5699060699999967,0.7841561359999945,0.0399999897,0.039999917,-9.813891000000002,-0.019927819725131322,-0.011723104400028472,0.005334889565010962,-0.008327109692608187,0.0037948075350076587
0.65,-0.0004906583300020822,-0.7825189999999936,-0.00318825080001015,-2.3544175999999943,-0.0013932969000046717,1.5698925999999966,0.7841326999999941,0.03999999,0.039999917,-9.813899999999997,-0.019950510933996496,-0.011843981000031251,0.0053814305000113236,-0.008284639567126143,0.003827322300007914
0.6525,-0.00049946338550209,-0.7824921124999936,-0.003231172400010188,-2.354393449999994,-0.0014130530550046894,1.5698783949999966,0.7841078839999941,0.03999999075,0.039999917,-9.813886649999997,-0.019956001359970627,-0.011976134900031368,0.005429313515011366,-0.008239998109628034,0.0038607886500079437
0.655,-0.0005082684410020982,-0.7824652249999936,-0.003274094000010228,-2.3543692999999943,-0.0014328092100047078,1.5698641899999966,0.7840830679999942,0.0399999915,0.039999917,-9.813873299999997,-0.01996149178594476,-0.012108288800031492,0.005477196530011411,-0.008195356652129922,0.0038942550000079746
0.6575,-0.0005170734965021061,-0.7824383374999936,-0.0033170156000102663,-2.354345149999994,-0.0014525653650047253,1.5698499849999965,0.7840582519999941,0.03999999225,0.039999917,-9.813859949999996,-0.019966982211918886,-0.01224044270003161,0.005525079545011453,-0.008150715194631813,0.003927721350008005
0.66,-0.0005258785520021143,-0.7824114499999936,-0.0033599372000103064,-2.3543209999999943,-0.0014723215200047437,1.5698357799999965,0.7840334359999941,0.039999993000000005,0.039999917,-9.813846599999996,-0.019972472637893018,-0.012372596600031732,0.005572962560011498,-0.008106073737133701,0.003961187700008036
0.6625,-0.0005346836075021222,-0.7823845624999936,-0.0034028588000103444,-2.354296849999994,-0.0014920776750047614,1.5698215749999966,0.784008619999994,0.039999993750000004,0.039999917,-9.813833249999997,-0.01997796306386715,-0.01250475050003185,0.00562084557501154,-0.008061432279635591,0.003994654050008066
0.665,-0.0005434886630021304,-0.7823576749999935,-0.0034457804000103845,-2.354272699999994,-0.0015118338300047797,1.5698073699999966,0.783983803999994,0.039999994500000004,0.039999917,-9.813819899999997,-0.01998345348984128,-0.012636904400031974,0.005668728590011585,-0.00801679082213748,0.004028120400008097
0.6675,-0.0005524625300022611,-0.7823303054999932,-0.003489519640011018,-2.3542480799999934,-0.0015319661750050713,1.5697928699999963,0.7839585169999936,0.03999999525,0.039999917,-9.813806599999996,-0.01999214831740023,-0.012771160800033623,0.00571705359001195,-0.007971370988514003,0.004061849270008318
0.67,-0.0005617740200022698,-0.7823019719999931,-0.00353489416001106,-2.3542225199999938,-0.0015528509000050908,1.5697777799999963,0.7839322879999936,0.039999996,0.039999917,-9.813793399999996,-0.020007251948121824,-0.01290962220003375,0.005766262560011995,-0.007924394402641489,0.00409610318000835
0.6725,-0.0005710855100022781,-0.7822736384999931,-0.0035802686800111005,-2.3541969599999937,-0.0015737356250051095,1.5697626899999964,0.7839060589999935,0.03999999675,0.039999917,-9.813780199999997,-0.020022355578843416,-0.013048083600033875,0.005815471530012039,-0.007877417816768978,0.00413035709000838
0.675,-0.0005803970000022868,-0.782245304999993,-0.003625643200011143,-2.3541713999999936,-0.0015946203500051288,1.5697475999999964,0.7838798299999935,0.0399999975,0.039999917,-9.813766999999997,-0.02003745920956501,-0.013186545000034003,0.005864680500012084,-0.007830441230896464,0.004164611000008412
0.6775,-0.000589708490002295,-0.782216971499993,-0.0036710177200111834,-2.3541458399999935,-0.0016155050750051474,1.5697325099999964,0.7838536009999936,0.03999999825,0.039999917,-9.813753799999997,-0.020052562840286604,-0.013325006400034126,0.0059138894700121285,-0.007783464645023952,0.004198864910008443
0.68,-0.0005990199800023037,-0.7821886379999929,-0.0037163922400112255,-2.3541202799999934,-0.001636389800005167,1.5697174199999964,0.7838273719999935,0.039999999,0.039999917,-9.813740599999996,-0.0200676664710082,-0.013463467800034256,0.005963098440012174,-0.007736488059151438,0.0042331188200084744
0.6825,-0.000608331470002312,-0.782160304499993,-0.003761766760011266,-2.3540947199999933,-0.0016572745250051854,1.5697023299999964,0.7838011429999935,0.03999999975,0.039999917,-9.813727399999996,-0.02008277010172979,-0.013601929200034378,0.006012307410012218,-0.007689511473278926,0.004267372730008505
0.685,-0.0006179887900024499,-0.7821309699999925,-0.0038088163200119345,-2.354068239999993,-0.001678929990005493,1.569686709999996,0.783773943999993,0.04,0.039999916600000004,-9.8137275,-0.020086435228585667,-0.013745671700036483,0.006062306260012559,-0.007641730783495181,0.004302259700008773
0.6875,-0.0006278190250024587,-0.7821011349999926,-0.003856703400011977,-2.3540412999999933,-0.0017009708250055127,1.569670824999996,0.783746259999993,0.04,0.039999916,-9.813734250000001,-0.020084381103515087,-0.013892054750036612,0.006112700050012604,-0.007593548041756274,0.004337463200008804
0.6900000000000001,-0.0006376492600024678,-0.7820712999999925,-0.0039045904800120218,-2.354014359999993,-0.001723011660005533,1.569654939999996,0.7837185759999931,0.04,0.0399999154,-9.813741000000002,-0.020082326978444504,-0.01403843780003675,0.006163093840012651,-0.0075453653000173634,0.004372666700008837
0.6925,-0.0006474794950024766,-0.7820414649999925,-0.003952477560012065,-2.353987419999993,-0.0017450524950055528,1.5696390549999961,0.783690891999993,0.04,0.0399999148,-9.813747750000001,-0.020080272853373923,-0.014184820850036878,0.006213487630012696,-0.007497182558278456,0.004407870200008869
0.6950000000000001,-0.0006573097300024858,-0.7820116299999924,-0.0040003646400121095,-2.3539604799999934,-0.0017670933300055732,1.569623169999996,0.783663207999993,0.04,0.0399999142,-9.813754500000002,-0.02007821872830334,-0.014331203900037014,0.006263881420012742,-0.0074489998165395465,0.004443073700008902
0.6975,-0.0006671399650024944,-0.7819817949999924,-0.004048251720012152,-2.353933539999993,-0.001789134165005593,1.569607284999996,0.783635523999993,0.04,0.0399999136,-9.81376125,-0.02007616460323276,-0.014477586950037145,0.006314275210012788,-0.007400817074800638,0.004478277200008933
0.7000000000000001,-0.0006769702000026388,-0.781951959999992,-0.004096138800012851,-2.353906599999993,-0.0018111750000059147,1.5695913999999958,0.7836078399999926,0.04,0.039999913,-9.813768000000001,-0.020074110478160715,-0.01462397000004072,0.006364669000013151,-0.007352634333061366,0.004513480700009119
0.7025,-0.000687331337502648,-0.781920623499992,-0.004146597075012896,-2.353878069999993,-0.0018343986600059352,1.5695746299999958,0.7835786739999926,0.04,0.039999913,-9.813777300000002,-0.02006631195544991,-0.01478384750004086,0.006416303650013196,-0.007303026737632502,0.00454928244500915
0.705,-0.0006976924750026572,-0.7818892869999919,-0.00419705535001294,-2.353849539999993,-0.001857622320005956,1.5695578599999958,0.7835495079999926,0.04,0.039999913,-9.813786600000002,-0.02005851343273911,-0.014943725000041003,0.006467938300013242,-0.007253419142203637,0.004585084190009182
0.7075,-0.0007080536125026669,-0.781857950499992,-0.004247513625012988,-2.3538210099999928,-0.0018808459800059775,1.5695410899999958,0.7835203419999925,0.04,0.039999913,-9.813795900000002,-0.020050714910028307,-0.015103602500041152,0.006519572950013291,-0.007203811546774771,0.004620885935009215
0.71,-0.0007184147500026761,-0.7818266139999919,-0.004297971900013032,-2.353792479999993,-0.0019040696400059983,1.5695243199999955,0.7834911759999925,0.04,0.039999913,-9.813805200000003,-0.020042916387317505,-0.015263480000041293,0.006571207600013337,-0.007154203951345907,0.0046566876800092465
0.7125,-0.0007287758875026858,-0.7817952774999919,-0.00434843017501308,-2.3537639499999927,-0.0019272933000060199,1.5695075499999955,0.7834620099999925,0.04,0.039999913,-9.813814500000001,-0.020035117864606704,-0.015423357500041443,0.0066228422500133844,-0.007104596355917041,0.004692489425009281
0.715,-0.000739137025002695,-0.7817639409999918,-0.004398888450013124,-2.353735419999993,-0.0019505169600060406,1.5694907799999955,0.7834328439999925,0.04,0.039999913,-9.813823800000002,-0.020027319341895902,-0.015583235000041586,0.0066744769000134305,-0.007054988760488177,0.004728291170009312
0.7175,-0.0007496790875028463,-0.7817320794999914,-0.004450222835013858,-2.3537063749999922,-0.001974143650006378,1.5694737349999954,0.783403169999992,0.04,0.03999991265,-9.813825774999996,-0.0200163348577871,-0.015744305750042667,0.006726522720013801,-0.007004759623655589,0.004764365250009559
0.72,-0.000760583000002856,-0.7816991679999914,-0.004503309440013904,-2.353676299999992,-0.0019985764000063997,1.5694561399999953,0.783372479999992,0.04,0.0399999116,-9.813813099999996,-0.019998978450889774,-0.015907763000042815,0.006779390880013848,-0.0069532874040170185,0.004800984000009591
0.7225,-0.0007714869125028662,-0.7816662564999913,-0.004556396045013954,-2.3536462249999923,-0.0020230091500064223,1.5694385449999955,0.7833417899999919,0.04,0.03999991055,-9.813800424999997,-0.019981622043992446,-0.016071220250042966,0.006832259040013897,-0.006901815184378445,0.0048376027500096255
0.725,-0.0007823908250028759,-0.7816333449999913,-0.004609482650014001,-2.353616149999992,-0.002047441900006444,1.5694209499999954,0.7833110999999919,0.04,0.0399999095,-9.813787749999996,-0.01996426563709512,-0.01623467750004311,0.006885127200013944,-0.0068503429647398745,0.004874221500009658
0.7275,-0.0007932947375028861,-0.7816004334999913,-0.004662569255014051,-2.353586074999992,-0.0020718746500064666,1.5694033549999955,0.7832804099999919,0.04,0.03999990845,-9.813775074999997,-0.019946909230197797,-0.016398134750043265,0.006937995360013993,-0.006798870745101301,0.004910840250009692
0.73,-0.0008041986500028957,-0.7815675219999912,-0.004715655860014097,-2.353555999999992,-0.0020963074000064884,1.5693857599999954,0.7832497199999919,0.04,0.0399999074,-9.813762399999996,-0.01992955282330047,-0.01656159200004341,0.00699086352001404,-0.0067473985254627306,0.004947459000009724
0.7325,-0.0008151025625029059,-0.7815346104999912,-0.004768742465014147,-2.353525924999992,-0.002120740150006511,1.5693681649999953,0.7832190299999918,0.04,0.03999990635,-9.813749724999996,-0.019912196416403145,-0.01672504925004356,0.007043731680014089,-0.006695926305824158,0.004984077750009759
0.735,-0.0008263760500030638,-0.7815006209999907,-0.004823618500014912,-2.3534947999999916,-0.002145995940006863,1.5693499499999952,0.7831873099999914,0.04,0.0399999054,-9.81374705,-0.019889476709060976,-0.016899246000048013,0.007097434720014471,-0.0066433351021117385,0.005021193300009991
0.7375,-0.0008378343250030744,-0.7814660924999907,-0.004879389250014964,-2.3534631499999916,-0.002171663250006887,1.569331424999995,0.7831550749999914,0.04,0.0399999045,-9.813749375,-0.01986407535149961,-0.017078812500048182,0.007151555200014521,-0.006590184406363064,0.005058557250010026
0.74,-0.0008492926000030846,-0.7814315639999907,-0.004935160000015013,-2.3534314999999917,-0.0021973305600069097,1.569312899999995,0.7831228399999913,0.04,0.0399999036,-9.813751700000001,-0.019838673993938242,-0.01725837900004834,0.00720567568001457,-0.006537033710614391,0.005095921200010059
0.7425,-0.0008607508750030953,-0.7813970354999906,-0.004990930750015066,-2.3533998499999913,-0.0022229978700069337,1.569294374999995,0.7830906049999913,0.04,0.0399999027,-9.813754025,-0.019813272636376875,-0.01743794550004851,0.00725979616001462,-0.006483883014865717,0.005133285150010093
0.745,-0.0008722091500031055,-0.7813625069999905,-0.005046701500015115,-2.3533681999999914,-0.0022486651800069563,1.569275849999995,0.7830583699999913,0.04,0.0399999018,-9.81375635,-0.019787871278815507,-0.017617512000048668,0.007313916640014668,-0.006430732319117045,0.005170649100010126
0.7475,-0.0008836674250031162,-0.7813279784999906,-0.005102472250015167,-2.3533365499999914,-0.0022743324900069803,1.5692573249999948,0.7830261349999913,0.04,0.039999900899999996,-9.813758675,-0.019762469921254137,-0.017797078500048833,0.007368037120014719,-0.00637758162336837,0.005208013050010161
0.75,-0.0008951257000032807,-0.7812934499999901,-0.0051582430000159645,-2.353304899999991,-0.002299999800007347,1.5692387999999946,0.7829938999999908,0.04,0.0399999,-9.813761,-0.019737068563690546,-0.017976645000051014,0.007422157600015073,-0.006324430927619366,0.00524537700001038
0.7525000000000001,-0.0009071496550032919,-0.78125728499999,-0.005216752555016019,-2.3532715699999907,-0.002326927020007372,1.5692193749999945,0.7829600704999907,0.04,0.0399998985,-9.81376265,-0.019703513570120654,-0.018163614600051187,0.007477400485015124,-0.006270062341339865,0.005283418875010415
0.755,-0.0009191736100033027,-0.78122111999999,-0.005275262110016071,-2.3532382399999907,-0.002353854240007396,1.5691999499999947,0.7829262409999908,0.04,0.039999897,-9.8137643,-0.019669958576550763,-0.018350584200051354,0.007532643370015173,-0.006215693755060367,0.005321460750010449
0.7575000000000001,-0.0009311975650033138,-0.78118495499999,-0.005333771665016126,-2.3532049099999908,-0.0023807814600074213,1.5691805249999946,0.7828924114999907,0.04,0.0399998955,-9.81376595,-0.019636403582980872,-0.018537553800051527,0.0075878862550152245,-0.006161325168780866,0.005359502625010485
0.76,-0.0009432215200033245,-0.7811487899999899,-0.005392281220016178,-2.353171579999991,-0.002407708680007445,1.5691610999999945,0.7828585819999907,0.04,0.039999894,-9.8137676,-0.019602848589410984,-0.018724523400051693,0.007643129140015274,-0.006106956582501368,0.005397544500010518
0.7625000000000001,-0.0009552454750033357,-0.7811126249999899,-0.005450790775016232,-2.3531382499999904,-0.00243463590000747,1.5691416749999947,0.7828247524999906,0.04,0.0399998925,-9.81376925,-0.01956929359584109,-0.01891149300005187,0.007698372025015325,-0.006052587996221867,0.005435586375010554
0.765,-0.0009672694300033464,-0.7810764599999899,-0.005509300330016284,-2.3531049199999905,-0.0024615631200074943,1.5691222499999946,0.7827909229999905,0.04,0.039999891,-9.8137709,-0.019535738602271202,-0.019098462600052036,0.0077536149100153745,-0.005998219409942369,0.005473628250010587
0.7675000000000001,-0.0009794856250035188,-0.7810397404999894,-0.005568740640017118,-2.3530711249999903,-0.002488918500007878,1.5691025299999943,0.7827565564999901,0.04,0.03999989,-9.813766849999995,-0.01949663646517774,-0.019289739050055817,0.0078092742750157755,-0.005943194823323824,0.005511826175010753
0.77,-0.00099208630000353,-0.7810019119999894,-0.005630042460017173,-2.35303639999999,-0.0025171302000079033,1.5690822199999943,0.7827211159999901,0.04,0.03999989,-9.813751399999996,-0.019446440041051078,-0.019489629200055994,0.007865766600015825,-0.005886858236028838,0.005550336200010788
0.7725,-0.001004686975003541,-0.7809640834999894,-0.005691344280017227,-2.35300167499999,-0.002545341900007928,1.5690619099999943,0.78268567549999,0.04,0.03999989,-9.813735949999996,-0.019396243616924415,-0.019689519350056174,0.007922258925015876,-0.005830521648733853,0.005588846225010822
0.775,-0.001017287650003553,-0.7809262549999892,-0.0057526461000172845,-2.35296694999999,-0.0025735536000079545,1.5690415999999943,0.78265023499999,0.04,0.03999989,-9.813720499999997,-0.019346047192797748,-0.01988940950005636,0.007978751250015929,-0.0057741850614388655,0.0056273562500108575
0.7775,-0.001029888325003564,-0.7808884264999892,-0.005813947920017339,-2.35293222499999,-0.0026017653000079796,1.5690212899999942,0.7826147944999899,0.04,0.03999989,-9.813705049999996,-0.01929585076867108,-0.020089299650056538,0.008035243575015978,-0.005717848474143881,0.005665866275010892
0.78,-0.0010424890000035759,-0.7808505979999892,-0.005875249740017396,-2.35289749999999,-0.0026299770000080057,1.5690009799999942,0.7825793539999899,0.04,0.03999989,-9.813689599999996,-0.019245654344544415,-0.020289189800056725,0.008091735900016031,-0.005661511886848893,0.005704376300010928
0.7825,-0.001055089675003587,-0.7808127694999892,-0.005936551560017451,-2.35286277499999,-0.002658188700008031,1.5689806699999942,0.7825439134999899,0.04,0.03999989,-9.813674149999997,-0.01919545792041775,-0.0204890799500569,0.008148228225016083,-0.005605175299553908,0.005742886325010963
0.785,-0.0010680821100037664,-0.7807737969999887,-0.00599974955001832,-2.3528267799999893,-0.002687272610008431,1.568959709999994,0.7825073929999894,0.039999999,0.039999888600000005,-9.813688200000009,-0.019149977341281925,-0.020692334700058528,0.008205475300016458,-0.00554846487937731,0.00578200730001126
0.7875,-0.0010812704250037783,-0.7807342524999886,-0.006063895625018377,-2.3527901499999895,-0.002716792625008457,1.568938424999994,0.7824703324999893,0.0399999975,0.0399998865,-9.81371700000001,-0.019106854684638495,-0.02089727175005871,0.008263099750016508,-0.00549156754276015,0.005821433750011295
0.79,-0.0010944587400037906,-0.7806947079999886,-0.006128041700018436,-2.352753519999989,-0.0027463126400084845,1.568917139999994,0.7824332719999894,0.039999996,0.0399998844,-9.813745800000008,-0.019063732027995064,-0.021102208800058902,0.008320724200016562,-0.005434670206142987,0.005860860200011332
0.7925,-0.0011076470550038023,-0.7806551634999885,-0.006192187775018494,-2.3527168899999893,-0.0027758326550085108,1.5688958549999938,0.7823962114999893,0.0399999945,0.0399998823,-9.813774600000007,-0.019020609371351638,-0.021307145850059085,0.008378348650016614,-0.005377772869525827,0.005900286650011367
0.795,-0.0011208353700038146,-0.7806156189999885,-0.006256333850018553,-2.3526802599999894,-0.0028053526700085383,1.5688745699999938,0.7823591509999893,0.039999993,0.0399998802,-9.813803400000008,-0.018977486714708208,-0.021512082900059275,0.008435973100016668,-0.0053208755329086635,0.005939713100011404
0.7975,-0.0011340236850038263,-0.7805760744999886,-0.006320479925018611,-2.352643629999989,-0.0028348726850085646,1.5688532849999939,0.7823220904999892,0.0399999915,0.0399998781,-9.813832200000007,-0.018934364058064777,-0.021717019950059455,0.008493597550016718,-0.005263978196291503,0.005979139550011439
0.8,-0.0011472120000040127,-0.780536529999988,-0.006384626000019513,-2.352606999999989,-0.00286439270000898,1.5688319999999936,0.7822850299999887,0.03999999,0.039999876,-9.81386099999999,-0.01889124140141672,-0.021921957000064243,0.00855122200001708,-0.005207080859673686,0.006018566000011646
0.8025,-0.001160998350004025,-0.7804952694999879,-0.006451667255019573,-2.3525689449999887,-0.002895244565009007,1.5688097249999935,0.7822462804999887,0.03999999075,0.039999875399999996,-9.813831149999992,-0.018832213245314967,-0.022142680950064438,0.008609904400017132,-0.0051479352870783335,0.006058578410011682
0.805,-0.0011747847000040377,-0.780454008999988,-0.006518708510019635,-2.3525308899999886,-0.0029260964300090357,1.5687874499999934,0.7822075309999886,0.0399999915,0.039999874799999995,-9.81380129999999,-0.01877318508921321,-0.022363404900064644,0.008668586800017187,-0.005088789714482978,0.006098590820011719
0.8075,-0.00118857105000405,-0.7804127484999879,-0.006585749765019694,-2.3524928349999885,-0.0029569482950090632,1.5687651749999934,0.7821687814999886,0.03999999225,0.0399998742,-9.813771449999992,-0.01871415693311146,-0.02258412885006484,0.00872726920001724,-0.0050296441418876256,0.006138603230011755
0.81,-0.001202357400004063,-0.7803714879999878,-0.006652791020019757,-2.352454779999989,-0.002987800160009092,1.5687428999999933,0.7821300319999885,0.039999993000000005,0.0399998736,-9.813741599999991,-0.018655128777009703,-0.022804852800065046,0.008785951600017295,-0.00497049856929227,0.006178615640011792
0.8125,-0.001216143750004075,-0.7803302274999878,-0.006719832275019816,-2.3524167249999888,-0.0030186520250091195,1.5687206249999934,0.7820912824999885,0.039999993750000004,0.039999873,-9.813711749999992,-0.01859610062090795,-0.02302557675006524,0.008844634000017346,-0.004911352996696918,0.006218628050011827
0.8150000000000001,-0.0012299301000040879,-0.7802889669999877,-0.006786873530019879,-2.3523786699999887,-0.0030495038900091483,1.5686983499999934,0.7820525329999884,0.039999994500000004,0.0399998724,-9.813681899999992,-0.018537072464806195,-0.023246300700065448,0.0089033164000174,-0.004852207424101563,0.006258640460011864
0.8175,-0.001243919195004281,-0.7802471069999871,-0.006854896315020814,-2.352339974999988,-0.0030808072250095783,1.568675764999993,0.7820132149999879,0.039999994750000004,0.0399998719,-9.81367330000001,-0.01847528200594567,-0.02346898065006739,0.00896239970001781,-0.00479305055921998,0.0062987881800120205
0.8200000000000001,-0.0012583137800042945,-0.7802040479999871,-0.00692488216002088,-2.352299999999988,-0.0031130135000096083,1.568652559999993,0.7819727599999879,0.039999994000000004,0.0399998716,-9.81370720000001,-0.018407966941574976,-0.0236955726000676,0.009022284800017866,-0.004733871109765965,0.006339206520012059
0.8225,-0.0012727083650043072,-0.7801609889999871,-0.006994868005020942,-2.352260024999988,-0.003145219775009637,1.568629354999993,0.7819323049999879,0.039999993250000004,0.039999871299999996,-9.81374110000001,-0.018340651877204288,-0.023922164550067803,0.009082169900017919,-0.004674691660311952,0.006379624860012094
0.8250000000000001,-0.0012871029500043207,-0.7801179299999871,-0.007064853850021007,-2.3522200499999877,-0.003177426050009667,1.568606149999993,0.7818918499999878,0.0399999925,0.039999871,-9.81377500000001,-0.018273336812833593,-0.024148756500068015,0.009142055000017975,-0.004615512210857937,0.006420043200012132
0.8275,-0.0013014975350043334,-0.780074870999987,-0.007134839695021069,-2.3521800749999877,-0.0032096323250096954,1.5685829449999928,0.7818513949999878,0.03999999175,0.0399998707,-9.81380890000001,-0.018206021748462906,-0.024375348450068217,0.009201940100018029,-0.004556332761403924,0.006460461540012168
0.8300000000000001,-0.0013158921200043469,-0.780031811999987,-0.007204825540021134,-2.3521400999999877,-0.0032418386000097254,1.5685597399999929,0.7818109399999879,0.039999991,0.0399998704,-9.81384280000001,-0.01813870668409221,-0.024601940400068426,0.009261825200018085,-0.004497153311949909,0.006500879880012206
0.8325,-0.0013302867050043595,-0.7799887529999869,-0.007274811385021196,-2.3521001249999878,-0.003274044875009754,1.568536534999993,0.7817704849999878,0.03999999025,0.0399998701,-9.81387670000001,-0.01807139161972152,-0.024828532350068627,0.009321710300018137,-0.004437973862495896,0.006541298220012241
0.835,-0.0013450935300045603,-0.7799444999999864,-0.007346792370022168,-2.3520591399999873,-0.0033071688700102007,1.5685126699999925,0.7817288799999872,0.0399999905,0.0399998695,-9.813866999999991,-0.017996621318137635,-0.025068192400074782,0.009382335400018527,-0.0043771809432467685,0.006582212200012504
0.8375,-0.0013601064750045741,-0.7798996499999863,-0.007419770925022236,-2.352017649999987,-0.0033407517250102323,1.5684884749999926,0.7816866999999872,0.03999999125,0.03999986875,-9.81383549999999,-0.01791812339795223,-0.025314386500075014,0.009443330500018585,-0.004315581289101181,0.006623374000012542
