rsonawane2002/My_IMU/logs_2/traj_412/clean_412.csv
time,j1,j2,j3,j4,j5,j6,j7,gripper1,gripper2,imu_ax,imu_ay,imu_az,imu_gx,imu_gy,imu_gz,quat_x,quat_y,quat_z,quat_w
1780.0833333320431,0.00016700293,-0.785875,4.0107683e-05,-2.3551247,9.29385e-05,1.570997,0.786,0.04,0.04,0.0,-0.0,0.0,2.875329272945135e-08,-0.0011641195053377316,4.421952117202833e-08,0.9999995971961153,0.00020320632366974898,0.0008736418299892524,3.263050917662294e-05
1780.0999999987098,0.00016701376,-0.78576016,4.010737e-05,-2.3552213,9.2981194e-05,1.5709941,0.786,0.04,0.04,-0.2919984590817215,-4.0891340713890625e-05,0.020128406938013654,4.442725352260334e-07,-0.0022381868427656655,7.962918112404218e-07,0.99999968505887,0.00020320576430510765,0.0007665025163640865,3.26108968733177e-05
1780.1166666653764,0.0001670797,-0.78565425,4.0056668e-05,-2.35531,9.307063e-05,1.5709913,0.786,0.04,0.04,0.023262856596839576,-3.634085251874976e-05,-0.0016365851286170852,2.942523914136469e-06,-0.0032285454871487465,5.73682945771155e-06,0.9999997558666365,0.00020319507278307724,0.0006677674301428046,3.263570288626265e-05
1780.133333332043,0.00016729056,-0.7855569,3.9873656e-05,-2.355391,9.328682e-05,1.5709884,0.786,0.04,0.04,0.022460761599418788,-9.831294582267726e-05,-0.0015249479055512438,9.68634373168178e-06,-0.004142956621570958,1.785742090281701e-05,0.9999998122818293,0.0002031583358295986,0.0005771385237267378,3.277378962297532e-05
1780.1499999987097,0.00016777452,-0.78546727,3.9441e-05,-2.3554652,9.376055e-05,1.5709856,0.786,0.04,0.039999995,0.020255477143371614,-0.00019869975716251226,-0.0013237642244368075,2.291970886340665e-05,-0.004984645137496554,4.394684417166761e-05,0.9999998569071158,0.00020307299228142507,0.0004938110944498148,3.313172071842102e-05
1780.1666666653764,0.00016869477,-0.7853848,3.8609644e-05,-2.355532,9.462638e-05,1.5709827,0.7860019,0.04,0.039999995,0.02047184768805277,-0.0003032427852863145,-0.000795249213481064,4.4699557844645186e-05,-0.005763095133448582,8.298954445174718e-05,0.9999998913878011,0.00020386384745795666,0.0004177552617119437,3.382985349774433e-05
1780.183333332043,0.00017024521,-0.78530884,3.7201757e-05,-2.3555956,9.605097e-05,1.5709827,0.7860038,0.04,0.04,0.013425988677218115,-0.0004313972538769878,-0.0002352278701822641,6.864779294336732e-05,-0.006478515203164856,0.00013868805532213905,0.9999999179307408,0.000204543387620062,0.00034795771944298563,3.501342193189969e-05
1780.1999999987097,0.00017264746,-0.7852388,3.501367e-05,-2.3556538,9.824804e-05,1.5709832,0.78600574,0.04,0.04,0.015995790103073837,-0.000594966679456926,-0.0005664957331230625,0.00010572584237213833,-0.007140811945906934,0.00021511406428825763,0.9999999379394751,0.00020507279497991045,0.00028409056857181476,3.6861135971668276e-05
1780.2166666653764,0.0001761479,-0.78517437,3.1818952e-05,-2.3557053,0.00010144128,1.5709838,0.78600955,0.04,0.04,0.01757809719742376,-0.0007665686411055289,-0.00012360942469591407,0.00015818346860180685,-0.007753916508643536,0.00031369782480456,0.9999999522910853,0.0002063626498905648,0.00022642191059180666,3.9565163428060965e-05
1780.233333332043,0.0001810153,-0.78511536,2.7370837e-05,-2.3557553,0.00010587268,1.5709846,0.7860153,0.04,0.04,0.008503701222584148,-0.0009517258053632835,-0.002276051762262199,0.00021982449026499107,-0.008315928607584934,0.0004358051781693976,0.9999999625094182,0.00020836610586273807,0.00017229923591619839,4.333244964785792e-05
1780.2499999987097,0.00018753736,-0.78506106,2.1404314e-05,-2.3557992,0.00011182273,1.5709854,0.7860229,0.04,0.039999995,0.01574073718069169,-0.0011662733203095525,9.118768140581324e-05,0.0002921779308701309,-0.008853483759450225,0.0005858140908976988,0.9999999689192185,0.00021103299563562705,0.00012362976599047704,4.839749597986999e-05
1780.2666666653763,0.00019601961,-0.78501123,1.36387425e-05,-2.3558412,0.000119554614,1.5709864,0.78603244,0.04,0.039999995,0.008221693467835856,-0.0013680806935479608,-0.0016034283169208408,0.0003781946434049285,-0.009347270448294297,0.0007618400447892974,0.9999999724654056,0.00021431005410373855,7.820798551501887e-05,5.498999547047938e-05
1780.283333332043,0.00020678253,-0.7849654,3.7793882e-06,-2.3558784,0.00012934445,1.5709873,0.7860442,0.039999995,0.04,0.012518531699057256,-0.0015802204361998443,-0.0001369710201259977,0.0004797672424002126,-0.009820989606938174,0.0009653027119720119,0.9999999734772315,0.00021829033953442808,3.716620170803616e-05,6.335248731998618e-05
1780.2999999987096,0.00022015949,-0.7849232,-8.480682e-06,-2.3559136,0.00014151337,1.5709918,0.78605944,0.03999999,0.039999995,0.008356527780550849,-0.001825556063132349,0.0013619679684051533,0.000598007380099321,-0.01026370262537398,0.0012000443871054583,0.9999999722878269,0.00022357172778911575,6.233587180509238e-07,7.375391121318695e-05
1780.3166666653763,0.00023649547,-0.7848844,-2.34591e-05,-2.3559468,0.00015637578,1.5709964,0.7860778,0.039999988,0.03999999,0.007478127396520762,-0.0020656117741434847,-0.0007926505312116916,0.0007291231218808441,-0.010674661674215111,0.0014660066258890198,0.9999999692929176,0.00022988552596701567,-3.303013113130972e-05,8.646282109887874e-05
1780.333333332043,0.00025614502,-0.7848487,-4.1482217e-05,-2.3559752,0.00017425515,1.5710012,0.7860998,0.039999988,0.03999999,0.01156735779141993,-0.0023132274053776075,0.00046566742302189823,0.0008767587280712145,-0.011069770887852503,0.0017638800401633791,0.9999999646692141,0.0002374381736171177,-6.26919402319868e-05,0.000101756596396223
1780.3499999987096,0.00027947105,-0.78481585,-6.288416e-05,-2.3560023,0.00019548232,1.5710068,0.7861259,0.039999984,0.039999988,0.005453520698228687,-0.0025660163974304184,-0.0004691030308201505,0.0010413053864841808,-0.011438994828846359,0.0020944016750934426,0.9999999584099979,0.00024640516202097937,-8.991223010658409e-05,0.00011991784490927245
1780.3666666653762,0.000306843,-0.7847857,-8.8005305e-05,-2.356029,0.00022039456,1.5710152,0.78615665,0.03999998,0.039999984,0.0046823920902605565,-0.0028238773199117076,0.0008223463566103817,0.001222353519984599,-0.011797421154657884,0.0024581957057572424,0.9999999504918418,0.0002569907488169622,-0.00011412530473397386,0.00014123556220284862
1780.3833333320429,0.00033863616,-0.7847579,-0.00011719123,-2.3560512,0.00024933438,1.5710238,0.7861922,0.039999977,0.03999998,0.010371855183510803,-0.0030854707248318424,0.0007680544260590949,0.0014197848073377204,-0.012141935207221165,0.0028557675910159943,0.9999999409011785,0.00026918903076864867,-0.00013482516454462558,0.00016600325444301515
1780.3999999987095,0.00037523033,-0.78473234,-0.00015079166,-2.3560712,0.00028264782,1.5710356,0.7862332,0.03999997,0.039999973,0.00710464273292466,-0.0033501061620160545,0.0021100845087218545,0.0016348898085259563,-0.012465791372181217,0.0032875209752640197,0.9999999294410773,0.000283292044113377,-0.0001517444129079026,0.00019451758611301344
1780.4166666653762,0.0004170084,-0.784709,-0.00018915933,-2.3560908,0.00032068454,1.571048,0.78628004,0.039999966,0.03999997,0.0034390437931408613,-0.003617024652527174,-0.0005932674399744542,0.0018670522017762102,-0.0127702948385508,0.0037537505431740276,0.999999915444803,0.0002994120279099205,-0.00016702978353138283,0.0002270768062092951
1780.4333333320428,0.00046435557,-0.7846876,-0.00023264921,-2.3561099,0.00036379622,1.5710617,0.7863332,0.039999958,0.03999996,0.003402575056110635,-0.0038855896192795288,7.501214069893791e-05,0.0021159645497726646,-0.013072878441482796,0.004254680156761304,0.9999998984034381,0.0003177207497160782,-0.00018044402903953064,0.00026398217940605745
1780.4499999987095,0.00051765866,-0.78466785,-0.00028161777,-2.356126,0.0004123356,1.571078,0.7863929,0.03999995,0.039999954,0.007502210595955461,-0.004154616347435899,0.002203392502853063,0.002382135706224023,-0.013373798054511958,0.00479045880520571,0.9999998779936515,0.0003382704842288604,-0.00019034938189138516,0.0003055370262044742
1780.4666666653761,0.0005773051,-0.78464967,-0.00033642206,-2.3561404,0.0004666563,1.5710957,0.7864598,0.039999943,0.03999995,0.005449047821359798,-0.004424397186008668,0.001132101102263583,0.0026663795046196178,-0.013658684619103969,0.005360287129239605,0.9999998532119178,0.00036129213074874016,-0.00019776077784282515,0.00035204376715805796
1780.4833333320428,0.0006436823,-0.78463304,-0.00039741903,-2.356153,0.0005271124,1.5711157,0.78653425,0.039999943,0.03999995,0.005271440897591795,-0.004694548525736777,0.0015583411731023844,0.002967878027415172,-0.013934898209839452,0.005965872890581118,0.9999998231226706,0.0003869273787161748,-0.00020244171768357867,0.0004038058719694913
1780.4999999987094,0.00071717676,-0.78461784,-0.00046496498,-2.3561654,0.00059405674,1.5711386,0.7866167,0.039999947,0.03999995,0.0028990203245982116,-0.004963892424962048,0.0014273315143809029,0.0032863808668910487,-0.014203670135916883,0.006607169170462279,0.9999997864508322,0.00041531835884629954,-0.00020487127339914737,0.00046112548396726584
1780.516666665376,0.00079817354,-0.784604,-0.0005394145,-2.356177,0.00066783954,1.5711625,0.7867075,0.03999995,0.039999958,0.003041210492837898,-0.0052312471301707835,0.0002536262817764978,0.003622190406047397,-0.014468429760985294,0.007281463112119245,0.9999997416483909,0.0004466066261176904,-0.00020579708800674772,0.000524302614495443
1780.5333333320427,0.0008870561,-0.7845911,-0.0006211211,-2.3561885,0.00074881193,1.5711901,0.7868072,0.039999954,0.03999996,0.002611138629915466,-0.005499374031598205,0.0024412420880803865,0.003975634915602995,-0.014736359556267509,0.007991173873106544,0.9999996872842422,0.00048093551338138215,-0.0002042684621613025,0.0005936386487808643
1780.5499999987094,0.0009842046,-0.78457946,-0.00071043574,-2.3561993,0.00083732104,1.5712199,0.78691614,0.039999954,0.03999996,0.003356479289107206,-0.005762721811416235,0.001175488786109291,0.00434593940359118,-0.015000570293523332,0.00873523105754431,0.9999996213857606,0.0005184776543680149,-0.0002006762460105478,0.0006694313271503027
1780.566666665376,0.0010899972,-0.7845686,-0.0008077065,-2.356208,0.00093371136,1.5712516,0.7870348,0.039999958,0.039999966,0.004715871823246509,-0.0060254319504556095,0.0018366922852619538,0.004733170749036601,-0.01526250374878,0.00951337568981962,0.9999995418381776,0.0005593762565400023,-0.0001948156972944517,0.0007519763841958083
1780.5833333320427,0.0012048084,-0.78455895,-0.00091327843,-2.3562157,0.0010383247,1.5712869,0.7871636,0.039999958,0.039999966,0.004492815962464647,-0.0062855124668733785,0.00252289112960824,0.005137398193180626,-0.015523705961728008,0.01032532290454501,0.9999994463095206,0.0006037761306062323,-0.0001860057468182324,0.0008415681187935718
1780.5999999987093,0.001329008,-0.7845499,-0.0010274932,-2.3562224,0.0011514996,1.5713254,0.787303,0.039999966,0.039999973,0.0033186263297402263,-0.0065431171780904514,0.0024857656237387005,0.005558156836498944,-0.015775484411294394,0.011170725585587318,0.9999993318897193,0.0006518227488089852,-0.00017484737564895343,0.0009384964646798753
1780.616666665376,0.0014629632,-0.78454196,-0.0011506887,-2.3562284,0.0012735698,1.5713667,0.7874533,0.039999973,0.039999984,0.0033591739565963508,-0.0067970840026062695,0.001719381711207113,0.00599525710276066,-0.01602714744143597,0.012048372779622871,0.9999991954240908,0.0007036613771428702,-0.00016143552212027117,0.0010430486132113296
1780.6333333320426,0.001607035,-0.78453463,-0.0012831987,-2.3562336,0.001404866,1.5714108,0.787615,0.039999973,0.039999984,0.0028076522011311056,-0.007048355983576117,0.0021109387701834237,0.00644853018729655,-0.01627566253912832,0.012959590582833367,0.999999033370094,0.0007594393262835519,-0.0001459849740260152,0.0011555081890457875
1780.6499999987093,0.001761581,-0.78452784,-0.0014253523,-2.3562384,0.0015457147,1.5714579,0.78778845,0.039999973,0.039999984,0.0023786344346188315,-0.007297160613094103,0.002125625120319441,0.006918098945285927,-0.01652661966404596,0.013903103108012635,0.9999988418396373,0.0008192744490265615,-0.00012859196013396366,0.0012761555034083655
1780.666666665376,0.0019269533,-0.7845219,-0.0015774738,-2.3562427,0.0016964368,1.5715086,0.78797394,0.039999973,0.039999984,0.0029393965905288866,-0.007540989350714156,0.002489418852458236,0.007403234419665381,-0.016780158445571607,0.014878482319754813,0.9999986166258025,0.0008832559538587051,-0.00010875734096863109,0.0014052676763477454
1780.6833333320426,0.002103499,-0.78451645,-0.0017398837,-2.356247,0.0018573495,1.5715631,0.7881721,0.039999966,0.039999977,0.0018048308132012636,-0.007782467073476221,0.002442682421133213,0.00790488087192281,-0.01703114482399751,0.01588525937567193,0.9999983527978797,0.0009516532093462688,-8.687707043479777e-05,0.0015431169984932798
1780.6999999987092,0.0022915588,-0.78451145,-0.0019128966,-2.356251,0.0020287645,1.5716211,0.7883832,0.039999966,0.039999977,0.0020084016553845174,-0.008018454447997411,0.002438624698974934,0.008421247915662277,-0.017284789028757214,0.016922943064986855,0.9999980452123244,0.0010244979535207655,-6.301977003134342e-05,0.0016899715919969486
1780.716666665376,0.0024914679,-0.78450716,-0.002096822,-2.3562548,0.0022109868,1.5716827,0.78860754,0.03999996,0.039999973,0.0024197864538111347,-0.008249056667865694,0.0024467613986889347,0.008952746877672856,-0.017540668476975024,0.017991064294180608,0.999997688142604,0.0011019423869990672,-3.692726459003387e-05,0.0018460955555037295
1780.7333333320425,0.0027035575,-0.78450334,-0.0022919634,-2.3562586,0.0024043184,1.571748,0.78884566,0.039999966,0.039999977,0.0017578221702230223,-0.008481067703393656,0.002473240804756749,0.009499480184125412,-0.017796854738108145,0.019089103881156873,0.9999972752641586,0.0011841687392199112,-8.849006317361918e-06,0.0020117480833120446
1780.7499999987092,0.00292815,-0.7844998,-0.0024986197,-2.3562624,0.0026090553,1.5718172,0.7890978,0.039999966,0.03999998,0.0016052534631549875,-0.008703695745425951,0.002661955417693207,0.010060511644474078,-0.018057282745434857,0.020215648136730942,0.9999967998538253,0.0012712431082077039,2.1173433867134764e-05,0.002187184206734014
1780.7666666653759,0.003165563,-0.78449655,-0.0027170847,-2.3562663,0.0028254867,1.5718902,0.7893643,0.03999997,0.039999984,0.001585139128557067,-0.008922495130337608,0.0027831670989852952,0.010635988255422845,-0.018319872064034858,0.02137190138489544,0.9999962545540253,0.0013632916142250946,5.3156982824365204e-05,0.002372654258629437
1780.7833333320425,0.003416109,-0.78449386,-0.0029476448,-2.3562691,0.0030538973,1.5719672,0.7896455,0.039999966,0.03999998,0.0036103154547939553,-0.009135868088861734,0.0030081871243980984,0.011225761235567434,-0.018587643328394382,0.02255650408407387,0.9999956313440447,0.0014604401709348018,8.77433587826146e-05,0.0025684058159853953
1780.7999999987092,0.0036800925,-0.7844916,-0.003190581,-2.3562708,0.0032945643,1.5720488,0.7899419,0.039999966,0.039999984,0.004016269863482691,-0.009344682706124378,0.003658996946631632,0.011829662173801173,-0.018851966729939128,0.02376800222969754,0.9999949214261542,0.0015628773491600779,0.0001252451904336259,0.0027746801497526828
1780.8166666653758,0.003957811,-0.78448963,-0.003446169,-2.3562722,0.0035477637,1.5721346,0.7902536,0.039999958,0.039999973,0.0021982274003073954,-0.009553635369949093,0.0031183640837539883,0.012446507288193517,-0.019111653588181652,0.025008415440773646,0.9999941157707171,0.0016705848481234737,0.00016499105278093877,0.0029917132481884347
1780.8333333320425,0.0042495555,-0.78448796,-0.0037146779,-2.3562734,0.0038137576,1.572225,0.79058105,0.03999995,0.03999997,0.002284736877888882,-0.009751112043663657,0.0032942009192460375,0.013077542237996186,-0.01937259479608728,0.026273720451671326,0.9999932042488858,0.0017837835025904898,0.00020708255255829616,0.0032197343490459923
1780.849999998709,0.004555614,-0.7844865,-0.0039963718,-2.3562741,0.004092809,1.5723195,0.7909247,0.03999995,0.03999997,0.002456420724628039,-0.009950187534376155,0.003200373547773694,0.013721536036877948,-0.019632968469682405,0.027565931204147798,0.9999921761261686,0.0019026342055218923,0.00025138174505704005,0.0034589704751321936
1780.8666666653758,0.0048762634,-0.7844852,-0.004291505,-2.3562746,0.00438517,1.5724185,0.79128456,0.03999995,0.03999997,0.002205157051959894,-0.010141529040679116,0.003235099730503066,0.014377570833118178,-0.01989566289450024,0.0288836078893457,0.9999910203785184,0.002027062492300587,0.0002978992691680427,0.0037096409539500164
1780.8833333320424,0.005211774,-0.78448445,-0.0046003293,-2.356275,0.004691091,1.5725217,0.7916613,0.039999958,0.03999998,0.002039106276430225,-0.010327347006449696,0.0029021366483972244,0.015047162315962814,-0.020159508349417404,0.030225303700465375,0.9999897244394154,0.0021574123010319798,0.0003465535615657487,0.003971962786146618
1780.899999998709,0.005562412,-0.7844839,-0.0049230894,-2.356275,0.0050108125,1.5726299,0.79205495,0.039999954,0.039999977,0.002827012800055151,-0.010507476687019596,0.0037817831566311355,0.015728072397105164,-0.020424687828117252,0.03159206285276209,0.9999882755932574,0.0022936124050330514,0.00039779965882860534,0.004246148088601634
1780.9166666653757,0.0059284344,-0.7844836,-0.0052600233,-2.3562748,0.0053445706,1.5727429,0.7924658,0.039999954,0.039999977,0.0023610871086265917,-0.010683152735503718,0.00349456024617556,0.016421078567060942,-0.020688766902004704,0.032982708126437346,0.9999866601455959,0.002435801333406443,0.00045137520617101955,0.004532401476462554
1780.9333333320424,0.006310095,-0.7844835,-0.005611363,-2.3562746,0.005692594,1.5728607,0.7928943,0.039999958,0.039999984,0.0019056192426036844,-0.010859172579993567,0.0034185588356105967,0.01712630742620843,-0.02095219226098003,0.03439453773227253,0.999984863493686,0.002584147007184453,0.0005071056264802833,0.004830922442259496
1780.949999998709,0.006707636,-0.7844837,-0.005977335,-2.3562741,0.006055108,1.5729836,0.7933406,0.039999958,0.039999984,0.002573278029860404,-0.011020506910834529,0.0037219009188627084,0.017842379292650243,-0.02121806301398569,0.035831677130197956,0.9999828701965191,0.002738702879418602,0.000565322029894869,0.005141909282780923
1780.9666666653757,0.0071212947,-0.7844839,-0.006358154,-2.3562734,0.006432326,1.5731115,0.793805,0.039999958,0.039999984,0.002289249010356542,-0.011186100961366532,0.0037650718305082265,0.018569543285540453,-0.021480083847965174,0.03728963872481893,0.9999806641847496,0.002899550597312204,0.0006258174971944197,0.00546554804396102
1780.9833333320423,0.007551302,-0.7844843,-0.006754037,-2.3562725,0.0068244594,1.5732442,0.7942878,0.039999958,0.039999988,0.002364055998160808,-0.011338896692116452,0.003517054505830508,0.019307928812500437,-0.021742710910441443,0.03876729766413342,0.9999782282648525,0.0030668337758839163,0.0006885024156913957,0.0058020247587521785
1780.999999998709,0.007997882,-0.78448486,-0.0071651884,-2.356271,0.0072317137,1.5733821,0.79478914,0.039999958,0.03999999,0.0028746829524806117,-0.011490303749541603,0.004009802901516757,0.02005632013220923,-0.022006981458605728,0.04026656423459472,0.9999755444057262,0.0032405794788816747,0.0007536736844169305,0.006151521038717528
1781.0166666653756,0.008461248,-0.78448546,-0.0075918087,-2.3562696,0.0076542865,1.5735252,0.7953094,0.039999966,0.04,0.0019804602807704796,-0.011638042877250548,0.0037372812356828433,0.020815470255569533,-0.022267045456218833,0.04178589502150606,0.9999725936673265,0.003420965121531979,0.00082097008224944,0.006514209084858089
1781.0333333320423,0.008941611,-0.7844864,-0.00803409,-2.3562682,0.008092367,1.5736732,0.7958489,0.03999996,0.04,0.002294011470183044,-0.011778621482359634,0.003476395241874819,0.021583874317638096,-0.022528207243328865,0.04332478353763425,0.9999693561467404,0.0036080772597243023,0.0008904464495037354,0.0068902576934276585
1781.049999998709,0.009439174,-0.7844876,-0.008492219,-2.3562663,0.008546145,1.5738271,0.79640746,0.039999958,0.04,0.003261195562798136,-0.011911643808725381,0.004375653036503557,0.02236136373587251,-0.022789823891828292,0.04488092809643935,0.9999658110863164,0.003801830169339695,0.0009626638475807046,0.007279836822732294
1781.0666666653756,0.009954132,-0.784489,-0.008966379,-2.3562644,0.009015799,1.573986,0.7969857,0.039999958,0.04,0.0021422509320467853,-0.012048019597906377,0.0035701459202952535,0.023149543427239336,-0.023044634093642415,0.04645791115805485,0.9999619367070388,0.004002491916958857,0.0010368977267119922,0.007683100849726707
1781.0833333320422,0.010486675,-0.7844904,-0.009456742,-2.3562624,0.009501496,1.5741507,0.79758364,0.039999966,0.04,0.002262404452579858,-0.012172184892120675,0.004166241540359827,0.02394613310087393,-0.0232998711909305,0.04805260509933168,0.9999577102944932,0.00421006818139634,0.0011134071336587246,0.008100202038042867
1781.0999999987089,0.011036986,-0.78449196,-0.009963478,-2.3562603,0.010003411,1.5743207,0.79820156,0.039999966,0.04,0.0026458714933008665,-0.012293142866237963,0.003969158842997977,0.024751783399416995,-0.023552460737069344,0.0496643964553848,0.9999531080688813,0.004424652689086745,0.0011921208665911808,0.008531292973782105
1781.1166666653755,0.011605235,-0.7844936,-0.010486749,-2.3562582,0.010521704,1.5744963,0.79883957,0.03999996,0.04,0.002342921969034073,-0.012409077102808197,0.004035398812707314,0.025565903209436112,-0.023803461778716964,0.051292725622019836,0.9999481054869217,0.004646284075334446,0.0012729962877943148,0.008976517022696097
1781.1333333320422,0.012191597,-0.78449553,-0.0110267075,-2.356256,0.011056525,1.5746772,0.7994979,0.039999966,0.04,0.0024266774613757036,-0.012525882825976942,0.0037859574873122526,0.02638827734901386,-0.02405145754750448,0.0529369913377503,0.9999426768789754,0.004875054159033074,0.0013559288641175674,0.009436008688583575
1781.1499999987088,0.012796229,-0.7844976,-0.011583502,-2.3562536,0.011608027,1.5748641,0.800177,0.03999997,0.04,0.00298532383853356,-0.012626344755524085,0.004365759397595426,0.02721893735043502,-0.02429858905372862,0.054596629448525814,0.9999367942910159,0.005111156881739075,0.001441258319851182,0.009909907809469863
1781.1666666653755,0.013419288,-0.78449976,-0.012157276,-2.3562512,0.012176338,1.5750564,0.8008766,0.039999973,0.04,0.00228706962168701,-0.01272675541285663,0.003877953812270185,0.028055951609895036,-0.024539848527740375,0.056271025149824294,0.9999304316320804,0.005354479366463189,0.001528461279164098,0.010398329332818786
1781.1833333320421,0.014060924,-0.78450197,-0.012748167,-2.3562489,0.012761611,1.5752547,0.80159694,0.039999977,0.04,0.002508416426971749,-0.012833266536496288,0.004316622596767239,0.028901302104585025,-0.02477974834746305,0.05795956360479394,0.9999235597240624,0.005605067149500229,0.001617785881722996,0.010901408159031992
1781.1999999987088,0.014721271,-0.7845043,-0.013356306,-2.3562462,0.013363967,1.5754583,0.80233806,0.039999977,0.04,0.0028218586081818486,-0.012908360413260017,0.00394129767742335,0.029754516185344755,-0.025016176932032754,0.05966257133242031,0.9999161492091859,0.005862963432672383,0.001709031643057071,0.011419256600284502
1781.2166666653754,0.015400466,-0.7845066,-0.013981815,-2.3562436,0.01398352,1.5756682,0.8031007,0.04,0.04,0.0026214211121811104,-0.01299217240479135,0.004606329587164559,0.03061576667777751,-0.025249489169517227,0.061376078664033766,0.9999081670633817,0.00612851582839132,0.0018024396549144088,0.011951984980743059
1781.233333332042,0.016098639,-0.78450906,-0.014624815,-2.356241,0.014620406,1.5758839,0.80388474,0.04,0.04,0.0025976791104165287,-0.013089593596832955,0.004089837208498537,0.031481618967529226,-0.025476787665247837,0.06310376031485554,0.99989958240007,0.006401646771943269,0.0018977171788631478,0.012499708167868205
1781.2499999987087,0.016815912,-0.7845116,-0.015285417,-2.356238,0.015274722,1.5761056,0.80469036,0.04,0.04,0.0035588696905453077,-0.013146928722642531,0.004564157494346688,0.03235385066624383,-0.0257009247244811,0.06484330931542079,0.9998903612533848,0.006682435595974187,0.0019952237112353037,0.013062526915696924
1781.2666666653754,0.017552393,-0.7845143,-0.015963724,-2.3562348,0.015946576,1.5763333,0.8055174,0.04,0.04,0.0027454136911853055,-0.013223380575885964,0.004256023171889112,0.03323125014692933,-0.02591706897623193,0.0665941183994488,0.9998804711636855,0.00697078451993423,0.0020946040297563123,0.013640534543101936
1781.283333332042,0.018308192,-0.7845173,-0.016659843,-2.3562315,0.016636062,1.5765666,0.8063661,0.04,0.04,0.0032725242509856756,-0.013275582639268868,0.003989774760970732,0.03411506196182661,-0.026127564850598556,0.06835574191570755,0.9998698764033241,0.007266830641094578,0.0021958257086609296,0.014233825314797503
1781.2999999987087,0.019083414,-0.7845203,-0.017373852,-2.356228,0.017343275,1.5768061,0.8072367,0.04,0.04,0.002831388439505922,-0.013361127677562548,0.004455179254714281,0.03500467907955819,-0.026333603999228496,0.07012752410439935,0.9998585405147279,0.00757065585618793,0.0022988849940737285,0.01484248151251696
1781.3166666653754,0.019878155,-0.7845235,-0.018105857,-2.3562248,0.018068304,1.5770518,0.80812913,0.04,0.04,0.0029370139782214366,-0.013400617244219842,0.004415476933483653,0.03589914844039402,-0.026532835110099292,0.071908990598332,0.9998464264539161,0.007882258813030833,0.0024037475829886976,0.015466593060379166
1781.333333332042,0.020692496,-0.7845268,-0.018855928,-2.3562214,0.01881121,1.5773032,0.80904365,0.04,0.04,0.0028903488696441215,-0.013442981400310812,0.004020871267540471,0.03679881892216476,-0.02672632672361379,0.07369876105289588,0.9998334964818038,0.008201719428706027,0.0025101379796799556,0.016106219876394972
1781.3499999987087,0.021526536,-0.78453016,-0.01962415,-2.356218,0.019572105,1.5775608,0.8099802,0.04,0.04,0.002887056358380491,-0.013525711023864087,0.004470224691610625,0.03770313836299072,-0.026914100656613475,0.07549873183111681,0.9998197109639091,0.008529034751978774,0.0026181370417602532,0.016761458548574623
1781.3666666653753,0.022380333,-0.7845335,-0.02041059,-2.3562148,0.020351026,1.5778244,0.81093895,0.04,0.04,0.0028521316752350145,-0.01352518669448105,0.004286905407058228,0.038612224608302555,-0.0270953268132893,0.07730493179009088,0.9998050300806622,0.008864268507273183,0.0027275555883673618,0.017432355255369247
1781.383333332042,0.02325396,-0.784537,-0.021215316,-2.3562114,0.021148045,1.5780942,0.81192017,0.04,0.04,0.0032091564821534746,-0.013564372144128645,0.004444623989252605,0.039525562762935264,-0.027271226245339543,0.07911860609448952,0.999789410575596,0.009207570129199226,0.0028385876590354122,0.01811898378276793
1781.3999999987086,0.024147492,-0.7845406,-0.022038378,-2.356208,0.02196323,1.5783702,0.81292355,0.04,0.04,0.0030450122211700403,-0.013629121690231574,0.00432786763306936,0.04044170229700129,-0.027438956983144823,0.08094080644147486,0.99977281233791,0.00955878191366308,0.002950983836683252,0.018821399859438512
1781.4166666653753,0.02506098,-0.7845443,-0.022879831,-2.3562047,0.022796623,1.5786523,0.8139494,0.04,0.04,0.0031563046578364506,-0.013639072062648222,0.004287362939070505,0.04136275253383809,-0.027598907687358117,0.08276781277313144,0.9997551908831892,0.009918057888513245,0.0030646963576112718,0.019539653683567915
1781.433333332042,0.025994472,-0.78454816,-0.023739727,-2.3562014,0.023648264,1.5789406,0.81499785,0.04,0.04,0.0033452670499700687,-0.013645280708386373,0.004423858204360975,0.04228668190969748,-0.02775235845021108,0.08459891715442507,0.9997365009965894,0.010285465119065883,0.003179796266739805,0.02027379288842743
1781.4499999987086,0.026948018,-0.78455216,-0.024618108,-2.3561978,0.024518205,1.5792353,0.8160687,0.04,0.04,0.003733190528310004,-0.01366922219698738,0.004557071767741228,0.04321318973219873,-0.027895686513129563,0.0864379199198804,0.9997166979749615,0.010660917919295285,0.0032962960387236434,0.021023868615991956
1781.4666666653752,0.027921649,-0.7845562,-0.025515005,-2.3561943,0.025406472,1.5795361,0.817162,0.04,0.04,0.003231695534178236,-0.013679947964773814,0.0043000162041062495,0.04414316426925563,-0.028030919323876673,0.08827998330523211,0.9996957368708606,0.011044422920910096,0.0034138476097419716,0.021789907045897512
1781.4833333320419,0.028915402,-0.7845604,-0.026430458,-2.3561907,0.026313113,1.5798429,0.8182781,0.04,0.04,0.0033473420313567814,-0.013693837234164674,0.004258910910737157,0.045076502754561,-0.02815554641620129,0.09012796054078134,0.9996735679600101,0.011436196108842967,0.003532393964021106,0.022571954579654753
1781.4999999987085,0.029929314,-0.7845646,-0.027364474,-2.356187,0.02723816,1.5801563,0.81941676,0.04,0.04,0.0034851670489555175,-0.013733605681175154,0.004638805018908343,0.046011057544203086,-0.028274221342072872,0.09198046967129764,0.9996501437088502,0.011836121525833774,0.003652062314076446,0.02337004174054725
1781.5166666653752,0.030963399,-0.7845689,-0.02831709,-2.3561835,0.028181594,1.5804758,0.82057804,0.04,0.04,0.0033805566350242344,-0.013676161645256521,0.004278094324194903,0.04694791680371943,-0.028380660032670348,0.09383270822544842,0.9996254163395983,0.01224421385357782,0.003772529418580992,0.02418417368401234
1781.5333333320418,0.032017663,-0.7845733,-0.02928832,-2.35618,0.029143475,1.5808015,0.821762,0.04,0.04,0.0035384206924504724,-0.01369627324785544,0.004324989120441103,0.0478870710924426,-0.028479178677714028,0.0956910625608196,0.9995993341765932,0.012660547875790502,0.003893795696872863,0.02501439578057903
1781.5499999987085,0.033092134,-0.7845777,-0.03027817,-2.3561764,0.030123778,1.5811335,0.8229687,0.04,0.04,0.003495263595953979,-0.013681389495980717,0.004473549063188642,0.048827821925089394,-0.028568730808706227,0.09754908840664121,0.9995718468197151,0.013085129889030076,0.004015772640358379,0.02586070361208612
1781.5666666653751,0.0341868,-0.7845822,-0.031286646,-2.3561728,0.031122511,1.5814716,0.8241982,0.04,0.04,0.0035376143792342774,-0.013654802725917084,0.004255305005962384,0.04976983602348463,-0.028646736146062526,0.09940952851136539,0.999542902329108,0.013518006857564619,0.004138279863511117,0.026723108611708176
1781.5833333320418,0.035301674,-0.7845867,-0.032313734,-2.3561692,0.032139692,1.5818157,0.8254503,0.04,0.04,0.003591965524218921,-0.013679162673145215,0.0042467682126901,0.05071228644704068,-0.028716502049617093,0.10127194182967567,0.9995124488200636,0.013959121857327922,0.004261226638839971,0.027601621659320622
1781.5999999987084,0.036436748,-0.78459144,-0.033359442,-2.3561656,0.033175316,1.5821664,0.8267251,0.04,0.04,0.003933378723930403,-0.013630679308725135,0.004525473497540844,0.051656167566013066,-0.02877665135244902,0.10313501707964205,0.999480430468425,0.014408531519659637,0.004384816398116407,0.028496257916674303
1781.616666665375,0.03759198,-0.78459626,-0.034423746,-2.356162,0.03422935,1.5825233,0.8280225,0.04,0.04,0.003805581002724878,-0.013572961694190491,0.004286669076503102,0.052600348915904316,-0.02882306074885526,0.10499727261478009,0.999446795432566,0.014866169478058243,0.0045087490812068505,0.029406993833898623
1781.6333333320417,0.038767375,-0.7846012,-0.03550665,-2.3561585,0.035301797,1.5828865,0.82934266,0.04,0.04,0.0038617976764410145,-0.013559574852495954,0.004278667740909015,0.053545690800966925,-0.028859824693907278,0.10686084343824472,0.9994114857930645,0.015332196972097614,0.004632923120762974,0.030333839589890936
1781.6499999987084,0.039962914,-0.7846062,-0.036608122,-2.3561542,0.036392625,1.5832556,0.8306854,0.04,0.04,0.005033644106533508,-0.01350456607820405,0.004535110786108021,0.054489814786106,-0.028884239079000604,0.10872105463804924,0.9993744465682672,0.015806476262078418,0.004757513463288097,0.03127677924903404
1781.666666665375,0.041178554,-0.78461134,-0.037728123,-2.3561497,0.03750179,1.5836313,0.8320506,0.04,0.04,0.0044583056078906225,-0.013460254335950425,0.0045458118449470675,0.055434672214306396,-0.028895054712945005,0.11058162753549328,0.999335621217467,0.01628903531336352,0.004882391613460888,0.032235783635461555
1781.6833333320417,0.042414274,-0.7846166,-0.038866628,-2.3561451,0.03862929,1.584013,0.8334384,0.04,0.04,0.003993742561458902,-0.013456708446861823,0.00416577379671601,0.05637901588404699,-0.02889126229147703,0.11244020836543334,0.9992949533826399,0.016779886317604124,0.00500715855578283,0.03321084043430604
1781.6999999987083,0.04367003,-0.78462195,-0.040023606,-2.35614,0.03977507,1.5844009,0.8348488,0.04,0.04,0.005310774529743156,-0.013347575141728352,0.0045658075346510785,0.057322817171726076,-0.028875913618872585,0.11429496827071808,0.9992523812359886,0.017279115537219725,0.005132127686464397,0.03420193014827847
1781.716666665375,0.044945776,-0.7846274,-0.04119901,-2.3561347,0.04093911,1.5847954,0.8362817,0.04,0.04,0.004198532389754206,-0.01334794026953759,0.0045373602561182835,0.05826506334030741,-0.028845636422195207,0.11614838904027683,0.9992078479227602,0.017786661611773603,0.005256989850461608,0.03520902407035129
1781.7333333320416,0.04624147,-0.78463286,-0.0423928,-2.3561292,0.042121332,1.5851955,0.83773714,0.04,0.04,0.00439064470481032,-0.013252623998005753,0.004017859754301689,0.05920601647813781,-0.028800126472010176,0.1179967585306787,0.9991612957084678,0.018302565589322053,0.0053813424704792084,0.036232063207051496
1781.7499999987083,0.04755703,-0.78463846,-0.043604918,-2.3561237,0.043321703,1.5856019,0.8392146,0.04,0.04,0.004264934966391465,-0.013197333147470236,0.0042233247089518144,0.06014479856145831,-0.0287428316245971,0.11984308625722459,0.9991126670866143,0.018826629308078213,0.005505237665616262,0.03727101895861702
1781.766666665375,0.048892416,-0.78464407,-0.044835303,-2.3561184,0.044540152,1.5860146,0.84071445,0.04,0.04,0.0038213409748522054,-0.013153497991327812,0.004265268893277607,0.06108351156615607,-0.028672597209066644,0.1216817473925858,0.9990618995908713,0.01935902328370334,0.005628444485214337,0.03832583483836321
1781.7833333320416,0.050247554,-0.7846499,-0.046083916,-2.356113,0.04577665,1.5864333,0.8422363,0.04,0.04,0.004846405574054913,-0.013046995450447657,0.004069731337930094,0.06201978898843946,-0.028590049155465876,0.1235200583682653,0.9990089328506336,0.019899594722658162,0.005751040165339886,0.039396494152766186
1781.7999999987082,0.05162238,-0.7846558,-0.04735068,-2.3561072,0.04703111,1.5868582,0.84378034,0.04,0.04,0.004782817645732074,-0.01297800431762225,0.0043402649192669784,0.06295499079060665,-0.028493261231199524,0.1253497239255627,0.9989537028429334,0.02044849015283047,0.005872941930556012,0.04048292701796928
1781.816666665375,0.05301681,-0.78466177,-0.048635524,-2.3561013,0.048303463,1.5872891,0.84534645,0.04,0.04,0.004803786048945824,-0.012892970209979482,0.004244652725504672,0.0638870816101215,-0.028381624025012868,0.12717542357649755,0.9988961487767899,0.02100565101482266,0.005993984234608862,0.04158507830142772
1781.8333333320415,0.054430775,-0.7846679,-0.04993839,-2.356095,0.04959368,1.5877259,0.8469345,0.04,0.04,0.004921058135187728,-0.012831134400850125,0.0039922804370373655,0.06481652106740943,-0.028254633219236568,0.12899825442772742,0.9988362081077309,0.021571041064576437,0.006113998470939499,0.04270291070942698
1781.8499999987082,0.055864174,-0.78467405,-0.05125917,-2.3560889,0.050901633,1.5881687,0.8485444,0.04,0.04,0.0044484495089536225,-0.012734880387983705,0.0041576303480006516,0.06574279950724346,-0.028113478381350743,0.1308093323592505,0.9987738197674577,0.02214466834304373,0.00623278700454384,0.043836320297836205
1781.8666666653749,0.057316925,-0.7846803,-0.0525978,-2.3560827,0.052227277,1.5886176,0.8501761,0.04,0.04,0.004604543946329365,-0.012667757672616548,0.003993640474519999,0.06666601577215792,-0.027958403123966056,0.13261672217442352,0.9987089200437336,0.022726498898106916,0.006350239303713915,0.04498526129410831
1781.8833333320415,0.05878895,-0.7846866,-0.053954184,-2.3560765,0.053570498,1.5890722,0.8518293,0.04,0.04,0.004556384172360595,-0.012571113025718755,0.003932261299977036,0.06758608870438634,-0.027789433747639106,0.13441562026907455,0.998641448780544,0.023316436744880882,0.006466159191963073,0.046149640738820434
1781.8999999987082,0.06028014,-0.784693,-0.055328224,-2.35607,0.054931212,1.5895331,0.8535041,0.04,0.04,0.005141844192824152,-0.012460520083677068,0.004295753689564918,0.068503015550188,-0.02760584061399299,0.13620754655001827,0.9985713370351434,0.023914583430492072,0.006580728520170344,0.047329394284481116
1781.9166666653748,0.061790388,-0.7846994,-0.056719847,-2.3560636,0.05630934,1.5899997,0.8552004,0.04,0.04,0.004570492682121063,-0.012358871976039798,0.0038652782958337184,0.06941531944539943,-0.027406432405493994,0.13799088309594124,0.998498524283777,0.024520884127745033,0.006693450243517238,0.04852443681848347
1781.9333333320415,0.06331959,-0.7847058,-0.058128934,-2.3560572,0.057704765,1.5904721,0.8569179,0.04,0.04,0.004734748276846723,-0.012270651643025987,0.003911684026491891,0.07032361884705518,-0.02719413981096516,0.13976531674426723,0.9984229480251064,0.02513524486393689,0.006804305300672489,0.0497346735372908
1781.949999998708,0.0648676,-0.7847124,-0.0595554,-2.3560505,0.059117384,1.5909501,0.8586565,0.04,0.04,0.005189276645389818,-0.012072555972040405,0.0038038064833934015,0.0712281070390476,-0.026966749304613687,0.14152886210048438,0.9983445430695684,0.025757661196261578,0.006913212774051422,0.05096002062454432
1781.9666666653748,0.066434346,-0.784719,-0.06099913,-2.3560438,0.06054708,1.5914344,0.8604163,0.04,0.04,0.004968453091147573,-0.012027515376387271,0.004164031158082615,0.0721281102273777,-0.026724031884493002,0.1432800771605069,0.9982632419745191,0.026388186696087158,0.007020203552701333,0.05220038378684455
1781.9833333320414,0.06801969,-0.7847256,-0.062459998,-2.3560371,0.061993733,1.5919242,0.86219674,0.04,0.04,0.004763089786585795,-0.011906409446215543,0.0037516922180902412,0.07302257290492256,-0.02646472881653143,0.14502262671916152,0.9981789886821696,0.027026612725454868,0.007124848597414691,0.053455638528532655
1781.999999998708,0.06962349,-0.7847322,-0.06393789,-2.3560305,0.06345728,1.5924194,0.8639982,0.04,0.04,0.00474601714748335,-0.011821941282964127,0.00356902327172115,0.07391321920466223,-0.026191823182737668,0.14675735811460278,0.9980917130722645,0.027673122028845393,0.007226904577586821,0.05472570204095555
1782.0166666653747,0.07124564,-0.7847391,-0.06543271,-2.3560236,0.06493755,1.5929208,0.86582017,0.04,0.04,0.005749010609368277,-0.01158584441774968,0.004152253308187248,0.07479772819088487,-0.025906379227836306,0.14847859316381656,0.9980013478359705,0.028327565634775963,0.0073269210472962166,0.05601048982789337
1782.0333333320414,0.07288599,-0.784746,-0.06694433,-2.3560164,0.06643441,1.5934273,0.8676625,0.04,0.04,0.005251910519676883,-0.011498279284567758,0.003455480983149961,0.07567650632821107,-0.02560112461773155,0.15018643721905073,0.9979078375089827,0.02898983580207272,0.00742416556008668,0.05730985102101764
1782.049999998708,0.07454442,-0.7847532,-0.06847262,-2.3560092,0.06794781,1.5939398,0.8695252,0.04,0.04,0.0054476471569753215,-0.011420169581256162,0.0038226012521347386,0.07655048137015838,-0.02528216185093379,0.15188671836247733,0.9978111082382182,0.0296600098883404,0.007518933752386386,0.05862373005080472
1782.0666666653747,0.07622077,-0.78476053,-0.07001742,-2.356002,0.0694776,1.5944575,0.87140787,0.04,0.04,0.005065824233296823,-0.01129416519023499,0.003391819915332661,0.07741770600856865,-0.024945820080001027,0.15357362069312555,0.997711105705317,0.030337908225381908,0.00761067782320954,0.059951967939788
1782.0833333320413,0.07791489,-0.7847679,-0.071578614,-2.3559947,0.07102358,1.5949812,0.8733106,0.04,0.04,0.005692827673464684,-0.011063495564796882,0.004057776003807412,0.07827963904796839,-0.024594765147226562,0.1552460038448027,0.9976077581051302,0.03102365589009003,0.007699726364427943,0.06129443659568228
1782.099999998708,0.07962662,-0.7847753,-0.07315607,-2.3559873,0.072585665,1.59551,0.8752332,0.04,0.04,0.004999067639843702,-0.010963299287871514,0.00336621631928935,0.07913453678038185,-0.02422561741743115,0.15690797211028518,0.9975010087474339,0.03171713449025373,0.0077854074002547,0.06265100445476433
1782.1166666653746,0.081355855,-0.7847827,-0.074749626,-2.35598,0.07416369,1.5960442,0.8771754,0.04,0.04,0.005130313660894892,-0.010901450703736104,0.003533645213238401,0.07998302229478084,-0.023843908708862785,0.15855631739158518,0.9973907943791924,0.032418293687962035,0.00786772748568403,0.06402153064567706
1782.1333333320413,0.08310239,-0.7847903,-0.07635913,-2.3559725,0.07575754,1.5965837,0.8791372,0.04,0.04,0.005386022550357694,-0.01070108270516193,0.0034297874440536447,0.08082444985609163,-0.0234462443589626,0.16019075972372293,0.9972770471784718,0.033127166589166035,0.007946662946021865,0.06540590610016923
1782.149999998708,0.08486607,-0.78479785,-0.077984445,-2.3559651,0.07736706,1.5971287,0.8811182,0.04,0.04,0.005275119578751486,-0.010545473105468689,0.0036177286180771873,0.08165833097662858,-0.023033315810804367,0.16181075251800972,0.9971597097576387,0.033843567175333954,0.008022085533271293,0.0668039844665516
1782.1666666653746,0.086646736,-0.7848055,-0.07962544,-2.3559573,0.07899208,1.5976788,0.8831182,0.04,0.04,0.006050567746229696,-0.010328488932645485,0.003441605385279267,0.08248505924335228,-0.02260556300033442,0.16341621693302777,0.9970387176744134,0.03456749269986136,0.008093913194814095,0.06821563219527602
1782.1833333320412,0.08844421,-0.7848131,-0.081281945,-2.3559494,0.080632426,1.5982342,0.8851371,0.04,0.04,0.0053313049359182685,-0.010197065977352038,0.0035255592331528973,0.0833044409526674,-0.02216074417062605,0.16500526521270134,0.9969140124192483,0.03529888022078785,0.008161953256998445,0.06964067357761418
1782.1999999987079,0.09025833,-0.78482085,-0.08295377,-2.3559415,0.08228798,1.5987947,0.8871748,0.04,0.04,0.005440719651605974,-0.01010808264919616,0.0032754877884011435,0.08411650162897324,-0.021700771163508575,0.16657910724849495,0.9967855293016737,0.03603774998989213,0.008226031755279096,0.07107898108449066
1782.2166666653745,0.0920889,-0.78482866,-0.084640786,-2.3559337,0.08395855,1.5993602,0.8892309,0.04,0.04,0.0053766790315989965,-0.009876127224628384,0.003223659808093693,0.0849196232820241,-0.021225408933451807,0.16813601544034398,0.9966532132173513,0.036783951422113687,0.008285964265510681,0.072530381892659
1782.2333333320412,0.09393576,-0.7848366,-0.08634284,-2.3559258,0.08564396,1.5999309,0.89130527,0.04,0.04,0.005528228050732942,-0.009686900698055445,0.0032770858896524757,0.08571490946210099,-0.02073514268852108,0.16966991140393875,0.996517002006061,0.03753744216258564,0.008341734425862024,0.07399473370119922
1782.2499999987078,0.09579873,-0.78484464,-0.08805971,-2.3559177,0.087344095,1.6005065,0.8933977,0.04,0.04,0.005949976121799594,-0.009621270321122366,0.003286506500344011,0.08650206105602316,-0.020229955363918473,0.1711939584531566,0.9963768359764323,0.038298143785417835,0.008393297471183506,0.07547188529343467
1782.2666666653745,0.0976776,-0.78485274,-0.08979125,-2.3559096,0.08905876,1.601087,0.895508,0.04,0.04,0.005434375869106667,-0.00938373749788668,0.003044389318040963,0.08728078340737513,-0.019708603901285923,0.1726991340326095,0.9962326585877553,0.03906603466492968,0.0084402852370639,0.07696165593234382
1782.2833333320411,0.09957218,-0.78486097,-0.091537304,-2.3559012,0.09078776,1.6016724,0.8976361,0.04,0.04,0.00603160820289439,-0.00915828501303062,0.003292100619112226,0.08805071976721467,-0.01917289731274269,0.17418945827332558,0.99608440489869,0.03984113810634248,0.00848285923095754,0.0784638969927054
1782.2999999987078,0.10148228,-0.78486925,-0.09329769,-2.355893,0.09253095,1.6022625,0.89978164,0.04,0.04,0.0054789083923756365,-0.009029747368727303,0.002957161660543939,0.08881040169047366,-0.018620693918631838,0.17566272111846393,0.9959320256951854,0.04062328063978598,0.008520601394815561,0.07997842594485502
1782.3166666653744,0.10340771,-0.78487766,-0.0950722,-2.355885,0.09428813,1.6028575,0.9019443,0.04,0.04,0.004845733050418133,-0.008921399201464175,0.002885301098642934,0.08956121405837941,-0.01805522164518921,0.17711781188608888,0.9957754689369522,0.04141235447047994,0.008553329032414219,0.08150504845141378
1782.333333332041,0.10534826,-0.78488606,-0.096860655,-2.3558764,0.09605912,1.6034571,0.90412396,0.04,0.04,0.006717352322782588,-0.008615386766672173,0.003308047734140729,0.0903030755998262,-0.017475111186929935,0.17855430992062254,0.9956146703270656,0.042208369891758794,0.008581358083091914,0.08304361525161745
1782.3499999987077,0.107303746,-0.7848945,-0.09866287,-2.355868,0.09784375,1.6040612,0.9063206,0.04,0.04,0.0051456763414226,-0.008557552829195625,0.0027637090050491864,0.09103459181942306,-0.016878463823931635,0.1799720220576575,0.9954495795157883,0.043011303884375504,0.008604083102431818,0.08459392492355824
1782.3666666653744,0.10927392,-0.784903,-0.10047866,-2.3558598,0.099641815,1.6046699,0.9085334,0.04,0.04,0.005520633765332406,-0.008277484062005347,0.0029100595343445335,0.09175600208425494,-0.016269768533129038,0.18137131508907395,0.9952801517938006,0.04382087185811008,0.008621525020504619,0.0861557887853468
1782.383333332041,0.11125864,-0.7849115,-0.10230783,-2.3558514,0.101453125,1.605283,0.91076267,0.04,0.04,0.005582476909937739,-0.008176828760474153,0.0027844517183961415,0.09246861049376454,-0.015647756878591636,0.1827485533745458,0.9951063264741646,0.044637193491869336,0.008633540743786177,0.08772902565564016
1782.3999999987077,0.11325761,-0.78492016,-0.10415016,-2.355843,0.10327748,1.6059008,0.91300774,0.04,0.04,0.005761875705756481,-0.007887340093873374,0.0029336375854560615,0.09317020930838923,-0.015011082063867302,0.18410737130007543,0.9949280575890873,0.045460035612896244,0.008640213125281414,0.0893134486022671
1782.4166666653744,0.11527065,-0.78492886,-0.106005475,-2.3558342,0.10511468,1.6065227,0.9152688,0.04,0.04,0.006384055406316591,-0.007689795931545285,0.0028292245496386315,0.0938621632696913,-0.014360140504157608,0.1854444102272777,0.9947452873813849,0.046289494262197826,0.008641407287589114,0.09090886663888094
1782.433333332041,0.11729755,-0.7849376,-0.107873574,-2.3558254,0.10696452,1.6071488,0.9175453,0.04,0.04,0.005591565102136542,-0.007531286028654438,0.002623116269395709,0.09454284464821533,-0.013694242001840606,0.18675995569773096,0.994557975659503,0.0471253836436296,0.008636812463333006,0.09251506222764666
1782.4499999987077,0.11933806,-0.7849464,-0.10975427,-2.3558166,0.10882684,1.6077793,0.9198373,0.04,0.04,0.005636549513332589,-0.00730394167567372,0.0028407445833655842,0.09521311623158286,-0.013016682905759977,0.18805735908085275,0.9943660642312456,0.04796775699599388,0.008626426467585503,0.09413187218171508
1782.4666666653743,0.12139198,-0.7849552,-0.1116473,-2.355808,0.11070138,1.6084137,0.9221444,0.04,0.04,0.005154936581797109,-0.007224980445744156,0.002346508265693714,0.09587142055149345,-0.012324080871822813,0.18933126938892425,0.9941695197891375,0.048816449106011885,0.00860984803462054,0.09575902430443067
1782.483333332041,0.123459086,-0.7849641,-0.11355251,-2.3557992,0.112587936,1.6090522,0.9244662,0.04,0.04,0.006035029820883331,-0.0068707153532202025,0.0026581289789273654,0.09651842652216995,-0.011621375095192297,0.19058247629541725,0.9939682942747238,0.04967129830198687,0.008587306928748505,0.09739635650938142
1782.4999999987076,0.12553915,-0.78497297,-0.11546964,-2.3557904,0.114486344,1.6096948,0.9268026,0.04,0.04,0.005628436887561428,-0.0068067059761964255,0.0026727049795338687,0.09715449220064448,-0.010903742044252818,0.1918151600171452,0.9937623400869409,0.05053230857500732,0.008558628568159268,0.09904366255364225
1782.5166666653743,0.12763192,-0.784982,-0.117398515,-2.3557816,0.11639637,1.6103414,0.92915344,0.04,0.04,0.005766059080603014,-0.006492733755648905,0.002407552685013137,0.09777859259582067,-0.010174561249210255,0.19302579884764792,0.9935516098717997,0.0513994779241659,0.008523705186783982,0.10070073803188878
1782.533333332041,0.12973715,-0.78499115,-0.11933889,-2.3557725,0.11831775,1.6109921,0.9315182,0.04,0.04,0.006094455018645917,-0.006270290650163546,0.0026744782512633236,0.098389947343729,-0.00943289898672371,0.19421372084256738,0.9933360716805659,0.052272552889657806,0.008482605086197519,0.10236734989033935
1782.5499999987076,0.13185467,-0.7850003,-0.12129055,-2.3557634,0.12025034,1.6116465,0.9338967,0.04,0.04,0.00562783231696784,-0.006190834747456242,0.0023948893366432245,0.09898962429346103,-0.0086774674214486,0.1953738153840734,0.9931156851880559,0.05315148872404303,0.008435012816806118,0.10404328733107375
1782.5666666653742,0.13398416,-0.7850096,-0.12325328,-2.3557544,0.12219387,1.6123046,0.9362887,0.04,0.04,0.0056248190511309915,-0.005883217170157828,0.002200206710822883,0.0995774076256995,-0.007909465005606759,0.1965153065818536,0.9928904139256736,0.05403620218863599,0.00838078092435329,0.1057283183382376
1782.5833333320409,0.13612543,-0.7850189,-0.12522689,-2.3557453,0.12414815,1.6129664,0.9386939,0.04,0.04,0.0055822831367402515,-0.005681825235241689,0.0024533936936022016,0.10015264450306224,-0.007131014239512214,0.1976335778547088,0.992660218586217,0.05492660456090109,0.008319906182444924,0.10742224028984632
1782.5999999987075,0.13827819,-0.7850283,-0.1272111,-2.3557363,0.12611292,1.6136315,0.941112,0.04,0.04,0.005456539202475241,-0.005481591170937439,0.001987972690664641,0.10071564231792063,-0.00634123678151032,0.19872972057340904,0.9924250727477412,0.05582259081865226,0.008252067691095039,0.10912477589784846
1782.6166666653742,0.14044218,-0.78503764,-0.12920572,-2.3557272,0.12808801,1.6143,0.9435428,0.04,0.04,0.005483590630372959,-0.005243037794684657,0.002211388176576179,0.10126595597463053,-0.005541552529232855,0.1998004960340634,0.9921849337711022,0.056724123178901825,0.008177293339464134,0.11083574748635298
1782.6333333320408,0.14261721,-0.785047,-0.1312105,-2.355718,0.13007315,1.6149721,0.94598585,0.04,0.04,0.005933868355278982,-0.0050459175888639685,0.002407813247784496,0.10180322880946983,-0.004731885852302038,0.20084617329102566,0.991939775047401,0.057631009158067834,0.008095716007980938,0.11255491479563369
1782.6499999987075,0.14480305,-0.7850564,-0.13322522,-2.3557086,0.13206808,1.6156477,0.94844115,0.04,0.04,0.005553497327404067,-0.004876057582640925,0.0021885736117388532,0.10232773032395528,-0.003910332788069794,0.20186925207145381,0.9916895639146939,0.058543249723972596,0.008007125379338257,0.11428203129801466
1782.6666666653741,0.14699933,-0.7850659,-0.13524958,-2.3556993,0.13407262,1.6163263,0.950908,0.04,0.04,0.005439709348964428,-0.0046114486114190445,0.0019415516236742647,0.1028384761723933,-0.003077381812628434,0.20286348421450373,0.9914342848815721,0.05946058571991523,0.00791132561438138,0.11601684547613537
1782.6833333320408,0.14920592,-0.78507537,-0.13728347,-2.35569,0.13608652,1.6170081,0.9533864,0.04,0.04,0.00536806417197333,-0.00441837603439299,0.001988732570623597,0.10333763241392177,-0.00223710574264405,0.20383558268560864,0.9911739001314767,0.0603830429086192,0.007808217931943088,0.11775915913414395
1782.6999999987074,0.15142247,-0.7850849,-0.1393265,-2.3556807,0.13810956,1.617693,0.9558761,0.04,0.04,0.00544027481064191,-0.004258762268051497,0.001956026220195639,0.10382262836694692,-0.0013867342734736909,0.204783239751268,0.9909083902785472,0.06131051186943533,0.007697802749830691,0.11950869023929124
1782.716666665374,0.15364875,-0.7850945,-0.14137852,-2.3556714,0.14014152,1.6183808,0.9583767,0.04,0.04,0.005392563935391337,-0.003964452562307819,0.001890710189811351,0.10429438429414703,-0.0005284169836751377,0.2057049528600816,0.9906377291955982,0.06224287444326753,0.007579982610623226,0.12126523796558879
1782.7333333320407,0.1558845,-0.7851041,-0.14343934,-2.3556619,0.14218207,1.6190717,0.9608881,0.04,0.04,0.005754369621602251,-0.0036229817170579937,0.0021379029944368355,0.10475221994130701,0.000338624973763366,0.20660180464150465,0.9903618889450612,0.06318013238255252,0.0074548648148943155,0.12302855273425416
1782.7499999987074,0.1581295,-0.7851137,-0.14550865,-2.3556526,0.14423104,1.6197654,0.96340984,0.04,0.04,0.004815670944213757,-0.003626745877204074,0.001665415800466974,0.10519530012521033,0.0012151536945557598,0.2074737943038561,0.9900808639626292,0.06412207705255159,0.007322010617020468,0.12479835820236086
1782.766666665374,0.16038337,-0.7851234,-0.14758618,-2.3556433,0.1462882,1.6204621,0.96594167,0.04,0.04,0.00543702623083675,-0.0032818427303737963,0.0018956444885809276,0.10562441873049097,0.002097882254867167,0.2083197632268985,0.9897946262472012,0.06506864840760505,0.007181692915520632,0.1265744529256912
1782.7833333320407,0.16264594,-0.7851332,-0.1496718,-2.355634,0.14835328,1.6211611,0.9684831,0.04,0.04,0.005141544322495584,-0.003027469871372257,0.0015148999089165116,0.1060389266077595,0.002989242251426995,0.20913956103381573,0.9895031735428985,0.06601962091717792,0.007033572389429457,0.12835656610367602
1782.7999999987073,0.164917,-0.785143,-0.15176517,-2.3556244,0.150426,1.6218629,0.971034,0.04,0.04,0.005657271125558694,-0.0029137277340260392,0.001879240567959073,0.1064402855660205,0.0038875324436303173,0.2099319453652349,0.9892064869146002,0.06697493168312348,0.006877910815840283,0.13014445479898476
1782.816666665374,0.16719612,-0.78515285,-0.15386595,-2.355615,0.15250616,1.6225672,0.9735942,0.04,0.04,0.005092351581614807,-0.0026832497347653583,0.0016524059232914112,0.10682715250584052,0.004791983346469016,0.21069780840354096,0.9889045557533435,0.06793458477777148,0.006714433962377837,0.13193781936169457
1782.8333333320406,0.16948316,-0.7851627,-0.15597399,-2.3556054,0.15459357,1.623274,0.976163,0.04,0.04,0.005080014990865855,-0.002539566169756924,0.0016646656701091445,0.10719882309877293,0.005704277211803095,0.2114379837566367,0.9885973750198834,0.06889826981742883,0.006543136391693572,0.13373647926471102
1782.8499999987073,0.17177777,-0.7851726,-0.15808912,-2.3555958,0.15668789,1.6239828,0.9787405,0.04,0.04,0.004939073245990855,-0.002085761949954801,0.001319846516278922,0.10755652161436408,0.006621792791249861,0.21215002746460515,0.9882849320693693,0.06986605370863082,0.006363791250266912,0.13554014071391482
1782.866666665374,0.17407966,-0.7851825,-0.16021092,-2.3555863,0.15878892,1.6246942,0.98132634,0.04,0.04,0.005071527976974188,-0.002043442468785406,0.0017851131582924396,0.10789948200165596,0.007544289372817783,0.2128348119501488,0.9879672172217888,0.07083783673896907,0.006176661686171394,0.13734856181115424
1782.8833333320406,0.1763886,-0.78519243,-0.16233927,-2.3555768,0.16089635,1.6254077,0.9839199,0.04,0.04,0.0048895665520465315,-0.001718279579546178,0.0013435256449367827,0.10822668548696632,0.008472104998625723,0.2134922515423821,0.9876442443976339,0.07181333420160767,0.005981498452434167,0.13916146454869763
1782.8999999987072,0.1787043,-0.78520256,-0.16447382,-2.3555672,0.16300991,1.6261234,0.9865212,0.04,0.04,0.005083313077069995,-0.0015333458346034057,0.001456110724395998,0.10853992016551889,0.009404914779664467,0.2141223629639362,0.9873160023683619,0.07279255416724269,0.005778467645683033,0.14097859708776259
1782.916666665374,0.18102649,-0.7852127,-0.1666144,-2.3555577,0.1651294,1.6268412,0.9891294,0.04,0.04,0.004766809244527437,-0.0012581893911983721,0.001416136555620895,0.10883732656206718,0.010342622377548247,0.2147259930003539,0.9869825042774285,0.07377521149433121,0.005567395868083692,0.1427997147142474
1782.9333333320405,0.18335487,-0.7852229,-0.16876066,-2.355548,0.16725455,1.6275607,0.9917448,0.04,0.04,0.00514221327179154,-0.0011268145360038284,0.001313387759549478,0.10912128766910589,0.011286251384535508,0.2152998401211778,0.98664374126572,0.07476137953815065,0.00534829194913938,0.14462454744600695
1782.9499999987072,0.18568917,-0.7852332,-0.17091238,-2.3555381,0.1693851,1.6282823,0.99436677,0.04,0.04,0.0048364462315042545,-0.0008408178869656613,0.0013753832974527924,0.10938869172573883,0.012232377907468017,0.21584601057493963,0.9862997241017166,0.07575084111201344,0.005121218408452689,0.14645285053461124
1782.9666666653739,0.18802911,-0.78524345,-0.17306928,-2.3555284,0.17152081,1.6290056,0.9969953,0.04,0.04,0.004478536790020193,-0.0007309110565789645,0.0012280658412189283,0.10964143870720439,0.013182706275145537,0.2163656363664177,0.9859504589097873,0.07674360578316908,0.004885909374491163,0.14828431959098515
1782.9833333320405,0.19037443,-0.7852537,-0.17523119,-2.3555186,0.17366141,1.6297301,0.9996297,0.04,0.04,0.004377837845637167,-0.00041179175941652435,0.0009645946163816532,0.10987830780325092,0.014134623222551964,0.21685540320448204,0.9855959669617437,0.07773938951397727,0.0046422617576802085,0.15011870846937347
1782.9999999987072,0.19272478,-0.785264,-0.17739773,-2.3555088,0.17580666,1.6304561,1.0022699,0.04,0.04,0.004456723485257719,-0.00024110986195091666,0.0010258723208922405,0.11010011943510524,0.015087495315531456,0.21731780060091643,0.9852362532393107,0.07873817552467989,0.00439038312409285,0.15195574867056852
1783.0166666653738,0.19507995,-0.7852744,-0.17956871,-2.355499,0.17795621,1.6311837,1.0049152,0.04,0.04,0.0044715556299701475,3.2865127194692256e-05,0.0012239096296440266,0.11030694223063489,0.016041325407931815,0.21775177694855952,0.9848713421812626,0.07973970796627676,0.004130438520588818,0.15379518133270303
1783.0333333320405,0.19743963,-0.78528476,-0.18174385,-2.3554893,0.1801099,1.6319132,1.0075657,0.04,0.04,0.004419594834104146,0.00021307820075866513,0.0013637764497698157,0.11049806133144717,0.016997701839338568,0.21815848004783245,0.9845012304376736,0.08074402728710042,0.003862469918032286,0.15563679079928006
1783.049999998707,0.19980346,-0.7852952,-0.18392284,-2.3554792,0.18226746,1.6326435,1.0102209,0.04,0.04,0.0045263901706782406,0.0004698427680416284,0.0007577303200889673,0.11067363188053839,0.017956415706778434,0.21853533586933402,0.9841259584814803,0.0817508750856882,0.003586215406327982,0.15748025693619908
1783.0666666653738,0.20217119,-0.7853056,-0.18610545,-2.3554692,0.18442857,1.6333749,1.0128807,0.04,0.04,0.004108765544197368,0.0006586173832062725,0.0009688104686489396,0.11083344671656076,0.01891456928584185,0.21888453489630622,0.9837455339511884,0.08276031301343023,0.0033017211953027853,0.15932530765122865
1783.0833333320404,0.2045426,-0.78531605,-0.18829143,-2.3554592,0.18659297,1.6341082,1.0155443,0.04,0.04,0.0042511539164902246,0.0009065060655621959,0.0014258585905979615,0.11097715112225708,0.019872007770675746,0.21920424585860693,0.9833599894914281,0.08377200042473557,0.0030093607758341213,0.1611717306477076
1783.099999998707,0.20691738,-0.7853265,-0.19048049,-2.355449,0.18876043,1.6348417,1.0182115,0.04,0.04,0.004099112251632064,0.0010279501746313091,0.0004107886608872846,0.11110493834795013,0.020832237023232135,0.2194948715707287,0.9829693723368382,0.08478573890488605,0.0027085410497894044,0.1630191870040339
1783.1166666653737,0.20929515,-0.785337,-0.19267239,-2.3554387,0.19093074,1.6355767,1.0208822,0.04,0.04,0.004151267721574925,0.0013743832186330351,0.0012647827143608126,0.11121946479095607,0.021787757631640862,0.21975715050990874,0.9825736624208435,0.08580171152065474,0.0023998410086647328,0.1648675376784331
1783.1333333320404,0.21167567,-0.78534746,-0.19486684,-2.3554285,0.19310352,1.636312,1.0235561,0.04,0.04,0.0035574866524612503,0.0015120921754707695,0.00035678700973651445,0.1113160009507384,0.022745613061331584,0.2199904545235925,0.982172935580201,0.08681960047939628,0.002082672489657293,0.16671635811062216
1783.149999998707,0.21405865,-0.7853581,-0.19706355,-2.3554182,0.19527856,1.6370484,1.026233,0.04,0.04,0.003928985444190403,0.0017399442441334845,0.0009126843439011267,0.11139775567583679,0.023699138683080604,0.22019444136811545,0.9817671935940661,0.0878394340153279,0.0017575417442531505,0.16856548419328282
1783.1666666653737,0.21644382,-0.78536874,-0.19926228,-2.355408,0.19745556,1.6377857,1.0289122,0.04,0.04,0.003752801820899876,0.0019441237190609417,0.0008820897676287132,0.11146181569741427,0.024651550132933957,0.22036926373172483,0.9813564867368428,0.08886094752254481,0.0014244512415611782,0.17041463811414995
1783.1833333320403,0.21883085,-0.7853794,-0.20146276,-2.3553977,0.19963427,1.6385231,1.0315934,0.04,0.04,0.00333953576792112,0.002146839637812148,0.0003348927365420806,0.11151059779687528,0.025602557745749308,0.2205148465550689,0.9809408676523687,0.08988396318160581,0.001083042656889602,0.17226350266608792
1783.199999998707,0.22121945,-0.78539,-0.20366472,-2.3553874,0.20181443,1.6392609,1.0342766,0.04,0.04,0.0032865688526673154,0.0023566328210128384,0.0005646029034300781,0.11154406288460325,0.02654786520270301,0.22063079976245595,0.9805203631952469,0.09090848213012113,0.0007334638685096566,0.17411182402988035
1783.2166666653736,0.22360939,-0.7854007,-0.20586789,-2.3553772,0.20399572,1.6399997,1.0369612,0.04,0.04,0.0035879619115775085,0.0025849090863033775,0.001031619439872955,0.111561076460409,0.02748899016092808,0.22071661440421192,0.9800950101653336,0.09193432463386961,0.00037620917074758254,0.17595939721932588
1783.2333333320403,0.22600032,-0.78541136,-0.20807196,-2.355367,0.20617794,1.6407387,1.0396471,0.04,0.04,0.0031437595123140483,0.0027047942605912256,0.0003883732961229569,0.11156208852092134,0.02842900903236734,0.22077605406552175,0.9796648594694917,0.09296140910114052,1.0853240842824644e-05,0.17780590378488173
1783.249999998707,0.22839196,-0.78542197,-0.21027672,-2.3553567,0.20836082,1.6414782,1.0423337,0.04,0.04,0.0031249548520850823,0.0029826728496801236,0.0007164325309005903,0.11154630725394417,0.02936259604726326,0.22080544678595715,0.9792299564364781,0.09398953545692212,-0.00036234910634419813,0.17965112954036855
1783.2666666653736,0.23078404,-0.7854325,-0.21248187,-2.3553464,0.21054406,1.6422176,1.0450208,0.04,0.04,0.002882209530641333,0.0031052916932838848,0.0003791868297353673,0.11151485278333877,0.030291765012150595,0.22080471934337037,0.978790364168856,0.09501855229052805,-0.0007435434985619116,0.18149475164278453
1783.2833333320402,0.23317625,-0.78544307,-0.21468708,-2.3553362,0.21272741,1.642957,1.047708,0.04,0.04,0.002845538169493622,0.003267806835377529,0.00027009717962211965,0.11146737056881295,0.031214428760211296,0.22077598958746142,0.9783461387062423,0.09604830089927914,-0.0011326562486642972,0.18333650444679567
1783.2999999987069,0.23556826,-0.7854536,-0.21689214,-2.355326,0.2149106,1.6436963,1.0503951,0.04,0.04,0.002805272277672799,0.0035780596449208613,0.00039421806539152726,0.11140476580305494,0.03213113469975496,0.2207182908274487,0.9778973187823623,0.09707874241537653,-0.0015295385581189601,0.185176165315937
1783.3166666653735,0.23795976,-0.7854643,-0.21909682,-2.3553157,0.21709336,1.6444355,1.0530815,0.04,0.04,0.002826297727054339,0.0038585669891483265,0.0002693002035369929,0.11132619891095817,0.033040267579812585,0.22063077469966758,0.9774439654910645,0.09810962585554882,-0.0019340656436958412,0.18701351563369067
1783.3333333320402,0.24035053,-0.7854749,-0.22130078,-2.3553054,0.21927544,1.6451746,1.055767,0.04,0.04,0.002547540392638936,0.0038435563401995054,0.000367265761802571,0.11123217141776748,0.03394349435568895,0.22051497501330475,0.9769861415249715,0.09914087861718478,-0.0023462338303605803,0.1888482476539682
1783.3499999987068,0.24274024,-0.78548545,-0.22350378,-2.3552952,0.22145651,1.6459126,1.0584515,0.04,0.04,0.0021260527502509063,0.004106823038690921,-0.00029185619481175706,0.11112214979514304,0.0348398530101383,0.2203705870734089,0.9765239242721399,0.10017236439322365,-0.002766394619882505,0.19068001939589346
1783.3666666653735,0.24512865,-0.785496,-0.22570555,-2.355285,0.22363639,1.6466502,1.0611345,0.04,0.04,0.0023399170992810525,0.004232826779981824,0.00011573382172613833,0.11099698370984691,0.03572476617790276,0.22019725087031566,0.9760573621823376,0.10120390966073381,-0.0031941128168523456,0.192508680433772
1783.3833333320401,0.24751537,-0.7855066,-0.22790581,-2.3552747,0.22581474,1.6473875,1.0638154,0.04,0.04,0.002390838969601461,0.004588000954602878,0.00029145632627347595,0.11085718720927552,0.03659963001725878,0.21999401996931653,0.9755865210731275,0.10223537103028828,-0.0036290984193691604,0.1943339868767011
1783.3999999987068,0.24990015,-0.7855172,-0.23010428,-2.3552644,0.22799131,1.6481246,1.0664943,0.04,0.04,0.002238297371848219,0.004709546873132853,0.000337859678234409,0.11070163318165388,0.03746866368299534,0.21976254489668598,0.9751114486952298,0.10326682243000601,-0.004071301892624648,0.1961556792692956
1783.4166666653734,0.25228265,-0.7855278,-0.23230068,-2.3552542,0.23016584,1.6488603,1.0691707,0.04,0.04,0.001796926608310656,0.004847305554744885,-0.00042357825846828234,0.1105286127131244,0.03832939911996061,0.2195032653847424,0.9746322576687563,0.10429786634390636,-0.004521071683903023,0.1979734257380034
1783.43333333204,0.25466275,-0.78553843,-0.23449478,-2.355244,0.2323381,1.649596,1.0718442,0.04,0.04,0.002120982712661146,0.004937033195062668,0.0004447790809658514,0.11034180134822635,0.039177998190817354,0.2192140629311577,0.9741489851292693,0.10532846038443379,-0.004977732715934208,0.19978711765694046
1783.4499999987067,0.25704,-0.7855491,-0.23668627,-2.3552337,0.23450778,1.6503307,1.0745145,0.04,0.04,0.0018107747825180098,0.005276331520423505,-0.0001552972926255336,0.11013917876835133,0.040019220891517326,0.21889657706129498,0.9736617223912247,0.10635845475967544,-0.005441500520133407,0.20159642735767155
1783.4666666653734,0.25941414,-0.78555965,-0.23887494,-2.3552237,0.2366746,1.6510642,1.0771813,0.04,0.04,0.001014043357683292,0.005337892088042029,-0.00031179720645369,0.10992071601118011,0.040850588939359764,0.21855048250224285,0.9731705548568962,0.10738774885122374,-0.005912563973939409,0.20340104263115602
1783.48333333204,0.26178488,-0.7855701,-0.24106051,-2.3552134,0.23883834,1.6517967,1.0798444,0.04,0.04,0.0018400295263454325,0.005638184544667912,9.3975196824303e-05,0.10968844184542464,0.041667306415010257,0.21817663681133903,0.9726755430735912,0.10841621893785937,-0.0063904322361637445,0.20520081323802714
1783.4999999987067,0.26415193,-0.78558064,-0.24324268,-2.3552034,0.24099869,1.6525283,1.0825031,0.04,0.04,0.001193040528768563,0.005735267978884684,-0.00024721048748066465,0.10943975578831393,0.04247499111040066,0.21777250716702595,0.9721767835043418,0.10944364234505174,-0.0068750620334786456,0.20699546924374054
1783.5166666653734,0.26651502,-0.78559107,-0.24542119,-2.3551934,0.2431554,1.6532583,1.0851574,0.04,0.04,0.0010470945150942157,0.005830328039632682,-0.00042279625160901446,0.1091767199810293,0.04326938997071468,0.2173438117463833,0.9716743612262866,0.11046994188322769,-0.007366609791589064,0.20878472342578755
1783.53333333204,0.2688738,-0.7856015,-0.24759577,-2.3551834,0.24530822,1.6539874,1.0878072,0.04,0.04,0.0012868751116723587,0.0061468517815743695,-2.9359886322133377e-05,0.10889914337955298,0.04405078685396638,0.21688537583683049,0.9711683271525644,0.11149516159456031,-0.007864598715113849,0.21056841492432532
1783.5499999987067,0.2712281,-0.7856119,-0.24976619,-2.3551733,0.24745692,1.6547152,1.0904517,0.04,0.04,0.001088537181193061,0.006175343444603243,-0.00028844310719922106,0.10860481536407929,0.0448205363017636,0.21639849046161902,0.9706587947635544,0.11251891534063521,-0.00836901861701682,0.21234631469869855
1783.5666666653733,0.27357748,-0.7856224,-0.25193217,-2.3551633,0.24960119,1.6554409,1.093091,0.04,0.04,0.0008049236477347677,0.0065004296518816895,-0.0008020644444606262,0.10829606003529721,0.04557780243884646,0.21588560867970286,0.9701458497470918,0.11354121976207657,-0.008880041141168502,0.2141181134392047
1783.58333333204,0.27592182,-0.7856329,-0.2540934,-2.3551533,0.2517408,1.6561654,1.0957243,0.04,0.04,0.0009065696053855987,0.0063995342044598225,-0.00027573296086380594,0.10797186600903798,0.04631890006146089,0.21534386560826524,0.9696295941202752,0.1145617337573597,-0.009397167041291066,0.21588365527815298
1783.5999999987066,0.27826068,-0.7856434,-0.25624967,-2.3551433,0.25387546,1.6568878,1.0983517,0.04,0.04,0.0005441197312716639,0.006791315020149291,-0.0007409869635877087,0.10763440975273388,0.047048258810849286,0.214773271390367,0.9691101159247388,0.11558050401823615,-0.009920584559989726,0.21764262520291786
1783.6166666653733,0.28059393,-0.7856539,-0.25840068,-2.3551333,0.2560049,1.6576089,1.1009725,0.04,0.04,0.0006939608619749293,0.006801176282680843,-0.0002346729560676053,0.10728230718172838,0.04776247506886579,0.21417654460383434,0.9685875111607776,0.11659726375184785,-0.010449772399663328,0.2193948804456199
1783.63333333204,0.28292114,-0.78566444,-0.2605462,-2.3551233,0.25812888,1.6583279,1.1035866,0.04,0.04,0.00043260232356345796,0.0071126951614486345,-0.0007459022020039896,0.10691562399200334,0.04846397042383028,0.21355342918070558,0.9680618744780843,0.11761193256261299,-0.010984868858197072,0.22114016631320788
1783.6499999987066,0.2852421,-0.7856749,-0.26268592,-2.3551133,0.26024708,1.6590452,1.1061938,0.04,0.04,0.0002613595723843787,0.007108679869424761,-0.0005176305797993663,0.10653506545567566,0.0491502625778929,0.21290606324407377,0.9675333013637206,0.11862450154298183,-0.01152567423855928,0.22287821162968205
1783.6666666653732,0.28755665,-0.7856855,-0.26481968,-2.3551033,0.26235932,1.6597604,1.1087937,0.04,0.04,0.00019683662420000303,0.007252881340163997,-0.0008282616738464199,0.10613952486376341,0.049821273824971576,0.21222758486491772,0.9670018892545934,0.11963472242707521,-0.0120721341451415,0.2246088665770463
1783.6833333320399,0.28986433,-0.785696,-0.26694712,-2.3550932,0.2644654,1.6604736,1.1113862,0.04,0.04,0.00013422483804426122,0.007420463080673456,-0.000608218886055667,0.10572983851078485,0.05047585377196869,0.21152437200159174,0.9664677258389366,0.12064257106245922,-0.012623974373582973,0.22633192490271622
1783.6999999987065,0.29216486,-0.7857064,-0.269068,-2.3550832,0.26656488,1.6611844,1.1139703,0.04,0.04,-0.00038455775643875256,0.007641428969834552,-0.000819820404163174,0.10530526263001458,0.05111427706248241,0.21079410439377586,0.9659309782819246,0.12164765350466963,-0.01318124167346793,0.22804703124591977
1783.7166666653732,0.294458,-0.7857168,-0.27118212,-2.3550732,0.2686577,1.6618932,1.1165465,0.04,0.04,-9.873411968008838e-05,0.007741332644792265,-0.0006606259163710604,0.10486878376857792,0.05173764128920741,0.21003500081457624,0.9653916606477253,0.122650247656125,-0.013743617987716488,0.2297541539696857
1783.7333333320398,0.29674354,-0.785727,-0.27328926,-2.3550632,0.27074352,1.6625998,1.1191138,0.04,0.04,-0.00046401353399616596,0.007904539843198166,-0.0007451375210854039,0.10441624114804234,0.05234410263378801,0.20925260493260112,0.9648499484471857,0.12364983207101946,-0.01431099088378283,0.23145300073707417
1783.7499999987065,0.29902115,-0.7857373,-0.27538908,-2.3550532,0.27282217,1.6633035,1.1216723,0.04,0.04,-0.0005661423733815951,0.007856317641941057,-0.0012691468977754639,0.10395104992455512,0.052933885291508866,0.20844360770058173,0.9643059313303851,0.12464640080968081,-0.014883451952932773,0.23314336452962992
1783.7666666653731,0.3012906,-0.78574735,-0.2774813,-2.3550432,0.2748933,1.6640048,1.1242216,0.04,0.04,-0.0007492066723013835,0.008012392052436645,-0.0008074182084927273,0.10347330608549224,0.053504804634888714,0.2076088268274347,0.9637597270683492,0.12563985712948406,-0.015460645970041547,0.23482500549944196
1783.7833333320398,0.3035515,-0.78575754,-0.27956575,-2.3550334,0.27695668,1.6647037,1.1267614,0.04,0.04,-0.0009273668521103673,0.00840659756451978,-0.001035595940002132,0.10298259922211292,0.0540580122310124,0.20674666169136136,0.9632114186719778,0.12663017590449002,-0.016042360671456295,0.23649778889960202
1783.7999999987064,0.30580375,-0.7857677,-0.28164223,-2.3550236,0.27901208,1.6653996,1.1292914,0.04,0.04,-0.001040001090846232,0.0082631557789703,-0.0013722523523496122,0.10247693843592298,0.054593815718138324,0.20586309549561177,0.9626611533557875,0.12761700447707472,-0.016628710872128697,0.23816147875492832
1783.816666665373,0.30804703,-0.78577775,-0.28371027,-2.3550138,0.2810592,1.6660929,1.1318111,0.04,0.04,-0.0009452211877203354,0.008320854298557445,-0.0009662956664824307,0.10195998794622554,0.05510874467367721,0.20495236850096488,0.9621090593482254,0.1286002200887638,-0.017219178838909957,0.23981584850319626
1783.8333333320397,0.31028086,-0.7857878,-0.28576982,-2.355004,0.2830979,1.6667832,1.1343207,0.04,0.04,-0.0011213218969352567,0.008831439408324426,-0.0012588030022353536,0.10143073016953541,0.055608926368518274,0.2040178895675792,0.9615551880683966,0.12958001282514142,-0.01781381065196705,0.2414607809252729
1783.8499999987064,0.31250536,-0.78579783,-0.28782052,-2.3549943,0.2851279,1.6674709,1.1368197,0.04,0.04,-0.0011569127547961244,0.00838352238800022,-0.0010626776794531168,0.10088723046581449,0.05608839723720541,0.20305740133420952,0.9609996940668567,0.1305560013290038,-0.01841227860973223,0.24309608494746787
1783.866666665373,0.31472,-0.7858078,-0.28986225,-2.3549848,0.28714898,1.6681552,1.1393075,0.04,0.04,-0.0019643343200037577,0.008838367106489553,-0.0016878082947258122,0.10033136403156767,0.05654927711140698,0.20207493575814067,0.9604427140458566,0.13152800706523451,-0.01901482395465063,0.24472150061580267
1783.8833333320397,0.31692457,-0.7858177,-0.2918948,-2.3549752,0.2891608,1.6688364,1.1417843,0.04,0.04,-0.001566680616038596,0.009098395015744165,-0.001308436002944724,0.09976411941046502,0.05698958867358325,0.20106688490586871,0.9598843243179621,0.13249619010260302,-0.019621017773318622,0.24633688152301395
1783.8999999987063,0.31911883,-0.7858276,-0.29391783,-2.3549657,0.29116327,1.6695145,1.1442493,0.04,0.04,-0.0014840727986520363,0.0089904237241617,-0.0012938174513754674,0.09918366822507313,0.05740888299147659,0.20003703537613673,0.9593246636447208,0.13346014138445453,-0.020230520856005345,0.24794214327233582
1783.916666665373,0.32130256,-0.78583735,-0.29593113,-2.3549562,0.29315612,1.6701893,1.146702,0.04,0.04,-0.001898279693035576,0.009009365393969349,-0.0015751811163422502,0.09859112783840085,0.05781007945222836,0.19898150479841492,0.9587638948102175,0.1344195890503046,-0.02084337564330749,0.24953701484886243
1783.9333333320396,0.3234755,-0.7858471,-0.29793447,-2.3549464,0.29513904,1.6708604,1.1491429,0.04,0.04,-0.0015065742225761625,0.00929370175802302,-0.001609739444341507,0.09798919081712326,0.058192106759606774,0.1979051204835688,0.9582020952906796,0.13537470820680453,-0.02145933238961415,0.2511213451936456
1783.9499999987063,0.3256373,-0.78585696,-0.29992762,-2.3549368,0.29711187,1.6715283,1.1515713,0.04,0.04,-0.002219057254748691,0.00938228942712338,-0.0015833377946750105,0.09737588992621071,0.05855275301248777,0.19680458801600786,0.9576393797358056,0.1363253892969112,-0.022078184577440645,0.25269499476252316
1783.966666665373,0.3277878,-0.7858669,-0.3019103,-2.3549273,0.29907426,1.6721929,1.1539869,0.04,0.04,-0.001900656108100307,0.009490570411976873,-0.001617028783273966,0.09674981025069707,0.05889345449604424,0.19568028982936359,0.9570758956910925,0.137271407396179,-0.022699619418811476,0.2542577783998088
1783.9833333320396,0.3299267,-0.7858768,-0.30388236,-2.3549178,0.3010262,1.6728542,1.1563897,0.04,0.04,-0.0021445705827183303,0.009484738884316113,-0.001509466559546091,0.09611266637184461,0.0592147619822728,0.19453818430238293,0.9565117283815902,0.1382127662291349,-0.02332354875998874,0.2558096104390804
1783.9999999987062,0.3320537,-0.78588665,-0.30584344,-2.3549085,0.30296725,1.6735117,1.158779,0.04,0.04,-0.0028196784795042618,0.009588110289401874,-0.00187632492483214,0.09546216992090092,0.05951763273224541,0.19336957020576517,0.955947070881416,0.1391491794286912,-0.02394995608291241,0.25735015667605426
1784.016666665373,0.3341687,-0.7858963,-0.30779347,-2.3548992,0.30489737,1.6741655,1.161155,0.04,0.04,-0.0026416653268857004,0.009574722972871541,-0.001793888674606059,0.09480275847167283,0.05979856425794476,0.19217834066292327,0.9553819967972055,0.14008068315979405,-0.02457871956208527,0.25887937141834655
1784.0333333320395,0.3362715,-0.78590596,-0.3097321,-2.3548899,0.30681616,1.6748157,1.1635174,0.04,0.04,-0.0024899269218447984,0.009695350935090552,-0.0017515949187085766,0.09413203013586513,0.060056899360622425,0.19096773937312655,0.9548166509212502,0.1410071509786463,-0.025209411301402113,0.2603970661859486
1784.0499999987062,0.33836168,-0.78591555,-0.31165937,-2.3548806,0.30872357,1.6754618,1.1658654,0.04,0.04,-0.0027798625253705467,0.010075412717711063,-0.0019816981911446874,0.09345017669581643,0.06029449925226503,0.18973316607919538,0.9542511468460741,0.14192836272708442,-0.025842020288200644,0.2619031855170636
1784.0666666653728,0.3404391,-0.7859251,-0.31357473,-2.3548715,0.31061924,1.6761037,1.1681991,0.04,0.04,-0.0033315495234553794,0.009686503102998567,-0.0022794350153398923,0.09275760874814196,0.06051014877539801,0.1884802594598065,0.9536856742828015,0.1428441259000617,-0.026476492609128047,0.2633973912223206
1784.0833333320395,0.34250355,-0.78593457,-0.31547812,-2.3548625,0.31250313,1.6767412,1.1705179,0.04,0.04,-0.0030378340982739616,0.00987414855624924,-0.002323619179667169,0.092056983673976,0.060704030494194997,0.1872067037075457,0.9531203287783064,0.14375430407542156,-0.027112624003852098,0.26487967938094065
1784.0999999987062,0.34455475,-0.7859441,-0.31736928,-2.3548534,0.3143749,1.677375,1.172822,0.04,0.04,-0.0028415443330320755,0.010112661537989287,-0.001961273027184518,0.09134837480626176,0.06087462182252417,0.18591278231314168,0.9525552152987975,0.14465897060436542,-0.027749878801931138,0.26634993571845467
1784.1166666653728,0.34659255,-0.7859535,-0.31924814,-2.3548443,0.3162343,1.6780045,1.1751109,0.04,0.04,-0.0032843687997274884,0.010223673478429451,-0.00209375331152728,0.09062820243421725,0.061026111411125,0.18459765771027858,0.9519904773598373,0.14555797240735074,-0.02838827924578148,0.2678079783843523
1784.1333333320395,0.34861657,-0.7859628,-0.32111436,-2.3548353,0.31808126,1.6786299,1.1773845,0.04,0.04,-0.0033015197871577584,0.010214287236295916,-0.002118996088196212,0.08989908554710485,0.06115399049176844,0.1832641540876583,0.9514262287466093,0.14645123787599215,-0.02902760085820561,0.2692537178313625
1784.149999998706,0.35062668,-0.785972,-0.3229677,-2.3548262,0.3199156,1.6792511,1.1796426,0.04,0.04,-0.0033840251588923564,0.010160567411882093,-0.002153561504725232,0.08916007546404754,0.06126140277708328,0.18191018478724483,0.9508625979510883,0.14733868315017817,-0.02966764920086336,0.2706870201102612
1784.1666666653728,0.35262272,-0.78598106,-0.32480803,-2.3548172,0.32173693,1.6798681,1.1818846,0.04,0.04,-0.003533679409484236,0.010308043165790925,-0.0021514878878470256,0.08841161738239556,0.06134778197908164,0.18053879239372422,0.9502997484385103,0.1482200847796464,-0.0303081674656108,0.27210771685215895
1784.1833333320394,0.3546044,-0.7859901,-0.32663512,-2.3548083,0.3235452,1.6804807,1.1841109,0.04,0.04,-0.003921818041519032,0.010310040022321054,-0.0025111581108516745,0.08765394561643541,0.061411895469118585,0.17914743295932845,0.949737770769429,0.14909551478489572,-0.030949164839003698,0.2735157096780926
1784.199999998706,0.35657156,-0.7859991,-0.32844883,-2.3547995,0.32534018,1.6810886,1.1863205,0.04,0.04,-0.003778855805869341,0.010375117978919657,-0.0026387250886328317,0.08688661953198568,0.06145393192146945,0.17773868785171695,0.9491768349244033,0.1499645932071475,-0.03159044962359828,0.27491089523641266
1784.2166666653727,0.35852394,-0.786008,-0.3302489,-2.3547907,0.32712165,1.681692,1.188514,0.04,0.04,-0.0038336039231090524,0.010483973413361047,-0.0023569842987347656,0.08611281131022801,0.06147271888137723,0.17631084205288394,0.9486170293107976,0.15082756322624408,-0.032231720788475804,0.2762931306562007
1784.2333333320394,0.36046124,-0.786017,-0.3320351,-2.354782,0.32888943,1.6822908,1.1906903,0.04,0.04,-0.004099136518220803,0.010544986810470669,-0.002787648246438401,0.0853283258939487,0.06147005825590862,0.1748647680325822,0.9480585313317559,0.15168397026659325,-0.0328727795681358,0.27766233935609985
1784.249999998706,0.36238346,-0.78602594,-0.3338074,-2.3547735,0.33064336,1.6828848,1.1928496,0.04,0.04,-0.004037371050280569,0.010583671997449473,-0.002664803508256597,0.08453721360857558,0.0614459993070748,0.17340421516509633,0.9475014300650276,0.15253390708473014,-0.03351353003400018,0.2790184411806046
1784.2666666653727,0.36429027,-0.7860349,-0.33556557,-2.354765,0.33238333,1.6834742,1.1949916,0.04,0.04,-0.003957873214766039,0.010654246264879541,-0.002631222712512482,0.08373817440184175,0.06139975881586379,0.17192436413940748,0.9469458540469751,0.15337720472791153,-0.034153630528885134,0.2803613955144209
1784.2833333320393,0.36618155,-0.78604376,-0.33730933,-2.3547566,0.334109,1.6840587,1.1971161,0.04,0.04,-0.004649205311135773,0.010516599260335102,-0.0029194818852440463,0.0829316834303387,0.06133133533855628,0.1704327473924261,0.9463919686316217,0.1542138031310135,-0.034793131035578836,0.2816909346538752
1784.299999998706,0.36805692,-0.7860526,-0.33903858,-2.3547482,0.3358202,1.6846384,1.199223,0.04,0.04,-0.004284939542786859,0.010969261517562723,-0.0026726056737702564,0.08211749966230367,0.061241047887955966,0.16892173597476046,0.9458398688561264,0.15504372889847917,-0.03543162184960676,0.2830070401678854
1784.3166666653726,0.3699164,-0.7860612,-0.34075305,-2.3547401,0.3375169,1.6852129,1.201312,0.04,0.04,-0.00498068272105634,0.010359442160651211,-0.0031694460198350427,0.08129523750766054,0.061129331902443323,0.1673932977643336,0.9452897254916772,0.1558666521332874,-0.03606930293905723,0.2843095619533769
1784.3333333320393,0.3717598,-0.7860698,-0.34245268,-2.3547323,0.33919892,1.6857826,1.2033826,0.04,0.04,-0.004790289817213633,0.010677681755977275,-0.002863634623828659,0.08046767393052343,0.06099232384618952,0.16585067139846574,0.9447416290949836,0.15668257549347694,-0.03670568831771165,0.2855985245704362
1784.349999998706,0.3735868,-0.78607833,-0.34413725,-2.3547244,0.34086594,1.6863472,1.205435,0.04,0.04,-0.0045696238141434975,0.010936839571484835,-0.002922753791989585,0.07963310664490372,0.060835137180283876,0.16429149703780083,0.9441957096666574,0.15749151398530828,-0.03734055693148886,0.28687378353160636
1784.3666666653726,0.37539724,-0.786087,-0.34580654,-2.3547165,0.34251785,1.6869067,1.2074687,0.04,0.04,-0.004471882910372926,0.010867124837948827,-0.0032517778010277,0.07879144578442665,0.06065609109201441,0.16271793907412685,0.9436521212524375,0.15829317373978538,-0.0379736989733097,0.28813528660933835
1784.3833333320392,0.377191,-0.7860954,-0.34746048,-2.3547087,0.34415448,1.6874609,1.2094839,0.04,0.04,-0.004987593230820764,0.010853595769882984,-0.003036859917737722,0.07794413833752421,0.06045755468698999,0.16112962346904647,0.9431109683470943,0.15908767194229625,-0.03860511729509894,0.2893828933057691
1784.3999999987059,0.37896788,-0.7861036,-0.34909883,-2.354701,0.34577572,1.6880102,1.2114799,0.04,0.04,-0.005241171458836291,0.010793230723821212,-0.0029557789645862087,0.07709047197496775,0.060234311650810064,0.15952894569592385,0.9425723803453175,0.15987485075112634,-0.03923448403248519,0.2906165775900816
1784.4166666653725,0.3807278,-0.7861117,-0.3507215,-2.3546937,0.3473815,1.688554,1.2134569,0.04,0.04,-0.0054061769624969,0.010677427865518618,-0.0034576727349300285,0.07623033644573156,0.059992844299503204,0.15791450693887224,0.9420364754987273,0.1606546061934983,-0.039861903920129865,0.2918362639471149
1784.4333333320392,0.3824704,-0.78611976,-0.3523283,-2.3546863,0.34897152,1.6890928,1.2154145,0.04,0.04,-0.0049239446428206435,0.011095405713101858,-0.003103162580297969,0.07536559473109912,0.05972589619336437,0.15628416752688085,0.9415033726006323,0.16142694379266573,-0.0404868113727158,0.2930419070786028
1784.4499999987058,0.38419566,-0.7861278,-0.3539191,-2.3546789,0.35054567,1.6896259,1.2173524,0.04,0.04,-0.005045018198401863,0.010921486583254092,-0.0035353802767312814,0.07449388409877775,0.05944015974725592,0.15464270605994787,0.9409732309242954,0.16219152629524922,-0.041109188606040445,0.29423344829244547
1784.4666666653725,0.38590336,-0.7861358,-0.3554938,-2.3546717,0.35210368,1.6901536,1.2192706,0.04,0.04,-0.005585606811076005,0.011127592723209068,-0.003404026727094056,0.07361909094826911,0.05913359727329419,0.1529888038945563,0.9404461474490927,0.16294852509637797,-0.04172888670571053,0.2954107681371418
1784.4833333320391,0.3875934,-0.7861438,-0.3570523,-2.3546646,0.35364577,1.690676,1.2211694,0.04,0.04,-0.005006306332688837,0.010946068020689648,-0.0033961102328339265,0.0727388607976263,0.05880504623826658,0.15132419367609928,0.9399221509615584,0.16369802543104284,-0.0423456886448678,0.2965740198583936
1784.4999999987058,0.38926566,-0.7861517,-0.35859415,-2.3546574,0.35517156,1.6911926,1.2230476,0.03999999,0.04,-0.005303758486796539,0.010657662866980777,-0.00372835329389698,0.0718509424503368,0.058456280463643526,0.1496454615087744,0.9394015326692379,0.16443937220327043,-0.0429594114966017,0.2977229286634584
1784.5166666653724,0.39091992,-0.7861595,-0.36011955,-2.3546505,0.3566809,1.6917039,1.2249058,0.039999984,0.04,-0.00578515174125549,0.011130908742867929,-0.0034312856636020683,0.07096195318999532,0.05808789749324624,0.147956241160518,0.9388842913184713,0.1651730244474744,-0.04356993983118558,0.2988575243379243
1784.533333332039,0.39255607,-0.78616726,-0.3616282,-2.3546436,0.3581736,1.6922096,1.2267438,0.039999977,0.04,-0.0054240895834833935,0.011006818428244136,-0.0036136876537140594,0.07006710741747582,0.05769924968830781,0.1462567311927494,0.9383705878152201,0.16589876128529346,-0.04417702912155016,0.2999777175480159
1784.5499999987057,0.3941739,-0.78617483,-0.36312002,-2.3546367,0.35964966,1.6927094,1.2285615,0.03999997,0.04,-0.005659396720059107,0.011033402231902523,-0.0037155866249749536,0.06916805482757685,0.057290718096064064,0.14454643592569144,0.9378605104706692,0.1666166251378661,-0.04478067996524332,0.30108346654908513
1784.5666666653724,0.39577323,-0.78618246,-0.36459488,-2.3546298,0.36110887,1.6932037,1.2303582,0.039999954,0.04,-0.005373905305550153,0.011189395155131177,-0.003699317115235523,0.06826374062983635,0.056860564257317836,0.1428270948744285,0.9373542053404147,0.16732629913874744,-0.04538040848677146,0.3021748200508172
1784.583333332039,0.39735413,-0.7861899,-0.36605266,-2.3546236,0.36255118,1.6936924,1.232134,0.039999943,0.04,-0.006875310335852092,0.010648329764190168,-0.0038688616130766462,0.0673566478397325,0.0564135947841282,0.14109629269166005,0.9368517917243904,0.16802779471017787,-0.045976469978439544,0.30325161954382907
1784.5999999987057,0.39891642,-0.78619736,-0.3674932,-2.3546174,0.36397648,1.6941752,1.2338891,0.039999936,0.04,-0.005622615757383542,0.010900347717146541,-0.004022368131573195,0.06644719809009776,0.05594533021683051,0.13935726637105506,0.9363533420496157,0.16872117173314088,-0.04656856146533439,0.30431390721516594
1784.6166666653723,0.40045992,-0.7862047,-0.3689165,-2.354611,0.36538458,1.6946521,1.2356231,0.039999925,0.04,-0.0054418178335513545,0.01121281855130385,-0.003806107472192899,0.0655342416447833,0.055455978177037644,0.13761129007210993,0.9358589819316254,0.16940629667204207,-0.04715637336576603,0.3053616692329835
1784.633333332039,0.40198445,-0.78621185,-0.37032235,-2.3546045,0.36677545,1.6951233,1.2373358,0.03999992,0.04,-0.005807390179546346,0.011018079333802167,-0.0036757223642824854,0.06461738653331037,0.05494893809884495,0.13585572533687826,0.9353688185290765,0.17008311666737996,-0.04773968903121902,0.3063948903611682
1784.6499999987057,0.40349,-0.78621876,-0.37171075,-2.3545985,0.36814892,1.6955887,1.2390271,0.039999906,0.04,-0.006866543889083587,0.010893212535950658,-0.004031933821213585,0.063697193381321,0.05442598995811995,0.1340924069005931,0.9348829638164414,0.17075163767078,-0.04831873019868405,0.30741343905320684
1784.6666666653723,0.40497646,-0.78622556,-0.37308148,-2.3545926,0.36950496,1.696048,1.2406971,0.039999895,0.04,-0.005966119672695669,0.010872217738100431,-0.004131561976739029,0.06277503811847363,0.05388100853832917,0.13232008552173144,0.9344015183490545,0.1714117575780094,-0.0488931818702256,0.30841736111575213
1784.683333332039,0.40644383,-0.7862324,-0.37443444,-2.3545866,0.3708435,1.6965015,1.2423455,0.039999884,0.04,-0.005703500292053576,0.010773386533929896,-0.004123151788792967,0.06185042806541932,0.05331840796779456,0.13054106629794276,0.9339245903186625,0.17206326656381607,-0.04946269083821192,0.30940674542186525
1784.6999999987056,0.40789172,-0.7862392,-0.37576962,-2.354581,0.37216437,1.696949,1.243972,0.03999988,0.04,-0.006784719017804974,0.011034906039880665,-0.00428165864303498,0.06092430841722609,0.05273955125448904,0.12875555206720624,0.9334522743753942,0.17270630140508791,-0.050027367694916,0.3103814546648955
1784.7166666653723,0.40932018,-0.78624594,-0.37708694,-2.3545752,0.37346753,1.6973904,1.2455765,0.039999872,0.04,-0.005200356691670294,0.011208966584907998,-0.003974974590881253,0.05999659077068603,0.052141983846723236,0.12696318270136503,0.9329846554343589,0.17334070577328262,-0.05058668953702605,0.3113416439985749
1784.733333332039,0.4107291,-0.78625274,-0.37838623,-2.354569,0.37475285,1.6978258,1.2471597,0.039999865,0.04,-0.00551115560907256,0.011047659126967035,-0.004215631956316912,0.05906657617042111,0.05153036145582457,0.1251655203626118,0.9325217944973437,0.17396671834619318,-0.05114066212724916,0.31228723376484113
1784.7499999987056,0.41211852,-0.7862595,-0.37966755,-2.3545637,0.37602028,1.6982551,1.2487205,0.03999985,0.04,-0.00773528859965289,0.010566834323644247,-0.004707364616507448,0.058132833040798866,0.050902054467424435,0.12336179208182026,0.9320638723417924,0.17458391058058703,-0.05168962909503303,0.3132181001883999
1784.7666666653722,0.4134883,-0.78626615,-0.3809307,-2.3545585,0.37726966,1.6986784,1.2502594,0.039999854,0.04,-0.006112565542926163,0.010883397991923172,-0.004224911697892075,0.05720025983806053,0.050255681382795986,0.12155188719763982,0.9316109432233046,0.17519246885377934,-0.05223299410887614,0.3141343082980976
1784.7833333320389,0.41483828,-0.7862727,-0.38217562,-2.354553,0.3785011,1.6990955,1.2517762,0.039999846,0.04,-0.005803820903071966,0.010946855411592127,-0.0042557921550834266,0.05626607707319435,0.04959364280630074,0.11974115987188388,0.9311630637991085,0.1757923598770519,-0.0527706492519652,0.3150359557298826
1784.7999999987055,0.41616845,-0.7862792,-0.38340223,-2.3545475,0.37971446,1.6995065,1.2532701,0.039999835,0.04,-0.006144757906900722,0.01077405211636906,-0.004368829245771089,0.05533034962271739,0.04891567829991196,0.11792436252361232,0.930720404974189,0.1763831779186112,-0.05330236771023063,0.3159230284555034
1784.8166666653722,0.4174787,-0.7862855,-0.3846105,-2.3545423,0.38090962,1.6999116,1.2547415,0.03999982,0.04,-0.006733542674641768,0.010792681510546354,-0.004311986277638624,0.05439567736937064,0.048226680159810076,0.116101837411471,0.9302830186380279,0.17696517054877955,-0.053828176566921584,0.31679545617612664
1784.8333333320388,0.4187691,-0.7862918,-0.38580033,-2.3545368,0.38208658,1.7003103,1.2561915,0.039999817,0.04,-0.005869419444470836,0.010724633222991553,-0.004496834613676448,0.05346128819711115,0.04752190639379686,0.11427782919958299,0.9298508985270469,0.17753868903032702,-0.05434803504980932,0.3176532881807788
1784.8499999987055,0.42003942,-0.7862978,-0.38697186,-2.3545313,0.38324538,1.7007029,1.2576188,0.03999981,0.04,-0.006467395087073058,0.010910987631296276,-0.004339307118428337,0.052523664911638526,0.046801512014729776,0.11245242476092612,0.9294241659231754,0.17810336643571079,-0.05486178050548411,0.31849661803862944
1784.8666666653721,0.42128965,-0.78630364,-0.3881249,-2.3545258,0.38438585,1.7010894,1.2590234,0.0399998,0.04,-0.006412067543326572,0.010793640101053326,-0.0043573740979407916,0.05158627781530606,0.0460674499915313,0.11062231368937889,0.9290029311017471,0.17865915709217042,-0.05536919588448084,0.3193254010231315
1784.8833333320388,0.4225198,-0.7863095,-0.38925943,-2.35452,0.385508,1.7014698,1.2604055,0.039999794,0.04,-0.005786200999136071,0.01081036439850025,-0.004398114774173401,0.050648506099432514,0.04532038190429698,0.10879225175419746,0.9285872419202151,0.17920605699935166,-0.0558700212770081,0.32013975698163377
1784.8999999987054,0.42372975,-0.78631514,-0.39037544,-2.3545144,0.3866118,1.7018439,1.2617649,0.03999979,0.04,-0.006506938641903659,0.010772326479885352,-0.004557592897480589,0.04971094962465111,0.044563175767765056,0.10695962065011033,0.9281771908912397,0.17974401719604646,-0.05636439730979639,0.32093962875808557
1784.916666665372,0.4249196,-0.78632087,-0.39147282,-2.3545086,0.38769722,1.7022119,1.2631016,0.03999978,0.04,-0.006134233500754149,0.010522858284833791,-0.0046254156419012205,0.04877345987037053,0.043792730911356,0.10512492340780122,0.9277728357851279,0.18027299222763726,-0.0568520635164511,0.32172512541988
1784.9333333320387,0.4260893,-0.78632647,-0.39255154,-2.354503,0.3887641,1.7025732,1.2644157,0.03999977,0.04,-0.006605006630833188,0.010502185641286799,-0.004955308454968055,0.047837420078747445,0.04301142008132209,0.10329111595063017,0.9273742862529605,0.18079299889877376,-0.057333246996838665,0.3224960829759015
1784.9499999987054,0.4272388,-0.786332,-0.39361164,-2.3544972,0.38981262,1.7029285,1.2657073,0.039999764,0.04,-0.006266551862621483,0.010526047474596067,-0.004485169690049418,0.04690305071840517,0.04221737013199173,0.10145601203466462,0.9269815419404269,0.18130409427970592,-0.05780752088271332,0.32325274450274744
1784.966666665372,0.42836797,-0.78633755,-0.39465314,-2.3544915,0.3908426,1.7032775,1.2669759,0.039999764,0.04,-0.006412940123734501,0.010721411663022762,-0.00483609755221881,0.04596911551490586,0.041412374820203,0.09962284630919041,0.9265947067354079,0.1818061594920135,-0.058274911065719276,0.32399506872940287
1784.9833333320387,0.42947692,-0.786343,-0.3956759,-2.3544858,0.3918541,1.7036201,1.2682217,0.039999753,0.04,-0.006459120033230903,0.010308007565518196,-0.004783281547648954,0.04503721686551936,0.04059702750459031,0.09778966888272109,0.9262138427876845,0.18229919194972186,-0.05873536208848193,0.32472308092170443
1784.9999999987053,0.43056563,-0.78634846,-0.39668006,-2.35448,0.3928472,1.7039566,1.269445,0.03999975,0.04,-0.006192737932853021,0.010518106626467016,-0.004683789023429696,0.04410760243443146,0.03977255091891366,0.09595790005824784,0.9258389420194544,0.18278330736154472,-0.059188652638349784,0.3254369668447784
1785.016666665372,0.4316341,-0.7863537,-0.39766553,-2.3544743,0.39382172,1.7042867,1.2706453,0.03999974,0.04,-0.006722144264026397,0.010316401735827041,-0.004809664470295516,0.04317809948528564,0.0389387839050786,0.09412680590776094,0.9254701544805914,0.18325835086183223,-0.059634905567585765,0.3261365481558559
1785.0333333320386,0.43268234,-0.78635895,-0.39863232,-2.3544686,0.3947778,1.7046106,1.2718229,0.039999735,0.04,-0.00629116493060522,0.010273338266186816,-0.004813024357264162,0.04225299347121675,0.038094396557984064,0.09229899309571396,0.9251074580662862,0.18372443275545777,-0.06007391064871672,0.3268220450003177
1785.0499999987053,0.4337103,-0.7863641,-0.39958042,-2.3544629,0.3957154,1.7049284,1.2729777,0.039999727,0.04,-0.006441132559720231,0.010294751196915364,-0.0046596941769116995,0.041329116601752244,0.03724270109328201,0.09047435316703767,0.9247509363610713,0.18418149199655584,-0.06050552583206551,0.3274934580247821
1785.066666665372,0.434718,-0.7863691,-0.40050998,-2.3544574,0.39663452,1.7052397,1.2741098,0.03999972,0.04,-0.006996694556526961,0.010235968892491343,-0.005094181957465693,0.040408339732244836,0.0363836019337853,0.08865301116307181,0.9244006083885823,0.18462962324864904,-0.06093006486596008,0.3281507955579431
1785.0833333320386,0.43570554,-0.78637403,-0.40142083,-2.354452,0.39753526,1.705545,1.2752191,0.03999972,0.04,-0.006282458730044738,0.010027772083498476,-0.004692968047570467,0.039490127147787615,0.03551475038635809,0.08683695517362747,0.9240565377885638,0.18506868806935195,-0.06134702088226412,0.3287942193764553
1785.0999999987052,0.43667284,-0.7863787,-0.40231305,-2.3544464,0.39841756,1.705844,1.2763059,0.039999716,0.04,-0.006685253792948487,0.010099409441494123,-0.004689919989364633,0.03857554582443691,0.03463997960286984,0.08502347295411641,0.923718738196586,0.18549896495888257,-0.06175658745279087,0.3294236643137165
1785.116666665372,0.43761995,-0.78638333,-0.40318674,-2.354441,0.39928153,1.7061366,1.27737,0.039999712,0.04,-0.006400063316513993,0.010067100634963966,-0.005145621146374069,0.037662974537195276,0.033757520122680226,0.08321247476813248,0.9233872636400994,0.18592018767047563,-0.06215872017913668,0.3300392986744403
1785.1333333320385,0.43854696,-0.7863879,-0.40404183,-2.3544354,0.4001272,1.706423,1.2784114,0.03999971,0.04,-0.006307696086649273,0.009914362969098978,-0.0048175185354937256,0.03675533884226169,0.03286842078882431,0.08141083317195509,0.9230621378732508,0.1863324476025473,-0.062553188204115,0.330641206205168
1785.1499999987052,0.43945405,-0.7863923,-0.4048784,-2.3544304,0.40095446,1.7067034,1.2794306,0.0399997,0.04,-0.007410007739006019,0.00954345436856574,-0.0049696580704639,0.035850908379375074,0.03197474710308673,0.07961276894600641,0.9227434009153442,0.1867359428979995,-0.06294031998020538,0.3312292556794591
1785.1666666653718,0.4403411,-0.7863966,-0.40569648,-2.3544254,0.4017637,1.7069775,1.2804276,0.0399997,0.04,-0.006195481115334189,0.009697426719385005,-0.005070570950516107,0.034950724601945427,0.031072408904205213,0.07782052502957733,0.922431014178284,0.18713059841674412,-0.06331986518752394,0.33180379426831064
1785.1833333320385,0.4412081,-0.78640085,-0.40649638,-2.3544207,0.4025546,1.7072453,1.2814015,0.039999694,0.04,-0.006933358943772561,0.010114671690708565,-0.004898883809612009,0.0340540539242912,0.030165424433328883,0.07603542199372322,0.9221250947289527,0.18751622832217174,-0.06369172149503335,0.33236476708572216
1785.1999999987052,0.4420553,-0.786405,-0.40727785,-2.354416,0.40332732,1.7075074,1.2823535,0.039999686,0.04,-0.006224417102540514,0.009561078145753354,-0.004742875896224241,0.033163605395193266,0.029254757254700385,0.07425811286130758,0.9218255925664915,0.18789317410594888,-0.06405575851543442,0.33291228847076326
1785.2166666653718,0.4428827,-0.7864091,-0.40804106,-2.3544116,0.40408194,1.707763,1.2832829,0.039999682,0.04,-0.00727770287354268,0.009425537863305689,-0.005327275208766302,0.03227585324420179,0.02834016777192177,0.0724875751786797,0.9215326086357484,0.18826111626689507,-0.06441232990678483,0.3334463301326236
1785.2333333320385,0.44369027,-0.786413,-0.40878603,-2.3544073,0.4048186,1.7080125,1.2841899,0.03999967,0.04,-0.006309966532480615,0.009552382958483152,-0.004862996953924892,0.031396137481521896,0.027420407267735473,0.07072554854695152,0.9212461002309278,0.18862024542481887,-0.0647610830610212,0.3339671060837459
1785.249999998705,0.44447818,-0.78641695,-0.40951288,-2.3544033,0.40553722,1.708256,1.2850751,0.03999967,0.04,-0.006589432060399858,0.009506783600843338,-0.004960901192041511,0.030521726399843838,0.026499508701424847,0.06897283504418478,0.920966064404301,0.18897072009133212,-0.06510205596699643,0.3344746589394877
1785.2666666653718,0.44524655,-0.78642076,-0.41022182,-2.3543992,0.40623805,1.7084934,1.2859381,0.039999664,0.04,-0.006330566686063577,0.009503357496543074,-0.004931866540958119,0.029652093577326673,0.025577127979515734,0.06723142597277021,0.9206924932264448,0.18931247979398116,-0.06543528929587555,0.33496916399198795
1785.2833333320384,0.44599548,-0.7864245,-0.41091272,-2.3543954,0.40692112,1.7087247,1.2867795,0.03999966,0.04,-0.006559929517990781,0.009106363005861873,-0.0050044401612714395,0.028788563153803848,0.024651089190309197,0.0654970973371825,0.9204254060006635,0.18964562860582135,-0.06576078812865009,0.33545063166420713
1785.299999998705,0.44672504,-0.78642815,-0.4115857,-2.3543916,0.40758654,1.7089499,1.2875993,0.039999653,0.04,-0.006257944843923724,0.009104600522102935,-0.005034183736873921,0.027930772826731003,0.023724102557061186,0.06377504014322147,0.9201648045126452,0.18997018958425899,-0.06607857530657203,0.3359191591603251
