rsonawane2002/My_IMU/logs_2/traj_439/clean_439.csv
time,j1,j2,j3,j4,j5,j6,j7,gripper1,gripper2,imu_ax,imu_ay,imu_az,imu_gx,imu_gy,imu_gz,quat_x,quat_y,quat_z,quat_w
2078.433333332187,0.00016700293,-0.785875,4.0107683e-05,-2.3551247,9.29385e-05,1.570997,0.786,0.04,0.04,0.0,-0.0,0.0,2.875329272945135e-08,-0.0011641195053377316,4.421952117202833e-08,0.9999995971961153,0.00020320632366974898,0.0008736418299892524,3.263050917662294e-05
2078.449999998854,0.00016699993,-0.78576016,4.012177e-05,-2.3552213,9.297263e-05,1.5709941,0.786,0.04,0.04,-0.2919984606822412,-3.626900522227814e-05,0.02012840831731033,7.789383452437903e-08,-0.0022370338763886524,-2.908164837991959e-07,0.9999996850588028,0.00020320758598140813,0.0007665025200159152,3.26015208773983e-05
2078.4666666655207,0.00016695722,-0.7856542,4.0184706e-05,-2.35531,9.2994276e-05,1.5709913,0.786,0.04,0.04,0.02319697039314672,-4.807998120096675e-06,-0.0016027165017140632,-1.0186301471398971e-08,-0.0032175357634064176,-2.8364201353526265e-06,0.9999997558859903,0.00020321104638601215,0.0006677376603331044,3.255222415633256e-05
2078.4833333321876,0.00016681093,-0.7855566,4.0377687e-05,-2.355391,9.2987655e-05,1.5709884,0.786,0.04,0.04,0.022263101888619907,-1.850256752181762e-05,-0.0014234196885176686,-3.834864024302339e-07,-0.004106579648699547,-9.617358773599084e-06,0.9999998123659211,0.00020321993734158513,0.0005769896397816542,3.24458860248173e-05
2078.4999999988545,0.00016647039,-0.78546655,4.0817158e-05,-2.3554652,9.2930444e-05,1.5709856,0.786,0.04,0.04,0.02005778225830923,-3.9336043544760954e-05,-0.0012223309166836671,-1.2022276011432453e-06,-0.0048997408134948735,-2.2461415773356242e-05,0.9999998570793399,0.0002032384427958076,0.0004934538177110424,3.222987513583178e-05
2078.5166666655214,0.00016582085,-0.78538316,4.1651234e-05,-2.3555326,9.2794064e-05,1.5709826,0.786,0.04,0.04,0.018691213242760796,-6.635371996981674e-05,-0.000933345498488336,-2.363608986426589e-06,-0.005597354302557222,-4.301117550743817e-05,0.9999998920831634,0.00020327156052204917,0.00041653417441080094,3.1837331347031064e-05
2078.5333333321882,0.00016472586,-0.78530586,4.30566e-05,-2.3555977,9.2544346e-05,1.5709795,0.786,0.04,0.04,0.010737624446388594,-9.838216625226081e-05,-0.0025054975866023455,-4.323330658854134e-06,-0.006197298875922086,-7.274132236993611e-05,0.9999999197483649,0.00020332515643519495,0.0003437869506305137,3.118777375513304e-05
2078.549999998855,0.00016302938,-0.78523386,4.5235174e-05,-2.3556561,9.215135e-05,1.5709757,0.786,0.04,0.039999995,0.016985363061250425,-0.00014281945433611168,-0.0005844006542687907,-7.000377309763801e-06,-0.006717772628814355,-0.00011220564420745725,0.9999999405833429,0.0002034056911674391,0.00027667249235044654,3.019548883692039e-05
2078.566666665522,0.00016055837,-0.78516674,4.8411956e-05,-2.3557122,9.1553404e-05,1.570969,0.786,0.04,0.04,0.008549679222191742,-0.00017061988662266277,-0.003860776624198259,-1.0866664308437533e-05,-0.007136938490144973,-0.00016491988826358386,0.9999999564546103,0.0002035202032782654,0.00021176357350860696,2.874880215712006e-05
2078.583333332189,0.00015712371,-0.7851035,5.2831823e-05,-2.355763,9.072172e-05,1.570962,0.786,0.04,0.039999995,0.013085816322733201,-0.00023028471276576598,-0.00013611545170988393,-1.5583946837874282e-05,-0.007479765327594081,-0.0002287869460917236,0.9999999674640723,0.0002036765759859493,0.00015123579829217834,2.67477102251615e-05
2078.5999999988558,0.0001525235,-0.78504366,5.8757956e-05,-2.3558125,8.9595764e-05,1.5709515,0.786,0.04,0.039999995,0.004688122311957699,-0.00027194251098566443,-0.0039868084301897255,-2.1640248396685585e-05,-0.007719684447452733,-0.0003071146800072065,0.9999999747607705,0.0002038827546099757,9.127451086422628e-05,2.406749587851243e-05
2078.6166666655226,0.00014654307,-0.7849863,6.646895e-05,-2.3558574,8.8121276e-05,1.5709403,0.78599924,0.04,0.039999995,0.010646443179651577,-0.00032426673023772893,0.0001677570992120181,-2.925795885349968e-05,-0.00788693665171187,-0.000399905753317098,0.9999999784307869,0.00020376001814388696,3.459176850950145e-05,2.0583737743614214e-05
2078.6333333321895,0.00013895759,-0.7849311,7.62576e-05,-2.3559005,8.624261e-05,1.5709257,0.78599733,0.04,0.039999995,0.0041531413993878274,-0.00037927258012501763,-0.0029705383888689596,-3.4824599367793634e-05,-0.007949232528151579,-0.0005078850598657298,0.9999999789979825,0.00020313846467227245,-2.1852232295309467e-05,1.6164108980772086e-05
2078.6499999988564,0.00012953287,-0.7848772,8.842866e-05,-2.3559434,8.39004e-05,1.5709075,0.7859954,0.04,0.039999995,0.0006215055622149634,-0.00043572194235204495,-0.0033712686628328825,-3.692843712403038e-05,-0.00792879576057782,-0.00063167180276298,0.9999999762688941,0.00020259370267806292,-7.939858159609149e-05,1.067090034267055e-05
2078.6666666655233,0.00011802678,-0.7848241,0.00010329738,-2.3559854,8.102496e-05,1.5708854,0.7859935,0.04,0.04,0.001338703871955893,-0.0004884207135109333,-0.0029027081024812773,-4.101681735667546e-05,-0.007831908306266384,-0.0007725646757781199,0.9999999700466491,0.00020213526714252207,-0.0001379578502490227,3.9580607975595985e-06
2078.68333333219,0.00010419025,-0.7847712,0.000121187746,-2.3560274,7.7571865e-05,1.5708594,0.7859916,0.04,0.039999995,-0.0009774577975019128,-0.0005621089193777939,-0.0030820219032889895,-4.7331287011549575e-05,-0.007651947534357323,-0.0009286907395926794,0.9999999599611067,0.0002017731634149093,-0.00019836449643496204,-4.111236331387589e-06
2078.699999998857,8.776881e-05,-0.78471804,0.00014243159,-2.356069,7.346701e-05,1.570829,0.7859897,0.04,0.039999995,-0.0013152712359243424,-0.0006170518985284873,-0.0030271962286887444,-5.584427710423785e-05,-0.007391678438611731,-0.001102808233515075,0.999999945539613,0.00020151728222252328,-0.0002610059509656638,-1.3691212181212917e-05
2078.716666665524,6.850291e-05,-0.7846641,0.00016736674,-2.35611,6.864585e-05,1.5707937,0.7859878,0.04,0.039999995,-0.0011820122095107521,-0.0006805562684771417,-0.0028991680762091576,-6.680311297722324e-05,-0.007047967566451505,-0.0012944310491959604,0.9999999262352878,0.00020137792530433075,-0.0003261206515213863,-2.4933331710363174e-05
2078.733333332191,4.6129204e-05,-0.7846088,0.00019633633,-2.3561518,6.304193e-05,1.5707524,0.785984,0.04,0.039999995,-0.004646860095114391,-0.0007438286386336648,-0.004094257959463832,-8.046131751487495e-05,-0.006617612742856735,-0.0015038180667493028,0.9999999010576791,0.00020041188213763345,-0.00039531799837871917,-3.799196867591864e-05
2078.7499999988577,2.038141e-05,-0.7845515,0.00022968781,-2.3561938,5.658013e-05,1.5707053,0.78598017,0.04,0.04,-0.004380708984363935,-0.000803061905149037,-0.0032779661902848645,-8.829739035509917e-05,-0.006110941232872892,-0.0017319384426940229,0.9999998689411232,0.00019958313898292172,-0.0004684788358429988,-5.302723179721109e-05
2078.7666666655246,-9.009449e-06,-0.78449166,0.00026777113,-2.3562362,4.9208997e-05,1.5706517,0.78597635,0.039999995,0.03999999,-0.005706413533501653,-0.000879272774231718,-0.00367218190095997,-9.879383330508771e-05,-0.005520703372370983,-0.001976597655018132,0.9999998284585773,0.00019890255018747998,-0.0005464377288820608,-7.01883185777949e-05
2078.7833333321914,-4.2313648e-05,-0.78442883,0.0003109388,-2.3562794,4.0844065e-05,1.5705905,0.78597254,0.039999995,0.039999995,-0.0068715306073219296,-0.0009321255668175664,-0.004257073442159864,-0.00011248407927146774,-0.004851218806330658,-0.0022410377541336366,0.9999997778550261,0.0001983807682038326,-0.0006299994671062905,-8.964173556773333e-05
2078.7999999988583,-7.980266e-05,-0.7843625,0.00035954482,-2.3563237,3.1425232e-05,1.570522,0.7859668,0.039999995,0.039999995,-0.008233846986627213,-0.0010032881974248072,-0.004082757310830409,-0.00012963143254188375,-0.004101966747293566,-0.0025229401140449406,0.999999715439711,0.00019707486696587807,-0.0007196113615336876,-0.00011154139297301248
2078.816666665525,-0.00012174836,-0.7842922,0.00041394352,-2.356373,2.0892334e-05,1.5704454,0.7859611,0.039999995,0.03999999,-0.015358674024379404,-0.0010718874026526123,-0.006013677872274137,-0.00014117195576148622,-0.00327393170669145,-0.002822369570300481,0.9999996372414561,0.00019594968941475464,-0.0008176875529202485,-0.0001360431599780009
2078.833333332192,-0.00016842243,-0.7842176,0.0004744894,-2.3564236,9.160862e-06,1.5703604,0.78595537,0.039999995,0.039999995,-0.009486910985589958,-0.0011262475706788958,-0.004421149917765987,-0.00015642353277230115,-0.0023843310981116186,-0.0031416267536973092,0.9999995418983645,0.00019501574656125866,-0.0009227679931108923,-0.0001633130450933411
2078.849999998859,-0.00022009635,-0.784138,0.000541536,-2.356475,-3.832021e-06,1.5702665,0.78594804,0.03999999,0.03999999,-0.009886825104210573,-0.0011938093652798156,-0.004337691968414603,-0.00017564440976365622,-0.0014146070846741202,-0.0034782677846816545,0.9999994266680987,0.00019347940792341077,-0.001035270394504379,-0.00019350556262940922
2078.866666665526,-0.00027704035,-0.7840532,0.0006154358,-2.3565323,-1.8152015e-05,1.5701629,0.7859404,0.03999999,0.03999999,-0.01853338727906273,-0.0012549354652438105,-0.006860101539629682,-0.00019114752488030298,-0.00036539395776221187,-0.0038330262600859513,0.9999992852705846,0.00019200771231839498,-0.0011580858965701223,-0.00022677833851927114
2078.8833333321927,-0.00033952325,-0.7839626,0.0006965397,-2.356591,-3.387052e-05,1.5700494,0.78593266,0.039999988,0.039999988,-0.011907385228826506,-0.0013174639004571932,-0.004807640280679593,-0.0002092408726144963,0.0007430609851579164,-0.004205766335941429,0.9999991158065559,0.00019070047078485636,-0.0012894566140090196,-0.00026328896165120455
2078.8999999988596,-0.00040781221,-0.783866,0.0007851959,-2.3566558,-5.1050494e-05,1.5699252,0.7859231,0.039999988,0.039999988,-0.02052213254233326,-0.0013767736186290455,-0.007457677982758426,-0.00023100707958355517,0.0019307468565524493,-0.004596348968816227,0.9999989104795386,0.00018873487633982693,-0.0014323039662016014,-0.00030319008994738304
2078.9166666655265,-0.00048217244,-0.7837628,0.0008817504,-2.356722,-6.976089e-05,1.56979,0.7859136,0.039999984,0.039999984,-0.013085769472809261,-0.001439166351128909,-0.005189866333688009,-0.0002490311019712328,0.0031741274272141327,-0.005004610128973248,0.9999986669045124,0.0001870153500594346,-0.0015846316197491031,-0.0003466368220520399
2078.9333333321933,-0.00056286616,-0.78365266,0.0009865452,-2.3567948,-9.00692e-05,1.5696435,0.78590256,0.03999998,0.03999998,-0.022148883762063143,-0.0014904577062789634,-0.007496744283153056,-0.0002715417890716091,0.004496637698408983,-0.005430342854597129,0.9999983753096103,0.00018480847434148773,-0.0017493313996586012,-0.00039378118489979415
2078.94999999886,-0.0006501538,-0.7835349,0.00109992,-2.3568695,-0.000112042086,1.5694848,0.7858911,0.039999977,0.03999998,-0.015435408810504647,-0.0015512042136670316,-0.005714576790771808,-0.0002916785411205048,0.005876463686597749,-0.005874106588109976,0.9999980318141862,0.00018266106349489722,-0.0019248840684383674,-0.0004447741141109682
2078.966666665527,-0.0007442923,-0.7834095,0.0012222099,-2.3569505,-0.0001357418,1.5693135,0.7858785,0.039999977,0.03999998,-0.02326092903532917,-0.0016017424661472117,-0.008136256927393504,-0.00031463333095091043,0.007329331181957532,-0.006334104124537499,0.9999976248175333,0.0001801975282407506,-0.002113794157242942,-0.0004997623471749017
2078.983333332194,-0.0008455357,-0.783276,0.0013537462,-2.3570383,-0.00016123214,1.5691296,0.7858651,0.039999977,0.03999998,-0.024111295968598512,-0.00165350451587921,-0.008028693652706309,-0.0003371160410027415,0.008838206697398893,-0.006810866995828354,0.9999971452004919,0.0001776673742515766,-0.0023163904837821933,-0.000558892026226219
2078.999999998861,-0.0009541347,-0.7831341,0.001494856,-2.3571281,-0.00018857658,1.5689322,0.7858506,0.039999973,0.039999977,-0.017132530653163336,-0.0017115352658951684,-0.006380731290933639,-0.00036104037347478617,0.01040362446136905,-0.007304130179259313,0.9999965880072572,0.00017484233230274522,-0.0025310352835026502,-0.0006223057097287508
2079.0166666655277,-0.0010703361,-0.7829832,0.0016458615,-2.3572247,-0.00021783737,1.5687209,0.7858353,0.039999973,0.039999977,-0.025505260881897307,-0.0017525871359366828,-0.008422960591003559,-0.0003847462244329845,0.012042800139394804,-0.007813607044096872,0.999995937034626,0.00017197263545201937,-0.0027604417833384924,-0.0006901455019914582
2079.0333333321946,-0.0011943837,-0.7828228,0.0018070802,-2.3573287,-0.0002490766,1.5684953,0.78581864,0.039999973,0.03999998,-0.027410958707241306,-0.0017953275182135023,-0.00895131345246547,-0.00041042614603895456,0.013736144742447604,-0.008339833481071268,0.9999951784833093,0.00016871222285548944,-0.0030055057992904198,-0.0007625491529069487
2079.0499999988615,-0.0013265158,-0.78265303,0.0019788246,-2.3574393,-0.00028235395,1.568255,0.7858012,0.03999997,0.039999977,-0.026118421666443403,-0.001842460794965748,-0.008898729528250549,-0.00043480100892100354,0.015478172717527631,-0.008880810996198167,0.9999943006449125,0.00016539933972592547,-0.003265930736120149,-0.0008396530101898229
2079.0666666655284,-0.0014669693,-0.7824734,0.0021614032,-2.3575525,-0.00031772905,1.5679997,0.7857823,0.03999997,0.039999977,-0.01989052451565332,-0.0018937803322193283,-0.006955899856508907,-0.00046112123018929665,0.01727383770103996,-0.00943704704563225,0.999993296156795,0.00016171619759385277,-0.0035400795615870046,-0.0009215888657607524
2079.0833333321953,-0.0016159749,-0.7822835,0.0023551162,-2.3576727,-0.00035526056,1.5677289,0.7857624,0.039999966,0.039999973,-0.027759880283273475,-0.0019210669420166842,-0.00927569718573995,-0.0004863514237081119,0.019143214230267085,-0.010008229304216432,0.9999921420901157,0.00015791390599407233,-0.0038306362538958047,-0.0010084875361822659
2079.099999998862,-0.0017737601,-0.7820831,0.00256026,-2.3578005,-0.0003950058,1.5674423,0.78574145,0.039999966,0.039999973,-0.02924397348840202,-0.0019550107923582195,-0.009593103728389174,-0.0005126869324551041,0.021065286334145984,-0.010593973493502246,0.9999908204904429,0.00015391442665038232,-0.004138139478516023,-0.0011004757410085768
2079.116666665529,-0.001940547,-0.781872,0.0027771266,-2.3579352,-0.00043702134,1.5671388,0.7857192,0.03999996,0.03999997,-0.02863438913101035,-0.001991383835206375,-0.010061836379882116,-0.0005398682708115313,0.02303625517998947,-0.011193953860875256,0.9999893125684801,0.00014966897223276203,-0.004462949256588222,-0.0011976777323324962
2079.133333332196,-0.0021165549,-0.78164965,0.003006,-2.3580775,-0.00048136173,1.5668191,0.78569573,0.03999996,0.03999997,-0.030116972619387283,-0.0020186047566491706,-0.00962865491498377,-0.0005670512395721752,0.025056448701452814,-0.011807768279127369,0.999987598620423,0.00014518901357234832,-0.004805306526680946,-0.0013002133266861939
2079.1499999988628,-0.002301998,-0.78141594,0.003247161,-2.3582275,-0.00052808184,1.5664818,0.785671,0.039999958,0.03999997,-0.030684358506261056,-0.0020457572123777157,-0.010554024630637926,-0.0005942136108773293,0.027126735789373815,-0.01243592359045992,0.9999856549474049,0.00014048621790114423,-0.005165959045653556,-0.0014082010406827796
2079.1666666655296,-0.0024970847,-0.7811704,0.0035008814,-2.3583848,-0.0005772335,1.5661272,0.785645,0.039999958,0.03999997,-0.030664864183105323,-0.002071916923741422,-0.010169792328862393,-0.0006216403761158142,0.02924469960015424,-0.013076326805001846,0.9999834596288718,0.00013557130791023514,-0.005544939510776908,-0.0015217538942882479
2079.1833333321965,-0.0027020192,-0.7809128,0.0037674292,-2.3585498,-0.00062887016,1.5657548,0.78561765,0.039999958,0.03999997,-0.03146615311870882,-0.0020923051508517235,-0.010431378687636439,-0.0006495082554419104,0.03140906750214582,-0.013729506440655778,0.9999809870739933,0.0001303956488210374,-0.005942698138305121,-0.001640983343493215
2079.1999999988634,-0.0029170031,-0.78064305,0.0040470655,-2.3587224,-0.00068304,1.5653639,0.7855889,0.039999954,0.039999966,-0.031707628851718184,-0.0021107237336540205,-0.010987276750418218,-0.0006770861695704226,0.033621879446797065,-0.014394922344817589,0.9999782101636991,0.00012497188338425247,-0.006359625663742176,-0.0017659958238759742
2079.2166666655303,-0.0031422311,-0.7803608,0.0043400456,-2.3589027,-0.00073979364,1.5649544,0.785559,0.039999954,0.039999966,-0.032025105346411564,-0.0021262438422275237,-0.010967638997594342,-0.0007048722112644886,0.0358806364741702,-0.015072248673213646,0.9999751010939946,0.000119400290181104,-0.006795934042631896,-0.0018968964426813253
2079.233333332197,-0.0033778944,-0.7800656,0.0046466184,-2.359091,-0.00079917925,1.5645261,0.7855276,0.03999995,0.03999996,-0.033445170943724456,-0.0021348421085742907,-0.011130181601970435,-0.0007331476099233236,0.0381860230473305,-0.015761920447449975,0.9999716274248478,0.00011354355196238222,-0.007252253093991865,-0.002033784212715532
2079.249999998864,-0.0036241775,-0.77975744,0.0049670236,-2.3592873,-0.00086124387,1.5640782,0.78549457,0.03999995,0.039999966,-0.03314078500387119,-0.0021427506965792775,-0.011653451308935026,-0.00076101064331675,0.04053479579355315,-0.016462695839578646,0.9999677574467238,0.00010735462065362579,-0.007728795504999089,-0.002176754923612817
2079.266666665531,-0.0038812633,-0.77943605,0.005301501,-2.3594916,-0.00092603156,1.563611,0.7854603,0.03999995,0.039999966,-0.03374167380818527,-0.002150745267182649,-0.011488442795881681,-0.0007881978300468249,0.04292665636123124,-0.017172446145648956,0.999963458130255,0.00010102314895039527,-0.008225714057896395,-0.002325903425087434
2079.283333332198,-0.0041493257,-0.77910113,0.0056502805,-2.359704,-0.0009935901,1.5631238,0.78542465,0.03999995,0.03999997,-0.03422686248961693,-0.002151532915989178,-0.011932305399153798,-0.0008158009769209343,0.045362459677500584,-0.017895111004352263,0.9999586916368953,9.450068411898536e-05,-0.008743519837758038,-0.0024813202727744944
2079.2999999988647,-0.0044285366,-0.7787525,0.0060135853,-2.359925,-0.0010639587,1.5626163,0.78538746,0.03999995,0.04,-0.03523634219424476,-0.002148949846178007,-0.012311702951328662,-0.0008437097194866684,0.04784068612367616,-0.018631633840381925,0.9999534181783453,8.771045369637562e-05,-0.009282664651167814,-0.00264308858984607
2079.3166666655316,-0.0047190646,-0.7783897,0.0063916324,-2.3601553,-0.0011371636,1.5620881,0.78534853,0.039999947,0.039999995,-0.037043243100143286,-0.002146691599450891,-0.01282454437245839,-0.0008712198510567293,0.05035838937622196,-0.019371833988640903,0.9999475916805995,8.057659156798399e-05,-0.009843987978163306,-0.002811280894496588
2079.3333333321984,-0.0050210697,-0.7780128,0.006784633,-2.360395,-0.0012132673,1.5615389,0.78530824,0.039999947,0.039999995,-0.03690884624689694,-0.00212293224131372,-0.01315717254426474,-0.000897180383648465,0.05290981464613166,-0.020121016991714882,0.9999411705784266,7.328977991959281e-05,-0.01042755393981733,-0.0029859888959129144
2079.3499999988653,-0.005334709,-0.7776215,0.0071927905,-2.3606436,-0.001292306,1.5609686,0.7852664,0.039999947,0.039999995,-0.03685736129339645,-0.0021130916602847723,-0.013029906090289423,-0.0009234929788358977,0.0554957307005804,-0.020878771511484474,0.9999341109021438,6.577254740134358e-05,-0.01103348718977387,-0.0031672841274738915
2079.366666665532,-0.0056601334,-0.7772157,0.0076163053,-2.3609018,-0.0013743032,1.560377,0.785223,0.039999947,0.039999995,-0.0377161888442723,-0.002106161276839132,-0.013497245217286569,-0.0009495413316593206,0.0581181918037094,-0.021644695262845345,0.9999263635894311,5.803705609414772e-05,-0.011662180555026987,-0.0033552310232042148
2079.383333332199,-0.005997491,-0.77679527,0.008055369,-2.3611689,-0.0014593133,1.5597637,0.78517807,0.039999943,0.039999995,-0.036727537974101665,-0.0020790368618980523,-0.013430052070040333,-0.0009750965814335009,0.06077465528829644,-0.02241918158737782,0.9999178826986085,5.00953927920658e-05,-0.012313550260141217,-0.0035499056289503184
2079.399999998866,-0.006346923,-0.77635986,0.008510167,-2.3614454,-0.0015473757,1.5591282,0.78513145,0.039999943,0.039999995,-0.038311405600754966,-0.002044512225151318,-0.014069522718274108,-0.0010002906595517546,0.06346652559387247,-0.02320003213529118,0.9999086099690558,4.190149388455001e-05,-0.012988347344182508,-0.0037513713868665153
2079.416666665533,-0.0067085666,-0.77590936,0.008980878,-2.3617315,-0.001638524,1.5584705,0.78508323,0.039999943,0.039999995,-0.03834573248908679,-0.0020186199098704265,-0.01411472155714577,-0.001024662885885096,0.0661890757901328,-0.023988616773551047,0.9998984927007462,3.349746706914366e-05,-0.013686637331762314,-0.003959688276168571
2079.4333333321997,-0.007082556,-0.7754436,0.009467677,-2.3620274,-0.0017327798,1.5577904,0.78503335,0.039999943,0.04,-0.038913255370776056,-0.001994703709106479,-0.014425685458974158,-0.0010481848534827421,0.06894351354095629,-0.02478356928873375,0.9998874723367205,2.4866418957849233e-05,-0.01440875435323589,-0.0041749064340888785
2079.4499999988666,-0.0074690166,-0.77496237,0.009970727,-2.3623333,-0.0018301872,1.5570873,0.7849818,0.039999936,0.04,-0.03964534299250033,-0.0019432785413885621,-0.014980577036260989,-0.0010713964617514705,0.07172881648332144,-0.02558528579037122,0.9998754842878591,1.6022876640699624e-05,-0.015155241185266847,-0.00439708175985465
2079.4666666655335,-0.007868072,-0.7744653,0.010490194,-2.3626487,-0.001930759,1.5563614,0.7849285,0.039999936,0.04,-0.03898906280250802,-0.0019293222801169095,-0.014536034218104454,-0.0010933393595105056,0.07453959730374951,-0.02639089090121128,0.9998624723231038,6.946565401029796e-06,-0.015925895943960055,-0.0046262544307278325
2079.4833333322003,-0.008279836,-0.77395266,0.011026228,-2.3629744,-0.0020345477,1.5556124,0.7848735,0.039999932,0.04,-0.03998379007086328,-0.001863376463987973,-0.015376410233081117,-0.0011143778237564155,0.07737932812185024,-0.027203254123674404,0.9998483678430226,-2.348440742649e-06,-0.016721172358706685,-0.004862479930954805
2079.499999998867,-0.0087044295,-0.77342385,0.011578978,-2.36331,-0.0021415688,1.5548404,0.7848167,0.03999993,0.04,-0.04001556758328473,-0.0018207494812560836,-0.015018147731415965,-0.0011344199943355748,0.08024660715750996,-0.02801946405687461,0.9998331051856822,-1.1877023461999575e-05,-0.017541166892049688,-0.005105790610462006
2079.516666665534,-0.009141957,-0.7728791,0.012148589,-2.363656,-0.002251843,1.5540446,0.78475827,0.039999925,0.04,-0.04027039763954132,-0.001780106463717887,-0.016032733717841197,-0.0011529176812538015,0.08313852177097106,-0.028839944124942993,0.9998166103114567,-2.1536548605095368e-05,-0.01838630329671466,-0.00535622372263612
2079.533333332201,-0.0095925275,-0.77231824,0.012735191,-2.364012,-0.0023654213,1.5532254,0.7846982,0.039999917,0.04,-0.039861309224598074,-0.0017017996588985194,-0.01557329250336803,-0.0011709635848824458,0.08605501684210651,-0.029664970400332745,0.9997988182547818,-3.134178931239742e-05,-0.019256350505359628,-0.005613822160407178
2079.549999998868,-0.010056234,-0.77174103,0.01333892,-2.3643785,-0.0024823118,1.5523819,0.7846364,0.039999913,0.04,-0.0409940919038565,-0.0016607878867373922,-0.016582466477954583,-0.00118846609049653,0.08899771527557104,-0.030492516266336745,0.9997796418731163,-4.1310997755117075e-05,-0.020152120458972314,-0.005878607868520349
2079.5666666655347,-0.010533167,-0.7711475,0.013959888,-2.364756,-0.0026025383,1.5515146,0.7845728,0.03999991,0.04,-0.04187603763030623,-0.0015831395310819674,-0.016639874888380035,-0.001204623083621504,0.09196077589440668,-0.031322991542735205,0.9997590046809591,-5.145908578185632e-05,-0.021073680288826925,-0.006150602440796879
2079.5833333322016,-0.011023424,-0.7705374,0.014598225,-2.3651428,-0.0027261286,1.5506228,0.78450733,0.039999906,0.04,-0.0386344018560969,-0.0015514877297153652,-0.016249568170834117,-0.0012197316726206544,0.09494253276961033,-0.032156007139488706,0.9997368408450847,-6.180461781953118e-05,-0.022020501403645414,-0.006429833217977925
2079.5999999988685,-0.011527084,-0.7699104,0.015254039,-2.3655403,-0.0028530983,1.5497072,0.78444016,0.039999902,0.04,-0.041396978223562364,-0.0014661113876450818,-0.016536123427357552,-0.0012328069993983917,0.09795070938256059,-0.03299109338487196,0.9997130577738703,-7.227639256843093e-05,-0.02299321669807072,-0.006716314347664747
2079.6166666655354,-0.0120442305,-0.76926666,0.015927428,-2.365949,-0.002983469,1.5487666,0.78437114,0.0399999,0.04,-0.04220523643112539,-0.0013716959789788,-0.017823244487891188,-0.001245267833354725,0.10097912323741545,-0.033827841787600385,0.9996875560930459,-8.291149552297834e-05,-0.023992549245908337,-0.0070100569954608056
2079.6333333322023,-0.012574938,-0.76860607,0.016618494,-2.366368,-0.0031172682,1.5478011,0.78430027,0.039999895,0.04,-0.04097113906402772,-0.0013071222974034985,-0.017582906883273353,-0.0012558014517414715,0.10402144304909611,-0.03466668092644121,0.9996602565913904,-9.369916543720801e-05,-0.025018208785068014,-0.007311076616265999
2079.649999998869,-0.0131192785,-0.7679285,0.017327337,-2.366798,-0.0032545072,1.5468113,0.78422755,0.03999989,0.04,-0.04116048862305988,-0.0012399509078763263,-0.017367487493946676,-0.0012648620052373716,0.10708116105454488,-0.035505490126027134,0.9996310743674159,-0.00010462994850407672,-0.0260700838823079,-0.007619379107839306
2079.666666665536,-0.01367732,-0.7672338,0.018054042,-2.3672388,-0.0033951912,1.5457964,0.78415316,0.039999887,0.04,-0.041741612662349326,-0.001155168402264175,-0.01824658780829047,-0.0012721064367059052,0.11015921108316133,-0.03634479810893359,0.9995999034086911,-0.00011559562136697076,-0.027148777383174158,-0.007934962481732684
2079.683333332203,-0.014249124,-0.76652217,0.018798683,-2.3676906,-0.0035393357,1.5447563,0.78407687,0.039999887,0.04,-0.04135961533318078,-0.0010650563192765063,-0.0185325029370631,-0.0012786046792082817,0.113250734060901,-0.03718326766059251,0.9995666521222621,-0.0001266985690412746,-0.028254208487083758,-0.008257821464137874
2079.6999999988698,-0.014834744,-0.7657933,0.019561341,-2.3681533,-0.003686964,1.5436912,0.7839988,0.039999884,0.04,-0.041459583823666435,-0.0009789397566541819,-0.01848396882493386,-0.0012831261120193572,0.1163564009850429,-0.038022252269456415,0.9995312216849475,-0.00013786987302149623,-0.02938647373786403,-0.00858795843889544
2079.7166666655366,-0.015434236,-0.76504725,0.020342084,-2.368627,-0.003838105,1.5426009,0.78391886,0.03999988,0.04,-0.04129400029297958,-0.0008718454808652985,-0.01877670334475834,-0.0012860413232591052,0.11947585152932357,-0.03886123618214674,0.9994935114087233,-0.00014912284763985342,-0.030545640564557434,-0.008925371518174791
2079.7333333322035,-0.016047651,-0.7642838,0.021140983,-2.3691115,-0.003992772,1.541485,0.78383696,0.039999876,0.04,-0.04101706563577334,-0.0007879018614823791,-0.019132614452543883,-0.0012874846093601663,0.12260744356643472,-0.03969971661764288,0.9994534132779942,-0.00016050441037627,-0.03173192556691667,-0.009270049898304693
2079.7499999988704,-0.016675035,-0.763503,0.021958094,-2.3696074,-0.00415095,1.5403436,0.7837532,0.039999876,0.04,-0.04179925403342555,-0.0006901843465183244,-0.01959090510177397,-0.0012866048373501903,0.12575014389569575,-0.04053413146993143,0.9994108170789693,-0.00017193664148641182,-0.03294551436028493,-0.009621965852917164
2079.7666666655373,-0.017316418,-0.76270485,0.022793468,-2.3701136,-0.00431265,1.5391768,0.7836676,0.03999987,0.04,-0.03976559960257031,-0.0006276428974502993,-0.01922094326700652,-0.0012839893592779183,0.12890179368437207,-0.04136828909949387,0.9993656316079743,-0.00018341301555175097,-0.03418593760929773,-0.009981101654295357
2079.783333332204,-0.017971843,-0.76188934,0.02364715,-2.3706315,-0.004477894,1.5379846,0.7835801,0.039999865,0.04,-0.04181762084169982,-0.00047142215402144055,-0.0201201768541992,-0.0012792547359296415,0.1320675780131017,-0.0421991887122404,0.9993177265295755,-0.00019494093954125125,-0.03545382830017143,-0.01034743932828718
2079.799999998871,-0.018641345,-0.7610561,0.024519177,-2.3711596,-0.004646678,1.5367666,0.7834908,0.039999858,0.04,-0.03970060938136566,-0.00040220730645086633,-0.019692259231263165,-0.001272624833917808,0.1352401243408285,-0.04302735977019071,0.999267002255587,-0.00020647814413190304,-0.0367488356542434,-0.010720944359813486
2079.816666665538,-0.019324947,-0.7602056,0.025409596,-2.3716998,-0.0048190556,1.535523,0.7833995,0.03999985,0.04,-0.04213422929315591,-0.0002282518268408376,-0.02103922929814761,-0.0012641717915092836,0.13842291408574667,-0.04385473652917991,0.9992133185189305,-0.00021803785152294019,-0.03807165182643639,-0.01110161614757731
2079.833333332205,-0.020022664,-0.7593377,0.02631844,-2.3722508,-0.0049949824,1.534254,0.78330636,0.03999985,0.04,-0.039623851586245706,-0.0002081034382192537,-0.020370493752408514,-0.0012533153786085374,0.14160941152511347,-0.04467534072947807,0.9991565847884162,-0.0002296164881201769,-0.0394215685549863,-0.011489398717140827
2079.8499999988717,-0.020734528,-0.7584519,0.027245726,-2.3728127,-0.0051744743,1.5329591,0.78321135,0.039999843,0.04,-0.04041096916855835,-5.2502412686145083e-05,-0.020646318856365475,-0.0012403990220728198,0.1448060961838219,-0.04549362500466782,0.9990966619667989,-0.0002411620821576642,-0.040799098038141725,-0.01188425373863436
2079.8666666655386,-0.02146055,-0.75754845,0.028191471,-2.373386,-0.00535754,1.5316386,0.78311443,0.03999984,0.04,-0.04012921183889073,6.704442506635239e-05,-0.021101835082504294,-0.0012251623696514472,0.14800655955060008,-0.046306845105734594,0.9990334320702743,-0.00025268883475859937,-0.042204127525041206,-0.012286145615752682
2079.8833333322054,-0.022200739,-0.7566274,0.02915569,-2.37397,-0.0055441824,1.5302923,0.7830156,0.03999983,0.04,-0.0395975703560536,0.00017458760859512257,-0.02137312230838795,-0.001208045139030449,0.15121070520557917,-0.04711629969543061,0.9989667689498598,-0.00026418328076606884,-0.04363669247743672,-0.012695030945267948
2079.8999999988723,-0.022955105,-0.7556884,0.0301384,-2.3745658,-0.005734388,1.52892,0.7829149,0.039999828,0.04,-0.04076009854936391,0.0003012320624580858,-0.021890671572633025,-0.0011881968081966037,0.1544198542848937,-0.04792002874414854,0.9988965238321189,-0.00027563171175628296,-0.045097274589254506,-0.013110855345475843
2079.916666665539,-0.023723641,-0.7547321,0.031139603,-2.3751729,-0.0059281723,1.5275221,0.78281224,0.039999824,0.04,-0.03915156177698442,0.00040251626929055373,-0.022031620024343113,-0.0011660748052791685,0.15762726976555314,-0.04871843853311416,0.9988225896361416,-0.00028702335333860937,-0.046585342952978614,-0.013533583121259515
2079.933333332206,-0.024506355,-0.75375795,0.032159295,-2.375791,-0.006125521,1.5260981,0.7827077,0.03999982,0.04,-0.03931122744706972,0.0005304169571515929,-0.022296761710149937,-0.00114184671516581,0.16083760067526426,-0.04951122060858975,0.9987448202945206,-0.0002983402339616233,-0.04810119979702432,-0.013963148142784248
2079.949999998873,-0.025303245,-0.7527661,0.03319746,-2.3764205,-0.006326461,1.524648,0.78260124,0.039999813,0.04,-0.03907431972722808,0.0006939094113374289,-0.022742428502220413,-0.0011149353965033246,0.1640466719994717,-0.05029960588805603,0.9986630740963425,-0.00030956064746037683,-0.04964496830192872,-0.014399504538320078
2079.96666666554,-0.026114285,-0.75175667,0.034254104,-2.377061,-0.006530963,1.5231721,0.7824929,0.039999805,0.04,-0.037984413281133556,0.0007398051112045625,-0.022529292464001927,-0.0010859303692714755,0.1672531390276523,-0.0510800541846275,0.9985772399136476,-0.00032068994480331304,-0.05121611635182583,-0.01484259108906255
2079.9833333322067,-0.026939478,-0.7507296,0.035329208,-2.377713,-0.0067390427,1.5216713,0.7823827,0.039999794,0.04,-0.03883619404365657,0.0009273541269535016,-0.022671283074071624,-0.00105404139140974,0.17046033765668708,-0.05185542980109572,0.9984871729035786,-0.00033164828644646185,-0.05281476542728785,-0.015292354602671943
2079.9999999988736,-0.027778799,-0.74968505,0.03642275,-2.3783758,-0.0069506867,1.5201439,0.78227067,0.039999794,0.04,-0.03720528036394999,0.0010079063943894961,-0.02366847481085621,-0.001020084767614048,0.17366636027190505,-0.05262208079736291,0.9983927187349809,-0.00034247778503186796,-0.05444115704273447,-0.01574872394158824
2080.0166666655405,-0.028632227,-0.7486229,0.037534703,-2.37905,-0.0071658897,1.5185913,0.78215665,0.039999787,0.04,-0.03778032540453502,0.001162544399509191,-0.023201399487637886,-0.0009836418826839177,0.17686882820307143,-0.0533823025329623,0.9982937509309,-0.0003532009785246999,-0.05609496646569399,-0.016211626648660455
2080.0333333322073,-0.029499745,-0.7475431,0.03866502,-2.3797348,-0.0073846555,1.5170127,0.78204083,0.039999776,0.04,-0.03615955221647482,0.0012828045504014937,-0.023557921168415596,-0.0009442886132124437,0.18006785891435972,-0.05413570361969261,0.9981901256433147,-0.00036370778015740407,-0.05777616401429792,-0.01668099687150759
2080.0499999988742,-0.030381322,-0.7464457,0.039813694,-2.3804305,-0.007606984,1.5154089,0.7819231,0.03999977,0.04,-0.03637758072032593,0.0013964279197101193,-0.02357247706650245,-0.000902745259594643,0.18326361469927044,-0.05488028070220377,0.9980817037006985,-0.0003740591974236975,-0.05948460297862974,-0.017156772018732735
2080.066666665541,-0.03127692,-0.745331,0.040980667,-2.381138,-0.007832836,1.5137794,0.78180355,0.039999764,0.04,-0.03741333565194793,0.001556349339312292,-0.02478449230327584,-0.0008581131851390028,0.1864548905343064,-0.055615902785604014,0.9979683033720009,-0.00038420018044565187,-0.061220818443461646,-0.017638856089442514
2080.083333332208,-0.032186497,-0.74419874,0.04216589,-2.3818567,-0.008062225,1.5121244,0.78168213,0.039999753,0.04,-0.0356806111680541,0.0016631386322629726,-0.024347846205796664,-0.0008113654951748513,0.18963663110973752,-0.05634454902200764,0.997849798331826,-0.00039412671637177924,-0.06298436361744308,-0.018127177744240098
2080.099999998875,-0.03311004,-0.7430491,0.043369304,-2.3825858,-0.00829513,1.510444,0.7815588,0.039999753,0.04,-0.03440373278302822,0.0017968922916033678,-0.024315310412936775,-0.0007616550331452452,0.1928109781701337,-0.05706207185719059,0.9977260575790177,-0.0004038438269288961,-0.06477488122039857,-0.01862164603028871
2080.1166666655417,-0.034047484,-0.74188226,0.044590868,-2.3833258,-0.008531551,1.5087383,0.7814336,0.039999746,0.04,-0.03456426661925249,0.0019107159625247894,-0.02498007585702844,-0.0007093538106912071,0.19598107233271678,-0.057773056085115584,0.9975969183600822,-0.000413352014906695,-0.06659248834288573,-0.019122189071385038
2080.1333333322086,-0.034998793,-0.7406982,0.04583054,-2.3840766,-0.008771462,1.5070074,0.78130656,0.039999746,0.04,-0.03382822912250116,0.002011242572990367,-0.024909770629788497,-0.0006538745101187524,0.19914165473734435,-0.05847305742492009,0.9974622375747936,-0.00042258470694336045,-0.0684369732736783,-0.019628721904118865
2080.1499999988755,-0.03596391,-0.7394969,0.04708822,-2.3848388,-0.009014857,1.505251,0.7811777,0.03999974,0.04,-0.03472168737248538,0.002216773408970571,-0.025774007115564324,-0.000595984813689528,0.20229390134756953,-0.05916503070455913,0.9973218214723881,-0.000431545393788178,-0.07030883824447025,-0.02014113820725728
2080.1666666655424,-0.036942784,-0.7382783,0.048363864,-2.3856115,-0.00926171,1.50347,0.781047,0.03999973,0.04,-0.03261947562940293,0.0022558036596519865,-0.025061070503418215,-0.0005355666751057113,0.20543371257676107,-0.05984558651477604,0.9971755646027602,-0.0004402437668041003,-0.07220727638659374,-0.02065935094387278
2080.1833333322093,-0.037935354,-0.73704284,0.049657397,-2.386395,-0.009512037,1.5016639,0.78091437,0.03999972,0.04,-0.03232949743854352,0.0024186025299490627,-0.025712210782713463,-0.00047210965215564206,0.20856462438987733,-0.06051765482679694,0.9970233033434525,-0.00044869259930984545,-0.07413231314351784,-0.021183281451481812
2080.199999998876,-0.038941577,-0.7357902,0.050968718,-2.3871896,-0.009765809,1.4998329,0.78077996,0.039999712,0.04,-0.03297975815361731,0.0026079860139409383,-0.02627148757958775,-0.0004054272473582219,0.2116846708284501,-0.06117867571002942,0.9968648432292918,-0.0004568055096378863,-0.07608435717036878,-0.021712813178807477
2080.216666665543,-0.03996136,-0.7345207,0.05229776,-2.3879948,-0.010023014,1.4979771,0.78064376,0.03999971,0.04,-0.03104854276481106,0.0026447103674335365,-0.025982915624056524,-0.0003366049443045108,0.214787542136594,-0.06182902024059296,0.9967000696906639,-0.0004645974919575269,-0.07806271786028814,-0.02224786075247036
2080.23333333221,-0.040994663,-0.7332342,0.053644445,-2.3888109,-0.01028361,1.4960968,0.7805059,0.0399997,0.04,-0.031450086817419454,0.0027989365669667254,-0.026436729772516543,-0.0002647101591692399,0.21788026704100083,-0.06246786623772797,0.9965288005644104,-0.00047198903541009735,-0.08006759415226596,-0.022788313642649726
2080.249999998877,-0.042041402,-0.7319313,0.055008672,-2.3896372,-0.010547609,1.494192,0.7803663,0.03999969,0.04,-0.02939586909989078,0.002896610337397784,-0.026495909070978207,-0.0001908160242737487,0.22095669292218453,-0.06309733217686408,0.9963509152690364,-0.0004790020453580822,-0.08209838372140242,-0.02333408643866762
2080.2666666655437,-0.043101512,-0.7306118,0.056390353,-2.3904748,-0.010814979,1.4922628,0.78022486,0.039999686,0.04,-0.030645655307015573,0.0030676249827395197,-0.027097672068610024,-0.00011410298244427224,0.22402056523234876,-0.06371375785563323,0.9961662090681896,-0.00048568501807079087,-0.08415552356275743,-0.023885055466817847
2080.2833333322105,-0.044174913,-0.72927564,0.057789396,-2.391322,-0.011085698,1.4903095,0.78008157,0.03999968,0.04,-0.027550632577710843,0.003078921005522303,-0.026261086671452993,-3.474274910307204e-05,0.22706686669733986,-0.06432041289529376,0.9959745868896682,-0.0004920469315464943,-0.08623811197383774,-0.024441117056298704
2080.2999999988774,-0.045261525,-0.72792304,0.059205685,-2.3921802,-0.011359762,1.4883318,0.7799366,0.03999967,0.04,-0.029609725504675666,0.00332429046817663,-0.027745187383776404,4.7919173611695766e-05,0.2301018278059867,-0.06491538428385035,0.9957758093502244,-0.0004979716359454078,-0.08834693640740816,-0.02500216719768512
2080.3166666655443,-0.04636126,-0.7265541,0.06063912,-2.3930488,-0.011637148,1.4863306,0.7797898,0.039999664,0.04,-0.027389751531825546,0.0033627295513899425,-0.02682906034114918,0.00013276265341676235,0.23311452670822164,-0.06549849989659462,0.9955697871659623,-0.0005035616372082223,-0.09048103616758923,-0.025568093437670584
2080.333333332211,-0.047474038,-0.7251689,0.062089574,-2.393927,-0.011917828,1.4843057,0.7796413,0.03999966,0.04,-0.026185954792334876,0.0034704736638000583,-0.027019313649656596,0.00022114710055986522,0.23611180887306013,-0.06606886442871802,0.9953563634110913,-0.0005087424681419292,-0.09264024728588477,-0.026138775429591598
2080.349999998878,-0.04859977,-0.7237676,0.06355694,-2.3948164,-0.012201769,1.4822572,0.77949095,0.039999653,0.04,-0.027421104425706666,0.003640619028366307,-0.028029297496412475,0.0003122815835135146,0.23909360282817732,-0.06662714526606256,0.9951353238714523,-0.0005135319927383052,-0.09482500048877529,-0.026714092731287244
2080.366666665545,-0.04973835,-0.7223502,0.06504113,-2.3957157,-0.012488957,1.4801853,0.7793389,0.039999645,0.04,-0.025451480484162126,0.0036542248548349088,-0.027609455730859267,0.0004063285170300265,0.24205298609142578,-0.06717319390351627,0.9949065436686078,-0.0005179195107423007,-0.09703474452792546,-0.027293945833560186
2080.383333332212,-0.050889716,-0.7209169,0.066542,-2.3966246,-0.012779365,1.47809,0.7791851,0.039999634,0.04,-0.02396591265341197,0.0037834929656942184,-0.027483577594344943,0.0005031511750568317,0.24499159010224456,-0.06770669134075427,0.9946698956250346,-0.0005218813399506362,-0.09926898764300852,-0.02787820778820052
2080.3999999988787,-0.052053742,-0.7194678,0.06805936,-2.3975441,-0.013072979,1.4759716,0.7790296,0.039999627,0.04,-0.025379992264218387,0.004013409990634778,-0.02852107465300957,0.0006031614897879694,0.24791467935800304,-0.06822755053733814,0.9944251467396779,-0.0005253967825837772,-0.10152830343032286,-0.02846673659820394
2080.4166666655456,-0.053230338,-0.71800303,0.06959318,-2.3984725,-0.013369766,1.4738302,0.77887243,0.03999962,0.04,-0.021696393940051628,0.003887847138131853,-0.02734218564159896,0.0007054787112146972,0.25081064510631423,-0.06873653523903817,0.9941722438965688,-0.0005284779803244277,-0.1038114563568314,-0.029059451229492893
2080.4333333322124,-0.054419406,-0.7165227,0.07114327,-2.3994112,-0.013669699,1.4716661,0.7787137,0.039999615,0.04,-0.023329468511623652,0.0041569823814733425,-0.0284860823453581,0.0008110493732091124,0.25369004816074703,-0.0692317328888405,0.993910952674218,-0.0005310273107055569,-0.10611901612050788,-0.02965620646405864
2080.4499999988793,-0.055620827,-0.7150269,0.07270952,-2.4003606,-0.01397274,1.4694793,0.7785533,0.039999608,0.04,-0.02346036641214244,0.004227584600609985,-0.02902053038318364,0.0009182437617134189,0.2565456486682971,-0.06971390590216182,0.9936410822251368,-0.0005331172760736478,-0.10845108031159241,-0.030256878220951237
2080.466666665546,-0.056834497,-0.71351606,0.07429174,-2.401319,-0.014278883,1.4672705,0.7783913,0.039999597,0.04,-0.019930557268965643,0.0042784978375239036,-0.0278473421326364,0.001028066286901664,0.25937174352588444,-0.0701835603931569,0.993362597794465,-0.0005347104984286327,-0.11080632081621396,-0.03086134564287494
2080.483333332213,-0.0580603,-0.71199,0.07588986,-2.4022865,-0.014588098,1.4650396,0.7782277,0.039999586,0.04,-0.01959349132740762,0.0042888415540884295,-0.028045077855232137,0.0011406360479279485,0.2621790574790762,-0.0706400048090154,0.9930753197544232,-0.0005358366348952428,-0.11318477247302748,-0.03146950037702933
2080.49999999888,-0.059298124,-0.710449,0.07750368,-2.403264,-0.014900355,1.4627869,0.77806234,0.039999582,0.04,-0.020314631168250052,0.004504686496501625,-0.02883337032153488,0.0012562612430808738,0.2649651545768189,-0.07108217276478915,0.992779047167999,-0.0005365260953486403,-0.11558664769905376,-0.032081186350315774
2080.516666665547,-0.060547855,-0.70889306,0.07913306,-2.4042506,-0.01521561,1.4605126,0.7778954,0.039999574,0.04,-0.01826985360458,0.00449233942000915,-0.02827155811577775,0.0013747916015356479,0.26772384289943296,-0.0715110244097911,0.9924736768579655,-0.0005367362612477965,-0.11801129561843914,-0.03269628059388038
2080.5333333322137,-0.061809376,-0.7073225,0.080777824,-2.4052465,-0.015533841,1.4582168,0.7777269,0.03999957,0.04,-0.017912174047407525,0.004634732400778108,-0.028761817245870347,0.0014958988010262252,0.27045850660989673,-0.07192623850735416,0.9921590352869187,-0.000536418976203113,-0.1204586864974605,-0.03331464843757326
2080.5499999988806,-0.06308256,-0.70573735,0.08243784,-2.4062517,-0.015855012,1.4558994,0.7775568,0.039999563,0.04,-0.01730610183858783,0.004668745999784202,-0.029042649209154447,0.001619477743416307,0.2731665587341261,-0.0723280639725066,0.991834954337471,-0.0005356180842372456,-0.1229287321324085,-0.03393616483890097
2080.5666666655475,-0.06436729,-0.704138,0.084112935,-2.407266,-0.016179094,1.4535608,0.77738523,0.039999556,0.04,-0.016086002007620337,0.0047476295529237655,-0.028840081204783985,0.001745161113039506,0.27584570894258537,-0.07271673153171547,0.991501321835661,-0.0005342418852902985,-0.12542089535728773,-0.03456070588864081
2080.5833333322144,-0.0656634,-0.70252395,0.08580295,-2.4082894,-0.016506067,1.4512017,0.77721214,0.039999545,0.04,-0.01632966965507965,0.004814815051822421,-0.02869631747226542,0.0018731165563577994,0.2784988000582559,-0.07309159468530416,0.9911579533535059,-0.0005323873395111349,-0.12793523304957585,-0.03518812601376979
2080.5999999988812,-0.0669708,-0.7008961,0.0875077,-2.409322,-0.016835889,1.448822,0.7770375,0.039999537,0.04,-0.014609676372678848,0.004902707155929678,-0.028965012119597233,0.0020038938619434937,0.281119431822949,-0.07345185982496386,0.990804751196331,-0.000530018479104614,-0.13047112138079078,-0.0358182994128316
2080.616666665548,-0.068289354,-0.69925433,0.08922703,-2.4103632,-0.017168535,1.446422,0.7768614,0.039999526,0.04,-0.013441003218428449,0.004914202437272114,-0.028727401384309736,0.0021365076812951095,0.2837137249408358,-0.07379895478547015,0.9904415795055572,-0.0005270994382339865,-0.13302825654039876,-0.0364511003200321
2080.633333332215,-0.069618955,-0.697599,0.090960786,-2.4114137,-0.017503949,1.4440019,0.7766839,0.03999952,0.04,-0.013695005259428683,0.005021772462693655,-0.029259119942692813,0.002271715087807988,0.2862791921484139,-0.07413133807327409,0.9900682635263095,-0.0005236200009445673,-0.1356066324658193,-0.03708639388472568
2080.649999998882,-0.0709594,-0.6959299,0.092708774,-2.4124722,-0.017842114,1.4415619,0.776505,0.03999951,0.04,-0.011561348532329596,0.004949423236102687,-0.02846149311330759,0.0024087674425389695,0.28881179123234435,-0.07444963710245925,0.9896847101614825,-0.0005196320825407881,-0.1382056481187188,-0.03772404118286078
2080.6666666655487,-0.07231055,-0.6942476,0.0944708,-2.4135396,-0.018182991,1.4391023,0.7763246,0.0399995,0.04,-0.011521643026646267,0.00507915020844206,-0.02918353861589562,0.002547944088549568,0.29131633674032276,-0.07475454446969185,0.98929075932044,-0.0005151144424691295,-0.14082520589898193,-0.038363909652274375
2080.6833333322156,-0.07367232,-0.69255215,0.09624667,-2.4146144,-0.018526541,1.4366235,0.7761427,0.039999496,0.04,-0.008829926245779163,0.005045036941449602,-0.02796029047391624,0.002689576716322835,0.2937867554121897,-0.0750439059222329,0.9888863794182378,-0.000510135864427285,-0.14346432412040663,-0.03900584657668266
2080.6999999988825,-0.07504455,-0.6908436,0.09803621,-2.4156973,-0.018872725,1.4341257,0.7759594,0.03999949,0.04,-0.009338567657168895,0.0051422033397394845,-0.028478989085978235,0.0028339273443672547,0.2962317924832528,-0.07532099131654862,0.9884713782452969,-0.0005046451676720706,-0.1461231655035673,-0.039649719120256256
2080.7166666655494,-0.07642708,-0.6891222,0.09983925,-2.4167893,-0.019221524,1.4316088,0.77577466,0.039999474,0.04,-0.009980106263607347,0.005246090122696875,-0.029548988665717424,0.002980140375858877,0.2986467777453815,-0.07558471306810126,0.9880455332481037,-0.0004986194852101848,-0.14880206845712413,-0.04029540953955653
2080.7333333322163,-0.07781977,-0.6873882,0.10165558,-2.4178889,-0.019572893,1.4290735,0.7755886,0.03999947,0.04,-0.00711416698411238,0.0051710564147842975,-0.028258978554585035,0.0031286104684919262,0.30102163423442857,-0.07583205906074021,0.9876088434859102,-0.0004920790503852621,-0.15149989819889817,-0.040942776803173736
2080.749999998883,-0.07922247,-0.68564165,0.103485,-2.4189966,-0.019926783,1.4265201,0.77540123,0.03999946,0.04,-0.0071790037160957,0.005240078645814966,-0.028424882069710833,0.003278626853478038,0.303366855781674,-0.07606670257701342,0.9871611587827431,-0.0004849776820490108,-0.15421654754584904,-0.04159168006222779
2080.76666666555,-0.08063502,-0.68388283,0.10532733,-2.4201121,-0.020283189,1.4239486,0.7752125,0.039999444,0.04,-0.0061024789127950285,0.005261455617420335,-0.028580068778394363,0.003430025337692981,0.30567770251809845,-0.07628803716048463,0.986702346154381,-0.00047738489081173495,-0.15695179527616995,-0.042241995178889304
2080.783333332217,-0.082057245,-0.6821119,0.10718234,-2.4212356,-0.020642035,1.4213594,0.77502257,0.03999944,0.04,-0.005407537470403234,0.005263761672523459,-0.02849969224316684,0.0035839779143400133,0.30795285601471895,-0.07649306945455582,0.9862322905183596,-0.00046925650711969664,-0.15970532500389523,-0.04289356714754209
2080.799999998884,-0.083489046,-0.6803291,0.10904987,-2.4223664,-0.021003282,1.4187526,0.7748313,0.039999433,0.04,-0.004030167872026702,0.005246407055579938,-0.028244228943252736,0.0037394475013168334,0.3101931440113659,-0.0766848002375293,0.9857508965037789,-0.0004606271807968073,-0.16247670743295214,-0.04354626742148446
2080.8166666655507,-0.084930226,-0.67853445,0.11092967,-2.4235048,-0.021366928,1.4161289,0.7746388,0.03999942,0.04,-0.0037192350567316623,0.005333297169440171,-0.027921502593608594,0.003895877953168239,0.312396638618704,-0.07686449350285068,0.9852580686785961,-0.0004514923139421955,-0.16526553659966164,-0.044199962339793314
2080.8333333322175,-0.08638064,-0.6767284,0.11282156,-2.4246502,-0.021732904,1.4134881,0.7744451,0.039999414,0.04,-0.0017936684963304472,0.00522541866920731,-0.027827001720481803,0.004054628321772492,0.3145659019968659,-0.07702821948297084,0.9847537294827527,-0.0004418047969237919,-0.16807131806162356,-0.04485453291875099
2080.8499999988844,-0.087840095,-0.674911,0.114725314,-2.4258027,-0.022101143,1.4108311,0.7742501,0.039999418,0.04,-0.001627699581319142,0.005228582042651753,-0.027544200422302545,0.004215342088529168,0.3166986304306313,-0.07717589673298327,0.9842377719891195,-0.00043171749464684695,-0.17089376833736286,-0.045509798432366855
2080.8666666655513,-0.08930848,-0.67308265,0.11664075,-2.4269624,-0.02247164,1.4081575,0.7740539,0.0399994,0.04,-0.0007494069524938141,0.0052870386710833495,-0.027973378576318098,0.004376605411870171,0.3187956335557963,-0.07731403868443845,0.9837100630745538,-0.00042112376308025786,-0.17373274272731873,-0.046165664352165375
2080.883333332218,-0.09078558,-0.6712432,0.1185676,-2.4281287,-0.022844369,1.4054682,0.7738565,0.039999384,0.04,0.0003471186182490982,0.005246791522731803,-0.026898923436657896,0.004539557611902376,0.32085536464905584,-0.07743751940809622,0.9831705726671008,-0.00041005122744541687,-0.17658753719979306,-0.04682198847921317
2080.899999998885,-0.09227122,-0.66939324,0.1205057,-2.4293013,-0.023219261,1.4027636,0.773658,0.03999938,0.04,0.0020871265445920884,0.0051212414710580245,-0.026601611580523432,0.004704520732476226,0.3228774091404386,-0.07754516051019743,0.9826192758458824,-0.00039855428829850596,-0.179457453220026,-0.04747865177503779
2080.916666665552,-0.093765296,-0.66753274,0.12245476,-2.4304807,-0.023596253,1.4000435,0.77345836,0.039999373,0.04,0.001455654790105676,0.005287697597752827,-0.027319014494198157,0.00487131695696429,0.3248668591193239,-0.0776391181242278,0.982055957837363,-0.00038653797610767657,-0.18234287035425414,-0.048135474397831834
2080.933333332219,-0.09526758,-0.66566193,0.12441462,-2.4316669,-0.023975348,1.3973082,0.77325773,0.039999355,0.04,0.002510235221486745,0.0051949642676817065,-0.026991045379332057,0.005037892451327649,0.3268150399405751,-0.0777222263928236,0.981480553733665,-0.0003740345017920076,-0.18524331774509606,-0.048792376163075156
2080.9499999988857,-0.09677794,-0.6637812,0.12638506,-2.4328597,-0.024356492,1.3945583,0.7730559,0.039999347,0.04,0.00338677460236525,0.005196263943835905,-0.026795185704053814,0.005205567453644374,0.3287224485641812,-0.07778940063954105,0.9808930106219811,-0.0003611321096100922,-0.18815830255444774,-0.049449211079393
2080.9666666655526,-0.098296136,-0.6618905,0.12836586,-2.4340584,-0.024739617,1.3917941,0.7728531,0.039999347,0.04,0.0047527413087111725,0.005023396807911362,-0.0259632973126811,0.005375132844607076,0.3305909372993071,-0.07784319489941899,0.9802932882600491,-0.0003478175951238252,-0.1910872893834257,-0.050105846478385396
2080.9833333322194,-0.09982206,-0.6599902,0.13035671,-2.4352639,-0.025124678,1.3890156,0.77264917,0.039999336,0.04,0.0045903112031453475,0.0052063703562303665,-0.026705130553317247,0.005545349798898173,0.332420565865596,-0.07788437235301647,0.9796812304887079,-0.0003340616937730066,-0.19403036573247356,-0.050762113870864926
2080.9999999988863,-0.1013555,-0.65808046,0.13235742,-2.4364753,-0.025511667,1.3862231,0.7724444,0.03999932,0.04,0.006234060230236871,0.0050781598032435815,-0.025936446249308354,0.005715623235111772,0.33420515673538365,-0.07791287134738663,0.9790568293173876,-0.0003198039451166199,-0.1969868484229257,-0.051417936956120985
2081.016666665553,-0.102896295,-0.65616167,0.13436781,-2.437692,-0.025900522,1.3834175,0.7722385,0.039999314,0.04,0.008020309851852758,0.004894500691899478,-0.02480931892523408,0.005886310477276832,0.3359481296282592,-0.0779265681524944,0.9784201492184018,-0.0003052758564424686,-0.1999557508111669,-0.05207318050238865
2081.03333333222,-0.104444206,-0.65423393,0.13638757,-2.4389136,-0.026291179,1.3805987,0.7720316,0.03999931,0.04,0.008892558656836691,0.004839261359079056,-0.024761081338708912,0.006059548260967021,0.33765532347715554,-0.07792674639571996,0.9777711013259802,-0.0002903812044984137,-0.20293688410677127,-0.052727698219918795
2081.049999998887,-0.10599916,-0.6522973,0.13841657,-2.4401412,-0.02668359,1.3777673,0.7718238,0.039999302,0.04,0.008020545583686811,0.004926094599302239,-0.02498927552605501,0.006233021743466557,0.3393229201433994,-0.07791546459814831,0.9771095510992983,-0.00027509840320586143,-0.20593027336718478,-0.0533813823567036
2081.066666665554,-0.10756086,-0.65035224,0.14045452,-2.4413753,-0.02707774,1.3749229,0.77161515,0.039999288,0.04,0.008191694028902852,0.004925116142599079,-0.025992329796098446,0.006406518368461426,0.3409484527491401,-0.07789170832564794,0.9764353151381202,-0.0002594440087984001,-0.20893616978647936,-0.05403410955018779
2081.0833333322207,-0.10912919,-0.64839894,0.14250112,-2.4426138,-0.027473575,1.3720669,0.7714056,0.039999284,0.04,0.011474822781964988,0.004736238937816384,-0.02322614629204356,0.006580523480832723,0.34252344672224677,-0.07785354430492056,0.9757486672903241,-0.0002434585052494799,-0.21195270250178044,-0.05468574687525514
2081.0999999988876,-0.11070395,-0.6464374,0.14455612,-2.4438577,-0.027871016,1.3691992,0.7711952,0.039999276,0.04,0.010874134051008788,0.004758731593342003,-0.023903836793559563,0.006755447400356173,0.3440613732816652,-0.07780301688559568,0.97504941907108,-0.00022712708062962235,-0.21498020993172887,-0.055336137560804584
2081.1166666655545,-0.11228499,-0.64446825,0.14661936,-2.4451065,-0.02827006,1.36632,0.7709839,0.03999927,0.04,0.012154082496840246,0.004659936211104387,-0.023644279525680822,0.006929849623567658,0.3455556691203642,-0.07774060975388539,0.974337578338149,-0.00021050222777801945,-0.21801810565637797,-0.05598521887934056
2081.1333333322214,-0.113872044,-0.6424917,0.14869057,-2.4463596,-0.028670633,1.3634297,0.7707718,0.039999258,0.04,0.01374108768530391,0.0044708593176373546,-0.022879860245206274,0.007104742261517499,0.347007690581558,-0.07766579265503276,0.9736131786968495,-0.00019357844566424772,-0.2210657352131558,-0.05663286598671229
2081.1499999988882,-0.115465,-0.6405077,0.1507695,-2.4476178,-0.02907269,1.3605283,0.7705589,0.039999247,0.04,0.01307185768308905,0.0045619994697251864,-0.023238334383779424,0.007280124896769493,0.3484181439309629,-0.07757794676741403,0.9728760669654389,-0.0001763821145506919,-0.22412329473769546,-0.05727893130225657
2081.166666665555,-0.11706363,-0.6385167,0.15285589,-2.4488802,-0.02947619,1.3576162,0.7703453,0.039999235,0.04,0.014870324611271357,0.004404373537506001,-0.022608635371446084,0.007455123289160924,0.3497819060431168,-0.07747863589114903,0.9721262957980922,-0.00015888471378219202,-0.22719007224614504,-0.05792331867494508
2081.183333332222,-0.11866771,-0.6365187,0.15494947,-2.450147,-0.02988109,1.354695,0.7701309,0.039999228,0.04,0.015093218128914287,0.0043298401030317235,-0.021095600729070796,0.007630055733385908,0.35110112031442786,-0.07736655288091197,0.9713639750618714,-0.0001412101767553099,-0.23026515845818002,-0.05856590144371724
2081.199999998889,-0.12027709,-0.63451403,0.15705006,-2.4514184,-0.030287325,1.3517635,0.76991576,0.03999922,0.04,0.015182069803731935,0.004310228931164034,-0.022496093389712257,0.007805534438951813,0.35237909238284926,-0.07724292863701132,0.970588869936826,-0.00012329480340368158,-0.23334912149018094,-0.05920656933911409
2081.2166666655557,-0.12189159,-0.6325032,0.15915735,-2.4526935,-0.030694846,1.3488233,0.7697001,0.039999213,0.04,0.017552478930316084,0.004113381826890972,-0.020273803116910294,0.007980025062890143,0.353607684922972,-0.07710805514600441,0.9698012799967368,-0.00010510919966188457,-0.23644029460641608,-0.059845245050698465
2081.2333333322226,-0.12351098,-0.6304861,0.16127113,-2.453973,-0.031103613,1.3458728,0.76948357,0.039999206,0.04,0.016538367865392978,0.004152395918848029,-0.022330753877231047,0.00815450880875305,0.35479838987258516,-0.07696055820819381,0.969000800409886,-8.681414958986786e-05,-0.23953997560775128,-0.06048174397404429
2081.2499999988895,-0.12513508,-0.6284631,0.16339113,-2.4552555,-0.031513583,1.3429143,0.7692664,0.039999194,0.04,0.01938352913497532,0.003855625431107429,-0.01887947396517209,0.008328227943119756,0.3559326962700333,-0.07680290738217475,0.9681879083811764,-6.83759118588946e-05,-0.2426458318027258,-0.06111603470432712
2081.2666666655564,-0.12676369,-0.6264345,0.1655171,-2.4565423,-0.031924695,1.3399482,0.76904887,0.039999194,0.04,0.017979097031761704,0.003959655337709006,-0.01999532253071923,0.008503006929852643,0.3570304888355057,-0.07663198438353633,0.9673624110714892,-4.9709867142624275e-05,-0.2457583087142041,-0.061748011083904174
2081.2833333322233,-0.12839656,-0.62440056,0.16764879,-2.4578319,-0.032336894,1.3369741,0.7688306,0.039999187,0.04,0.020408954427653114,0.003654946074212878,-0.018788125838109515,0.008675788476535952,0.35808113783871687,-0.07645142259854254,0.9665244350994553,-3.101888878980652e-05,-0.24887659288705916,-0.06237753527061091
2081.29999999889,-0.1300336,-0.6223613,0.16978589,-2.4591246,-0.03275015,1.3339925,0.7686117,0.039999172,0.04,0.02041829140064788,0.003760896856092044,-0.01870897516169645,0.008848520377786464,0.35908932481776656,-0.07626058671811253,0.9656739309487142,-1.221098052987946e-05,-0.2520005842992888,-0.0630044796007936
2081.316666665557,-0.13167454,-0.6203174,0.17192815,-2.4604213,-0.033164423,1.3310032,0.76839244,0.039999157,0.04,0.020041973045770156,0.0037346165335988557,-0.019583923241084378,0.009020821718291829,0.3600516632848644,-0.07605921848599329,0.964810800021965,6.777744161019342e-06,-0.2551303507194683,-0.06362880052931386
2081.333333332224,-0.1333192,-0.6182688,0.17407537,-2.4617207,-0.03357964,1.3280065,0.7681727,0.039999157,0.04,0.022124119058375413,0.0034162135943031913,-0.017984626767431067,0.009192084697977424,0.3609614327347791,-0.07584434146512758,0.9639351923183167,2.5844659587749594e-05,-0.2582650445287005,-0.06425037834045613
2081.349999998891,-0.13496733,-0.6162156,0.17622724,-2.4630227,-0.033995733,1.3250046,0.7679523,0.039999146,0.04,0.022277066875187046,0.003304400761991455,-0.016154881989938197,0.009361893298354074,0.3618246430251071,-0.07562016099159886,0.9630473539871929,4.482245598437221e-05,-0.26140350619685254,-0.06486909061491425
2081.3666666655577,-0.13661882,-0.6141582,0.17838351,-2.464327,-0.03441266,1.3219959,0.7677314,0.03999914,0.04,0.023357208686580755,0.0032845252679845893,-0.01713321683947111,0.009532261552290838,0.36264645063226975,-0.07538613233980875,0.9621471271739107,6.382695529734157e-05,-0.2645460988957619,-0.06548483149664608
2081.3833333322245,-0.13827342,-0.6120968,0.18054393,-2.4656339,-0.034830384,1.3189819,0.7675103,0.039999127,0.04,0.023535280517461565,0.00314263061001116,-0.01576969541050577,0.009700744462342318,0.36341783088804036,-0.07514346517342738,0.9612346913125382,8.288699633577569e-05,-0.2676919377160178,-0.06609756295718454
2081.3999999988914,-0.13993092,-0.61003196,0.18270822,-2.4669433,-0.035248883,1.3159617,0.7672888,0.039999116,0.04,0.024144748461774057,0.0031138306675365657,-0.016731136143133263,0.009867712972193354,0.364146263156535,-0.07489051643874274,0.9603099365668407,0.000101990750701069,-0.2708412173486885,-0.06670719836687354
2081.4166666655583,-0.14159115,-0.6079638,0.18487613,-2.468255,-0.03566808,1.3129371,0.76706684,0.039999112,0.04,0.024509380813886317,0.0029870559507934324,-0.014939757736021075,0.010033725377285866,0.36482288755057785,-0.07462556805892318,0.9593731125476944,0.00012099346861268366,-0.27399287081442103,-0.06731361692853505
2081.433333332225,-0.1432539,-0.60589236,0.18704736,-2.4695685,-0.036087893,1.309908,0.7668446,0.039999105,0.04,0.025684579820195452,0.00280080130915239,-0.014231963851318863,0.010199111826305497,0.3654546093616751,-0.07435186762871046,0.9584242867434687,0.0001399514893164889,-0.27714650791640255,-0.06791671475857276
2081.449999998892,-0.14491895,-0.60381806,0.18922168,-2.4708836,-0.036508292,1.3068748,0.7666219,0.039999105,0.04,0.02618653533734694,0.0026922676197478623,-0.013854283782299692,0.010363294759086712,0.3660386554668607,-0.07406763935365368,0.9574635424850864,0.0001587735867197884,-0.2803016951228491,-0.0685164163840655
2081.466666665559,-0.14658605,-0.6017411,0.19139881,-2.472201,-0.03692923,1.3038375,0.7663991,0.039999094,0.04,0.02558272122803462,0.0026588122981160978,-0.014190592828611237,0.010525956723989633,0.3665783008911373,-0.07377627842274735,0.9564908195446297,0.00017755482362320757,-0.2834584958661558,-0.06911267410847194
2081.483333332226,-0.14825504,-0.59966177,0.19357851,-2.4735196,-0.03735067,1.3007967,0.7661759,0.03999908,0.04,0.0278160743880429,0.0024003254304620636,-0.012462544019664623,0.010685829373264072,0.36706614706091933,-0.07347589788840951,0.9555064038422405,0.0001961509791335539,-0.28661582660634555,-0.06970539204411516
2081.4999999988927,-0.14992572,-0.59758025,0.19576052,-2.4748394,-0.037772533,1.2977525,0.7659526,0.03999907,0.04,0.027446301706968157,0.0023608592994425748,-0.012648966495221181,0.010845740518816836,0.3675081158024145,-0.07316570944333518,0.9545102536207207,0.00021462800422284632,-0.28977373010108076,-0.07029448777132692
2081.5166666655596,-0.15159789,-0.5954968,0.1979445,-2.4761605,-0.038194787,1.2947052,0.7657289,0.039999068,0.04,0.02804660531199321,0.0022799829163894225,-0.011995939381936882,0.011003489970979927,0.36790180223376334,-0.07284665778248035,0.9535024829734725,0.0002328742509570608,-0.2929317473544606,-0.07087984286712704
2081.5333333322264,-0.15327136,-0.59341186,0.20013024,-2.4774828,-0.038617376,1.2916559,0.76550496,0.039999057,0.04,0.028446095782097558,0.002190534401194655,-0.010947532891414369,0.011159628504225666,0.36824379733559404,-0.07252007038058858,0.9524833394439983,0.000250910277973196,-0.29608898957293134,-0.07146142581366599
2081.5499999988933,-0.15494584,-0.5913255,0.20231749,-2.4788055,-0.039040245,1.2886044,0.7652811,0.039999053,0.04,0.029490341239801765,0.0018611943968516176,-0.01035742514154947,0.011314811603250749,0.36853959774657774,-0.07218408720578402,0.9514528809031774,0.0002687807640660407,-0.29924520792555015,-0.07203921648337894
2081.56666666556,-0.15662123,-0.5892381,0.20450592,-2.480129,-0.03946335,1.2855515,0.7650572,0.03999905,0.04,0.029444617155482966,0.001981946624150105,-0.009684974482393471,0.011467905424271663,0.3687897852249677,-0.0718400350131638,0.9504112764995055,0.00028649935032697745,-0.3023998370994487,-0.07261309759905536
2081.583333332227,-0.15829726,-0.5871497,0.2066953,-2.4814537,-0.03988661,1.2824967,0.7648331,0.03999904,0.04,0.029115994786366173,0.001825033034203588,-0.010515582407932822,0.011618593491011768,0.3689932279095056,-0.07148717465459548,0.9493583667696317,0.00030390421471156935,-0.30555335902477776,-0.07318294798244304
2081.599999998894,-0.15997367,-0.58506066,0.20888534,-2.4827785,-0.040310007,1.2794414,0.76460874,0.03999903,0.04,0.030450117577407454,0.0016099080396604626,-0.0082373338916919,0.011766572506491138,0.36914044273978175,-0.07112798256865124,0.9482946062532002,0.0003209023500040045,-0.30870432487809013,-0.07374873947622566
2081.616666665561,-0.16165039,-0.58297145,0.2110758,-2.4841037,-0.040733468,1.2763857,0.7643844,0.039999023,0.04,0.03082538071357277,0.0015817947652083109,-0.00799633697087243,0.011914467008948994,0.3692427290548794,-0.07076131275501314,0.9472200980798907,0.0003376488269868952,-0.3118524199328887,-0.07431042974437098
2081.6333333322277,-0.1633271,-0.58088213,0.21326637,-2.4854288,-0.04115695,1.2733297,0.76416004,0.039999012,0.04,0.031186831082807842,0.001383574540624044,-0.0074667162685782,0.01205909040473761,0.3692969540101582,-0.0703873421781165,0.9461349339221938,0.0003540576648257848,-0.3149973832237275,-0.0748679505357277
2081.6499999988946,-0.16500372,-0.57879275,0.21545684,-2.4867537,-0.041580416,1.270274,0.76393574,0.039999004,0.04,0.031461492104134514,0.0013434073259072088,-0.006651725075845771,0.012202244857695436,0.3693030357268682,-0.07000564803789232,0.9450392626217663,0.0003701528824102283,-0.3181387936330901,-0.07542123756498582
2081.6666666655615,-0.16667993,-0.5767039,0.21764688,-2.4880786,-0.042003784,1.2672188,0.76371145,0.039999,0.04,0.03164568141174051,0.0012146532195243809,-0.006565210384834597,0.01234339433331439,0.369260928398912,-0.06961645870537786,0.9439332106516264,0.0003858759393741527,-0.32127631456034134,-0.07597022200307445
2081.6833333322284,-0.16835552,-0.5746159,0.21983625,-2.4894028,-0.04242703,1.2641641,0.7634872,0.039998993,0.04,0.03275248335503633,0.0009893365229052264,-0.005683970172032371,0.012481859239853515,0.3691686314998299,-0.069221048170601,0.9428169732386463,0.000401211118293282,-0.3244094109363681,-0.07651488808509582
2081.6999999988952,-0.17003036,-0.5725287,0.22202468,-2.4907265,-0.04285007,1.2611115,0.76326334,0.039998993,0.04,0.03210972540177437,0.0009885223924921416,-0.004386598537808872,0.012618657690301991,0.36902834479167523,-0.06881832539545188,0.9416908254233302,0.00041623752673451274,-0.32753734683811214,-0.07705519116904914
2081.716666665562,-0.17170416,-0.57044274,0.22421186,-2.492049,-0.04327287,1.2580602,0.76303965,0.039998982,0.04,0.03339880557158281,0.0007698428918970213,-0.004158529558506707,0.01275157525249963,0.3688420517154412,-0.06840950843403965,0.940554852883709,0.0004308676765672918,-0.33065996382428176,-0.07759105227843263
2081.733333332229,-0.1733768,-0.56835824,0.22639759,-2.493371,-0.04369539,1.2550114,0.76281595,0.039998975,0.04,0.032504503845909305,0.0008087124802824697,-0.0037449181072179982,0.012881725373890188,0.3686090036215607,-0.06799487906122502,0.9394092281897792,0.00044498193571651827,-0.33377686044139854,-0.07812241302496511
2081.749999998896,-0.17504804,-0.5662753,0.22858156,-2.4946918,-0.04411757,1.2519644,0.76259226,0.03999897,0.04,0.03350325636219953,0.0006048212232857841,-0.003375490885604293,0.01301078739611823,0.3683255360078283,-0.06757289603628641,0.938254016456214,0.0004585688615001009,-0.3368879571104297,-0.07864918735971292
2081.7666666655628,-0.17671762,-0.5641946,0.23076358,-2.4960115,-0.044539362,1.2489208,0.7623688,0.039998963,0.04,0.033665918405034745,0.0004264142859061737,-0.0020291577362385738,0.013137343230527516,0.3679920842993252,-0.06714612196683768,0.9370896457810646,0.0004716475196548627,-0.3399921383170409,-0.07917145445892895
2081.7833333322296,-0.1783854,-0.5621159,0.23294331,-2.4973295,-0.04496069,1.2458806,0.7621459,0.039998956,0.04,0.03386539682501688,0.000356689117804454,-0.0011959211410172976,0.013262290825922337,0.3676133336394123,-0.06671310342695883,0.9359162383811473,0.00048434220955084176,-0.3430892065795854,-0.0796891239486166
2081.7999999988965,-0.18005118,-0.56003964,0.23512045,-2.4986458,-0.045381524,1.2428441,0.761923,0.039998952,0.04,0.03410322743342409,0.0003061699352983893,-0.0008386219545797324,0.013384106026364497,0.3671881614079609,-0.06627345591812861,0.9347339800216983,0.0004964302822244508,-0.34617880543645313,-0.08020208735663178
2081.8166666655634,-0.1817147,-0.55796635,0.23729478,-2.4999607,-0.0458018,1.2398114,0.76170063,0.03999895,0.04,0.034121921653595955,0.0001695016031283414,-0.0008184624501139659,0.0135039347970919,0.3667161330036421,-0.06582932777156252,0.9335430066702856,0.0005080826348668461,-0.34926068472267946,-0.080710412315167
2081.8333333322303,-0.18337578,-0.5558958,0.23946609,-2.5012736,-0.046221465,1.2367829,0.7614784,0.03999895,0.04,0.03427096603763058,-2.6680329695549787e-06,0.00019705789510160443,0.013620782771811175,0.36619497627024267,-0.06537857917161752,0.9323434957562545,0.0005190810306295679,-0.352334535801942,-0.08121398498485792
2081.849999998897,-0.18503423,-0.55382854,0.24163401,-2.5025847,-0.046640474,1.233759,0.7612565,0.03999894,0.04,0.03445895031217727,6.740503630253691e-06,0.000731158837774526,0.013734973402746537,0.36562484627049197,-0.064924296733173,0.9311356995933938,0.0005295107195542406,-0.3553998466510019,-0.08171277477581643
2081.866666665564,-0.18668984,-0.5517649,0.24379836,-2.503893,-0.047058772,1.2307397,0.76103497,0.039998937,0.04,0.035695960466086696,-0.0003106170572565736,0.0018022107774129381,0.013846506089870684,0.36500593409700377,-0.06446475963879586,0.9299199049507595,0.0005393520077119207,-0.3584560246302445,-0.08220679948801991
2081.883333332231,-0.18834242,-0.54970497,0.2459588,-2.505199,-0.047476325,1.2277267,0.76081413,0.039998922,0.04,0.0343207603307194,-0.00016563927777504817,0.0026698125921043037,0.013954358093523888,0.3643409385809512,-0.0640017663656664,0.9286964012706421,0.0005487138379163017,-0.36150249634988035,-0.08269605983894925
2081.899999998898,-0.18999174,-0.5476489,0.24811506,-2.5065033,-0.04789309,1.2247189,0.76059335,0.039998915,0.04,0.03405628295491958,-0.00018999653859583243,0.0015658217953240516,0.01405951362551508,0.36363247057077386,-0.06353311548217333,0.9274650294036961,0.0005573271077675022,-0.36453989271136317,-0.08318037774429518
2081.9166666655647,-0.19163765,-0.5455971,0.25026697,-2.507804,-0.048308995,1.221718,0.76037306,0.039998908,0.04,0.036101866328608345,-0.0006471155849611943,0.005134932871109221,0.014162345424145843,0.36286854090984766,-0.06306072527142192,0.9262266084708833,0.0005652622304665576,-0.36756628881166165,-0.08365986832620523
2081.9333333322315,-0.19327986,-0.5435499,0.25241423,-2.509102,-0.048723992,1.2187221,0.76015335,0.039998896,0.04,0.035116672936541526,-0.0005563736892887083,0.002584726747834054,0.014263399908821875,0.36206646164595935,-0.06258402883191115,0.9249807434578485,0.0005726634324792154,-0.3705828956173953,-0.08413449806461967
2081.9499999988984,-0.19491826,-0.54150724,0.25455657,-2.5103974,-0.04913805,1.2157338,0.759934,0.039998893,0.04,0.034689350776284655,-0.0005799157220057194,0.005122120636236183,0.014360975783442463,0.36120929904458565,-0.062102183583909495,0.9237280347970246,0.0005793049861716751,-0.3735884284021727,-0.0846041860651972
2081.9666666655653,-0.19655259,-0.53946966,0.2566937,-2.51169,-0.049551103,1.2127529,0.7597152,0.03999889,0.04,0.03488377314848634,-0.0006864263999331599,0.0052858820939305495,0.014456158358880051,0.36030686269214635,-0.061617052747647186,0.922468682128434,0.0005852736809674261,-0.3765826097499574,-0.08506894839399332
2081.983333332232,-0.19818267,-0.5374376,0.25882536,-2.5129788,-0.04996308,1.2097801,0.7594969,0.039998885,0.04,0.03564680104635176,-0.0008895929691013493,0.006559503791536692,0.014548557670293095,0.3593574035609375,-0.06112839890038192,0.9212031004325273,0.0005905481653905916,-0.3795646525372476,-0.08552878784737872
2081.999999998899,-0.19980828,-0.53541076,0.26095134,-2.5142643,-0.05037394,1.2068151,0.75927943,0.039998885,0.04,0.034908618552620396,-0.0009338516577903078,0.006474378945364734,0.014639295332528456,0.35836667317454085,-0.060635764811302985,0.9199312681634911,0.0005951803225825263,-0.3825348527854613,-0.08598368461458326
2082.016666665566,-0.2014293,-0.53338975,0.26307136,-2.515546,-0.050783634,1.2038579,0.7590625,0.039998885,0.04,0.03570679479512062,-0.0010414599860134044,0.0070361819103137435,0.014726304214582982,0.3573269424708425,-0.060139252956020614,0.9186534819510479,0.0005991453106187787,-0.385492740876279,-0.08643360374186956
2082.033333332233,-0.20304546,-0.5313745,0.26518518,-2.5168242,-0.051192105,1.2009101,0.75884616,0.03999888,0.04,0.03463445323437231,-0.0010765342772348085,0.008256759033686834,0.014809661314616031,0.35624028148538733,-0.05964035682962711,0.9173701192457919,0.0006022899635719839,-0.38843767216704017,-0.08687851519916842
2082.0499999988997,-0.20465659,-0.5293656,0.2672925,-2.518098,-0.051599324,1.1979717,0.7586306,0.03999887,0.04,0.03551956114973276,-0.0012195665732669947,0.009164050169307991,0.01489029231996118,0.3551105165473768,-0.05913948321166319,0.9160815371609332,0.0006047431200716302,-0.39136905299525804,-0.0873184740831817
2082.0666666655666,-0.20626245,-0.527363,0.26939318,-2.5193682,-0.052005246,1.1950414,0.75841564,0.039998867,0.04,0.035141710808517246,-0.001316086863015209,0.007896302323606719,0.014968739062310473,0.3539376089357873,-0.05863464392159143,0.9147875042518562,0.0006064602302688606,-0.3942876963186572,-0.08775344325082457
2082.0833333322335,-0.20786291,-0.52536714,0.27148676,-2.5206337,-0.052409813,1.192122,0.75820136,0.03999886,0.04,0.03504889958361179,-0.0012828582518026321,0.010852561515051207,0.015043462194262728,0.3527129568357158,-0.05812738190196616,0.9134889046524799,0.0006073849807180235,-0.3971918232287682,-0.08818337553362689
2082.0999999989003,-0.20945778,-0.52337825,0.2735732,-2.5218952,-0.05281298,1.1892128,0.75798786,0.03999885,0.04,0.03459288306126851,-0.0013916122386062324,0.010086010394871892,0.01511589363321931,0.3514490073663693,-0.05761806952308715,0.9121856928386789,0.0006075614106931533,-0.4000818098542476,-0.0886083408788426
2082.116666665567,-0.21104687,-0.5213967,0.2756521,-2.5231516,-0.05321472,1.1863132,0.75777495,0.03999884,0.04,0.035779089992948876,-0.0015367696866552816,0.01073330194862887,0.0151851626925028,0.3501407899416913,-0.057106442614300396,0.9108781153572924,0.0006069651313505223,-0.4029573880755023,-0.08902827613654847
2082.133333332234,-0.21262991,-0.51942253,0.27772334,-2.5244036,-0.053614967,1.1834245,0.75756305,0.039998837,0.04,0.03452273869875011,-0.0016013473945239443,0.011474879459427711,0.015251970764166307,0.34878727123713227,-0.056592357283021005,0.909566503181685,0.0006056582342721922,-0.40581807412564325,-0.08944327912648901
2082.149999998901,-0.21420683,-0.51745594,0.27978662,-2.525651,-0.054013666,1.1805472,0.75735193,0.039998833,0.04,0.034160129515070636,-0.0015409348197437112,0.011993600333681798,0.015315579253022758,0.34738862477899424,-0.056075413566191515,0.9082511214790432,0.000603565322106447,-0.4086635872129191,-0.08985326108289468
2082.166666665568,-0.21577735,-0.51549727,0.28184167,-2.5268927,-0.054410756,1.1776813,0.75714165,0.03999883,0.04,0.035326476702701726,-0.0018587418839963177,0.013331293598040084,0.015377183529554108,0.34594649775350234,-0.05555597321215407,0.9069323961440842,0.0006006770401284564,-0.4114932756764928,-0.09025825216828352
2082.1833333322347,-0.21734132,-0.51354676,0.28388816,-2.5281298,-0.054806203,1.1748271,0.7569322,0.03999883,0.04,0.03382149290651615,-0.0016078559964938233,0.012482094876997696,0.015436756229408025,0.3444645357343844,-0.05503493418375424,0.9056103443085245,0.0005970450142375421,-0.4143074196798483,-0.09065820325195453
2082.1999999989016,-0.21889853,-0.5116044,0.28592598,-2.529362,-0.05519995,1.1719859,0.7567237,0.03999882,0.04,0.033472991628280546,-0.0017952547082797365,0.014117885630948734,0.015491214330849127,0.3429346491762435,-0.05451289537244659,0.9042854694250937,0.0005925896985036436,-0.4171052106550964,-0.0910531815394421
2082.2166666655685,-0.22044882,-0.5096707,0.28795493,-2.5305884,-0.055591963,1.1691569,0.75651616,0.03999882,0.04,0.0343675350300332,-0.0019942677624784633,0.014501909260145052,0.0155446380556397,0.3413654756217945,-0.05398866737015809,0.9029579958412316,0.000587346600044529,-0.419886473312512,-0.09144321899156285
2082.2333333322354,-0.221992,-0.5077458,0.28997466,-2.5318096,-0.05598219,1.1663406,0.75630945,0.03999882,0.04,0.03360570945400987,-0.0018841937224831073,0.014392169215193817,0.015595239592402778,0.3397529938102667,-0.05346288415419153,0.9016281057272458,0.0005812977288944812,-0.42265114744058374,-0.09182825612417363
2082.2499999989022,-0.22352792,-0.50583,0.29198492,-2.5330255,-0.05637059,1.1635376,0.7561038,0.039998814,0.04,0.03309358817882302,-0.0018587548914414387,0.015052550189398328,0.01564261247016531,0.33809804095145357,-0.05293645769307399,0.9002961316285025,0.0005745417767547052,-0.4253988356599605,-0.09220832877593312
2082.266666665569,-0.22505642,-0.5039233,0.2939856,-2.5342352,-0.056757122,1.1607482,0.7558992,0.03999882,0.04,0.033582486126748634,-0.0021326981500313646,0.016403248428853434,0.015686649919384163,0.33639936828365036,-0.05240779297274214,0.8989624804137648,0.0005669737225691491,-0.4281289942475688,-0.09258348467029562
2082.283333332236,-0.22657725,-0.5020259,0.29597637,-2.5354388,-0.057141736,1.1579723,0.75569546,0.039998814,0.04,0.03335612016517331,-0.0021490662542533734,0.016454517319186568,0.01572810522735984,0.3346613053740325,-0.051878846873045614,0.8976273200196672,0.000558555473587106,-0.43084161821594386,-0.09295365718012233
2082.299999998903,-0.22809023,-0.5001385,0.2979571,-2.5366356,-0.057524394,1.1552106,0.75549275,0.03999881,0.04,0.033631396266287084,-0.002321817679455662,0.017587820641773444,0.015767023454493528,0.33288091027195044,-0.051349573889098374,0.8962911966337591,0.0005493143023349961,-0.4335358751708304,-0.09331899072795169
2082.3166666655698,-0.22959523,-0.49826095,0.29992744,-2.5378268,-0.057905044,1.1524634,0.7552911,0.039998807,0.04,0.0320125979201169,-0.0020707881078260715,0.016955416436870152,0.015803951308307723,0.3310633721106472,-0.0508188861578864,0.8949541003107557,0.00053930749257705,-0.43621214824115095,-0.09367939587355648
2082.3333333322366,-0.23109208,-0.49639344,0.30188724,-2.5390115,-0.05828365,1.149731,0.7550906,0.0399988,0.04,0.03237462577561079,-0.0022495760417087785,0.018017220286514757,0.01583743179646869,0.3292041355219623,-0.05028824940255026,0.8936164445757037,0.0005285316972378815,-0.43886991435952916,-0.09403493450937835
2082.3499999989035,-0.23258054,-0.49453625,0.30383614,-2.54019,-0.058660176,1.1470137,0.7548912,0.039998792,0.04,0.03180302378786859,-0.0021815303682504172,0.018037241918666957,0.01586803194313731,0.32730449279752727,-0.049756842759080905,0.8922784402362627,0.0005170046785530248,-0.44150909337723404,-0.09438558290818296
2082.3666666655704,-0.23406057,-0.49268964,0.3057741,-2.541361,-0.059034567,1.1443117,0.75469303,0.03999879,0.04,0.032528215074889566,-0.0024537589432951923,0.01969812582567343,0.01589577338705584,0.32536379300108276,-0.04922438629372443,0.8909406334049543,0.0005047225885824676,-0.44412890952671286,-0.09473143472839646
2082.3833333322373,-0.23553188,-0.49085388,0.3077008,-2.5425255,-0.05940677,1.1416254,0.75449586,0.039998785,0.04,0.031449719563991785,-0.002381699772877055,0.01927002980943726,0.01592152613902261,0.3233879619952457,-0.048691642883161704,0.8896031659221281,0.0004915964058089238,-0.44672944281842386,-0.09507244834041602
2082.399999998904,-0.23699439,-0.48902896,0.30961606,-2.5436828,-0.059776757,1.1389554,0.75429976,0.03999878,0.04,0.03126292001736086,-0.002386844317479875,0.020234394673601663,0.015945078008434588,0.3213728302328247,-0.04815902918718929,0.8882664114204811,0.0004776499389802896,-0.4493103031866733,-0.095408624573548
2082.416666665571,-0.23844786,-0.48721525,0.31151962,-2.5448332,-0.06014448,1.1363012,0.75410503,0.039998777,0.04,0.030975501199015376,-0.0024327455782846563,0.019808356592487808,0.015966338785262706,0.31932126977405473,-0.04762694597618877,0.8869304735017061,0.00046304384062044023,-0.45187162068408504,-0.09574006050123168
2082.433333332238,-0.23989214,-0.48541284,0.31341144,-2.5459762,-0.0605099,1.133664,0.7539115,0.039998773,0.04,0.030525098904954362,-0.0025881192563706468,0.02125948262712285,0.015984513429722444,0.317230281152699,-0.04709391411351209,0.8855959010006874,0.00044758092517777797,-0.45441266339651126,-0.09606680564578453
2082.449999998905,-0.24132708,-0.483622,0.31529105,-2.547112,-0.06087298,1.1310436,0.7537192,0.039998773,0.04,0.03020951293599694,-0.002398949739382261,0.02081898198845744,0.016001549054272615,0.31510348666507104,-0.046560901071035304,0.8842627993082925,0.00043142368997017903,-0.4569336043140922,-0.09638877985323045
2082.4666666655717,-0.2427525,-0.48184302,0.31715834,-2.5482404,-0.06123367,1.1284404,0.7535282,0.03999877,0.04,0.029868247559838856,-0.0025176563276538277,0.02157056863707485,0.016015208074161135,0.3129386440296422,-0.046028439481170184,0.8829315671020316,0.0004145182171117219,-0.4594340144495983,-0.0967060616307197
2082.4833333322385,-0.2441683,-0.480076,0.31901318,-2.549361,-0.061591934,1.1258547,0.75333834,0.039998766,0.04,0.02980847132068032,-0.002623542847518534,0.02233606801606003,0.016026816854181804,0.3107395480126426,-0.04549646521551491,0.8816025568391546,0.00039681721025167354,-0.46191357523490695,-0.09701867513253822
2082.4999999989054,-0.24557431,-0.47832108,0.32085526,-2.550474,-0.061947737,1.123287,0.7531499,0.039998762,0.04,0.02909067874550253,-0.0025040728769021303,0.022381901322110487,0.016036171152862433,0.3085039151477087,-0.04496491793951661,0.880276005203168,0.0003784663352305525,-0.46437219394136203,-0.09732665061981434
2082.5166666655723,-0.24697034,-0.47657862,0.32268447,-2.5515792,-0.062301032,1.120737,0.7529629,0.039998762,0.04,0.028879332331932517,-0.002612620723888015,0.022355277195507117,0.016043195156172158,0.3062346258684305,-0.04443380590114045,0.8789521177274823,0.0003594316807421773,-0.4668098319211332,-0.09763004851481225
2082.533333332239,-0.24835627,-0.4748486,0.32450044,-2.5526767,-0.06265178,1.1182051,0.75277704,0.039998762,0.04,0.028456780877905707,-0.0025265803448165647,0.022924336592411443,0.016047902452854812,0.30392870318448123,-0.04390235580542938,0.8776312000748454,0.00033966699268655467,-0.4692262984513817,-0.09792876044929688
2082.549999998906,-0.24973197,-0.4731314,0.32630318,-2.553766,-0.06299997,1.1156919,0.7525925,0.03999876,0.04,0.028173600960990086,-0.0026407091811855854,0.02363893947188167,0.016049519711552433,0.3015865278701828,-0.04337283735856845,0.8763136872004598,0.0003191827650011797,-0.4716211106450443,-0.09822294915869739
2082.566666665573,-0.25109723,-0.47142705,0.3280924,-2.554847,-0.063345544,1.113198,0.75240946,0.03999876,0.04,0.02767884694063749,-0.002661403003303975,0.024352747314715373,0.01605020698818982,0.2992124425181343,-0.04284377129903352,0.8749999627544468,0.0002980231577094846,-0.4739939188958576,-0.09851264493282658
2082.58333333224,-0.25245193,-0.46973577,0.32986793,-2.5559196,-0.06368844,1.1107233,0.7522279,0.039998755,0.04,0.027405591248963468,-0.002699618649851243,0.024226355609013872,0.016048678484883745,0.296807135356026,-0.042315292799064694,0.8736901783523775,0.0002762228474007238,-0.47634480974727933,-0.09879786525202615
2082.5999999989067,-0.25379595,-0.4680578,0.3316295,-2.5569842,-0.06402867,1.1082677,0.7520476,0.03999875,0.04,0.026844997273922644,-0.002545965496000835,0.02406977372215735,0.016044797140272293,0.2943699984501277,-0.04178803907639504,0.8723845336049098,0.0002537487585548244,-0.47867379230776486,-0.09907856325267561
2082.6166666655736,-0.25512922,-0.46639323,0.33337703,-2.5580409,-0.06436618,1.1058317,0.7518687,0.039998747,0.04,0.02597135103796777,-0.0025085853181228135,0.024152064036320198,0.016038763734522045,0.291897433587495,-0.041261987948680245,0.8710832625805746,0.00023067217864119487,-0.4809807904500413,-0.09935479686648889
2082.6333333322405,-0.25645137,-0.4647423,0.33511037,-2.5590894,-0.064700924,1.103416,0.75169146,0.039998747,0.04,0.025648604190320334,-0.0027087828495003796,0.024756576211937276,0.016030186973867364,0.28939079246688604,-0.04073701410325846,0.8697867585366647,0.0002069574520000852,-0.48326541937866524,-0.09962673474353001
2082.6499999989073,-0.2577624,-0.46310514,0.33682925,-2.5601275,-0.06503288,1.1010201,0.75151575,0.039998747,0.04,0.02740111705974435,-0.003001782869409275,0.02727855428281689,0.016019913001957813,0.28685208106616955,-0.04021254562463704,0.8684957390995255,0.00018263466291320297,-0.48552676278811085,-0.09989434632173379
2082.666666665574,-0.25906235,-0.46148193,0.33853352,-2.5611575,-0.06536199,1.0986445,0.7513415,0.039998747,0.04,0.024800589138540552,-0.002474221026997625,0.02485717760575268,0.016008517474725193,0.2842896533139499,-0.03968936590175157,0.8672099225079112,0.00015780753589015676,-0.48776570740460823,-0.10015757625205544
2082.683333332241,-0.2603509,-0.45987287,0.34022304,-2.5621781,-0.065688245,1.0962898,0.7511686,0.039998747,0.04,0.025186430995605136,-0.002772574951251383,0.02659405625056177,0.015994013828242032,0.28169388602683165,-0.0391672928800388,0.8659299541831028,0.00013228347047263372,-0.48998145328667747,-0.10041649458434825
2082.699999998908,-0.26162797,-0.458278,0.34189764,-2.5631902,-0.066011615,1.0939556,0.75099725,0.039998747,0.04,0.024220844061595415,-0.0026268234521814593,0.02563862563433883,0.01597853224244765,0.27907119988886503,-0.03864772124917776,0.8646557756741896,0.00010621562311520749,-0.4921744577929043,-0.10067115479504314
2082.716666665575,-0.26289344,-0.45669755,0.34355712,-2.564193,-0.06633206,1.0916427,0.75082743,0.039998744,0.04,0.024205971567958784,-0.0027014906370165237,0.026823773550943564,0.01596070265305119,0.27641702378346744,-0.038129640138645865,0.8633879282809265,7.960480305573349e-05,-0.4943441221647402,-0.10092159255093808
2082.7333333322417,-0.26414704,-0.4551319,0.34520125,-2.565187,-0.06664954,1.0893513,0.7506593,0.039998744,0.04,0.0234305905975285,-0.002645037230329661,0.026427258726569036,0.0159413230545048,0.2737346734801013,-0.03761287812211473,0.862126603883232,5.250892991452845e-05,-0.49649045741345144,-0.10116788925819624
2082.7499999989086,-0.26538876,-0.45358086,0.34683004,-2.5661707,-0.06696405,1.0870814,0.75049275,0.039998744,0.04,0.023975756415017813,-0.0029073146310773512,0.028112216696019043,0.015920100367522373,0.27102525860978516,-0.03709722967259164,0.860872309676498,2.4843391680994258e-05,-0.4986129335136715,-0.10141009983206171
2082.7666666655755,-0.2666185,-0.4520447,0.34844324,-2.567145,-0.06727551,1.0848334,0.7503278,0.039998744,0.04,0.02271929902948333,-0.0026886158423111706,0.027165535515671912,0.015898507941721554,0.26829303869004906,-0.03658331485151405,0.8596250949945511,-3.3074321495890016e-06,-0.5007118359408158,-0.10164818440802413
2082.7833333322424,-0.26783618,-0.45052359,0.35004058,-2.5681107,-0.0675839,1.0826073,0.75016445,0.039998744,0.04,0.021907446005275943,-0.0024658113709885576,0.02667625621909364,0.015875035267329276,0.26553379222171014,-0.03607127568973688,0.8583850788433103,-3.1876338778544325e-05,-0.5027873230562004,-0.10188210430219288
2082.7999999989092,-0.26904178,-0.4490177,0.35162213,-2.5690665,-0.06788925,1.0804031,0.7500027,0.039998747,0.04,0.022315516745274877,-0.0026795532590898063,0.027729014730359935,0.015848608951842424,0.2627454647563251,-0.035561227605214504,0.8571526900688327,-6.086906917169867e-05,-0.5048389825856084,-0.1021120162598303
2082.816666665576,-0.27023488,-0.44752714,0.35318768,-2.5700123,-0.06819148,1.0782212,0.7498426,0.039998744,0.04,0.021902922789274193,-0.002860408254644342,0.02819974228029931,0.015820344391745404,0.2599326243745481,-0.035053252460661044,0.8559282663365747,-9.036607428842618e-05,-0.5068665798524268,-0.10233799367166511
2082.833333332243,-0.2714157,-0.44605196,0.35473704,-2.5709484,-0.06849058,1.076062,0.749684,0.03999874,0.04,0.02108937884526263,-0.002561635048606292,0.028117670990734922,0.015791942433436783,0.2570960336264221,-0.03454655113590989,0.8547120142393715,-0.00012029473219958968,-0.5088701413288925,-0.10255992154816869
2082.84999999891,-0.27258387,-0.44459233,0.35626993,-2.571875,-0.06878654,1.0739256,0.7495273,0.03999874,0.04,0.02023272819164923,-0.002513681506181864,0.02768975468724344,0.01576178063941095,0.25423518836531234,-0.03404282033770041,0.8535040806129109,-0.0001505215058562992,-0.5108497364269081,-0.10277795733008335
2082.8666666655768,-0.27373946,-0.44314852,0.3577864,-2.5727913,-0.06907931,1.0718125,0.7493722,0.03999874,0.04,0.020682556681705933,-0.0027092955615981573,0.02921484027336163,0.015729439199656765,0.2513505721991889,-0.033540220475769954,0.8523050724889669,-0.0001811559314878286,-0.5128046946665978,-0.10299211484382059
2082.8833333322436,-0.27488226,-0.44172043,0.3592863,-2.5736976,-0.06936887,1.0697222,0.74921894,0.03999874,0.04,0.019990979872885895,-0.0027003499791233843,0.02833229403896853,0.01569641840891994,0.24844709083632388,-0.03304018350207707,0.8511148770613308,-0.0002121063300114788,-0.5147355337822801,-0.10320247728447084
2082.8999999989105,-0.2760122,-0.44030836,0.36076954,-2.5745938,-0.06965521,1.0676554,0.7490673,0.03999874,0.04,0.019302356615469307,-0.002594486878400304,0.028800763829428533,0.01566191497534699,0.24551972584490236,-0.03254173181430076,0.8499339398559584,-0.0002434511101846557,-0.5166418572856764,-0.10340904173664751
2082.9166666655774,-0.2771293,-0.43891236,0.3622359,-2.5754797,-0.06993831,1.0656121,0.7489176,0.039998744,0.04,0.019166117581415065,-0.0025590544786360803,0.0288634389909892,0.01562648132071027,0.24257139888072538,-0.0320454416831959,0.8487624264504903,-0.00027499540003110757,-0.5185237202641737,-0.10361186875453432
2082.9333333322443,-0.2782334,-0.43753257,0.3636852,-2.5763557,-0.07021811,1.0635922,0.7487694,0.039998744,0.04,0.018543998094688874,-0.0024702037641627372,0.02860197880378834,0.015589326859355459,0.23960392684717152,-0.03155100555698344,0.8476005005340674,-0.00030683370151798423,-0.520381212065924,-0.10381084469494355
2082.949999998911,-0.27932432,-0.43616894,0.3651176,-2.5772212,-0.07049461,1.0615966,0.7486229,0.039998744,0.04,0.0179783586989668,-0.002751017004436196,0.029615876286859244,0.01555006314420622,0.23661451398762662,-0.03105962010610492,0.8464486212098735,-0.000339128563330614,-0.5222138677245162,-0.10400621616001247
2082.966666665578,-0.28040206,-0.43482175,0.36653283,-2.578076,-0.07076777,1.0596247,0.7484782,0.039998733,0.04,0.018261193595270342,-0.002632545350936266,0.029361873615263434,0.015511869888765102,0.23360856589368467,-0.0305707766296653,0.8453068994636515,-0.0003716308293238364,-0.5240218484732685,-0.10419793631513985
2082.983333332245,-0.28146657,-0.4334911,0.36793077,-2.5789204,-0.07103758,1.0576769,0.7483353,0.039998733,0.04,0.017183729578862383,-0.002482197178237111,0.02912095822342753,0.015472217080321107,0.23058474260561157,-0.030084409702779324,0.8441755340752112,-0.0004043097226733596,-0.5258051486666752,-0.10438606151252076
2082.999999998912,-0.28251767,-0.43217704,0.36931124,-2.579754,-0.07130404,1.0557536,0.74819404,0.039998733,0.04,0.017002877969973795,-0.0025497371033522676,0.029739777677306733,0.015431265497397246,0.22754224943394336,-0.029599724488845316,0.8430548704339547,-0.00043729566380297806,-0.5275635425145536,-0.10457056382933556
2083.0166666655787,-0.28355536,-0.43087968,0.3706742,-2.5805774,-0.071567126,1.0538547,0.7480546,0.039998733,0.04,0.016461293052261183,-0.0024535061892400067,0.029390456152200706,0.015390052309344114,0.22448516269299898,-0.029118847188004105,0.8419450249567146,-0.0004704276090468926,-0.5292971450265103,-0.10475154373701288
2083.0333333322455,-0.2845795,-0.4295992,0.37201956,-2.58139,-0.0718268,1.0519805,0.74791706,0.039998733,0.04,0.01615935076528796,-0.0025494528847161413,0.029728737269019145,0.015347373760622172,0.22141243329634056,-0.028639936446541978,0.8408463024544728,-0.0005037344631505976,-0.5310057738864358,-0.10492907127912332
2083.0499999989124,-0.28559014,-0.42833555,0.37334728,-2.5821924,-0.07208306,1.0501308,0.7477813,0.039998733,0.04,0.01522960885003144,-0.0023125952250430126,0.028759017313584323,0.015304617357345209,0.2183255617580952,-0.0281635399319002,0.8397586141867887,-0.0005371451876591724,-0.5326898876279801,-0.10510311600053267
2083.0666666655793,-0.28658727,-0.42708883,0.3746572,-2.5829835,-0.07233589,1.0483056,0.7476473,0.03999873,0.04,0.016005741631874848,-0.0025232485216616918,0.03023542814947211,0.015259396771367291,0.21522038564959936,-0.027689683224820738,0.8386824730126337,-0.0005706429506423075,-0.5343489785888044,-0.1052737047374005
2083.083333332246,-0.2875706,-0.42585924,0.3759493,-2.5837636,-0.072585255,1.0465056,0.74751514,0.03999872,0.04,0.014952897291964362,-0.0025226483928400545,0.03004207324808217,0.01521375169235746,0.2121025891907749,-0.027218381764841332,0.8376181304927651,-0.0006042846688021305,-0.5359829340757701,-0.10544096305218746
2083.099999998913,-0.2885402,-0.42464665,0.3772234,-2.5845332,-0.07283116,1.0447305,0.74738485,0.03999872,0.04,0.014160124431406018,-0.0022903548489147663,0.02933835819305397,0.015168023433948317,0.20897397776567717,-0.026749844549178607,0.8365655291518445,-0.0006379791059093323,-0.537592155397984,-0.10560484303337991
2083.11666666558,-0.28949606,-0.4234513,0.3784795,-2.5852914,-0.07307356,1.0429807,0.7472565,0.03999872,0.04,0.01454000307914427,-0.0024910452949764017,0.030405477035944095,0.0151210325351007,0.2058316414143131,-0.026283983079440108,0.8355251556039199,-0.0006716720508588144,-0.5391761606266443,-0.10576545287385826
2083.133333332247,-0.290438,-0.4222732,0.37971765,-2.5860393,-0.07331247,1.0412562,0.74713,0.03999872,0.04,0.013098425785407208,-0.0023209273822197285,0.029102196806207736,0.015073379344120761,0.20268060931570067,-0.02582069720733439,0.8344968713176155,-0.0007054772602289145,-0.5407354501908226,-0.10592283497846237
2083.1499999989137,-0.29136598,-0.42111245,0.38093758,-2.586776,-0.07354787,1.039557,0.7470053,0.039998725,0.04,0.013563280314876636,-0.0023791841091871935,0.030022129120332863,0.015025980073528025,0.199516569950335,-0.025359482270310412,0.8334810772743776,-0.0007392946703979965,-0.5422696938200516,-0.10607698352253772
2083.1666666655806,-0.2922802,-0.41996902,0.38213924,-2.5875025,-0.07377975,1.0378828,0.74688244,0.03999873,0.04,0.01256177927257962,-0.002068171045171985,0.028691277274806026,0.014978156357901295,0.19634403692298075,-0.024901654920474144,0.8324775646378477,-0.0007729807356443586,-0.5437795083020016,-0.1062278364001354
2083.1833333322475,-0.29318032,-0.418843,0.38332266,-2.588217,-0.07400811,1.0362344,0.74676144,0.03999873,0.04,0.013055616708723683,-0.0025060560416470534,0.030943165046659615,0.014927296249986363,0.19315799637885042,-0.02444666645927448,0.8314871204460117,-0.0008067403343343535,-0.5452639275459537,-0.10637559409748834
2083.1999999989143,-0.2940665,-0.41773432,0.38448778,-2.5889206,-0.07423292,1.0346113,0.7466423,0.03999873,0.04,0.012128968780533711,-0.0022310215872234362,0.02953763142866661,0.014877414567301288,0.18996874141876025,-0.02399484913911437,0.830509500728771,-0.0008404347747935603,-0.5467236154112238,-0.1065201916085258
2083.216666665581,-0.29493847,-0.41664317,0.3856345,-2.589613,-0.074454196,1.0330139,0.74652505,0.03999873,0.04,0.011899623383659907,-0.0023197811200345586,0.02985759577118774,0.014826775901867931,0.18677053173192681,-0.023546133714878757,0.8295450016319632,-0.0008740931441471012,-0.5481583688219723,-0.10666175002800274
2083.233333332248,-0.29579642,-0.41556957,0.38676283,-2.5902946,-0.07467195,1.0314423,0.7464097,0.03999873,0.04,0.011136491763763523,-0.0020866073430228504,0.029280659275610077,0.014776161827995982,0.18356661887991932,-0.023100235995333625,0.828593649927748,-0.0009076178396107154,-0.5495684154266107,-0.10680026355189429
2083.249999998915,-0.29664022,-0.4145136,0.3878727,-2.590965,-0.07488609,1.0298964,0.7462963,0.03999873,0.04,0.011136276436007897,-0.002264331017162724,0.029724204684211664,0.014724441355355868,0.18035541684022888,-0.022657264635075867,0.8276557114101278,-0.0009410347723774958,-0.5509536088397073,-0.10693576918064093
2083.266666665582,-0.29747,-0.41347525,0.38896418,-2.591624,-0.07509669,1.0283761,0.7461847,0.03999873,0.04,0.011035475529386218,-0.0021888304502268308,0.029833000750867367,0.014672527461130255,0.17714019232366068,-0.02221720694356493,0.8267313329201915,-0.0009743012486411797,-0.5523139784877162,-0.10706831030772304
2083.2833333322487,-0.29828557,-0.41245458,0.39003715,-2.592272,-0.07530372,1.0268823,0.746075,0.03999873,0.04,0.009892412162826325,-0.0021017176666776605,0.02967260852446696,0.014620144143735123,0.1739216298213063,-0.0217800664591469,0.8258207375625551,-0.0010074884422599634,-0.5536494356631464,-0.10719793266922553
2083.2999999989156,-0.29908702,-0.41145152,0.3910916,-2.5929084,-0.075507134,1.0254126,0.7459672,0.039998736,0.04,0.011352986539669985,-0.0023155432990529246,0.029004859755388246,0.01456887784404763,0.1707015574900761,-0.021345952679882086,0.8249235660760673,-0.0010403563522002068,-0.5549607683226064,-0.10732461699809125
2083.3166666655825,-0.2998743,-0.41046607,0.39212745,-2.593534,-0.07570698,1.0239697,0.74586135,0.039998736,0.04,0.008806864371568857,-0.0019220205415351743,0.029407069106013317,0.014514985090158482,0.16747435299563235,-0.020914716736790465,0.8240404129257628,-0.0010730677593285946,-0.5562473202908148,-0.10744842976986638
2083.3333333322494,-0.30064735,-0.40949836,0.39314494,-2.594148,-0.07590322,1.0225528,0.74575734,0.039998736,0.04,0.009597021403773276,-0.0022874337499020903,0.02998812922493377,0.014460731415453933,0.16424735255913858,-0.020486721898581674,0.8231714730544083,-0.0011056791071520002,-0.5575090203967019,-0.10756949195500258
2083.3499999989162,-0.3014062,-0.4085483,0.39414373,-2.5947511,-0.07609589,1.021162,0.7456552,0.03999874,0.04,0.00863757318190217,-0.0018829493007299636,0.028718475161648715,0.014409071466993377,0.16102359830546764,-0.020062052194178524,0.8223165431055912,-0.0011380445087747588,-0.558746427330881,-0.10768768608593486
2083.366666665583,-0.302151,-0.40761584,0.39512396,-2.5953424,-0.07628496,1.019797,0.7455551,0.039998744,0.04,0.009263906294076918,-0.0020970750241197655,0.029852668183949493,0.01435592295164358,0.1577976317250238,-0.019641008377778824,0.8214759764264966,-0.0011700533979894373,-0.5599592261100201,-0.10780313642676208
2083.38333333225,-0.3028816,-0.4067012,0.39608562,-2.5959234,-0.07647043,1.0184579,0.74545693,0.03999874,0.04,0.007759875574708808,-0.0018371892743493379,0.027968991854132597,0.014301357670906081,0.15457625359299704,-0.01922278293995319,0.8206495240152696,-0.0012017532245187131,-0.5611480045043176,-0.107915854087902
2083.399999998917,-0.30359808,-0.40580422,0.39702874,-2.5964925,-0.07665233,1.0171446,0.7453606,0.03999874,0.04,0.008662643569068429,-0.002077983848017273,0.0296606760799345,0.014246242742256048,0.15135313505526182,-0.018807460057821405,0.8198376330257772,-0.0012331901071778216,-0.5623123193107601,-0.10802587777104418
2083.4166666655838,-0.30430028,-0.4049249,0.39795336,-2.597051,-0.07683068,1.0158572,0.74526614,0.03999874,0.04,0.007412797346151301,-0.001924240826965684,0.02833066594490896,0.01419116536503931,0.1481361730927807,-0.018395958325171255,0.8190401352910703,-0.0012643959150143054,-0.5634526169402847,-0.10813328141002737
2083.4333333322506,-0.30498832,-0.40406325,0.39885938,-2.5975976,-0.077005416,1.0145957,0.7451736,0.03999874,0.04,0.007846205574058018,-0.002003593252745961,0.029254508800324874,0.01413743978568428,0.14492251129632325,-0.017987372462778477,0.8182573644739539,-0.0012952732908101305,-0.5645686275299341,-0.10823803656851703
2083.4499999989175,-0.3056622,-0.40321928,0.39974698,-2.5981336,-0.0771766,1.0133599,0.7450829,0.039998736,0.04,0.007039018838805866,-0.0018765278110274841,0.027933916723632546,0.014082385348880433,0.14171607366455508,-0.017582880015305627,0.8174890621592702,-0.001325815234250811,-0.5656609097348869,-0.10834025411554944
2083.4666666655844,-0.30632213,-0.40239283,0.40061617,-2.598658,-0.07734423,1.0121499,0.7449941,0.039998733,0.04,0.0070356924232628515,-0.001869827077534414,0.028795154905902898,0.014027618511028723,0.13851291469544558,-0.017181050090064376,0.8167355460880866,-0.0013560125556903839,-0.5667292105437279,-0.10843989534588666
2083.4833333322513,-0.3069679,-0.40158388,0.40146685,-2.5991716,-0.0775083,1.0109657,0.7449072,0.039998736,0.04,0.006494215508157097,-0.0018127358720962383,0.02808498935803483,0.013972711170491854,0.13531814166548592,-0.016782932896682652,0.8159967307521347,-0.0013858448170279499,-0.5677738419861762,-0.10853699457893565
2083.499999998918,-0.30759966,-0.40079242,0.40229914,-2.599674,-0.077668816,1.0098069,0.74482214,0.039998733,0.04,0.006595552070498556,-0.0018645814221618373,0.028066966637818602,0.01391734122300365,0.13213091167601332,-0.01638874755779942,0.81527265865522,-0.0014153006916049471,-0.5687949248954258,-0.10863159018631863
