rsonawane2002/My_IMU/logs_2/traj_439/imu_400hz_439.csv
time,j1,j2,j3,j4,j5,j6,j7,gripper1,gripper2,imu_ax,imu_ay,imu_az,imu_gx,imu_gy,imu_gz
0.0,0.00016700293,-0.785875,4.0107683e-05,-2.3551247,9.29385e-05,1.570997,0.786,0.04,0.04,-9.467896,0.0019918594043701,0.10521308,2.992921e-07,-0.0011641274904832,3.15079e-07
0.0025,0.00016700248,-0.7858577740000002,4.010979604999998e-05,-2.35513919,9.294361949999993e-05,1.570996565,0.786,0.04,0.04,-9.5228847999993,0.0017901319311956535,0.09079186550018363,2.4425293300070085e-07,-0.0013250712596324858,3.6039106899942304e-07
0.005,0.00016700203,-0.7858405480000005,4.011190909999995e-05,-2.35515368,9.294873899999987e-05,1.57099613,0.786,0.04,0.04,-9.577873599998599,0.001588404458021207,0.07637065100036725,1.8921376600140164e-07,-0.0014860150287817715,4.057031379988461e-07
0.0075,0.00016700158000000002,-0.7858233220000007,4.011402214999992e-05,-2.35516817,9.29538584999998e-05,1.5709956950000001,0.786,0.04,0.04,-9.632862399997899,0.0013866769848467607,0.061949436500550875,1.3417459900210246e-07,-0.0016469587979310572,4.5101520699826914e-07
0.01,0.00016700113000000003,-0.785806096000001,4.011613519999989e-05,-2.3551826599999997,9.295897799999974e-05,1.5709952600000001,0.786,0.04,0.04,-9.6878511999972,0.0011849495116723141,0.0475282220007345,7.913543200280326e-08,-0.0018079025670803429,4.963272759976922e-07
0.0125,0.00016700068000000004,-0.7857888700000011,4.0118248249999866e-05,-2.355197149999999,9.296409749999966e-05,1.570994825,0.786,0.04,0.04,-9.7428399999965,0.0009832220384978678,0.03310700750091812,2.4096265003504084e-08,-0.0019688463362296286,5.416393449971152e-07
0.015,0.00016700023000000002,-0.7857716440000013,4.0120361299999835e-05,-2.355211639999999,9.29692169999996e-05,1.57099439,0.786,0.04,0.04,-9.797828799995798,0.0007814945653234215,0.01868579300110175,-3.094290199579509e-08,-0.0021297901053789143,5.869514139965383e-07
0.0175,0.00016699779450000057,-0.7857548620000014,4.0124916799999156e-05,-2.355225734999999,9.297371229999971e-05,1.57099396,0.786,0.04,0.04,-9.834383850000028,0.0006475989270254424,0.008996321230020143,-7.53787209979296e-08,-0.002286105148946708,5.097865970287103e-07
0.02,0.00016699138800000066,-0.7857389680000016,4.0134357199999036e-05,-2.355239039999999,9.297695919999966e-05,1.5709935400000001,0.786,0.04,0.04,-9.834071400000033,0.0006493669585322199,0.00877033492002302,-9.860784399763381e-08,-0.0024331627413479804,1.87668008032812e-07
0.0225,0.00016698498150000073,-0.7857230740000019,4.014379759999892e-05,-2.3552523449999985,9.298020609999962e-05,1.57099312,0.786,0.04,0.04,-9.833758950000036,0.0006511349900389974,0.008544348610025898,-1.2183696699733803e-07,-0.002580220333749253,-1.3445058096308634e-07
0.025,0.00016697857500000082,-0.7857071800000021,4.01532379999988e-05,-2.3552656499999984,9.298345299999959e-05,1.5709927000000001,0.786,0.04,0.04,-9.83344650000004,0.0006529030215457749,0.008318362300028775,-1.4506608999704229e-07,-0.0027272779261505254,-4.5656916995898505e-07
0.0275,0.0001669721685000009,-0.7856912860000023,4.016267839999867e-05,-2.355278954999998,9.298669989999955e-05,1.57099228,0.786,0.04,0.04,-9.833134050000044,0.0006546710530525524,0.008092375990031653,-1.6829521299674648e-07,-0.002874335518551798,-7.786877589548835e-07
0.03,0.00016696576200000098,-0.7856753920000024,4.017211879999855e-05,-2.355292259999998,9.298994679999951e-05,1.5709918600000001,0.786,0.04,0.04,-9.832821600000047,0.0006564390845593298,0.00786638968003453,-1.9152433599645074e-07,-0.0030213931109530703,-1.1008063479507817e-06
0.0325,0.00016695935550000107,-0.7856594980000026,4.0181559199998434e-05,-2.3553055649999974,9.299319369999946e-05,1.57099144,0.786,0.04,0.04,-9.832509150000051,0.0006582071160661073,0.0076404033700374074,-2.1475345899615494e-07,-0.003168450703354343,-1.4229249369466807e-06
0.035,0.0001669425910000043,-0.7856444400000029,4.0204004099994314e-05,-2.3553180999999976,9.29936139000002e-05,1.57099101,0.786,0.04,0.04,-9.832207300000057,0.0006627228169224029,0.0074318827400392485,-2.662631799871031e-07,-0.003306385129663889,-2.1723107198108155e-06
0.0375,0.0001669206475000052,-0.7856298000000035,4.0232951249993153e-05,-2.355330249999997,9.299262075000024e-05,1.5709905750000002,0.786,0.04,0.04,-9.83191075000007,0.0006686123524545073,0.007232094950047244,-3.3191319998447577e-07,-0.0034397579729240862,-3.135330099772276e-06
0.04,0.00016689870400000606,-0.7856151600000041,4.026189839999199e-05,-2.3553423999999965,9.299162760000028e-05,1.5709901400000001,0.786,0.04,0.04,-9.831614200000082,0.0006745018879866116,0.007032307160055239,-3.975632199818487e-07,-0.003573130816184284,-4.098349479733739e-06
0.0425,0.00016687676050000696,-0.7856005200000047,4.029084554999084e-05,-2.355354549999996,9.299063445000031e-05,1.5709897050000001,0.786,0.04,0.04,-9.831317650000093,0.0006803914235187159,0.006832519370063233,-4.6321323997922157e-07,-0.003706503659444482,-5.061368859695202e-06
0.045,0.00016685481700000782,-0.7855858800000053,4.031979269998968e-05,-2.355366699999996,9.298964130000035e-05,1.57098927,0.786,0.04,0.04,-9.831021100000106,0.0006862809590508201,0.006632731580071229,-5.288632599765943e-07,-0.0038398765027046794,-6.024388239656662e-06
0.0475,0.0001668328735000087,-0.7855712400000059,4.0348739849988525e-05,-2.3553788499999952,9.298864815000038e-05,1.5709888350000003,0.786,0.04,0.04,-9.830724550000117,0.0006921704945829245,0.006432943790079224,-5.945132799739672e-07,-0.003973249345964877,-6.987407619618125e-06
0.05,0.00016681093000000958,-0.7855566000000065,4.0377686999987365e-05,-2.3553909999999947,9.298765500000043e-05,1.5709884000000003,0.786,0.04,0.04,-9.83042800000013,0.0006980600301150289,0.0062331560000872185,-6.601632999713401e-07,-0.004106622189225076,-7.950426999579589e-06
0.0525,0.00016675984900002156,-0.7855430925000058,4.044360764997218e-05,-2.3554021299999954,9.297907335000362e-05,1.5709879800000002,0.786,0.04,0.04,-9.830083600000146,0.0007067926635462847,0.006067619375069858,-7.923182799442297e-07,-0.004225588357025771,-9.82871424920735e-06
0.055,0.00016670876800002081,-0.7855295850000056,4.050952829997314e-05,-2.3554132599999953,9.29704917000035e-05,1.5709875600000003,0.786,0.04,0.04,-9.82973920000014,0.0007155252969787818,0.005902082750067449,-9.24473259946153e-07,-0.0043445545248201765,-1.1707001499234684e-05
0.0575,0.0001666576870000201,-0.7855160775000053,4.05754489499741e-05,-2.3554243899999956,9.296191005000337e-05,1.5709871400000002,0.786,0.04,0.04,-9.829394800000134,0.0007242579304112789,0.005736546125065039,-1.0566282399480762e-06,-0.004463520692614583,-1.3585288749262019e-05
0.06,0.00016660660600001934,-0.7855025700000051,4.064136959997506e-05,-2.355435519999996,9.295332840000324e-05,1.5709867200000003,0.786,0.04,0.04,-9.82905040000013,0.000732990563843776,0.005571009500062631,-1.188783219949999e-06,-0.004582486860408989,-1.5463575999289346e-05
0.0625,0.0001665555250000186,-0.7854890625000049,4.070729024997602e-05,-2.3554466499999958,9.294474675000311e-05,1.5709863000000002,0.786,0.04,0.04,-9.828706000000125,0.000741723197276273,0.005405472875060222,-1.3209381999519224e-06,-0.004701453028203396,-1.7341863249316684e-05
0.065,0.00016650444400001784,-0.7854755550000047,4.077321089997698e-05,-2.355457779999996,9.2936165100003e-05,1.57098588,0.786,0.04,0.04,-9.82836160000012,0.0007504558307087701,0.005239936250057813,-1.4530931799538455e-06,-0.004820419195997802,-1.9220150499344014e-05
0.0675,0.0001664379130000335,-0.7854623805000043,4.0858861799956987e-05,-2.355468569999996,9.292362500000702e-05,1.5709854500000002,0.786,0.04,0.04,-9.828046600000087,0.0007598992262463398,0.005070071725061373,-1.6021089899371771e-06,-0.004934611800090669,-2.148564489895492e-05
0.07,0.00016634048200003476,-0.7854498720000045,4.0983973199955394e-05,-2.355478679999996,9.290316800000729e-05,1.570985,0.786,0.04,0.04,-9.827790400000092,0.0007707641459962265,0.0048915514000636455,-1.7848464599348505e-06,-0.005039257276765872,-2.4525553598916213e-05
0.0725,0.00016624305100003598,-0.7854373635000046,4.11090845999538e-05,-2.3554887899999963,9.288271100000755e-05,1.5709845500000001,0.786,0.04,0.04,-9.827534200000095,0.000781629065746113,0.00471303107506592,-1.9675839299325228e-06,-0.005143902753441074,-2.7565462298877495e-05
0.075,0.00016614562000003723,-0.7854248550000048,4.123419599995221e-05,-2.355498899999996,9.286225400000781e-05,1.5709841000000002,0.786,0.04,0.04,-9.827278000000097,0.0007924939854959997,0.004534510750068193,-2.150321399930196e-06,-0.005248548230116276,-3.060537099883879e-05
0.0775,0.00016604818900003846,-0.7854123465000049,4.1359307399950616e-05,-2.355509009999996,9.284179700000806e-05,1.57098365,0.786,0.04,0.04,-9.8270218000001,0.0008033589052458864,0.0043559904250704655,-2.33305886992787e-06,-0.0053531937067914795,-3.3645279698800085e-05
0.08,0.0001659507580000397,-0.7853998380000051,4.148441879994902e-05,-2.355519119999996,9.282134000000833e-05,1.5709832000000001,0.786,0.04,0.04,-9.826765600000105,0.0008142238249957731,0.004177470100072738,-2.515796339925543e-06,-0.005457839183466682,-3.6685188398761386e-05
0.0825,0.00016585332700004094,-0.7853873295000052,4.160953019994743e-05,-2.3555292299999957,9.28008830000086e-05,1.5709827500000002,0.786,0.04,0.04,-9.826509400000107,0.0008250887447456598,0.003998949775075011,-2.6985338099232166e-06,-0.005562484660141884,-3.9725097098722675e-05
0.085,0.00016571135100006812,-0.7853754300000048,4.179177059991257e-05,-2.355539109999996,9.276909220001553e-05,1.5709822900000001,0.786,0.04,0.04,-9.826226600000123,0.0008363172411871078,0.003838275920062935,-2.9599419198752734e-06,-0.005657359724827029,-4.368728099816553e-05
0.08750000000000001,0.00016554710250006572,-0.7853638350000046,4.200257549991564e-05,-2.355548874999996,9.273163450001499e-05,1.5709818250000003,0.786,0.04,0.04,-9.825930500000117,0.0008477275259746839,0.0036865253000607267,-3.26068534987965e-06,-0.005747349583507813,-4.81106024982299e-05
0.09,0.00016538285400006334,-0.7853522400000045,4.221338039991871e-05,-2.3555586399999964,9.269417680001444e-05,1.5709813600000002,0.786,0.04,0.04,-9.825634400000114,0.0008591378107622599,0.003534774680058519,-3.5614287798840252e-06,-0.005837339442188597,-5.253392399829425e-05
0.0925,0.00016521860550006097,-0.7853406450000043,4.2424185299921775e-05,-2.3555684049999965,9.26567191000139e-05,1.5709808950000002,0.786,0.04,0.04,-9.82533830000011,0.0008705480955498359,0.0033830240600563107,-3.8621722098884015e-06,-0.005927329300869382,-5.6957245498358625e-05
0.095,0.00016505435700005857,-0.7853290500000042,4.263499019992484e-05,-2.3555781699999967,9.261926140001336e-05,1.57098043,0.786,0.04,0.04,-9.825042200000105,0.000881958380337412,0.0032312734400541023,-4.162915639892779e-06,-0.006017319159550167,-6.1380566998423e-05
0.0975,0.0001648901085000562,-0.7853174550000039,4.284579509992791e-05,-2.355587934999997,9.25818037000128e-05,1.570979965,0.786,0.04,0.04,-9.824746100000102,0.000893368665124988,0.003079522820051894,-4.463659069897155e-06,-0.0061073090182309515,-6.580388849848737e-05
0.1,0.0001647258600000538,-0.7853058600000038,4.3056599999930974e-05,-2.355597699999997,9.254434600001227e-05,1.5709795000000002,0.786,0.04,0.04,-9.824450000000098,0.000904778949912564,0.0029277722000496855,-4.764402499901532e-06,-0.0061972988769117355,-7.022720999855174e-05
0.10250000000000001,0.0001644713880000935,-0.7852950600000039,4.338338609987993e-05,-2.355606459999997,9.248539660002166e-05,1.57097893,0.786,0.04,0.03999999925,-9.824211950000088,0.0009186042530876401,0.0027976052300478275,-5.171586334850387e-06,-0.006275380775303745,-7.611530699783652e-05
0.105,0.0001642169160001037,-0.7852842600000044,4.371017219986685e-05,-2.3556152199999967,9.242644720002403e-05,1.5709783600000002,0.786,0.04,0.0399999985,-9.823973900000098,0.0009324295562635069,0.002667438260053037,-5.578770169834091e-06,-0.006353462673691855,-8.200340399760087e-05
0.1075,0.00016396244400011388,-0.7852734600000049,4.4036958299853774e-05,-2.3556239799999963,9.236749780002638e-05,1.5709777900000002,0.786,0.04,0.03999999775,-9.823735850000107,0.0009462548594393736,0.0025372712900582463,-5.985954004817796e-06,-0.006431544572079966,-8.789150099736525e-05
0.11,0.00016370797200012405,-0.7852626600000052,4.4363744399840694e-05,-2.355632739999996,9.230854840002874e-05,1.5709772200000003,0.786,0.04,0.039999997,-9.823497800000116,0.0009600801626152404,0.002407104320063455,-6.393137839801502e-06,-0.006509626470468076,-9.377959799712962e-05
0.1125,0.00016345350000013424,-0.7852518600000057,4.4690530499827614e-05,-2.3556414999999955,9.22495990000311e-05,1.5709766500000002,0.786,0.04,0.03999999625,-9.823259750000126,0.0009739054657911071,0.002276937350068664,-6.8003216747852076e-06,-0.006587708368856186,-9.9667694996894e-05
0.115,0.00016319902800014443,-0.785241060000006,4.501731659981454e-05,-2.355650259999995,9.219064960003346e-05,1.5709760800000003,0.786,0.04,0.0399999955,-9.823021700000135,0.000987730768966974,0.0021467703800738726,-7.207505509768914e-06,-0.0066657902672442974,-0.00010555579199665838
0.11750000000000001,0.00016290582950022182,-0.7852305040000059,4.539401309971483e-05,-2.355658904999995,9.212145270005368e-05,1.5709753650000007,0.786,0.04,0.03999999525,-9.822771900000163,0.00100140923749781,0.002012382280085476,-7.673251279651184e-06,-0.006738802720754884,-0.00011210849099528312
0.12,0.00016253517800022654,-0.7852204360000061,4.587053039970876e-05,-2.355667319999995,9.203176080005482e-05,1.5709743600000006,0.786,0.04,0.039999996,-9.822498600000166,0.0010147940367377995,0.0018695519200872955,-8.256120919643761e-06,-0.006801676284483313,-0.00011999039399518272
0.1225,0.00016216452650023126,-0.7852103680000062,4.6347047699702697e-05,-2.355675734999995,9.194206890005596e-05,1.5709733550000007,0.786,0.04,0.03999999675,-9.82222530000017,0.0010281788359777892,0.001726721560089114,-8.83899055963634e-06,-0.006864549848211742,-0.00012787229699508237
0.125,0.00016179387500023598,-0.7852003000000064,4.682356499969663e-05,-2.3556841499999948,9.18523770000571e-05,1.5709723500000006,0.786,0.04,0.0399999975,-9.821952000000174,0.0010415636352177787,0.0015838912000909326,-9.421860199628917e-06,-0.006927423411940172,-0.00013575419999498203
0.1275,0.0001614232235002407,-0.7851902320000065,4.730008229969056e-05,-2.3556925649999947,9.176268510005825e-05,1.5709713450000007,0.786,0.04,0.03999999825,-9.821678700000177,0.0010549484344577684,0.001441060840092751,-1.0004729839621497e-05,-0.0069902969756686015,-0.00014363610299488166
0.13,0.00016105257200024542,-0.7851801640000067,4.77765995996845e-05,-2.3557009799999946,9.167299320005939e-05,1.5709703400000008,0.786,0.04,0.039999999,-9.821405400000181,0.0010683332336977578,0.0012982304800945696,-1.0587599479614076e-05,-0.007053170539397031,-0.0001515180059947813
0.1325,0.00016068192050025014,-0.7851700960000068,4.825311689967843e-05,-2.3557093949999945,9.158330130006052e-05,1.5709693350000007,0.786,0.04,0.03999999975,-9.821132100000185,0.0010817180329377475,0.001155400120096388,-1.1170469119606656e-05,-0.007116044103125461,-0.00015939990899468097
0.135,0.00016021490400035425,-0.7851604160000065,4.885394269954415e-05,-2.355717279999995,9.147023560008578e-05,1.5709683000000008,0.786,0.04,0.0399999995,-9.820893400000152,0.0010961291147293085,0.0010319497300782187,-1.1835775299514212e-05,-0.007171295117551421,-0.0001684004479934269
0.1375,0.0001596997050003608,-0.7851509300000066,4.9516922749535715e-05,-2.355724899999995,9.134548300008735e-05,1.5709672500000007,0.786,0.04,0.03999999875,-9.820672000000155,0.0011110533377982235,0.0009181893250796671,-1.2542299749505215e-05,-0.007222734857314501,-0.00017796030499330517
0.14,0.00015918450600036735,-0.7851414440000067,5.017990279952727e-05,-2.355732519999995,9.122073040008895e-05,1.5709662000000009,0.786,0.04,0.039999998,-9.820450600000157,0.0011259775608671386,0.0008044289200811155,-1.3248824199496222e-05,-0.007274174597077581,-0.00018752016199318346
0.14250000000000002,0.00015866930700037392,-0.7851319580000069,5.084288284951883e-05,-2.3557401399999947,9.109597780009054e-05,1.5709651500000008,0.786,0.04,0.03999999725,-9.820229200000162,0.0011409017839360534,0.0006906685150825639,-1.3955348649487225e-05,-0.0073256143368406615,-0.00019708001899306174
0.145,0.00015815410800038048,-0.785122472000007,5.150586289951038e-05,-2.3557477599999945,9.097122520009213e-05,1.5709641000000008,0.786,0.04,0.0399999965,-9.820007800000164,0.0011558260070049682,0.0005769081100840135,-1.4661873099478223e-05,-0.007377054076603742,-0.00020663987599293991
0.1475,0.00015763890900038704,-0.7851129860000071,5.216884294950194e-05,-2.3557553799999944,9.084647260009372e-05,1.5709630500000007,0.786,0.04,0.03999999575,-9.819786400000167,0.0011707502300738833,0.00046314770508546193,-1.5368397549469228e-05,-0.007428493816366822,-0.0002161997329928182
0.15,0.00015712371000039358,-0.7851035000000072,5.28318229994935e-05,-2.3557629999999943,9.072172000009531e-05,1.5709620000000009,0.786,0.04,0.039999995,-9.81956500000017,0.0011856744531427983,0.00034938730008691034,-1.607492199946023e-05,-0.007479933556129902,-0.00022575958999269648
0.1525,0.00015643367850055477,-0.7850945240000072,5.372074294928531e-05,-2.355770424999994,9.055282660013579e-05,1.5709604250000013,0.786,0.04,0.039999995,-9.819277900000232,0.0011986238474387737,0.00022573383109941673,-1.6978552899273486e-05,-0.007515915739321021,-0.00023749518649056464
0.155,0.00015574364700058239,-0.7850855480000075,5.460966289924974e-05,-2.3557778499999937,9.038393320014255e-05,1.5709588500000014,0.786,0.04,0.039999995,-9.818990800000243,0.0012115732417332405,0.00010208036210436494,-1.7882183799237327e-05,-0.007551897922500331,-0.000249230782990095
0.1575,0.00015505361550061,-0.7850765720000079,5.5498582849214174e-05,-2.3557852749999935,9.02150398001493e-05,1.5709572750000014,0.786,0.04,0.039999995,-9.818703700000254,0.0012245226360277073,-2.157310689068683e-05,-1.8785814699201165e-05,-0.007587880105679641,-0.0002609663794896254
0.16,0.00015436358400063762,-0.7850675960000083,5.63875027991786e-05,-2.355792699999993,9.004614640015606e-05,1.5709557000000014,0.786,0.04,0.039999995,-9.818416600000266,0.0012374720303221741,-0.0001452265758857386,-1.9689445599165003e-05,-0.007623862288858951,-0.0002727019759891558
0.1625,0.00015367355250066523,-0.7850586200000087,5.727642274914303e-05,-2.355800124999993,8.987725300016282e-05,1.5709541250000016,0.786,0.04,0.039999995,-9.818129500000277,0.001250421424616641,-0.0002688800448807903,-2.0593076499128844e-05,-0.007659844472038261,-0.00028443757248868614
0.165,0.00015298352100069285,-0.785049644000009,5.816534269910746e-05,-2.3558075499999926,8.970835960016958e-05,1.5709525500000017,0.786,0.04,0.039999995,-9.817842400000288,0.0012633708189111077,-0.00039253351387584214,-2.1496707399092685e-05,-0.007695826655217571,-0.00029617316898821654
0.1675,0.00015222447850091216,-0.7850407920000088,5.914350569882391e-05,-2.355814744999993,8.952203960022489e-05,1.5709509400000017,0.7859999620000001,0.04,0.039999995,-9.817580850000214,0.0012757893069531225,-0.0005090144468961472,-2.2476763898848047e-05,-0.007728180289242907,-0.00030863334498585683
0.17,0.00015132741400087463,-0.7850321880000084,6.03001547988723e-05,-2.3558214799999933,8.930086640021564e-05,1.5709492600000017,0.7859998480000001,0.04,0.039999995,-9.817370400000206,0.0012871459824853075,-0.0006111503079004202,-2.3609671598895444e-05,-0.007753276824926631,-0.0003225426799864388
0.17250000000000001,0.00015043034950083708,-0.785023584000008,6.145680389892069e-05,-2.3558282149999936,8.907969320020638e-05,1.5709475800000017,0.7859997340000001,0.04,0.039999995,-9.817159950000196,0.0012985026580174927,-0.0007132861689046933,-2.4742579298942842e-05,-0.0077783733606103566,-0.0003364520149870207
0.17500000000000002,0.00014953328500079955,-0.7850149800000077,6.261345299896908e-05,-2.355834949999994,8.885852000019713e-05,1.5709459000000014,0.7859996200000001,0.04,0.039999995,-9.816949500000188,0.001309859333549678,-0.0008154220299089665,-2.587548699899024e-05,-0.007803469896294082,-0.00035036134998760264
0.1775,0.00014863622050076202,-0.7850063760000073,6.377010209901747e-05,-2.3558416849999944,8.863734680018788e-05,1.5709442200000014,0.7859995060000001,0.04,0.039999995,-9.816739050000178,0.001321216009081863,-0.0009175578909132384,-2.7008394699037627e-05,-0.007828566431977806,-0.0003642706849881844
0.18,0.0001477391560007245,-0.784997772000007,6.492675119906585e-05,-2.3558484199999947,8.841617360017863e-05,1.5709425400000014,0.7859993920000001,0.04,0.039999995,-9.81652860000017,0.001332572684614048,-0.0010196937519175117,-2.8141302399085024e-05,-0.007853662967661532,-0.0003781800199887664
0.1825,0.00014684209150068697,-0.7849891680000066,6.608340029911425e-05,-2.355855154999995,8.819500040016938e-05,1.5709408600000012,0.785999278,0.04,0.039999995,-9.81631815000016,0.0013439293601462331,-0.0011218296129217847,-2.9274210099132422e-05,-0.007878759503345257,-0.0003920893549893483
0.185,0.00014578452200086513,-0.7849807800000064,6.74478149988836e-05,-2.3558617099999952,8.793340940021426e-05,1.5709388400000017,0.7859990490000002,0.04,0.039999995,-9.816067400000206,0.0013564239721645074,-0.0012427194299009531,-3.0197784399377353e-05,-0.007893352489911288,-0.00040752297998768573
0.1875,0.00014464670000087962,-0.7849725000000064,6.891611249886491e-05,-2.355868174999995,8.765160950021785e-05,1.5709366500000017,0.7859987625000002,0.04,0.039999995,-9.815796500000209,0.001369487552427751,-0.0013729862248992946,-3.101669199936692e-05,-0.007902693701900705,-0.0004237187499874795
0.19,0.0001435088780008941,-0.7849642200000065,7.03844099988462e-05,-2.3558746399999952,8.736980960022144e-05,1.5709344600000017,0.7859984760000003,0.04,0.039999995,-9.815525600000212,0.0013825511326909946,-0.001503253019897636,-3.1835599599356496e-05,-0.00791203491389012,-0.0004399145199872733
0.1925,0.00014237105600090858,-0.7849559400000066,7.185270749882751e-05,-2.355881104999995,8.708800970022503e-05,1.5709322700000017,0.7859981895000002,0.04,0.039999995,-9.815254700000215,0.0013956147129542383,-0.0016335198148959775,-3.265450719934607e-05,-0.007921376125879537,-0.00045611028998706715
0.195,0.00014123323400092307,-0.7849476600000067,7.332100499880882e-05,-2.355887569999995,8.68062098002286e-05,1.570930080000002,0.7859979030000003,0.04,0.039999995,-9.814983800000219,0.001408678293217482,-0.001763786609894319,-3.347341479933565e-05,-0.007930717337868952,-0.00047230605998686094
0.1975,0.00014009541200093756,-0.7849393800000068,7.478930249879013e-05,-2.355894034999995,8.652440990023219e-05,1.5709278900000019,0.7859976165000003,0.04,0.039999995,-9.814712900000224,0.0014217418734807255,-0.0018940534048926603,-3.429232239932522e-05,-0.007940058549858369,-0.0004885018299866547
0.2,0.00013895759000095203,-0.7849311000000069,7.625759999877144e-05,-2.355900499999995,8.624261000023578e-05,1.5709257000000019,0.7859973300000003,0.04,0.039999995,-9.814442000000227,0.0014348054537439692,-0.0020243201998910018,-3.51112299993148e-05,-0.007949399761847784,-0.0005046975999864485
0.2025,0.00013754388200123947,-0.784923015000007,7.808325899839936e-05,-2.3559069349999944,8.589127850030803e-05,1.5709229700000025,0.7859970405000003,0.04,0.039999995,-9.814221350000192,0.0014448896690648387,-0.002133718739904085,-3.540440424974296e-05,-0.007946350565182845,-0.000523270689983716
0.20500000000000002,0.00013613017400129602,-0.7849149300000074,7.99089179983263e-05,-2.3559133699999943,8.553994700032208e-05,1.5709202400000026,0.7859967510000003,0.04,0.039999995,-9.814000700000202,0.0014549738843832151,-0.0022431172798997073,-3.5697578499731226e-05,-0.007943301368507537,-0.0005418437799829728
0.20750000000000002,0.0001347164660013526,-0.7849068450000077,8.173457699825324e-05,-2.355919804999994,8.518861550033614e-05,1.5709175100000026,0.7859964615000004,0.04,0.039999995,-9.81378005000021,0.0014650580997015916,-0.0023525158198953295,-3.59907527497195e-05,-0.007940252171832227,-0.0005604168699822296
0.21,0.0001333027580014092,-0.7848987600000081,8.356023599818017e-05,-2.355926239999994,8.48372840003502e-05,1.5709147800000027,0.7859961720000003,0.04,0.039999995,-9.81355940000022,0.001475142315019968,-0.0024619143598909503,-3.628392699970776e-05,-0.00793720297515692,-0.0005789899599814861
0.2125,0.00013188905000146577,-0.7848906750000084,8.538589499810712e-05,-2.3559326749999934,8.448595250036427e-05,1.5709120500000027,0.7859958825000003,0.04,0.039999995,-9.813338750000229,0.0014852265303383445,-0.0025713128998865725,-3.657710124969603e-05,-0.007934153778481612,-0.0005975630499807429
0.215,0.00013047534200152236,-0.7848825900000087,8.721155399803405e-05,-2.3559391099999933,8.413462100037832e-05,1.5709093200000028,0.7859955930000003,0.04,0.039999995,-9.813118100000237,0.001495310745656721,-0.0026807114398821946,-3.6870275499684295e-05,-0.007931104581806304,-0.0006161361399799997
0.2175,0.0001289575655019276,-0.784874545000009,8.917209599750906e-05,-2.355945499999993,8.375662800048171e-05,1.5709063950000035,0.7859953050000004,0.04,0.03999999525,-9.812906900000215,0.0015042169659790143,-0.0027933920598668203,-3.725988359934946e-05,-0.007924227602796027,-0.0006355662649763849
0.22,0.00012723165200199667,-0.7848665800000093,9.140240399741982e-05,-2.3559517999999926,8.332531200049897e-05,1.5709030800000037,0.7859950200000003,0.04,0.039999996,-9.812714600000222,0.0015107671962974422,-0.0029126368398620485,-3.784235939932615e-05,-0.007909695059077793,-0.0006567104599755387
0.2225,0.00012550573850206575,-0.7848586150000095,9.363271199733056e-05,-2.3559580999999925,8.289399600051624e-05,1.5708997650000038,0.7859947350000004,0.04,0.03999999675,-9.812522300000229,0.00151731742661587,-0.0030318816198572768,-3.842483519930284e-05,-0.00789516251535956,-0.0006778546549746926
0.225,0.0001237798250021348,-0.7848506500000099,9.58630199972413e-05,-2.355964399999992,8.24626800005335e-05,1.570896450000004,0.7859944500000003,0.04,0.0399999975,-9.812330000000237,0.001523867656934298,-0.0031511263998525046,-3.900731099927953e-05,-0.007880629971641327,-0.0006989988499738465
0.2275,0.00012205391150220387,-0.7848426850000102,9.809332799715206e-05,-2.355970699999992,8.203136400055076e-05,1.5708931350000042,0.7859941650000004,0.04,0.03999999825,-9.812137700000244,0.0015304178872527258,-0.003270371179847733,-3.958978679925622e-05,-0.007866097427923092,-0.0007201430449730004
0.23,0.00012032799800227293,-0.7848347200000105,0.0001003236359970628,-2.3559769999999918,8.160004800056802e-05,1.5708898200000043,0.7859938800000004,0.04,0.039999999,-9.811945400000253,0.0015369681175711537,-0.003389615959842961,-4.0172262599232914e-05,-0.007851564884204859,-0.0007412872399721542
0.2325,0.000118602084502342,-0.7848267550000109,0.00010255394399697356,-2.3559832999999912,8.116873200058527e-05,1.5708865050000045,0.7859935950000004,0.04,0.03999999975,-9.81175310000026,0.0015435183478895815,-0.0035088607398381893,-4.0754738399209605e-05,-0.007837032340486626,-0.0007624314349713082
0.23500000000000001,0.0001166431270028239,-0.7848188100000109,0.00010508641659634876,-2.355989599999991,8.067965050070474e-05,1.5708828000000055,0.7859933100000004,0.04,0.0399999995,-9.811543900000295,0.0015474876039624753,-0.0036288304398362763,-4.1554073998764895e-05,-0.00781419575218051,-0.0007851024099681152
0.23750000000000002,0.00011456764750279368,-0.7848108750000107,0.00010776997149638782,-2.3559958999999915,8.016168625069721e-05,1.5708789000000054,0.7859930250000003,0.04,0.03999999875,-9.811326250000292,0.0015501663729046442,-0.0037491625998380272,-4.246183949877811e-05,-0.007787207141554853,-0.0008085367749684563
0.24,0.00011249216800276351,-0.7848029400000106,0.00011045352639642684,-2.3560021999999914,7.964372200068967e-05,1.5708750000000054,0.7859927400000004,0.04,0.039999998,-9.81110860000029,0.0015528451418468131,-0.0038694947598397773,-4.336960499879131e-05,-0.007760218530929196,-0.000831971139968797
0.2425,0.0001104166885027333,-0.7847950050000104,0.0001131370812964659,-2.3560084999999917,7.912575775068213e-05,1.5708711000000053,0.7859924550000004,0.04,0.03999999725,-9.810890950000287,0.0015555239107889823,-0.003989826919841529,-4.427737049880452e-05,-0.007733229920303538,-0.0008554055049691381
0.245,0.0001083412090027031,-0.7847870700000104,0.00011582063619650494,-2.3560147999999916,7.86077935006746e-05,1.570867200000005,0.7859921700000004,0.04,0.0399999965,-9.810673300000284,0.0015582026797311512,-0.00411015907984328,-4.518513599881773e-05,-0.00770624130967788,-0.0008788398699694791
0.2475,0.0001062657295026729,-0.7847791350000102,0.000118504191096544,-2.3560210999999915,7.808982925066707e-05,1.570863300000005,0.7859918850000004,0.04,0.03999999575,-9.81045565000028,0.0015608814486733201,-0.004230491239845031,-4.609290149883094e-05,-0.007679252699052222,-0.0009022742349698202
0.25,0.00010419025000264268,-0.7847712000000101,0.00012118774599658306,-2.356027399999992,7.757186500065953e-05,1.570859400000005,0.7859916000000003,0.04,0.039999995,-9.810238000000277,0.001563560217615489,-0.004350823399846783,-4.7000666998844154e-05,-0.007652264088426564,-0.0009257085999701611
0.2525,0.00010172703400316775,-0.7847632260000102,0.000124374322595902,-2.3560336399999917,7.695613675079184e-05,1.570854840000006,0.7859913150000004,0.04,0.039999995,-9.810044800000249,0.001566630281736807,-0.004486812919825114,-4.8228557398420903e-05,-0.007613246538726447,-0.0009518474049663849
0.255,9.926381800319911e-05,-0.7847552520000104,0.0001275608991958614,-2.356039879999992,7.634040850079968e-05,1.570850280000006,0.7859910300000004,0.04,0.039999995,-9.80985160000025,0.0015697003458586228,-0.004622802439823383,-4.945644779840527e-05,-0.007574228989011014,-0.000977986209966052
0.2575,9.680060200323048e-05,-0.7847472780000104,0.00013074747579582083,-2.356046119999992,7.572468025080751e-05,1.570845720000006,0.7859907450000004,0.04,0.039999995,-9.809658400000252,0.0015727704099804387,-0.004758791959821651,-5.0684338198389634e-05,-0.007535211439295581,-0.0010041250149657192
0.26,9.433738600326184e-05,-0.7847393040000106,0.00013393405239578026,-2.3560523599999916,7.510895200081536e-05,1.570841160000006,0.7859904600000004,0.04,0.039999995,-9.809465200000256,0.0015758404741022546,-0.00489478147981992,-5.1912228598374e-05,-0.007496193889580147,-0.0010302638199653864
0.2625,9.18741700032932e-05,-0.7847313300000107,0.00013712062899573968,-2.356058599999992,7.44932237508232e-05,1.570836600000006,0.7859901750000003,0.04,0.039999995,-9.809272000000258,0.0015789105382240706,-0.005030770999818189,-5.314011899835837e-05,-0.007457176339864715,-0.0010564026249650536
0.265,8.941095400332457e-05,-0.7847233560000108,0.00014030720559569913,-2.3560648399999917,7.387749550083104e-05,1.5708320400000062,0.7859898900000004,0.04,0.039999995,-9.80907880000026,0.0015819806023458865,-0.005166760519816457,-5.436800939834273e-05,-0.007418158790149281,-0.0010825414299647207
0.2675,8.680551500393723e-05,-0.784715343000011,0.0001436783474949042,-2.3560710499999917,7.322595200098526e-05,1.5708272350000072,0.7859896050000004,0.04,0.039999995,-9.808880000000286,0.0015829229494601338,-0.005305018959805452,-5.5714680847841615e-05,-0.007374962419341688,-0.001109557399960803
0.27,8.391563000397402e-05,-0.7847072520000111,0.00014741861999485655,-2.3560771999999917,7.250277800099447e-05,1.5708219400000074,0.7859893200000004,0.04,0.039999995,-9.808670000000289,0.001579609862533236,-0.0054478152398036335,-5.7298914397821444e-05,-0.007323408406298694,-0.0011383276999604366
0.2725,8.102574500401083e-05,-0.7846991610000112,0.00015115889249480894,-2.3560833499999916,7.177960400100368e-05,1.5708166450000074,0.7859890350000004,0.04,0.039999995,-9.808460000000292,0.0015762967756063383,-0.005590611519801816,-5.888314794780127e-05,-0.007271854393255701,-0.0011670979999600702
0.275,7.813586000404761e-05,-0.7846910700000114,0.00015489916499476132,-2.3560894999999915,7.105643000101288e-05,1.5708113500000074,0.7859887500000005,0.04,0.039999995,-9.808250000000294,0.0015729836886794403,-0.005733407799799997,-6.04673814977811e-05,-0.0072203003802127075,-0.0011958682999597039
0.2775,7.52459750040844e-05,-0.7846829790000114,0.0001586394374947137,-2.3560956499999914,7.033325600102209e-05,1.5708060550000076,0.7859884650000004,0.04,0.039999995,-9.808040000000297,0.0015696706017525425,-0.00587620407979818,-6.205161504776094e-05,-0.007168746367169714,-0.0012246385999593375
0.28,7.235609000412119e-05,-0.7846748880000115,0.0001623797099946661,-2.3561017999999914,6.96100820010313e-05,1.5708007600000076,0.7859881800000004,0.04,0.039999995,-9.8078300000003,0.0015663575148256448,-0.006019000359796361,-6.363584859774077e-05,-0.00711719235412672,-0.0012534088999589714
0.28250000000000003,6.946620500415799e-05,-0.7846667970000116,0.00016611998249461846,-2.3561079499999913,6.88869080010405e-05,1.5707954650000078,0.7859878950000004,0.04,0.039999995,-9.807620000000304,0.001563044427898747,-0.006161796639794543,-6.52200821477206e-05,-0.007065638341083726,-0.001282179199958605
0.28500000000000003,6.626553940487145e-05,-0.784658570000012,0.00017026369899369241,-2.356114179999991,6.808545800122014e-05,1.570789570000009,0.7859874200000009,0.04,0.039999995,-9.807401200000324,0.0015568345668836062,-0.006310245989780416,-6.706673099712906e-05,-0.007005424564797918,-0.0013127297199543627
0.28750000000000003,6.290948350491418e-05,-0.7846502750000122,0.0001746091374936371,-2.356120449999991,6.724487000123084e-05,1.570783375000009,0.7859868500000009,0.04,0.039999995,-9.807178000000327,0.0015491763188149388,-0.0064615218747784905,-6.904458749710389e-05,-0.006940880906862585,-0.0013441703499539623
0.29,5.955342760495699e-05,-0.7846419800000123,0.00017895457599358168,-2.356126719999991,6.640428200124157e-05,1.5707771800000092,0.7859862800000008,0.04,0.039999995,-9.80695480000033,0.0015415180707462714,-0.006612797759776561,-7.102244399707866e-05,-0.006876337248927253,-0.0013756109799535614
0.2925,5.619737170499972e-05,-0.7846336850000123,0.00018330001449352634,-2.356132989999991,6.556369400125228e-05,1.5707709850000093,0.7859857100000008,0.04,0.039999995,-9.806731600000333,0.001533859822677604,-0.006764073644774635,-7.300030049705347e-05,-0.0068117935909919195,-0.001407051609953161
0.295,5.284131580504245e-05,-0.7846253900000124,0.00018764545299347103,-2.3561392599999906,6.472310600126298e-05,1.5707647900000092,0.7859851400000009,0.04,0.039999995,-9.806508400000336,0.0015262015746089364,-0.0069153495297727095,-7.497815699702829e-05,-0.006747249933056586,-0.0014384922399527608
0.2975,4.948525990508518e-05,-0.7846170950000125,0.0001919908914934157,-2.3561455299999907,6.388251800127368e-05,1.5707585950000094,0.7859845700000009,0.04,0.039999995,-9.806285200000339,0.001518543326540269,-0.007066625414770784,-7.695601349700312e-05,-0.006682706275121253,-0.0014699328699523603
0.3,4.612920400512791e-05,-0.7846088000000127,0.00019633632999336038,-2.3561517999999904,6.304193000128439e-05,1.5707524000000095,0.7859840000000009,0.04,0.039999995,-9.806062000000342,0.0015108850784716014,-0.007217901299768858,-7.893386999697793e-05,-0.00661816261718592,-0.0015013734999519601
0.3025,4.22670349059504e-05,-0.7846002050000133,0.00020133905199229237,-2.3561580999999903,6.207266000149334e-05,1.570745335000011,0.7859834255000009,0.04,0.03999999575,-9.805883200000276,0.0014925761381445483,-0.007377649004753879,-8.002635224831683e-05,-0.006542188907159142,-0.0015356313849472193
0.305,3.8404865805999574e-05,-0.7845916100000133,0.00020634177399222868,-2.35616439999999,6.110339000150569e-05,1.570738270000011,0.7859828510000009,0.04,0.0399999965,-9.805704400000279,0.0014742671978012216,-0.007537396709751845,-8.111883449830292e-05,-0.006466215197114899,-0.0015698892699467831
0.3075,3.4542696706048744e-05,-0.7845830150000135,0.00021134449599216498,-2.35617069999999,6.0134120001518024e-05,1.570731205000011,0.7859822765000009,0.04,0.03999999725,-9.80552560000028,0.0014559582574578947,-0.007697144414749811,-8.221131674828902e-05,-0.006390241487070656,-0.001604147154946347
0.31,3.0680527606097914e-05,-0.7845744200000135,0.0002163472179921013,-2.35617699999999,5.916485000153037e-05,1.5707241400000111,0.785981702000001,0.04,0.039999998,-9.805346800000283,0.0014376493171145677,-0.007856892119747777,-8.33037989982751e-05,-0.006314267777026414,-0.0016384050399459106
0.3125,2.6818358506147088e-05,-0.7845658250000136,0.0002213499399920376,-2.35618329999999,5.8195580001542705e-05,1.5707170750000112,0.7859811275000009,0.04,0.03999999875,-9.805168000000284,0.0014193403767712408,-0.008016639824745743,-8.43962812482612e-05,-0.006238294066982171,-0.0016726629249454745
0.315,2.295618940619626e-05,-0.7845572300000138,0.0002263526619919739,-2.35618959999999,5.722631000155505e-05,1.5707100100000113,0.7859805530000009,0.04,0.0399999995,-9.804989200000286,0.001401031436427914,-0.00817638752974371,-8.548876349824728e-05,-0.006162320356937928,-0.0017069208099450383
0.3175,1.89118670571692e-05,-0.7845485080000145,0.0002315919759907105,-2.3561959199999896,5.621157335179801e-05,1.5707026200000131,0.7859799790000009,0.03999999975,0.0399999995,-9.804797600000352,0.0013846729125563634,-0.008343743949703103,-8.670997124759545e-05,-0.006082164682591849,-0.0017420074299402475
0.32,1.450323820734562e-05,-0.7845395320000149,0.00023730447399048188,-2.356202279999989,5.510590340184226e-05,1.5706945800000134,0.7859794060000009,0.039999999,0.039999998,-9.804580400000361,0.001372215221656677,-0.008526317799695798,-8.818862999753628e-05,-0.005993645079581391,-0.0017787515199387772
0.3225,1.0094609357522039e-05,-0.7845305560000153,0.0002430169719902533,-2.356208639999989,5.40002334518865e-05,1.5706865400000136,0.7859788330000009,0.03999999825,0.0399999965,-9.80436320000037,0.0013597575307569905,-0.00870889164968849,-8.966728874747711e-05,-0.005905125476570933,-0.001815495609937307
0.325,5.68598050769846e-06,-0.7845215800000157,0.0002487294699900247,-2.3562149999999886,5.289456350193075e-05,1.570678500000014,0.785978260000001,0.0399999975,0.039999995,-9.80414600000038,0.0013472998398573039,-0.008891465499681185,-9.114594749741794e-05,-0.005816605873560475,-0.0018522396999358366
0.3275,1.2773516578748793e-06,-0.784512604000016,0.0002544419679897961,-2.3562213599999886,5.178889355197499e-05,1.5706704600000143,0.785977687000001,0.03999999675,0.039999993500000004,-9.803928800000387,0.0013348421489576174,-0.00907403934967388,-9.262460624735876e-05,-0.005728086270550018,-0.0018889837899343663
0.33,-3.1312771919486997e-06,-0.7845036280000164,0.0002601544659895675,-2.3562277199999886,5.068322360201924e-05,1.5706624200000148,0.785977114000001,0.039999996,0.039999992000000005,-9.803711600000396,0.001322384458057931,-0.009256613199666574,-9.410326499729959e-05,-0.00563956666753956,-0.0019257278799328958
0.3325,-7.539906041772282e-06,-0.7844946520000168,0.0002658669639893389,-2.356234079999988,4.957755365206349e-05,1.570654380000015,0.785976541000001,0.03999999525,0.0399999905,-9.803494400000405,0.0013099267671582444,-0.009439187049659268,-9.558192374724042e-05,-0.0055510470645291025,-0.0019624719699314255
0.335,-1.2339868890658606e-05,-0.7844853770000176,0.000272087896987892,-2.356240519999988,4.837250380234625e-05,1.5706455800000172,0.7859759690000011,0.039999995,0.0399999905,-9.803289000000373,0.0012888113037227086,-0.00963066799963362,-9.737113499636398e-05,-0.005454594548979365,-0.002001197899925733
0.3375,-1.7335498740731307e-05,-0.7844759525000174,0.00027856304748798626,-2.356246999999988,4.7117764002328e-05,1.570636400000017,0.7859753975000011,0.039999995,0.03999999125,-9.80308950000037,0.0012633669539826335,-0.009826602499636471,-9.931562249639228e-05,-0.005354175577126439,-0.002040914749926311
0.34,-2.2331128590804004e-05,-0.7844665280000174,0.0002850381979880805,-2.3562534799999884,4.586302420230974e-05,1.5706272200000169,0.785974826000001,0.039999995,0.039999992,-9.802890000000367,0.0012379226042425581,-0.010022536999639323,-0.00010126010999642057,-0.005253756605273512,-0.002080631599926889
0.3425,-2.7326758440876704e-05,-0.7844571035000172,0.00029151334848817476,-2.356259959999988,4.4608284402291475e-05,1.5706180400000167,0.785974254500001,0.039999995,0.03999999275,-9.802690500000365,0.0012124782545024828,-0.010218471499642175,-0.00010320459749644887,-0.005153337633420586,-0.002120348449927467
0.34500000000000003,-3.23223882909494e-05,-0.7844476790000171,0.00029798849898826895,-2.356266439999988,4.3353544602273214e-05,1.5706088600000165,0.785973683000001,0.039999995,0.039999993500000004,-9.80249100000036,0.0011870339047624077,-0.010414405999645026,-0.00010514908499647717,-0.005052918661567659,-0.0021600652999280447
0.34750000000000003,-3.73180181410221e-05,-0.7844382545000169,0.0003044636494883632,-2.3562729199999883,4.209880480225495e-05,1.5705996800000166,0.785973111500001,0.039999995,0.039999994250000004,-9.802291500000358,0.0011615895550223323,-0.010610340499647876,-0.00010709357249650547,-0.004952499689714733,-0.002199782149928623
0.35000000000000003,-4.2313647991094796e-05,-0.7844288300000167,0.00031093879998845745,-2.3562793999999885,4.08440650022367e-05,1.5705905000000164,0.785972540000001,0.039999995,0.039999995,-9.802092000000355,0.001136145205282257,-0.010806274999650728,-0.00010903805999653376,-0.004852080717861806,-0.0022394989999292006
0.3525,-4.7936999789904115e-05,-0.7844188805000178,0.0003182297029869103,-2.356286044999988,3.943124005253652e-05,1.5705802250000185,0.7859716790000015,0.039999995,0.039999995,-9.801908400000329,0.001099646015856684,-0.011017734649620357,-0.00011148678899560367,-0.004739715159141061,-0.0022818418999239797
0.355,-5.356035158983251e-05,-0.784408931000018,0.00032552060598681746,-2.356292689999988,3.80184151025545e-05,1.5705699500000185,0.7859708180000016,0.039999995,0.039999995,-9.801724800000331,0.0010631468264114036,-0.011229194299617664,-0.00011393551799557249,-0.004627349600399016,-0.0023241847999234404
0.3575,-5.918370338976092e-05,-0.7843989815000181,0.00033281150898672464,-2.3562993349999877,3.6605590152572494e-05,1.5705596750000188,0.7859699570000016,0.039999995,0.039999995,-9.801541200000335,0.0010266476369661232,-0.011440653949614972,-0.00011638424699554132,-0.004514984041656972,-0.002366527699922901
0.36,-6.480705518968932e-05,-0.7843890320000182,0.00034010241198663177,-2.3563059799999877,3.519276520259048e-05,1.5705494000000189,0.7859690960000015,0.039999995,0.039999995,-9.801357600000337,0.000990148447520843,-0.011652113599612279,-0.00011883297599551014,-0.004402618482914927,-0.0024088705999223622
0.3625,-7.043040698961772e-05,-0.7843790825000183,0.00034739331498653895,-2.3563126249999877,3.377994025260847e-05,1.570539125000019,0.7859682350000016,0.039999995,0.039999995,-9.801174000000339,0.0009536492580755626,-0.011863573249609587,-0.00012128170499547895,-0.004290252924172884,-0.002451213499921823
0.365,-7.605375878954613e-05,-0.7843691330000184,0.00035468421798644614,-2.3563192699999878,3.236711530262645e-05,1.5705288500000192,0.7859673740000016,0.039999995,0.039999995,-9.800990400000341,0.0009171500686302824,-0.012075032899606894,-0.00012373043399544777,-0.004177887365430839,-0.002493556399921284
0.3675,-8.189994498822326e-05,-0.7843589850000197,0.0003622647549847269,-2.3563261649999863,3.089858710295723e-05,1.5705181700000215,0.7859665150000016,0.039999995,0.039999994750000004,-9.8007967500004,0.0008818612900246003,-0.012293745099563477,-0.00012589370549701952,-0.0040615837557702724,-0.0025367775249158135
0.37,-8.819179998814316e-05,-0.7843484400000198,0.000370424559984623,-2.356333559999986,2.9318652402977347e-05,1.5705066800000216,0.7859656600000016,0.039999995,0.039999994000000004,-9.800583000000403,0.0008489933331184589,-0.012526962399560507,-0.00012748606199699923,-0.003937404044206474,-0.002581755099915241
0.3725,-9.448365498806305e-05,-0.7843378950000199,0.0003785843649845191,-2.356340954999986,2.7738717702997464e-05,1.570495190000022,0.7859648050000015,0.039999995,0.039999993250000004,-9.800369250000406,0.0008161253762123173,-0.012760179699557539,-0.00012907841849697896,-0.0038132243326426743,-0.002626732674914668
0.375,-0.00010077550998798294,-0.7843273500000201,0.0003867441699844153,-2.356348349999986,2.6158783003017576e-05,1.570483700000022,0.7859639500000016,0.039999995,0.039999992500000005,-9.800155500000407,0.0007832574193061758,-0.01299339699955457,-0.0001306707749969587,-0.0036890446210788757,-0.0026717102499140954
0.3775,-0.00010706736498790283,-0.7843168050000202,0.0003949039749843114,-2.356355744999986,2.4578848303037693e-05,1.5704722100000221,0.7859630950000016,0.039999995,0.039999991750000005,-9.79994175000041,0.0007503894624000342,-0.0132266142995516,-0.00013226313149693842,-0.0035648649095150766,-0.002716687824913523
0.38,-0.00011335921998782273,-0.7843062600000203,0.0004030637799842075,-2.356363139999986,2.299891360305781e-05,1.5704607200000222,0.7859622400000016,0.039999995,0.039999991,-9.799728000000414,0.0007175215054938928,-0.013459831599548631,-0.00013385548799691816,-0.0034406851979512775,-0.0027616653999129504
0.3825,-0.00011965107498774262,-0.7842957150000205,0.0004112235849841036,-2.3563705349999857,2.1418978903077925e-05,1.5704492300000226,0.7859613850000017,0.039999995,0.03999999025,-9.799514250000417,0.0006846535485877512,-0.013693048899545663,-0.0001354478444968979,-0.003316505486387479,-0.0028066429749123776
0.385,-0.00012641576698627175,-0.7842847400000219,0.00041999810798219164,-2.3563780599999853,1.971918680345058e-05,1.5704369000000251,0.7859605270000016,0.039999995,0.0399999905,-9.799362100000238,0.0006419417216444635,-0.013941266899498572,-0.00013740021299581872,-0.003186162072495429,-0.002853606709905963
0.3875,-0.00013341687748618262,-0.7842735500000221,0.000429079989982076,-2.356385649999985,1.7959466003472984e-05,1.5704241500000253,0.7859596675000017,0.039999995,0.03999999125,-9.799240750000239,0.0005943079596393599,-0.014196985249495316,-0.00013953258749579156,-0.003052736807412178,-0.0029015635249053525
0.39,-0.00014041798798609348,-0.7842623600000223,0.0004381618719819604,-2.356393239999985,1.6199745203495386e-05,1.5704114000000253,0.7859588080000017,0.039999995,0.039999992,-9.79911940000024,0.0005466741976342564,-0.01445270359949206,-0.0001416649619957644,-0.0029193115423289265,-0.0029495203399047417
0.3925,-0.00014741909848600435,-0.7842511700000223,0.00044724375398184473,-2.3564008299999846,1.4440024403517792e-05,1.5703986500000255,0.7859579485000018,0.039999995,0.03999999275,-9.798998050000243,0.0004990404356291528,-0.014708421949488803,-0.00014379733649573726,-0.0027858862772456756,-0.0029974771549041313
0.395,-0.00015442020898591522,-0.7842399800000225,0.00045632563598172913,-2.3564084199999846,1.2680303603540197e-05,1.5703859000000258,0.7859570890000017,0.039999995,0.0399999935,-9.798876700000244,0.00045140667362404934,-0.014964140299485548,-0.0001459297109957101,-0.0026524610121624243,-0.0030454339699035205
0.3975,-0.00016142131948582606,-0.7842287900000227,0.0004654075179816135,-2.3564160099999847,1.0920582803562602e-05,1.5703731500000258,0.7859562295000018,0.039999995,0.039999994250000004,-9.798755350000246,0.0004037729116189458,-0.015219858649482292,-0.00014806208549568295,-0.002519035747079173,-0.00309339078490291
0.4,-0.00016842242998573692,-0.7842176000000227,0.0004744893999814979,-2.3564235999999843,9.160862003585008e-06,1.570360400000026,0.7859553700000018,0.039999995,0.039999995,-9.798634000000247,0.0003561391496138423,-0.015475576999479036,-0.0001501944599956558,-0.002385610481995922,-0.0031413475999022993
0.4025,-0.00017617351798411034,-0.7842056600000245,0.00048454638997938324,-2.356431309999984,7.2119295539952945e-06,1.570346315000029,0.7859542705000023,0.039999994250000004,0.039999994250000004,-9.798432850000411,0.0003031738336352316,-0.01575585604942543,-0.00015290698049443937,-0.0022401872035768366,-0.003191919034896329
0.405,-0.00018392460598401166,-0.7841937200000246,0.0004946033799792552,-2.356439019999984,5.262997104020109e-06,1.570332230000029,0.7859531710000023,0.039999993500000004,0.039999993500000004,-9.798231700000414,0.0002502085176457591,-0.016036135099421863,-0.00015561950099440483,-0.002094763925133308,-0.003242490469895685
0.40750000000000003,-0.00019167569398391296,-0.7841817800000248,0.0005046603699791272,-2.356446729999984,3.3140646540449233e-06,1.5703181450000292,0.7859520715000022,0.039999992750000005,0.039999992750000005,-9.798030550000417,0.0001972432016562866,-0.016316414149418295,-0.0001583320214943703,-0.0019493406466897796,-0.003293061904895041
0.41000000000000003,-0.0001994267819838143,-0.7841698400000249,0.0005147173599789991,-2.356454439999984,1.3651322040697364e-06,1.5703040600000293,0.7859509720000023,0.039999992000000005,0.039999992000000005,-9.79782940000042,0.00014427788566681414,-0.016596693199414723,-0.00016104454199433575,-0.0018039173682462511,-0.0033436333398943973
0.41250000000000003,-0.00020717786998371561,-0.784157900000025,0.0005247743499788711,-2.356462149999984,-5.838002459054479e-07,1.5702899750000296,0.7859498725000023,0.03999999125,0.03999999125,-9.797628250000422,9.131256967734167e-05,-0.016876972249411155,-0.00016375706249430124,-0.0016584940898027225,-0.0033942047748937534
0.41500000000000004,-0.0002149289579836169,-0.7841459600000252,0.000534831339978743,-2.356469859999984,-2.532732695880634e-06,1.5702758900000298,0.7859487730000023,0.0399999905,0.0399999905,-9.797427100000425,3.834725368786915e-05,-0.017157251299407587,-0.0001664695829942667,-0.001513070811359194,-0.0034447762098931095
0.4175,-0.00022294354998183711,-0.7841337600000271,0.0005452309899764289,-2.356477864999982,-4.548020695432482e-06,1.570261320000033,0.7859476580000024,0.03999999,0.03999999,-9.797236050000363,-2.0378769691670426e-05,-0.017446690799345577,-0.00016899089799545184,-0.001363666750301363,-0.0034962554448866737
0.42,-0.00023148514998172834,-0.7841210400000272,0.0005563159599762877,-2.3564864599999815,-6.696019795405134e-06,1.5702457800000333,0.7859465120000024,0.03999999,0.03999999,-9.797065200000365,-9.062620796137419e-05,-0.01775445119934166,-0.00017112980199542461,-0.0012063011239388866,-0.003549550279885995
0.4225,-0.0002400267499816196,-0.7841083200000274,0.0005674009299761466,-2.3564950549999817,-8.844018895377784e-06,1.5702302400000334,0.7859453660000024,0.03999999,0.03999999,-9.796894350000368,-0.00016087364623107797,-0.01806221159933774,-0.00017326870599539737,-0.0010489354975764102,-0.0036028451148853165
0.425,-0.00024856834998151085,-0.7840956000000275,0.0005784858999760054,-2.3565036499999814,-1.0992017995350438e-05,1.5702147000000335,0.7859442200000024,0.03999999,0.03999999,-9.79672350000037,-0.00023112108450078174,-0.018369971999333823,-0.00017540760999537014,-0.0008915698712139338,-0.003656139949884638
0.4275,-0.0002571099499814021,-0.7840828800000277,0.0005895708699758643,-2.356512244999981,-1.3140017095323088e-05,1.5701991600000338,0.7859430740000025,0.03999999,0.03999999,-9.796552650000372,-0.0003013685227704855,-0.018677732399329905,-0.0001775465139953429,-0.0007342042448514575,-0.003709434784883959
0.43,-0.00026565154998129336,-0.7840701600000278,0.0006006558399757232,-2.3565208399999813,-1.528801619529574e-05,1.5701836200000339,0.7859419280000025,0.03999999,0.03999999,-9.796381800000374,-0.00037161596104018927,-0.018985492799325984,-0.00017968541799531567,-0.000576838618488981,-0.003762729619883281
0.4325,-0.0002741931499811846,-0.784057440000028,0.000611740809975582,-2.356529434999981,-1.7436015295268392e-05,1.5701680800000342,0.7859407820000025,0.03999999,0.03999999,-9.796210950000376,-0.00044186339930989306,-0.019293253199322066,-0.00018182432199528842,-0.0004194729921265046,-0.003816024454882602
0.435,-0.0002832886399792351,-0.7840441400000301,0.0006235461899730467,-2.3565381699999803,-1.972386549477628e-05,1.5701515500000376,0.7859396260000026,0.039999989799999996,0.039999989799999996,-9.796053400000334,-0.0005091098601404478,-0.019614799999272334,-0.0001842090679944442,-0.0002561863952041054,-0.0038711206298759375
0.4375,-0.00029266107497911574,-0.7840305500000303,0.0006357117749728918,-2.3565469749999806,-2.2081641244746258e-05,1.5701345250000378,0.7859384650000025,0.0399999895,0.0399999895,-9.795902500000336,-0.0005748558322365258,-0.01994323999926815,-0.00018671673499441228,-8.993931297234209e-05,-0.003927117474875224
0.44,-0.0003020335099789964,-0.7840169600000304,0.000647877359972737,-2.3565557799999803,-2.4439416994716237e-05,1.570117500000038,0.7859373040000026,0.0399999892,0.0399999892,-9.795751600000338,-0.0006406018043326038,-0.020271679999263967,-0.00018922440199438035,7.63077692594212e-05,-0.003983114319874512
0.4425,-0.0003114059449788771,-0.7840033700000306,0.0006600429449725821,-2.35656458499998,-2.679719274468622e-05,1.5701004750000385,0.7859361430000026,0.0399999889,0.0399999889,-9.795600700000339,-0.0007063477764286816,-0.020600119999259786,-0.00019173206899434842,0.0002425548514911845,-0.004039111164873798
0.445,-0.0003207783799787578,-0.7839897800000307,0.0006722085299724271,-2.35657338999998,-2.9154968494656203e-05,1.5700834500000387,0.7859349820000026,0.0399999886,0.0399999886,-9.795449800000341,-0.0007720937485247595,-0.020928559999255605,-0.00019423973599431649,0.0004088019337229478,-0.004095108009873086
0.4475,-0.0003301508149786385,-0.7839761900000309,0.0006843741149722722,-2.3565821949999797,-3.151274424462618e-05,1.570066425000039,0.7859338210000026,0.0399999883,0.0399999883,-9.795298900000343,-0.0008378397206208375,-0.021256999999251423,-0.00019674740299428455,0.0005750490159547112,-0.004151104854872373
0.45,-0.0003395232499785191,-0.7839626000000312,0.0006965396999721174,-2.35659099999998,-3.387051999459617e-05,1.5700494000000391,0.7859326600000026,0.039999988,0.039999988,-9.795148000000346,-0.0009035856927169154,-0.021585439999247242,-0.00019925506999425262,0.0007412960981864744,-0.00420710169987166
0.4525,-0.0003497665939761132,-0.7839481100000337,0.0007098381299689889,-2.3566007199999772,-3.64475160939906e-05,1.5700307700000435,0.7859312260000033,0.039999988,0.039999988,-9.794947600000468,-0.0009856536400452876,-0.02194894894915232,-0.00020229643849290773,0.0009194143869019689,-0.00426578279486316
0.455,-0.00036000993797570324,-0.7839336200000343,0.0007231365599684567,-2.3566104399999768,-3.902451219388748e-05,1.5700121400000442,0.7859297920000033,0.039999988,0.039999988,-9.794747200000476,-0.0010677215874110683,-0.022312457899137772,-0.000205337806992786,0.001097532675644671,-0.0043244638898608115
0.4575,-0.00037025328197529334,-0.7839191300000349,0.0007364349899679245,-2.3566201599999763,-4.160150829378436e-05,1.5699935100000448,0.7859283580000034,0.039999988,0.039999988,-9.794546800000484,-0.0011497895347768493,-0.022675966849123225,-0.0002083791754926643,0.0012756509643873735,-0.004383144984858463
0.46,-0.00038049662597488344,-0.7839046400000355,0.0007497334199673924,-2.3566298799999763,-4.417850439368123e-05,1.5699748800000457,0.7859269240000035,0.039999988,0.039999988,-9.794346400000492,-0.0012318574821426303,-0.02303947579910868,-0.0002114205439925426,0.0014537692531300756,-0.004441826079856115
0.4625,-0.00039073996997447354,-0.783890150000036,0.0007630318499668602,-2.356639599999976,-4.675550049357811e-05,1.5699562500000463,0.7859254900000036,0.039999988,0.039999988,-9.7941460000005,-0.0013139254295084111,-0.023402984749094136,-0.0002144619124924209,0.0016318875418727778,-0.004500507174853767
0.465,-0.0004009833139740636,-0.7838756600000366,0.0007763302799663281,-2.3566493199999754,-4.933249659347498e-05,1.569937620000047,0.7859240560000036,0.039999988,0.039999988,-9.793945600000509,-0.001395993376874192,-0.023766493699079586,-0.0002175032809922992,0.00181000583061548,-0.004559188269851418
0.4675,-0.00041153022147151426,-0.7838608400000395,0.0007900236249630122,-2.3566591099999745,-5.198601379283246e-05,1.5699184400000517,0.7859226250000036,0.039999987800000004,0.039999987800000004,-9.793775800000278,-0.0014815320025629698,-0.024138880549003636,-0.00022035098949371655,0.001990921655193449,-0.004618754249843358
0.47000000000000003,-0.0004226842559716766,-0.7838453600000392,0.0008045067999632229,-2.3566690399999746,-5.479257319287331e-05,1.5698981600000514,0.7859212000000037,0.0399999872,0.0399999872,-9.793667200000277,-0.0015740119849776658,-0.024529023199009313,-0.00022281137799375235,0.002177432551506373,-0.00468008999984425
0.47250000000000003,-0.0004338382904718389,-0.7838298800000391,0.0008189899749634337,-2.356678969999975,-5.7599132592914155e-05,1.5698778800000512,0.7859197750000035,0.0399999866,0.0399999866,-9.793558600000274,-0.0016664919673923615,-0.02491916584901499,-0.00022527176649378815,0.0023639434478192976,-0.004741425749845143
0.47500000000000003,-0.0004449923249720012,-0.7838144000000388,0.0008334731499636444,-2.356688899999975,-6.0405691992955e-05,1.5698576000000508,0.7859183500000035,0.039999986,0.039999986,-9.793450000000272,-0.0017589719498070575,-0.025309308499020668,-0.00022773215499382398,0.0025504543441322216,-0.004802761499846035
0.47750000000000004,-0.00045614635947216356,-0.7837989200000386,0.0008479563249638552,-2.356698829999975,-6.321225139299585e-05,1.5698373200000506,0.7859169250000035,0.0399999854,0.0399999854,-9.793341400000271,-0.0018514519322217532,-0.025699451149026345,-0.00023019254349385977,0.002736965240445146,-0.004864097249846928
0.48,-0.0004673003939723256,-0.7837834400000384,0.0008624394999640656,-2.356708759999975,-6.601881079303662e-05,1.5698170400000504,0.7859155000000035,0.039999984800000006,0.039999984800000006,-9.793232800000268,-0.001943931914636447,-0.026089593799032015,-0.00023265293199389552,0.002923476136758066,-0.0049254329998478195
0.4825,-0.00047845442847248797,-0.7837679600000381,0.0008769226749642765,-2.3567186899999757,-6.882537019307747e-05,1.56979676000005,0.7859140750000035,0.039999984200000005,0.039999984200000005,-9.793124200000268,-0.0020364118970511427,-0.026479736449037693,-0.00023511332049393132,0.00310998703307099,-0.0049867687498487126
0.485,-0.0004902418119701006,-0.7837517860000408,0.0008922298799611705,-2.356729279999973,-7.179172099247519e-05,1.5697753500000542,0.7859124960000041,0.039999983600000004,0.039999983600000004,-9.79297720000041,-0.0021421261594649194,-0.02689635229893818,-0.00023801027099230477,0.0033043827856647765,-0.005049857799841993
0.4875,-0.0005023458699699465,-0.783735265000041,0.0009079490999609703,-2.356740199999973,-7.48379674924364e-05,1.5697533750000545,0.7859108400000041,0.039999983,0.039999983,-9.792811000000412,-0.0022544575619515396,-0.02732620474893271,-0.00024112550249226513,0.0035027209664426663,-0.005113823499841178
0.49,-0.0005144499279697924,-0.7837187440000413,0.0009236683199607702,-2.3567511199999727,-7.788421399239762e-05,1.5697314000000548,0.7859091840000041,0.0399999824,0.0399999824,-9.792644800000414,-0.0023667889644381594,-0.027756057198927236,-0.00024424073399222546,0.003701059147220556,-0.005177789199840363
0.4925,-0.0005265539859696383,-0.7837022230000414,0.00093938753996057,-2.3567620399999725,-8.093046049235883e-05,1.5697094250000552,0.7859075280000042,0.0399999818,0.0399999818,-9.792478600000416,-0.002479120366924779,-0.028185909648921766,-0.00024735596549218576,0.003899397327998446,-0.005241754899839549
0.495,-0.0005386580439694842,-0.7836857020000416,0.0009551067599603699,-2.3567729599999723,-8.397670699232004e-05,1.5696874500000555,0.7859058720000042,0.0399999812,0.0399999812,-9.79231240000042,-0.002591451769411399,-0.02861576209891629,-0.0002504711969921461,0.004097735508776335,-0.005305720599838735
0.4975,-0.0005507621019693301,-0.7836691810000419,0.0009708259799601698,-2.356783879999972,-8.702295349228126e-05,1.5696654750000556,0.7859042160000043,0.0399999806,0.0399999806,-9.792146200000422,-0.002703783171898019,-0.029045614548910817,-0.00025358642849210647,0.004296073689554225,-0.00536968629983792
0.5,-0.000562866159969176,-0.7836526600000421,0.0009865451999599697,-2.356794799999972,-9.006919999224246e-05,1.569643500000056,0.7859025600000042,0.03999998,0.03999998,-9.791980000000423,-0.0028161145743846386,-0.029475466998905346,-0.00025670165999206677,0.004494411870332116,-0.005433651999837106
0.5025000000000001,-0.0005759593059664908,-0.7836349960000452,0.0010035514199564762,-2.3568060049999713,-9.336513289156473e-05,1.569619695000061,0.7859008410000045,0.03999997955,0.03999998,-9.791829250000387,-0.0029226840470983275,-0.029930736948834833,-0.00025943923349299375,0.004701340035005795,-0.005500324809829364
0.505,-0.0005890524519663238,-0.7836173320000455,0.0010205576399562593,-2.356817209999971,-9.666106579152269e-05,1.5695958900000613,0.7858991220000044,0.0399999791,0.03999998,-9.791678500000389,-0.003029253519797338,-0.030386006898829025,-0.0002621768069929588,0.004908268199701341,-0.005566997619828514
0.5075000000000001,-0.0006021455979661574,-0.7835996680000457,0.001037563859956043,-2.356828414999971,-9.995699869148081e-05,1.5695720850000614,0.7858974030000044,0.03999997865,0.03999998,-9.79152775000039,-0.0031358229924963537,-0.030841276848823238,-0.00026491438049292405,0.005115196364396895,-0.005633670429827667
0.51,-0.0006152387439659904,-0.7835820040000459,0.0010545700799558261,-2.356839619999971,-0.00010325293159143878,1.5695482800000617,0.7858956840000044,0.0399999782,0.03999998,-9.791377000000391,-0.003242392465195364,-0.03129654679881743,-0.0002676519539928891,0.005322124529092442,-0.0057003432398268165
0.5125,-0.0006283318899658235,-0.7835643400000462,0.0010715762999556093,-2.3568508249999707,-0.00010654886449139673,1.569524475000062,0.7858939650000044,0.03999997775,0.03999998,-9.791226250000394,-0.003348961937894375,-0.031751816748811626,-0.0002703895274928542,0.005529052693787987,-0.005767016049825966
0.515,-0.000641425035965657,-0.7835466760000463,0.0010885825199553932,-2.356862029999971,-0.00010984479739135485,1.5695006700000624,0.7858922460000045,0.0399999773,0.03999998,-9.791075500000394,-0.003455531410593391,-0.032207086698805835,-0.00027312710099281943,0.005735980858483542,-0.005833688859825119
0.5175,-0.0006548607249627815,-0.7835286300000496,0.0011060344949516516,-2.356873549999968,-0.0001132270716906301,1.5694762350000677,0.7858904700000049,0.039999977,0.03999998,-9.790910650000509,-0.0035684741797338015,-0.03267694489868468,-0.0002759993624917195,0.00594657126291029,-0.0059011759948178295
0.52,-0.000668981499962602,-0.7835098200000499,0.0011243779799514184,-2.356885699999968,-0.0001167820287905849,1.569450540000068,0.7858885800000049,0.039999977,0.03999998,-9.79071760000051,-0.003694163541907959,-0.03317597959867834,-0.00027914099999167956,0.006164486146886186,-0.005970291779816951
0.5225,-0.0006831022749624219,-0.7834910100000501,0.0011427214649511845,-2.3568978499999678,-0.00012033698589053956,1.5694248450000683,0.785886690000005,0.039999977,0.03999998,-9.790524550000514,-0.003819852904082111,-0.03367501429867197,-0.0002822826374916395,0.006382401030862071,-0.00603940756481607
0.525,-0.0006972230499622424,-0.7834722000000504,0.0011610649499509513,-2.3569099999999676,-0.0001238919429904944,1.5693991500000686,0.785884800000005,0.039999977,0.03999998,-9.790331500000516,-0.003945542266256269,-0.03417404899866563,-0.0002854242749915996,0.0066003159148379665,-0.006108523349815191
0.5275,-0.0007113438249620623,-0.7834533900000505,0.0011794084349507174,-2.3569221499999675,-0.00012744690009044903,1.569373455000069,0.7858829100000051,0.039999977,0.03999998,-9.79013845000052,-0.00407123162843042,-0.03467308369865926,-0.0002885659124915595,0.006818230798813852,-0.006177639134814309
0.53,-0.0007254645999618828,-0.7834345800000507,0.0011977519199504842,-2.3569342999999674,-0.00013100185719040384,1.5693477600000694,0.7858810200000051,0.039999977,0.03999998,-9.789945400000521,-0.004196920990604578,-0.035172118398652925,-0.00029170754999151955,0.007036145682789747,-0.006246754919813431
0.5325,-0.0007395853749617027,-0.783415770000051,0.0012160954049502501,-2.356946449999967,-0.0001345568142903585,1.5693220650000697,0.7858791300000052,0.039999977,0.03999998,-9.789752350000523,-0.00432261035277873,-0.03567115309864656,-0.0002948491874914795,0.007254060566765633,-0.00631587070481255
0.535,-0.0007544166399586193,-0.7833961500000546,0.0012353635299462379,-2.356959279999964,-0.00013829083398958145,1.5692951100000752,0.7858771600000055,0.039999977,0.03999998,-9.789610400000317,-0.004456530091907908,-0.03619061079855674,-0.0002979291079916918,0.007477562222013164,-0.006386665939804807
0.5375,-0.0007696031499584257,-0.7833761250000548,0.0012550939749459862,-2.356972449999964,-0.00014211438498953267,1.5692675250000756,0.7858751500000055,0.039999977,0.03999998,-9.78949400000032,-0.004594565019564892,-0.03672027999854999,-0.00030097816999165295,0.0077038572629306475,-0.006458300899803893
0.54,-0.0007847896599582326,-0.7833561000000551,0.0012748244199457354,-2.3569856199999637,-0.0001459379359894841,1.5692399400000758,0.7858731400000055,0.039999977,0.03999998,-9.78937760000032,-0.004732599947221883,-0.03724994919854325,-0.0003040272319916142,0.00793015230384814,-0.006529935859802982
0.5425,-0.000799976169958039,-0.7833360750000553,0.0012945548649454838,-2.3569987899999636,-0.00014976148698943531,1.5692123550000763,0.7858711300000055,0.039999977,0.03999998,-9.789261200000322,-0.004870634874878868,-0.037779618398536496,-0.00030707629399157526,0.008156447344765625,-0.006601570819802068
0.545,-0.0008151626799578459,-0.7833160500000556,0.001314285309945233,-2.3570119599999635,-0.00015358503798938673,1.5691847700000765,0.7858691200000055,0.039999977,0.03999998,-9.789144800000322,-0.0050086698025358575,-0.038309287598529765,-0.00031012535599153656,0.00838274238568312,-0.006673205779801158
0.5475,-0.0008303491899576522,-0.7832960250000558,0.0013340157549449813,-2.3570251299999634,-0.00015740858898933795,1.569157185000077,0.7858671100000056,0.039999977,0.03999998,-9.789028400000324,-0.005146704730192842,-0.038838956798523006,-0.00031317441799149764,0.008609037426600602,-0.006744840739800245
0.55,-0.0008455356999574592,-0.783276000000056,0.0013537461999447305,-2.3570382999999633,-0.00016123213998928934,1.5691296000000772,0.7858651000000056,0.039999977,0.03999998,-9.788912000000327,-0.005284739657849833,-0.039368625998516274,-0.0003162234799914589,0.008835332467518095,-0.006816475699799334
0.5525,-0.0008618255499541608,-0.7832547150000598,0.0013749126699404378,-2.3570517699999622,-0.00016533380598845798,1.5690999900000833,0.7858629250000061,0.0399999764,0.03999997955,-9.788845550000186,-0.005446237418346133,-0.03994681359837299,-0.0003194655949908768,0.0090701062225649,-0.00689059134479144
0.555,-0.0008781153999539537,-0.7832334300000602,0.0013960791399401688,-2.357065239999962,-0.00016943547198840586,1.5690703800000836,0.7858607500000061,0.039999975800000004,0.0399999791,-9.788779100000188,-0.005607735178908166,-0.04052500119836564,-0.00032270770999083553,0.009304879977635466,-0.006964706989790498
0.5575,-0.0008944052499537459,-0.7832121450000604,0.0014172456099398989,-2.357078709999962,-0.00017353713798835355,1.5690407700000841,0.7858585750000061,0.0399999752,0.03999997865,-9.788712650000189,-0.005769232939470191,-0.04110318879835827,-0.00032594982499079423,0.009539653732706023,-0.007038822634789553
0.56,-0.0009106950999535388,-0.7831908600000608,0.0014384120799396298,-2.357092179999962,-0.0001776388039883014,1.5690111600000844,0.7858564000000061,0.0399999746,0.0399999782,-9.788646200000189,-0.0059307307000322235,-0.041681376398350914,-0.000329191939990753,0.009774427487776589,-0.007112938279788611
0.5625,-0.000926984949953331,-0.783169575000061,0.00145957854993936,-2.3571056499999616,-0.0001817404699882491,1.568981550000085,0.7858542250000062,0.039999974,0.03999997775,-9.78857975000019,-0.006092228460594248,-0.04225956399834355,-0.00033243405499071163,0.010009201242847144,-0.007187053924787665
0.5650000000000001,-0.000943274799953124,-0.7831482900000613,0.0014807450199390909,-2.3571191199999615,-0.00018584213598819697,1.5689519400000853,0.7858520500000062,0.0399999734,0.0399999773,-9.78851330000019,-0.006253726221156281,-0.04283775159833619,-0.00033567616999067044,0.01024397499791771,-0.0072611695697867235
0.5675,-0.0009599447699494616,-0.7831265550000657,0.0015024062749343246,-2.357132929999958,-0.0001900396194872739,1.568921635000092,0.7858498350000066,0.039999973,0.039999977,-9.788387525000708,-0.006412701680809947,-0.043425550798239954,-0.0003389018259907428,0.0104824385598624,-0.007336097749778036
0.5700000000000001,-0.0009773749799487645,-0.7831039200000666,0.0015250570999334188,-2.3571474199999574,-0.00019442873798709834,1.5688899400000933,0.7858475400000067,0.039999973,0.039999977,-9.788143100000717,-0.006566632538581385,-0.04403257319821568,-0.0003420945639906151,0.010728281735651213,-0.007412650999774974
0.5725,-0.0009948051899480667,-0.7830812850000675,0.0015477079249325118,-2.357161909999957,-0.00019881785648692262,1.5688582450000945,0.7858452450000069,0.039999973,0.039999977,-9.787898675000728,-0.0067205633963528175,-0.044639595598191376,-0.00034528730199048725,0.010974124911440014,-0.007489204249771909
0.5750000000000001,-0.0010122353999473695,-0.7830586500000684,0.001570358749931606,-2.357176399999956,-0.00020320697498674706,1.5688265500000957,0.7858429500000069,0.039999973,0.039999977,-9.787654250000736,-0.0068744942541242565,-0.0452466179981671,-0.0003484800399903595,0.011219968087228827,-0.007565757499768847
0.5775,-0.0010296656099466716,-0.7830360150000693,0.001593009574930699,-2.3571908899999556,-0.00020759609348657134,1.568794855000097,0.785840655000007,0.039999973,0.039999977,-9.787409825000747,-0.007028425111895688,-0.04585364039814279,-0.0003516727779902317,0.01146581126301763,-0.007642310749765782
0.58,-0.0010470958199459738,-0.7830133800000701,0.001615660399929792,-2.357205379999955,-0.0002119852119863956,1.5687631600000982,0.7858383600000071,0.039999973,0.039999977,-9.787165400000756,-0.00718235596966712,-0.04646066279811849,-0.00035486551599010383,0.01171165443880643,-0.007718863999762717
0.5825,-0.0010645260299452768,-0.782990745000071,0.0016383112249288862,-2.3572198699999545,-0.00021637433048622007,1.5687314650000994,0.7858360650000072,0.039999973,0.039999977,-9.786920975000767,-0.007336286827438558,-0.04706768519809421,-0.00035805825398997615,0.011957497614595244,-0.0077954172497596555
0.585,-0.0010827408599415136,-0.7829671600000756,0.0016619833699239878,-2.357235099999951,-0.0002209612929852712,1.5686983400001064,0.7858336340000078,0.039999973,0.039999977299999996,-9.786762850000361,-0.007506521231865421,-0.04770781579793589,-0.0003614312659891145,0.012208760156429138,-0.007873650699751452
0.5875,-0.0011013479999417849,-0.7829431000000753,0.0016861661749243404,-2.3572506999999514,-0.0002256471774853395,1.5686645000001058,0.7858311350000078,0.039999973,0.03999997775,-9.786647875000359,-0.007684907409735666,-0.04836450049794546,-0.000364894414989165,0.012462732381324034,-0.007952724249752605
0.59,-0.001119955139942055,-0.782919040000075,0.0017103489799246917,-2.3572662999999516,-0.0002303330619854076,1.5686306600001054,0.7858286360000077,0.039999973,0.039999978199999994,-9.786532900000358,-0.007863293587605904,-0.049021185197955,-0.00036835756398921534,0.01271670460621892,-0.008031797799753755
0.5925,-0.0011385622799423263,-0.7828949800000746,0.0017345317849250443,-2.357281899999952,-0.0002350189464854759,1.5685968200001048,0.7858261370000078,0.039999973,0.03999997865,-9.786417925000356,-0.008041679765476149,-0.04967786989796457,-0.0003718207129892658,0.012970676831113815,-0.008110871349754908
0.595,-0.0011571694199425967,-0.7828709200000743,0.0017587145899253956,-2.357297499999952,-0.000239704830985544,1.5685629800001044,0.7858236380000078,0.039999973,0.0399999791,-9.786302950000355,-0.008220065943346386,-0.05033455459797412,-0.00037528386198931615,0.013224649056008701,-0.008189944899756057
0.5975,-0.001175776559942868,-0.7828468600000739,0.0017828973949257482,-2.3573130999999523,-0.0002443907154856123,1.5685291400001038,0.7858211390000077,0.039999973,0.039999979549999995,-9.786187975000352,-0.008398452121216631,-0.05099123929798369,-0.0003787470109893666,0.013478621280903599,-0.008269018449757208
0.6,-0.0011943836999431382,-0.7828228000000735,0.0018070801999260995,-2.3573286999999525,-0.00024907659998568037,1.5684953000001034,0.7858186400000077,0.039999973,0.03999998,-9.786073000000352,-0.008576838299086868,-0.05164792399799323,-0.00038221015998941697,0.013732593505798482,-0.008348091999758358
0.6025,-0.0012142035149397214,-0.7827973345000775,0.0018328418599216501,-2.3573452899999494,-0.0002540682024848189,1.5684592550001095,0.7858160240000079,0.039999972550000006,0.03999997955,-9.786028000000137,-0.008779518026242083,-0.052354106897852255,-0.0003854513104901426,0.013993858964319133,-0.008429379249752778
0.605,-0.0012340233299400092,-0.7827718690000771,0.0018586035199220244,-2.35736187999995,-0.0002590598049848914,1.568423210000109,0.7858134080000079,0.0399999721,0.0399999791,-9.785983000000137,-0.008982197753471527,-0.05306028979786252,-0.0003886924609901897,0.01425512442286206,-0.008510666499753959
0.6075,-0.0012538431449402982,-0.7827464035000767,0.0018843651799224,-2.35737846999995,-0.00026405140748496413,1.5683871650001084,0.7858107920000079,0.03999997165,0.03999997865,-9.785938000000137,-0.009184877480700982,-0.05376647269787281,-0.00039193361149023693,0.014516389881404999,-0.008591953749755145
0.61,-0.001273662959940586,-0.7827209380000764,0.0019101268399227742,-2.3573950599999502,-0.0002690430099850367,1.568351120000108,0.7858081760000079,0.039999971200000005,0.0399999782,-9.785893000000135,-0.009387557207930428,-0.05447265559788307,-0.000395174761990284,0.014777655339947925,-0.008673240999756325
0.6125,-0.001293482774940875,-0.782695472500076,0.0019358884999231497,-2.3574116499999502,-0.00027403461248510944,1.5683150750001076,0.7858055600000078,0.03999997075,0.03999997775,-9.785848000000135,-0.009590236935159882,-0.055178838497893366,-0.00039841591249033123,0.015038920798490863,-0.00875452824975751
0.615,-0.001313302589941163,-0.7826700070000756,0.001961650159923524,-2.3574282399999507,-0.000279026214985182,1.568279030000107,0.7858029440000077,0.03999997030000001,0.0399999773,-9.785803000000135,-0.009792916662389326,-0.05588502139790363,-0.00040165706299037836,0.015300186257033789,-0.008835815499758691
0.6175,-0.0013335384749373813,-0.7826440485000801,0.0019879535299186005,-2.3574449599999494,-0.00028412270498422864,1.5682422350001137,0.7858002550000084,0.03999997,0.039999977,-9.785716600000503,-0.009992687869240503,-0.05660238669780137,-0.0004049878434895674,0.015564133179504894,-0.008917868199751572
0.62,-0.0013546064999365379,-0.7826171040000811,0.002015340319917504,-2.357461939999949,-0.0002894289699840162,1.5682039400001153,0.7857974200000085,0.03999997,0.039999977,-9.78554740000051,-0.010186642035257662,-0.05734211679777175,-0.00040849788398942687,0.01583344302990373,-0.009001451799748225
0.6225,-0.0013756745249356953,-0.7825901595000823,0.0020427271099164087,-2.357478919999948,-0.00029473523498380397,1.568165645000117,0.7857945850000086,0.03999997,0.039999977,-9.785378200000517,-0.01038059620127483,-0.058081846897742165,-0.0004120079244892865,0.016102752880302582,-0.009085035399744883
0.625,-0.0013967425499348516,-0.7825632150000833,0.0020701138999153126,-2.3574958999999476,-0.00030004149998359155,1.5681273500001185,0.7857917500000088,0.03999997,0.039999977,-9.785209000000524,-0.010574550367291989,-0.058821576997712545,-0.00041551796498914595,0.01637206273070142,-0.009168618999741536
0.6275000000000001,-0.001417810574934009,-0.7825362705000843,0.002097500689914217,-2.357512879999947,-0.0003053477649833793,1.56808905500012,0.7857889150000089,0.03999997,0.039999977,-9.78503980000053,-0.010768504533309157,-0.05956130709768296,-0.00041902800548900557,0.016641372581100267,-0.009252202599738194
0.63,-0.0014388785999331654,-0.7825093260000855,0.0021248874799131207,-2.3575298599999464,-0.0003106540299831669,1.5680507600001217,0.785786080000009,0.03999997,0.039999977,-9.784870600000536,-0.010962458699326317,-0.06030103719765334,-0.00042253804598886503,0.016910682431499104,-0.009335786199734847
0.6325000000000001,-0.0014599466249323228,-0.7824823815000865,0.0021522742699120255,-2.3575468399999457,-0.0003159602949829546,1.568012465000123,0.7857832450000092,0.03999997,0.039999977,-9.784701400000543,-0.011156412865343484,-0.061040767297623755,-0.00042604808648872465,0.017179992281897954,-0.009419369799731504
0.635,-0.0014818698599273071,-0.7824544100000926,0.0021807744999054967,-2.3575645199999413,-0.00032148220098169016,1.5679726200001323,0.7857803100000097,0.039999969600000004,0.0399999766,-9.784511800000649,-0.011368447541471507,-0.06181487459742643,-0.00042943872998916664,0.01745667513368728,-0.009504449399720859
0.6375000000000001,-0.0015042206999264132,-0.7824259250000938,0.0022098314499043345,-2.357582549999941,-0.000327111927481465,1.5679320000001338,0.7857773250000099,0.039999969,0.039999976,-9.784312000000657,-0.011589522472786195,-0.06260617049739478,-0.0004327696749890334,0.017737044486225376,-0.009590276999717427
0.64,-0.0015265715399255184,-0.7823974400000949,0.0022388883999031714,-2.35760057999994,-0.0003327416539812396,1.5678913800001355,0.78577434000001,0.0399999684,0.0399999754,-9.784112200000665,-0.011810597404100873,-0.0633974663973631,-0.00043610061998890004,0.01801741383876346,-0.00967610459971399
0.6425,-0.0015489223799246235,-0.7823689550000961,0.002267945349902008,-2.3576186099999394,-0.0003383713804810142,1.567850760000137,0.78577135500001,0.0399999678,0.039999974800000004,-9.783912400000673,-0.012031672335415553,-0.06418876229733142,-0.00043943156498876666,0.018297783191301546,-0.009761932199710553
0.645,-0.0015712732199237296,-0.7823404700000972,0.0022970022999008457,-2.3576366399999387,-0.00034400110698078906,1.5678101400001387,0.7857683700000102,0.0399999672,0.0399999742,-9.783712600000682,-0.01225274726673024,-0.06498005819729977,-0.00044276250998863344,0.01857815254383964,-0.009847759799707121
0.6475,-0.0015936240599228346,-0.7823119850000984,0.0023260592498996822,-2.357654669999938,-0.0003496308334805636,1.5677695200001402,0.7857653850000103,0.0399999666,0.0399999736,-9.78351280000069,-0.01247382219804492,-0.06577135409726809,-0.00044609345498850005,0.018858521896377725,-0.009933587399703684
0.65,-0.0016159748999219406,-0.7822835000000995,0.00235511619989852,-2.357672699999937,-0.0003552605599803385,1.567728900000142,0.7857624000000104,0.039999966,0.039999973,-9.783313000000698,-0.012694897129359606,-0.06656264999723643,-0.00044942439998836684,0.019138891248915824,-0.010019414999700252
0.6525,-0.0016396426799176853,-0.7822534400001045,0.002385887769892979,-2.3576918699999334,-0.0003612223459792654,1.5676859100001497,0.7857592575000109,0.039999966,0.039999973,-9.783192700000418,-0.01293046660639371,-0.06739946099708964,-0.00045289870448791665,0.019427166412513117,-0.010107433649693878
0.655,-0.0016633104599180302,-0.7822233800001042,0.0024166593398934275,-2.3577110399999337,-0.0003671841319793523,1.567642920000149,0.7857561150000109,0.039999966,0.039999973,-9.783072400000416,-0.013166036083478442,-0.06823627199710183,-0.00045637300898796726,0.019715441576138033,-0.010195452299695162
0.6575,-0.0016869782399183742,-0.7821933200001037,0.0024474309098938747,-2.357730209999934,-0.0003731459179794389,1.5675999300001482,0.7857529725000107,0.039999966,0.039999973,-9.782952100000415,-0.013401605560563164,-0.069073082997114,-0.00045984731348801776,0.020003716739762936,-0.01028347094969644
0.66,-0.0017106460199187191,-0.7821632600001033,0.002478202479894323,-2.3577493799999343,-0.00037910770397952577,1.5675569400001477,0.7857498300000108,0.039999966,0.039999973,-9.782831800000412,-0.013637175037647898,-0.06990989399712619,-0.0004633216179880684,0.020291991903387853,-0.010371489599697723
0.6625,-0.001734313799919063,-0.7821332000001028,0.0025089740498947704,-2.3577685499999346,-0.0003850694899796124,1.567513950000147,0.7857466875000108,0.039999966,0.039999973,-9.782711500000412,-0.01387274451473262,-0.07074670499713835,-0.00046679592248811887,0.020580267067012756,-0.010459508249699002
0.665,-0.0017579815799194079,-0.7821031400001024,0.002539745619895219,-2.357787719999935,-0.0003910312759796993,1.5674709600001464,0.7857435450000106,0.039999966,0.039999973,-9.78259120000041,-0.014108313991817355,-0.07158351599715054,-0.00047027022698816953,0.020868542230637672,-0.010547526899700285
0.6675,-0.0017820994449149461,-0.7820725450001077,0.002571103329889408,-2.3578072349999313,-0.00039710657697857396,1.5674271250001548,0.7857403375000113,0.0399999657,0.03999997285,-9.782496700000145,-0.014353338814374538,-0.07243925099696209,-0.0004737779669878474,0.021159260905274053,-0.010636259599693481
0.67,-0.0018071174799146282,-0.7820408800001081,0.0026036333198889944,-2.357827439999931,-0.00040340890797849383,1.5673816000001553,0.7857370000000113,0.0399999648,0.0399999724,-9.782453800000146,-0.014617274328165604,-0.07333283399695073,-0.000477352577987802,0.02145486660200807,-0.010726420399692335
0.6725,-0.001832135514914309,-0.7820092150001084,0.0026361633098885796,-2.357847644999931,-0.0004097112389784135,1.567336075000156,0.7857336625000114,0.039999963900000005,0.039999971950000004,-9.782410900000146,-0.014881209841956658,-0.07422641699693933,-0.0004809271889877564,0.021750472298742076,-0.010816581199691184
0.675,-0.0018571535499139911,-0.7819775500001089,0.002668693299888166,-2.3578678499999306,-0.0004160135699783334,1.5672905500001564,0.7857303250000114,0.039999963,0.0399999715,-9.782368000000147,-0.015145145355747723,-0.07511999999692798,-0.000484501799987711,0.022046077995476095,-0.010906741999690038
0.6775,-0.001882171584913672,-0.7819458850001093,0.0027012232898877514,-2.3578880549999304,-0.000422315900978253,1.567245025000157,0.7857269875000115,0.0399999621,0.039999971050000006,-9.782325100000149,-0.015409080869538776,-0.07601358299691657,-0.0004880764109876654,0.0223416836922101,-0.010996902799688889
0.68,-0.001907189619913354,-0.7819142200001097,0.002733753279887338,-2.35790825999993,-0.0004286182319781729,1.5671995000001575,0.7857236500000115,0.0399999612,0.039999970600000004,-9.782282200000148,-0.01567301638332984,-0.07690716599690522,-0.0004916510219876199,0.022637289388944118,-0.011087063599687742
0.6825,-0.0019322076549130348,-0.7818825550001101,0.002766283269886923,-2.35792846499993,-0.0004349205629780925,1.5671539750001582,0.7857203125000115,0.039999960300000005,0.03999997015,-9.78223930000015,-0.015936951897120896,-0.07780074899689382,-0.0004952256329875744,0.022932895085678123,-0.011177224399686592
0.685,-0.0019581477899078916,-0.7818497650001164,0.0028000139398802262,-2.3579494299999255,-0.0004414553789767958,1.5671068300001672,0.7857168530000123,0.03999996,0.03999997,-9.782107950000613,-0.016194982267026255,-0.07871653199676629,-0.0004987836489876157,0.023233426547483494,-0.011268770399678198
0.6875,-0.001984548974907555,-0.7818164125001168,0.002834344949879788,-2.357970774999925,-0.0004481064374767109,1.567058875000168,0.7857133325000123,0.03999996,0.03999997,-9.781932375000615,-0.016450060064942505,-0.07964341499675447,-0.0005023333674875705,0.0235364208918631,-0.01136100899967702
0.6900000000000001,-0.002010950159907219,-0.7817830600001172,0.002868675959879352,-2.357992119999925,-0.00045475749597662644,1.5670109200001685,0.7857098120000123,0.03999996,0.03999997,-9.781756800000617,-0.01670513786285877,-0.08057029799674269,-0.0005058830859875254,0.023839415236242716,-0.011453247599675849
0.6925,-0.0020373513449068823,-0.7817497075001176,0.002903006969878914,-2.3580134649999245,-0.00046140855447654157,1.566962965000169,0.7857062915000124,0.03999996,0.03999997,-9.78158122500062,-0.016960215660775022,-0.08149718099673087,-0.0005094328044874801,0.02414240958062232,-0.011545486199674673
0.6950000000000001,-0.002063752529906547,-0.781716355000118,0.0029373379798784778,-2.3580348099999244,-0.000468059612976457,1.5669150100001696,0.7857027710000125,0.03999996,0.03999997,-9.781405650000622,-0.017215293458691286,-0.08242406399671909,-0.000512982522987435,0.02444540392500194,-0.0116377247996735
0.6975,-0.00209015371490621,-0.7816830025001185,0.0029716689898780396,-2.358056154999924,-0.0004747106714763722,1.5668670550001704,0.7856992505000125,0.03999996,0.03999997,-9.781230075000623,-0.017470371256607536,-0.08335094699670727,-0.0005165322414873896,0.024748398269381546,-0.011729963399672324
0.7000000000000001,-0.0021165548999058747,-0.7816496500001189,0.003005999999877603,-2.358077499999924,-0.00048136172997628767,1.566819100000171,0.7856957300000126,0.03999996,0.03999997,-9.781054500000625,-0.0177254490545238,-0.08427782999669547,-0.0005200819599873445,0.025051392613761166,-0.011822201999671152
0.7025,-0.002144371364900474,-0.7816145935001254,0.0030421741498705707,-2.3580999999999195,-0.0004883697464749257,1.566768505000181,0.7856920205000133,0.039999959700000004,0.03999997,-9.780943350000397,-0.018009826912458435,-0.08527132649644532,-0.0005236043409873971,0.025361879261962234,-0.01191659429966227
0.705,-0.0021721878299001194,-0.7815795370001258,0.0030783482998701095,-2.358122499999919,-0.0004953777629748363,1.5667179100001818,0.7856883110000134,0.0399999594,0.03999997,-9.780832200000399,-0.018294204770497535,-0.08626482299643265,-0.0005271267219873522,0.025672365910190013,-0.012010986599661065
0.7075,-0.002200004294899766,-0.7815444805001264,0.0031145224498696496,-2.3581449999999187,-0.0005023857794747473,1.5666673150001824,0.7856846015000134,0.0399999591,0.03999997,-9.7807210500004,-0.018578582628536646,-0.08725831949642003,-0.0005306491029873074,0.02598285255841781,-0.012105378899659866
0.71,-0.002227820759899411,-0.7815094240001268,0.0031506965998691883,-2.3581674999999187,-0.0005093937959746578,1.566616720000183,0.7856808920000135,0.039999958800000006,0.03999997,-9.780609900000401,-0.018862960486575743,-0.08825181599640736,-0.0005341714839872625,0.02629333920664559,-0.012199771199658663
0.7125,-0.0022556372248990573,-0.7814743675001272,0.003186870749868729,-2.3581899999999183,-0.0005164018124745688,1.5665661250001837,0.7856771825000135,0.0399999585,0.03999997,-9.780498750000403,-0.019147338344614854,-0.08924531249639472,-0.0005376938649872177,0.02660382585487338,-0.012294163499657463
0.715,-0.002283453689898703,-0.7814393110001276,0.003223044899868267,-2.358212499999918,-0.0005234098289744794,1.5665155300001843,0.7856734730000136,0.039999958200000005,0.03999997,-9.780387600000404,-0.01943171620265395,-0.09023880899638206,-0.0005412162459871729,0.02691431250310116,-0.012388555799656259
0.7175,-0.002311752334893063,-0.7814036630001346,0.003259847019860923,-2.3582353649999135,-0.0005305394229730575,1.5664640700001944,0.7856697000000142,0.039999958,0.03999997,-9.780275475000417,-0.019721253401435348,-0.09124807499619655,-0.0005447431199870787,0.027227189390690507,-0.012483562549648324
0.72,-0.0023410153398926896,-0.7813668320001351,0.0032979050798604376,-2.3582589599999135,-0.0005379121719729634,1.566410880000195,0.7856658000000143,0.039999958,0.03999997,-9.780161400000418,-0.0200211092818708,-0.09228887999618328,-0.0005482789799870337,0.02754484675708146,-0.012579798199647095
0.7225,-0.002370278344892318,-0.7813300010001356,0.003335963139859954,-2.358282554999913,-0.0005452849209728697,1.5663576900001956,0.7856619000000143,0.039999958,0.03999997,-9.78004732500042,-0.020320965162306266,-0.09332968499617005,-0.0005518148399869887,0.027862504123472426,-0.012676033849645873
0.725,-0.0023995413498919447,-0.781293170000136,0.0033740211998594684,-2.3583061499999127,-0.0005526576699727757,1.5663045000001965,0.7856580000000144,0.039999958,0.03999997,-9.779933250000422,-0.020620821042741714,-0.09437048999615677,-0.0005553506999869437,0.02818016148986338,-0.012772269499644644
0.7275,-0.002428804354891573,-0.7812563390001365,0.0034120792598589847,-2.3583297449999128,-0.000560030418972682,1.5662513100001971,0.7856541000000145,0.039999958,0.03999997,-9.779819175000423,-0.02092067692317718,-0.09541129499614354,-0.0005588865599868987,0.02849781885625435,-0.012868505149643421
0.73,-0.0024580673598911993,-0.781219508000137,0.0034501373198584993,-2.3583533399999124,-0.000567403167972588,1.5661981200001978,0.7856502000000145,0.039999958,0.03999997,-9.779705100000424,-0.021220532803612628,-0.09645209999613026,-0.0005624224199868536,0.0288154762226453,-0.012964740799642193
0.7325,-0.0024873303648908275,-0.7811826770001374,0.0034881953798580156,-2.358376934999912,-0.0005747759169724943,1.5661449300001984,0.7856463000000146,0.039999958,0.03999997,-9.779591025000425,-0.021520388684048094,-0.09749290499611704,-0.0005659582799868087,0.02913313358903627,-0.01306097644964097
0.735,-0.0025175781498849247,-0.7811446400001447,0.0035275361798503273,-2.3584012999999073,-0.0005823971659710049,1.566089960000209,0.7856422650000154,0.039999958,0.03999997,-9.779524900000158,-0.02184051535899978,-0.09857833399585318,-0.0005695218099866082,0.029455428010500186,-0.013158491999632555
0.7375,-0.0025483183248845337,-0.7811060000001452,0.0035675183498498192,-2.358426049999907,-0.0005901426649709063,1.5660341000002098,0.7856381625000154,0.039999958,0.03999997,-9.779482750000158,-0.022170777431379945,-0.0996860749958391,-0.0005730991749865627,0.029780040959539567,-0.013256647499631308
0.74,-0.002579058499884142,-0.7810673600001456,0.0036075005198493095,-2.3584507999999067,-0.0005978881639708076,1.5659782400002105,0.7856340600000155,0.039999958,0.03999997,-9.779440600000159,-0.0225010395037601,-0.10079381599582499,-0.0005766765399865171,0.03010465390857893,-0.013354802999630057
0.7425,-0.0026097986748837513,-0.7810287200001461,0.003647482689848801,-2.3584755499999064,-0.0006056336629707092,1.5659223800002111,0.7856299575000155,0.039999958,0.03999997,-9.77939845000016,-0.022831301576140266,-0.1019015569958109,-0.0005802539049864716,0.03042926685761831,-0.01345295849962881
0.745,-0.002640538849883359,-0.7809900800001466,0.003687464859848291,-2.358500299999906,-0.0006133791619706104,1.5658665200002118,0.7856258550000156,0.039999958,0.03999997,-9.77935630000016,-0.023161563648520418,-0.10300929799579678,-0.000583831269986426,0.030753879806657676,-0.013551113999627558
0.7475,-0.0026712790248829684,-0.780951440000147,0.003727447029847783,-2.3585250499999058,-0.000621124660970512,1.5658106600002126,0.7856217525000155,0.039999958,0.03999997,-9.779314150000161,-0.023491825720900587,-0.1041170389957827,-0.0005874086349863805,0.031078492755697056,-0.013649269499626311
0.75,-0.002702019199882576,-0.7809128000001475,0.0037674291998472734,-2.3585497999999054,-0.0006288701599704131,1.5657548000002133,0.7856176500000156,0.039999958,0.03999997,-9.779272000000162,-0.02382208779328074,-0.10522477999576857,-0.000590985999986335,0.03140310570473642,-0.01374742499962506
0.7525000000000001,-0.002734266784876408,-0.7808723375001551,0.0038093746448392405,-2.358575689999901,-0.0006369956359688584,1.5656961650002246,0.7856133375000165,0.0399999574,0.0399999694,-9.779087950000706,-0.024143051261714805,-0.10637391799559583,-0.00059449799498654,0.03173499218992342,-0.013847415749616777
0.755,-0.002766514369875997,-0.7808318750001556,0.0038513200898387056,-2.3586015799999003,-0.0006451211119687548,1.5656375300002254,0.7856090250000165,0.0399999568,0.0399999688,-9.778903900000708,-0.024464014730113334,-0.10752305599558118,-0.0005980099899864952,0.032066878675138195,-0.013947406499615502
0.7575000000000001,-0.0027987619548755873,-0.780791412500156,0.0038932655348381724,-2.3586274699999,-0.0006532465879686515,1.565578895000226,0.7856047125000166,0.0399999562,0.0399999682,-9.77871985000071,-0.02478497819851188,-0.10867219399556657,-0.0006015219849864505,0.032398765160352984,-0.01404739724961423
0.76,-0.002831009539875176,-0.7807509500001566,0.003935210979837637,-2.3586533599999,-0.0006613720639685478,1.565520260000227,0.7856004000000167,0.039999955600000005,0.039999967600000005,-9.778535800000713,-0.025105941666910412,-0.10982133199555191,-0.0006050339799864058,0.03273065164556775,-0.014147387999612956
0.7625000000000001,-0.002863257124874766,-0.7807104875001571,0.003977156424837104,-2.3586792499998994,-0.0006694975399684445,1.5654616250002276,0.7855960875000167,0.039999955000000004,0.039999967000000004,-9.778351750000715,-0.025426905135308958,-0.11097046999553731,-0.0006085459749863611,0.03306253813078254,-0.014247378749611683
0.765,-0.0028955047098743547,-0.7806700250001577,0.004019101869836569,-2.3587051399998993,-0.0006776230159683409,1.5654029900002284,0.7855917750000169,0.0399999544,0.0399999664,-9.778167700000717,-0.02574786860370749,-0.11211960799552265,-0.0006120579699863163,0.033394424615997315,-0.014347369499610409
0.7675000000000001,-0.002928264499867938,-0.7806289375001655,0.0040617145048282115,-2.358731414999894,-0.0006858776819667227,1.56534342500024,0.7855874050000176,0.039999954,0.039999966,-9.778006900000447,-0.02607918502625308,-0.11328825749527924,-0.0006155722029862454,0.03372860178218976,-0.014447957949602129
0.77,-0.0029620486998675074,-0.780586600000166,0.0041056615198276514,-2.358758459999894,-0.0006943907279666141,1.5652820000002408,0.7855829200000176,0.039999954,0.039999966,-9.777892600000449,-0.026431207357456583,-0.11449592999526384,-0.0006190909119862005,0.03406736031041802,-0.01454974179960083
0.7725,-0.0029958328998670766,-0.7805442625001666,0.0041496085348270905,-2.3587855049998936,-0.0007029037739665055,1.5652205750002417,0.7855784350000177,0.039999954,0.039999966,-9.77777830000045,-0.026783229688660082,-0.11570360249524843,-0.0006226096209861556,0.03440611883864628,-0.014651525649599532
0.775,-0.003029617099866647,-0.7805019250001671,0.004193555549826532,-2.358812549999893,-0.0007114168199663973,1.5651591500002424,0.7855739500000177,0.039999954,0.039999966,-9.77766400000045,-0.0271352520198636,-0.11691127499523309,-0.0006261283299861109,0.03474487736687455,-0.014753309499598239
0.7775,-0.0030634012998662164,-0.7804595875001676,0.004237502564825972,-2.3588395949998926,-0.0007199298659662887,1.5650977250002431,0.7855694650000178,0.039999954,0.039999966,-9.777549700000453,-0.027487274351067098,-0.11811894749521767,-0.0006296470389860661,0.03508363589510281,-0.014855093349596941
0.78,-0.003097185499865787,-0.7804172500001682,0.004281449579825413,-2.3588666399998925,-0.0007284429119661806,1.565036300000244,0.7855649800000178,0.039999954,0.039999966,-9.777435400000455,-0.027839296682270614,-0.11932661999520233,-0.0006331657479860213,0.03542239442333109,-0.014956877199595648
0.7825,-0.003130969699865356,-0.7803749125001687,0.004325396594824853,-2.358893684999892,-0.000736955957966072,1.5649748750002448,0.7855604950000179,0.039999954,0.039999966,-9.777321100000457,-0.028191319013474114,-0.12053429249518692,-0.0006366844569859765,0.03576115295155935,-0.015058661049594349
0.785,-0.0031657974298586683,-0.780331280000177,0.004370702879816142,-2.3589215299998867,-0.0007457322009643854,1.5649115700002567,0.7855558600000189,0.0399999536,0.039999965400000004,-9.77720290000048,-0.028555961696810555,-0.12178263699492765,-0.0006402357839857361,0.03610458709161317,-0.015161682699585632
0.7875,-0.0032011469248582176,-0.7802870000001776,0.004416688799815556,-2.3589497749998865,-0.0007546400424642717,1.5648473250002577,0.7855511500000188,0.039999953,0.039999964500000006,-9.777082750000483,-0.02892691455632673,-0.12305131749491147,-0.0006438034199856906,0.03645035903762173,-0.01526532324958431
0.79,-0.003236496419857768,-0.7802427200001781,0.004462674719814971,-2.358978019999886,-0.0007635478839641585,1.5647830800002585,0.7855464400000189,0.039999952400000004,0.0399999636,-9.776962600000484,-0.029297867415842917,-0.12431999799489535,-0.0006473710559856453,0.0367961309836303,-0.015368963799582993
0.7925,-0.0032718459148573173,-0.7801984400001787,0.004508660639814385,-2.359006264999886,-0.0007724557254640449,1.5647188350002592,0.785541730000019,0.0399999518,0.0399999627,-9.776842450000485,-0.02966882027535909,-0.12558867849487917,-0.0006509386919855998,0.03714190292963885,-0.01547260434958167
0.795,-0.003307195409856868,-0.7801541600001793,0.0045546465598138,-2.3590345099998853,-0.0007813635669639316,1.56465459000026,0.785537020000019,0.0399999512,0.039999961800000004,-9.776722300000486,-0.030039773134875283,-0.12685735899486303,-0.0006545063279855544,0.03748767487564742,-0.015576244899580352
0.7975,-0.003342544904856417,-0.7801098800001799,0.004600632479813214,-2.359062754999885,-0.000790271408463818,1.564590345000261,0.7855323100000191,0.0399999506,0.039999960900000006,-9.776602150000487,-0.030410725994391454,-0.12812603949484686,-0.0006580739639855089,0.03783344682165598,-0.01567988544957903
0.8,-0.0033778943998559676,-0.7800656000001804,0.004646618399812629,-2.359090999999885,-0.0007991792499637048,1.5645261000002617,0.7855276000000192,0.03999995,0.03999996000000001,-9.77648200000049,-0.030781678853907646,-0.12939471999483074,-0.0006616415999854636,0.03817921876766455,-0.015783525999577715
0.8025,-0.003414836864849006,-0.780019376000189,0.004694679179803563,-2.3591204449998795,-0.0008084889429619488,1.5644589150002746,0.7855226455000203,0.03999995,0.0399999609,-9.776442400000162,-0.031184004618073125,-0.1307322114945333,-0.0006651258944857587,0.03853149171774639,-0.015888831549569587
0.805,-0.0034517793298485364,-0.7799731520001896,0.004742739959802952,-2.359149889999879,-0.0008177986359618304,1.5643917300002754,0.7855176910000203,0.03999995,0.0399999618,-9.776402800000163,-0.031586330382366454,-0.1320697029945163,-0.0006686101889857145,0.03888376466785474,-0.015994137099568248
0.8075,-0.003488721794848065,-0.7799269280001901,0.004790800739802339,-2.3591793349998786,-0.0008271083289617117,1.5643245450002763,0.7855127365000204,0.03999995,0.039999962699999995,-9.776363200000162,-0.03198865614665976,-0.13340719449449925,-0.00067209448348567,0.03923603761796307,-0.016099442649566906
0.81,-0.0035256642598475957,-0.7798807040001907,0.004838861519801728,-2.3592087799998787,-0.0008364180219615934,1.5642573600002772,0.7855077820000205,0.03999995,0.039999963599999994,-9.776323600000163,-0.03239098191095308,-0.13474468599448225,-0.0006755787779856257,0.03958831056807142,-0.016204748199565567
0.8125,-0.0035626067248471244,-0.7798344800001913,0.004886922299801115,-2.3592382249998782,-0.0008457277149614747,1.564190175000278,0.7855028275000205,0.03999995,0.03999996449999999,-9.776284000000164,-0.032793307675246394,-0.1360821774944652,-0.0006790630724855813,0.03994058351817975,-0.016310053749564225
0.8150000000000001,-0.003599549189846655,-0.7797882560001919,0.004934983079800504,-2.359267669999878,-0.0008550374079613563,1.5641229900002789,0.7854978730000206,0.03999995,0.0399999654,-9.776244400000165,-0.03319563343953972,-0.13741966899444819,-0.000682547366985537,0.0402928564682881,-0.016415359299562886
0.8175,-0.003637031789839437,-0.7797413705002008,0.004983747469791103,-2.3592975149998723,-0.0008644832544595369,1.5640548400002918,0.7854928565000214,0.03999995,0.039999966,-9.776155700000778,-0.033594105949860946,-0.13877002499427046,-0.0006859923334859838,0.04064727909713631,-0.01652111349955594
0.8200000000000001,-0.003675594659838947,-0.7796931620002013,0.005033919079790465,-2.359328159999872,-0.0008742014079594133,1.5639847600002927,0.7854877160000214,0.03999995,0.039999966,-9.775968800000781,-0.03398487195209377,-0.14014610999425295,-0.000689358643985941,0.04100600108354475,-0.016627764999554585
0.8225,-0.003714157529838455,-0.779644953500202,0.0050840906897898245,-2.359358804999872,-0.0008839195614592895,1.5639146800002937,0.7854825755000215,0.03999995,0.039999966,-9.775781900000784,-0.034375637954326584,-0.1415221949942354,-0.0006927249544858981,0.04136472306995317,-0.016734416499553224
0.8250000000000001,-0.003752720399837965,-0.7795967450002026,0.005134262299789187,-2.3593894499998713,-0.000893637714959166,1.5638446000002946,0.7854774350000217,0.03999995,0.039999966,-9.775595000000786,-0.034766403956559416,-0.14289827999421792,-0.0006960912649858553,0.04172344505636161,-0.01684106799955187
0.8275,-0.003791283269837473,-0.7795485365002032,0.005184433909788547,-2.359420094999871,-0.000903355868459042,1.5637745200002955,0.7854722945000217,0.03999995,0.039999966,-9.775408100000787,-0.03515716995879223,-0.14427436499420035,-0.0006994575754858123,0.042082167042770034,-0.01694771949955051
