rsonawane2002/My_IMU/logs_2/traj_454/imu_400hz_454.csv
time,j1,j2,j3,j4,j5,j6,j7,gripper1,gripper2,imu_ax,imu_ay,imu_az,imu_gx,imu_gy,imu_gz
0.0,0.00016700293,-0.785875,4.0107683e-05,-2.3551247,9.29385e-05,1.570997,0.786,0.04,0.04,-9.480895,0.0024192631244659,0.07279724,-6.007239e-07,-0.0011641273740679,4.271614e-07
0.0025,0.00016700210350000002,-0.7858577740000007,4.01101375999999e-05,-2.3551391899999996,9.294318149999981e-05,1.570996565,0.786,0.04,0.04,-9.533939949997878,0.0021504013741030343,0.06323730365038256,-5.957097255002007e-07,-0.0013253131881291696,4.165959475004228e-07
0.005,0.00016700127700000007,-0.7858405480000014,4.0112592199999804e-05,-2.355153679999999,9.294786299999963e-05,1.57099613,0.786,0.04,0.04,-9.586984899995755,0.0018815396237401685,0.05367736730076513,-5.906955510004014e-07,-0.0014864990021904393,4.0603049500084564e-07
0.0075,0.0001670004505000001,-0.785823322000002,4.0115046799999705e-05,-2.3551681699999985,9.295254449999944e-05,1.5709956950000001,0.786,0.04,0.04,-9.640029849993633,0.0016126778733773026,0.0441174309511477,-5.856813765006019e-07,-0.001647684816251709,3.9546504250126843e-07
0.01,0.00016699962400000014,-0.7858060960000027,4.0117501399999606e-05,-2.355182659999998,9.295722599999926e-05,1.5709952600000001,0.786,0.04,0.04,-9.693074799991509,0.001343816123014437,0.034557494601530264,-5.806672020008026e-07,-0.0018088706303129786,3.848995900016912e-07
0.0125,0.00016699879750000016,-0.7857888700000035,4.011995599999951e-05,-2.3551971499999973,9.296190749999906e-05,1.570994825,0.786,0.04,0.04,-9.746119749989386,0.0010749543726515712,0.024997558251912827,-5.756530275010033e-07,-0.0019700564443742483,3.74334137502114e-07
0.015,0.0001669979710000002,-0.7857716440000042,4.012241059999941e-05,-2.3552116399999967,9.296658899999888e-05,1.57099439,0.786,0.04,0.04,-9.799164699987264,0.0008060926222887056,0.015437621902295397,-5.70638853001204e-07,-0.002131242258435518,3.6376868500253684e-07
0.0175,0.00016699429450000254,-0.7857548670000043,4.012809294999671e-05,-2.3552257349999968,9.296964600000006e-05,1.5709939600000002,0.786,0.04,0.04,-9.834432850000079,0.0006282623013236229,0.008987164925062742,-7.364685163624481e-07,-0.002288163721055536,1.5962751766025729e-07
0.02,0.00016698491800000266,-0.7857389880000045,4.014023079999656e-05,-2.3552390399999963,9.296945400000005e-05,1.5709935400000001,0.786,0.04,0.04,-9.83414740000008,0.0006324948393726789,0.00875566670006569,-1.2439858558559858e-06,-0.002436556480782812,-4.316650798322135e-07
0.0225,0.00016697554150000278,-0.7857231090000047,4.01523686499964e-05,-2.3552523449999963,9.296926200000006e-05,1.5709931200000002,0.786,0.04,0.04,-9.833861950000085,0.000636727377421735,0.008524168475068638,-1.7515031953495234e-06,-0.002584949240510087,-1.0229576773246843e-06
0.025,0.0001669661650000029,-0.785707230000005,4.0164506499996245e-05,-2.3552656499999958,9.296907000000006e-05,1.5709927000000001,0.786,0.04,0.04,-9.833576500000088,0.0006409599154707912,0.008292670250071585,-2.2590205348430617e-06,-0.002733342000237363,-1.6142502748171562e-06
0.0275,0.00016695678850000303,-0.7856913510000051,4.017664434999609e-05,-2.3552789549999957,9.296887800000006e-05,1.5709922800000002,0.786,0.04,0.04,-9.833291050000092,0.0006451924535198473,0.008061172025074533,-2.766537874336599e-06,-0.002881734759964638,-2.205542872309627e-06
0.03,0.00016694741200000315,-0.7856754720000053,4.018878219999594e-05,-2.3552922599999953,9.296868600000006e-05,1.5709918600000001,0.786,0.04,0.04,-9.833005600000096,0.0006494249915689034,0.00782967380007748,-3.274055213830137e-06,-0.0030301275196919137,-2.7968354698020977e-06
0.0325,0.00016693803550000327,-0.7856595930000055,4.020092004999578e-05,-2.355305564999995,9.296849400000007e-05,1.5709914400000002,0.786,0.04,0.04,-9.8327201500001,0.0006536575296179595,0.007598175575080429,-3.7815725533236752e-06,-0.0031785202794191894,-3.3881280672945693e-06
0.035,0.00016691374900001143,-0.7856445700000053,4.023021359998636e-05,-2.3553180999999954,9.296018650000445e-05,1.5709910100000002,0.786,0.04,0.04,-9.83245880000009,0.00065838168375006,0.0073809611500756595,-4.810612899535467e-06,-0.0033190821296973753,-4.701023639397204e-06
0.0375,0.00016688200750001185,-0.7856299750000054,4.026808499998588e-05,-2.3553302499999953,9.294782125000461e-05,1.5709905750000002,0.786,0.04,0.04,-9.832209500000094,0.0006633516459240718,0.007170888625078335,-6.1004147495190416e-06,-0.0034557285252448202,-6.374720699375889e-06
0.04,0.00016685026600001224,-0.7856153800000056,4.030595639998539e-05,-2.355342399999995,9.293545600000477e-05,1.5709901400000001,0.786,0.04,0.04,-9.831960200000097,0.0006683216080980834,0.006960816100081009,-7.39021659950262e-06,-0.0035923749207922655,-8.048417759354579e-06
0.0425,0.00016681852450001265,-0.7856007850000059,4.0343827799984914e-05,-2.355354549999995,9.292309075000493e-05,1.5709897050000001,0.786,0.04,0.04,-9.8317109000001,0.0006732915702720952,0.006750743575083684,-8.680018449486196e-06,-0.003729021316339711,-9.722114819333269e-06
0.045,0.00016678678300001304,-0.785586190000006,4.038169919998443e-05,-2.355366699999995,9.291072550000509e-05,1.5709892700000003,0.786,0.04,0.04,-9.831461600000102,0.0006782615324461069,0.006540671050086359,-9.969820299469771e-06,-0.0038656677118871557,-1.1395811879311955e-05
0.0475,0.00016675504150001345,-0.7855715950000062,4.041957059998395e-05,-2.355378849999995,9.289836025000523e-05,1.5709888350000003,0.786,0.04,0.04,-9.831212300000105,0.0006832314946201187,0.0063305985250890345,-1.125962214945335e-05,-0.004002314107434601,-1.3069508939290645e-05
0.05,0.00016672330000001384,-0.7855570000000063,4.0457441999983464e-05,-2.3553909999999947,9.288599500000539e-05,1.5709884000000003,0.786,0.04,0.04,-9.830963000000109,0.0006882014567941303,0.006120526000091709,-1.2549423999436928e-05,-0.004138960502982046,-1.4743205999269335e-05
0.0525,0.0001666495660000331,-0.785543560000006,4.054406519996108e-05,-2.355402024999995,9.28510472500157e-05,1.5709879800000002,0.786,0.04,0.04,-9.830691350000123,0.0006954332318822209,0.005939639050081271,-1.5103365698852535e-05,-0.004264394356812764,-1.7963921998552962e-05
0.055,0.00016657583200003405,-0.7855301200000062,4.063068839995998e-05,-2.355413049999995,9.281609950001615e-05,1.5709875600000003,0.786,0.04,0.04,-9.830419700000126,0.0007026650069712988,0.005758752100083574,-1.765730739882002e-05,-0.004389828210638587,-2.1184637998511954e-05
0.0575,0.000166502098000035,-0.7855166800000064,4.071731159995887e-05,-2.355424074999995,9.278115175001658e-05,1.5709871400000002,0.786,0.04,0.04,-9.83014805000013,0.0007098967820603766,0.005577865150085877,-2.0211249098787502e-05,-0.004515262064464409,-2.440535399847095e-05
0.06,0.00016642836400003594,-0.7855032400000066,4.080393479995777e-05,-2.3554350999999945,9.274620400001703e-05,1.5709867200000003,0.786,0.04,0.04,-9.829876400000133,0.0007171285571494545,0.005396978200088181,-2.276519079875498e-05,-0.004640695918290232,-2.7626069998429934e-05
0.0625,0.00016635463000003688,-0.7854898000000068,4.089055799995667e-05,-2.3554461249999945,9.271125625001748e-05,1.5709863000000002,0.786,0.04,0.04,-9.829604750000136,0.0007243603322385325,0.005216091250090484,-2.5319132498722463e-05,-0.004766129772116055,-3.084678599838893e-05
0.065,0.00016628089600003782,-0.7854763600000069,4.0977181199955564e-05,-2.3554571499999946,9.267630850001792e-05,1.5709858800000003,0.786,0.04,0.04,-9.82933310000014,0.0007315921073276104,0.005035204300092787,-2.7873074198689946e-05,-0.004891563625941878,-3.4067501998347924e-05
0.0675,0.0001661848695000739,-0.7854632850000065,4.108980749991345e-05,-2.355467834999995,9.262936180003729e-05,1.5709854500000002,0.7859999050000002,0.04,0.04,-9.82909635000009,0.0007392860337813145,0.004848930750103585,-3.0969339397802154e-05,-0.005013379151872638,-3.794306469727419e-05
0.07,0.00016604425800007571,-0.7854509400000067,4.125443999991136e-05,-2.3554778399999945,9.255841720003819e-05,1.5709850000000003,0.7859996200000002,0.04,0.04,-9.82892940000009,0.0007479042629664397,0.004651884000106093,-3.515025159774892e-05,-0.005127958021996289,-4.3128320797208165e-05
0.0725,0.0001659036465000775,-0.7854385950000068,4.141907249990926e-05,-2.3554878449999945,9.24874726000391e-05,1.5709845500000001,0.7859993350000002,0.04,0.04,-9.828762450000093,0.000756522492151565,0.004454837250108604,-3.933116379769567e-05,-0.0052425368921199395,-4.831357689714212e-05
0.075,0.00016576303500007928,-0.785426250000007,4.1583704999907165e-05,-2.3554978499999946,9.241652800004e-05,1.5709841000000002,0.7859990500000001,0.04,0.04,-9.828595500000095,0.0007651407213366903,0.004257790500111112,-4.351207599764244e-05,-0.00535711576224359,-5.34988329970761e-05
0.0775,0.00016562242350008107,-0.7854139050000071,4.174833749990507e-05,-2.355507854999994,9.234558340004091e-05,1.5709836500000003,0.7859987650000002,0.04,0.04,-9.828428550000096,0.0007737589505218156,0.004060743750113621,-4.7692988197589205e-05,-0.005471694632367242,-5.868408909701008e-05
0.08,0.00016548181200008288,-0.7854015600000073,4.191296999990297e-05,-2.355517859999994,9.227463880004181e-05,1.5709832000000004,0.7859984800000002,0.04,0.04,-9.828261600000099,0.0007823771797069409,0.00386369700011613,-5.187390039753597e-05,-0.005586273502490893,-6.386934519694406e-05
0.0825,0.00016534120050008466,-0.7853892150000074,4.207760249990088e-05,-2.3555278649999942,9.22036942000427e-05,1.5709827500000002,0.7859981950000002,0.04,0.04,-9.8280946500001,0.0007909954088920661,0.003666650250118639,-5.605481259748274e-05,-0.0057008523726145436,-6.905460129687805e-05
0.085,0.00016513627700014577,-0.7853775200000069,4.2317507599829365e-05,-2.3555371799999945,9.20992674000745e-05,1.5709823000000003,0.7859979100000002,0.04,0.0399999995,-9.827927000000104,0.0008004264789572618,0.0034872258001048956,-6.068831539701212e-05,-0.005809157248521701,-7.572495939544243e-05
0.08750000000000001,0.00016489919750014878,-0.7853661500000071,4.259504899982583e-05,-2.3555461499999946,9.197809950007603e-05,1.5709818500000003,0.7859976250000003,0.04,0.03999999875,-9.827759000000105,0.0008102639694636016,0.003316612500107068,-6.554811349695024e-05,-0.005914325127312052,-8.313786849534804e-05
0.09,0.0001646621180001518,-0.7853547800000072,4.28725903998223e-05,-2.3555551199999942,9.185693160007758e-05,1.5709814000000002,0.7859973400000002,0.04,0.039999998,-9.827591000000108,0.0008201014599699412,0.0031459992001092413,-7.040791159688834e-05,-0.006019493006102402,-9.055077759525363e-05
0.0925,0.00016442503850015483,-0.7853434100000074,4.3150131799818765e-05,-2.3555640899999943,9.173576370007912e-05,1.5709809500000003,0.7859970550000002,0.04,0.03999999725,-9.82742300000011,0.000829938950476281,0.0029753859001114135,-7.526770969682646e-05,-0.006124660884892753,-9.796368669515924e-05
0.095,0.00016418795900015784,-0.7853320400000076,4.342767319981523e-05,-2.355573059999994,9.161459580008067e-05,1.5709805000000003,0.7859967700000002,0.04,0.0399999965,-9.827255000000113,0.0008397764409826207,0.002804772600113586,-8.012750779676459e-05,-0.006229828763683104,-0.00010537659579506486
0.0975,0.00016395087950016085,-0.7853206700000077,4.370521459981169e-05,-2.355582029999994,9.14934279000822e-05,1.5709800500000004,0.7859964850000002,0.04,0.03999999575,-9.827087000000114,0.0008496139314889605,0.0026341593001157583,-8.498730589670271e-05,-0.006334996642473455,-0.00011278950489497047
0.1,0.0001637138000001639,-0.7853093000000079,4.398275599980816e-05,-2.3555909999999938,9.137226000008375e-05,1.5709796000000003,0.7859962000000003,0.04,0.039999995,-9.826919000000116,0.0008594514219953003,0.0024635460001179305,-8.984710399664083e-05,-0.006440164521263806,-0.00012020241399487609
0.10250000000000001,0.00016334645450025861,-0.7852989050000073,4.441314709969703e-05,-2.355599594999994,9.117983775013545e-05,1.5709790450000005,0.7859958700000003,0.04,0.03999999575,-9.826722950000137,0.0008665120665632147,0.002312997465105978,-9.71973763948258e-05,-0.006535849464058513,-0.00013052672139273226
0.105,0.00016297910900026327,-0.7852885100000074,4.484353819969155e-05,-2.3556081899999937,9.09874155001379e-05,1.5709784900000003,0.7859955400000003,0.04,0.0399999965,-9.82652690000014,0.0008735727111292097,0.0021624489301078956,-0.00010454764879473219,-0.0066315344068466646,-0.00014085102879260073
0.1075,0.00016261176350026795,-0.7852781150000075,4.5273929299686064e-05,-2.355616784999994,9.079499325014035e-05,1.5709779350000004,0.7859952100000003,0.04,0.03999999725,-9.826330850000144,0.0008806333556952049,0.0020119003951098125,-0.0001118979211946386,-0.006727219349634816,-0.0001511753361924693
0.11,0.00016224441800027263,-0.7852677200000078,4.5704320399680584e-05,-2.3556253799999936,9.06025710001428e-05,1.5709773800000004,0.7859948800000003,0.04,0.039999998,-9.826134800000146,0.0008876940002612,0.0018613518601117293,-0.00011924819359454501,-0.006822904292422968,-0.00016149964359233785
0.1125,0.00016187707250027732,-0.7852573250000079,4.6134711499675104e-05,-2.3556339749999933,9.041014875014525e-05,1.5709768250000005,0.7859945500000002,0.04,0.03999999875,-9.825938750000148,0.0008947546448271951,0.001710803325113646,-0.00012659846599445142,-0.00691858923521112,-0.0001718239509922064
0.115,0.000161509727000282,-0.785246930000008,4.6565102599669624e-05,-2.3556425699999934,9.02177265001477e-05,1.5709762700000005,0.7859942200000002,0.04,0.0399999995,-9.82574270000015,0.0009018152893931902,0.0015602547901155629,-0.00013394873839435784,-0.007014274177999272,-0.00018214825839207497
0.11750000000000001,0.00016108642450041766,-0.7852368230000075,4.7061244349510226e-05,-2.355650799999994,8.999580575021921e-05,1.5709755650000008,0.7859938100000005,0.04,0.03999999975,-9.825605150000015,0.0009103904128914998,0.0014065974726247574,-0.0001421587839922515,-0.007108055800129204,-0.00019338569348980583
0.12,0.0001605512080004245,-0.7852272920000076,4.768888739950223e-05,-2.3556582999999938,8.971488800022278e-05,1.570974560000001,0.7859932400000004,0.04,0.039999999,-9.825584600000017,0.000921994494265017,0.0012467225901267938,-0.00015208837599212503,-0.007198030780929403,-0.00020644938398963944
0.1225,0.0001600159915004313,-0.7852177610000077,4.8316530449494235e-05,-2.355665799999994,8.943397025022636e-05,1.5709735550000008,0.7859926700000004,0.04,0.03999999825,-9.825564050000017,0.0009335985756385343,0.0010868477076288294,-0.0001620179679919986,-0.007288005761729602,-0.0002195130744894731
0.125,0.0001594807750004381,-0.7852082300000078,4.8944173499486246e-05,-2.3556732999999936,8.915305250022994e-05,1.570972550000001,0.7859921000000004,0.04,0.0399999975,-9.825543500000016,0.0009452026570120516,0.0009269728251308648,-0.00017194755999187217,-0.007377980742529802,-0.00023257676498930678
0.1275,0.0001589455585004449,-0.7851986990000079,4.957181654947825e-05,-2.355680799999994,8.887213475023353e-05,1.5709715450000008,0.7859915300000004,0.04,0.03999999675,-9.825522950000018,0.0009568067383855689,0.0007670979426329003,-0.00018187715199174576,-0.007467955723330001,-0.0002456404554891404
0.13,0.00015841034200045172,-0.785189168000008,5.019945959947026e-05,-2.3556882999999935,8.85912170002371e-05,1.570970540000001,0.7859909600000005,0.04,0.039999996,-9.825502400000017,0.0009684108197590861,0.0006072230601349358,-0.00019180674399161933,-0.0075579307041302,-0.0002587041459889741
0.1325,0.00015787512550045855,-0.7851796370000081,5.0827102649462274e-05,-2.3556957999999932,8.831029925024068e-05,1.5709695350000008,0.7859903900000005,0.04,0.03999999525,-9.825481850000019,0.0009800149011326034,0.0004473481776369713,-0.00020173633599149292,-0.0076479056849304,-0.00027176783648880776
0.135,0.00015720070600066044,-0.7851706340000077,5.161854679922476e-05,-2.355702619999994,8.795476450034872e-05,1.5709685000000009,0.7859896260000008,0.04,0.039999995,-9.825388100000117,0.0009890970773925275,0.00030159926912310645,-0.00021308939998929052,-0.0077330611179778795,-0.00028707477798541693
0.1375,0.00015645668500069022,-0.7851618950000081,5.2491891499189814e-05,-2.3557090999999937,8.756192125036443e-05,1.570967450000001,0.7859887650000008,0.04,0.039999995,-9.825257750000121,0.0009969183010907694,0.00016291334762865618,-0.00022515419998880772,-0.007815806777139663,-0.0003035033449847595
0.14,0.00015571266400071998,-0.7851531560000085,5.336523619915487e-05,-2.355715579999994,8.716907800038015e-05,1.570966400000001,0.7859879040000008,0.04,0.039999995,-9.825127400000126,0.0010047395247890114,2.4227426134205922e-05,-0.00023721899998832492,-0.007898552436301448,-0.00031993191198410214
0.14250000000000002,0.00015496864300074977,-0.7851444170000088,5.4238580899119915e-05,-2.3557220599999935,8.677623475039588e-05,1.5709653500000011,0.7859870430000009,0.04,0.039999995,-9.824997050000132,0.0010125607484872535,-0.00011445849536024426,-0.00024928379998784213,-0.00798129809546323,-0.0003363604789834447
0.145,0.00015422462200077956,-0.7851356780000092,5.511192559908496e-05,-2.355728539999993,8.63833915004116e-05,1.570964300000001,0.7859861820000009,0.04,0.039999995,-9.824866700000136,0.0010203819721854954,-0.000253144416854693,-0.00026134859998735917,-0.008064043754625013,-0.0003527890459827871
0.1475,0.00015348060100080931,-0.7851269390000095,5.598527029905001e-05,-2.355735019999993,8.599054825042732e-05,1.5709632500000013,0.785985321000001,0.04,0.039999995,-9.82473635000014,0.0010282031958837375,-0.0003918303383491432,-0.00027341339998687643,-0.008146789413786798,-0.0003692176129821297
0.15,0.0001527365800008391,-0.7851182000000099,5.685861499901506e-05,-2.355741499999993,8.559770500044305e-05,1.5709622000000012,0.785984460000001,0.04,0.039999995,-9.824606000000147,0.0010360244195819794,-0.0005305162598435934,-0.0002854781999863936,-0.008229535072948583,-0.0003856461799814723
0.1525,0.00015173986750110957,-0.7851102200000089,5.8029590748696444e-05,-2.355747124999994,8.50706753505867e-05,1.5709606250000019,0.7859833110000013,0.04,0.039999994250000004,-9.824496050000121,0.0010436235752337404,-0.0006707635508438736,-0.00029981509048403985,-0.008304040972060443,-0.00040544151197796337
0.155,0.00015074315500109508,-0.7851022400000087,5.920056649871348e-05,-2.355752749999994,8.454364570057903e-05,1.5709590500000017,0.7859821620000013,0.04,0.039999993500000004,-9.82438610000012,0.001051222730885251,-0.0008110108418459146,-0.00031415198098424846,-0.008378546871163014,-0.00042523684397825144
0.1575,0.00014974644250108056,-0.7850942600000087,6.0371542248730525e-05,-2.355758374999994,8.401661605057137e-05,1.5709574750000017,0.7859810130000012,0.04,0.039999992750000005,-9.824276150000118,0.0010588218865367617,-0.0009512581328479555,-0.0003284888714844571,-0.008453052770265583,-0.0004450321759785395
0.16,0.00014874973000106605,-0.7850862800000086,6.154251799874756e-05,-2.355763999999994,8.34895864005637e-05,1.5709559000000017,0.7859798640000012,0.04,0.039999992000000005,-9.824166200000118,0.001066421042188272,-0.0010915054238499965,-0.00034282576198466574,-0.008527558669368152,-0.00046482750797882764
0.1625,0.00014775301750105156,-0.7850783000000084,6.27134937487646e-05,-2.355769624999994,8.296255675055603e-05,1.5709543250000015,0.7859787150000013,0.04,0.03999999125,-9.824056250000117,0.0010740201978397827,-0.0012317527148520374,-0.0003571626524848744,-0.008602064568470721,-0.0004846228399791157
0.165,0.00014675630500103704,-0.7850703200000083,6.388446949878165e-05,-2.3557752499999944,8.243552710054835e-05,1.5709527500000016,0.7859775660000012,0.04,0.0399999905,-9.823946300000115,0.0010816193534912933,-0.0013720000058540785,-0.00037149954298508307,-0.00867657046757329,-0.0005044181719794038
0.1675,0.00014565986650134127,-0.7850625750000075,6.517303299842293e-05,-2.3557807149999945,8.185440580071343e-05,1.5709511600000017,0.7859763250000015,0.04,0.03999999025,-9.8238406500001,0.001087072904918937,-0.001502777749884247,-0.00038672225148241084,-0.008749348344209483,-0.0005255207919754527
0.17,0.00014436397600135775,-0.7850553000000077,6.669677199840353e-05,-2.355785859999995,8.116510120072221e-05,1.5709495400000018,0.7859749000000015,0.04,0.039999991,-9.823743600000101,0.001088235247878942,-0.001614616399882823,-0.00040371659598219446,-0.00881867017589689,-0.0005492379879751507
0.17250000000000001,0.00014306808550137426,-0.7850480250000077,6.822051099838413e-05,-2.3557910049999946,8.0475796600731e-05,1.5709479200000016,0.7859734750000016,0.04,0.03999999175,-9.823646550000104,0.0010893975908389474,-0.001726455049881399,-0.0004207109404819781,-0.008887992007584297,-0.0005729551839748488
0.17500000000000002,0.00014177219500139074,-0.7850407500000078,6.974424999836473e-05,-2.3557961499999944,7.978649200073976e-05,1.5709463000000017,0.7859720500000016,0.04,0.0399999925,-9.823549500000105,0.0010905599337989525,-0.0018382936998799751,-0.00043770528498176175,-0.008957313839271704,-0.0005966723799745467
0.1775,0.00014047630450140727,-0.7850334750000079,7.12679889983453e-05,-2.3558012949999942,7.909718740074854e-05,1.5709446800000018,0.7859706250000016,0.04,0.039999993250000004,-9.823452450000106,0.0010917222767589578,-0.0019501323498785498,-0.00045469962948154515,-0.009026635670959111,-0.0006203895759742446
0.18,0.00013918041400142375,-0.785026200000008,7.27917279983259e-05,-2.355806439999994,7.840788280075732e-05,1.5709430600000018,0.7859692000000016,0.04,0.039999994000000004,-9.823355400000107,0.001092884619718963,-0.0020619709998771257,-0.00047169397398132883,-0.009095957502646518,-0.0006441067719739426
0.1825,0.00013788452350144026,-0.7850189250000081,7.43154669983065e-05,-2.3558115849999943,7.77185782007661e-05,1.570941440000002,0.7859677750000016,0.04,0.039999994750000004,-9.823258350000108,0.0010940469626789682,-0.002173809649875702,-0.0004886883184811125,-0.009165279334333925,-0.0006678239679736406
0.185,0.000136356603001848,-0.7850121000000074,7.611291799782558e-05,-2.3558160099999954,7.690478350098479e-05,1.5709394500000025,0.7859660240000022,0.0399999995,0.039999994500000004,-9.823238299999979,0.0010967356385623997,-0.002303882649843531,-0.000507713299977472,-0.009231031499731101,-0.0006940415599691225
0.1875,0.00013471266750186893,-0.7850055000000075,7.804722499780094e-05,-2.355820074999995,7.602874375099594e-05,1.5709372750000026,0.7859641100000022,0.03999999875,0.039999993750000004,-9.82325674999998,0.0011001874809113757,-0.0024430728248417593,-0.0005277535999772168,-0.009294998831974202,-0.0007215093499687728
0.19,0.00013306873200188987,-0.7849989000000076,7.998153199777632e-05,-2.3558241399999953,7.51527040010071e-05,1.5709351000000025,0.7859621960000022,0.039999998,0.039999993000000005,-9.823275199999978,0.0011036393232603519,-0.002582262999839987,-0.0005477938999769616,-0.009358966164217303,-0.0007489771399684231
0.1925,0.0001314247965019108,-0.7849923000000076,8.191583899775169e-05,-2.355828204999995,7.427666425101825e-05,1.5709329250000026,0.7859602820000022,0.03999999725,0.039999992250000005,-9.823293649999979,0.0011070911656093278,-0.0027214531748382146,-0.0005678341999767066,-0.009422933496460404,-0.0007764449299680733
0.195,0.00012978086100193172,-0.7849857000000078,8.385014599772707e-05,-2.355832269999995,7.34006245010294e-05,1.5709307500000027,0.7859583680000023,0.0399999965,0.0399999915,-9.823312099999978,0.0011105430079583038,-0.0028606433498364428,-0.0005878744999764514,-0.009486900828703503,-0.0008039127199677236
0.1975,0.00012813692550195266,-0.7849791000000078,8.578445299770244e-05,-2.355836334999995,7.252458475104056e-05,1.5709285750000026,0.7859564540000022,0.03999999575,0.03999999075,-9.823330549999978,0.00111399485030728,-0.0029998335248346704,-0.0006079147999761962,-0.009550868160946604,-0.0008313805099673739
0.2,0.0001264929900019736,-0.7849725000000078,8.77187599976778e-05,-2.355840399999995,7.164854500105172e-05,1.5709264000000027,0.7859545400000023,0.039999995,0.03999999,-9.823348999999979,0.001117446692656256,-0.0031390236998328986,-0.0006279550999759411,-0.009614835493189705,-0.0008588482999670241
0.2025,0.0001244502210024784,-0.7849665075000072,9.012386674708198e-05,-2.3558434149999963,7.055841775132261e-05,1.5709236700000033,0.7859522330000028,0.039999995,0.03999999,-9.823280600000084,0.0011145741445978102,-0.003248519844867153,-0.0006505280494726131,-0.00967319044277435,-0.0008903481949617824
0.20500000000000002,0.00012240745200250443,-0.7849605150000073,9.252897349705136e-05,-2.355846429999996,6.94682905013365e-05,1.5709209400000035,0.7859499260000028,0.039999995,0.03999999,-9.823212200000084,0.0011117015965317718,-0.0033580159898657586,-0.0006731009989723257,-0.009731545392352256,-0.0009218480899613814
0.20750000000000002,0.00012036468300253043,-0.7849545225000074,9.493408024702074e-05,-2.355849444999996,6.837816325135037e-05,1.5709182100000034,0.7859476190000029,0.039999995,0.03999999,-9.823143800000086,0.0011088290484657334,-0.0034675121348643643,-0.0006956739484720383,-0.009789900341930164,-0.0009533479849609803
0.21,0.00011832191400255646,-0.7849485300000074,9.733918699699009e-05,-2.3558524599999964,6.728803600136425e-05,1.5709154800000036,0.7859453120000028,0.039999995,0.03999999,-9.823075400000086,0.001105956500399695,-0.003577008279862969,-0.0007182468979717506,-0.00984825529150807,-0.0009848478799605789
0.2125,0.00011627914500258247,-0.7849425375000075,9.974429374695947e-05,-2.3558554749999963,6.619790875137813e-05,1.5709127500000035,0.7859430050000029,0.039999995,0.03999999,-9.823007000000088,0.0011030839523336565,-0.003686504424861575,-0.0007408198474714632,-0.009906610241085977,-0.0010163477749601778
0.215,0.00011423637600260848,-0.7849365450000076,0.00010214940049692885,-2.355858489999996,6.510778150139201e-05,1.5709100200000035,0.7859406980000029,0.039999995,0.03999999,-9.822938600000088,0.001100211404267618,-0.0037960005698601806,-0.0007633927969711758,-0.009964965190663885,-0.0010478476699597766
0.2175,0.00011204314600321662,-0.7849307575000068,0.00010473219574621074,-2.355861259999997,6.393692125171825e-05,1.5709070950000044,0.7859382070000036,0.039999995,0.03999999,-9.822873350000076,0.001095685327901342,-0.00390496859986083,-0.0007870505904666912,-0.010021471325239945,-0.001080737784953997
0.22,0.00010954899400324838,-0.784925380000007,0.00010767036799617333,-2.355863539999997,6.260459500173522e-05,1.5709037800000043,0.7859353480000038,0.039999995,0.03999999,-9.822814400000077,0.0010878521949154619,-0.004012880399859456,-0.0008128780719663624,-0.010074279829790922,-0.0011164083399535427
0.2225,0.00010705484200328014,-0.784920002500007,0.00011060854024613594,-2.355865819999997,6.127226875175218e-05,1.5709004650000045,0.7859324890000038,0.039999995,0.03999999,-9.822755450000077,0.0010800190619295815,-0.004120792199858082,-0.0008387055534660336,-0.010127088334341899,-0.0011520788949530886
0.225,0.00010456069000331188,-0.7849146250000071,0.00011354671249609852,-2.355868099999997,5.9939942501769145e-05,1.5708971500000044,0.7859296300000038,0.039999995,0.03999999,-9.82269650000008,0.0010721859289437013,-0.004228703999856708,-0.0008645330349657047,-0.010179896838892878,-0.0011877494499526345
0.2275,0.00010206653800334364,-0.7849092475000072,0.00011648488474606111,-2.3558703799999967,5.860761625178611e-05,1.5708938350000046,0.7859267710000039,0.039999995,0.03999999,-9.82263755000008,0.001064352795957821,-0.004336615799855334,-0.0008903605164653759,-0.010232705343443855,-0.0012234200049521802
0.23,9.95723860033754e-05,-0.7849038700000073,0.00011942305699602372,-2.3558726599999966,5.727529000180307e-05,1.5708905200000045,0.7859239120000039,0.039999995,0.03999999,-9.82257860000008,0.0010565196629719407,-0.00444452759985396,-0.000916187997965047,-0.010285513847994832,-0.001259090559951726
0.2325,9.707823400340715e-05,-0.7848984925000073,0.0001223612292459863,-2.355874939999997,5.5942963751820035e-05,1.5708872050000047,0.7859210530000039,0.039999995,0.03999999,-9.82251965000008,0.0010486865299860605,-0.004552439399852587,-0.0009420154794647182,-0.01033832235254581,-0.001294761114951272
0.23500000000000001,9.424715300413575e-05,-0.7848934700000066,0.0001256974779951256,-2.355876749999998,5.442983530221093e-05,1.5708835200000053,0.7859178040000048,0.039999995,0.03999999,-9.822483800000033,0.0010357671999585494,-0.0046492649198741414,-0.0009697832359603766,-0.01038877973326203,-0.001333291059944904
0.23750000000000002,9.124760750417394e-05,-0.7848886250000068,0.0001292327649950806,-2.3558783249999977,5.2826305752231346e-05,1.5708796500000055,0.7859143600000048,0.039999995,0.03999999,-9.822459500000035,0.0010203047713945412,-0.004740547299872979,-0.0009985211299600107,-0.010438061552053624,-0.0013732506999443953
0.24,8.824806200421215e-05,-0.7848837800000068,0.00013276805199503554,-2.355879899999998,5.122277620225178e-05,1.5708757800000055,0.7859109160000048,0.039999995,0.03999999,-9.822435200000035,0.0010048423428305332,-0.004831829679871816,-0.0010272590239596444,-0.010487343370845215,-0.001413210339943886
0.2425,8.524851650425035e-05,-0.7848789350000068,0.00013630333899499053,-2.3558814749999977,4.9619246652272195e-05,1.5708719100000055,0.7859074720000049,0.039999995,0.03999999,-9.822410900000035,0.0009893799142665252,-0.004923112059870654,-0.0010559969179592785,-0.010536625189636807,-0.0014531699799433773
0.245,8.224897100428853e-05,-0.784874090000007,0.0001398386259949455,-2.355883049999998,4.801571710229261e-05,1.5708680400000057,0.7859040280000049,0.039999995,0.03999999,-9.822386600000035,0.000973917485702517,-0.005014394439869492,-0.0010847348119589126,-0.0105859070084284,-0.0014931296199428685
0.2475,7.924942550432672e-05,-0.784869245000007,0.00014337391299490052,-2.3558846249999976,4.6412187552313024e-05,1.5708641700000057,0.785900584000005,0.039999995,0.03999999,-9.822362300000036,0.0009584550571385089,-0.0051056768198683294,-0.0011134727059585467,-0.010635188827219992,-0.0015330892599423598
0.25,7.624988000436492e-05,-0.7848644000000071,0.0001469091999948555,-2.355886199999998,4.480865800233344e-05,1.5708603000000056,0.785897140000005,0.039999995,0.03999999,-9.822338000000036,0.0009429926285745007,-0.005196959199867167,-0.0011422105999581808,-0.010684470646011584,-0.0015730488999418511
0.2525,7.268969090522609e-05,-0.7848601100000063,0.00015110716149383771,-2.3558867699999992,4.290314035279715e-05,1.5708558000000066,0.785893045000006,0.039999995,0.03999999075,-9.822381199999937,0.0009254180389946981,-0.0053084955698362735,-0.0011741315599531426,-0.010730362683467203,-0.0016175136699347291
0.255,6.912950180527142e-05,-0.7848558200000063,0.00015530512299378427,-2.3558873399999993,4.0997622702821416e-05,1.5708513000000066,0.785888950000006,0.039999995,0.0399999915,-9.822424399999935,0.0009078434494118219,-0.005420031939834854,-0.001206052519952736,-0.010776254720917889,-0.001661978439934163
0.2575,6.556931270531674e-05,-0.7848515300000064,0.00015950308449373083,-2.355887909999999,3.909210505284568e-05,1.5708468000000066,0.7858848550000062,0.039999995,0.03999999225,-9.822467599999936,0.0008902688598289457,-0.005531568309833433,-0.0012379734799523297,-0.010822146758368576,-0.0017064432099335967
0.26,6.200912360536207e-05,-0.7848472400000065,0.00016370104599367738,-2.355888479999999,3.7186587402869936e-05,1.5708423000000067,0.7858807600000062,0.039999995,0.039999993,-9.822510799999934,0.0008726942702460695,-0.005643104679832013,-0.0012698944399519233,-0.010868038795819261,-0.0017509079799330307
0.2625,5.84489345054074e-05,-0.7848429500000065,0.0001678990074936239,-2.355889049999999,3.52810697528942e-05,1.5708378000000067,0.7858766650000063,0.039999995,0.039999993750000004,-9.822553999999935,0.0008551196806631932,-0.005754641049830593,-0.0013018153999515168,-0.010913930833269947,-0.0017953727499324646
0.265,5.488874540545273e-05,-0.7848386600000066,0.00017209696899357047,-2.3558896199999992,3.3375552102918455e-05,1.5708333000000068,0.7858725700000063,0.039999995,0.039999994500000004,-9.822597199999933,0.000837545091080317,-0.005866177419829173,-0.0013337363599511104,-0.010959822870720632,-0.0018398375199318985
0.2675,5.1122898706450854e-05,-0.7848345430000058,0.00017653807399239054,-2.3558898350000006,3.1359844703453224e-05,1.570828580000008,0.7858682480000074,0.03999999465,0.039999994450000007,-9.82262180000002,0.0008174115617683062,-0.005972371249852505,-0.0013667008699458692,-0.011004216037626673,-0.0018857139849247921
0.27,4.694573680650404e-05,-0.7848307720000058,0.00018146546599232783,-2.355889340000001,2.9123757803481694e-05,1.570823420000008,0.7858634720000075,0.039999993600000006,0.03999999280000001,-9.82260920000002,0.0007921601529625576,-0.0060678799998512885,-0.001401752479945423,-0.011045611463422646,-0.001934413839924172
0.2725,4.276857490655722e-05,-0.7848270010000059,0.00018639285799226509,-2.355888845000001,2.6887670903510165e-05,1.570818260000008,0.7858586960000076,0.03999999255,0.039999991150000004,-9.82259660000002,0.0007669087441568092,-0.006163388749850072,-0.0014368040899449767,-0.011087006889218619,-0.0019831136949235518
0.275,3.859141300661041e-05,-0.784823230000006,0.00019132024999220235,-2.3558883500000007,2.4651584003538635e-05,1.570813100000008,0.7858539200000076,0.039999991500000005,0.039999989500000006,-9.82258400000002,0.0007416573353510607,-0.006258897499848856,-0.0014718556999445305,-0.011128402315014592,-0.0020318135499229318
0.2775,3.441425110666359e-05,-0.784819459000006,0.0001962476419921396,-2.355887855000001,2.2415497103567106e-05,1.5708079400000081,0.7858491440000076,0.03999999045,0.03999998785000001,-9.82257140000002,0.0007164059265453122,-0.00635440624984764,-0.001506907309944084,-0.011169797740810564,-0.002080513404922312
0.28,3.0237089206716773e-05,-0.784815688000006,0.00020117503399207686,-2.355887360000001,2.0179410203595576e-05,1.5708027800000084,0.7858443680000077,0.039999989400000005,0.039999986200000004,-9.82255880000002,0.0006911545177395637,-0.006449914999846424,-0.001541958919943638,-0.011211193166606537,-0.0021292132599216914
0.28250000000000003,2.6059927306769958e-05,-0.7848119170000061,0.00020610242599201412,-2.355886865000001,1.7943323303624047e-05,1.5707976200000084,0.7858395920000077,0.03999998835,0.039999984550000006,-9.822546200000021,0.0006659031089338151,-0.006545423749845208,-0.0015770105299431915,-0.01125258859240251,-0.0021779131149210714
0.28500000000000003,2.143335490792427e-05,-0.7848084610000053,0.00021156129799064917,-2.3558857300000025,1.5465884590243864e-05,1.5707918700000099,0.7858342900000092,0.039999988,0.039999984,-9.822533150000021,0.0006339747168233464,-0.006636643349854501,-0.0016143068299372455,-0.011291032191305485,-0.002229720199912838
0.28750000000000003,1.6582077257986038e-05,-0.7848051625000054,0.0002172859099905763,-2.3558842750000024,1.2867769969276943e-05,1.57078582500001,0.7858287250000092,0.039999988,0.039999984,-9.822519875000022,0.0005987078330361053,-0.0067257183748533666,-0.0016527254749367562,-0.01132799987675117,-0.002283080899912159
0.29,1.1730799608047912e-05,-0.7848018640000054,0.00022301052199050328,-2.3558828200000024,1.0269655348310081e-05,1.57077978000001,0.7858231600000093,0.039999988,0.039999984,-9.822506600000022,0.0005634409492488652,-0.006814793399852231,-0.0016911441199362663,-0.011364967562196853,-0.0023364415999114784
0.2925,6.879521958109678e-06,-0.7847985655000055,0.0002287351339904304,-2.3558813650000023,7.67154072734316e-06,1.5707737350000102,0.7858175950000094,0.039999988,0.039999984,-9.822493325000023,0.0005281740654616241,-0.006903868424851097,-0.001729562764935777,-0.011401935247642539,-0.002389802299910799
0.295,2.028244308171446e-06,-0.7847952670000056,0.00023445974599035753,-2.3558799100000023,5.073426106376239e-06,1.5707676900000103,0.7858120300000094,0.039999988,0.039999984,-9.822480050000022,0.0004929071816743832,-0.0069929434498499626,-0.001767981409935288,-0.011438902933088222,-0.0024431629999101196
0.2975,-2.8230333417667897e-06,-0.7847919685000055,0.00024018435799028464,-2.3558784550000027,2.4753114854093184e-06,1.5707616450000104,0.7858064650000095,0.039999988,0.039999984,-9.822466775000022,0.0004576402978871422,-0.0070820184748488285,-0.001806400054934799,-0.011475870618533907,-0.0024965236999094404
0.3,-7.674310991705022e-06,-0.7847886700000056,0.0002459089699902118,-2.3558770000000027,-1.228031355576009e-07,1.5707556000000105,0.7858009000000096,0.039999988,0.039999984,-9.822453500000023,0.00042237341409990126,-0.007171093499847694,-0.0018448186999343098,-0.01151283830397959,-0.0025498843999087607
0.3025,-1.3257520840382439e-05,-0.7847858440000048,0.0002524994194886474,-2.355874480000004,-3.113892663847589e-06,1.570748700000012,0.7857944800000111,0.039999988,0.039999984,-9.82244787500001,0.00037596568007564133,-0.007246082324870825,-0.0018864303049283204,-0.011546999867946649,-0.0026078431399001608
0.305,-1.8840730690311353e-05,-0.7847830180000048,0.00025908986898856345,-2.3558719600000044,-6.104982192809507e-06,1.570741800000012,0.7857880600000111,0.039999988,0.039999984,-9.82244225000001,0.0003295579460323322,-0.00732107114986987,-0.0019280419099277906,-0.01158116143190891,-0.002665801879899423
0.3075,-2.4423940540240268e-05,-0.7847801920000049,0.0002656803184884796,-2.355869440000004,-9.096071721771425e-06,1.5707349000000121,0.7857816400000113,0.039999988,0.039999984,-9.82243662500001,0.00028315021198902304,-0.007396059974868916,-0.0019696535149272606,-0.01161532299587117,-0.002723760619898685
0.31,-3.0007150390169182e-05,-0.7847773660000049,0.00027227076798839566,-2.3558669200000044,-1.2087161250733342e-05,1.5707280000000121,0.7857752200000113,0.039999988,0.039999984,-9.82243100000001,0.00023674247794571392,-0.007471048799867961,-0.002011265119926731,-0.01164948455983343,-0.002781719359897947
0.3125,-3.55903602400981e-05,-0.784774540000005,0.00027886121748831174,-2.3558644000000046,-1.5078250779695259e-05,1.5707211000000123,0.7857688000000114,0.039999988,0.039999984,-9.82242537500001,0.00019033474390240478,-0.0075460376248670065,-0.002052876724926201,-0.01168364612379569,-0.002839678099897209
0.315,-4.1173570090027005e-05,-0.784771714000005,0.0002854516669882278,-2.3558618800000044,-1.8069340308657176e-05,1.5707142000000123,0.7857623800000115,0.039999988,0.039999984,-9.82241975000001,0.00014392700985909566,-0.007621026449866052,-0.0020944883299256712,-0.011717807687757948,-0.0028976368398964713
0.3175,-4.702020068853426e-05,-0.7847690405000043,0.0002923537959864618,-2.355859040000006,-2.1201878493855703e-05,1.5707069450000144,0.7857556580000132,0.039999988,0.039999984,-9.822430149999924,9.67264409123004e-05,-0.007701735324834226,-0.0021371884449192667,-0.011750847799648035,-0.0029571418098873884
0.32,-5.339367278845311e-05,-0.7847666720000043,0.00029987928398636596,-2.3558555600000064,-2.4617313993812218e-05,1.5706989800000144,0.7857483320000133,0.039999988,0.039999984,-9.822472599999923,4.7940202145726555e-05,-0.0077938842998330525,-0.0021820655799186955,-0.011781645007375665,-0.0030197392398865915
0.3225,-5.976714488837196e-05,-0.7847643035000044,0.00030740477198627016,-2.3558520800000062,-2.803274949376873e-05,1.5706910150000146,0.7857410060000134,0.039999988,0.039999984,-9.822515049999923,-8.460366208472899e-07,-0.00788603327483188,-0.0022269427149181243,-0.011812442215103292,-0.0030823366698857946
0.325,-6.614061698829082e-05,-0.7847619350000044,0.00031493025998617435,-2.3558486000000065,-3.144818499372525e-05,1.5706830500000146,0.7857336800000134,0.039999988,0.039999984,-9.822557499999922,-4.963227538742115e-05,-0.007978182249830707,-0.0022718198499175526,-0.01184323942283092,-0.0031449340998849972
0.3275,-7.251408908820966e-05,-0.7847595665000044,0.00032245574798607854,-2.3558451200000063,-3.486362049368176e-05,1.5706750850000146,0.7857263540000136,0.039999988,0.039999984,-9.82259994999992,-9.8418514153995e-05,-0.008070331224829532,-0.0023166969849169813,-0.011874036630558547,-0.0032075315298842003
0.33,-7.888756118812852e-05,-0.7847571980000044,0.00032998123598598273,-2.3558416400000066,-3.827905599363828e-05,1.5706671200000148,0.7857190280000136,0.039999988,0.039999984,-9.822642399999921,-0.00014720475292056886,-0.008162480199828358,-0.00236157411991641,-0.011904833838286175,-0.0032701289598834034
0.3325,-8.526103328804736e-05,-0.7847548295000045,0.00033750672398588687,-2.355838160000007,-4.169449149359479e-05,1.5706591550000149,0.7857117020000137,0.039999988,0.039999984,-9.82268484999992,-0.0001959909916871427,-0.008254629174827185,-0.0024064512549158384,-0.011935631046013803,-0.0033327263898826065
0.335,-9.220046158636335e-05,-0.7847527460000037,0.00034570200398389414,-2.355833960000009,-4.54145375926886e-05,1.5706505400000168,0.7857037340000156,0.039999988,0.0399999844,-9.822725599999925,-0.000255200243433337,-0.00833585814985694,-0.00245355528990896,-0.011965124029611645,-0.003398513039872777
0.3375,-9.94228679862714e-05,-0.7847508050000037,0.00035423217998378553,-2.355829400000009,-4.92868889926393e-05,1.570641600000017,0.7856954450000158,0.039999988,0.039999985,-9.822765499999925,-0.0003196210017134218,-0.008411627124855976,-0.0025017727749083465,-0.011993964901139078,-0.003465894299871919
0.34,-0.00010664527438617943,-0.7847488640000038,0.0003627623559836769,-2.355824840000009,-5.315924039259e-05,1.5706326600000171,0.7856871560000158,0.039999988,0.0399999856,-9.822805399999924,-0.00038404175999350655,-0.008487396099855011,-0.0025499902599077323,-0.012022805772666512,-0.0035332755598710616
0.3425,-0.00011386768078608747,-0.7847469230000037,0.0003712925319835683,-2.355820280000009,-5.7031591792540695e-05,1.5706237200000173,0.7856788670000159,0.039999988,0.0399999862,-9.822845299999923,-0.00044846251827359136,-0.008563165074854046,-0.0025982077449071186,-0.012051646644193944,-0.0036006568198702037
0.34500000000000003,-0.00012109008718599552,-0.7847449820000038,0.0003798227079834597,-2.355815720000009,-6.090394319249139e-05,1.5706147800000172,0.785670578000016,0.039999988,0.0399999868,-9.822885199999922,-0.0005128832765536761,-0.008638934049853081,-0.0026464252299065044,-0.012080487515721376,-0.0036680380798693457
0.34750000000000003,-0.00012831249358590357,-0.7847430410000038,0.0003883528839833511,-2.355811160000009,-6.477629459244209e-05,1.5706058400000174,0.7856622890000161,0.039999988,0.0399999874,-9.822925099999923,-0.0005773040348337609,-0.008714703024852118,-0.0026946427149058907,-0.01210932838724881,-0.0037354193398684878
0.35000000000000003,-0.0001355348999858116,-0.7847411000000037,0.0003968830599832425,-2.355806600000009,-6.864864599239278e-05,1.5705969000000175,0.7856540000000163,0.039999988,0.039999988,-9.822964999999922,-0.0006417247931138457,-0.008790471999851153,-0.002742860199905277,-0.012138169258776242,-0.00380280059986763
0.3525,-0.00014366515498392444,-0.784739600000003,0.00040648783898100893,-2.3558008700000115,-7.300875584137898e-05,1.5705868650000199,0.7856446700000184,0.0399999874,0.0399999874,-9.822966349999998,-0.0007211169924879618,-0.008857771899866931,-0.0027944538248979864,-0.012164236698248074,-0.003874746584857745
0.355,-0.00015179540998382093,-0.784738100000003,0.00041609261798088664,-2.3557951400000117,-7.736886569132346e-05,1.57057683000002,0.7856353400000186,0.039999986800000005,0.039999986800000005,-9.822967699999998,-0.000800509191891491,-0.008925071799866074,-0.0028460474498973294,-0.012190304137714457,-0.003946692569856829
0.3575,-0.00015992566498371742,-0.784736600000003,0.00042569739698076434,-2.3557894100000114,-8.172897554126795e-05,1.5705667950000202,0.7856260100000186,0.039999986200000004,0.039999986200000004,-9.822969049999998,-0.0008799013912950201,-0.008992371699865217,-0.002897641074896673,-0.01221637157718084,-0.004018638554855913
0.36,-0.0001680559199836139,-0.784735100000003,0.0004353021759806421,-2.3557836800000116,-8.608908539121243e-05,1.57055676000002,0.7856166800000187,0.0399999856,0.0399999856,-9.822970399999997,-0.0009592935906985493,-0.00905967159986436,-0.002949234699896016,-0.012242439016647223,-0.004090584539854997
0.3625,-0.00017618617498351037,-0.784733600000003,0.0004449069549805198,-2.3557779500000118,-9.044919524115691e-05,1.5705467250000202,0.7856073500000189,0.039999985,0.039999985,-9.822971749999997,-0.0010386857901020785,-0.009126971499863504,-0.003000828324895359,-0.012268506456113605,-0.0041625305248540806
0.365,-0.00018431642998340686,-0.784732100000003,0.0004545117339803975,-2.355772220000012,-9.480930509110141e-05,1.5705366900000204,0.785598020000019,0.0399999844,0.0399999844,-9.822973099999997,-0.0011180779895056075,-0.009194271399862647,-0.0030524219498947024,-0.012294573895579988,-0.004234476509853165
0.3675,-0.00019276897198123504,-0.7847307330000023,0.0004644980589778268,-2.3557661000000145,-9.934257673993467e-05,1.5705262600000232,0.7855883180000215,0.039999984,0.039999984,-9.822994049999876,-0.001198342291003418,-0.009267264549825946,-0.0031051116148867936,-0.012319754576262202,-0.004307988224841905
0.37,-0.000201866087980871,-0.7847296320000023,0.00047524747597739664,-2.3557592000000147,-0.0001042221719897394,1.5705150400000236,0.7855778720000219,0.039999984,0.039999984,-9.823054199999874,-0.0012803507967058764,-0.00935164419982257,-0.003159993359884597,-0.01234316173935972,-0.004384631399838838
0.3725,-0.00021096320398050696,-0.7847285310000024,0.0004859968929769665,-2.355752300000015,-0.00010910176723954415,1.570503820000024,0.7855674260000224,0.039999984,0.039999984,-9.823114349999871,-0.0013623593024083345,-0.009436023849819194,-0.0032148751048824012,-0.012366568902457239,-0.004461274574835771
0.375,-0.00022006031998014292,-0.7847274300000024,0.0004967463099765364,-2.355745400000015,-0.00011398136248934889,1.5704926000000246,0.7855569800000227,0.039999984,0.039999984,-9.823174499999869,-0.001444367808110793,-0.009520403499815817,-0.003269756849880205,-0.012389976065554757,-0.004537917749832704
0.3775,-0.00022915743597977888,-0.7847263290000025,0.0005074957269761062,-2.3557385000000153,-0.00011886095773915362,1.570481380000025,0.7855465340000232,0.039999984,0.039999984,-9.823234649999867,-0.0015263763138132513,-0.00960478314981244,-0.003324638594878009,-0.012413383228652274,-0.004614560924829637
0.38,-0.00023825455197941484,-0.7847252280000024,0.000518245143975676,-2.3557316000000155,-0.00012374055298895834,1.5704701600000255,0.7855360880000236,0.039999984,0.039999984,-9.823294799999864,-0.0016083848195157094,-0.009689162799809064,-0.0033795203398758124,-0.012436790391749794,-0.00469120409982657
0.3825,-0.0002473516679790508,-0.7847241270000025,0.0005289945609752458,-2.3557247000000157,-0.0001286201482387631,1.570458940000026,0.7855256420000241,0.039999984,0.039999984,-9.823354949999862,-0.0016903933252181678,-0.009773542449805687,-0.003434402084873616,-0.012460197554847311,-0.004767847274823503
0.385,-0.00025713269997665154,-0.7847233140000015,0.0005405537499724052,-2.3557169900000186,-0.00013386723598747392,1.5704468900000288,0.7855144140000268,0.039999983600000004,0.039999983600000004,-9.823404799999897,-0.0017842640865154496,-0.009847969299839814,-0.003491555199865558,-0.01248231884087136,-0.004847619999812397
0.3875,-0.0002672556899767989,-0.7847226450000016,0.0005525178249725793,-2.3557088750000186,-0.00013929806998755296,1.5704344250000286,0.7855027950000266,0.039999983,0.039999983,-9.823449499999898,-0.001884065975671962,-0.009917419749840825,-0.0035498439998664067,-0.012503797188351973,-0.004928957499813581
0.39,-0.00027737867997694617,-0.7847219760000015,0.0005644818999727534,-2.3557007600000186,-0.00014472890398763198,1.5704219600000284,0.7854911760000265,0.0399999824,0.0399999824,-9.823494199999898,-0.0019838678648284743,-0.009986870199841836,-0.003608132799867255,-0.012525275535832586,-0.005010294999814764
0.3925,-0.0002875016699770935,-0.7847213070000015,0.0005764459749729275,-2.355692645000018,-0.00015015973798771103,1.5704094950000282,0.7854795570000263,0.0399999818,0.0399999818,-9.8235388999999,-0.0020836697539849867,-0.010056320649842847,-0.003666421599868103,-0.0125467538833132,-0.005091632499815948
0.395,-0.00029762465997724085,-0.7847206380000015,0.0005884100499731017,-2.355684530000018,-0.00015559057198779005,1.570397030000028,0.7854679380000261,0.0399999812,0.0399999812,-9.8235835999999,-0.002183471643141499,-0.010125771099843858,-0.0037247103998689513,-0.012568232230793812,-0.005172969999817131
0.3975,-0.00030774764997738813,-0.7847199690000015,0.0006003741249732757,-2.3556764150000182,-0.0001610214059878691,1.5703845650000279,0.785456319000026,0.0399999806,0.0399999806,-9.8236282999999,-0.0022832735322980114,-0.010195221549844868,-0.0037829991998697995,-0.012589710578274424,-0.005254307499818316
0.4,-0.0003178706399775355,-0.7847193000000015,0.0006123381999734498,-2.3556683000000183,-0.00016645223998794812,1.5703721000000277,0.7854447000000258,0.03999998,0.03999998,-9.8236729999999,-0.0023830754214545237,-0.01026467199984588,-0.0038412879998706477,-0.012611188925755037,-0.005335644999819499
0.4025,-0.0003290783579752914,-0.7847190150000006,0.000625586859970792,-2.355658895000021,-0.0001724660579867419,1.5703582850000304,0.7854318300000284,0.03999998,0.03999998,-9.823711549999915,-0.0024975129866311903,-0.01033164122485236,-0.0039028144448643586,-0.012630305811720645,-0.0054216710948103465
0.405,-0.00034028607597545447,-0.7847187300000006,0.0006388355199709847,-2.3556494900000207,-0.00017847987598682943,1.5703444700000302,0.7854189600000282,0.03999998,0.03999998,-9.823750099999915,-0.0026119505518403356,-0.010398610449853334,-0.003964340889865254,-0.012649422697681014,-0.0055076971898115985
0.40750000000000003,-0.0003514937939756176,-0.7847184450000007,0.0006520841799711775,-2.3556400850000205,-0.00018449369398691693,1.57033065500003,0.785406090000028,0.03999998,0.03999998,-9.823788649999916,-0.002726388117049481,-0.010465579674854309,-0.004025867334866149,-0.012668539583641381,-0.0055937232848128505
0.41000000000000003,-0.00036270151197578067,-0.7847181600000006,0.0006653328399713704,-2.3556306800000204,-0.00019050751198700447,1.5703168400000298,0.7853932200000278,0.03999998,0.03999998,-9.823827199999917,-0.0028408256822586263,-0.010532548899855283,-0.004087393779867044,-0.01268765646960175,-0.005679749379814102
0.41250000000000003,-0.0003739092299759438,-0.7847178750000007,0.0006785814999715631,-2.3556212750000203,-0.00019652132998709197,1.5703030250000296,0.7853803500000276,0.03999998,0.03999998,-9.823865749999918,-0.0029552632474677716,-0.010599518124856258,-0.00414892022486794,-0.012706773355562117,-0.005765775474815354
0.41500000000000004,-0.0003851169479761069,-0.7847175900000006,0.0006918301599717559,-2.35561187000002,-0.00020253514798717947,1.5702892100000294,0.7853674800000274,0.03999998,0.03999998,-9.823904299999919,-0.003069700812676917,-0.010666487349857232,-0.004210446669868835,-0.012725890241522486,-0.005851801569816606
0.4175,-0.00039670579947362415,-0.7847174449999997,0.0007055302074688157,-2.355602050000023,-0.00020875381348584512,1.5702749250000325,0.7853541750000302,0.03999997985,0.03999997985,-9.823935799999964,-0.003190871386035558,-0.010729037624885297,-0.004273092519861439,-0.012744441162757542,-0.005939384964806314
0.42,-0.0004090569179731299,-0.7847175799999997,0.0007201330299682313,-2.3555914000000233,-0.00021538217398557987,1.5702597000000331,0.7853400000000308,0.039999979399999996,0.039999979399999996,-9.823953199999963,-0.003325507975821796,-0.010782749999883146,-0.004337977179858842,-0.012761860154531164,-0.006030082959802684
0.4225,-0.00042140803647263564,-0.7847177149999996,0.000734735852467647,-2.3555807500000236,-0.00022201053448531465,1.5702444750000337,0.7853258250000313,0.03999997895,0.03999997895,-9.823970599999962,-0.003460144565608033,-0.010836462374880998,-0.004402861839856245,-0.012779279146304787,-0.006120780954799055
0.425,-0.0004337591549721414,-0.7847178499999997,0.0007493386749670626,-2.355570100000024,-0.0002286388949850494,1.5702292500000343,0.7853116500000319,0.0399999785,0.0399999785,-9.82398799999996,-0.0035947811553942704,-0.010890174749878849,-0.004467746499853649,-0.01279669813807841,-0.006211478949795426
0.4275,-0.0004461102734716471,-0.7847179849999997,0.0007639414974664782,-2.3555594500000243,-0.00023526725548478415,1.570214025000035,0.7852974750000326,0.03999997805,0.03999997805,-9.82400539999996,-0.0037294177451805076,-0.010943887124876699,-0.004532631159851052,-0.012814117129852034,-0.0063021769447917965
0.43,-0.00045846139197115287,-0.7847181199999996,0.0007785443199658939,-2.3555488000000246,-0.00024189561598451893,1.5701988000000355,0.7852833000000331,0.0399999776,0.0399999776,-9.824022799999959,-0.003864054334966745,-0.01099759949987455,-0.0045975158198484556,-0.012831536121625657,-0.006392874939788167
0.4325,-0.0004708125104706586,-0.7847182549999997,0.0007931471424653095,-2.3555381500000254,-0.00024852397648425365,1.5701835750000361,0.7852691250000337,0.03999997715,0.03999997715,-9.824040199999958,-0.003998690924752982,-0.011051311874872401,-0.00466240047984586,-0.01284895511339928,-0.006483572934784538
0.435,-0.000483964789967508,-0.7847186499999987,0.000808698964961578,-2.3555266100000285,-0.0002555829919825603,1.57016735000004,0.7852540300000372,0.0399999766,0.0399999766,-9.824100849999802,-0.004135372070265436,-0.011118560799822548,-0.0047294659698366,-0.012865223269871908,-0.006577371809771407
0.4375,-0.0004975176499673354,-0.7847191749999988,0.000824725287461374,-2.355514625000029,-0.0002628573349824677,1.5701506250000403,0.7852384750000375,0.039999976,0.039999976,-9.8241831249998,-0.004273075493651988,-0.011192577999821606,-0.004797621874835733,-0.012880916008687853,-0.006672721124770193
0.44,-0.0005110705099671629,-0.7847196999999987,0.0008407516099611699,-2.355502640000029,-0.00027013167798237505,1.5701339000000405,0.7852229200000377,0.0399999754,0.0399999754,-9.8242653999998,-0.0044107789170385395,-0.011266595199820664,-0.004865777779834865,-0.012896608747503799,-0.006768070439768979
0.4425,-0.0005246233699669903,-0.7847202249999987,0.0008567779324609659,-2.3554906550000294,-0.00027740602098228243,1.5701171750000407,0.7852073650000378,0.039999974800000004,0.039999974800000004,-9.8243476749998,-0.00454848234042509,-0.011340612399819722,-0.004933933684833997,-0.012912301486319744,-0.006863419754767765
0.445,-0.0005381762299668177,-0.7847207499999987,0.0008728042549607618,-2.3554786700000294,-0.0002846803639821898,1.570100450000041,0.7851918100000381,0.0399999742,0.0399999742,-9.824429949999798,-0.004686185763811642,-0.011414629599818779,-0.00500208958983313,-0.012927994225135688,-0.006958769069766551
0.4475,-0.0005517290899666453,-0.7847212749999988,0.0008888305774605578,-2.3554666850000294,-0.0002919547069820972,1.5700837250000412,0.7851762550000383,0.0399999736,0.0399999736,-9.824512224999797,-0.004823889187198194,-0.011488646799817837,-0.005070245494832262,-0.012943686963951633,-0.0070541183847653375
0.45,-0.0005652819499664727,-0.7847217999999987,0.0009048568999603537,-2.35545470000003,-0.00029922904998200457,1.5700670000000414,0.7851607000000386,0.039999973,0.039999973,-9.824594499999796,-0.004961592610584746,-0.011562663999816895,-0.0051384013998313945,-0.012959379702767579,-0.007149467699764123
0.4525,-0.0005800945474631678,-0.7847226849999979,0.000922375519956439,-2.355441290000033,-0.00030718063248022796,1.5700487450000455,0.7851436900000424,0.039999973,0.039999973,-9.824654274999851,-0.0051223227983068905,-0.011625271449844323,-0.005209866484822298,-0.012973806355112617,-0.00724943764475142
0.455,-0.0005949071449629791,-0.7847235699999978,0.0009398941399562159,-2.3554278800000334,-0.0003151322149801267,1.5700304900000457,0.7851266800000426,0.039999973,0.039999973,-9.82471404999985,-0.005283052986085999,-0.011687878899843527,-0.005281331569821388,-0.012988233007454523,-0.007349407589750147
0.4575,-0.0006097197424627906,-0.7847244549999978,0.0009574127599559928,-2.3554144700000337,-0.0003230837974800255,1.570012235000046,0.7851096700000427,0.039999973,0.039999973,-9.82477382499985,-0.005443783173865108,-0.011750486349842729,-0.005352796654820478,-0.013002659659796429,-0.007449377534748874
0.46,-0.0006245323399626019,-0.7847253399999978,0.0009749313799557698,-2.355401060000034,-0.00033103537997992424,1.5699939800000462,0.785092660000043,0.039999973,0.039999973,-9.824833599999849,-0.0056045133616442165,-0.011813093799841932,-0.005424261739819569,-0.013017086312138337,-0.007549347479747601
0.4625,-0.0006393449374624134,-0.7847262249999978,0.0009924499999555468,-2.355387650000034,-0.000338986962479823,1.5699757250000463,0.7850756500000432,0.039999973,0.039999973,-9.824893374999847,-0.005765243549423325,-0.011875701249841135,-0.005495726824818659,-0.013031512964480243,-0.0076493174247463285
0.465,-0.0006541575349622247,-0.7847271099999977,0.0010099686199553236,-2.355374240000034,-0.00034693854497972176,1.5699574700000467,0.7850586400000434,0.039999973,0.039999973,-9.824953149999846,-0.005925973737202434,-0.011938308699840338,-0.005567191909817749,-0.013045939616822148,-0.007749287369745055
0.4675,-0.0006694092179586601,-0.7847281349999967,0.0010280074649511007,-2.355360330000038,-0.0003551261839778055,1.569938675000051,0.7850411300000475,0.039999973,0.039999973,-9.825010149999867,-0.006092252349026346,-0.012001013099838795,-0.005639691109808887,-0.013059826102074928,-0.007850785999732029
0.47000000000000003,-0.0006855390719584547,-0.7847294399999967,0.001047086759950858,-2.355345420000038,-0.0003637859359776953,1.5699188000000512,0.7850226200000476,0.039999973,0.039999973,-9.825061599999867,-0.006269627809067638,-0.012063911399837994,-0.005714258539807939,-0.013072632253137016,-0.007955341999730697
0.47250000000000003,-0.0007016689259582493,-0.7847307449999966,0.001066166054950615,-2.3553305100000386,-0.000372445687977585,1.5698989250000515,0.7850041100000479,0.039999973,0.039999973,-9.825113049999866,-0.00644700326910893,-0.012126809699837194,-0.005788825969806989,-0.013085438404199103,-0.008059897999729367
0.47500000000000003,-0.000717798779958044,-0.7847320499999966,0.001085245349950372,-2.3553156000000386,-0.00038110543997747477,1.5698790500000517,0.7849856000000481,0.039999973,0.039999973,-9.825164499999866,-0.006624378729150221,-0.012189707999836394,-0.00586339339980604,-0.01309824455526119,-0.008164453999728035
0.47750000000000004,-0.0007339286339578386,-0.7847333549999966,0.0011043246449501292,-2.355300690000039,-0.0003897651919773645,1.569859175000052,0.7849670900000484,0.039999973,0.039999973,-9.825215949999865,-0.006801754189191513,-0.012252606299835593,-0.00593796082980509,-0.013111050706323277,-0.008269009999726703
0.48,-0.0007500584879576329,-0.7847346599999966,0.0011234039399498858,-2.355285780000039,-0.00039842494397725404,1.5698393000000523,0.7849485800000486,0.039999973,0.039999973,-9.825267399999865,-0.006979129649232801,-0.01231550459983479,-0.006012528259804139,-0.013123856857385364,-0.00837356599972537
0.4825,-0.0007661883419574275,-0.7847359649999965,0.001142483234949643,-2.3552708700000395,-0.0004070846959771438,1.5698194250000526,0.7849300700000489,0.039999973,0.039999973,-9.825318849999864,-0.007156505109274092,-0.012378402899833989,-0.006087095689803189,-0.013136663008447451,-0.008478121999724038
0.485,-0.0007832343499535776,-0.7847375259999955,0.0011626480299450819,-2.3552550100000436,-0.0004162370519750739,1.5697984100000573,0.7849104960000534,0.039999972700000004,0.039999972700000004,-9.825343799999969,-0.0073512419121532675,-0.012429389499880575,-0.006163865469793479,-0.013148312456876459,-0.008585710799710643
0.4875,-0.0008007384349533547,-0.7847392149999954,0.0011833555749448182,-2.355238675000044,-0.0004256357099749542,1.5697768250000574,0.7848903900000536,0.03999997225,0.03999997225,-9.825355499999969,-0.007554659386554653,-0.012474420249880002,-0.006241736424792487,-0.013159383553982048,-0.008694815999709254
0.49,-0.0008182425199531318,-0.7847409039999954,0.0012040631199445545,-2.3552223400000436,-0.00043503436797483457,1.5697552400000578,0.7848702840000539,0.039999971800000006,0.039999971800000006,-9.825367199999969,-0.007758076860956038,-0.012519450999879427,-0.006319607379791496,-0.013170454651087637,-0.008803921199707864
0.4925,-0.000835746604952909,-0.7847425929999954,0.0012247706649442908,-2.355206005000044,-0.0004444330259747149,1.569733655000058,0.7848501780000541,0.03999997135,0.03999997135,-9.825378899999968,-0.007961494335357424,-0.012564481749878854,-0.006397478334790504,-0.013181525748193226,-0.008913026399706475
0.495,-0.0008532506899526861,-0.7847442819999954,0.0012454782099440272,-2.355189670000044,-0.00045383168397459525,1.5697120700000582,0.7848300720000543,0.0399999709,0.0399999709,-9.825390599999968,-0.008164911809758807,-0.012609512499878281,-0.006475349289789513,-0.013192596845298814,-0.009022131599705087
0.4975,-0.0008707547749524633,-0.7847459709999953,0.0012661857549437635,-2.3551733350000443,-0.00046323034197447556,1.5696904850000586,0.7848099660000546,0.039999970450000005,0.039999970450000005,-9.825402299999968,-0.008368329284160193,-0.012654543249877708,-0.006553220244788521,-0.013203667942404405,-0.009131236799703698
0.5,-0.0008882588599522403,-0.7847476599999953,0.0012868932999434998,-2.3551570000000446,-0.0004726289999743559,1.5696689000000588,0.7847898600000548,0.03999997,0.03999997,-9.825413999999968,-0.008571746758561578,-0.012699573999877135,-0.00663109119978753,-0.013214739039509994,-0.009240341999702308
0.5025000000000001,-0.000907193680948096,-0.7847497164999944,0.0013092962199385892,-2.355139150000049,-0.00048279693447212773,1.5696455600000638,0.7847681250000595,0.03999997,0.03999997,-9.825510149999737,-0.008778807287468101,-0.012769433349808502,-0.006712016664778168,-0.013224705122383846,-0.009353950199688578
0.505,-0.0009261285019478545,-0.7847517729999943,0.0013316991399383036,-2.3551213000000493,-0.000492964868971998,1.5696222200000642,0.7847463900000599,0.03999997,0.03999997,-9.825606299999736,-0.008985867816384555,-0.012839292699807612,-0.006792942129777135,-0.013234671205254685,-0.00946755839968713
0.5075000000000001,-0.0009450633229476139,-0.7847538294999943,0.0013541020599380188,-2.3551034500000494,-0.0005031328034718688,1.5695988800000644,0.7847246550000601,0.03999997,0.03999997,-9.825702449999735,-0.009192928345301018,-0.012909152049806723,-0.0068738675947761065,-0.013244637288125522,-0.009581166599685685
0.51,-0.0009639981439473723,-0.7847558859999942,0.0013765049799377331,-2.3550856000000495,-0.0005133007379717391,1.5695755400000648,0.7847029200000604,0.03999997,0.03999997,-9.825798599999732,-0.009399988874217472,-0.012979011399805831,-0.0069547930597750746,-0.01325460337099636,-0.009694774799684235
0.5125,-0.0009829329649471308,-0.7847579424999943,0.0013989078999374473,-2.3550677500000496,-0.0005234686724716095,1.569552200000065,0.7846811850000607,0.03999997,0.03999997,-9.825894749999732,-0.009607049403133927,-0.013048870749804941,-0.007035718524774043,-0.013264569453867198,-0.009808382999682787
0.515,-0.00100186778594689,-0.7847599989999943,0.0014213108199371625,-2.35504990000005,-0.0005336366069714802,1.5695288600000654,0.7846594500000609,0.03999997,0.03999997,-9.82599089999973,-0.00981410993205039,-0.013118730099804052,-0.007116643989773014,-0.013274535536738036,-0.009921991199681342
0.5175,-0.0010212980949424603,-0.784762191499993,0.0014443009499319132,-2.355031475000055,-0.0005440709984690982,1.5695049100000709,0.7846371420000661,0.03999997,0.03999997,-9.826077699999809,-0.010030030458507172,-0.013184664249836341,-0.007198614859763145,-0.013284204946805237,-0.010037084249667342
0.52,-0.0010417193799422007,-0.784764655999993,0.001468465499931606,-2.3550119000000556,-0.0005550383039689588,1.569479740000071,0.7846136880000664,0.03999997,0.03999997,-9.826145799999807,-0.010263670980268957,-0.013242747999835602,-0.007282676539762077,-0.013293281011257652,-0.010155146999665842
0.5225,-0.0010621406649419403,-0.784767120499993,0.0014926300499312978,-2.3549923250000555,-0.0005660056094688189,1.5694545700000715,0.7845902340000667,0.03999997,0.03999997,-9.826213899999807,-0.010497311502030732,-0.013300831749834862,-0.007366738219761005,-0.013302357075710066,-0.010273209749664336
0.525,-0.0010825619499416808,-0.7847695849999929,0.0015167945999309909,-2.354972750000056,-0.0005769729149686795,1.569429400000072,0.784566780000067,0.03999997,0.03999997,-9.826281999999805,-0.010730952023792519,-0.013358915499834124,-0.007450799899759936,-0.01331143314016248,-0.010391272499662835
0.5275,-0.0011029832349414204,-0.7847720494999929,0.0015409591499306826,-2.3549531750000563,-0.0005879402204685396,1.5694042300000721,0.7845433260000673,0.03999997,0.03999997,-9.826350099999804,-0.010964592545554293,-0.013416999249833382,-0.007534861579758864,-0.013320509204614896,-0.01050933524966133
0.53,-0.0011234045199411608,-0.7847745139999929,0.0015651236999303755,-2.3549336000000562,-0.0005989075259684002,1.5693790600000725,0.7845198720000676,0.03999997,0.03999997,-9.826418199999804,-0.011198233067316078,-0.013475082999832645,-0.007618923259757796,-0.01332958526906731,-0.010627397999659829
0.5325,-0.0011438258049409004,-0.7847769784999928,0.0015892882499300672,-2.3549140250000566,-0.0006098748314682604,1.569353890000073,0.7844964180000679,0.03999997,0.03999997,-9.826486299999802,-0.011431873589077853,-0.013533166749831904,-0.007702984939756723,-0.013338661333519724,-0.010745460749658323
0.535,-0.0011652748799361595,-0.7847796999999916,0.0016146708499244493,-2.354893480000061,-0.0006213947899657114,1.5693274600000786,0.7844717800000733,0.039999969600000004,0.039999969600000004,-9.826537899999874,-0.011679221502697583,-0.013589039899840803,-0.007789051949746911,-0.013346614036687536,-0.010866458699644026
0.5375,-0.0011872378499358793,-0.7847825499999916,0.0016406624749241178,-2.3548724500000615,-0.000633191074965561,1.569300400000079,0.7844465500000737,0.039999969,0.039999969,-9.826581249999874,-0.011933423112335662,-0.013643807749840106,-0.0078761216247458,-0.013354005059205722,-0.010988924249642464
0.54,-0.0012092008199356002,-0.7847853999999916,0.0016666540999237874,-2.3548514200000614,-0.000644987359965411,1.5692733400000793,0.784421320000074,0.0399999684,0.0399999684,-9.826624599999873,-0.012187624721973751,-0.01369857559983941,-0.007963191299744694,-0.013361396081723908,-0.011111389799640907
0.5425,-0.00123116378993532,-0.7847882499999915,0.001692645724923456,-2.354830390000062,-0.0006567836449652605,1.5692462800000797,0.7843960900000743,0.0399999678,0.0399999678,-9.826667949999873,-0.012441826331611828,-0.013753343449838711,-0.008050260974743585,-0.013368787104242094,-0.011233855349639344
0.545,-0.001253126759935041,-0.7847910999999915,0.0017186373499231257,-2.354809360000062,-0.0006685799299651105,1.56921922000008,0.7843708600000746,0.0399999672,0.0399999672,-9.826711299999872,-0.012696027941249917,-0.013808111299838015,-0.008137330649742477,-0.01337617812676028,-0.011356320899637787
0.5475,-0.0012750897299347607,-0.7847939499999915,0.0017446289749227942,-2.3547883300000625,-0.0006803762149649601,1.5691921600000804,0.784345630000075,0.0399999666,0.0399999666,-9.826754649999872,-0.012950229550887996,-0.013862879149837316,-0.008224400324741367,-0.013383569149278466,-0.011478786449636225
0.55,-0.0012970526999344816,-0.7847967999999914,0.0017706205999224638,-2.3547673000000624,-0.0006921724999648101,1.5691651000000808,0.7843204000000753,0.039999966,0.039999966,-9.82679799999987,-0.013204431160526085,-0.01391764699983662,-0.00831146999974026,-0.013390960171796652,-0.01160125199963467
0.5525,-0.0013206116849287773,-0.7848000324999902,0.0017985038149157045,-2.354744410000069,-0.0007048271899617427,1.5691360750000878,0.7842933550000818,0.039999966,0.039999966,-9.826839999999873,-0.013487982004023635,-0.013958978149875048,-0.00840150464972781,-0.013397952076026488,-0.011728063049616629
0.555,-0.001344170669927835,-0.7848032649999901,0.0018263870299145893,-2.3547215200000697,-0.0007174818799612366,1.569107050000089,0.7842663100000828,0.039999966,0.039999966,-9.826881999999872,-0.013771532847608748,-0.014000309299873396,-0.008491539299724208,-0.013404943980255133,-0.011854874099611558
0.5575,-0.0013677296549268918,-0.78480649749999,0.0018542702449134728,-2.3546986300000707,-0.00073013656996073,1.56907802500009,0.7842392650000839,0.039999966,0.039999966,-9.82692399999987,-0.01405508369119385,-0.014041640449871742,-0.008581573949720605,-0.013411935884483778,-0.01198168514960648
0.56,-0.0013912886399259495,-0.7848097299999898,0.0018821534599123577,-2.3546757400000717,-0.0007427912599602238,1.5690490000000912,0.7842122200000851,0.039999966,0.039999966,-9.826965999999867,-0.014338634534778965,-0.014082971599870089,-0.008671608599717003,-0.013418927788712422,-0.012108496199601408
0.5625,-0.0014148476249250064,-0.7848129624999897,0.0019100366749112412,-2.3546528500000727,-0.0007554459499597172,1.5690199750000924,0.7841851750000861,0.039999966,0.039999966,-9.827007999999866,-0.014622185378364067,-0.014124302749868435,-0.008761643249713399,-0.013425919692941069,-0.01223530724959633
0.5650000000000001,-0.001438406609924064,-0.7848161949999896,0.001937919889910126,-2.3546299600000737,-0.0007681006399592111,1.5689909500000936,0.7841581300000872,0.039999966,0.039999966,-9.827049999999865,-0.014905736221949182,-0.01416563389986678,-0.008851677899709797,-0.013432911597169713,-0.01236211829959126
0.5675,-0.0014625154649181961,-0.7848195574999882,0.0019664548999031714,-2.3546065350000793,-0.0007810510724560555,1.5689612500001007,0.784130450000094,0.039999966,0.039999966,-9.82710274999976,-0.015190796832550453,-0.014216321499774792,-0.008942727599697949,-0.013439292879758384,-0.012490358899574573
0.5700000000000001,-0.0014877240599185635,-0.7848231799999883,0.001996293499903606,-2.354582040000079,-0.0007945929899562528,1.5689302000001004,0.7841015000000935,0.039999966,0.039999966,-9.827176999999761,-0.015478876977228237,-0.014285721999775802,-0.009035807399699305,-0.01344445291904925,-0.012621458599576483
0.5725,-0.0015129326549189299,-0.7848268024999884,0.00202613209990404,-2.3545575450000786,-0.0008081349074564497,1.5688991500001,0.7840725500000931,0.039999966,0.039999966,-9.827251249999762,-0.015766957121906008,-0.014355122499776812,-0.009128887199700658,-0.013449612958340115,-0.012752558299578387
0.5750000000000001,-0.0015381412499192973,-0.7848304249999885,0.002055970699904475,-2.3545330500000783,-0.000821676824956647,1.5688681000000995,0.7840436000000927,0.039999966,0.039999966,-9.827325499999763,-0.01605503726658379,-0.014424522999777822,-0.009221966999702014,-0.01345477299763098,-0.012883657999580298
0.5775,-0.0015633498449196636,-0.7848340474999884,0.0020858092999049083,-2.354508555000078,-0.0008352187424568438,1.568837050000099,0.7840146500000923,0.039999966,0.039999966,-9.827399749999763,-0.016343117411261564,-0.01449392349977883,-0.009315046799703366,-0.013459933036921844,-0.013014757699582203
0.58,-0.00158855843992003,-0.7848376699999885,0.002115647899905342,-2.3544840600000776,-0.0008487606599570406,1.5688060000000985,0.7839857000000918,0.039999966,0.039999966,-9.827473999999764,-0.016631197555939333,-0.01456332399977984,-0.00940812659970472,-0.01346509307621271,-0.013145857399584107
0.5825,-0.0016137670349203974,-0.7848412924999886,0.0021454864999057768,-2.3544595650000772,-0.000862302577457238,1.568774950000098,0.7839567500000915,0.039999966,0.039999966,-9.827548249999765,-0.016919277700617116,-0.01463272449978085,-0.009501206399706075,-0.013470253115503575,-0.013276957099586019
0.585,-0.0016401106499149226,-0.7848451929999872,0.0021766705598992874,-2.3544338100000832,-0.0008764549549542935,1.5687425100001047,0.7839264960000977,0.039999966,0.039999966,-9.82762349999976,-0.01722796615112301,-0.01469226584982735,-0.009596177499696766,-0.013475149124845688,-0.013410873399572183
0.5875,-0.0016670217749145807,-0.7848492324999872,0.0022085273498988825,-2.3544074250000837,-0.0008909125624541098,1.568709375000105,0.7838955900000981,0.039999966,0.039999966,-9.827699249999759,-0.017546958754689177,-0.014746877624826656,-0.009692094249695547,-0.013479913119211553,-0.013546197999570462
0.59,-0.0016939328999142375,-0.7848532719999871,0.0022403841398984763,-2.354381040000084,-0.0009053701699539253,1.5686762400001055,0.7838646840000985,0.039999966,0.039999966,-9.827774999999757,-0.01786595135825533,-0.01480148939982596,-0.009788010999694324,-0.013484677113577417,-0.013681522599568736
0.5925,-0.0017208440249138954,-0.784857311499987,0.0022722409298980713,-2.3543546550000842,-0.0009198277774537416,1.568643105000106,0.7838337780000989,0.039999966,0.039999966,-9.827850749999756,-0.018184943961821493,-0.014856101174825265,-0.009883927749693105,-0.013489441107943282,-0.013816847199567016
0.595,-0.0017477551499135522,-0.784861350999987,0.002304097719897665,-2.3543282700000847,-0.0009342853849535572,1.5686099700001064,0.7838028720000992,0.039999966,0.039999966,-9.827926499999757,-0.018503936565387645,-0.01491071294982457,-0.009979844499691881,-0.013494205102309146,-0.01395217179956529
0.5975,-0.0017746662749132103,-0.7848653904999869,0.00233595450989726,-2.354301885000085,-0.0009487429924533734,1.5685768350001068,0.7837719660000997,0.039999966,0.039999966,-9.828002249999756,-0.01882292916895381,-0.014965324724823875,-0.010075761249690663,-0.013498969096675011,-0.014087496399563571
0.6,-0.001801577399912867,-0.7848694299999869,0.002367811299896854,-2.3542755000000852,-0.000963200599953189,1.5685437000001072,0.7837410600001,0.039999966,0.039999966,-9.828077999999755,-0.019141921772519964,-0.015019936499823179,-0.01017167799968944,-0.013503733091040875,-0.014222820999561845
0.6025,-0.001830242984906822,-0.7848738564999856,0.002401748004889688,-2.3542473150000918,-0.000978602119949937,1.5685084050001148,0.7837081110001071,0.039999966,0.039999966,-9.828082649999985,-0.019495083483650623,-0.015055657874883888,-0.010270421499679033,-0.013507008738805093,-0.014362446549546144
0.605,-0.0018589085699064565,-0.7848782829999855,0.0024356847098892555,-2.354219130000092,-0.0009940036399497406,1.5684731100001152,0.7836751620001076,0.039999966,0.039999966,-9.828087299999984,-0.019848245194891898,-0.015091379249883432,-0.010369164999677773,-0.013510284386564491,-0.014502072099544364
0.6075,-0.0018875741549060922,-0.7848827094999855,0.002469621414888824,-2.3541909450000924,-0.0010094051599495448,1.5684378150001157,0.783642213000108,0.039999966,0.039999966,-9.828091949999985,-0.020201406906133187,-0.015127100624882978,-0.010467908499676519,-0.013513560034323888,-0.014641697649542589
0.61,-0.0019162397399057265,-0.7848871359999855,0.0025035581198883912,-2.3541627600000927,-0.0010248066799493484,1.5684025200001162,0.7836092640001083,0.039999966,0.039999966,-9.828096599999984,-0.020554568617374463,-0.015162821999882522,-0.010566651999675259,-0.013516835682083287,-0.014781323199540808
0.6125,-0.0019449053249053622,-0.7848915624999854,0.0025374948248879595,-2.354134575000093,-0.0010402081999491527,1.5683672250001166,0.7835763150001088,0.039999966,0.039999966,-9.828101249999984,-0.020907730328615756,-0.015198543374882068,-0.010665395499674005,-0.013520111329842686,-0.014920948749539033
0.615,-0.0019735709099049964,-0.7848959889999854,0.002571431529887527,-2.3541063900000934,-0.0010556097199489562,1.568331930000117,0.7835433660001092,0.039999966,0.039999966,-9.828105899999985,-0.02126089203985703,-0.015234264749881612,-0.010764138999672745,-0.013523386977602083,-0.015060574299537253
0.6175,-0.002002838349898625,-0.784900542999984,0.002606081699879975,-2.3540775700001,-0.0010713349449455296,1.568295895000125,0.7835097350001164,0.039999966,0.039999966199999994,-9.828143399999655,-0.021615338976238466,-0.015281281349768425,-0.01086377419966259,-0.013526394963256208,-0.015201560199521902
0.62,-0.0020333094998982366,-0.784905351999984,0.0026421587998795145,-2.3540474800001006,-0.0010877075799453208,1.5682583800001253,0.7834747400001169,0.039999966,0.039999966799999995,-9.828246599999655,-0.0219723563629386,-0.015350888399767537,-0.010965192799661296,-0.013528867624691781,-0.015345266799520068
0.6225,-0.0020637806498978494,-0.7849101609999839,0.002678235899879056,-2.354017390000101,-0.0011040802149451126,1.5682208650001257,0.7834397450001174,0.039999966,0.039999967399999996,-9.828349799999653,-0.022329373749638753,-0.015420495449766652,-0.011066611399660007,-0.013531340286127356,-0.015488973399518241
0.625,-0.002094251799897461,-0.7849149699999839,0.0027143129998785957,-2.3539873000001013,-0.0011204528499449038,1.5681833500001263,0.7834047500001178,0.039999966,0.039999968,-9.828452999999651,-0.022686391136338892,-0.015490102499765764,-0.011168029999658715,-0.013533812947562928,-0.015632679999516407
0.6275000000000001,-0.0021247229498970737,-0.7849197789999838,0.002750390099878137,-2.3539572100001016,-0.0011368254849446957,1.5681458350001267,0.7833697550001183,0.039999966,0.0399999686,-9.828556199999651,-0.023043408523039044,-0.01555970954976488,-0.011269448599657424,-0.013536285608998503,-0.01577638659951458
0.63,-0.0021551940998966847,-0.7849245879999838,0.002786467199877677,-2.353927120000102,-0.0011531981199444869,1.5681083200001271,0.7833347600001187,0.039999966,0.0399999692,-9.82865939999965,-0.02340042590973918,-0.01562931659976399,-0.011370867199656132,-0.013538758270434076,-0.01592009319951275
0.6325000000000001,-0.0021856652498962975,-0.7849293969999837,0.0028225442998772183,-2.3538970300001023,-0.001169570754944279,1.5680708050001275,0.7832997650001191,0.039999966,0.0399999698,-9.82876259999965,-0.02375744329643933,-0.015698923649763104,-0.011472285799654843,-0.01354123093186965,-0.016063799799510923
0.635,-0.0022173735698895695,-0.7849344999999821,0.0028600881798692425,-2.353865650000109,-0.00118660888994066,1.5680317600001359,0.783263336000127,0.039999966,0.03999997,-9.828836599999796,-0.02413667086378508,-0.015758488699813673,-0.011575588299643896,-0.01354316761716628,-0.016210104199495777
0.6375000000000001,-0.0022497004748891587,-0.7849397499999821,0.002898365449868756,-2.3538336250001097,-0.0012039797749404393,1.5679919500001365,0.7832261900001274,0.039999966,0.03999997,-9.828895999999796,-0.02452700352162394,-0.01581303274981298,-0.011679832749642571,-0.013544836314389328,-0.0163577074994939
0.64,-0.002282027379888746,-0.784944999999982,0.0029366427198682676,-2.3538016000001103,-0.0012213506599402177,1.5679521400001368,0.7831890440001279,0.039999966,0.03999997,-9.828955399999796,-0.024917336179462783,-0.015867576799812287,-0.011784077199641241,-0.013546505011612376,-0.01650531079949202
0.6425,-0.002314354284888334,-0.7849502499999819,0.0029749199898677797,-2.353769575000111,-0.0012387215449399963,1.5679123300001374,0.7831518980001284,0.039999966,0.03999997,-9.829014799999795,-0.025307668837301622,-0.01592212084981159,-0.011888321649639912,-0.013548173708835426,-0.016652914099490136
0.645,-0.0023466811898879233,-0.7849554999999818,0.003013197259867293,-2.353737550000111,-0.0012560924299397755,1.567872520000138,0.7831147520001288,0.039999966,0.03999997,-9.829074199999795,-0.025698001495140482,-0.015976664899810897,-0.011992566099638587,-0.013549842406058474,-0.01680051739948826
0.6475,-0.0023790080948875108,-0.7849607499999818,0.0030514745298668047,-2.3537055250001115,-0.0012734633149395539,1.5678327100001384,0.7830776060001293,0.039999966,0.03999997,-9.829133599999793,-0.026088334152979325,-0.0160312089498102,-0.012096810549637257,-0.013551511103281523,-0.01694812069948638
0.65,-0.0024113349998871,-0.7849659999999817,0.003089751799866318,-2.353673500000112,-0.0012908341999393331,1.567792900000139,0.7830404600001298,0.039999966,0.03999997,-9.829192999999792,-0.02647866681081818,-0.016085752999809508,-0.012201054999635932,-0.013553179800504571,-0.017095723999484502
0.6525,-0.0024455670848800098,-0.7849716399999803,0.0031302878748579125,-2.3536394500001196,-0.0013092300799355187,1.5677507200001477,0.7830011300001379,0.039999966,0.039999971499999995,-9.829242649999825,-0.026897247599833193,-0.016134379849829555,-0.012307841349625693,-0.013553710374979286,-0.017247676249467377
0.655,-0.0024797991698795744,-0.7849772799999802,0.0031708239498573973,-2.35360540000012,-0.001327625959935285,1.5677085400001483,0.7829618000001384,0.039999966,0.039999972999999994,-9.829292299999825,-0.02731582838894688,-0.016183006699828934,-0.012414627699624335,-0.013554240949450024,-0.017399628499465445
0.6575,-0.002514031254879138,-0.7849829199999802,0.0032113600248568804,-2.3535713500001205,-0.0013460218399350503,1.5676663600001488,0.7829224700001388,0.039999966,0.03999997449999999,-9.829341949999824,-0.027734409178060547,-0.016231633549828314,-0.012521414049622974,-0.013554771523920761,-0.017551580749463506
0.66,-0.0025482633398787027,-0.7849885599999801,0.003251896099856365,-2.3535373000001205,-0.0013644177199348166,1.5676241800001496,0.7828831400001394,0.039999966,0.03999997599999999,-9.829391599999823,-0.02815298996717423,-0.016280260399827697,-0.012628200399621616,-0.0135553020983915,-0.017703532999461574
0.6625,-0.0025824954248782664,-0.78499419999998,0.003292432174855848,-2.353503250000121,-0.001382813599934582,1.5675820000001501,0.7828438100001398,0.039999966,0.03999997749999999,-9.829441249999823,-0.028571570756287898,-0.016328887249827076,-0.012734986749620255,-0.013555832672862238,-0.017855485249459638
0.665,-0.002616727509877831,-0.7849998399999799,0.003332968249855333,-2.3534692000001214,-0.0014012094799343482,1.5675398200001507,0.7828044800001404,0.039999966,0.03999997899999999,-9.829490899999822,-0.028990151545401584,-0.01637751409982646,-0.012841773099618897,-0.013556363247332977,-0.018007437499457705
0.6675,-0.002651610779870398,-0.7850056249999783,0.00337427643484652,-2.3534345550001285,-0.0014199555799303504,1.5674968400001597,0.7827644020001489,0.039999966,0.03999998074999999,-9.82952859999995,-0.0294203917479661,-0.016422064399869638,-0.01294943279960815,-0.01355668441392507,-0.01816071564944152
0.67,-0.002687796419869938,-0.7850116999999782,0.0034171288398459755,-2.3533987200001287,-0.0014394021199301032,1.5674522600001604,0.7827228280001494,0.039999966,0.03999998299999999,-9.82954239999995,-0.02987395077780773,-0.016458461599869176,-0.01305883919960676,-0.013556586764753131,-0.01831664559943954
0.6725,-0.0027239820598694764,-0.7850177749999782,0.0034599812448454286,-2.3533628850001294,-0.0014588486599298551,1.5674076800001608,0.7826812540001499,0.039999966,0.039999985249999995,-9.82955619999995,-0.03032750980764934,-0.01649485879986871,-0.013168245599605364,-0.013556489115581192,-0.01847257554943755
0.675,-0.0027601676998690165,-0.785023849999978,0.0035028336498448844,-2.35332705000013,-0.0014782951999296082,1.5673631000001613,0.7826396800001504,0.039999966,0.039999987499999994,-9.829569999999949,-0.03078106883749097,-0.01653125599986825,-0.013277651999603974,-0.013556391466409254,-0.01862850549943557
0.6775,-0.002796353339868555,-0.7850299249999779,0.0035456860548443376,-2.35329121500013,-0.00149774173992936,1.567318520000162,0.782598106000151,0.039999966,0.03999998974999999,-9.82958379999995,-0.031234627867332578,-0.016567653199867787,-0.013387058399602579,-0.013556293817237315,-0.01878443544943358
0.68,-0.002832538979868095,-0.7850359999999779,0.003588538459843793,-2.353255380000131,-0.001517188279929113,1.5672739400001625,0.7825565320001515,0.039999966,0.03999999199999999,-9.82959759999995,-0.03168818689717421,-0.016604050399867322,-0.013496464799601187,-0.013556196168065375,-0.0189403653994316
0.6825,-0.0028687246198676334,-0.7850420749999778,0.0036313908648432465,-2.3532195450001314,-0.0015366348199288649,1.567229360000163,0.782514958000152,0.039999966,0.03999999425,-9.82961139999995,-0.03214174592701582,-0.01664044759986686,-0.013605871199599792,-0.013556098518893438,-0.01909629534942961
0.685,-0.0029062441798598285,-0.7850484069999762,0.003675824999833993,-2.3531822800001394,-0.0015567980599246714,1.5671831300001726,0.782471840000161,0.039999966,0.0399999955,-9.829700899999532,-0.03259679302405896,-0.016698675299746196,-0.01371695399958917,-0.01355607127770774,-0.01925444119941543
0.6875,-0.0029444306998593415,-0.7850548674999762,0.003721049999833416,-2.35314430000014,-0.0015773196499244098,1.5671360750001733,0.7824279500001616,0.039999966,0.03999999625,-9.829828249999531,-0.03305258415471511,-0.016767818249745315,-0.013828874999587744,-0.013556079240515745,-0.019413694999413398
0.6900000000000001,-0.0029826172198588563,-0.7850613279999761,0.003766274999832841,-2.3531063200001405,-0.001597841239924149,1.567089020000174,0.7823840600001621,0.039999966,0.039999997,-9.82995559999953,-0.03350837528537128,-0.016836961199744437,-0.013940795999586322,-0.01355608720332375,-0.019572948799411374
0.6925,-0.0030208037398583693,-0.785067788499976,0.003811499999832264,-2.353068340000141,-0.0016183628299238871,1.5670419650001746,0.7823401700001628,0.039999966,0.03999999775,-9.830082949999527,-0.033964166416027425,-0.016906104149743556,-0.014052716999584894,-0.013556095166131755,-0.019732202599409342
0.6950000000000001,-0.003058990259857884,-0.7850742489999759,0.0038567249998316894,-2.353030360000141,-0.0016388844199236264,1.566994910000175,0.7822962800001633,0.039999966,0.0399999985,-9.830210299999527,-0.034419957546683595,-0.016975247099742675,-0.014164637999583472,-0.01355610312893976,-0.019891456399407318
0.6975,-0.003097176779857397,-0.7850807094999759,0.0039019499998311125,-2.3529923800001415,-0.0016594060099233646,1.5669478550001756,0.7822523900001639,0.039999966,0.03999999925,-9.830337649999525,-0.03487574867733974,-0.017044390049741794,-0.014276558999582044,-0.013556111091747765,-0.020050710199405287
0.7000000000000001,-0.003135363299856912,-0.7850871699999757,0.003947174999830537,-2.352954400000142,-0.0016799275999231037,1.5669008000001763,0.7822085000001644,0.039999966,0.04,-9.830464999999522,-0.03533153980799591,-0.017113532999740916,-0.014388479999580622,-0.01355611905455577,-0.020209963999403262
0.7025,-0.0031755972748487267,-0.785094089499974,0.003994827539820833,-2.3529142900001507,-0.001701549499918705,1.5668512550001863,0.7821622700001738,0.039999966,0.04,-9.830506999999843,-0.03582807313464155,-0.01716963059978908,-0.014502764399570309,-0.013554969336841772,-0.02037295489938718
0.705,-0.0032158312498482135,-0.7851010089999738,0.004042480079820226,-2.352874180000151,-0.0017231713999184292,1.566801710000187,0.7821160400001744,0.039999966,0.04,-9.830548999999841,-0.03632460646143986,-0.017225728199788366,-0.014617048799568851,-0.013553819619123436,-0.0205359457993851
0.7075,-0.003256065224847702,-0.7851079284999738,0.00409013261981962,-2.3528340700001515,-0.0017447932999181545,1.5667521650001877,0.782069810000175,0.039999966,0.04,-9.830590999999842,-0.036821139788238186,-0.017281825799787653,-0.014731333199567398,-0.013552669901405101,-0.02069893669938303
0.71,-0.003296299199847189,-0.7851148479999737,0.004137785159819013,-2.3527939600001524,-0.0017664151999178786,1.5667026200001881,0.7820235800001756,0.039999966,0.04,-9.83063299999984,-0.0373176731150365,-0.017337923399786938,-0.01484561759956594,-0.013551520183686766,-0.02086192759938095
0.7125,-0.0033365331748466775,-0.7851217674999736,0.0041854376998184065,-2.352753850000153,-0.0017880370999176038,1.5666530750001888,0.7819773500001762,0.039999966,0.04,-9.83067499999984,-0.03781420644183482,-0.017394020999786226,-0.014959901999564488,-0.013550370465968431,-0.02102491849937888
0.715,-0.0033767671498461643,-0.7851286869999735,0.004233090239817799,-2.352713740000153,-0.0018096589999173282,1.5666035300001895,0.7819311200001767,0.039999966,0.04,-9.83071699999984,-0.03831073976863313,-0.01745011859978551,-0.01507418639956303,-0.013549220748250096,-0.0211879093993768
0.7175,-0.0034176986748376253,-0.7851357379999719,0.004281570069807673,-2.3526728800001626,-0.0018316559199127373,1.5665531200002,0.7818840800001866,0.039999966,0.04,-9.830762049999803,-0.038816544597819566,-0.01750442934980536,-0.015189283699552223,-0.013547751680024596,-0.0213521193993607
0.72,-0.003460025299837085,-0.7851430519999719,0.004331704479807033,-2.352630520000163,-0.0018544028799124472,1.5665009800002008,0.7818354200001872,0.039999966,0.04,-9.830813199999804,-0.03934089243210195,-0.017555166399804714,-0.015306006799550733,-0.013545643910773753,-0.021518767599358574
0.7225,-0.003502351924836547,-0.7851503659999718,0.004381838889806396,-2.3525881600001637,-0.0018771498399121579,1.5664488400002015,0.7817867600001879,0.039999966,0.04,-9.830864349999803,-0.039865240266384355,-0.017605903449804068,-0.01542272989954925,-0.01354353614152291,-0.021685415799356456
0.725,-0.0035446785498360073,-0.7851576799999717,0.004431973299805756,-2.352545800000164,-0.0018998967999118677,1.5663967000002021,0.7817381000001885,0.039999966,0.04,-9.830915499999803,-0.040389588100666736,-0.017656640499803422,-0.015539452999547761,-0.013541428372272067,-0.02185206399935433
0.7275,-0.0035870051748354693,-0.7851649939999716,0.004482107709805119,-2.3525034400001648,-0.0019226437599115787,1.5663445600002028,0.7816894400001891,0.039999966,0.04,-9.830966649999802,-0.040913935934949144,-0.017707377549802776,-0.01565617609954628,-0.013539320603021224,-0.02201871219935221
0.73,-0.0036293317998349296,-0.7851723079999715,0.00453224211980448,-2.352461080000165,-0.0019453907199112885,1.5662924200002035,0.7816407800001898,0.039999966,0.04,-9.8310177999998,-0.041438283769231525,-0.01775811459980213,-0.01577289919954479,-0.01353721283377038,-0.022185360399350085
0.7325,-0.0036716584248343916,-0.7851796219999714,0.004582376529803843,-2.3524187200001654,-0.0019681376799109995,1.566240280000204,0.7815921200001904,0.039999966,0.04,-9.8310689499998,-0.04196263160351393,-0.017808851649801484,-0.015889622299543306,-0.013535105064519538,-0.022352008599347967
0.735,-0.0037154099698254615,-0.7851872439999695,0.004634200799793253,-2.3523748900001746,-0.001991651329906195,1.566186390000215,0.7815418440002005,0.039999966,0.04,-9.831083300000017,-0.04251407608168068,-0.01785246009984281,-0.016007799799533252,-0.013532350491744432,-0.022521042799331793
0.7375,-0.0037598739748248965,-0.7851950199999694,0.004686869999792584,-2.3523303250001755,-0.002015548324905891,1.5661316250002157,0.7814907600002011,0.039999966,0.04,-9.831079250000016,-0.043079068882028455,-0.017892504249842303,-0.01612670449953174,-0.013529272517201497,-0.02269126999932963
0.74,-0.0038043379798243294,-0.7852027959999693,0.004739539199791912,-2.352285760000176,-0.0020394453199055864,1.5660768600002164,0.7814396760002018,0.039999966,0.04,-9.831075200000017,-0.043644061682376195,-0.01793254839984179,-0.016245609199530227,-0.01352619454265856,-0.02286149719932746
0.7425,-0.003848801984823764,-0.7852105719999692,0.004792208399791243,-2.3522411950001763,-0.0020633423149052825,1.566022095000217,0.7813885920002024,0.039999966,0.04,-9.831071150000016,-0.04420905448272397,-0.017972592549841283,-0.016364513899528716,-0.013523116568115624,-0.023031724399325295
0.745,-0.003893265989823197,-0.7852183479999691,0.004844877599790571,-2.352196630000177,-0.002087239309904978,1.565967330000218,0.7813375080002031,0.039999966,0.04,-9.831067100000016,-0.04477404728307171,-0.018012636699840774,-0.0164834185995272,-0.013520038593572689,-0.023201951599323124
0.7475,-0.0039377299948226314,-0.785226123999969,0.004897546799789902,-2.3521520650001775,-0.002111136304904674,1.5659125650002186,0.7812864240002038,0.039999966,0.04,-9.831063050000017,-0.04533904008341948,-0.018052680849840262,-0.016602323299525688,-0.013516960619029753,-0.023372178799320957
0.75,-0.003982193999822065,-0.785233899999969,0.00495021599978923,-2.3521075000001783,-0.0021350332999043693,1.5658578000002192,0.7812353400002043,0.039999966,0.04,-9.831059000000016,-0.04590403288376722,-0.018092724999839754,-0.01672122799952417,-0.013513882644486816,-0.023542405999318786
0.7525000000000001,-0.004028838554812746,-0.7852420899999671,0.00500547104977818,-2.3520607300001877,-0.0021601025898993595,1.5658003650002306,0.7811817090002152,0.039999966,0.04,-9.831151624999627,-0.04647380951563257,-0.018160782699726784,-0.016842525799513054,-0.01350978990087064,-0.023716130149302586
0.755,-0.004075483109812151,-0.785250279999967,0.005060726099777475,-2.352013960000188,-0.00218517187989904,1.5657429300002312,0.7811280780002159,0.039999966,0.04,-9.831244249999626,-0.04704358614751703,-0.018228840399725915,-0.016963823599511506,-0.013505697157250402,-0.02388985429930037
0.7575000000000001,-0.004122127664811558,-0.785258469999967,0.005115981149776773,-2.3519671900001886,-0.0022102411698987213,1.5656854950002321,0.7810744470002167,0.039999966,0.04,-9.831336874999625,-0.04761336277940152,-0.01829689809972505,-0.017085121399509965,-0.013501604413630163,-0.024063578449298163
0.76,-0.004168772219810963,-0.7852666599999668,0.005171236199776068,-2.3519204200001895,-0.0022353104598984014,1.5656280600002328,0.7810208160002173,0.039999966,0.04,-9.831429499999624,-0.048183139411285984,-0.01836495579972418,-0.017206419199508417,-0.013497511670009926,-0.024237302599295945
0.7625000000000001,-0.004215416774810371,-0.7852748499999667,0.005226491249775365,-2.35187365000019,-0.0022603797498980827,1.5655706250002335,0.780967185000218,0.039999966,0.04,-9.831522124999625,-0.048752916043170474,-0.018433013499723316,-0.017327716999506877,-0.013493418926389689,-0.024411026749293737
0.765,-0.004262061329809776,-0.7852830399999665,0.00528174629977466,-2.3518268800001905,-0.002285449039897763,1.5655131900002341,0.7809135540002187,0.039999966,0.04,-9.831614749999623,-0.04932269267505494,-0.018501071199722448,-0.01744901479950533,-0.01348932618276945,-0.024584750899291522
0.7675000000000001,-0.004309446949800088,-0.7852913824999646,0.005337880234763172,-2.3517793450002005,-0.002310916154892562,1.5654548400002462,0.7808590900002296,0.039999966,0.03999999975,-9.83169532499977,-0.04990646224218678,-0.018565834099762018,-0.017570966999495754,-0.01348506286742177,-0.02475957864927577
0.77,-0.004358314699799465,-0.7853000299999645,0.005395771939762433,-2.351730280000201,-0.002337178919892227,1.5653946600002469,0.7808029600002303,0.039999966,0.039999999,-9.831751799999768,-0.050518217680327965,-0.018624007399761278,-0.017694227999494182,-0.013480458408612934,-0.024936613599273513
0.7725,-0.004407182449798841,-0.7853086774999644,0.0054536636447616955,-2.3516812150002018,-0.0023634416848918923,1.5653344800002476,0.780746830000231,0.039999966,0.03999999825,-9.831808274999768,-0.051129973118469146,-0.018682180699760534,-0.01781748899949261,-0.013475853949804098,-0.025113648549271256
0.775,-0.00445605019979822,-0.7853173249999642,0.005511555349760959,-2.3516321500002024,-0.0023897044498915583,1.5652743000002485,0.7806907000002318,0.039999966,0.0399999975,-9.831864749999767,-0.051741728556610356,-0.018740353999759797,-0.017940749999491044,-0.013471249490995261,-0.025290683499269006
0.7775,-0.004504917949797597,-0.7853259724999642,0.0055694470547602215,-2.351583085000203,-0.0024159672148912235,1.5652141200002492,0.7806345700002324,0.039999966,0.03999999675,-9.831921224999766,-0.05235348399475154,-0.018798527299759053,-0.018064010999489472,-0.013466645032186425,-0.025467718449266746
0.78,-0.004553785699796976,-0.785334619999964,0.005627338759759485,-2.3515340200002037,-0.00244222997989089,1.5651539400002499,0.7805784400002331,0.039999966,0.039999996,-9.831977699999765,-0.05296523943289275,-0.018856700599758313,-0.018187271999487904,-0.013462040573377588,-0.025644753399264496
0.7825,-0.004602653449796353,-0.785343267499964,0.0056852304647587466,-2.3514849550002044,-0.0024684927448905547,1.5650937600002508,0.7805223100002339,0.039999966,0.03999999525,-9.832034174999764,-0.05357699487103393,-0.018914873899757573,-0.01831053299948633,-0.013457436114568753,-0.02582178834926224
0.785,-0.004653031029785335,-0.7853522249999617,0.005744912599745683,-2.3514343800002155,-0.002495568449884624,1.5650317100002644,0.7804644250002467,0.039999966,0.039999995,-9.832078299999841,-0.05420939065246168,-0.018970172699773878,-0.018435322999472894,-0.013452127296501255,-0.026001136599242202
0.7875,-0.004704163524783287,-0.7853613374999614,0.005805489949743258,-2.3513830500002175,-0.0025230506248835236,1.5649687250002668,0.780405662500249,0.039999966,0.039999995,-9.832116249999839,-0.054852106605726404,-0.01902403424977172,-0.018560877499467866,-0.013446466298797817,-0.026181641499234975
0.79,-0.004755296019781243,-0.785370449999961,0.005866067299740835,-2.3513317200002195,-0.0025505327998824245,1.5649057400002695,0.7803469000002514,0.039999966,0.039999995,-9.832154199999838,-0.05549482255899116,-0.019077895799769568,-0.018686431999462846,-0.013440805301094379,-0.026362146399227755
0.7925,-0.004806428514779195,-0.7853795624999607,0.00592664464973841,-2.3512803900002215,-0.002578014974881324,1.564842755000272,0.7802881375002537,0.039999966,0.039999995,-9.832192149999837,-0.056137538512255884,-0.019131757349767412,-0.018811986499457818,-0.01343514430339094,-0.026542651299220527
0.795,-0.004857561009777149,-0.7853886749999602,0.005987221999735987,-2.351229060000224,-0.002605497149880225,1.5647797700002746,0.7802293750002561,0.039999966,0.039999995,-9.832230099999835,-0.05678025446552064,-0.019185618899765257,-0.018937540999452798,-0.013429483305687502,-0.026723156199213307
0.7975,-0.004908693504775102,-0.7853977874999599,0.006047799349733561,-2.351177730000226,-0.0026329793248791246,1.564716785000277,0.7801706125002585,0.039999966,0.039999995,-9.832268049999835,-0.057422970418785364,-0.0192394804497631,-0.019063095499447773,-0.013423822307984064,-0.02690366109920608
0.8,-0.004959825999773057,-0.7854068999999596,0.006108376699731139,-2.351126400000228,-0.0026604614998780255,1.5646538000002796,0.7801118500002608,0.039999966,0.039999995,-9.832305999999832,-0.05806568637205012,-0.019293341999760946,-0.01918864999944275,-0.013418161310280625,-0.027084165999198863
0.8025,-0.005013263124763605,-0.7854164399999578,0.006171687589719926,-2.3510727600002372,-0.002689183094872942,1.5645879350002914,0.7800504325002717,0.039999966,0.039999995,-9.832318299999946,-0.0587518295242831,-0.019329520799839954,-0.019316125399436078,-0.013412395119692524,-0.02726804934918654
0.805,-0.005066700249764384,-0.7854259799999579,0.006234998479720849,-2.3510191200002364,-0.0027179046898733604,1.5645220700002904,0.7799890150002708,0.039999966,0.039999995,-9.832330599999946,-0.059437972676708854,-0.01936569959984048,-0.019443600799437934,-0.013406628929103954,-0.02745193269918922
0.8075,-0.005120137374765161,-0.7854355199999581,0.006298309369721769,-2.350965480000236,-0.0027466262848737776,1.5644562050002895,0.77992759750027,0.039999966,0.039999995,-9.832342899999947,-0.06012411582913458,-0.019401878399841005,-0.019571076199439787,-0.013400862738515385,-0.02763581604919189
0.81,-0.00517357449976594,-0.7854450599999582,0.006361620259722692,-2.350911840000235,-0.002775347879874196,1.5643903400002885,0.7798661800002691,0.039999966,0.039999995,-9.832355199999947,-0.06081025898156034,-0.019438057199841534,-0.019698551599441647,-0.013395096547926817,-0.027819699399194573
0.8125,-0.005227011624766716,-0.7854545999999584,0.006424931149723612,-2.3508582000002343,-0.0028040694748746138,1.5643244750002876,0.7798047625002682,0.039999966,0.039999995,-9.832367499999947,-0.061496402133986064,-0.01947423599984206,-0.019826026999443497,-0.013389330357338247,-0.028003582749197245
0.8150000000000001,-0.005280448749767495,-0.7854641399999585,0.006488242039724534,-2.3508045600002334,-0.0028327910698750323,1.5642586100002867,0.7797433450002672,0.039999966,0.039999995,-9.832379799999947,-0.06218254528641182,-0.019510414799842585,-0.019953502399445357,-0.013383564166749679,-0.028187466099199924
0.8175,-0.005334667274757599,-0.7854738399999565,0.0065524798047127955,-2.350750145000243,-0.0028619330198697084,1.5641918000002986,0.7796810330002786,0.0399999657,0.039999995,-9.83242019999958,-0.062870614600155,-0.019560771699657947,-0.020081612349437776,-0.013377645425525437,-0.028372411699187076
0.8200000000000001,-0.00539044859975689,-0.7854838599999563,0.006618571319711955,-2.350694180000244,-0.002891915679869327,1.5641231000002993,0.7796169320002794,0.0399999648,0.039999995,-9.83251679999958,-0.06356253623660842,-0.019639484799656947,-0.02021099139943613,-0.013371421583023886,-0.0285594817991847
0.8225,-0.005446229924756178,-0.7854938799999561,0.006684662834711113,-2.3506382150002447,-0.002921898339868945,1.5640544000003003,0.7795528310002802,0.039999963900000005,0.039999995,-9.832613399999577,-0.06425445787306179,-0.019718197899655943,-0.020340370449434483,-0.013365197740522335,-0.02874655189918231
