rsonawane2002/My_IMU/logs_2/traj_279/imu_400hz_279.csv
time,j1,j2,j3,j4,j5,j6,j7,gripper1,gripper2,imu_ax,imu_ay,imu_az,imu_gx,imu_gy,imu_gz
0.0,0.00016700293,-0.785875,4.0107683e-05,-2.3551247,9.29385e-05,1.570997,0.786,0.04,0.04,-9.476862,-0.0263639986515045,0.10015529,3.4463406e-07,-0.0011641274904832,4.9990183e-07
0.0025,0.0001670033815,-0.785857774,4.010847455e-05,-2.35513919,9.294269400000001e-05,1.570996565,0.786,0.04,0.04,-9.53049570000005,-0.02231327598273851,0.08649400609998757,2.0637056099987425e-07,-0.0013253228215036267,5.183701210000169e-07
0.005,0.000167003833,-0.785840548,4.0109266100000004e-05,-2.3551536800000004,9.2946888e-05,1.57099613,0.786,0.04,0.04,-9.584129400000098,-0.018262553313972522,0.07283272219997515,6.810706199974851e-08,-0.0014865181525240533,5.368384120000337e-07
0.0075,0.0001670042845,-0.7858233219999999,4.011005765e-05,-2.3551681700000002,9.295108200000001e-05,1.570995695,0.786,0.04,0.04,-9.637763100000146,-0.014211830645206534,0.05917143829996272,-7.015643700037717e-08,-0.00164771348354448,5.553067030000505e-07
0.01,0.000167004736,-0.785806096,4.01108492e-05,-2.35518266,9.295527600000002e-05,1.5709952600000001,0.786,0.04,0.04,-9.691396800000195,-0.010161107976440546,0.0455101543999503,-2.0841993600050297e-07,-0.0018089088145649065,5.737749940000673e-07
0.0125,0.0001670051875,-0.78578887,4.0111640750000004e-05,-2.3551971500000004,9.295947000000002e-05,1.570994825,0.786,0.04,0.04,-9.745030500000244,-0.006110385307674555,0.03184887049993787,-3.466834350006287e-07,-0.001970104145585333,5.922432850000841e-07
0.015,0.000167005639,-0.785771644,4.01124323e-05,-2.3552116400000003,9.296366400000001e-05,1.57099439,0.786,0.04,0.04,-9.798664200000292,-0.0020596626389085687,0.018187586599925448,-4.849469340007543e-07,-0.0021312994766057598,6.107115760001008e-07
0.0175,0.000167006156,-0.785754867,4.011263149999999e-05,-2.3552257350000003,9.296511599999997e-05,1.57099396,0.786,0.04,0.04,-9.834323599999998,0.0006387485249432554,0.009002634049998522,-6.811602450019873e-07,-0.002288384293206953,5.176422614979871e-07
0.02,0.00016700680400000002,-0.785738988,4.011164599999999e-05,-2.3552390400000003,9.296108399999997e-05,1.5709935400000001,0.786,0.04,0.04,-9.834034399999998,0.0006325366790405348,0.00877034419999831,-9.932731800022709e-07,-0.0024372480809699035,2.0149773599769971e-07
0.0225,0.000167007452,-0.7857231089999999,4.011066049999999e-05,-2.3552523450000002,9.295705199999997e-05,1.57099312,0.786,0.04,0.04,-9.833745199999997,0.0006263248331378141,0.0085380543499981,-1.3053861150025546e-06,-0.0025861118687328538,-1.1464678950258767e-07
0.025,0.00016700810000000002,-0.7857072299999999,4.010967499999999e-05,-2.35526565,9.295301999999996e-05,1.5709927,0.786,0.04,0.04,-9.833455999999998,0.0006201129872350935,0.008305764499997887,-1.617499050002839e-06,-0.002734975656495804,-4.307913150028756e-07
0.0275,0.000167008748,-0.7856913509999999,4.0108689499999985e-05,-2.355278955,9.294898799999996e-05,1.57099228,0.786,0.04,0.04,-9.833166799999997,0.0006139011413323728,0.008073474649997676,-1.929611985003123e-06,-0.0028838394442587544,-7.46935840503163e-07
0.03,0.00016700939600000002,-0.7856754719999999,4.0107703999999986e-05,-2.35529226,9.294495599999996e-05,1.57099186,0.786,0.04,0.04,-9.832877599999996,0.0006076892954296522,0.007841184799997465,-2.2417249200034066e-06,-0.0030327032320217047,-1.0630803660034504e-06
0.0325,0.000167010044,-0.7856595929999999,4.010671849999999e-05,-2.355305565,9.294092399999995e-05,1.57099144,0.786,0.04,0.04,-9.832588399999997,0.0006014774495269315,0.007608894949997253,-2.5538378550036903e-06,-0.0031815670197846554,-1.379224891503738e-06
0.035,0.00016701102200000002,-0.7856445729999998,4.0102686699999927e-05,-2.3553181,9.292285699999968e-05,1.57099101,0.786,0.04,0.04,-9.832317399999997,0.0005936149158513894,0.007388928299997277,-3.234371450011012e-06,-0.0033232311252521483,-2.1161216600120628e-06
0.0375,0.000167012165,-0.7856299824999998,4.009713174999993e-05,-2.35533025,9.289777249999965e-05,1.570990575,0.786,0.04,0.04,-9.832055499999996,0.0005849270382894815,0.007175123249997083,-4.099115375011797e-06,-0.0034612953895721086,-3.0633945500129224e-06
0.04,0.00016701330800000002,-0.7856153919999997,4.009157679999992e-05,-2.3553424,9.287268799999964e-05,1.57099014,0.786,0.04,0.04,-9.831793599999996,0.0005762391607275736,0.006961318199996889,-4.9638593000125846e-06,-0.0035993596538920693,-4.0106674400137855e-06
0.0425,0.000167014451,-0.7856008014999998,4.0086021849999913e-05,-2.35535455,9.284760349999961e-05,1.5709897050000001,0.786,0.04,0.04,-9.831531699999996,0.0005675512831656656,0.006747513149996694,-5.828603225013372e-06,-0.00373742391821203,-4.957940330014648e-06
0.045,0.00016701559400000002,-0.7855862109999998,4.008046689999991e-05,-2.3553667000000003,9.282251899999958e-05,1.57098927,0.786,0.04,0.04,-9.831269799999996,0.0005588634056037578,0.0065337080999965,-6.6933471500141565e-06,-0.0038754881825319902,-5.9052132200155065e-06
0.0475,0.000167016737,-0.7855716204999997,4.007491194999991e-05,-2.35537885,9.279743449999956e-05,1.570988835,0.786,0.04,0.04,-9.831007899999996,0.0005501755280418499,0.006319903049996306,-7.558091075014944e-06,-0.0040135524468519505,-6.852486110016369e-06
0.05,0.00016701788000000002,-0.7855570299999998,4.0069356999999745e-05,-2.355391,9.277234999999884e-05,1.5709884,0.786,0.04,0.04,-9.830745999999996,0.0005414876504798891,0.006106097999996305,-8.422835000030946e-06,-0.0041516167111717295,-7.79975900003155e-06
0.0525,0.00016701984650000003,-0.7855436454999998,4.005519594999973e-05,-2.3554021300000003,9.27093190999988e-05,1.57098798,0.786,0.04,0.03999999925,-9.830508549999996,0.0005298948497508986,0.005903001149996121,-1.0123956350032489e-05,-0.004279691213744271,-9.534013250033122e-06
0.055,0.00016702181300000003,-0.7855302609999998,4.004103489999972e-05,-2.35541326,9.264628819999874e-05,1.57098756,0.786,0.04,0.0399999985,-9.830271099999996,0.0005183020490219081,0.0056999042999959365,-1.1825077700034039e-05,-0.004407765716316812,-1.12682675000347e-05
0.0575,0.00016702377950000003,-0.7855168764999997,4.0026873849999705e-05,-2.35542439,9.258325729999868e-05,1.57098714,0.786,0.04,0.03999999775,-9.830033649999995,0.0005067092482929175,0.005496807449995751,-1.3526199050035586e-05,-0.004535840218889354,-1.300252175003628e-05
0.06,0.00016702574600000004,-0.7855034919999997,4.001271279999969e-05,-2.3554355200000003,9.252022639999863e-05,1.57098672,0.786,0.04,0.039999997,-9.829796199999993,0.000495116447563927,0.005293710599995567,-1.522732040003713e-05,-0.004663914721461895,-1.4736776000037854e-05
0.0625,0.00016702771250000004,-0.7854901074999997,3.999855174999968e-05,-2.35544665,9.245719549999857e-05,1.5709863,0.786,0.04,0.03999999625,-9.829558749999993,0.0004835236468349364,0.005090613749995382,-1.692844175003868e-05,-0.004791989224034437,-1.647103025003943e-05
0.065,0.00016702967900000004,-0.7854767229999997,3.9984390699999665e-05,-2.35545778,9.239416459999852e-05,1.57098588,0.786,0.04,0.0399999955,-9.829321299999993,0.00047193084610594585,0.004887516899995197,-1.8629563100040226e-05,-0.004920063726606979,-1.820528450004101e-05
0.0675,0.00016703207200000007,-0.7854637229999998,3.996567014999932e-05,-2.35546855,9.230960929999688e-05,1.570985455,0.786,0.04,0.03999999525,-9.829089849999994,0.00045841106184478335,0.004688667574995325,-2.069189720006839e-05,-0.0050451944815023885,-2.039888295007643e-05
0.07,0.0001670353180000001,-0.7854514919999998,3.993783059999929e-05,-2.3554786,9.218200519999676e-05,1.57098502,0.786,0.04,0.039999996,-9.828870399999994,0.0004410373105196975,0.004498313299995152,-2.347665680007092e-05,-0.005164437741044177,-2.3511169800079263e-05
0.0725,0.0001670385640000001,-0.7854392609999997,3.990999104999927e-05,-2.3554886500000003,9.205440109999664e-05,1.570984585,0.786,0.04,0.03999999675,-9.828650949999993,0.0004236635591946118,0.004307959024994979,-2.6261416400073444e-05,-0.005283681000585965,-2.662345665008208e-05
0.075,0.00016704181000000009,-0.7854270299999997,3.988215149999924e-05,-2.3554987,9.192679699999652e-05,1.57098415,0.786,0.04,0.0399999975,-9.828431499999994,0.000406289807869526,0.004117604749994806,-2.9046176000075976e-05,-0.0054029242601277535,-2.9735743500084913e-05
0.0775,0.0001670450560000001,-0.7854147989999997,3.985431194999921e-05,-2.3555087500000003,9.17991928999964e-05,1.5709837150000001,0.786,0.04,0.03999999825,-9.828212049999994,0.0003889160565444402,0.003927250474994633,-3.1830935600078516e-05,-0.0055221675196695415,-3.2848030350087746e-05
0.08,0.00016704830200000008,-0.7854025679999996,3.982647239999919e-05,-2.3555188,9.167158879999628e-05,1.57098328,0.786,0.04,0.039999999,-9.827992599999993,0.00037154230521935434,0.0037368961999944598,-3.461569520008105e-05,-0.00564141077921133,-3.5960317200090577e-05
0.0825,0.0001670515480000001,-0.7853903369999996,3.9798632849999165e-05,-2.3555288500000002,9.154398469999616e-05,1.570982845,0.786,0.04,0.03999999975,-9.827773149999993,0.00035416855389426853,0.0035465419249942863,-3.740045480008358e-05,-0.005760654038753119,-3.9072604050093414e-05
0.085,0.00016705597400000017,-0.7853788339999996,3.975758609999853e-05,-2.35553868,9.13569949999933e-05,1.57098268,0.7859998100000001,0.04,0.0399999995,-9.827556499999993,0.00033623419294536675,0.003364033669994477,-4.107492220012739e-05,-0.005874309176582449,-4.2936124100131095e-05
0.08750000000000001,0.00016706099000000015,-0.7853676949999997,3.9709935749998486e-05,-2.3555484,9.11403124999931e-05,1.57098265,0.785999525,0.04,0.03999999875,-9.827341249999993,0.00031801952718459514,0.0031854484249943145,-4.519424350013114e-05,-0.0059851702535559295,-4.717526075013495e-05
0.09,0.00016706600600000017,-0.7853565559999997,3.966228539999844e-05,-2.3555581200000004,9.09236299999929e-05,1.57098262,0.78599924,0.04,0.039999998,-9.827125999999993,0.00029980486142382363,0.003006863179994153,-4.9313564800134864e-05,-0.006096031330529409,-5.141439740013879e-05
0.0925,0.00016707102200000018,-0.7853454169999996,3.96146350499984e-05,-2.3555678400000004,9.070694749999271e-05,1.57098259,0.785998955,0.04,0.03999999725,-9.826910749999993,0.0002815901956630521,0.0028282779349939904,-5.3432886100138617e-05,-0.006206892407502891,-5.5653534050142654e-05
0.095,0.00016707603800000017,-0.7853342779999997,3.956698469999835e-05,-2.3555775600000004,9.049026499999251e-05,1.57098256,0.78599867,0.04,0.0399999965,-9.826695499999992,0.00026337552990228047,0.002649692689993828,-5.755220740014237e-05,-0.006317753484476372,-5.989267070014652e-05
0.0975,0.00016708105400000019,-0.7853231389999996,3.951933434999831e-05,-2.3555872800000004,9.027358249999231e-05,1.57098253,0.7859983850000001,0.04,0.03999999575,-9.826480249999992,0.0002451608641415089,0.0024711074449936653,-6.167152870014612e-05,-0.006428614561449853,-6.413180735015037e-05
0.1,0.00016708607000000028,-0.7853119999999997,3.947168399999729e-05,-2.3555970000000004,9.00568999999876e-05,1.5709825,0.7859981,0.04,0.039999995,-9.826264999999996,0.00022694619838051517,0.0022925221999934918,-6.579085000016283e-05,-0.0065394756384231185,-6.837094400021949e-05
0.10250000000000001,0.00016709342300000028,-0.7853019349999997,3.939726689999722e-05,-2.35560573,8.971598449998729e-05,1.5709825149999999,0.785997815,0.04,0.03999999575,-9.826152049999996,0.0002026261150594334,0.002113639264993329,-7.02664345001669e-05,-0.00664443012793,-7.440363650022498e-05
0.105,0.00016710077600000028,-0.7852918699999997,3.9322849799997157e-05,-2.3556144600000004,8.937506899998698e-05,1.57098253,0.78599753,0.04,0.0399999965,-9.826039099999996,0.00017830603173835178,0.001934756329993167,-7.474201900017095e-05,-0.006749384617436879,-8.043632900023043e-05
0.1075,0.00016710812900000028,-0.7852818049999997,3.924843269999709e-05,-2.35562319,8.903415349998666e-05,1.570982545,0.785997245,0.04,0.03999999725,-9.825926149999995,0.00015398594841727,0.0017558733949930043,-7.921760350017503e-05,-0.00685433910694376,-8.646902150023593e-05
0.11,0.00016711548200000028,-0.7852717399999997,3.9174015599997024e-05,-2.3556319200000004,8.869323799998635e-05,1.57098256,0.78599696,0.04,0.039999998,-9.825813199999995,0.00012966586509618826,0.0015769904599928415,-8.36931880001791e-05,-0.006959293596450641,-9.250171400024142e-05
0.1125,0.0001671228350000003,-0.7852616749999997,3.909959849999695e-05,-2.3556406500000007,8.835232249998604e-05,1.570982575,0.785996675,0.04,0.03999999875,-9.825700249999995,0.00010534578177510647,0.0013981075249926787,-8.816877250018318e-05,-0.007064248085957521,-9.85344065002469e-05
0.115,0.0001671301880000003,-0.7852516099999997,3.9025181399996884e-05,-2.3556493800000005,8.801140699998574e-05,1.57098259,0.78599639,0.04,0.0399999995,-9.825587299999995,8.102569845402471e-05,0.0012192245899925157,-9.264435700018725e-05,-0.007169202575464401,-0.0001045670990002524
0.11750000000000001,0.00016713851050000042,-0.7852418649999996,3.893924849999534e-05,-2.3556578800000003,8.761780269997867e-05,1.57098262,0.785996057,0.04,0.04,-9.825450099999992,5.630314990303774e-05,0.0010478553039933165,-9.773596650027033e-05,-0.007271835533906174,-0.00011113636930032672
0.12,0.00016714877200000046,-0.7852327599999996,3.883028399999524e-05,-2.3556659200000003,8.711882079997821e-05,1.57098268,0.785995628,0.04,0.04,-9.825264399999991,3.0775670892394274e-05,0.0008915133159931751,-0.00010405962600027606,-0.007369825430218618,-0.00011877879520033362
0.1225,0.00016715903350000047,-0.7852236549999996,3.872131949999514e-05,-2.3556739600000003,8.661983889997776e-05,1.57098274,0.785995199,0.04,0.04,-9.825078699999992,5.248191881750656e-06,0.0007351713279930329,-0.00011038328550028181,-0.007467815326531062,-0.00012642122110034058
0.125,0.00016716929500000047,-0.7852145499999996,3.8612354999995047e-05,-2.3556820000000003,8.612085699997731e-05,1.5709828000000001,0.78599477,0.04,0.04,-9.824892999999992,-2.0279287128892955e-05,0.0005788293399928905,-0.00011670694500028758,-0.007565805222843506,-0.00013406364700034755
0.1275,0.00016717955650000048,-0.7852054449999996,3.8503390499994944e-05,-2.3556900400000003,8.562187509997686e-05,1.57098286,0.785994341,0.04,0.04,-9.824707299999991,-4.5806766139536566e-05,0.00042248735199274814,-0.00012303060450029335,-0.00766379511915595,-0.0001417060729003545
0.13,0.0001671898180000005,-0.7851963399999996,3.839442599999485e-05,-2.3556980800000002,8.51228931999764e-05,1.57098292,0.785993912,0.04,0.04,-9.824521599999992,-7.133424515018018e-05,0.0002661453639926059,-0.0001293542640002991,-0.007761785015468394,-0.00014934849880036147
0.1325,0.0001672000795000005,-0.7851872349999995,3.828546149999475e-05,-2.3557061200000002,8.462391129997596e-05,1.57098298,0.7859934829999999,0.04,0.04,-9.824335899999992,-9.686172416082379e-05,0.00010980337599246362,-0.00013567792350030486,-0.007859774911780838,-0.00015699092470036841
0.135,0.00016721270800000067,-0.7851788099999996,3.8147809999992534e-05,-2.3557138600000003,8.399388159996585e-05,1.57098306,0.785992956,0.04,0.04,-9.824184199999994,-0.0001253669557641132,-4.4834708007553414e-05,-0.00014302413600038595,-0.007954551186417075,-0.00016589173000046808
0.1375,0.0001672265200000007,-0.7851707249999996,3.79958149999924e-05,-2.3557214500000003,8.32983279999652e-05,1.57098315,0.7859923799999999,0.04,0.04,-9.824049499999994,-0.0001553610636634005,-0.00019862084000769341,-0.00015088162500039308,-0.00804772065021556,-0.00017542172500047677
0.14,0.0001672403320000007,-0.7851626399999996,3.784381999999226e-05,-2.3557290400000004,8.260277439996457e-05,1.57098324,0.785991804,0.04,0.04,-9.823914799999994,-0.00018535517156268778,-0.0003524069720078335,-0.00015873911400040024,-0.008140890114014046,-0.00018495172000048543
0.14250000000000002,0.0001672541440000007,-0.7851545549999995,3.7691824999992125e-05,-2.3557366300000004,8.190722079996394e-05,1.57098333,0.785991228,0.04,0.04,-9.823780099999993,-0.0002153492794619751,-0.0005061931040079735,-0.0001665966030004074,-0.00823405957781253,-0.00019448171500049412
0.145,0.00016726795600000073,-0.7851464699999995,3.753982999999199e-05,-2.3557442200000005,8.121166719996332e-05,1.57098342,0.785990652,0.04,0.04,-9.823645399999993,-0.00024534338736126207,-0.0006599792360081118,-0.00017445409200041447,-0.008327229041611013,-0.00020401171000050268
0.1475,0.00016728176800000073,-0.7851383849999996,3.7387834999991845e-05,-2.3557518100000006,8.051611359996269e-05,1.57098351,0.7859900759999999,0.04,0.04,-9.823510699999993,-0.0002753374952605494,-0.0008137653680082518,-0.00018231158100042163,-0.0084203985054095,-0.00021354170500051135
0.15,0.00016729558000000097,-0.7851302999999996,3.723583999998886e-05,-2.3557594000000006,7.982055999994906e-05,1.5709836,0.7859895,0.04,0.04,-9.823375999999994,-0.00030533160315999243,-0.0009675515000074685,-0.0001901690700005247,-0.0085135679692078,-0.00022307170000063057
0.1525,0.000167313622000001,-0.7851231899999995,3.703171099998868e-05,-2.3557663900000003,7.888700889994821e-05,1.570983735,0.785988645,0.04,0.04,-9.823275649999994,-0.00033818038646307236,-0.0011044182050075932,-0.00019978479150053346,-0.008603388862689259,-0.00023462728300064107
0.155,0.000167331664000001,-0.7851160799999995,3.682758199998849e-05,-2.3557733800000005,7.795345779994736e-05,1.57098387,0.78598779,0.04,0.04,-9.823175299999994,-0.00037102916976615224,-0.0012412849100077177,-0.00020940051300054221,-0.008693209756170715,-0.0002461828660006516
0.1575,0.00016734970600000104,-0.7851089699999996,3.662345299998831e-05,-2.3557803700000006,7.701990669994652e-05,1.570984005,0.7859869349999999,0.04,0.04,-9.823074949999993,-0.0004038779530692322,-0.0013781516150078422,-0.00021901623450055097,-0.008783030649652171,-0.00025773844900066215
0.16,0.00016736774800000105,-0.7851018599999996,3.641932399998812e-05,-2.3557873600000003,7.608635559994566e-05,1.57098414,0.7859860799999999,0.04,0.04,-9.822974599999993,-0.0004367267363723121,-0.0015150183200079669,-0.00022863195600055972,-0.00887285154313363,-0.0002692940320006726
0.1625,0.00016738579000000106,-0.7850947499999996,3.6215194999987936e-05,-2.3557943500000005,7.515280449994481e-05,1.570984275,0.785985225,0.04,0.04,-9.822874249999993,-0.000469575519675392,-0.0016518850250080914,-0.00023824767750056848,-0.008962672436615086,-0.00028084961500068315
0.165,0.0001674038320000011,-0.7850876399999996,3.601106599998775e-05,-2.35580134,7.421925339994396e-05,1.57098441,0.78598437,0.04,0.04,-9.822773899999994,-0.000502424302978472,-0.001788751730008216,-0.00024786339900057723,-0.009052493330096542,-0.00029240519800069367
0.1675,0.0001674235200000014,-0.7850808499999996,3.57863499999838e-05,-2.3558081650000005,7.319169069992592e-05,1.57098454,0.78598344,0.04,0.04,-9.822667574999992,-0.0005364292330362782,-0.001923765640008002,-0.00025793459750066925,-0.009141091862698595,-0.0003046766240008351
0.17,0.0001674465000000014,-0.7850746999999997,3.552045999998356e-05,-2.3558146600000005,7.197610479992482e-05,1.57098466,0.78598236,0.04,0.04,-9.822549299999991,-0.0005727464566029063,-0.0020550739600081213,-0.00026891675000067925,-0.009227245673542508,-0.00031837973600084754
0.17250000000000001,0.00016746948000000145,-0.7850685499999996,3.5254569999983314e-05,-2.355821155,7.076051889992371e-05,1.57098478,0.7859812799999999,0.04,0.04,-9.822431024999993,-0.0006090636801695343,-0.002186382280008241,-0.00027989890250068925,-0.009313399484386423,-0.00033208284800086
0.17500000000000002,0.00016749246000000146,-0.7850623999999996,3.498867999998307e-05,-2.35582765,6.95449329999226e-05,1.5709849,0.7859801999999999,0.04,0.04,-9.822312749999993,-0.0006453809037361624,-0.0023176906000083606,-0.00029088105500069925,-0.009399553295230336,-0.0003457859600008725
0.1775,0.0001675154400000015,-0.7850562499999996,3.4722789999982834e-05,-2.355834145,6.832934709992151e-05,1.57098502,0.7859791199999999,0.04,0.04,-9.822194474999993,-0.00068169812730279,-0.0024489989200084787,-0.00030186320750070914,-0.009485707106074248,-0.0003594890720008848
0.18,0.00016753842000000153,-0.7850500999999995,3.445689999998259e-05,-2.3558406400000003,6.71137611999204e-05,1.5709851400000001,0.7859780399999999,0.04,0.04,-9.822076199999993,-0.0007180153508694181,-0.002580307240008598,-0.00031284536000071914,-0.009571860916918161,-0.0003731921840008973
0.1825,0.00016756140000000154,-0.7850439499999996,3.419100999998235e-05,-2.3558471350000003,6.58981752999193e-05,1.57098526,0.78597696,0.04,0.04,-9.821957924999992,-0.0007543325744360462,-0.002711615560008718,-0.00032382751250072914,-0.009658014727762076,-0.00038689529600090977
0.185,0.00016758817500000194,-0.7850384499999996,3.387720299997727e-05,-2.3558534900000003,6.446292699989601e-05,1.5709854,0.78597573,0.0399999995,0.04,-9.821857649999995,-0.0007946334430044964,-0.0028373420300082737,-0.00033606465700086583,-0.009742433577781553,-0.00040218236500108215
0.1875,0.00016761684750000197,-0.7850332749999996,3.353943749997696e-05,-2.3558597750000003,6.291784749989461e-05,1.57098555,0.7859744249999999,0.03999999875,0.04,-9.821766374999994,-0.0008369261340732599,-0.002960277575008386,-0.00034892929750087755,-0.009825984947389075,-0.00041826141250109677
0.19,0.000167645520000002,-0.7850280999999997,3.320167199997665e-05,-2.3558660600000003,6.137276799989321e-05,1.5709857,0.78597312,0.039999998,0.04,-9.821675099999995,-0.0008792188251420234,-0.0030832131200084975,-0.0003617939380008892,-0.009909536316996596,-0.0004343404600011114
0.1925,0.00016767419250000203,-0.7850229249999996,3.286390649997634e-05,-2.3558723450000003,5.98276884998918e-05,1.57098585,0.7859718149999999,0.03999999725,0.04,-9.821583824999994,-0.0009215115162107869,-0.0032061486650086096,-0.0003746585785009009,-0.009993087686604117,-0.00045041950750112606
0.195,0.00016770286500000203,-0.7850177499999996,3.252614099997604e-05,-2.3558786300000003,5.828260899989039e-05,1.570986,0.78597051,0.0399999965,0.04,-9.821492549999993,-0.0009638042072795505,-0.0033290842100087213,-0.00038752321900091264,-0.010076639056211638,-0.0004664985550011407
0.1975,0.00016773153750000206,-0.7850125749999997,3.218837549997573e-05,-2.3558849150000003,5.6737529499888985e-05,1.57098615,0.785969205,0.03999999575,0.04,-9.821401274999994,-0.0010060968983483139,-0.0034520197550088334,-0.00040038785950092436,-0.010160190425819159,-0.00048257760250115534
0.2,0.00016776021000000256,-0.7850073999999997,3.185060999996942e-05,-2.3558912000000003,5.51924499998602e-05,1.5709863,0.7859678999999999,0.039999995,0.04,-9.821309999999997,-0.0010483895894170948,-0.0035749553000082273,-0.00041325250000109594,-0.010243741795426614,-0.0004986566500013219
0.2025,0.00016779533400000258,-0.7850031999999997,3.143040629996904e-05,-2.355897005,5.327115849985845e-05,1.570986435,0.7859662439999999,0.039999994250000004,0.0399999985,-9.821260199999998,-0.0010909209901032535,-0.00368802395000833,-0.00042831463000110966,-0.010326389595872244,-0.0005168228275013384
0.20500000000000002,0.0001678304580000026,-0.7849989999999997,3.101020259996866e-05,-2.3559028100000003,5.13498669998567e-05,1.57098657,0.7859645879999999,0.039999993500000004,0.039999997,-9.821210399999996,-0.0011334523907894122,-0.0038010926000084334,-0.0004433767600011234,-0.010409037396317874,-0.0005349890050013549
0.20750000000000002,0.00016786558200000264,-0.7849947999999997,3.0589998899968276e-05,-2.355908615,4.9428575499854953e-05,1.570986705,0.7859629319999999,0.039999992750000005,0.0399999955,-9.821160599999997,-0.0011759837914755709,-0.003914161250008536,-0.0004584388900011371,-0.010491685196763505,-0.0005531551825013715
0.21,0.00016790070600000267,-0.7849905999999996,3.0169795199967897e-05,-2.3559144200000004,4.750728399985323e-05,1.57098684,0.7859612759999999,0.039999992,0.039999994,-9.821110799999996,-0.0012185151921617291,-0.004027229900008638,-0.00047350102000115067,-0.010574332997209134,-0.0005713213600013878
0.2125,0.0001679358300000027,-0.7849863999999996,2.9749591499967515e-05,-2.3559202250000006,4.5585992499851474e-05,1.570986975,0.7859596199999999,0.03999999125,0.0399999925,-9.821060999999997,-0.0012610465928478878,-0.0041402985500087405,-0.0004885631500011644,-0.010656980797654765,-0.0005894875375014044
0.215,0.00016797095400000273,-0.7849821999999996,2.9329387799967133e-05,-2.3559260300000004,4.366470099984973e-05,1.5709871100000001,0.7859579639999998,0.0399999905,0.039999991,-9.821011199999996,-0.0013035779935340465,-0.004253367200008844,-0.0005036252800011781,-0.010739628598100395,-0.0006076537150014209
0.2175,0.00016800849050000333,-0.7849783299999997,2.8878063899959363e-05,-2.3559317000000006,4.160133719981425e-05,1.57098731,0.7859561919999998,0.0399999899,0.0399999899,-9.820948249999994,-0.0013484490744342457,-0.004364354385008453,-0.0005193048550013383,-0.01082158302888906,-0.0006266719680016397
0.22,0.0001680508520000034,-0.7849751199999997,2.8364499599958895e-05,-2.3559371000000007,3.925382879981212e-05,1.57098764,0.7859541879999998,0.0399999896,0.0399999896,-9.820858999999993,-0.0013979995157608657,-0.00447117864000855,-0.0005362193200013538,-0.010902150720364288,-0.0006473943720016586
0.2225,0.00016809321350000342,-0.7849719099999998,2.7850935299958426e-05,-2.3559425000000007,3.690632039980998e-05,1.57098797,0.7859521839999998,0.0399999893,0.0399999893,-9.820769749999993,-0.0014475499570874859,-0.004578002895008647,-0.0005531337850013692,-0.010982718411839516,-0.0006681167760016774
0.225,0.00016813557500000345,-0.7849686999999997,2.733737099995796e-05,-2.3559479000000003,3.4558811999807843e-05,1.5709883,0.7859501799999998,0.039999989,0.039999989,-9.820680499999993,-0.001497100398414106,-0.004684827150008744,-0.0005700482500013846,-0.011063286103314746,-0.0006888391800016963
0.2275,0.0001681779365000035,-0.7849654899999997,2.6823806699957492e-05,-2.3559533000000004,3.22113035998057e-05,1.57098863,0.7859481759999999,0.0399999887,0.0399999887,-9.820591249999993,-0.001546650839740726,-0.004791651405008842,-0.0005869627150014,-0.011143853794789974,-0.0007095615840017151
0.23,0.00016822029800000354,-0.7849622799999998,2.6310242399957027e-05,-2.3559587000000004,2.986379519980357e-05,1.57098896,0.7859461719999998,0.0399999884,0.0399999884,-9.820501999999992,-0.0015962012810673463,-0.004898475660008939,-0.0006038771800014154,-0.011224421486265202,-0.000730283988001734
0.2325,0.0001682626595000036,-0.7849590699999998,2.579667809995656e-05,-2.3559641000000004,2.751628679980143e-05,1.57098929,0.7859441679999999,0.0399999881,0.0399999881,-9.820412749999992,-0.0016457517223939665,-0.005005299915009036,-0.0006207916450014308,-0.011304989177740431,-0.0007510063920017528
0.23500000000000001,0.0001683103720000043,-0.7849565199999998,2.5213414499947153e-05,-2.3559694200000005,2.4850653999758494e-05,1.57098984,0.7859419499999998,0.0399999876,0.039999987199999996,-9.820336099999993,-0.0016971202101602597,-0.0051055109000082855,-0.0006390709100016212,-0.011384301725781688,-0.000773306504001974
0.23750000000000002,0.00016836076000000436,-0.7849542999999999,2.459530124994659e-05,-2.3559747000000004,2.2025958999755922e-05,1.5709905000000002,0.7859396249999998,0.039999987,0.039999986,-9.820265749999994,-0.0017493977211460422,-0.0052024152500083735,-0.0006580325750016384,-0.0114629867021062,-0.0007963954700019951
0.24,0.0001684111480000044,-0.7849520799999998,2.3977187999946032e-05,-2.3559799800000003,1.920126399975338e-05,1.5709911600000002,0.7859372999999998,0.0399999864,0.0399999848,-9.820195399999994,-0.0018016752321318242,-0.005299319600008461,-0.0006769942400016556,-0.01154167167843071,-0.0008194844360020158
0.2425,0.00016846153600000446,-0.7849498599999998,2.3359074749945472e-05,-2.3559852600000006,1.6376568999750813e-05,1.5709918200000001,0.7859349749999998,0.0399999858,0.0399999836,-9.820125049999994,-0.0018539527431176068,-0.005396223950008549,-0.0006959559050016728,-0.01162035665475522,-0.0008425734020020369
0.245,0.00016851192400000448,-0.7849476399999998,2.2740961499944908e-05,-2.3559905400000005,1.355187399974824e-05,1.5709924800000001,0.7859326499999998,0.039999985200000004,0.039999982399999995,-9.820054699999995,-0.0019062302541033892,-0.005493128300008638,-0.0007149175700016901,-0.011699041631079732,-0.0008656623680020579
0.2475,0.00016856231200000453,-0.7849454199999998,2.2122848249944345e-05,-2.3559958200000004,1.072717899974567e-05,1.5709931400000001,0.7859303249999997,0.0399999846,0.0399999812,-9.819984349999995,-0.0019585077650891717,-0.005590032650008726,-0.0007338792350017073,-0.011777726607404244,-0.0008887513340020789
0.25,0.0001686127000000054,-0.7849431999999998,2.150473499993323e-05,-2.3560011000000003,7.902483999694923e-06,1.5709938,0.7859279999999997,0.039999984,0.03999998,-9.819913999999997,-0.0020107852760755615,-0.005686937000008376,-0.000752840900001951,-0.011856411583728639,-0.000911840300002344
0.2525,0.00016867199500000544,-0.7849420239999998,2.0770584449932562e-05,-2.3560063350000005,4.548118299691869e-06,1.5709944900000001,0.7859251799999997,0.0399999834,0.039999979549999995,-9.819874249999996,-0.0020697347470613,-0.00577902714500846,-0.0007742915900019705,-0.011933802673600233,-0.0009376120400023674
0.255,0.0001687312900000055,-0.7849408479999999,2.0036433899931893e-05,-2.35601157,1.1937525996888165e-06,1.5709951800000002,0.7859223599999997,0.0399999828,0.0399999791,-9.819834499999997,-0.002128684218047039,-0.005871117290008544,-0.00079574228000199,-0.012011193763471829,-0.0009633837800023909
0.2575,0.00016879058500000557,-0.7849396719999998,1.9302283349931225e-05,-2.3560168050000003,-2.160613100314237e-06,1.5709958700000002,0.7859195399999998,0.0399999822,0.03999997865,-9.819794749999996,-0.0021876336890327775,-0.005963207435008627,-0.0008171929700020095,-0.012088584853343425,-0.0009891555200024144
0.26,0.00016884988000000561,-0.7849384959999999,1.8568132799930557e-05,-2.3560220400000005,-5.51497880031729e-06,1.57099656,0.7859167199999997,0.0399999816,0.0399999782,-9.819754999999997,-0.002246583160018516,-0.0060552975800087115,-0.0008386436600020291,-0.01216597594321502,-0.0010149272600024379
0.2625,0.00016890917500000566,-0.7849373199999998,1.7833982249929888e-05,-2.3560272750000006,-8.869344500320343e-06,1.57099725,0.7859138999999997,0.039999981,0.03999997775,-9.819715249999996,-0.002305532631004255,-0.006147387725008795,-0.0008600943500020486,-0.012243367033086615,-0.0010406990000024613
0.265,0.0001689684700000057,-0.7849361439999999,1.709983169992922e-05,-2.3560325100000004,-1.2223710200323397e-05,1.57099794,0.7859110799999997,0.039999980399999996,0.039999977299999996,-9.819675499999997,-0.0023644821019899935,-0.0062394778700088785,-0.0008815450400020681,-0.01232075812295821,-0.0010664707400024848
0.2675,0.00016903100500000672,-0.784935309,1.632310434991612e-05,-2.3560377150000007,-1.5772371050383182e-05,1.57099864,0.7859080999999997,0.039999979649999996,0.03999997665,-9.819640849999997,-0.002424677193636576,-0.0063254964200071895,-0.000903616880002269,-0.012398318294443276,-0.0010931101250027616
0.27,0.0001691000200000068,-0.784935156,1.5461223399915337e-05,-2.3560428600000005,-1.9709622200386764e-05,1.57099936,0.7859047999999996,0.0399999786,0.0399999756,-9.819616399999997,-0.002487363526603758,-0.006399371780007257,-0.0009269310200022902,-0.012476216629155133,-0.0011214848000027874
0.2725,0.00016916903500000685,-0.784935003,1.4599342449914551e-05,-2.3560480050000003,-2.364687335039035e-05,1.5710000800000001,0.7859014999999997,0.039999977549999996,0.03999997455,-9.819591949999998,-0.00255004985957094,-0.006473247140007324,-0.0009502451600023114,-0.012554114963866988,-0.0011498594750028132
0.275,0.0001692380500000069,-0.78493485,1.3737461499913767e-05,-2.3560531500000006,-2.7584124500393934e-05,1.5710008,0.7858981999999997,0.0399999765,0.0399999735,-9.819567499999998,-0.002612736192538122,-0.006547122500007391,-0.0009735593000023326,-0.012632013298578843,-0.001178234150002839
0.2775,0.00016930706500000697,-0.784934697,1.2875580549912983e-05,-2.3560582950000004,-3.152137565039752e-05,1.57100152,0.7858948999999996,0.03999997545,0.039999972450000004,-9.819543049999996,-0.002675422525505304,-0.0066209978600074585,-0.000996873440002354,-0.0127099116332907,-0.001206608825002865
0.28,0.00016937608000000703,-0.784934544,1.2013699599912197e-05,-2.3560634400000002,-3.54586268004011e-05,1.57100224,0.7858915999999997,0.0399999744,0.0399999714,-9.819518599999997,-0.002738108858472486,-0.006694873220007526,-0.001020187580002375,-0.012787809968002556,-0.0012349835000028907
0.28250000000000003,0.00016944509500000708,-0.784934391,1.1151818649911412e-05,-2.3560685850000005,-3.939587795040468e-05,1.5710029600000002,0.7858882999999997,0.03999997335,0.039999970350000004,-9.819494149999997,-0.0028007951914396684,-0.006768748580007593,-0.0010435017200023963,-0.012865708302714413,-0.0012633581750029167
0.28500000000000003,0.00016952115600000825,-0.784934946,1.0196870569896152e-05,-2.3560735900000003,-4.375774890047432e-05,1.57100368,0.7858846399999996,0.0399999723,0.0399999688,-9.819469399999997,-0.002866030856973817,-0.006836605180006724,-0.0010682994400026482,-0.012944182474174247,-0.0012934088700032032
0.28750000000000003,0.00016960074000000832,-0.7849358550000001,9.19538892489524e-06,-2.3560785250000005,-4.833192975047848e-05,1.5710044,0.7858807999999996,0.03999997125,0.039999967000000004,-9.819444499999998,-0.0029325411887908574,-0.0069014524000067835,-0.0010938389500026716,-0.01302294456400794,-0.0013242975750032311
0.29,0.0001696803240000084,-0.784936764,8.19390727989435e-06,-2.3560834600000007,-5.2906110600482546e-05,1.5710051200000001,0.7858769599999996,0.0399999702,0.0399999652,-9.819419599999996,-0.0029990515206078966,-0.006966299620006841,-0.0011193784600026942,-0.01310170665384163,-0.0013551862800032586
0.2925,0.00016975990800000847,-0.7849376730000001,7.192425634893439e-06,-2.3560883950000004,-5.748029145048671e-05,1.57100584,0.7858731199999996,0.03999996915,0.039999963400000005,-9.819394699999997,-0.003065561852424937,-0.0070311468400069,-0.0011449179700027175,-0.01318046874367532,-0.0013860749850032868
0.295,0.00016983949200000855,-0.7849385820000001,6.190943989892527e-06,-2.3560933300000007,-6.205447230049087e-05,1.57100656,0.7858692799999997,0.0399999681,0.0399999616,-9.819369799999997,-0.0031320721842419776,-0.007095994060006959,-0.0011704574800027409,-0.013259230833509012,-0.001416963690003315
0.2975,0.00016991907600000862,-0.784939491,5.1894623448916155e-06,-2.356098265000001,-6.662865315049503e-05,1.5710072800000001,0.7858654399999996,0.03999996705,0.039999959800000005,-9.819344899999997,-0.003198582516059018,-0.007160841280007018,-0.001195996990002764,-0.013337992923342703,-0.0014478523950033429
0.3,0.00016999866000000992,-0.7849404000000002,4.187980699874156e-06,-2.3561032000000006,-7.120283400057471e-05,1.5710080000000002,0.7858615999999996,0.039999966,0.039999958,-9.819319999999996,-0.003265092847877109,-0.0072256885000064695,-0.001221536500003025,-0.013416755013176466,-0.001478741100003677
0.3025,0.00017008966950001001,-0.7849424400000002,3.0348731148731064e-06,-2.3561079700000005,-7.64688684005795e-05,1.57100926,0.7858571854999996,0.0399999651,0.0399999574,-9.819290899999997,-0.003341225744233458,-0.0072849686800065235,-0.0012492534400030501,-0.01349616991356884,-0.0015124333350037078
0.305,0.0001701806790000101,-0.7849444800000003,1.8817655298720566e-06,-2.356112740000001,-8.173490280058429e-05,1.5710105200000002,0.7858527709999995,0.0399999642,0.0399999568,-9.819261799999996,-0.0034173586405898074,-0.0073442488600065775,-0.0012769703800030753,-0.01357558481396121,-0.0015461255700037384
0.3075,0.00017027168850001017,-0.7849465200000002,7.286579448710068e-07,-2.3561175100000007,-8.70009372005891e-05,1.57101178,0.7858483564999995,0.0399999633,0.0399999562,-9.819232699999997,-0.003493491536946157,-0.0074035290400066315,-0.0013046873200031005,-0.013654999714353584,-0.001579817805003769
0.31,0.00017036269800001027,-0.7849485600000002,-4.244496401300426e-07,-2.3561222800000006,-9.226697160059388e-05,1.5710130400000002,0.7858439419999995,0.0399999624,0.0399999556,-9.819203599999996,-0.0035696244333025063,-0.0074628092200066855,-0.0013324042600031257,-0.013734414614745956,-0.0016135100400037998
0.3125,0.00017045370750001036,-0.7849506000000003,-1.5775572251310928e-06,-2.3561270500000004,-9.753300600059868e-05,1.5710143,0.7858395274999995,0.0399999615,0.039999955,-9.819174499999997,-0.0036457573296588557,-0.00752208940000674,-0.001360121200003151,-0.01381382951513833,-0.0016472022750038304
0.315,0.00017054471700001043,-0.7849526400000003,-2.7306648101321422e-06,-2.3561318200000008,-0.00010279904040060348,1.5710155600000002,0.7858351129999995,0.0399999606,0.039999954399999996,-9.819145399999996,-0.0037218902260152046,-0.007581369580006794,-0.0013878381400031763,-0.013893244415530701,-0.001680894510003861
0.3175,0.00017063982200001194,-0.7849550550000004,-3.938355490152107e-06,-2.3561365550000004,-0.00010831407150069455,1.57101683,0.7858304949999995,0.03999996,0.039999954,-9.819109449999996,-0.0037992562516684313,-0.007639344665006396,-0.0014162939600034575,-0.013972006225967393,-0.0017154872500042039
0.32,0.00017074311800001203,-0.7849582200000004,-5.255212360153306e-06,-2.3561412200000005,-0.00011432709600070003,1.5710181200000002,0.7858254699999995,0.03999996,0.039999954,-9.819059799999994,-0.003879088535914134,-0.007694709560006446,-0.0014462275400034847,-0.014049461856493398,-0.001751881000004237
0.3225,0.0001708464140000121,-0.7849613850000005,-6.5720692301545044e-06,-2.3561458850000006,-0.0001203401205007055,1.5710194100000001,0.7858204449999995,0.03999996,0.039999954,-9.819010149999995,-0.003958920820159837,-0.007750074455006496,-0.001476161120003512,-0.014126917487019403,-0.0017882747500042701
0.325,0.00017094971000001223,-0.7849645500000004,-7.888926100155703e-06,-2.3561505500000006,-0.00012635314500071098,1.5710207,0.7858154199999995,0.03999996,0.039999954,-9.818960499999994,-0.004038753104405539,-0.007805439350006546,-0.0015060947000035392,-0.014204373117545408,-0.0018246685000043031
0.3275,0.0001710530060000123,-0.7849677150000004,-9.205782970156903e-06,-2.3561552150000007,-0.00013236616950071644,1.57102199,0.7858103949999995,0.03999996,0.039999954,-9.818910849999995,-0.0041185853886512415,-0.007860804245006596,-0.0015360282800035666,-0.014281828748071414,-0.0018610622500043364
0.33,0.0001711563020000124,-0.7849708800000004,-1.05226398401581e-05,-2.3561598800000003,-0.00013837919400072192,1.5710232800000001,0.7858053699999994,0.03999996,0.039999954,-9.818861199999994,-0.004198417672896944,-0.007916169140006646,-0.0015659618600035938,-0.014359284378597419,-0.0018974560000043694
0.3325,0.00017125959800001249,-0.7849740450000005,-1.1839496710159299e-05,-2.3561645450000004,-0.0001443922185007274,1.57102457,0.7858003449999994,0.03999996,0.039999954,-9.818811549999994,-0.004278249957142647,-0.007971534035006698,-0.001595895440003621,-0.014436740009123424,-0.0019338497500044026
0.335,0.00017137168200001418,-0.7849780040000005,-1.327363890018194e-05,-2.3561692300000003,-0.0001509403170008307,1.57102586,0.7857948629999993,0.0399999606,0.039999954399999996,-9.818784599999997,-0.004362673591832859,-0.008010473400003744,-0.0016273575400039277,-0.014515159092853057,-0.001972054960004767
0.3375,0.0001714881600000143,-0.7849823600000005,-1.47664237501833e-05,-2.3561739250000007,-0.0001577559525008369,1.5710271500000001,0.7857891524999994,0.0399999615,0.039999955,-9.818768999999998,-0.0044493929017440734,-0.008041200000003773,-0.001659583900003957,-0.014594059903184239,-0.0020111659000048025
0.34,0.0001716046380000144,-0.7849867160000006,-1.625920860018466e-05,-2.3561786200000006,-0.0001645715880008431,1.57102844,0.7857834419999993,0.0399999624,0.0399999556,-9.818753399999999,-0.004536112211655287,-0.0080719266000038,-0.0016918102600039864,-0.014672960713515421,-0.002050276840004838
0.3425,0.0001717211160000145,-0.7849910720000005,-1.775199345018602e-05,-2.3561833150000004,-0.00017138722350084932,1.5710297300000002,0.7857777314999993,0.0399999633,0.0399999562,-9.818737799999997,-0.004622831521566501,-0.008102653200003829,-0.0017240366200040158,-0.014751861523846601,-0.0020893877800048735
0.34500000000000003,0.0001718375940000146,-0.7849954280000006,-1.9244778300187378e-05,-2.3561880100000008,-0.0001782028590008555,1.5710310200000002,0.7857720209999993,0.0399999642,0.0399999568,-9.818722199999998,-0.004709550831477715,-0.008133379800003856,-0.0017562629800040451,-0.014830762334177783,-0.0021284987200049094
0.34750000000000003,0.00017195407200001472,-0.7849997840000005,-2.0737563150188735e-05,-2.3561927050000007,-0.0001850184945008617,1.57103231,0.7857663104999993,0.0399999651,0.0399999574,-9.818706599999997,-0.004796270141388929,-0.008164106400003885,-0.0017884893400040743,-0.014909663144508966,-0.002167609660004945
0.35000000000000003,0.0001720705500000166,-0.7850041400000006,-2.223034800021406e-05,-2.3561974000000006,-0.00019183413000097723,1.5710336000000003,0.7857605999999993,0.039999966,0.039999958,-9.818690999999998,-0.004882989451300987,-0.008194833000002283,-0.0018207157000043794,-0.014988563954840358,-0.002206720600005328
0.3525,0.00017220106950001674,-0.7850097365000007,-2.3911325250215553e-05,-2.356202185000001,-0.00019950820500098403,1.5710354450000004,0.7857541649999992,0.0399999666,0.0399999583,-9.818679449999998,-0.004976335633558005,-0.0082127661000023,-0.0018551081650044102,-0.015069107199097993,-0.0022485614650053654
0.355,0.00017233158900001685,-0.7850153330000007,-2.5592302500217083e-05,-2.3562069700000006,-0.00020718228000099102,1.5710372900000003,0.7857477299999992,0.0399999672,0.0399999586,-9.818667899999998,-0.005069681815815024,-0.008230699200002316,-0.0018895006300044415,-0.015149650443355632,-0.002290402330005403
0.3575,0.00017246210850001698,-0.7850209295000007,-2.727327975021861e-05,-2.356211755000001,-0.000214856355000998,1.5710391350000004,0.7857412949999991,0.0399999678,0.0399999589,-9.818656349999998,-0.005163027998072045,-0.008248632300002333,-0.001923893095004473,-0.01523019368761327,-0.0023322431950054414
0.36,0.0001725926280000171,-0.7850265260000008,-2.8954257000220144e-05,-2.3562165400000006,-0.000222530430001005,1.5710409800000003,0.7857348599999991,0.0399999684,0.039999959200000004,-9.818644799999998,-0.0052563741803290645,-0.008266565400002349,-0.0019582855600045043,-0.015310736931870909,-0.0023740840600054796
0.3625,0.00017272314750001722,-0.7850321225000008,-3.063523425022167e-05,-2.3562213250000004,-0.000230204505001012,1.5710428250000004,0.7857284249999992,0.039999969,0.0399999595,-9.818633249999998,-0.005349720362586085,-0.008284498500002365,-0.0019926780250045357,-0.015391280176128546,-0.0024159249250055178
0.365,0.00017285366700001733,-0.7850377190000007,-3.23162115002232e-05,-2.3562261100000006,-0.00023787858000101896,1.5710446700000003,0.7857219899999991,0.039999969600000004,0.0399999598,-9.818621699999998,-0.0054430665448431045,-0.00830243160000238,-0.002027070490004567,-0.015471823420386185,-0.002457765790005556
0.3675,0.00017298915600001945,-0.7850437325000009,-3.4064014750251535e-05,-2.3562309450000005,-0.0002458573985011482,1.5710465200000003,0.785715301999999,0.03999997,0.0399999599,-9.8186129,-0.005538437236113637,-0.008320278100002363,-0.002062212710004899,-0.015552351856614887,-0.0025004756900059424
0.37,0.00017313458400001957,-0.7850505800000009,-3.594547000025325e-05,-2.3562358800000007,-0.000254445704001156,1.5710483800000004,0.785708107999999,0.03999997,0.0399999596,-9.8186096,-0.005637856945408763,-0.008337951400002378,-0.002098854440004932,-0.015632850676785735,-0.002544923660005983
0.3725,0.0001732800120000197,-0.785057427500001,-3.782692525025496e-05,-2.3562408150000005,-0.00026303400950116384,1.5710502400000004,0.785700913999999,0.03999997,0.0399999593,-9.818606299999999,-0.005737276654703888,-0.008355624700002395,-0.0021354961700049656,-0.01571334949695658,-0.0025893716300060235
0.375,0.00017342544000001985,-0.785064275000001,-3.9708380500256676e-05,-2.3562457500000007,-0.00027162231500117164,1.5710521000000004,0.785693719999999,0.03999997,0.039999959,-9.818603,-0.005836696363999013,-0.00837329800000241,-0.0021721379000049987,-0.01579384831712743,-0.002633819600006064
0.3775,0.00017357086800001998,-0.785071122500001,-4.1589835750258385e-05,-2.356250685000001,-0.0002802106205011795,1.5710539600000004,0.785686525999999,0.03999997,0.039999958700000005,-9.8185997,-0.005936116073294139,-0.008390971300002426,-0.002208779630005032,-0.01587434713729828,-0.002678267570006104
0.38,0.00017371629600002012,-0.785077970000001,-4.34712910002601e-05,-2.3562556200000007,-0.0002887989260011873,1.5710558200000002,0.785679331999999,0.03999997,0.0399999584,-9.8185964,-0.006035535782589264,-0.008408644600002443,-0.0022454213600050657,-0.015954845957469127,-0.002722715540006145
0.3825,0.00017386172400002024,-0.785084817500001,-4.5352746250261816e-05,-2.356260555000001,-0.0002973872315011951,1.5710576800000002,0.785672137999999,0.03999997,0.0399999581,-9.8185931,-0.006134955491884389,-0.008426317900002459,-0.002282063090005099,-0.016035344777639977,-0.0027671635100061853
0.385,0.0001740176940000226,-0.7850925400000012,-4.737600940029332e-05,-2.356265630000001,-0.00030662237600133884,1.5710597400000004,0.7856643999999989,0.0399999703,0.039999958200000005,-9.818596900000001,-0.006240923050806241,-0.008428472499999215,-0.002320174080005441,-0.01611745059491364,-0.0028135222100066273
0.3875,0.00017417893500002273,-0.7851007000000012,-4.947017650029523e-05,-2.356270775000001,-0.00031618094000134754,1.5710619000000003,0.7856563899999989,0.03999997075,0.0399999585,-9.818604250000002,-0.006350164534539401,-0.008422867749999209,-0.0023590197000054763,-0.01620035991073821,-0.00286083627500667
0.39,0.00017434017600002287,-0.7851088600000012,-5.156434360029714e-05,-2.3562759200000007,-0.00032573950400135624,1.5710640600000003,0.7856483799999989,0.039999971200000005,0.0399999588,-9.8186116,-0.00645940601827256,-0.008417262999999205,-0.0023978653200055116,-0.016283269226562782,-0.0029081503400067133
0.3925,0.00017450141700002303,-0.7851170200000012,-5.365851070029904e-05,-2.356281065000001,-0.00033529806800136494,1.5710662200000003,0.7856403699999989,0.03999997165,0.0399999591,-9.818618950000001,-0.0065686475020057195,-0.008411658249999199,-0.0024367109400055473,-0.016366178542387356,-0.002955464405006756
0.395,0.00017466265800002316,-0.7851251800000012,-5.575267780030094e-05,-2.356286210000001,-0.00034485663200137365,1.5710683800000003,0.7856323599999989,0.0399999721,0.0399999594,-9.8186263,-0.006677888985738879,-0.008406053499999195,-0.0024755565600055826,-0.016449087858211926,-0.0030027784700067993
0.3975,0.0001748238990000233,-0.7851333400000012,-5.784684490030285e-05,-2.3562913550000006,-0.00035441519600138235,1.5710705400000002,0.7856243499999989,0.03999997255,0.039999959700000004,-9.81863365,-0.006787130469472038,-0.008400448749999189,-0.002514402180005618,-0.016531997174036497,-0.003050092535006842
0.4,0.00017498514000002587,-0.7851415000000014,-5.99410120003375e-05,-2.356296500000001,-0.00036397376000154035,1.5710727000000004,0.7856163399999987,0.039999973,0.03999996,-9.818641000000001,-0.0068963719532061365,-0.008394843999998325,-0.002553247800005974,-0.01661490648986131,-0.003097406600007283
0.4025,0.00017516302500002605,-0.7851510100000014,-6.226015420033961e-05,-2.3563016600000006,-0.00037455830600155,1.5710751150000004,0.7856074689999987,0.039999973,0.03999996,-9.818653600000001,-0.0070120658260007475,-0.008383331499998314,-0.0025942982550060116,-0.01669948827476539,-0.0031474536200073286
0.405,0.00017534091000002622,-0.7851605200000015,-6.457929640034172e-05,-2.356306820000001,-0.00038514285200155963,1.5710775300000004,0.7855985979999986,0.039999973,0.03999996,-9.818666200000001,-0.0071277596987953575,-0.008371818999998304,-0.0026353487100060488,-0.016784070059669472,-0.003197500640007374
0.40750000000000003,0.00017551879500002636,-0.7851700300000014,-6.689843860034384e-05,-2.356311980000001,-0.00039572739800156927,1.5710799450000004,0.7855897269999986,0.039999973,0.03999996,-9.818678800000002,-0.007243453571589968,-0.008360306499998292,-0.0026763991650060864,-0.016868651844573555,-0.0032475476600074197
0.41000000000000003,0.00017569668000002654,-0.7851795400000015,-6.921758080034595e-05,-2.3563171400000007,-0.0004063119440015789,1.5710823600000003,0.7855808559999986,0.039999973,0.03999996,-9.818691400000002,-0.0073591474443845785,-0.008348793999998282,-0.0027174496200061235,-0.016953233629477635,-0.0032975946800074653
0.41250000000000003,0.0001758745650000267,-0.7851890500000014,-7.153672300034805e-05,-2.356322300000001,-0.00041689649000158855,1.5710847750000003,0.7855719849999987,0.039999973,0.03999996,-9.818704000000002,-0.007474841317179189,-0.008337281499998272,-0.002758500075006161,-0.017037815414381718,-0.003347641700007511
0.41500000000000004,0.00017605245000002685,-0.7851985600000014,-7.385586520035017e-05,-2.356327460000001,-0.00042748103600159814,1.5710871900000005,0.7855631139999987,0.039999973,0.03999996,-9.818716600000002,-0.007590535189973799,-0.008325768999998262,-0.0027995505300061983,-0.0171223971992858,-0.0033976887200075565
0.4175,0.0001762361850000297,-0.7852085300000017,-7.625406550038825e-05,-2.356332640000001,-0.00043842610000177184,1.5710896200000004,0.7855539449999984,0.039999973,0.03999996,-9.818718099999998,-0.007708725007269519,-0.008308648649995696,-0.002841349705006576,-0.017207248881472126,-0.0034486446050080153
0.42,0.00017643162000002986,-0.7852194200000017,-7.881038200039059e-05,-2.356337860000001,-0.00045009220000178247,1.5710920800000003,0.7855441799999985,0.039999973,0.03999996,-9.818697399999998,-0.007831906713564062,-0.008280312599995671,-0.002884646320006615,-0.017292640358222585,-0.0035014182200080635
0.4225,0.00017662705500003003,-0.7852303100000017,-8.136669850039291e-05,-2.3563430800000007,-0.0004617583000017931,1.5710945400000005,0.7855344149999984,0.039999973,0.03999996,-9.818676699999997,-0.007955088419858604,-0.008251976549995644,-0.002927942935006655,-0.017378031834973044,-0.003554191835008111
0.425,0.00017682249000003022,-0.7852412000000016,-8.392301500039523e-05,-2.356348300000001,-0.0004734244000018037,1.5710970000000004,0.7855246499999985,0.039999973,0.03999996,-9.818655999999997,-0.008078270126153145,-0.008223640499995619,-0.0029712395500066944,-0.0174634233117235,-0.0036069654500081594
0.4275,0.0001770179250000304,-0.7852520900000016,-8.647933150039756e-05,-2.3563535200000008,-0.00048509050000181434,1.5710994600000006,0.7855148849999984,0.039999973,0.03999996,-9.818635299999997,-0.008201451832447687,-0.008195304449995593,-0.0030145361650067335,-0.01754881478847396,-0.0036597390650082075
0.43,0.00017721336000003059,-0.7852629800000017,-8.90356480003999e-05,-2.356358740000001,-0.0004967566000018249,1.5711019200000005,0.7855051199999985,0.039999973,0.03999996,-9.818614599999998,-0.00832463353874223,-0.008166968399995566,-0.003057832780006773,-0.01763420626522442,-0.0037125126800082557
0.4325,0.00017740879500003075,-0.7852738700000017,-9.159196450040222e-05,-2.356363960000001,-0.0005084227000018356,1.5711043800000004,0.7854953549999985,0.039999973,0.03999996,-9.818593899999998,-0.008447815245036771,-0.008138632349995541,-0.003101129395006812,-0.017719597741974874,-0.003765286295008304
0.435,0.00017761650200003384,-0.785285720000002,-9.4314479000444e-05,-2.3563692300000008,-0.0005208467050020261,1.5711071900000007,0.7854849499999983,0.039999973,0.03999996,-9.818591000000001,-0.008578530047110122,-0.008101017899993313,-0.0031459511600072138,-0.017806565016521947,-0.003819868810008781
0.4375,0.00017783034500003404,-0.785298050000002,-9.712009250044654e-05,-2.356374525000001,-0.0005336496625020378,1.5711101750000005,0.7854742249999983,0.039999973,0.03999996,-9.818597000000002,-0.008713011397070205,-0.008058764249993274,-0.0031915355000072553,-0.017894320189966766,-0.0038753557750088314
0.44,0.00017804418800003422,-0.785310380000002,-9.99257060004491e-05,-2.356379820000001,-0.0005464526200020494,1.5711131600000006,0.7854634999999983,0.039999973,0.03999996,-9.818603000000001,-0.008847492747030287,-0.008016510599993237,-0.003237119840007297,-0.017982075363411586,-0.003930842740008882
0.4425,0.00017825803100003442,-0.785322710000002,-0.00010273131950045165,-2.356385115000001,-0.0005592555775020611,1.5711161450000004,0.7854527749999983,0.039999973,0.03999996,-9.818609,-0.008981974096990369,-0.007974256949993198,-0.003282704180007338,-0.018069830536856405,-0.003986329705008933
0.445,0.00017847187400003462,-0.785335040000002,-0.00010553693300045421,-2.356390410000001,-0.0005720585350020727,1.5711191300000005,0.7854420499999983,0.039999973,0.03999996,-9.818615000000001,-0.009116455446950451,-0.00793200329999316,-0.0033282885200073796,-0.018157585710301228,-0.004041816670008983
0.4475,0.00017868571700003483,-0.785347370000002,-0.00010834254650045676,-2.3563957050000006,-0.0005848614925020844,1.5711221150000005,0.7854313249999982,0.039999973,0.03999996,-9.818621,-0.009250936796910534,-0.007889749649993122,-0.003373872860007421,-0.018245340883746047,-0.004097303635009033
0.45,0.00017889956000003817,-0.7853597000000022,-0.0001111481600005021,-2.356401000000001,-0.0005976644500022911,1.5711251000000004,0.7854205999999981,0.039999973,0.03999996,-9.818626999999998,-0.009385418146871792,-0.00784749599999199,-0.003419457200007804,-0.0183330960571909,-0.004152790600009505
0.4525,0.00017913266150003837,-0.7853735450000022,-0.0001142151470005049,-2.3564065050000007,-0.0006116591020023038,1.5711281150000005,0.785408869999998,0.0399999736,0.03999996,-9.818615149999998,-0.009527080133580567,-0.007798559909991945,-0.0034671250700078473,-0.018421061895802112,-0.004210848355009558
0.455,0.0001793657630000386,-0.7853873900000024,-0.00011728213400050769,-2.356412010000001,-0.0006256537540023165,1.5711311300000004,0.785397139999998,0.0399999742,0.03999996,-9.818603299999998,-0.00966874212028934,-0.0077496238199919,-0.0035147929400078906,-0.018509027734413323,-0.004268906110009611
0.4575,0.0001795988645000388,-0.7854012350000024,-0.00012034912100051048,-2.356417515000001,-0.0006396484060023293,1.5711341450000005,0.7853854099999981,0.0399999748,0.03999996,-9.818591449999998,-0.009810404106998113,-0.0077006877299918555,-0.003562460810007934,-0.018596993573024533,-0.004326963865009663
0.46,0.000179831966000039,-0.7854150800000024,-0.0001234161080005133,-2.3564230200000007,-0.0006536430580023421,1.5711371600000004,0.7853736799999981,0.0399999754,0.03999996,-9.818579599999998,-0.009952066093706888,-0.0076517516399918105,-0.0036101286800079772,-0.01868495941163574,-0.0043850216200097165
0.4625,0.00018006506750003923,-0.7854289250000024,-0.00012648309500051607,-2.356428525000001,-0.0006676377100023548,1.5711401750000005,0.785361949999998,0.039999976,0.03999996,-9.818567749999998,-0.010093728080415662,-0.007602815549991766,-0.003657796550008021,-0.01877292525024695,-0.004443079375009769
0.465,0.00018029816900003943,-0.7854427700000024,-0.00012955008200051887,-2.356434030000001,-0.0006816323620023675,1.5711431900000004,0.785350219999998,0.0399999766,0.03999996,-9.818555899999998,-0.010235390067124437,-0.007553879459991721,-0.0037054644200080642,-0.01886089108885816,-0.004501137130009822
0.4675,0.00018053797700004305,-0.7854571250000026,-0.00013270817850056816,-2.356439690000001,-0.0006960424785025923,1.5711463850000005,0.7853381449999979,0.039999977,0.03999996,-9.818551850000002,-0.01038063950839246,-0.0074942095299862,-0.0037538545500084763,-0.01894980724902499,-0.004560130555010353
0.47000000000000003,0.00018079119800004328,-0.7854725000000027,-0.00013604849400057119,-2.3564456600000008,-0.0007112835240026061,1.5711499400000006,0.7853253799999979,0.039999977,0.03999996,-9.818563400000002,-0.010533063858773504,-0.007413071919986126,-0.0038036892000085213,-0.01904062405230161,-0.004620995320010408
0.47250000000000003,0.00018104441900004353,-0.7854878750000027,-0.00013938880950057424,-2.356451630000001,-0.00072652456950262,1.5711534950000006,0.7853126149999978,0.039999977,0.03999996,-9.818574950000002,-0.010685488209154548,-0.0073319343099860525,-0.0038535238500085668,-0.019131440855578226,-0.0046818600850104634
0.47500000000000003,0.00018129764000004376,-0.7855032500000027,-0.00014272912500057727,-2.356457600000001,-0.0007417656150026339,1.5711570500000005,0.7852998499999978,0.039999977,0.03999996,-9.818586500000002,-0.010837912559535591,-0.007250796699985978,-0.003903358500008612,-0.019222257658854845,-0.004742724850010518
0.47750000000000004,0.000181550861000044,-0.7855186250000027,-0.00014606944050058032,-2.356463570000001,-0.0007570066605026478,1.5711606050000007,0.7852870849999978,0.039999977,0.03999996,-9.818598050000002,-0.010990336909916635,-0.007169659089985904,-0.003953193150008657,-0.01931307446213146,-0.004803589615010573
0.48,0.00018180408200004422,-0.7855340000000027,-0.0001494097560005833,-2.356469540000001,-0.0007722477060026613,1.5711641600000006,0.7852743199999979,0.039999977,0.03999996,-9.818609600000002,-0.011142761260297677,-0.007088521479985832,-0.004003027800008702,-0.019403891265408077,-0.004864454380010628
0.4825,0.00018205730300004447,-0.7855493750000028,-0.00015275007150058632,-2.356475510000001,-0.0007874887515026751,1.5711677150000005,0.7852615549999978,0.039999977,0.03999996,-9.818621150000002,-0.01129518561067872,-0.007007383869985758,-0.004052862450008747,-0.019494708068684693,-0.004925319145010683
0.485,0.00018232450400004839,-0.785565810000003,-0.00015628051100063969,-2.356481720000001,-0.0008035966500029184,1.5711713100000007,0.7852480499999976,0.039999977,0.03999996,-9.818649200000007,-0.011454500444262128,-0.006928907199986388,-0.004104170850009183,-0.019586738012747334,-0.0049879585000112085
0.4875,0.00018259869500004863,-0.7855827750000031,-0.000159906012500643,-2.356488050000001,-0.0008201379750029335,1.5711749250000007,0.7852341749999976,0.039999977,0.03999996,-9.818685500000006,-0.01161726051944399,-0.006851760999986319,-0.00415621612500923,-0.019679374527202503,-0.005051485150011266
0.49,0.00018287288600004887,-0.7855997400000031,-0.0001635315140006463,-2.3564943800000013,-0.0008366793000029486,1.5711785400000007,0.7852202999999975,0.039999977,0.03999996,-9.818721800000006,-0.011780020594625854,-0.006774614799986248,-0.004208261400009278,-0.019772011041657673,-0.005115011800011324
0.4925,0.00018314707700004915,-0.785616705000003,-0.0001671570155006496,-2.356500710000001,-0.0008532206250029637,1.5711821550000007,0.7852064249999975,0.039999977,0.03999996,-9.818758100000007,-0.011942780669807716,-0.006697468599986178,-0.004260306675009325,-0.019864647556112842,-0.005178538450011382
0.495,0.0001834212680000494,-0.7856336700000031,-0.00017078251700065287,-2.356507040000001,-0.0008697619500029787,1.5711857700000007,0.7851925499999975,0.039999977,0.03999996,-9.818794400000007,-0.01210554074498958,-0.006620322399986108,-0.004312351950009372,-0.019957284070568012,-0.00524206510001144
0.4975,0.00018369545900004963,-0.7856506350000031,-0.00017440801850065617,-2.3565133700000014,-0.0008863032750029938,1.5711893850000007,0.7851786749999975,0.039999977,0.03999996,-9.818830700000007,-0.012268300820171442,-0.006543176199986038,-0.00436439722500942,-0.02004992058502318,-0.0053055917500114975
0.5,0.00018396965000005384,-0.7856676000000034,-0.0001780335200007135,-2.3565197000000015,-0.0009028446000032551,1.5711930000000007,0.7851647999999972,0.039999977,0.03999996,-9.818867000000004,-0.012431060895354912,-0.006466029999980769,-0.0044164425000098335,-0.020142557099479,-0.005369118400012035
0.5025000000000001,0.00018426561800005412,-0.7856862000000034,-0.00018195596000071713,-2.3565261350000015,-0.0009207396450032718,1.5711971400000009,0.7851497999999972,0.03999997745,0.0399999609,-9.818896100000005,-0.012602654239194128,-0.00636030335498067,-0.004470499425009883,-0.020238762907701383,-0.005435279590012097
0.505,0.00018456158600005439,-0.7857048000000034,-0.00018587840000072064,-2.3565325700000015,-0.0009386346900032876,1.5712012800000008,0.7851347999999972,0.0399999779,0.0399999618,-9.818925200000004,-0.012774247583033334,-0.0062545767099805765,-0.0045245563500099315,-0.020334968715923763,-0.005501440780012155
0.5075000000000001,0.00018485755400005465,-0.7857234000000035,-0.00018980084000072428,-2.3565390050000015,-0.0009565297350033043,1.5712054200000007,0.7851197999999973,0.03999997835,0.0399999627,-9.818954300000005,-0.01294584092687255,-0.006148850064980478,-0.004578613275009982,-0.02043117452414615,-0.0055676019700122165
0.51,0.0001851535220000549,-0.7857420000000035,-0.00019372328000072776,-2.3565454400000014,-0.0009744247800033203,1.5712095600000007,0.7851047999999973,0.039999978799999995,0.0399999636,-9.818983400000004,-0.013117434270711758,-0.006043123419980384,-0.0046326702000100296,-0.02052738033236853,-0.005633763160012276
0.5125,0.00018544949000005517,-0.7857606000000035,-0.00019764572000073125,-2.3565518750000014,-0.0009923198250033362,1.5712137000000008,0.7850897999999972,0.03999997925,0.0399999645,-9.819012500000005,-0.013289027614550964,-0.005937396774980289,-0.004686727125010078,-0.02062358614059091,-0.0056999243500123345
0.515,0.00018574545800005543,-0.7857792000000036,-0.0002015681600007349,-2.3565583100000014,-0.001010214870003353,1.5712178400000008,0.7850747999999972,0.0399999797,0.0399999654,-9.819041600000006,-0.01346062095839018,-0.005831670129980191,-0.0047407840500101285,-0.020719791948813293,-0.005766085540012396
0.5175,0.00018604897350005996,-0.7857983600000038,-0.00020559344800079646,-2.3565648050000014,-0.0010285788500036337,1.5712220600000009,0.785059409999997,0.03999998,0.0399999657,-9.819057399999998,-0.013636285765131132,-0.005723940064978966,-0.004795562950010584,-0.020816073566693294,-0.005833120500012948
0.52,0.00018636758400006028,-0.7858186400000039,-0.00020982443200080042,-2.356571420000001,-0.0010478807000036516,1.571226440000001,0.7850432399999969,0.03999998,0.039999964799999996,-9.819046599999998,-0.013820093497668693,-0.005612203159978861,-0.004851785800010637,-0.020912506803888405,-0.005901903000013012
0.5225,0.00018668619450006054,-0.7858389200000039,-0.00021405541600080417,-2.3565780350000014,-0.0010671825500036688,1.5712308200000007,0.7850270699999969,0.03999998,0.0399999639,-9.819035799999998,-0.014003901230206247,-0.005500466254978762,-0.004908008650010686,-0.02100894004108351,-0.005970685500013073
0.525,0.00018700480500006086,-0.7858592000000039,-0.00021828640000080813,-2.356584650000001,-0.0010864844000036866,1.5712352000000007,0.785010899999997,0.03999998,0.039999963,-9.819024999999998,-0.014187708962743809,-0.005388729349978658,-0.004964231500010739,-0.02110537327827862,-0.006039468000013138
0.5275,0.00018732341550006112,-0.785879480000004,-0.00022251738400081187,-2.3565912650000014,-0.0011057862500037038,1.5712395800000007,0.7849947299999969,0.03999998,0.0399999621,-9.819014199999998,-0.014371516695281361,-0.005276992444978559,-0.005020454350010789,-0.021201806515473726,-0.006108250500013199
0.53,0.00018764202600006144,-0.7858997600000039,-0.00022674836800081583,-2.356597880000001,-0.0011250881000037219,1.5712439600000008,0.7849785599999969,0.03999998,0.0399999612,-9.819003399999998,-0.014555324427818922,-0.005165255539978455,-0.005076677200010841,-0.021298239752668834,-0.006177033000013263
0.5325,0.00018796063650006173,-0.7859200400000039,-0.00023097935200081958,-2.3566044950000014,-0.0011443899500037389,1.5712483400000008,0.7849623899999969,0.03999998,0.0399999603,-9.818992599999998,-0.014739132160356477,-0.005053518634978355,-0.005132900050010891,-0.02139467298986394,-0.006245815500013324
0.535,0.0001882948770000658,-0.7859414900000042,-0.00023542367200087548,-2.3566116600000013,-0.0011646643500039936,1.5712529500000008,0.7849453999999967,0.03999998,0.0399999606,-9.81898545,-0.01492931377146387,-0.004924313549973465,-0.005190497400011212,-0.021492330543715764,-0.006316396440013751
0.5375,0.00018863693250006493,-0.7859635250000042,-0.000239974660000864,-2.3566191000000014,-0.0011854250250039413,1.571257675000001,0.7849279999999967,0.03999998,0.0399999615,-9.818980125,-0.015122682321853386,-0.004786374374973813,-0.005248782000011065,-0.021590600255895407,-0.006387876600013571
0.54,0.0001889789880000641,-0.7859855600000042,-0.00024452564800085273,-2.3566265400000015,-0.00120618570000389,1.5712624000000008,0.7849105999999968,0.03999998,0.0399999624,-9.8189748,-0.015316050872242913,-0.004648435199974155,-0.005307066600010921,-0.021688869968075054,-0.006459356760013394
0.5425,0.00018932104350006322,-0.7860075950000041,-0.0002490766360008412,-2.3566339800000016,-0.0012269463750038375,1.571267125000001,0.7848931999999968,0.03999998,0.0399999633,-9.818969475,-0.015509419422632429,-0.004510496024974503,-0.005365351200010774,-0.021787139680254693,-0.006530836920013213
0.545,0.00018966309900006237,-0.786029630000004,-0.00025362762400082993,-2.356641420000001,-0.001247707050003786,1.571271850000001,0.7848757999999968,0.03999998,0.0399999642,-9.81896415,-0.015702787973021957,-0.004372556849974844,-0.005423635800010629,-0.02188540939243434,-0.006602317080013036
0.5475,0.00019000515450006152,-0.786051665000004,-0.0002581786120008185,-2.3566488600000013,-0.0012684677250037338,1.5712765750000008,0.7848583999999968,0.03999998,0.0399999651,-9.818958825,-0.015896156523411472,-0.004234617674975192,-0.005481920400010483,-0.021983679104613983,-0.0066737972400128555
0.55,0.00019034721000006497,-0.7860737000000042,-0.00026272960000086595,-2.3566563000000014,-0.0012892284000039502,1.571281300000001,0.7848409999999967,0.03999998,0.039999966,-9.818953500000015,-0.01608952507380366,-0.004096678499973469,-0.005540205000010697,-0.022081948816794417,-0.006745277400013131
0.5525,0.00019071353100006655,-0.7860975350000043,-0.00026761190950088694,-2.3566638900000014,-0.001311499485004046,1.5712864300000011,0.7848223324999967,0.0399999806,0.03999996705,-9.819039075000015,-0.016297897510268382,-0.003947096579972826,-0.005600509650010956,-0.022184670437145934,-0.006819307080013449
0.555,0.00019107985200006813,-0.7861213700000044,-0.00027249421900090814,-2.3566714800000015,-0.0013337705700041426,1.571291560000001,0.7848036649999965,0.0399999812,0.0399999681,-9.819124650000015,-0.01650626994673311,-0.003797514659972176,-0.005660814300011217,-0.022287392057497458,-0.006893336760013771
0.5575,0.0001914461730000697,-0.7861452050000045,-0.00027737652850092913,-2.3566790700000015,-0.0013560416550042385,1.5712966900000012,0.7847849974999964,0.0399999818,0.03999996915,-9.819210225000015,-0.01671464238319783,-0.003647932739971533,-0.0057211189500114765,-0.022390113677848975,-0.0069673664400140885
0.56,0.00019181249400007132,-0.7861690400000046,-0.00028225883800095034,-2.3566866600000016,-0.0013783127400043352,1.571301820000001,0.7847663299999963,0.0399999824,0.0399999702,-9.819295800000017,-0.01692301481966256,-0.003498350819970883,-0.005781423600011739,-0.022492835298200495,-0.00704139612001441
0.5625,0.00019217881500007287,-0.7861928750000047,-0.0002871411475009713,-2.356694250000001,-0.0014005838250044308,1.5713069500000012,0.7847476624999963,0.039999983,0.03999997125,-9.819381375000017,-0.01713138725612728,-0.00334876889997024,-0.005841728250011998,-0.02259555691855201,-0.007115425800014729
0.5650000000000001,0.00019254513600007448,-0.7862167100000048,-0.00029202345700099253,-2.3567018400000013,-0.0014228549100045276,1.571312080000001,0.7847289949999962,0.039999983600000004,0.0399999723,-9.819466950000017,-0.01733975969259201,-0.0031991869799695904,-0.00590203290001226,-0.02269827853890353,-0.00718945548001505
0.5675,0.0001929198065000808,-0.7862411470000052,-0.0002970199275010787,-2.3567094750000015,-0.0014456464250049204,1.5713172850000012,0.7847098924999958,0.039999984,0.039999973,-9.819519299999996,-0.017551376484379436,-0.003043924514965599,-0.005963011400012868,-0.022801234107485822,-0.007264329445015807
0.5700000000000001,0.00019331117600008117,-0.7862667880000053,-0.00030224472000108356,-2.3567172000000016,-0.0014694788000049425,1.571322640000001,0.7846899199999958,0.039999984,0.039999973,-9.819505199999996,-0.017769481986806272,-0.0028773009599654437,-0.006025337600012926,-0.022904657572529227,-0.007340891980015879
0.5725,0.00019370254550008152,-0.7862924290000053,-0.0003074695125010882,-2.3567249250000013,-0.0014933111750049636,1.5713279950000012,0.7846699474999959,0.039999984,0.039999973,-9.819491099999997,-0.017987587489233094,-0.002710677404965296,-0.006087663800012981,-0.023008081037572632,-0.007417454515015947
0.5750000000000001,0.0001940939150000819,-0.7863180700000053,-0.0003126943050010931,-2.3567326500000014,-0.0015171435500049859,1.5713333500000013,0.7846499749999958,0.039999984,0.039999973,-9.819476999999997,-0.018205692991659927,-0.0025440538499651405,-0.006149990000013039,-0.023111504502616037,-0.007494017050016018
0.5775,0.00019448528450008223,-0.7863437110000053,-0.00031791909750109775,-2.3567403750000016,-0.001540975925005007,1.5713387050000012,0.7846300024999958,0.039999984,0.039999973,-9.819462899999998,-0.018423798494086752,-0.0023774302949649924,-0.0062123162000130945,-0.02321492796765944,-0.007570579585016086
0.58,0.00019487665400008257,-0.7863693520000055,-0.00032314389000110235,-2.3567481000000017,-0.0015648083000050282,1.5713440600000013,0.7846100299999959,0.039999984,0.039999973,-9.819448799999998,-0.018641903996513574,-0.0022108067399648447,-0.00627464240001315,-0.02331835143270284,-0.007647142120016154
0.5825,0.00019526802350008294,-0.7863949930000055,-0.0003283686825011073,-2.3567558250000014,-0.0015886406750050504,1.5713494150000011,0.7845900574999958,0.039999984,0.039999973,-9.819434699999997,-0.01886000949894041,-0.002044183184964689,-0.0063369686000132085,-0.023421774897746248,-0.007723704655016225
0.585,0.0001956766150000888,-0.7864219060000058,-0.0003338291220011871,-2.356764140000002,-0.0016135471300054145,1.5713551100000014,0.7845691799999955,0.039999984,0.0399999745,-9.819427,-0.01908810473983477,-0.001864253989960294,-0.006400595900013679,-0.023526472225807615,-0.007802163050016899
0.5875,0.00019609381750008918,-0.786449455000006,-0.0003394073850011923,-2.356772750000002,-0.0016389906250054381,1.5713609750000013,0.7845478499999955,0.039999984,0.03999997675,-9.8194225,-0.019321194849958145,-0.00167767197496012,-0.006464873750013739,-0.023631806485377365,-0.007881569375016972
0.59,0.00019651102000008955,-0.786477004000006,-0.00034498564800119726,-2.356781360000002,-0.0016644341200054609,1.5713668400000014,0.7845265199999955,0.039999984,0.039999979,-9.819417999999999,-0.019554284960081506,-0.001491089959959954,-0.006529151600013796,-0.023737140744947108,-0.007960975700017043
0.5925,0.00019692822250008994,-0.786504553000006,-0.00035056391100120245,-2.3567899700000017,-0.0016898776150054847,1.5713727050000013,0.7845051899999954,0.039999984,0.039999981250000004,-9.8194135,-0.01978737507020488,-0.0013045079449597802,-0.006593429450013856,-0.023842475004516858,-0.008040382025017117
0.595,0.0001973454250000903,-0.786532102000006,-0.00035614217400120737,-2.3567985800000018,-0.0017153211100055072,1.5713785700000014,0.7844838599999954,0.039999984,0.0399999835,-9.819408999999998,-0.020020465180328243,-0.0011179259299596146,-0.006657707300013913,-0.0239478092640866,-0.008119788350017188
0.5975,0.0001977626275000907,-0.786559651000006,-0.0003617204370012126,-2.356807190000002,-0.001740764605005531,1.5713844350000012,0.7844625299999953,0.039999984,0.03999998575,-9.8194045,-0.020253555290451614,-0.0009313439149594405,-0.006721985150013972,-0.02405314352365635,-0.00819919467501726
0.6,0.00019817983000009688,-0.7865872000000065,-0.00036729870000129706,-2.356815800000002,-0.0017662081000059159,1.5713903000000013,0.784441199999995,0.039999984,0.039999988,-9.819400000000016,-0.02048664540057664,-0.0007447618999559085,-0.006786263000014453,-0.02415847778322689,-0.008278601000017757
0.6025,0.0001986236380000973,-0.7866166750000065,-0.00037324123200130257,-2.356824605000002,-0.0017933115850059412,1.5713965250000015,0.784418489999995,0.039999984,0.039999989050000004,-9.819476200000016,-0.0207273541018894,-0.0005427573349557201,-0.006852479975014515,-0.024267472978705188,-0.008359949000017831
0.605,0.00019906744600009768,-0.7866461500000065,-0.00037918376400130786,-2.356833410000002,-0.0018204150700059654,1.5714027500000014,0.784395779999995,0.039999984,0.0399999901,-9.819552400000017,-0.02096806280320215,-0.0003407527699555407,-0.006918696950014573,-0.02437646817418348,-0.008441297000017904
0.6075,0.0001995112540000981,-0.7866756250000065,-0.0003851262960013134,-2.356842215000002,-0.0018475185550059906,1.5714089750000013,0.784373069999995,0.039999984,0.039999991150000004,-9.819628600000017,-0.021208771504514907,-0.00013874820495535234,-0.006984913925014636,-0.024485463369661776,-0.008522645000017981
0.61,0.0001999550620000985,-0.7867051000000066,-0.0003910688280013187,-2.356851020000002,-0.0018746220400060146,1.5714152000000015,0.7843503599999949,0.039999984,0.0399999922,-9.819704800000016,-0.021449480205827657,6.32563600448271e-05,-0.007051130900014695,-0.024594458565140066,-0.008603993000018052
0.6125,0.00020039887000009891,-0.7867345750000065,-0.0003970113600013242,-2.356859825000002,-0.0019017255250060399,1.5714214250000014,0.7843276499999949,0.039999984,0.039999993250000004,-9.819781000000017,-0.021690188907140414,0.00026526092504501554,-0.007117347875014756,-0.024703453760618364,-0.008685341000018129
0.615,0.0002008426780000993,-0.7867640500000066,-0.0004029538920013295,-2.356868630000002,-0.001928829010006064,1.5714276500000015,0.784304939999995,0.039999984,0.0399999943,-9.819857200000017,-0.021930897608453164,0.000467265490045195,-0.007183564850014815,-0.024812448956096654,-0.0087666890000182
0.6175,0.00020129560950010587,-0.7867941850000071,-0.00040902140950141935,-2.356877515000002,-0.0019565020850064734,1.5714339600000016,0.7842817519999946,0.039999984,0.039999995,-9.819906349999998,-0.022176953870860716,0.0006756733650496991,-0.007250432025015316,-0.02492190320047229,-0.008848845550018821
0.62,0.00020176678800010628,-0.7868256400000071,-0.0004153388980014249,-2.356886560000002,-0.001985314340006499,1.5714404400000015,0.7842576079999946,0.039999984,0.039999995,-9.8199014,-0.02243370525544705,0.0008968878600498955,-0.007318599600015375,-0.025032275542641674,-0.008932619200018897
0.6225,0.00020223796650010672,-0.7868570950000071,-0.0004216563865014308,-2.356895605000002,-0.0020141265950065256,1.5714469200000014,0.7842334639999946,0.039999984,0.039999995,-9.819896449999998,-0.022690456640033396,0.0011181023550501019,-0.0073867671750154395,-0.025142647884811062,-0.009016392850018973
0.625,0.00020270914500010714,-0.7868885500000071,-0.00042797387500143644,-2.356904650000002,-0.002042938850006551,1.5714534000000016,0.7842093199999945,0.039999984,0.039999995,-9.819891499999999,-0.022947208024619727,0.001339316850050298,-0.0074549347500155,-0.025253020226980446,-0.009100166500019049
0.6275000000000001,0.00020318032350010758,-0.7869200050000071,-0.00043429136350144233,-2.356913695000002,-0.002071751105006578,1.5714598800000015,0.7841851759999945,0.039999984,0.039999995,-9.819886549999998,-0.02320395940920607,0.0015605313450505044,-0.007523102325015563,-0.025363392569149833,-0.009183940150019127
0.63,0.000203651502000108,-0.7869514600000072,-0.00044060885200144796,-2.356922740000002,-0.0021005633600066037,1.5714663600000014,0.7841610319999945,0.039999984,0.039999995,-9.819881599999999,-0.023460710793792406,0.0017817458400507008,-0.007591269900015624,-0.025473764911319217,-0.0092677138000192
0.6325000000000001,0.00020412268050010843,-0.7869829150000072,-0.00044692634050145385,-2.3569317850000018,-0.0021293756150066304,1.5714728400000015,0.7841368879999945,0.039999984,0.039999995,-9.81987665,-0.02371746217837875,0.002002960335050907,-0.007659437475015687,-0.025584137253488605,-0.009351487450019279
0.635,0.00020461260500011534,-0.7870157260000077,-0.00045350071300154845,-2.356941320000002,-0.002159359790007062,1.5714796800000015,0.7841117659999941,0.0399999844,0.039999993500000004,-9.819870899999998,-0.023982241191032014,0.0022400718500566125,-0.0077288468000161785,-0.0256956145167609,-0.009436598500019816
0.6375000000000001,0.0002051119025001158,-0.7870492150000077,-0.0004602035275015547,-2.356951100000002,-0.0021899299250070906,1.5714867000000017,0.7840861549999941,0.039999985,0.03999999125,-9.819864749999999,-0.024251034017714595,0.002485131875056841,-0.007798877000016243,-0.025807644240584085,-0.009522378250019897
0.64,0.00020561120000011626,-0.7870827040000078,-0.00046690634200156065,-2.356960880000002,-0.0022205000600071176,1.5714937200000016,0.784060543999994,0.0399999856,0.039999989,-9.819858599999998,-0.024519826844397165,0.0027301919000570587,-0.007868907200016305,-0.025919673964407267,-0.009608158000019972
0.6425,0.0002061104975001167,-0.7871161930000078,-0.0004736091565015666,-2.356970660000002,-0.002251070195007145,1.5715007400000016,0.784034932999994,0.039999986200000004,0.03999998675,-9.819852449999999,-0.024788619671079735,0.0029752519250572764,-0.007938937400016367,-0.026031703688230445,-0.00969393775002005
0.645,0.00020660979500011716,-0.7871496820000079,-0.00048031197100157285,-2.3569804400000023,-0.002281640330007173,1.5715077600000016,0.784009321999994,0.0399999868,0.0399999845,-9.819846299999998,-0.025057412497762315,0.003220311950057505,-0.008008967600016433,-0.02614373341205363,-0.009779717500020128
0.6475,0.00020710909250011762,-0.7871831710000079,-0.0004870147855015788,-2.3569902200000024,-0.0023122104650072006,1.5715147800000016,0.783983710999994,0.0399999874,0.039999982249999996,-9.81984015,-0.025326205324444885,0.0034653719750577226,-0.008078997800016495,-0.026255763135876808,-0.009865497250020205
0.65,0.0002076083900001249,-0.7872166600000085,-0.0004937176000016786,-2.3570000000000024,-0.002342780600007655,1.5715218000000017,0.7839580999999936,0.039999988,0.03999998,-9.819834000000013,-0.025594998151131167,0.003710432000061335,-0.008149028000016994,-0.026367792859700676,-0.009951277000020834
0.6525,0.00020813653700012537,-0.7872522160000085,-0.0005008160950016849,-2.3570100350000027,-0.0023751537050076842,1.5715292100000018,0.7839309709999935,0.0399999883,0.03999997895,-9.819887175000012,-0.025879440270431774,0.003969802160061565,-0.00822089795001706,-0.026482717972276068,-0.010039376050020912
0.655,0.00020866468400012586,-0.7872877720000085,-0.0005079145900016915,-2.3570200700000026,-0.0024075268100077142,1.5715366200000018,0.7839038419999935,0.0399999886,0.0399999779,-9.819940350000014,-0.02616388238973239,0.004229172320061808,-0.008292767900017126,-0.026597643084851467,-0.010127475100020994
0.6575,0.00020919283100012632,-0.7873233280000085,-0.0005150130850016979,-2.3570301050000024,-0.002439899915007743,1.5715440300000016,0.7838767129999935,0.0399999889,0.03999997685,-9.819993525000013,-0.026448324509033,0.004488542480062038,-0.00836463785001719,-0.02671256819742686,-0.010215574150021072
0.66,0.0002097209780001268,-0.7873588840000085,-0.0005221115800017044,-2.3570401400000023,-0.0024722730200077733,1.5715514400000017,0.7838495839999935,0.0399999892,0.0399999758,-9.820046700000013,-0.02673276662833362,0.00474791264006228,-0.008436507800017257,-0.026827493310002257,-0.010303673200021153
0.6625,0.00021024912500012727,-0.7873944400000086,-0.0005292100750017108,-2.3570501750000026,-0.002504646125007802,1.5715588500000017,0.7838224549999935,0.0399999895,0.03999997475,-9.820099875000013,-0.027017208747634226,0.00500728280006251,-0.008508377750017322,-0.02694241842257765,-0.010391772250021232
0.665,0.00021077727200012776,-0.7874299960000086,-0.0005363085700017174,-2.3570602100000024,-0.0025370192300078324,1.5715662600000018,0.7837953259999935,0.039999989799999996,0.039999973700000004,-9.820153050000012,-0.027301650866934847,0.005266652960062752,-0.008580247700017389,-0.027057343535153044,-0.010479871300021315
0.6675,0.0002113152805001354,-0.7874662550000092,-0.0005435422875018222,-2.3570705350000027,-0.0025700086350083098,1.5715738200000018,0.783767676499993,0.03999999,0.0399999741,-9.820184924999998,-0.027592012845053058,0.005534054945068833,-0.008652710950017885,-0.027172669954626128,-0.010569072350022196
0.67,0.00021187301200013595,-0.7875039200000092,-0.0005510464500018292,-2.3570814400000026,-0.002604230640008342,1.5715816800000018,0.783738985999993,0.03999999,0.039999977400000004,-9.820174199999999,-0.027894214540793563,0.005817520580069097,-0.008726360800017954,-0.027288798987893728,-0.01066047740002228
0.6725,0.00021243074350013645,-0.7875415850000093,-0.0005585506125018359,-2.3570923450000025,-0.002638452645008372,1.571589540000002,0.783710295499993,0.03999999,0.0399999807,-9.820163474999998,-0.028196416236534058,0.0061009862150693496,-0.008800010650018019,-0.02740492802116132,-0.010751882450022362
0.675,0.00021298847500013696,-0.7875792500000093,-0.0005660547750018429,-2.357103250000003,-0.002672674650008404,1.571597400000002,0.783681604999993,0.03999999,0.039999984,-9.820152749999998,-0.028498617932274563,0.006384451850069614,-0.008873660500018086,-0.02752105705442892,-0.010843287500022447
0.6775,0.00021354620650013747,-0.7876169150000093,-0.0005735589375018495,-2.3571141550000028,-0.0027068966550084345,1.571605260000002,0.783652914499993,0.03999999,0.039999987300000005,-9.820142024999997,-0.02880081962801506,0.006667917485069865,-0.008947310350018152,-0.027637186087696514,-0.010934692550022529
0.68,0.000214103938000138,-0.7876545800000093,-0.0005810631000018566,-2.3571250600000027,-0.0027411186600084666,1.5716131200000019,0.7836242239999929,0.03999999,0.03999999060000001,-9.820131299999998,-0.029103021323755564,0.006951383120070129,-0.00902096020001822,-0.02775331512096411,-0.011026097600022614
0.6825,0.00021466166950013848,-0.7876922450000093,-0.0005885672625018633,-2.3571359650000026,-0.002775340665008497,1.5716209800000018,0.7835955334999929,0.03999999,0.0399999939,-9.820120574999997,-0.02940522301949606,0.0072348487550703815,-0.009094610050018286,-0.027869444154231704,-0.011117502650022695
0.685,0.00021523957900014656,-0.7877313860000099,-0.0005963484750019739,-2.3571470400000027,-0.0028108250700090006,1.571629070000002,0.7835657869999925,0.0399999905,0.0399999955,-9.820168200000019,-0.02971456013627691,0.007527912870074234,-0.009169364900018767,-0.027988188155025292,-0.011209919900023159
0.6875,0.00021582757750014707,-0.7877712650000099,-0.0006042682125019809,-2.357158200000003,-0.0028469406750090327,1.571637275000002,0.7835355124999924,0.03999999125,0.03999999625,-9.82024500000002,-0.030027464963573936,0.007825776225074499,-0.009244672250018834,-0.028108239639580403,-0.011302843250023242
0.6900000000000001,0.0002164155760001476,-0.7878111440000101,-0.0006121879500019882,-2.357169360000003,-0.0028830562800090664,1.571645480000002,0.7835052379999924,0.039999992,0.039999997,-9.82032180000002,-0.030340369790870972,0.008123639580074777,-0.009319979600018905,-0.02822829112413552,-0.011395766600023328
0.6925,0.00021700357450014815,-0.7878510230000101,-0.0006201076875019953,-2.3571805200000027,-0.002919171885009099,1.571653685000002,0.7834749634999923,0.039999992750000005,0.03999999775,-9.820398600000019,-0.030653274618167997,0.00842150293507504,-0.009395286950018972,-0.02834834260869063,-0.01148868995002341
0.6950000000000001,0.00021759157300014868,-0.7878909020000101,-0.0006280274250020026,-2.357191680000003,-0.0029552874900091322,1.5716618900000021,0.7834446889999923,0.039999993500000004,0.0399999985,-9.820475400000019,-0.030966179445465033,0.008719366290075319,-0.009470594300019043,-0.02846839409324575,-0.011581613300023497
0.6975,0.00021817957150014922,-0.7879307810000101,-0.0006359471625020097,-2.357202840000003,-0.0029914030950091647,1.5716700950000022,0.7834144144999923,0.039999994250000004,0.03999999925,-9.82055220000002,-0.031279084272762055,0.009017229645075583,-0.00954590165001911,-0.02858844557780086,-0.01167453665002358
0.7000000000000001,0.00021876757000015764,-0.7879706600000108,-0.0006438669000021253,-2.357214000000003,-0.0030275187000096916,1.5716783000000023,0.7833841399999919,0.039999995,0.04,-9.820628999999995,-0.031591989100063424,0.009315093000083142,-0.009621209000019632,-0.028708497062356245,-0.011767460000024267
0.7025,0.0002193865495001582,-0.7880127350000108,-0.0006522118695021327,-2.357226045000003,-0.0030655722750097254,1.5716870000000023,0.7833522484999919,0.039999995,0.04,-9.820610549999996,-0.03192190751441803,0.009641542200083432,-0.0096982889000197,-0.028829597681791667,-0.011862744050024352
0.705,0.00022000552900015873,-0.7880548100000108,-0.0006605568390021402,-2.357238090000003,-0.0031036258500097592,1.5716957000000022,0.7833203569999918,0.039999995,0.04,-9.820592099999995,-0.03225182592877263,0.009967991400083722,-0.009775368800019769,-0.02895069830122709,-0.011958028100024437
0.7075,0.00022062450850015932,-0.7880968850000108,-0.0006689018085021479,-2.3572501350000032,-0.003141679425009795,1.5717044000000022,0.7832884654999918,0.039999995,0.04,-9.820573649999995,-0.03258174434312725,0.010294440600084026,-0.00985244870001984,-0.029071798920662518,-0.012053312150024526
0.71,0.00022124348800015988,-0.7881389600000108,-0.0006772467780021554,-2.357262180000003,-0.0031797330000098286,1.5717131000000022,0.7832565739999917,0.039999995,0.04,-9.820555199999996,-0.03291166275748185,0.010620889800084316,-0.009929528600019909,-0.02919289954009794,-0.01214859620002461
0.7125,0.00022186246750016043,-0.7881810350000109,-0.0006855917475021632,-2.357274225000003,-0.0032177865750098638,1.5717218000000022,0.7832246824999917,0.039999995,0.04,-9.820536749999995,-0.03324158117183647,0.01094733900008462,-0.01000660850001998,-0.02931400015953337,-0.0122438802500247
0.715,0.000222481447000161,-0.7882231100000109,-0.0006939367170021706,-2.357286270000003,-0.0032558401500098976,1.5717305000000021,0.7831927909999916,0.039999995,0.04,-9.820518299999994,-0.03357149958619107,0.01127378820008491,-0.010083688400020049,-0.02943510077896879,-0.012339164300024784
0.7175,0.00022311097000016908,-0.7882659370000115,-0.0007024265920022819,-2.357298385000003,-0.003294553280010404,1.5717393550000023,0.7831603454999913,0.03999999525,0.04,-9.820528450000017,-0.03390610255309929,0.011604751750088363,-0.010161331100020472,-0.0295573865063812,-0.012435132350025298
0.72,0.00022376158000016744,-0.7883102680000114,-0.0007112062780022597,-2.3573106400000032,-0.003334585520010303,1.5717485200000023,0.7831267919999914,0.039999996,0.04,-9.820595800000017,-0.03425007462510371,0.011944744000087507,-0.010240099400020273,-0.029682042449744785,-0.012532468400025053
0.7225,0.00022441219000016583,-0.7883545990000113,-0.000719985964002238,-2.357322895000003,-0.003374617760010204,1.5717576850000023,0.7830932384999914,0.03999999675,0.04,-9.820663150000017,-0.034594046697108145,0.012284736250086664,-0.010318867700020077,-0.029806698393108375,-0.01262980445002481
0.725,0.0002250628000001642,-0.7883989300000112,-0.0007287656500022158,-2.357335150000003,-0.003414650000010103,1.5717668500000022,0.7830596849999915,0.0399999975,0.04,-9.820730500000018,-0.03493801876911256,0.012624728500085806,-0.01039763600001988,-0.02993135433647196,-0.012727140500024565
0.7275,0.0002257134100001626,-0.788443261000011,-0.0007375453360021941,-2.357347405000003,-0.0034546822400100038,1.5717760150000022,0.7830261314999916,0.03999999825,0.04,-9.820797850000016,-0.035281990841116995,0.012964720750084964,-0.010476404300019684,-0.03005601027983555,-0.012824476550024324
0.73,0.00022636402000016095,-0.788487592000011,-0.0007463250220021719,-2.357359660000003,-0.003494714480009903,1.5717851800000022,0.7829925779999917,0.039999999,0.04,-9.820865200000016,-0.03562596291312141,0.013304713000084106,-0.010555172600019485,-0.030180666223199138,-0.012921812600024079
0.7325,0.00022701463000015935,-0.7885319230000108,-0.0007551047080021502,-2.357371915000003,-0.003534746720009804,1.5717943450000023,0.7829590244999918,0.03999999975,0.04,-9.820932550000016,-0.035969934985125844,0.013644705250083263,-0.01063394090001929,-0.030305322166562728,-0.013019148650023836
0.735,0.00022768677900016863,-0.7885777900000116,-0.0007641803630022776,-2.3573846600000032,-0.003576126710010384,1.5718038200000024,0.7829243359999912,0.0399999995,0.0399999995,-9.820942299999995,-0.036325738579124106,0.01400016510008968,-0.010713786700019849,-0.030430397205085617,-0.013118001100024595
0.7375,0.0002283696975001716,-0.7886244250000117,-0.0007734040025023176,-2.3573976500000033,-0.003618180575010567,1.5718134500000023,0.7828890799999911,0.03999999875,0.03999999875,-9.820923249999995,-0.036687457934112815,0.014363358750091258,-0.010794171250020197,-0.03055568179118793,-0.013217611750025029
0.74,0.00022905261600017452,-0.788671060000012,-0.0007826276420023572,-2.357410640000003,-0.0036602344400107475,1.5718230800000024,0.7828538239999909,0.039999998,0.039999998,-9.820904199999996,-0.0370491772891015,0.014726552400092819,-0.010874555800020544,-0.030680966377290238,-0.013317222400025457
0.7425,0.0002297355345001775,-0.7887176950000122,-0.0007918512815023973,-2.357423630000003,-0.0037022883050109303,1.5718327100000025,0.7828185679999908,0.03999999725,0.03999999725,-9.820885149999995,-0.03741089664409021,0.015089746050094397,-0.010954940350020892,-0.030806250963392554,-0.01341683305002589
0.745,0.00023041845300018042,-0.7887643300000123,-0.000801074921002437,-2.357436620000003,-0.003744342170011111,1.5718423400000026,0.7827833119999906,0.0399999965,0.0399999965,-9.820866099999995,-0.0377726159990789,0.015452939700095958,-0.011035324900021239,-0.03093153554949486,-0.013516443700026318
0.7475,0.0002311013715001834,-0.7888109650000126,-0.000810298560502477,-2.3574496100000033,-0.003786396035011294,1.5718519700000027,0.7827480559999905,0.03999999575,0.03999999575,-9.820847049999996,-0.03813433535406761,0.015816133350097537,-0.011115709450021587,-0.031056820135597175,-0.01361605435002675
0.75,0.00023178429000019531,-0.7888576000000134,-0.0008195222000026403,-2.3574626000000034,-0.003828449900012038,1.5718616000000027,0.7827127999999899,0.039999995,0.039999995,-9.82082800000001,-0.03849605470906047,0.01617932700010575,-0.011196094000022363,-0.03118210472170017,-0.01371566500002775
0.7525000000000001,0.000232500174000196,-0.7889065825000134,-0.0008291988200026493,-2.3574760550000033,-0.003872568290012079,1.571871725000003,0.7826758399999899,0.03999999575,0.039999995,-9.820863550000011,-0.038873073831303756,0.01656690615010611,-0.01127805295002244,-0.03130991002548252,-0.013817373925027847
0.755,0.00023321605800019664,-0.7889555650000135,-0.0008388754400026579,-2.3574895100000037,-0.003916686680012118,1.571881850000003,0.7826388799999898,0.0399999965,0.039999995,-9.82089910000001,-0.039250092953547026,0.016954485300106455,-0.011360011900022511,-0.03143771532926486,-0.013919082850027936
0.7575000000000001,0.0002339319420001973,-0.7890045475000135,-0.0008485520600026669,-2.3575029650000037,-0.00396080507001216,1.5718919750000029,0.7826019199999898,0.03999999725,0.039999995,-9.82093465000001,-0.03962711207579032,0.017342064450106817,-0.011441970850022588,-0.03156552063304721,-0.01402079177502803
0.76,0.00023464782600019795,-0.7890535300000135,-0.0008582286800026755,-2.3575164200000036,-0.004004923460012198,1.5719021000000029,0.7825649599999898,0.039999998,0.039999995,-9.82097020000001,-0.04000413119803358,0.01772964360010716,-0.01152392980002266,-0.03169332593682955,-0.014122500700028122
0.7625000000000001,0.0002353637100001986,-0.7891025125000136,-0.0008679053000026846,-2.3575298750000035,-0.00404904185001224,1.5719122250000028,0.7825279999999898,0.03999999875,0.039999995,-9.82100575000001,-0.04038115032027687,0.018117222750107524,-0.011605888750022737,-0.03182113124061191,-0.014224209625028216
0.765,0.00023607959400019925,-0.7891514950000136,-0.0008775819200026931,-2.357543330000004,-0.004093160240012279,1.5719223500000028,0.7824910399999897,0.0399999995,0.039999995,-9.82104130000001,-0.04075816944252014,0.018504801900107868,-0.01168784770002281,-0.03194893654439425,-0.014325918550028306
0.7675000000000001,0.0002368066765002093,-0.7892012675000143,-0.000887412460002831,-2.357557105000004,-0.0041379799050129075,1.5719326400000029,0.7824534849999892,0.04,0.039999995,-9.821066900000002,-0.04114072844397091,0.018899451700114152,-0.01177036090002335,-0.032077228277957726,-0.014428313525028977
0.77,0.00023755615600020997,-0.7892526200000144,-0.0008975508400028401,-2.357571520000004,-0.004184202120012949,1.571943260000003,0.7824147399999891,0.04,0.039999995,-9.821072600000003,-0.04153436720382271,0.019308242800114516,-0.011853982600023424,-0.03220649287108223,-0.01453208060002907
0.7725,0.00023830563550021063,-0.7893039725000144,-0.0009076892200028491,-2.357585935000004,-0.0042304243350129896,1.571953880000003,0.7823759949999891,0.04,0.039999995,-9.821078300000002,-0.04192800596367452,0.019717033900114877,-0.011937604300023498,-0.032335757464206735,-0.014635847675029161
0.775,0.00023905511500021132,-0.7893553250000145,-0.0009178276000028586,-2.3576003500000042,-0.004276646550013033,1.5719645000000029,0.7823372499999891,0.04,0.039999995,-9.821084000000003,-0.042321644723526335,0.02012582500011526,-0.012021226000023576,-0.03246502205733125,-0.014739614750029257
0.7775,0.00023980459450021198,-0.7894066775000145,-0.0009279659800028676,-2.357614765000004,-0.004322868765013073,1.571975120000003,0.782298504999989,0.04,0.039999995,-9.821089700000002,-0.04271528348337814,0.020534616100115623,-0.01210484770002365,-0.03259428665045575,-0.01484338182502935
0.78,0.0002405540740002127,-0.7894580300000146,-0.000938104360002877,-2.357629180000004,-0.004369090980013117,1.571985740000003,0.782259759999989,0.04,0.039999995,-9.821095400000003,-0.043108922243229965,0.020943407200116004,-0.01218846940002373,-0.032723551243580264,-0.014947148900029447
0.7825,0.00024130355350021336,-0.7895093825000147,-0.000948242740002886,-2.357643595000004,-0.004415313195013158,1.571996360000003,0.782221014999989,0.04,0.039999995,-9.821101100000002,-0.043502561003081766,0.021352198300116365,-0.012272091100023804,-0.03285281583670477,-0.01505091597502954
0.785,0.00024207585200022383,-0.7895623700000154,-0.0009586947500030298,-2.357658120000004,-0.004462964200013813,1.5720072400000031,0.7821810739999884,0.04,0.039999995,-9.82114830000002,-0.043906497210381014,0.021777609300123867,-0.012356627200024273,-0.03298459947113018,-0.015156033000030215
0.7875,0.00024285956000022452,-0.7896161750000155,-0.0009693035750030392,-2.357672700000004,-0.004511329600013856,1.572018250000003,0.7821405349999884,0.04,0.039999995,-9.82121625000002,-0.044315582141397344,0.022211330250124253,-0.012441620500024349,-0.03311764262620442,-0.015261825000030309
0.79,0.00024364326800022524,-0.7896699800000154,-0.0009799124000030492,-2.357687280000004,-0.004559695000013901,1.5720292600000032,0.7820999959999884,0.04,0.039999995,-9.82128420000002,-0.044724667072413696,0.022645051200124656,-0.012526613800024428,-0.03325068578127866,-0.015367617000030408
0.7925,0.00024442697600022596,-0.7897237850000155,-0.0009905212250030586,-2.357701860000004,-0.004608060400013944,1.5720402700000031,0.7820594569999882,0.04,0.039999995,-9.821352150000019,-0.04513375200343003,0.023078772150125042,-0.012611607100024505,-0.0333837289363529,-0.015473409000030502
0.795,0.0002452106840002267,-0.7897775900000156,-0.0010011300500030686,-2.357716440000004,-0.004656425800013989,1.5720512800000033,0.7820189179999882,0.04,0.039999995,-9.821420100000019,-0.045542836934446385,0.023512493100125445,-0.012696600400024583,-0.033516772091427144,-0.0155792010000306
0.7975,0.0002459943920002274,-0.7898313950000155,-0.001011738875003078,-2.357731020000004,-0.004704791200014032,1.5720622900000032,0.7819783789999882,0.04,0.039999995,-9.821488050000019,-0.045951921865462715,0.02394621405012583,-0.012781593700024659,-0.03364981524650138,-0.015684993000030695
0.8,0.00024677810000023825,-0.7898852000000164,-0.001022347700003227,-2.3577456000000043,-0.004753156600014712,1.5720733000000033,0.7819378399999877,0.04,0.039999995,-9.821555999999989,-0.046361006796485534,0.024379935000131903,-0.012866587000025166,-0.03378285840157566,-0.0157907850000314
0.8025,0.00024759663500023896,-0.7899414800000164,-0.001033435325003237,-2.3577612000000046,-0.004803704635014757,1.5720848350000034,0.7818954739999876,0.03999999925,0.039999995,-9.821517449999988,-0.04679230712366773,0.024833134500132307,-0.012953052250025243,-0.03391603343192646,-0.015898665900031497
0.805,0.00024841517000023973,-0.7899977600000164,-0.0010445229500032473,-2.3577768000000043,-0.004854252670014804,1.5720963700000035,0.7818531079999876,0.0399999985,0.039999995,-9.821478899999988,-0.04722360745084994,0.02528633400013273,-0.013039517500025324,-0.03404920846227726,-0.016006546800031596
0.8075,0.00024923370500024044,-0.7900540400000164,-0.0010556105750032573,-2.3577924000000046,-0.004904800705014849,1.5721079050000035,0.7818107419999876,0.03999999775,0.039999995,-9.821440349999989,-0.047654907778032135,0.025739533500133135,-0.0131259827500254,-0.03418238349262806,-0.016114427700031693
0.81,0.0002500522400002412,-0.7901103200000166,-0.0010666982000032675,-2.357808000000005,-0.004955348740014897,1.5721194400000034,0.7817683759999875,0.039999997,0.039999995,-9.821401799999988,-0.04808620810521434,0.026192733000133556,-0.013212448000025481,-0.034315558522978865,-0.016222308600031793
0.8125,0.000250870775000242,-0.7901666000000166,-0.0010777858250032774,-2.3578236000000046,-0.005005896775014941,1.5721309750000034,0.7817260099999874,0.03999999625,0.039999995,-9.821363249999989,-0.048517508432396536,0.02664593250013396,-0.013298913250025558,-0.03444873355332966,-0.01633018950003189
0.8150000000000001,0.00025168931000024274,-0.7902228800000166,-0.0010888734500032876,-2.357839200000005,-0.0050564448100149885,1.5721425100000035,0.7816836439999875,0.0399999955,0.039999995,-9.821324699999987,-0.04894880875957875,0.027099132000134384,-0.013385378500025639,-0.03458190858368047,-0.01643807040003199
0.8175,0.00025251964000025395,-0.7902799950000174,-0.0011001234100034424,-2.357854895000005,-0.005107732425015693,1.5721542150000036,0.7816406524999868,0.039999995,0.039999995,-9.82132130000002,-0.04938468895865796,0.027560132700141744,-0.01347231830002614,-0.03471626155082469,-0.016546554550032625
0.8200000000000001,0.00025337356000025476,-0.7903387800000176,-0.0011116980400034532,-2.3578707800000047,-0.0051604992000157425,1.5721662600000037,0.7815964099999868,0.039999995,0.039999995,-9.821388200000019,-0.049829728901518974,0.02803673580014219,-0.01356020720002622,-0.03485297039155263,-0.016656245200032727
0.8225,0.0002542274800002555,-0.7903975650000176,-0.0011232726700034635,-2.357886665000005,-0.005213265975015789,1.5721783050000038,0.7815521674999868,0.039999995,0.039999995,-9.82145510000002,-0.050274768844379966,0.028513338900142612,-0.013648096100026298,-0.03498967923228055,-0.016765935850032825
0.8250000000000001,0.0002550814000002563,-0.7904563500000176,-0.0011348473000034743,-2.357902550000005,-0.005266032750015838,1.5721903500000036,0.7815079249999867,0.039999995,0.039999995,-9.82152200000002,-0.050719808787240986,0.028989942000143057,-0.01373598500002638,-0.03512638807300848,-0.016875626500032926
0.8275,0.0002559353200002571,-0.7905151350000177,-0.0011464219300034845,-2.357918435000005,-0.005318799525015886,1.5722023950000037,0.7814636824999867,0.039999995,0.039999995,-9.82158890000002,-0.05116484873010198,0.02946654510014348,-0.013823873900026458,-0.035263096913736414,-0.016985317150033024
0.8300000000000001,0.00025678924000025784,-0.7905739200000177,-0.0011579965600034953,-2.357934320000005,-0.005371566300015934,1.5722144400000038,0.7814194399999866,0.039999995,0.039999995,-9.82165580000002,-0.051609888672963,0.029943148200143925,-0.013911762800026541,-0.035399805754464345,-0.017095007800033125
0.8325,0.0002576431600002586,-0.7906327050000178,-0.0011695711900035057,-2.3579502050000047,-0.005424333075015981,1.5722264850000038,0.7813751974999866,0.039999995,0.039999995,-9.82172270000002,-0.05205492861582399,0.03041975130014435,-0.013999651700026618,-0.03553651459519227,-0.017204698450033223
