rsonawane2002/My_IMU/logs_2/traj_331/clean_331.csv
time,j1,j2,j3,j4,j5,j6,j7,gripper1,gripper2,imu_ax,imu_ay,imu_az,imu_gx,imu_gy,imu_gz,quat_x,quat_y,quat_z,quat_w
885.0333333328571,0.00016700293,-0.785875,4.0107683e-05,-2.3551247,9.29385e-05,1.570997,0.786,0.04,0.04,0.0,-0.0,0.0,2.875329272945135e-08,-0.0011641195053377316,4.421952117202833e-08,0.9999995971961153,0.00020320632366974898,0.0008736418299892524,3.263050917662294e-05
885.0499999995237,0.00016700062,-0.78576016,4.01196e-05,-2.3552213,9.297423e-05,1.5709941,0.786,0.04,0.04,-0.29199846042704536,-3.5652141480989634e-05,0.020128408485375893,-1.3875027767001581e-07,-0.0022386663260499954,-1.0969176329442544e-07,0.9999996850586659,0.0002032080104532635,0.0007665025194268089,3.2603087771428166e-05
885.0666666661904,0.00016696312,-0.78565425,4.0165425e-05,-2.35531,9.30085e-05,1.5709913,0.786,0.04,0.04,0.023262847310268064,-3.375214128206825e-07,-0.0016365745053148473,-1.201047657203769e-06,-0.003233778403810137,-1.4063223137868417e-06,0.9999997558648532,0.00020321491506453642,0.0006677674574134184,3.256616356031076e-05
885.083333332857,0.00016683344,-0.7855569,4.0301744e-05,-2.355391,9.304359e-05,1.5709884,0.786,0.04,0.04,0.022460737087826033,-5.990730156819326e-06,-0.0015249205144618472,-4.091092412106774e-06,-0.004157768426731007,-4.8903594124397934e-06,0.9999998122749936,0.00020323552691494488,0.0005771386307782509,3.250075503590643e-05
885.0999999995237,0.00016653052,-0.7854672,4.0609688e-05,-2.3554652,9.308298e-05,1.5709856,0.786,0.04,0.04,0.02018955278020318,-1.4887178240115045e-05,-0.0012898796746707575,-9.784707655264817e-06,-0.0050190477789952455,-1.1504502243724471e-05,0.9999998569039124,0.00020328172774896323,0.000493781587069013,3.237959841780309e-05
885.1166666661903,0.00016595166,-0.7853846,4.119247e-05,-2.355532,9.3131006e-05,1.570986,0.786,0.04,0.04,0.021465408478893444,-2.7196703419505534e-05,0.0017251145671970392,-1.902257627090378e-05,-0.005828751586674763,-2.2094678320868413e-05,0.9999998908821004,0.0002033683958952925,0.0004193354683267871,3.216905261491953e-05
885.133333332857,0.0001649743,-0.78530854,4.2173135e-05,-2.3555942,9.319248e-05,1.5709869,0.786,0.04,0.04,0.015062060395720778,-4.004322298384105e-05,-0.001460007565046162,-3.313141686614849e-05,-0.00657804950138689,-3.7423429063183756e-05,0.999999917320494,0.00020351333429768356,0.0003506114433027041,3.1826778196013634e-05
885.1499999995236,0.00016345883,-0.7852384,4.36925e-05,-2.3556519,9.327328e-05,1.5709878,0.7859981,0.04,0.04,0.014261111119417968,-5.653497744111547e-05,-0.0012588960907722324,-5.3194890859305154e-05,-0.007295813017731733,-5.816665648034512e-05,0.999999937718373,0.00020278288475511556,0.00028716252516950433,3.130552309737383e-05
885.1666666661903,0.00016124969,-0.78517383,4.5907047e-05,-2.3557026,9.3379414e-05,1.57099,0.7859962,0.04,0.04,0.01832324634960525,-7.451428052012246e-05,0.0007828357985850687,-7.100559053020114e-05,-0.007992724907858125,-8.492503318887068e-05,0.9999999525194371,0.0002021530820410017,0.000230568224966874,3.055403243692848e-05
885.1833333328569,0.00015817747,-0.7851144,4.898745e-05,-2.3557496,9.352642e-05,1.5709946,0.7859943,0.04,0.039999995,0.012943615193061753,-0.00010028302826990405,0.0006488082339384249,-9.648261804166002e-05,-0.008655468637531251,-0.0001174832106669182,0.9999999630879302,0.00020164838044875937,0.00017969607212803325,2.95193299330947e-05
885.1999999995236,0.00015406057,-0.7850594,5.3117088e-05,-2.355792,9.3703486e-05,1.5709999,0.7859905,0.04,0.04,0.012763034278040486,-0.00010808896261758775,-4.215636140170176e-05,-0.0001305216086689247,-0.009302028168864931,-0.00015864795812541282,0.9999999706126022,0.00020034099834771905,0.00013359244185226257,2.8130742692529757e-05
885.2166666661902,0.00014870657,-0.78500867,5.84899e-05,-2.355829,9.3937284e-05,1.5710084,0.78598666,0.04,0.039999995,0.015120398390955359,-0.00014491639784620404,0.0024998472472059774,-0.0001658154146002595,-0.00994008172069778,-0.00020570682467407832,0.9999999753882325,0.000199212215383019,9.40454572388561e-05,2.6334005180226062e-05
885.2333333328569,0.00014191351,-0.7849618,6.531003e-05,-2.3558633,9.42174e-05,1.5710207,0.78598094,0.04,0.04,0.00990980527717511,-0.00015475721327759063,0.0017242041234766248,-0.00021153094904345111,-0.010560619798523557,-0.00026216933238652567,0.99999997846401,0.00019733721258923158,5.959484567362275e-05,2.4051164362184545e-05
885.2499999995235,0.00013347088,-0.78491837,7.3789444e-05,-2.3558917,9.457043e-05,1.5710361,0.7859735,0.04,0.039999995,0.014865285237752879,-0.00019285120582045938,0.0030493971152179,-0.00026040541788033457,-0.011176912494368942,-0.0003252170820262689,0.999999980302256,0.0001948355178886264,3.1373092702774066e-05,2.1221161705567796e-05
885.2666666661902,0.00012316134,-0.78487813,8.414783e-05,-2.3559184,9.499488e-05,1.5710541,0.7859655,0.04,0.039999995,0.007223430983360757,-0.0002103013299000183,0.0008736464158110024,-0.0003139665710626162,-0.011783555099906752,-0.0003975055995818827,0.9999999813221236,0.00019233425325907398,6.906592445467346e-06,1.776475065021952e-05
885.2833333328568,0.0001107613,-0.7848407,9.661092e-05,-2.3559387,9.550032e-05,1.5710762,0.78595597,0.04,0.039999995,0.015317906756018296,-0.00023807339570226143,0.004316611285815064,-0.00037897217284810447,-0.012407392312255653,-0.00047846752207947687,0.9999999819195311,0.00018935851259034445,-1.0913830946530034e-05,1.3608061588784215e-05
885.2999999995235,9.6042015e-05,-0.7848059,0.00011140977,-2.3559577,9.609643e-05,1.571103,0.78594434,0.04,0.039999995,0.006433407023109794,-0.0002646116073275206,0.002599831272465103,-0.00045122276893402684,-0.013023751210675298,-0.0005683134242336777,0.9999999824264624,0.00018567284831792484,-2.444258376009569e-05,8.673432792684052e-06
885.3166666661901,7.877054e-05,-0.78477335,0.00012877981,-2.3559704,9.679127e-05,1.5711344,0.7859304,0.04,0.039999995,0.01491313155426166,-0.0002924673355685081,0.005068316351408697,-0.0005298290263254933,-0.013657027121203496,-0.0006672092320611485,0.9999999830910657,0.00018119091921621643,-3.129552452816154e-05,2.8825617475131537e-06
885.3333333328568,5.871017e-05,-0.784743,0.00014895982,-2.3559818,9.759505e-05,1.57117,0.785914,0.04,0.039999995,0.005745357389441708,-0.0003194526371283241,0.002305409879999054,-0.0006144612182961319,-0.014288686473431235,-0.0007752993155844576,0.9999999839319915,0.0001758871233475399,-3.442314965294625e-05,-3.844918894418098e-06
885.3499999995234,3.5621513e-05,-0.7847145,0.00017219178,-2.355987,9.852612e-05,1.5712119,0.7858951,0.04,0.03999999,0.014613200853985653,-0.0003561119054670055,0.006532610859055765,-0.0007056269164594808,-0.01495003309312511,-0.0008919346123473773,0.9999999850634513,0.00016976535274393427,-3.030887789839964e-05,-1.1584219157921623e-05
885.3666666661901,9.2633945e-06,-0.7846875,0.00019871967,-2.3559906,9.957321e-05,1.5712595,0.7858738,0.04,0.039999995,0.006256050068387253,-0.0003683757427258593,0.004080640587433848,-0.0008035676771151836,-0.015609772455956133,-0.001019526777687801,0.9999999862868907,0.00016288971484831617,-2.181384664808057e-05,-2.0428294639916352e-05
885.3833333328568,-2.0607253e-05,-0.78466207,0.0002287889,-2.3559885,0.00010075825,1.5713139,0.7858496,0.04,0.039999995,0.013587495570077657,-0.0004076092964015385,0.006755195019558791,-0.000909906609144257,-0.016297842898946285,-0.0011557757696109502,0.999999987490766,0.00015508583227448597,-6.285806677096176e-06,-3.04522755192921e-05
885.3999999995234,-5.4234275e-05,-0.7846377,0.0002626459,-2.3559837,0.00010208967,1.571375,0.7858223,0.039999995,0.03999999,0.00779398063528447,-0.000434980933104723,0.0056339435608787625,-0.0010238162421054107,-0.01699364028656218,-0.0013015324110681528,0.9999999883266305,0.00014626911205349572,1.4486907121192775e-05,-4.173985401646759e-05
885.41666666619,-9.186192e-05,-0.78461444,0.00030053768,-2.355974,0.000103578284,1.5714434,0.78579175,0.039999995,0.03999999,0.012063443563081755,-0.00046631840971955154,0.0070259675347683626,-0.0011447421936279002,-0.0177144748189422,-0.0014568277939233233,0.9999999883368801,0.00013641415120714103,4.1964368911667246e-05,-5.4372885836294916e-05
885.4333333328567,-0.00013373434,-0.78459203,0.00034271085,-2.3559606,0.000105232124,1.5715199,0.78575796,0.03999999,0.039999988,0.009530716575145703,-0.0004939219040363621,0.007085224384995037,-0.0012732458023689691,-0.01845101076724489,-0.0016216682861931533,0.999999986919298,0.0001255256317289334,7.563965235799962e-05,-6.843509686119377e-05
885.4499999995234,-0.00018009529,-0.78457063,0.00038941184,-2.3559425,0.00010706219,1.5716043,0.7857205,0.03999999,0.039999988,0.011755885455499993,-0.0005251796447558628,0.007518792933058904,-0.0014098909098853982,-0.019209403932692624,-0.0017960548992907975,0.9999999832838599,0.00011345881441740478,0.00011619785749002161,-8.400854227741874e-05
885.46666666619,-0.00023118762,-0.78454995,0.00044088627,-2.355921,0.00010907927,1.5716978,0.7856792,0.03999999,0.039999988,0.009374793244898427,-0.0005552768665383599,0.007932866484305912,-0.0015538696629426563,-0.01998639364616573,-0.0019799712601049992,0.9999999765239772,0.00010012850122621746,0.00016337034685536372,-0.00010117538241561496
885.4833333328567,-0.00028725286,-0.78452957,0.00049737823,-2.3558948,0.000111291876,1.5718006,0.7856338,0.03999999,0.039999988,0.011346757887475967,-0.0005847493532091673,0.00881028614583279,-0.0017052226332643912,-0.020787667417621745,-0.0021733865716709704,0.9999999654583813,8.544902403818137e-05,0.00021766327057528916,-0.00012001833610250777
885.4999999995233,-0.0003485309,-0.7845096,0.0005591304,-2.355865,0.000113701644,1.571913,0.78558415,0.039999988,0.039999988,0.0096061761493349,-0.0006080369934716645,0.008561870199819133,-0.0018634323416451318,-0.021609737170089495,-0.0023770220377755088,0.9999999488461533,6.93941763400338e-05,0.000278778044278019,-0.0001406234016085854
885.51666666619,-0.00041526018,-0.78449,0.0006263834,-2.3558307,0.00011632422,1.5720352,0.7855302,0.039999984,0.039999984,0.011201907003588474,-0.0006424663517370542,0.009111098760850034,-0.0020288199346541348,-0.02245902250326068,-0.002589228410530821,0.9999999250728812,5.196717151737373e-05,0.0003472206668591502,-0.00016306886163212529
885.5333333328566,-0.00048767653,-0.78447056,0.0006993761,-2.3557916,0.000119171025,1.5721679,0.7854715,0.039999984,0.039999984,0.01163970657298563,-0.0006742371312832597,0.00985048304324998,-0.002202256159149713,-0.02333065764359106,-0.002810803191110811,0.9999998922664801,3.296188471440686e-05,0.00042337780211812567,-0.00018743473249489362
885.5499999995233,-0.00056601333,-0.7844511,0.0007783447,-2.355748,0.0001222493,1.5723115,0.7854081,0.03999998,0.03999998,0.011191807621058203,-0.0007023751129413215,0.010197982719484244,-0.002381877016337865,-0.02422737176425565,-0.0030416175763369043,0.9999998484011934,1.244000318420077e-05,0.0005072784277286681,-0.00021380232307980368
885.5666666661899,-0.0006505018,-0.7844317,0.0008635226,-2.3556995,0.00012556917,1.5724666,0.78533965,0.039999977,0.039999977,0.011752943729836929,-0.0007323614981120062,0.010657838786509721,-0.002569385048372487,-0.02514639047570965,-0.00328163597521907,0.9999997910422659,-9.715884852629039e-06,0.0005992792070335577,-0.00024225081707354685
885.5833333328566,-0.0007413702,-0.78441215,0.00095514057,-2.3556466,0.00012913982,1.5726331,0.7852661,0.039999973,0.039999973,0.011220524691979428,-0.0007615269705304626,0.010615862620166894,-0.002763465823987537,-0.026090008876562123,-0.0035307610684384722,0.9999997177711408,-3.3534390103144904e-05,0.0006992002621448927,-0.0002728590786055614
885.5999999995232,-0.0008388435,-0.78439236,0.0010534263,-2.3555887,0.00013297008,1.5728123,0.7851872,0.039999973,0.039999973,0.012283665636259045,-0.0007913994770973349,0.011782151589168066,-0.00296502177943363,-0.027061482136897977,-0.003788911386256117,0.9999996252426235,-5.910468889696887e-05,0.0008078152491200797,-0.000305705367305297
885.6166666661899,-0.0009431437,-0.7843724,0.0011586042,-2.3555257,0.00013706836,1.5730039,0.7851027,0.039999973,0.039999973,0.012280108435125392,-0.0008202970027007138,0.01156745038475293,-0.0031732921702781985,-0.028053470605503512,-0.004055987585440446,0.9999995103212643,-8.648646268928672e-05,0.0009250334287465088,-0.00034086724530868506
885.6333333328565,-0.0010544894,-0.7843519,0.0012708954,-2.3554583,0.00014144351,1.5732083,0.7850126,0.03999997,0.03999997,0.011231454987248313,-0.0008486175556565527,0.011908032110174993,-0.0033883668562645383,-0.02907088989764245,-0.004331894677731312,0.9999993697456945,-0.00011571026306605088,0.0010506745232067094,-0.00037842092326185876
885.6499999995232,-0.0011730959,-0.7843309,0.0013905176,-2.3553855,0.00014610394,1.5734264,0.78491664,0.039999973,0.039999973,0.012748893794056748,-0.0008785601706730371,0.012723358946620245,-0.003610585854352491,-0.030116850422354784,-0.0046165320816127725,0.999999198988347,-0.00014683747640526306,0.0011854819662589985,-0.00041844226320107285
885.6666666661898,-0.0012991742,-0.7843095,0.001517686,-2.355307,0.00015105763,1.573658,0.78481454,0.039999973,0.039999973,0.013634331819756262,-0.0009099686920049964,0.012898541499084537,-0.003839497590018843,-0.031186195773543583,-0.004909805245705904,0.9999989934570854,-0.00017999034709338413,0.0013297221661428356,-0.00046100678068675854
885.6833333328565,-0.0014329331,-0.7842876,0.001652609,-2.3552232,0.0001563123,1.5739038,0.7847063,0.039999973,0.039999977,0.013295731827711599,-0.0009347649117007911,0.013298096157243755,-0.004074612877419104,-0.03227852244461539,-0.005212450189903819,0.9999987483388143,-0.0002151409730996551,0.0014835124151053535,-0.0005061877918758398
885.6999999995231,-0.0015745766,-0.78426486,0.0017954943,-2.355134,0.00016187665,1.574164,0.7845917,0.039999973,0.039999977,0.012711582599722604,-0.0009651581692089089,0.013498914331533385,-0.004316592973702103,-0.033393619205642266,-0.005522646233795789,0.9999984587979303,-0.0002523831736834149,0.0016467313580475974,-0.0005540580585735297
885.7166666661898,-0.0017243044,-0.7842416,0.0019465445,-2.3550396,0.00016775815,1.5744393,0.78447056,0.039999973,0.039999977,0.013176430452732646,-0.00099378908605056,0.013801516775036049,-0.004564990115690592,-0.03453496000127505,-0.005841143920566401,0.9999981187888406,-0.0002917515211942602,0.0018197939231368516,-0.0006046899265119162
885.7333333328564,-0.0018823132,-0.7842178,0.0021059574,-2.3549392,0.00017396451,1.5747297,0.78434265,0.03999997,0.039999973,0.01437718097314633,-0.0010226063123063966,0.014237550702000945,-0.00481987964122701,-0.035699781292206884,-0.0061678377135704725,0.9999977216711151,-0.0003333705133693952,0.0020030849862152475,-0.0006581544027773102
885.7499999995231,-0.0020487949,-0.78419304,0.0022739263,-2.3548326,0.00018050321,1.5750357,0.7842079,0.03999997,0.039999973,0.014617528050386852,-0.0010504027969847405,0.014861187494008554,-0.005080800938834708,-0.036886398257112485,-0.006502603318648218,0.9999972605805745,-0.0003772464970794351,0.002196810475447274,-0.0007145209318931786
885.7666666661897,-0.0022239382,-0.7841676,0.0024506445,-2.3547206,0.00018738143,1.5753574,0.78406614,0.039999966,0.03999997,0.013649631619583324,-0.0010798939345264347,0.01452142784459376,-0.005347886497267158,-0.038094583727814074,-0.006845343675554142,0.9999967291029689,-0.0004234168004156937,0.0024007588587361913,-0.000773859469637786
885.7833333328564,-0.0024079264,-0.784141,0.002636296,-2.3546028,0.0001946065,1.5756955,0.7839172,0.039999966,0.03999997,0.013797399495918405,-0.0011065912211190038,0.015300920603533719,-0.005621208565190498,-0.039329094553225225,-0.0071959185333324615,0.9999961194972748,-0.0004719789358367913,0.0026151355723278607,-0.0008362369369154442
885.799999999523,-0.0026009397,-0.7841137,0.0028310642,-2.3544788,0.00020218504,1.5760503,0.78376096,0.039999966,0.03999997,0.015202262197089311,-0.0011375541823932175,0.015533870427564267,-0.005900080434413053,-0.04058527407605776,-0.00755424262967973,0.9999954223046603,-0.0005229422577952401,0.0028405631167174763,-0.000901721852290865
885.8166666661897,-0.0028031538,-0.7840853,0.0030351253,-2.3543482,0.00021012429,1.576422,0.78359735,0.03999996,0.039999966,0.01564439873626977,-0.0011655117234671253,0.01615196678286246,-0.006185388629620236,-0.04186337524571394,-0.00792018487859972,0.9999946285404194,-0.0005763464884552858,0.003077186903848055,-0.0009703792003122087
885.8333333328563,-0.0030147396,-0.78405595,0.0032486534,-2.3542106,0.00021843033,1.5768108,0.78342617,0.039999966,0.039999973,0.016409744068579535,-0.0011959781040567588,0.016289554124382377,-0.006476438865803782,-0.04316055836706918,-0.008294515675710715,0.9999937279217124,-0.0006322626200359039,0.0033253606819750653,-0.0010422751797115601
885.849999999523,-0.0032358633,-0.78402555,0.003471817,-2.3540673,0.00022710972,1.5772172,0.78324723,0.03999996,0.03999997,0.01431357350485385,-0.0012202051597273657,0.016116037865820942,-0.006773305012132087,-0.044474997019176774,-0.008675377585838475,0.999992712440641,-0.0006907617520768021,0.003584573678910791,-0.0011174727521809519
885.8666666661896,-0.003466689,-0.7839941,0.0037047807,-2.3539178,0.00023616933,1.5776416,0.7830603,0.03999996,0.03999997,0.015298938369956439,-0.0012489961485014837,0.016672026243558236,-0.007075591438144716,-0.04581443728019025,-0.009063607138373586,0.9999915703403782,-0.0007519458481216764,0.0038552982843015116,-0.0011960354363047439
885.8833333328563,-0.003707375,-0.78396153,0.003947705,-2.3537621,0.0002456155,1.578084,0.7828655,0.039999958,0.039999966,0.015319472146235746,-0.001277370149784776,0.016660724868722276,-0.0073828909385998155,-0.047172891571314185,-0.009458923233907072,0.9999902909870239,-0.0008157392374149263,0.0041375299934387,-0.0012780245449037888
885.899999999523,-0.0039580753,-0.783928,0.004200746,-2.3535995,0.00025545454,1.5785449,0.7826626,0.03999996,0.03999997,0.016781112557140432,-0.001308924852289322,0.01728634053719258,-0.0076961456604830525,-0.04855362072875712,-0.009861223459659582,0.9999888603399866,-0.0008822764134553903,0.00443188961873317,-0.0013635023550823795
885.9166666661896,-0.004218937,-0.7838931,0.004464054,-2.3534296,0.0002656888,1.5790244,0.7824514,0.039999958,0.03999997,0.017363696715455568,-0.0013392508877721303,0.017831782830723952,-0.008014481156085086,-0.049951480761033104,-0.010272389450203609,0.9999872651761718,-0.0009515751066877851,0.004738580599375826,-0.0014525302751664197
885.9333333328563,-0.0044901078,-0.783857,0.004737777,-2.3532524,0.00027632815,1.5795232,0.7822318,0.039999958,0.03999997,0.017202919128811445,-0.0013678892520224868,0.018031583288302677,-0.008338214880501366,-0.05136503042401479,-0.010688586750339894,0.9999854917347593,-0.0010237105795712406,0.005057746393415383,-0.0015451660302137793
885.9499999995229,-0.004771728,-0.78381974,0.005022058,-2.3530686,0.00028737573,1.5800409,0.7820039,0.039999958,0.03999998,0.01647081242754922,-0.0013933716646419552,0.017560491501922293,-0.008666520522120677,-0.05279365716212002,-0.011114089635431777,0.9999835280408748,-0.0010986405617807917,0.00538908330893331,-0.0016414679194114018
885.9666666661896,-0.0050639343,-0.7837812,0.005317034,-2.3528776,0.00029883828,1.5805781,0.7817674,0.039999958,0.03999998,0.01726714747405378,-0.0014255208413726942,0.01821255169676128,-0.009000667591069756,-0.054242157675589306,-0.011543650315963576,0.9999813579290866,-0.0011764443765434904,0.005732972617764781,-0.0017414930068448727
885.9833333328562,-0.0053668586,-0.7837413,0.005622841,-2.3526797,0.00031072006,1.5811348,0.78152233,0.039999958,0.039999988,0.016927266399968666,-0.0014532583482540756,0.018179490032554924,-0.00933994251855781,-0.055705625443980104,-0.011981459814290918,0.9999789668949608,-0.0012571716636977173,0.006089348284726955,-0.0018452979602586411
885.9999999995229,-0.005680629,-0.78370005,0.005939603,-2.3524747,0.00032302842,1.5817118,0.78126824,0.039999958,0.039999995,0.01753067784417972,-0.0014795586901531236,0.018832509950295062,-0.00968445307229143,-0.05718787197407088,-0.01242477700019453,0.9999763365274217,-0.001340991382123291,0.00645865035719631,-0.0019529369864492092
886.0166666661895,-0.006005369,-0.78365767,0.006267451,-2.3522627,0.00033577718,1.5823085,0.7810054,0.039999958,0.039999995,0.01726492898885823,-0.0015221195096372809,0.018219403596808625,-0.010032669625106233,-0.05868395836364001,-0.012873669110045493,0.9999734522393106,-0.001427777627294969,0.006840633662811136,-0.0020644608820915462
886.0333333328562,-0.0063411985,-0.783614,0.0066065025,-2.3520434,0.00034896875,1.5829262,0.7807335,0.039999958,0.039999995,0.018263408132623837,-0.0015469646995151841,0.019308654605199038,-0.010386082009775552,-0.0601984963071493,-0.013328824220759025,0.9999702922280973,-0.0015176426514813836,0.007235976100512211,-0.0021799247484767335
886.0499999995228,-0.006688229,-0.7835688,0.006956875,-2.351817,0.00036260183,1.5835643,0.78045255,0.039999958,0.039999995,0.017573605652487778,-0.0015756451405406127,0.019022063514739784,-0.010744011785195648,-0.06172376441180037,-0.013790103868385813,0.9999668412577567,-0.0016106419684109026,0.007644282465286792,-0.0022993831835890956
886.0666666661895,-0.007046573,-0.7835221,0.007318678,-2.3515828,0.0003766702,1.5842232,0.78016245,0.039999958,0.039999995,0.018502218792071368,-0.0015958021895256386,0.019388280569421212,-0.011106231517526854,-0.06326555204951495,-0.014257350639930362,0.999963078191552,-0.0017067696595100127,0.008065902365832423,-0.0024228929052549594
886.0833333328561,-0.0074163377,-0.783474,0.00769202,-2.351341,0.00039119765,1.5849031,0.7798631,0.039999958,0.039999995,0.018723476230642078,-0.0016409869911774774,0.019597218426836704,-0.011473511152871825,-0.06482047391982979,-0.014730612168926864,0.9999589818715708,-0.0018060817619793825,0.008501035962669,-0.002550496148232156
886.0999999995228,-0.007797624,-0.78342474,0.008077004,-2.3510916,0.0004061754,1.5856042,0.7795544,0.039999958,0.039999995,0.019029034884421314,-0.001664185679443376,0.019437172812675207,-0.011844791199051363,-0.06638577017636017,-0.015209677936431795,0.9999545308855762,-0.0019086354405246518,0.00894979358803473,-0.002682250341452059
886.1166666661894,-0.008190527,-0.78337383,0.008473729,-2.3508346,0.00042161104,1.5863265,0.77923626,0.039999958,0.039999995,0.018641434018817904,-0.0016986253772359981,0.019742981790216163,-0.012220501322796114,-0.06796391210321932,-0.015694459960142803,0.999949705488589,-0.0020144905249272213,0.009412017035681178,-0.0028182009383751717
886.1333333328561,-0.008595143,-0.7833215,0.008882289,-2.35057,0.00043750735,1.5870708,0.77890867,0.039999958,0.039999995,0.019159074555252786,-0.0017247713115215932,0.0202324438445034,-0.012600179212619234,-0.06955414842391575,-0.016184912250511066,0.999944479242134,-0.0021236152913516144,0.009888203567328427,-0.0029583984658692387
886.1499999995227,-0.00901156,-0.78326774,0.009302775,-2.3502975,0.00045386422,1.5878366,0.7785714,0.039999958,0.039999995,0.019413458235773007,-0.0017605758048148522,0.019870891003037627,-0.01298397114164333,-0.07115327652921338,-0.016680898440860695,0.9999388308710166,-0.002236131030625683,0.010378164233344648,-0.003102892435137353
886.1666666661894,-0.009439862,-0.78321266,0.009735272,-2.350017,0.00047069453,1.5886242,0.7782247,0.039999958,0.039999995,0.019710403965378376,-0.0017965482507501396,0.020039686265804768,-0.013371743007862428,-0.07276341940613781,-0.017182364141668474,0.9999327347010861,-0.002351948941740229,0.010882127571561083,-0.0032517239887225615
886.183333332856,-0.009880132,-0.7831561,0.010179864,-2.3497286,0.00048798363,1.5894339,0.7778681,0.039999958,0.039999995,0.02004442618586122,-0.0018193315682472032,0.02039569253626805,-0.01376409569706298,-0.07438206820317436,-0.017689253961328463,0.9999261641754179,-0.002471281753863267,0.011400231318089418,-0.0034049507811637508
886.1999999995227,-0.010332441,-0.7830978,0.010636623,-2.3494318,0.00050575385,1.5902655,0.7775019,0.039999958,0.039999995,0.02019374870081414,-0.001865885477448639,0.02052138688219962,-0.014159290948006196,-0.07600829640462856,-0.01820130828567688,0.999919095128198,-0.002593985022651891,0.011932405519422672,-0.003562602732273852
886.2166666661893,-0.010796867,-0.78303784,0.011105627,-2.349127,0.0005239886,1.5911194,0.77712595,0.039999954,0.039999995,0.01961124928471225,-0.0018785941657999301,0.020514225645595907,-0.014559003198814348,-0.07764409613089984,-0.01872025838159767,0.9999115018875916,-0.0027201215154656426,0.012478608812677925,-0.00372473541910484
886.233333332856,-0.011273474,-0.7829766,0.011586945,-2.3488147,0.00054270506,1.5919957,0.7767401,0.039999954,0.039999995,0.01976127857949983,-0.0019269338213868947,0.020226021446689835,-0.014963178522034288,-0.07928785788194659,-0.01924259537592701,0.9999033556746599,-0.002849817339254065,0.013038978097512848,-0.003891388166178573
886.2499999995226,-0.011762331,-0.7829139,0.012080642,-2.3484945,0.0005619031,1.5928947,0.7763443,0.03999995,0.039999995,0.020034609026975403,-0.001955590866736497,0.02061278481322315,-0.015370517154378035,-0.08093951746119388,-0.01977079309909335,0.999894627449935,-0.002983048705761717,0.013613620574187545,-0.004062604095492683
886.2666666661893,-0.012263493,-0.7828495,0.012586776,-2.3481665,0.00058157777,1.5938163,0.7759385,0.039999947,0.039999995,0.019819643728413716,-0.0019816498997601243,0.02072000054171852,-0.015781642132490573,-0.08259809758323097,-0.020303844153266876,0.9998852903132213,-0.0031198841693988043,0.014202404342008933,-0.004238425287869407
886.2833333328559,-0.0127770165,-0.78278345,0.013105408,-2.3478305,0.0006017341,1.5947608,0.7755227,0.039999943,0.039999995,0.02008887376747648,-0.002023213240600263,0.020793222606929618,-0.016195921317391955,-0.08426357774662475,-0.020841718210862434,0.9998753126799387,-0.003260333848688558,0.014805495287528066,-0.004418894169472924
886.2999999995226,-0.013302958,-0.782716,0.013636584,-2.3474855,0.00062236463,1.5957278,0.77509695,0.03999994,0.039999995,0.0222761815156014,-0.0020574995124777486,0.020904078615902044,-0.016613697336395675,-0.08593697971736466,-0.02138429460088129,0.9998646568564556,-0.003404375525866227,0.015423386815111824,-0.00460405644540921
886.3166666661892,-0.013841362,-0.78264695,0.014180358,-2.3471324,0.000643485,1.596718,0.77466106,0.039999936,0.039999995,0.02076295283004459,-0.0020967881117520733,0.020965204331790943,-0.01703535365498606,-0.08761062339147008,-0.02193152926301283,0.9998532947546835,-0.003552111350121329,0.016055826496467047,-0.004793945001315297
886.3333333328559,-0.014392272,-0.78257626,0.014736772,-2.3467712,0.0006650875,1.597731,0.7742149,0.039999932,0.039999995,0.020606854321125745,-0.002124396375119712,0.0208234771000404,-0.017460135825174854,-0.089287869369475,-0.0224832577439304,0.9998411971686972,-0.003703612732323523,0.016702621140567715,-0.004988601410207715
886.3499999995225,-0.014955728,-0.7825039,0.015305871,-2.3464022,0.0006871898,1.5987673,0.7737587,0.03999993,0.03999999,0.02037861096311211,-0.002171973347189944,0.02094702111425928,-0.017887720342940106,-0.09097138010664106,-0.023038616853601642,0.9998283310633682,-0.0038588041315987826,0.017363816334589003,-0.005188055128119568
886.3666666661892,-0.015531769,-0.78243,0.015887685,-2.3460248,0.0007097777,1.5998266,0.77329224,0.039999925,0.03999999,0.021315563791035608,-0.002194607253849009,0.020867338492358556,-0.018318618194506833,-0.09265950599193717,-0.02359920181178423,0.9998146596551081,-0.004017785820744243,0.01803957548568385,-0.005392351262226298
886.3833333328558,-0.016120423,-0.7823545,0.016482249,-2.3456392,0.0007328545,1.600909,0.77281564,0.03999992,0.03999999,0.02094170356405911,-0.002235414336565055,0.020848394631078904,-0.01875250765942669,-0.09435020883357556,-0.0241640738841029,0.9998001505485188,-0.004180515274860167,0.01872979424112776,-0.005601523264342835
886.3999999995225,-0.01672172,-0.78227764,0.017089596,-2.3452454,0.00075642864,1.602015,0.7723286,0.039999917,0.03999999,0.02192035513284285,-0.002288616369821271,0.021082179985754124,-0.019189699461598476,-0.0960434065393472,-0.02473321404595326,0.9997847583786142,-0.0043471588108330225,0.019434962562452442,-0.0058156129758950076
886.4166666661891,-0.017335689,-0.782199,0.017709753,-2.3448431,0.00078049325,1.6031443,0.7718314,0.039999913,0.03999999,0.021323873576495345,-0.002313585989035735,0.02105938746688185,-0.019629187431848993,-0.09773619780288831,-0.025306406199579377,0.9997684553618291,-0.004517612982307188,0.02015464785422187,-0.006034650465169961
886.4333333328558,-0.017962342,-0.7821188,0.018342733,-2.3444328,0.0008050517,1.6042966,0.77132404,0.039999913,0.03999999,0.021099829449844343,-0.0023518215733992452,0.020635305829475037,-0.020071401636604702,-0.09943090846098153,-0.025882696315461928,0.9997512082324873,-0.004691865156234459,0.020888684908826987,-0.006258664539443666
886.4499999995224,-0.018601712,-0.78203684,0.018988555,-2.3440135,0.00083011185,1.6054724,0.7708063,0.03999991,0.03999999,0.022888130474507662,-0.002397195358511215,0.021500845360122867,-0.02051747883195961,-0.10112826075809465,-0.026463950886525672,0.9997329640011867,-0.004870050779048498,0.021637771155741427,-0.006487692519151284
886.4666666661891,-0.019253794,-0.7819532,0.019647243,-2.3435853,0.00085567305,1.6066715,0.7702783,0.03999991,0.03999999,0.022449924384693176,-0.0024648532922175517,0.02096915028035884,-0.02096565367059661,-0.10282240235845355,-0.02704818742874762,0.9997136907436199,-0.005052169606442412,0.02240156169495175,-0.006721767302197309
886.4833333328558,-0.019918608,-0.7818682,0.020318797,-2.343149,0.00088173547,1.6078942,0.76974,0.039999906,0.03999999,0.021833643259361324,-0.002473548544581778,0.020878435758464597,-0.02141648326759331,-0.10451483194237644,-0.027637128046486676,0.9996933472164512,-0.005238203163757462,0.02318012837318813,-0.0069609200099932005
886.4999999995224,-0.02059616,-0.78178155,0.021003222,-2.3427043,0.0009082881,1.6091403,0.7691914,0.039999902,0.03999999,0.021855121212777107,-0.002502564923169935,0.020847232390575066,-0.021869754832128968,-0.1062051037214999,-0.028229664579798794,0.9996718979406739,-0.005428201505377768,0.02397324432189415,-0.00720518235651684
886.516666666189,-0.021286443,-0.7816932,0.021700524,-2.3422515,0.0009353379,1.6104097,0.7686324,0.039999902,0.03999999,0.021516062507265232,-0.0025578305285963235,0.020698990262202344,-0.022326028759093126,-0.10789382262883868,-0.028824984353380535,0.9996493051082549,-0.00562222147720387,0.024780771709104147,-0.007454580856474238
886.5333333328557,-0.021989476,-0.7816032,0.022410706,-2.3417904,0.00096289045,1.6117026,0.7680631,0.0399999,0.039999988,0.022003768359768472,-0.002592151504495887,0.02074943739487356,-0.022784150540092075,-0.10958282567795205,-0.029423797523200436,0.9996255248214814,-0.0058202488513589,0.02560281094198178,-0.007709143957376341
886.5499999995224,-0.02270524,-0.78151166,0.023133751,-2.3413215,0.0009909385,1.613019,0.7674835,0.039999895,0.039999988,0.021474586566183618,-0.0026196340812656774,0.020602011034553946,-0.023244489660145855,-0.11126893863817892,-0.030026917772250816,0.9996005164016225,-0.006022338150731535,0.026439282998473305,-0.007968900007809775
886.566666666189,-0.023433723,-0.78141814,0.023869665,-2.340844,0.0010194776,1.6143588,0.7668936,0.03999989,0.039999988,0.0222301668940883,-0.002693649814703228,0.020925264590476722,-0.02370695902065925,-0.11295433674083744,-0.030633464857891934,0.9995742368167503,-0.006228435633945157,0.027290198674922828,-0.008233877461331003
886.5833333328557,-0.024174923,-0.78132325,0.024618432,-2.3403585,0.0010485104,1.6157218,0.76629347,0.03999989,0.039999988,0.021707097949130727,-0.002708746994691414,0.020130479882829455,-0.024172001285276107,-0.11463550004653911,-0.0312431912808215,0.99954664568163,-0.006438612677179536,0.028155418208648957,-0.00850410482597571
886.5999999995223,-0.02492882,-0.78122675,0.025380041,-2.3398635,0.0010780421,1.6171083,0.7656829,0.039999884,0.039999984,0.024498657979865612,-0.002815213768120068,0.02108196600552059,-0.024639394729269588,-0.11631458895054227,-0.031856146019401746,0.9995176743088605,-0.006652970034228369,0.029035754705341234,-0.008779617453019814
886.616666666189,-0.025695393,-0.78112864,0.026154459,-2.3393605,0.0011080831,1.6185182,0.7650622,0.03999988,0.03999998,0.022053609375083383,-0.002808585498325321,0.02034748944215181,-0.025107554693626195,-0.11798302444288564,-0.03247121887594568,0.9994873004784409,-0.00687134287669643,0.02993041464388822,-0.00906041437431734
886.6333333328556,-0.026474632,-0.7810289,0.026941683,-2.3388495,0.0011386148,1.6199512,0.7644312,0.039999876,0.03999998,0.021633547154076282,-0.0028478020356545626,0.020021158047045517,-0.0255788617263878,-0.11964701789711397,-0.03309024696145073,0.9994554849207242,-0.007093908327690552,0.03083913691313264,-0.009346537378704323
886.6499999995223,-0.0272665,-0.78092736,0.02774168,-2.3383303,0.0011696332,1.6214073,0.7637901,0.03999987,0.03999998,0.02222720554012625,-0.0029019317884853776,0.02021869417350164,-0.026051261855564237,-0.12130816809190426,-0.03371294129926947,0.99942218120677,-0.007320550884652601,0.03176196110015772,-0.00963800154179643
886.6666666661889,-0.028070979,-0.7808242,0.028554415,-2.3378026,0.0012011422,1.6228864,0.76313853,0.03999987,0.03999998,0.02262794217440245,-0.002938375555576987,0.02010176938445074,-0.026526293908719797,-0.12296559591005968,-0.034336736847677775,0.9993873357987495,-0.007551471072024605,0.03269904226985206,-0.009934835900022719
886.6833333328556,-0.028888023,-0.7807196,0.029379858,-2.3372672,0.0012331267,1.6243885,0.762477,0.039999858,0.03999998,0.022000296034940803,-0.002977796825996866,0.019566479665100722,-0.027001778982605307,-0.12461517425254891,-0.03496573724464364,0.9993509115593442,-0.007786492373159766,0.03365009206661429,-0.010237060414920606
886.6999999995222,-0.029717613,-0.7806134,0.03021798,-2.3367238,0.001265597,1.6259141,0.7618052,0.039999858,0.03999998,0.022208963049807906,-0.003021691869566339,0.02009595888916582,-0.02747954529627784,-0.1262604085868249,-0.03559471276866078,0.9993128497068233,-0.0080257624665431,0.034615384467602296,-0.010544700366463912
886.7166666661889,-0.0305597,-0.7805056,0.031068737,-2.3361723,0.0012985407,1.6274632,0.7611234,0.039999854,0.039999984,0.022531058029695572,-0.0030753903793308973,0.020117233025818138,-0.0279586159357179,-0.12789852291080228,-0.036227966604949514,0.9992731022203964,-0.008269169444082182,0.0355948981095989,-0.010857773441060266
886.7333333328555,-0.031414244,-0.78039604,0.031932104,-2.3356123,0.0013319851,1.6290352,0.76043135,0.039999854,0.039999984,0.023162057252168466,-0.0031762624665030922,0.019853377174450237,-0.028439618577177375,-0.1295258877824994,-0.03686185867073385,0.9992316211413851,-0.008516928211097622,0.03658851850928727,-0.011176294479927799
886.7499999995222,-0.032281205,-0.78028506,0.032808006,-2.3350437,0.0013659018,1.6306297,0.7597295,0.03999985,0.039999988,0.02342012182947606,-0.0031684223652864163,0.01926107482008721,-0.02892073368040337,-0.13114404393049742,-0.0374997278409825,0.9991883619199182,-0.008768786179501284,0.03759613564766827,-0.011500277261478663
886.7666666661888,-0.033160515,-0.78017277,0.033696417,-2.3344665,0.0014003023,1.6322469,0.7590173,0.039999846,0.039999988,0.023779977216564774,-0.003284703458907544,0.019377929965047613,-0.02940450905602636,-0.1327519666918725,-0.03813905822586368,0.9991432618305031,-0.009025093641931173,0.03861796029579219,-0.01182975764966785
886.7833333328555,-0.034052156,-0.78005886,0.03459727,-2.3338816,0.001435186,1.6338868,0.7582953,0.039999846,0.03999999,0.021854921676789374,-0.0032370318766804934,0.019113736953779714,-0.02988747427611923,-0.13434750888876884,-0.038780316417350004,0.9990962966744433,-0.00928556014524806,0.03965334647163723,-0.012164721854684403
886.7999999995221,-0.034956045,-0.77994305,0.035510533,-2.3332887,0.0014705503,1.6355493,0.75756365,0.03999985,0.039999995,0.022341232435252323,-0.0033567528097399116,0.01925174555172937,-0.030372840274634147,-0.13593555213856728,-0.03942284852086071,0.9990474172432192,-0.009550185111867225,0.04070224077652779,-0.012505185314566165
886.8166666661888,-0.035872154,-0.77982545,0.036436133,-2.3326876,0.0015063962,1.6372342,0.7568223,0.039999846,0.039999995,0.02252376110543075,-0.0033636996685890153,0.01902543415230884,-0.030859936037290377,-0.13751497696387932,-0.040068220381965176,0.9989965722422447,-0.009819013167153447,0.041764618119190806,-0.012851159559626773
886.8333333328554,-0.036800403,-0.77970654,0.03737402,-2.3320787,0.0015427183,1.6389416,0.7560707,0.03999984,0.03999999,0.02279601632020345,-0.00344586772064049,0.018650930586350256,-0.031348567575242535,-0.1390838028395896,-0.04071639798220414,0.998943699141363,-0.01009235604328371,0.04284062831689345,-0.013202683843792452
886.8499999995221,-0.03774075,-0.7795864,0.038324114,-2.3314621,0.0015795103,1.6406711,0.7553092,0.039999835,0.03999999,0.02235735631468394,-0.0034454282091695224,0.018108331819033374,-0.031835990027471346,-0.14064098884269965,-0.04136514535430253,0.9988887614363517,-0.010370021382098495,0.04392992109252596,-0.013559755362489243
886.8666666661887,-0.038693104,-0.7794645,0.039286364,-2.330838,0.0016167687,1.6424229,0.754538,0.03999983,0.03999999,0.021979888280254656,-0.0035269833251050722,0.01850715589539753,-0.03232418824121581,-0.14218637714490667,-0.04201541784104587,0.9988317119045463,-0.010652034690310827,0.04503235228943719,-0.013922381192510993
886.8833333328554,-0.039657403,-0.7793409,0.040260702,-2.3302062,0.0016544771,1.6441966,0.7537571,0.039999824,0.03999999,0.022002153900801957,-0.0035705969407365604,0.01814463324989468,-0.0328124044308547,-0.14372264596442136,-0.042667974219360194,0.9987725050679939,-0.010938370459182391,0.04614774781383198,-0.01429057534226312
886.899999999522,-0.040633585,-0.77921605,0.04124705,-2.3295665,0.0016926372,1.6459923,0.7529665,0.039999817,0.03999999,0.022931200734666035,-0.0036247920070649545,0.017940858652898406,-0.03330131464455449,-0.14524756099999023,-0.04332183776348044,0.9987110734712977,-0.01122908648674511,0.04727637852665205,-0.014664357329457822
886.9166666661887,-0.041621562,-0.77908975,0.04224533,-2.328919,0.0017312489,1.6478093,0.7521664,0.03999981,0.03999999,0.022653014325557663,-0.0036854533554391,0.017517368411223977,-0.03378982332017108,-0.14675835053176867,-0.04397681141975239,0.9986473809434112,-0.011524132394241375,0.04841786246159666,-0.015043719688797917
886.9333333328553,-0.04262127,-0.77896196,0.043255467,-2.3282635,0.001770321,1.649648,0.75135666,0.039999813,0.039999995,0.0228116459318084,-0.0037456600054202455,0.017735238997995673,-0.03427879195979186,-0.14825780256540835,-0.044631066544340854,0.9985813657792889,-0.011823575220596176,0.04957232125029616,-0.015428673087155044
886.949999999522,-0.043632634,-0.7788323,0.044277396,-2.3276005,0.0018098857,1.6515079,0.7505376,0.039999798,0.039999973,0.021874067293081723,-0.0038092881997539227,0.01745736934071207,-0.03476788586431349,-0.14974314754438367,-0.04528457646385921,0.9985130020405102,-0.012127331681668416,0.05073919476913145,-0.015819187605906285
886.9666666661886,-0.044655558,-0.77870166,0.045310996,-2.32693,0.001849867,1.6533891,0.7497092,0.039999794,0.039999973,0.0225753462559819,-0.0037938206286409343,0.01684475453083145,-0.03525693481407765,-0.15121638325304526,-0.04594165884795429,0.9984422173237957,-0.012435398272986491,0.05191881279711727,-0.016215314152755685
886.9833333328553,-0.045689955,-0.77856934,0.04635622,-2.3262522,0.0018903174,1.6552919,0.74887145,0.03999978,0.03999995,0.021984525077201056,-0.003919985466283721,0.017355144913588916,-0.035746263273941266,-0.15267354277649817,-0.046596760354524286,0.9983689670574876,-0.012747862869094092,0.05311093995249931,-0.016617029403545473
886.999999999522,-0.04673575,-0.77843535,0.047412958,-2.3255668,0.0019311892,1.6572156,0.7480245,0.039999776,0.039999947,0.022216538338204472,-0.003917516799923325,0.01686277350494425,-0.03623510635090496,-0.15411615058814196,-0.04725420798373686,0.9982932100585484,-0.013064660551538852,0.05431531201182187,-0.017024343650500488
887.0166666661886,-0.047792852,-0.77829975,0.048481125,-2.3248737,0.001972498,1.6591597,0.7471684,0.03999977,0.039999932,0.022186463214213248,-0.003989006243898877,0.016411263490567762,-0.03672385463078194,-0.1555454741579574,-0.04791040254242743,0.9982149032394332,-0.013385825873725584,0.055531693349738724,-0.017437248925155642
887.0333333328552,-0.048861157,-0.7781632,0.049560633,-2.3241735,0.0020142253,1.6611247,0.74630326,0.03999976,0.03999993,0.02244538150062425,-0.004054672961946448,0.016152448581663315,-0.03721180183666481,-0.15696059505382864,-0.04857062448525758,0.9981339701847741,-0.013711343556611933,0.056760443332408934,-0.017855774801488016
887.0499999995219,-0.049940586,-0.77802485,0.050651383,-2.3234656,0.0020563747,1.66311,0.74542916,0.039999753,0.03999993,0.022106201118043955,-0.004093670491837724,0.016284639962904635,-0.03769915507614886,-0.158357365104051,-0.0492307980457249,0.9980503868196569,-0.014041189558717455,0.058001000450935966,-0.01827988817252615
887.0666666661886,-0.051031023,-0.777885,0.05175327,-2.3227506,0.0020989452,1.6651155,0.74454594,0.039999753,0.039999932,0.02165401732403538,-0.004148103459706773,0.015751798202989775,-0.03818611531943222,-0.15974050313398852,-0.04989031946704637,0.9979641056953404,-0.014375492006548475,0.05925318653657255,-0.018709592687473433
887.0833333328552,-0.052132376,-0.7777444,0.052866206,-2.3220282,0.002141965,1.6671411,0.743654,0.039999742,0.039999925,0.023016855458379837,-0.004268267658429428,0.015296767374373132,-0.03867139177615277,-0.16110741861492717,-0.05054985896205879,0.9978750457965028,-0.014714077871894923,0.06051745273526772,-0.01914488974745097
887.0999999995219,-0.053244546,-0.7776021,0.053990074,-2.321299,0.0021853917,1.6691866,0.7427532,0.039999735,0.03999992,0.020603042783040593,-0.004204638459119961,0.015401938547343619,-0.039156429341726445,-0.1624548479976398,-0.05120890101692039,0.997783208123106,-0.015057069770868795,0.06179281819332561,-0.019585756487925404
887.1166666661885,-0.05436742,-0.777458,0.05512477,-2.3205626,0.0022292328,1.6712519,0.74184376,0.03999973,0.03999992,0.02191240652447135,-0.004327514226246804,0.015503116081294621,-0.0396400123358155,-0.16378855577184256,-0.05186870551435746,0.9976885214299505,-0.015404400284750786,0.06307955462944545,-0.020032185266147664
887.1333333328552,-0.0555009,-0.7773133,0.05627019,-2.3198187,0.002273464,1.6733369,0.74092585,0.03999972,0.03999992,0.023235945506483446,-0.004398039515861318,0.014634901600585337,-0.040122036071006874,-0.165104916039436,-0.05252902420334505,0.997590900252703,-0.015756005876760366,0.0643781096429756,-0.020484213692741136
887.1499999995218,-0.056644876,-0.7771669,0.05742624,-2.3190682,0.0023180994,1.6754409,0.73999935,0.039999712,0.039999917,0.020590746983861763,-0.004410465429868435,0.014537724942065289,-0.040603611642842166,-0.16639748323149114,-0.053186684821953656,0.9974903631834061,-0.016111989217640524,0.06568729540113465,-0.02094178556310943
887.1666666661885,-0.05779922,-0.77701885,0.05859278,-2.3183107,0.002363138,1.677564,0.73906446,0.03999971,0.039999917,0.021099997890905442,-0.0044698574472881725,0.014544093103863176,-0.04108360378778658,-0.16767588585992255,-0.05384355019040277,0.997386850127895,-0.016472301982015415,0.06700720518544552,-0.021404880579088036
887.1833333328551,-0.058963854,-0.77687013,0.059769705,-2.317547,0.002408576,1.679706,0.73812133,0.0399997,0.039999917,0.02102361691456167,-0.004482969419065258,0.01337139161994294,-0.04156177266624153,-0.1689385124955658,-0.054500690685135564,0.9972803061662123,-0.016836861409964897,0.06833784069767372,-0.02187351274183051
887.1999999995218,-0.060138635,-0.77671987,0.060956888,-2.3167763,0.0024543866,1.6818666,0.73716986,0.039999697,0.03999992,0.021689797680313205,-0.004578461138315948,0.014136808498821374,-0.04203885012549731,-0.17018125468907772,-0.05515656643036021,0.9971706771537635,-0.017205794569382083,0.06967914359410136,-0.022347666677612302
887.2166666661884,-0.061323445,-0.7765682,0.062154222,-2.315999,0.002500595,1.6840458,0.7362103,0.03999969,0.03999992,0.020535569896162897,-0.004627332759019401,0.013554350706623808,-0.04251340281477208,-0.17140522864440244,-0.0558112649927929,0.9970579401191472,-0.017579016078358555,0.07103067243579139,-0.02282730409836514
887.2333333328551,-0.06251816,-0.77641547,0.06336158,-2.3152156,0.0025471975,1.6862433,0.73524266,0.039999686,0.039999917,0.020643394719233044,-0.004679802791959786,0.01302715053270731,-0.04298665652420068,-0.17261220930270085,-0.05646297449867534,0.9969420396158815,-0.017956528235362708,0.07239242911106211,-0.023312420459028423
887.2499999995217,-0.063722685,-0.77626115,0.06457883,-2.3144262,0.0025941415,1.6884584,0.7342672,0.03999967,0.039999917,0.019275051080036576,-0.004612348905314728,0.012764290016553659,-0.04345712294351246,-0.17379833602668113,-0.057116545406774535,0.9968229809014028,-0.018338260360419308,0.07376361489870963,-0.023802984495011812
887.2666666661884,-0.06493686,-0.77610594,0.06580589,-2.31363,0.0026414567,1.6906917,0.7332839,0.039999668,0.039999917,0.021700414124437017,-0.004875644242603727,0.012784862624370952,-0.043926393009685503,-0.17497267130044256,-0.05776691604024775,0.9967006399419835,-0.01872426166032117,0.07514515221082001,-0.024299021867744443
887.283333332855,-0.06616056,-0.77594924,0.06704258,-2.3128273,0.0026891597,1.6929425,0.7322928,0.039999668,0.039999917,0.020809451679815183,-0.004862811385857729,0.012685810215495863,-0.044393408256535385,-0.1761207196724373,-0.05841337384838096,0.996575008307055,-0.01911455465040064,0.07653642114180455,-0.024800460824633476
887.2999999995217,-0.06739368,-0.77579147,0.0682888,-2.3120182,0.0027372178,1.6952103,0.73129404,0.039999656,0.039999917,0.02076068427010469,-0.004894237883805441,0.011909959904499168,-0.044857276219401485,-0.177250245736164,-0.059060835869854826,0.9964460456795605,-0.019509072645055886,0.07793724545231946,-0.025307309327584685
887.3166666661883,-0.0686361,-0.7756327,0.06954442,-2.3112032,0.0027856282,1.6974956,0.7302879,0.03999965,0.039999917,0.019776962754258776,-0.004902839247133278,0.011783458170810945,-0.045318467861773674,-0.17835777777348066,-0.05970508097291397,0.9963137134321767,-0.019907731621162734,0.07934745195045877,-0.025819537518247743
887.333333332855,-0.069887646,-0.7754722,0.07080925,-2.310383,0.002834391,1.6997974,0.7292744,0.039999645,0.039999917,0.017836366253565217,-0.0048544443663586095,0.01140979944365128,-0.045777980548145115,-0.1794453085762998,-0.060346051691757496,0.9961780403233002,-0.020310556970641117,0.08076603620303238,-0.026337058477025117
887.3499999995216,-0.0711482,-0.77531105,0.07208319,-2.3095565,0.002883503,1.7021161,0.7282534,0.039999634,0.039999913,0.02137278146983057,-0.005079187981767153,0.01133240838029348,-0.04623482695825169,-0.18051902845641402,-0.060986039769114486,0.9960388721681143,-0.020717631092759817,0.08219421423465888,-0.026859933699136918
887.3666666661883,-0.072417624,-0.7751486,0.07336612,-2.3087237,0.0029329502,1.704451,0.7272255,0.03999963,0.039999913,0.01992760964881768,-0.005118588887705056,0.010999703091774116,-0.04668787551228022,-0.1815667573102664,-0.06162215246644425,0.9958962301325988,-0.021128762220140995,0.08363113450419438,-0.02738809150459209
887.3833333328549,-0.07369579,-0.77498525,0.074657895,-2.3078854,0.0029827212,1.706802,0.7261903,0.039999623,0.039999917,0.01934323419319206,-0.005106837678599263,0.010429616040008582,-0.04713871741097382,-0.18259281645154907,-0.062257539424171726,0.995750066216855,-0.021544085498536657,0.0850767064715905,-0.02792153335881341
887.3999999995216,-0.07498256,-0.7748205,0.07595837,-2.3070416,0.0030328191,1.7091687,0.7251482,0.039999615,0.039999917,0.018420912835903636,-0.005115553420855304,0.01035036653544985,-0.047585746683286106,-0.18359764511561827,-0.06288868855678097,0.9956003850227584,-0.021963512878197047,0.08653031442092063,-0.028460185009961735
887.4166666661882,-0.07627777,-0.7746548,0.07726741,-2.3061922,0.0030832146,1.7115511,0.72409916,0.03999961,0.039999925,0.01955776938280529,-0.005247635484042015,0.010099702410593103,-0.04802934430258244,-0.18458498545738555,-0.0635187387296529,0.9954471007211793,-0.022387071472034704,0.08799234688835039,-0.029004061539455776
887.4333333328549,-0.077581316,-0.774488,0.07858484,-2.3053372,0.00313395,1.7139487,0.72304356,0.039999604,0.03999992,0.018763631326290664,-0.005217376058451809,0.009737177247304274,-0.04846948093708242,-0.18554727984867087,-0.06414257824569586,0.995290209224714,-0.022814582290889663,0.08946233901828343,-0.029553073506744812
887.4499999995215,-0.078893006,-0.77432036,0.079910524,-2.3044767,0.0031849896,1.7163615,0.7219812,0.039999593,0.039999917,0.019218481600136172,-0.005325206638944618,0.009323800004668037,-0.048906542120030046,-0.18648852732590998,-0.06476407991301197,0.995129648090688,-0.023246190026174025,0.09094038009071853,-0.03010723184096955
887.4666666661882,-0.08021272,-0.77415144,0.08124435,-2.3036113,0.0032363355,1.7187892,0.7209124,0.039999586,0.039999917,0.017647376919782687,-0.005333653302894148,0.0092981651310442,-0.04933947371593425,-0.18740591305908263,-0.06538186688691754,0.9949654296609399,-0.023681812647292244,0.09242582518700124,-0.030666469765225635
887.4833333328548,-0.08154032,-0.77398175,0.082586125,-2.3027408,0.0032879766,1.7212309,0.7198371,0.03999958,0.039999917,0.017944908270139948,-0.0053332408025384,0.00820090618653957,-0.04976846259583541,-0.18830387387005765,-0.06599578355273279,0.9947975288373644,-0.024121418526991237,0.09391844206484404,-0.03123075451268399
887.4999999995215,-0.08287562,-0.77381086,0.083935685,-2.3018646,0.0033399188,1.7236867,0.7187557,0.039999574,0.039999917,0.018898712144022056,-0.005460352495497214,0.00880024549831937,-0.05019370104989109,-0.1891814623417458,-0.06660500778819088,0.9946258776697491,-0.024564922411767817,0.09541847896438714,-0.03180003032558392
887.5166666661881,-0.0842185,-0.77363914,0.08529291,-2.3009841,0.003392136,1.7261567,0.7176682,0.03999956,0.039999917,0.016796335967272924,-0.00538296594191634,0.00801117437487786,-0.05061461439663994,-0.1900351953559814,-0.06721296969044901,0.9944504818665189,-0.025012332981876433,0.09692537526750493,-0.03237427904224718
887.5333333328548,-0.0855688,-0.7734662,0.08665765,-2.3000987,0.003444601,1.7286406,0.71657467,0.039999556,0.039999925,0.01755191887351515,-0.005484571719723344,0.008170143983354805,-0.05103156362211674,-0.1908665962304244,-0.0678164608062439,0.9942712987199738,-0.02546361548228903,0.09843911022894931,-0.03295345817360589
887.5499999995214,-0.08692634,-0.7732926,0.08802974,-2.2992074,0.0034973691,1.7311374,0.71547514,0.039999552,0.039999925,0.019122486505462888,-0.0056918782157303754,0.007419072928405157,-0.05144450862697304,-0.19167553148844194,-0.06841276864238074,0.9940882651967836,-0.025918834902433466,0.09995983693003059,-0.03353753115945053
887.5666666661881,-0.088291,-0.773118,0.08940902,-2.2983127,0.0035504098,1.7336476,0.71436983,0.039999545,0.03999992,0.015130866956569733,-0.005444076859792424,0.0070736612173716296,-0.05185215393580489,-0.19245895055987144,-0.06900415024867139,0.9939014440998538,-0.026377866130395562,0.1014865288143257,-0.03412641299420705
887.5833333328547,-0.089662604,-0.77294254,0.09079534,-2.2974133,0.003603728,1.7361703,0.71325904,0.039999533,0.03999992,0.016611610390837583,-0.005602767836445505,0.006697729521598639,-0.0522549062504151,-0.19322284785932362,-0.06959272335661201,0.9937107892449403,-0.02684060087384769,0.10301925698762789,-0.03472005432953303
887.5999999995214,-0.091041006,-0.7727663,0.09218849,-2.2965093,0.0036572781,1.7387059,0.7121428,0.039999522,0.03999992,0.017419126715045863,-0.005610909355379529,0.006842248202021395,-0.0526536292363647,-0.19396515206947818,-0.070176570225186,0.9935162221063168,-0.027307036778423294,0.10455835460308004,-0.035318446124793346
887.616666666188,-0.092426024,-0.77258897,0.093588345,-2.295601,0.0037110862,1.7412535,0.711021,0.039999522,0.03999992,0.015833924780928044,-0.0056489863921937306,0.006278066031839558,-0.053048471490588806,-0.19468060130981552,-0.07075221304025577,0.9933177845205007,-0.027777296745386558,0.10610299875715373,-0.03592150324725045
887.6333333328547,-0.09381751,-0.7724111,0.09499477,-2.2946882,0.003765132,1.7438128,0.7098941,0.0399995,0.039999917,0.016381736208348485,-0.005750126144623072,0.005581716813951587,-0.05343619949533067,-0.19537519257160973,-0.07132737614167145,0.9931154340416017,-0.02825114308089022,0.10765326287697245,-0.03652920167380507
887.6499999995214,-0.0952153,-0.7722322,0.09640759,-2.2937722,0.0038193911,1.7463838,0.7087619,0.039999492,0.039999917,0.014006584244441456,-0.005626852981820488,0.005605590198221044,-0.053819937124157814,-0.19604623518762354,-0.07189477329585675,0.9929092101361687,-0.028728745422126823,0.10920838246091279,-0.03714147026588157
887.666666666188,-0.0966192,-0.77205265,0.0978266,-2.2928507,0.0038738754,1.7489661,0.70762473,0.03999949,0.03999992,0.01842481347011926,-0.0059147650860281314,0.005589395001237563,-0.054197503976094824,-0.19669783918722172,-0.07245542746922945,0.9926989559817838,-0.02920991217045653,0.11076946999413614,-0.03775828837340239
887.6833333328547,-0.098029114,-0.7718724,0.099251665,-2.2919264,0.0039285994,1.7515594,0.70648265,0.039999485,0.039999925,0.013327463482815105,-0.005640953432549389,0.004586983209264872,-0.054569492150521925,-0.19731751919309434,-0.07301012032435847,0.9924848079721064,-0.029694645742944437,0.11233496562781778,-0.038379544762400464
887.6999999995213,-0.09944484,-0.77169114,0.10068262,-2.2909973,0.003983539,1.7541633,0.7053363,0.03999947,0.03999992,0.016329949697269086,-0.005908483665912831,0.005058802876400925,-0.05493583198335468,-0.19791964473336401,-0.07355979746358426,0.992266668254375,-0.030182696918505395,0.11390548414726598,-0.03900518631239499
887.716666666188,-0.10086619,-0.77150947,0.10211928,-2.2900653,0.0040387064,1.7567776,0.70418507,0.03999947,0.03999992,0.013554762062373271,-0.005750579948692394,0.0039140739151788395,-0.05529857840661668,-0.19849529505880853,-0.07410062492611716,0.9920445771639029,-0.030674314685797427,0.11548028656503301,-0.03963517065823922
887.7333333328546,-0.102293015,-0.77132696,0.103561476,-2.2891295,0.0040940535,1.7594024,0.7030296,0.039999455,0.039999925,0.01476710084413746,-0.005845851129090279,0.004346625063278431,-0.05565380392015094,-0.19904951204692334,-0.07463970185130996,0.9918184837594385,-0.03116928330698449,0.11705957189062002,-0.040269438536465633
887.7499999995213,-0.10372515,-0.77114373,0.10500902,-2.2881904,0.0041495888,1.7620366,0.70186967,0.039999444,0.039999925,0.013615169950265127,-0.005788659880275396,0.0034310857742969603,-0.05600353979393892,-0.19957700921703384,-0.07517118843101495,0.9915884324172145,-0.03166765283163555,0.11864267050395233,-0.040907911168829164
887.7666666661879,-0.10516243,-0.77096,0.10646175,-2.2872477,0.004205329,1.7646801,0.70070577,0.03999944,0.03999992,0.014313086171879874,-0.00589493662689726,0.00329865934307616,-0.05634804258885786,-0.20008378003659433,-0.0756919863738203,0.9913543731821041,-0.03216924832035172,0.12022978034178046,-0.04155052531784053
887.7833333328546,-0.10660466,-0.7707755,0.10791951,-2.2863019,0.004261247,1.7673329,0.6995377,0.039999425,0.03999992,0.013121256191572783,-0.00587816358725568,0.0030724598105713596,-0.05668589244521713,-0.20056519868975842,-0.07620988128719361,0.9911163262180415,-0.03267419046336195,0.12182043838143673,-0.042197227091020785
887.7999999995212,-0.10805167,-0.7705903,0.1093821,-2.2853527,0.004317322,1.7699945,0.69836575,0.039999414,0.039999925,0.013420795742735692,-0.005895412866591815,0.0028401732999450147,-0.057017243186659,-0.20102319649364547,-0.07672052454018208,0.9908742743359915,-0.03318234864434853,0.12341457627927746,-0.0428479469680115
887.8166666661879,-0.109503314,-0.7704047,0.11084941,-2.2844002,0.004373563,1.7726645,0.69719005,0.039999407,0.039999925,0.01364770093417178,-0.006014076908312724,0.0023224873294536152,-0.05734232468848266,-0.2014574347280369,-0.07722195014699236,0.9906281932599224,-0.033693692915812964,0.1250121489152338,-0.04350264819378513
887.8333333328545,-0.110959366,-0.7702185,0.1123212,-2.283445,0.004429975,1.7753428,0.6960108,0.0399994,0.03999993,0.01245373281539841,-0.005931920693690723,0.002101424364120419,-0.057660435577575594,-0.20186490651851496,-0.0777165037436397,0.9903781170418735,-0.0342081156062531,0.12661270869768834,-0.04416120591080794
887.8499999995212,-0.11241971,-0.7700318,0.113797314,-2.282487,0.0044865436,1.778029,0.69482815,0.039999384,0.039999925,0.01200906551921399,-0.005892042250552412,0.0016566413303165106,-0.057972007187033964,-0.20224898624836596,-0.07820356435954415,0.9901240515689331,-0.03472558316339493,0.12821600457467466,-0.04482357136139049
887.8666666661878,-0.11388416,-0.76984453,0.11527753,-2.2815263,0.004543275,1.7807226,0.69364214,0.03999938,0.03999992,0.011707870743293824,-0.0058440902327677735,0.0014536266710329926,-0.05827781153008113,-0.2026093793539487,-0.07868083305142953,0.9898660066647075,-0.03524603919188368,0.12982179356465737,-0.045489641530846364
887.8833333328545,-0.1153525,-0.7696566,0.11676173,-2.280563,0.0046001086,1.7834234,0.6924529,0.039999366,0.039999925,0.011469298892619051,-0.005966461323603234,0.0012109852077113459,-0.05857559414132214,-0.20294511914765614,-0.07915392987950245,0.9896039851946145,-0.03576949088380998,0.13142985715577674,-0.04615938319413028
887.8999999995211,-0.11682455,-0.7694683,0.11824972,-2.2795975,0.004657101,1.7861311,0.6912607,0.03999936,0.039999925,0.011306892108198241,-0.005988365534292245,0.0007114480081060748,-0.05886689425209542,-0.20325917218363324,-0.07961595553461408,0.989337982302741,-0.036295818115585146,0.13304010212770556,-0.04683269783293931
887.9166666661878,-0.118300185,-0.76927966,0.1197413,-2.2786295,0.0047141965,1.7888453,0.6900656,0.039999347,0.03999993,0.011092052396577401,-0.005877580104961949,0.0003483578905338902,-0.059150691202155194,-0.20354812402582306,-0.08007154715351958,0.9890680111926137,-0.03682494747971704,0.13465228363070061,-0.04750952527274029
887.9333333328544,-0.11977917,-0.7690905,0.1212363,-2.2776594,0.0047714347,1.7915661,0.6888678,0.039999336,0.039999925,0.010551266976932538,-0.005972199105746395,0.0005161179427837226,-0.0594278863850899,-0.20381214620864885,-0.08051669481065032,0.9887940652137114,-0.0373568731848495,0.1362663090035307,-0.04818976711448174
887.9499999995211,-0.12126137,-0.7689008,0.12273458,-2.2766867,0.0048287786,1.7942924,0.6876673,0.03999933,0.039999925,0.010927223928902663,-0.005998970319935626,-0.0002139094957165355,-0.059697780766964845,-0.20405067596362064,-0.08095308213484692,0.9885161710904542,-0.03789156262378402,0.13788184348363755,-0.04887336915079031
887.9666666661877,-0.12274659,-0.7687108,0.124235876,-2.2757125,0.0048862104,1.7970244,0.6864645,0.03999931,0.039999925,0.008937376001272312,-0.0057824745856770166,-0.000591882959044554,-0.05995842921389263,-0.20426521902644995,-0.08138417802141625,0.9882343862974694,-0.0384288234716024,0.13949841900988388,-0.049560209438574726
887.9833333328544,-0.12423463,-0.7685205,0.12574002,-2.2747366,0.0049437387,1.7997615,0.68525934,0.039999306,0.03999993,0.009286616121695346,-0.005839132999131691,-0.0008520504975573218,-0.06021369464520902,-0.20445806777126768,-0.08180260048871968,0.9879486994149024,-0.03896867162764876,0.14111599914758172,-0.05025022129860927
887.999999999521,-0.12572533,-0.76833004,0.12724689,-2.273759,0.0050013503,1.8025035,0.68405217,0.039999295,0.03999993,0.009722818451551873,-0.0059689582103693295,-0.0012784955444322676,-0.06046075695671645,-0.20462744775816524,-0.08221289902879805,0.9876591032824915,-0.03951099313628132,0.14273455210696429,-0.0509433485298506
888.0166666661877,-0.12721848,-0.768139,0.12875627,-2.272779,0.005059078,1.80525,0.6828429,0.039999288,0.03999993,0.009501267089095933,-0.005982224322028523,-0.0009767751565581406,-0.06070094656195672,-0.2047706047952758,-0.08261275449160284,0.9873656091598728,-0.04005584253662231,0.14435389945779045,-0.05163947170880788
888.0333333328543,-0.12871394,-0.76794773,0.13026795,-2.2717981,0.0051168567,1.8080008,0.68163157,0.03999927,0.03999993,0.007499937823585157,-0.005702594150185786,-0.001893765372917855,-0.060931874835007324,-0.20488873856481876,-0.08300598161175796,0.9870683013059917,-0.040603174424046894,0.14597338681475605,-0.0523385242954384
888.049999999521,-0.13021149,-0.7677563,0.13178179,-2.2708158,0.005174706,1.8107554,0.68041867,0.03999926,0.03999993,0.00828230105218708,-0.0058855121315287695,-0.002088898324315025,-0.06115519490852034,-0.20498533915573142,-0.08338632651679048,0.9867671650266153,-0.04115276687152369,0.147593111505576,-0.05304041138846118
888.0666666661876,-0.13171099,-0.76756454,0.13329752,-2.2698326,0.0052326005,1.8135136,0.67920417,0.039999247,0.039999932,0.007187238161820986,-0.005611943440141098,-0.0022316717673831477,-0.06136963857446792,-0.20505833946609323,-0.0837607774732225,0.9864622456276262,-0.04170460406458741,0.14921271919068366,-0.05374503123860896
888.0833333328543,-0.13321225,-0.7673726,0.13481508,-2.2688475,0.0052905306,1.8162751,0.6779881,0.039999247,0.03999994,0.008871678619737366,-0.005970519302743449,-0.0024329481343565718,-0.06157726874993884,-0.20510669032932327,-0.08412131384164633,0.9861534849354185,-0.04225873703065388,0.15083249734738086,-0.054452374036909675
888.099999999521,-0.13471504,-0.76718056,0.13633423,-2.2678616,0.005348545,1.8190392,0.6767709,0.039999235,0.03999994,0.006403168799984371,-0.0057682175725944085,-0.0031734133421057464,-0.061775512658750885,-0.20512866711971284,-0.08447226063206953,0.9858410192848533,-0.04281493264312204,0.15245161074456232,-0.055162239073072265
888.1166666661876,-0.13621917,-0.7669881,0.13785473,-2.2668746,0.0054066046,1.821806,0.6755528,0.039999224,0.039999936,0.006918565736713234,-0.005707293497022453,-0.0028682176178129737,-0.06196637872262377,-0.20512904511792973,-0.08481209406949723,0.9855248332242879,-0.04337310717311588,0.1540701543871159,-0.05587453981483211
888.1333333328542,-0.13772456,-0.7667955,0.13937645,-2.265887,0.0054646805,1.824575,0.67433363,0.039999206,0.039999936,0.005764068846225712,-0.005557920082385065,-0.0035206456831859967,-0.062148813936293026,-0.20510546892542128,-0.08514495646279785,0.9852049813573981,-0.04393325754054687,0.15568773908824396,-0.05658923473626111
888.1499999995209,-0.13923089,-0.7666029,0.14089917,-2.2648988,0.0055227885,1.8273456,0.6731136,0.03999919,0.039999932,0.005975818928893872,-0.005708422525187162,-0.003918862063856388,-0.06232295946003133,-0.2050579145185308,-0.08546603044039425,0.9848814851188509,-0.04449537599088768,0.157304228995757,-0.05730620669322561
888.1666666661876,-0.14073807,-0.7664101,0.1424227,-2.2639103,0.0055808993,1.8301176,0.67189294,0.039999183,0.039999936,0.004802205534426562,-0.005466176476703888,-0.004225653138600904,-0.0624883904530613,-0.20498705145443025,-0.08577502332212572,0.9845544228599199,-0.04505926697390423,0.15891919237198665,-0.05802534948261924
888.1833333328542,-0.14224587,-0.76621735,0.14394693,-2.2629213,0.005639021,1.832891,0.67067176,0.039999176,0.03999994,0.005459216656333865,-0.005650747197891853,-0.004226875310164857,-0.06264591979643121,-0.20489614680844745,-0.0860735697875864,0.9842237535413286,-0.045624956809761294,0.1605328678167479,-0.05874661378884736
888.1999999995209,-0.14375418,-0.7660246,0.14547159,-2.2619321,0.005697157,1.8356652,0.66945034,0.03999916,0.03999994,0.004692684340712461,-0.005393146337979993,-0.004672979384645615,-0.06279412569320568,-0.20477886026196865,-0.08636173598141676,0.9838895559437171,-0.046192230675874,0.16214485988011973,-0.059469857444913975
888.2166666661875,-0.14526267,-0.7658317,0.14699654,-2.2609427,0.0057552783,1.83844,0.66822857,0.039999146,0.03999994,0.004328775584383493,-0.005606875672985179,-0.004824232051037214,-0.06293432389651026,-0.20463787683907944,-0.08663882871816779,0.9835518629983362,-0.046761243879509945,0.16375493848490144,-0.06019500797532462
888.2333333328542,-0.14677128,-0.7656389,0.14852165,-2.2599533,0.005813397,1.8412148,0.6670068,0.03999914,0.03999994,0.0039035240791740478,-0.005454566204778771,-0.0052552950175588364,-0.06306545400225547,-0.2044742744748853,-0.08690238147854665,0.9832107228056715,-0.04733176562112336,0.16536291004835418,-0.060921970613861065
888.2499999995208,-0.14827977,-0.765446,0.15004659,-2.2589638,0.005871504,1.8439895,0.66578513,0.039999124,0.039999936,0.0036277901738657192,-0.005286982057800538,-0.00533647185601005,-0.06318731109228107,-0.20428728504593274,-0.0871564389476299,0.982866174788519,-0.04790371600717073,0.1669686183560892,-0.06165060367545011
888.2666666661875,-0.1497879,-0.7652532,0.15157124,-2.2579744,0.005929579,1.8467636,0.66456366,0.039999105,0.039999936,0.003505263266445624,-0.005428108609982496,-0.00574172171647902,-0.06330006322841976,-0.20407753865325295,-0.08740024126262624,0.9825182521113235,-0.04847711528263122,0.16857189552530508,-0.06238084322121602
888.2833333328541,-0.15129565,-0.7650604,0.15309542,-2.256985,0.0059875827,1.8495369,0.6633425,0.039999094,0.03999994,0.003367775922136218,-0.005154585638728754,-0.00590341084276691,-0.06340365621926077,-0.2038431272689784,-0.0876309817852392,0.9821669869785618,-0.049051828412533305,0.17017263185270243,-0.06311262304139861
888.2999999995208,-0.15280269,-0.76486766,0.15461895,-2.2559958,0.0060455906,1.8523088,0.66212195,0.039999094,0.039999943,0.002489828970597685,-0.005288546781863357,-0.006280248881740391,-0.06349892476991059,-0.2035853947279,-0.08784668195560988,0.9818124727736982,-0.04962773006880244,0.1717704183715672,-0.06384575229935925
888.3166666661874,-0.1543089,-0.76467514,0.1561416,-2.255007,0.0061035533,1.8550792,0.6609021,0.03999907,0.03999994,0.0023491204661496567,-0.005087667035619942,-0.006545201563334935,-0.06358403365018417,-0.20330500246295627,-0.08805484301661179,0.9814547191254777,-0.05020477655009121,0.1733652630201564,-0.06458018500931363
888.3333333328541,-0.15581408,-0.76448274,0.15766323,-2.2540193,0.0061614597,1.8578476,0.659683,0.03999906,0.03999994,0.0009305856305541482,-0.005013131417723471,-0.0069058734253113485,-0.06366016236752997,-0.20299917451116586,-0.0882497159297511,0.9810938440641115,-0.050782917588945056,0.17495659681495784,-0.06531579940250043
888.3499999995207,-0.15731809,-0.7642906,0.15918359,-2.2530327,0.0062192874,1.8606138,0.65846497,0.039999045,0.03999994,0.0005651767505998606,-0.00477506444095388,-0.007136540187802076,-0.06372690134442283,-0.20267397479554888,-0.08843233155387273,0.9807298913085637,-0.051361954805021384,0.1765443267091966,-0.06605248367242682
888.3666666661874,-0.15882063,-0.76409864,0.1607026,-2.2520466,0.006277045,1.8633775,0.6572481,0.03999904,0.039999943,0.001629649235956876,-0.005156338543037958,-0.007289897529427769,-0.06378594187911214,-0.20232584057139227,-0.08860065366070614,0.9803628476103889,-0.05194195691663089,0.17812858539020357,-0.06679017295834051
888.383333332854,-0.16032156,-0.76390684,0.16222002,-2.251062,0.0063347416,1.8661382,0.6560325,0.03999903,0.039999947,-0.0004898346584347735,-0.004776412448059819,-0.007523010451992995,-0.06383446685062164,-0.20195460839569704,-0.08875849895219488,0.9799928553237143,-0.052522771605941106,0.179708755890352,-0.06752869785243572
888.3999999995207,-0.16182078,-0.7637152,0.16373558,-2.2500784,0.0063923416,1.8688958,0.6548182,0.039999012,0.03999995,-0.00015987310115761488,-0.004541481529347219,-0.007745583959417601,-0.06387294450527636,-0.20156317104582808,-0.08890595446808985,0.9796199373088501,-0.05310436043355817,0.18128482247287203,-0.06826799008998682
888.4166666661873,-0.163318,-0.7635238,0.16524921,-2.2490962,0.006449861,1.8716497,0.65360546,0.039998997,0.039999947,-0.0003178553996008304,-0.00480846539323912,-0.008008612539334159,-0.0639025168821246,-0.20114881096996706,-0.08903866008758676,0.9792441415585124,-0.05368663485018066,0.18285666891374097,-0.06900793501885301
888.433333332854,-0.16481307,-0.7633326,0.16676067,-2.2481148,0.0065072915,1.8743998,0.6523946,0.039998986,0.039999943,-0.00015143234426417962,-0.004616668247998251,-0.008130080128920802,-0.06392286251331107,-0.20071226625423627,-0.08915663495396238,0.9788655116482449,-0.054269423856160307,0.1844242355677662,-0.06974841270728104
888.4499999995206,-0.16630581,-0.76314193,0.16826981,-2.2471347,0.006564611,1.8771454,0.6511855,0.039998982,0.039999947,-0.0004247814807900596,-0.004653447986640441,-0.008754513005726494,-0.06393452817716244,-0.20025367815288278,-0.08926208488960041,0.9784840947439563,-0.05485276726922305,0.18598735912171502,-0.07048937865337684
888.4666666661873,-0.16779608,-0.76295155,0.16977641,-2.246157,0.006621832,1.8798865,0.64997846,0.039998963,0.03999995,-0.0031057839444237345,-0.004163263271472067,-0.008832570639483173,-0.06393396176659791,-0.199769744204927,-0.08935811817633224,0.9781000708580035,-0.05543647088716494,0.18754531591467954,-0.07123063639760709
888.4833333328539,-0.16928363,-0.7627615,0.1712803,-2.2451808,0.00667892,1.8826228,0.64877385,0.03999894,0.039999947,-0.0018937165775501086,-0.004340745159508302,-0.008844778292571576,-0.06392535601381348,-0.1992692675106346,-0.0894405685649256,0.9777134236340116,-0.056020379348124635,0.18909837523201845,-0.07197209756678415
888.4999999995206,-0.1707684,-0.76257193,0.17278132,-2.2442064,0.006735855,1.8853537,0.6475714,0.039998926,0.039999947,-0.0020084238436357538,-0.004188350317294032,-0.009448801865730161,-0.06390769876017337,-0.19874419182117864,-0.08951025938787426,0.9773242144775024,-0.05660457807927467,0.19064630735611507,-0.07271373342002163
888.5166666661872,-0.17225008,-0.76238257,0.17427924,-2.2432337,0.0067926613,1.8880789,0.6463713,0.039998922,0.03999995,-0.0025694095411310514,-0.004161165131123107,-0.009216739485218284,-0.06388133368932356,-0.1981986074519071,-0.08956306202106135,0.9769325198392734,-0.05718898386518963,0.19218892405252988,-0.07345535566917863
888.5333333328539,-0.17372854,-0.7621936,0.17577387,-2.242263,0.0068493825,1.8907984,0.645174,0.039998915,0.039999947,-0.0032539770314254923,-0.0039688260624573535,-0.009560337532033003,-0.06384504564017945,-0.197631301044363,-0.08960179370495991,0.9765384144830295,-0.05777333906586647,0.19372608953285209,-0.07419682315612186
888.5499999995205,-0.17520356,-0.7620051,0.17726508,-2.2412956,0.0069059245,1.8935117,0.6439796,0.03999889,0.03999995,-0.005457537615027874,-0.0037419564074762934,-0.010042611508587207,-0.063797373698246,-0.19704244998424994,-0.08963486947623014,0.9761420772187833,-0.0583576177152135,0.1952570713796309,-0.07493803849750486
888.5666666661872,-0.17667498,-0.7618171,0.17875268,-2.2403302,0.0069623166,1.8962181,0.64278793,0.039998874,0.039999947,-0.003765699064972594,-0.0038899660828609073,-0.01024708661583329,-0.06374277209724974,-0.1964363425700874,-0.0896498057735562,0.9757434729117661,-0.058941876490469766,0.19678218191594998,-0.07567894784063739
888.5833333328538,-0.17814265,-0.7616296,0.18023646,-2.239367,0.007018536,1.8989177,0.6415993,0.039998867,0.03999995,-0.003859931707062003,-0.003694284430810074,-0.01018696084327253,-0.0636771651446657,-0.19580996252297325,-0.0896517652279494,0.9753426451222527,-0.059525933293920606,0.19830143015385157,-0.07641943908687263
888.5999999995205,-0.1796064,-0.76144266,0.18171626,-2.2384067,0.0070746066,1.90161,0.64041364,0.039998855,0.03999995,-0.005381341494814507,-0.0035179026437404115,-0.010654365028428536,-0.06360236046074205,-0.19516045024307763,-0.08963946052991245,0.9749397310858819,-0.06010979112791351,0.19981431947008244,-0.07715939019623319
888.6166666661871,-0.18106604,-0.7612562,0.18319193,-2.2374487,0.007130509,1.9042948,0.63923156,0.039998844,0.039999954,-0.0047872374100865756,-0.0035217718039950996,-0.010595314774941578,-0.06351675740235999,-0.19449278945876936,-0.0896141651737034,0.9745347653033698,-0.06069316361898036,0.20132095941711142,-0.07789866753930604
888.6333333328538,-0.18252136,-0.7610704,0.18466327,-2.2364938,0.0071862456,1.9069719,0.6380527,0.039998826,0.03999995,-0.006167317707328479,-0.003352755972439725,-0.010925082916934947,-0.06342227391610578,-0.19380208912144284,-0.0895756867720481,0.9741278538521154,-0.06127621288991685,0.20282096117391385,-0.07863719089483663
888.6499999995204,-0.18397218,-0.7608849,0.18613009,-2.2355418,0.0072417688,1.9096407,0.63687766,0.039998803,0.03999995,-0.006398427860343503,-0.003215889190069654,-0.010994111895268333,-0.06331656161734893,-0.1930936811310906,-0.08952516722996791,0.9737191093278686,-0.06185863555591736,0.20431409120417834,-0.07937479116390136
888.6666666661871,-0.18541843,-0.76070035,0.18759222,-2.2345924,0.007297098,1.9123007,0.63570637,0.039998792,0.03999995,-0.005363119229517821,-0.003145049979896841,-0.011656498291401363,-0.0632029331702257,-0.19236589648143035,-0.08945840511787877,0.9733085150813768,-0.06244038757925512,0.20580060060362074,-0.08011145523723108
888.6833333328537,-0.18685982,-0.76051617,0.18904945,-2.2336464,0.007352213,1.9149519,0.63453895,0.039998785,0.039999954,-0.007639740235232395,-0.002873107252891055,-0.01128618432291173,-0.06307913418240749,-0.1916151431631154,-0.08937853310637592,0.9728962597201681,-0.06302143215584512,0.2072798449969299,-0.08084697130741517
888.6999999995204,-0.18829623,-0.76033264,0.19050166,-2.2327037,0.0074071568,1.9175941,0.63337564,0.039998773,0.039999954,-0.0074141606154487505,-0.002867167459315312,-0.011646837037204705,-0.06294629910600684,-0.19084810083172563,-0.08928431861827747,0.9724823804878256,-0.06360162726615645,0.2087518903324225,-0.08158125356029453
888.716666666187,-0.18972751,-0.76014984,0.19194864,-2.2317643,0.0074618766,1.9202265,0.63221645,0.039998755,0.039999954,-0.007770996060640911,-0.002637296753120466,-0.012067395534831604,-0.06280346345986829,-0.19006039893080567,-0.08917851512265002,0.9720669850028786,-0.06418092193434227,0.21021645042383094,-0.08231421443636863
888.7333333328537,-0.19115344,-0.75996774,0.19339024,-2.230828,0.0075163767,1.922849,0.6310616,0.039998747,0.03999996,-0.007336796983548055,-0.002745473796218756,-0.012011824221480616,-0.06265137635308582,-0.18925503974402386,-0.08905782356854651,0.9716500881746132,-0.06475923986157044,0.21167368791672597,-0.08304575152619377
888.7499999995204,-0.19257385,-0.75978625,0.1948263,-2.2298958,0.0075706653,1.9254615,0.6299111,0.039998733,0.03999996,-0.009589829498102276,-0.002390061709751229,-0.012192307360514576,-0.062489544682296616,-0.18842896836017572,-0.08892332003259491,0.9712318862330204,-0.06533653632819605,0.21312294552655717,-0.08377571411195413
888.766666666187,-0.19398852,-0.7596055,0.19625664,-2.228967,0.0076247454,1.9280636,0.62876546,0.03999872,0.039999954,-0.00811639526587804,-0.002514957392978079,-0.012364584853385985,-0.06231919391796085,-0.18758724273090527,-0.08877201977908779,0.9708123598000852,-0.06591258990588619,0.21456460035162295,-0.08450399296623065
888.7833333328537,-0.1953974,-0.75942564,0.19768108,-2.2280426,0.0076785707,1.9306549,0.6276244,0.0399987,0.039999954,-0.01065855674600158,-0.0019357202219502656,-0.012784793697107055,-0.06213672267074024,-0.18672416896632438,-0.08861311686962449,0.9703917230312331,-0.06648740990279703,0.21599789093756486,-0.08523050690577832
888.7999999995203,-0.19680028,-0.75924647,0.1990994,-2.2271218,0.0077321474,1.933235,0.62648827,0.039998688,0.039999958,-0.009121666107647641,-0.0020409357766565384,-0.012662663881446434,-0.06194679055346737,-0.1858469001274053,-0.08843732345382002,0.969969961630665,-0.06706083951364238,0.21742316901196695,-0.08595512151539024
888.816666666187,-0.198197,-0.75906813,0.20051147,-2.2262049,0.007785472,1.9358039,0.62535715,0.039998673,0.039999958,-0.009593521817752304,-0.0018789693175494393,-0.01288846377442976,-0.061747602420998485,-0.18494989927829525,-0.08824819486820157,0.9695471587417,-0.06763281475732585,0.21884029758223367,-0.0866777566508123
888.8333333328536,-0.19958739,-0.75889057,0.20191717,-2.2252927,0.007838528,1.9383613,0.6242311,0.039998658,0.03999996,-0.01163524056901899,-0.001665359330800531,-0.012971765919211897,-0.061538612804487414,-0.18403416115575602,-0.08804600633740772,0.9691234836995439,-0.06820331423340853,0.22024876978456157,-0.08739828761495368
888.8499999995203,-0.20097128,-0.7587139,0.20331633,-2.224384,0.00789132,1.9409068,0.62311035,0.03999865,0.03999996,-0.009461638670948957,-0.0018369339816873276,-0.013158243750188703,-0.0613208226148275,-0.18310251706682718,-0.08782801254965059,0.9686988913695653,-0.06877221702348674,0.2216490389614476,-0.08811664741986135
888.8666666661869,-0.20234849,-0.75853795,0.20470874,-2.2234805,0.007943862,1.94344,0.62199503,0.03999864,0.039999966,-0.01272010129627077,-0.001258150159780258,-0.01331165736979667,-0.061093160211234,-0.1821500825333531,-0.0875970611354231,0.9682736596155753,-0.06933939299112991,0.22304020799674845,-0.08883261952149075
888.8833333328536,-0.2037189,-0.75836307,0.20609425,-2.2225811,0.007996137,1.9459605,0.6208853,0.039998617,0.03999996,-0.011078045670398495,-0.0013443694071968437,-0.013701100477159223,-0.06085634906677037,-0.18118494364126775,-0.08735395141572505,0.9678477554551532,-0.06990473362363121,0.2244226636405289,-0.08954618094548285
888.8999999995202,-0.20508225,-0.7581889,0.20747276,-2.221686,0.008048105,1.9484681,0.61978114,0.0399986,0.03999996,-0.011354694769627471,-0.001443358347241741,-0.013499574504849399,-0.06061050282582801,-0.180200578998933,-0.08709698058827986,0.9674212697046786,-0.07046833984598158,0.2257962205398353,-0.09025722570667179
888.9166666661869,-0.20643853,-0.75801593,0.20884398,-2.2207959,0.0080998,1.9509629,0.61868286,0.039998587,0.03999996,-0.012866705688097113,-0.0007261198400054791,-0.013895291709054014,-0.06035569693006364,-0.17919976704924523,-0.08682413279669793,0.9669943273710893,-0.07102986042949345,0.2271607031622139,-0.09096562371769903
888.9333333328535,-0.20778753,-0.7578436,0.2102079,-2.2199101,0.008151187,1.9534442,0.6175904,0.039998576,0.03999997,-0.012237533536918477,-0.0010065530827205182,-0.013624110679621992,-0.06009152561639294,-0.178181299992829,-0.08653993041043381,0.9665669994992723,-0.07158941422428948,0.22851600886148946,-0.09167128745693691
888.9499999995202,-0.20912907,-0.7576724,0.21156426,-2.21903,0.008202283,1.9559115,0.6165039,0.03999857,0.03999997,-0.014272648775248697,-0.000527230388347455,-0.014454664990548594,-0.05981885699108454,-0.17714695934728955,-0.08623980475112342,0.9661394956029845,-0.07214687210712112,0.22986155312703996,-0.09237407793961701
888.9666666661868,-0.21046302,-0.7575021,0.21291286,-2.218155,0.008253112,1.958365,0.6154236,0.039998557,0.03999997,-0.014078669392691978,-0.0003093173858298437,-0.013983659235550228,-0.05953713607290147,-0.176098715119269,-0.08592607536094107,0.9657118598361518,-0.07270202480868962,0.23119749238361004,-0.09307383561478473
888.9833333328535,-0.21178925,-0.75733274,0.21425368,-2.217285,0.008303623,1.9608042,0.6143495,0.039998543,0.039999973,-0.013636131642247307,-0.00045257907052009827,-0.014249826035750424,-0.059246500648279465,-0.17503629773380805,-0.08560170379055004,0.9652841211445177,-0.07325496459606486,0.2325238802177693,-0.09377057511158737
888.9999999995201,-0.21310753,-0.75716436,0.21558653,-2.2164197,0.008353807,1.963229,0.61328185,0.039998524,0.039999973,-0.013480870302062797,-0.00042630981847147087,-0.014317726154677857,-0.05894648226376352,-0.17395862685536534,-0.08526340869104218,0.9648563602424084,-0.07380552794201822,0.23384070043210892,-0.09446414645987483
889.0166666661868,-0.2144177,-0.75699735,0.21691127,-2.2155597,0.008403683,1.965639,0.6122207,0.039998513,0.039999973,-0.013931630344954371,-0.00029122263503211787,-0.014760024349746992,-0.05863812962044937,-0.17286316453813047,-0.08490981269805428,0.9644286464898476,-0.07435367911432994,0.23514790611347222,-0.09515449796186017
889.0333333328534,-0.21571967,-0.7568309,0.2182277,-2.2147057,0.008453206,1.9680334,0.6111663,0.0399985,0.03999998,-0.017081727318624118,0.0004681228668951265,-0.014478924435601392,-0.05831915299609634,-0.171750214428419,-0.08454516366224252,0.9640013525152374,-0.07489920749291802,0.23644436418884163,-0.09584134655283359
889.0499999995201,-0.21701336,-0.7566659,0.2195357,-2.2138565,0.008502402,1.9704127,0.6101187,0.03999849,0.039999984,-0.013154102474066676,3.748837355543877e-05,-0.014963897000108695,-0.05799392083649471,-0.17063018975972116,-0.08416647401706553,0.9635742051341316,-0.07544208108670737,0.23773136707191425,-0.09652481914798863
889.0666666661867,-0.21829855,-0.7565018,0.22083513,-2.213013,0.008551311,1.9727767,0.6090779,0.03999848,0.03999998,-0.016020415555351164,0.0004103479303851909,-0.014556345427418904,-0.057660934584164256,-0.16948998767964246,-0.08377211189190566,0.9631474755621564,-0.07598230117610455,0.2390081172109444,-0.0972046816439843
889.0833333328534,-0.2195751,-0.75633883,0.22212583,-2.2121747,0.008599878,1.975125,0.608044,0.03999846,0.039999977,-0.014902015800943857,0.00045959991232802366,-0.014814743439006683,-0.05731789404560576,-0.16833439716160112,-0.08336686054405283,0.9627211597871402,-0.07651975438061968,0.24027489635720087,-0.0978808963392214
889.09999999952,-0.22084291,-0.7561769,0.2234077,-2.2113426,0.008648097,1.9774567,0.6070174,0.03999845,0.03999998,-0.01757053409408016,0.000889934122969005,-0.015191469957587245,-0.056966082627909115,-0.16716334231139146,-0.08294831061470986,0.9622955729811405,-0.0770542698828896,0.24153078698819563,-0.09855327823353213
889.1166666661867,-0.22210176,-0.7560163,0.22468057,-2.210516,0.008695942,1.9797723,0.6059978,0.039998427,0.03999998,-0.015371329348567997,0.0006712193922800425,-0.015186670932210156,-0.05660605181811625,-0.16598349095678935,-0.08251965313550919,0.961870559827095,-0.07758596357197556,0.2427765712328628,-0.0992218768968495
889.1333333328533,-0.22335161,-0.75585675,0.22594427,-2.2096953,0.008743455,1.9820709,0.6049856,0.03999842,0.039999977,-0.01741336217899736,0.0012527446335536263,-0.015298805674501814,-0.05623807502454821,-0.16478330620146497,-0.08207282974338145,0.9614464213949918,-0.07811454916612606,0.24401146475220822,-0.09988644084568539
889.14999999952,-0.22459225,-0.7556982,0.22719872,-2.2088807,0.008790589,1.9843532,0.6039808,0.039998405,0.039999984,-0.016988263023520744,0.0011182141631524423,-0.014882443199004669,-0.05586116162686386,-0.16357466425901557,-0.0816182236802786,0.9610231096010606,-0.07864010227443784,0.2452358566933021,-0.10054696275311303
889.1666666661866,-0.22582361,-0.7555413,0.22844371,-2.2080722,0.008837356,1.9866179,0.60298353,0.03999839,0.039999984,-0.01729150410816338,0.0014796666065033937,-0.016057979950545587,-0.0554763120377793,-0.16235091942190205,-0.0811487593305045,0.9606007891918599,-0.07916239821176389,0.24644942422059932,-0.10120335871241225
889.1833333328533,-0.2270455,-0.7553853,0.22967918,-2.2072701,0.008883741,1.988865,0.6019943,0.03999838,0.039999988,-0.019028764720729896,0.0016836275084711194,-0.015271876723232936,-0.05508450823553851,-0.1611134466765953,-0.08066656631344088,0.9601796801777762,-0.07968128347495408,0.24765168079657962,-0.10185538687824296
889.19999999952,-0.2282578,-0.7552306,0.23090497,-2.2064745,0.008929767,1.9910947,0.6010127,0.039998364,0.039999988,-0.018133790660668225,0.0017129922311120982,-0.015605050138489673,-0.05468622469045029,-0.15986781168249647,-0.08017330332215843,0.9597597244026713,-0.08019686540617098,0.2488430264926003,-0.10250308463424883
889.2166666661866,-0.22946043,-0.7550771,0.23212098,-2.2056847,0.008975426,1.9933065,0.6000387,0.039998353,0.039999988,-0.017301211873554934,0.0017017938745200745,-0.015555369253283935,-0.054280202830747054,-0.15860904883013485,-0.07966646227200483,0.959340961105085,-0.08070919075688686,0.25002353155453605,-0.10314640343869565
889.2333333328532,-0.23065321,-0.7549248,0.23332703,-2.2049015,0.009020714,1.9955007,0.5990726,0.039998345,0.039999988,-0.019101365452955932,0.0021332885073069296,-0.015387003818889688,-0.0538654385133054,-0.15733533975139438,-0.07914686778387423,0.9589235569084464,-0.08121808019667744,0.25119289776810827,-0.10378517989616998
889.2499999995199,-0.2318361,-0.7547739,0.23452303,-2.204125,0.009065616,1.9976761,0.5981148,0.039998326,0.039999988,-0.019305949269643463,0.0023415270207022276,-0.01618086625347903,-0.05344144580553836,-0.15605059314706005,-0.0786172522125453,0.9585076805685573,-0.08172322332223632,0.2523508442371197,-0.1044193108276498
889.2666666661866,-0.23300889,-0.75462395,0.23570885,-2.2033548,0.009110102,1.9998329,0.597165,0.03999831,0.039999988,-0.019676999822726415,0.0024336978305741774,-0.01553320709497541,-0.053012448044941624,-0.15475615313244256,-0.07807526215561725,0.958093415342237,-0.08222483395025239,0.25349724658592065,-0.10504870362388212
889.2833333328532,-0.23417148,-0.7544756,0.23688449,-2.2025912,0.009154213,2.0019712,0.59622335,0.039998297,0.039999988,-0.018492033484074355,0.002141786500828302,-0.015973028508264875,-0.05257532229880225,-0.15345046166798768,-0.0775216560103365,0.9576806727065413,-0.0827228542715627,0.25463265735679036,-0.10567340399992728
889.2999999995199,-0.23532377,-0.7543287,0.2380497,-2.2018344,0.00919788,2.0040908,0.5952903,0.03999829,0.039999995,-0.01986897932422238,0.0027873527274790977,-0.01606281925690123,-0.05212972143005014,-0.15213057004817748,-0.07695543197943802,0.9572696710879077,-0.08321697400331453,0.25575664145501287,-0.10629323781234996
889.3166666661865,-0.23646563,-0.75418264,0.23920432,-2.2010846,0.00924116,2.006191,0.59436554,0.03999828,0.04,-0.02117653787165885,0.003139348476489945,-0.015535359004426041,-0.05167813966218231,-0.15080049193768869,-0.07637802647608302,0.9568606178659602,-0.08370730500306311,0.2568686882274249,-0.10690800753273388
889.3333333328532,-0.23759699,-0.7540383,0.24034831,-2.2003417,0.009284055,2.0082717,0.59344965,0.039998278,0.04,-0.02002866206005649,0.002971543811351729,-0.016495120695347865,-0.05122030730971243,-0.14946296633156436,-0.07578921962672873,0.9564534912685958,-0.08419353663356109,0.25796919363780835,-0.1075177313893212
889.3499999995198,-0.23871773,-0.7538953,0.24148148,-2.199606,0.009326545,2.0103328,0.5925419,0.039998263,0.04,-0.02098028111161554,0.003420151527276649,-0.01609924426451137,-0.05075599281181589,-0.14811313989876704,-0.07519047312449681,0.9560483968583792,-0.0846759850049146,0.2590578938551829,-0.10812237538681552
889.3666666661865,-0.23982768,-0.75375396,0.24260384,-2.1988766,0.0093686,2.0123744,0.5916433,0.039998244,0.04,-0.019185263672927277,0.0029423085074864463,-0.016290550250763758,-0.05028353018639544,-0.14675618682561378,-0.07458123726925207,0.9556452827029039,-0.08515422909423037,0.2601353691344861,-0.10872184987535335
889.3833333328531,-0.24092676,-0.7536137,0.24371523,-2.198155,0.009410246,2.0143957,0.5907531,0.03999823,0.04,-0.022835332645598783,0.0037790975429247142,-0.016028270203882755,-0.049805929579928354,-0.14538306416721106,-0.07395922984791059,0.9552445197923346,-0.08562853366647345,0.2612004494121915,-0.10931599542478121
889.3999999995198,-0.24201491,-0.753475,0.24481551,-2.1974406,0.009451459,2.0163968,0.58987194,0.03999822,0.04,-0.021691888321573316,0.0038423858659694665,-0.016413238370627248,-0.04932125808644092,-0.1440061540429613,-0.07332647523733635,0.9548460927602382,-0.08609853394238992,0.26225354915735083,-0.10990476581045305
889.4166666661864,-0.24309199,-0.75333786,0.24590461,-2.196733,0.009492247,2.018378,0.58899945,0.039998204,0.04,-0.01997439407555035,0.0035749569572016138,-0.016099700853677845,-0.0488303338756627,-0.1426209558013089,-0.07268594156845445,0.9544498666512597,-0.08656448485900457,0.2632952665625063,-0.11048821030438713
889.4333333328531,-0.24415794,-0.7532016,0.2469825,-2.1960328,0.009532617,2.0203385,0.5881362,0.039998196,0.04,-0.02296209902938884,0.004116961684688669,-0.01584553645455067,-0.048332304553845636,-0.14122209243033762,-0.07203169012884583,0.9540562441706253,-0.08702605342215204,0.2643245831675249,-0.11106603314298698
889.4499999995197,-0.24521269,-0.7530671,0.24804896,-2.1953402,0.009572554,2.0222788,0.58728224,0.039998185,0.04,-0.021914326197292056,0.004319003164185431,-0.01639348784721051,-0.047829062443333806,-0.13981769440543657,-0.07136844168383677,0.953665135031253,-0.08748312413766851,0.26534205068925365,-0.11163829698162134
889.4666666661864,-0.24625608,-0.7529341,0.24910402,-2.194655,0.009612062,2.0241985,0.5864372,0.039998174,0.04,-0.021890564080617736,0.004122937626255263,-0.016244926997188713,-0.04732145931025657,-0.13840398401206938,-0.07069599574692616,0.9532765922614476,-0.08793593786401405,0.2663476122626726,-0.11220498616528159
889.483333332853,-0.24728797,-0.7528027,0.25014752,-2.1939774,0.009651116,2.026096,0.58560157,0.039998155,0.04,-0.023357807838308986,0.004493057510845944,-0.01702890789418987,-0.046805186528009336,-0.1369809489616774,-0.0700145003696345,0.9528909475194746,-0.0883842199184502,0.2673404658812677,-0.1127658951422438
889.4999999995197,-0.24830839,-0.7526723,0.2511794,-2.1933074,0.009689732,2.027973,0.58477527,0.03999815,0.04,-0.02335098767867194,0.0047816708559439425,-0.015629607132927603,-0.046286220640890836,-0.1355543454209478,-0.06932127385713802,0.9525081490128894,-0.08882796526264694,0.2683210381034371,-0.11332095641332698
889.5166666661863,-0.2493172,-0.7525437,0.25219947,-2.1926448,0.009727913,2.0298283,0.58395827,0.039998136,0.04,-0.022152335444003413,0.004757601668838041,-0.016725373934023402,-0.04576040051972554,-0.13412117765009307,-0.06862111322061701,0.9521281956358617,-0.08926713722761632,0.2692895325134364,-0.11387021105222773
889.533333332853,-0.25031433,-0.75241655,0.25320774,-2.19199,0.009765642,2.031662,0.5831508,0.03999812,0.04,-0.02322804678360768,0.004925346632932148,-0.016465905274065662,-0.04522877754618059,-0.1326795439263631,-0.06791131994334336,0.9517512559038328,-0.08970163275042337,0.2702456422932223,-0.11441353411598251
889.5499999995196,-0.25129977,-0.752291,0.25420415,-2.1913428,0.009802905,2.033474,0.5823529,0.03999812,0.04,-0.02354089684386551,0.00518343315255021,-0.01650909913815113,-0.04469370815110927,-0.13123018478799306,-0.06719088669927803,0.9513773998822049,-0.09013139805528338,0.2711893484483853,-0.1149509085049588
889.5666666661863,-0.25227326,-0.7521666,0.2551887,-2.1907034,0.009839735,2.0352645,0.58156455,0.039998107,0.04,-0.023611093822895057,0.0048850665707339536,-0.01585696663595204,-0.044153305190200255,-0.12977793356797013,-0.06646397367957654,0.9510066704330797,-0.09055653767714605,0.2721207215680741,-0.11548220282357693
889.5833333328529,-0.25323483,-0.75204396,0.25616115,-2.1900716,0.009876126,2.0370333,0.5807859,0.0399981,0.04,-0.022880304776018434,0.0053105632161515315,-0.016499859434149222,-0.043607639949103605,-0.1283176729592339,-0.06572653357955055,0.9506390796095815,-0.09097686580029767,0.2730399710930111,-0.11600743249348323
889.5999999995196,-0.25418448,-0.751923,0.25712138,-2.1894479,0.00991203,2.03878,0.5800169,0.039998077,0.04,-0.024125206944169975,0.0058435942052736944,-0.016654805892613034,-0.043054817733400405,-0.12684944326072325,-0.06498485532044035,0.9502748213900039,-0.09139225786855167,0.2739466893328367,-0.11652652246361209
889.6166666661862,-0.25512207,-0.7518037,0.2580695,-2.1888318,0.009947455,2.0405045,0.57925767,0.03999807,0.04,-0.023400384973326638,0.00541747090747613,-0.016447957643683786,-0.0425009198619824,-0.12537664485021624,-0.06423134905442215,0.9499138819987719,-0.09180282594752405,0.274841088782805,-0.11703945424836032
889.6333333328529,-0.25604746,-0.7516855,0.2590053,-2.1882238,0.009982433,2.0422065,0.5785084,0.039998062,0.04,-0.025156444714946602,0.005891210113302681,-0.0160250314268362,-0.041941293706258445,-0.12389642371314591,-0.06347046588131822,0.9495564996567701,-0.09220841475349997,0.27572268704993264,-0.11754599973709742
889.6499999995195,-0.2569607,-0.7515689,0.25992894,-2.1876242,0.010016923,2.0438864,0.5777688,0.039998047,0.04,-0.0248458131920426,0.005831163969920172,-0.016302103009313562,-0.04137743080086335,-0.12241520036982877,-0.06270400245361285,0.9492026367209818,-0.09260913910602503,0.2765917093439076,-0.1180462965035005
889.6666666661862,-0.25786167,-0.75145406,0.26084006,-2.1870332,0.010050957,2.0455434,0.5770392,0.039998036,0.04,-0.025549314781025956,0.006466940062704873,-0.016704400832368016,-0.04080928565715189,-0.120929966932006,-0.06192862530734053,0.9488524888147561,-0.09300473070984787,0.2774478378719302,-0.11854016954527634
889.6833333328528,-0.2587504,-0.751341,0.26173884,-2.1864502,0.010084526,2.047178,0.5763195,0.039998032,0.04,-0.024277008662165755,0.006021269090915327,-0.016444408387794596,-0.040238858745778816,-0.11944393922091542,-0.06114700225415955,0.9485059444516322,-0.09339528374983112,0.27829157366939905,-0.11902770407688794
889.6999999995195,-0.25962678,-0.75122935,0.26262504,-2.1858752,0.010117631,2.04879,0.57560986,0.03999802,0.04,-0.0244109086304789,0.006385163032007757,-0.016146404567973782,-0.03966394885708419,-0.11795288740340701,-0.0603577508254237,0.9481631125303527,-0.0937807128548358,0.2791228198712578,-0.11950875014119265
889.7166666661861,-0.26049078,-0.7511189,0.2634988,-2.185308,0.010150265,2.050379,0.5749104,0.039998002,0.04,-0.02497394303517808,0.006298252955022621,-0.015914421662888145,-0.03908527806089494,-0.11645712825299188,-0.059563535179306265,0.9478241112779776,-0.0941609840090792,0.2799413921751319,-0.11998324932090684
889.7333333328528,-0.26134232,-0.7510103,0.26435992,-2.184749,0.010182399,2.0519454,0.57422084,0.039998,0.04,-0.02429996151618319,0.006578685898564474,-0.016429794743100246,-0.03850423416402547,-0.11495835633654558,-0.05876135531226798,0.9474888799048047,-0.09453614562527547,0.2807476202251622,-0.12045129042465054
889.7499999995194,-0.26218134,-0.7509033,0.2652084,-2.1841974,0.010214075,2.053488,0.57354164,0.039998002,0.04,-0.024521479428196713,0.006497613478712028,-0.01663888319805018,-0.03792021987336534,-0.11345502870806326,-0.05795152625464098,0.9471576265580604,-0.0949059816980023,0.28154112690568095,-0.12091269144105433
889.7666666661861,-0.26300785,-0.75079817,0.2660443,-2.1836543,0.010245297,2.0550077,0.5728724,0.039997987,0.04,-0.02500160497671544,0.006585834392199008,-0.01637387245030375,-0.03733241405546283,-0.1119513090455573,-0.057139934856891644,0.946830301719737,-0.09527070015437078,0.2823221364975306,-0.12136756024934048
889.7833333328527,-0.26382178,-0.7506944,0.26686737,-2.1831198,0.01027604,2.0565054,0.57221335,0.039997973,0.04,-0.025441442687368365,0.007153097447477885,-0.015426416089736605,-0.03674117684181583,-0.11044224501409662,-0.05632069074006814,0.9465069328403253,-0.09563012738234504,0.2830908419329238,-0.12181576267357522
889.7999999995194,-0.26462308,-0.7505921,0.26767787,-2.1825933,0.010306277,2.0579798,0.57156456,0.039997958,0.04,-0.025380858398182937,0.006655732756832844,-0.016081716491678222,-0.03614621602428833,-0.10893012416010794,-0.055497422453029986,0.9461876756624317,-0.09598433079133302,0.2838468670146775,-0.12225729734055564
889.816666666186,-0.2654117,-0.7504913,0.2684754,-2.1820753,0.010336021,2.0594313,0.57092613,0.03999795,0.04,-0.02542044028155388,0.0074254986768135245,-0.015843197396403497,-0.03554918975942988,-0.10741728382104751,-0.05466812581284315,0.9458725613113245,-0.09633308488700112,0.2845903953527408,-0.12269205918672653
889.8333333328527,-0.26618767,-0.75039244,0.26926017,-2.1815662,0.010365293,2.0608592,0.57029766,0.039997943,0.04,-0.026812253345953607,0.007388435940883231,-0.016479262648072535,-0.03495102369816393,-0.10590121946328682,-0.05383393987081392,0.9455617580847197,-0.09667659697529356,0.28532093277021625,-0.12312011439299665
889.8499999995194,-0.26695085,-0.7502953,0.27003202,-2.1810656,0.0103940815,2.0622623,0.56967956,0.039997935,0.04,-0.026423185641100133,0.007405909473691408,-0.01677114958509307,-0.0343500320725823,-0.10438779246413019,-0.052994192006661514,0.9452554285405712,-0.09701465363744433,0.28603824765413277,-0.12354129946354304
889.866666666186,-0.2677014,-0.75019985,0.2707911,-2.1805732,0.010422403,2.0636425,0.56907177,0.03999793,0.04,-0.025196676172711818,0.0072624211133354155,-0.015835196470481705,-0.03374954702882674,-0.10288002779296684,-0.0521505285863465,0.9449533205936749,-0.0973473220721873,0.2867432503357534,-0.12395575489362692
889.8833333328527,-0.26843917,-0.750106,0.27153736,-2.1800885,0.010450245,2.0649993,0.5684745,0.039997917,0.04,-0.0243296274287097,0.007156013698418617,-0.01582089053644431,-0.033144819420039544,-0.10137149268170884,-0.05130546201199153,0.9446554715114225,-0.09767453722478447,0.28743602890131426,-0.12436339578388397
889.8999999995193,-0.2691642,-0.7500134,0.27227077,-2.1796124,0.010477593,2.0663328,0.5678875,0.0399979,0.04,-0.02657610637357699,0.0076615213952829775,-0.01549495119632649,-0.032538808244352804,-0.09985827695274085,-0.05045613202432514,0.9443620950672459,-0.09799634459481,0.28811604700977284,-0.12476415070732297
889.916666666186,-0.26987648,-0.74992245,0.27299118,-2.1791441,0.010504422,2.067643,0.56731075,0.039997887,0.04,-0.024687973710557642,0.007667625522336796,-0.015760446817214557,-0.03193079860669322,-0.09834839361346909,-0.04960446813522924,0.9440730769347006,-0.09831271389058956,0.28878380913333607,-0.1251580891391162
889.9333333328526,-0.27057597,-0.74983335,0.27369872,-2.1786842,0.01053076,2.0689292,0.5667443,0.039997887,0.04,-0.025677445157734624,0.0076227219142799285,-0.016124454116317466,-0.03132246887810628,-0.09683696748414208,-0.04874793772968483,0.9437885621651559,-0.09862363449536242,0.28943900010350193,-0.12554518654348207
889.9499999995193,-0.2712627,-0.74974585,0.27439338,-2.1782331,0.010556632,2.070192,0.56618834,0.03999788,0.04,-0.026653233652540465,0.007932239642614858,-0.015594689391829064,-0.03071321009628187,-0.09532754947879456,-0.04788843490750855,0.9435086345636704,-0.09892902515709691,0.290081551852686,-0.12592536583231495
889.9666666661859,-0.2719366,-0.74966013,0.27507505,-2.1777904,0.01058205,2.0714316,0.5656425,0.039997876,0.04,-0.025419517108815626,0.00784928345818059,-0.01574477150756426,-0.03010416940946834,-0.09382104995688709,-0.04702589699961105,0.9432332165089312,-0.0992290153113353,0.2907117932859447,-0.1262986739401031
889.9833333328526,-0.27259782,-0.74957603,0.27574375,-2.1773562,0.010606969,2.0726476,0.5651072,0.039997872,0.04,-0.026325403118621082,0.008321821730566947,-0.015572343470715566,-0.029492884971994593,-0.09231624558703319,-0.046161756940697074,0.9429624750912502,-0.09952329084146735,0.29132946239990987,-0.1266650286687201
889.9999999995192,-0.2732463,-0.74949336,0.27639955,-2.1769304,0.010631414,2.0738401,0.56458217,0.039997865,0.04,-0.0259724972436981,0.008076985972836626,-0.015228385486820706,-0.02888286672009159,-0.090813672146555,-0.04529680319538871,0.9426963728983859,-0.09981212401440552,0.29193470999673604,-0.12702446033375578
890.0166666661859,-0.27388194,-0.7494121,0.27704248,-2.1765132,0.010655347,2.0750096,0.5640675,0.03999785,0.04,-0.02629973512768835,0.008090222133741443,-0.01506348045339223,-0.02827100511044649,-0.08931542348416567,-0.04443221856469215,0.942434947190842,-0.10009546405812458,0.29252757352152525,-0.12737694892715923
890.0333333328525,-0.27450487,-0.7493327,0.27767268,-2.176104,0.010678812,2.076155,0.56356317,0.039997846,0.04,-0.025472574006091264,0.007787979398102274,-0.015820944049438346,-0.02766060761514339,-0.08782022000214522,-0.04356370911099787,0.9421782396762178,-0.100373301390146,0.2931080257788972,-0.12772255193451115
890.0499999995192,-0.27511507,-0.74925506,0.27828988,-2.175703,0.010701804,2.0772772,0.5630691,0.03999784,0.04,-0.024903188508140772,0.008284066717038907,-0.015267376456473691,-0.02704979615865529,-0.08633052774245767,-0.042695024321731195,0.9419261602808516,-0.1006455925565895,0.2936765009973865,-0.1280612589327327
