rsonawane2002/My_IMU/logs_2/traj_469/imu_469.csv
time,j1,j2,j3,j4,j5,j6,j7,gripper1,gripper2,imu_ax,imu_ay,imu_az,imu_gx,imu_gy,imu_gz
2409.933333336408,0.00016700293,-0.785875,4.0107683e-05,-2.3551247,9.29385e-05,1.570997,0.786,0.04,0.04,-9.520475,0.018455449491739273,0.098069936,-1.2170203e-07,-0.0011641273740679026,7.682742e-07
2409.950000003075,0.00016699685,-0.78576016,4.010885e-05,-2.3552213,9.297979e-05,1.5709941,0.786,0.04,0.04,-9.83449,0.0006209303974173963,0.009072229,7.064525e-07,-0.0022376850247383118,1.5563754e-06
2409.9666666697417,0.00016692869,-0.7856541,4.0069703e-05,-2.35531,9.3057635e-05,1.5709913,0.786,0.04,0.04,-9.832386,0.0005211264942772686,0.0075973663,5.8823425e-06,-0.0032203204464167356,5.875932e-06
2409.9833333364086,0.00016669383,-0.78555655,3.992436e-05,-2.355391,9.323527e-05,1.5709884,0.786,0.04,0.04,-9.830103,0.0003421741130296141,0.006411522,2.0059373e-05,-0.00411646394059062,1.6536489e-05
2410.0000000030755,0.00016614073,-0.78546643,3.957824e-05,-2.3554654,9.361577e-05,1.5709856,0.786,0.04,0.039999995,-9.828301,7.766269845888019e-05,0.005204578,4.657101e-05,-0.004922079853713512,3.7042617e-05
2410.0166666697423,0.00016507563,-0.7853829,3.8910937e-05,-2.355533,9.429302e-05,1.5709827,0.786,0.04,0.04,-9.82636,-0.0002605724730528891,0.004211804,8.917927e-05,-0.00564260920509696,6.7558656e-05
2410.033333336409,0.00016326658,-0.7853053,3.7778504e-05,-2.3555982,9.5418014e-05,1.5709798,0.786,0.04,0.04,-9.824289,-0.0006449391366913915,0.0033227643,0.00015074055,-0.006274860352277756,0.00011268271
2410.050000003076,0.00016044764,-0.78523296,3.601616e-05,-2.3556573,9.714979e-05,1.570977,0.786,0.04,0.04,-9.822667,-0.0010606313589960337,0.00258858,0.00023405561,-0.006840669084340334,0.00017360992
2410.066666669743,0.00015632244,-0.78516513,3.3440585e-05,-2.3557146,9.966421e-05,1.5709741,0.786,0.04,0.04,-9.820796,-0.0015644251834601164,0.0018074396,0.00034134468,-0.007317815907299519,0.00025211062
2410.08333333641,0.00015056794,-0.78510094,2.9851815e-05,-2.355766,0.00010315342,1.570974,0.786,0.04,0.04,-9.819262,-0.0020786633249372244,0.0011654228,0.0004748292,-0.007725779432803392,0.00034978474
2410.1000000030767,0.00014283677,-0.78503984,2.5035328e-05,-2.3558166,0.000107812586,1.5709732,0.786,0.03999999,0.039999995,-9.817154,-0.002620114479213953,0.00050946744,0.0006362044,-0.008034375496208668,0.0004672089
2410.1166666697436,0.00013276057,-0.78498113,1.8763516e-05,-2.3558662,0.00011386687,1.5709703,0.786,0.039999988,0.039999988,-9.815616,-0.003104657866060734,3.625301e-05,0.0008274671,-0.008278753608465195,0.0006082049
2410.1333333364105,0.00011995278,-0.7849242,1.0797476e-05,-2.3559132,0.00012154858,1.57097,0.786,0.039999984,0.03999998,-9.814223,-0.0037217638455331326,-0.00045388588,0.0010498543,-0.008463993668556213,0.00077212026
2410.1500000030774,0.0001040106,-0.78486806,8.885211e-07,-2.3559582,0.00013109496,1.5709672,0.786,0.03999998,0.039999977,-9.812362,-0.00428575836122036,-0.0010085216,0.0013044209,-0.00855958741158247,0.0009590289
2410.1666666697442,8.451721e-05,-0.78481245,-1.1220726e-05,-2.3560026,0.00014275366,1.5709643,0.786,0.039999977,0.03999997,-9.810768,-0.00483146496117115,-0.0014392203,0.0015922975,-0.008594418875873089,0.0011714948
2410.183333336411,6.104416e-05,-0.7847564,-2.5794849e-05,-2.3560476,0.00015677727,1.5709615,0.7859981,0.039999973,0.039999966,-9.809124,-0.0052770283073186874,-0.0019217771,0.0019144645,-0.00855634268373251,0.0014084962
2410.200000003078,3.3152635e-05,-0.78469944,-4.310478e-05,-2.3560944,0.0001734258,1.5709586,0.7859962,0.03999997,0.03999996,-9.807728,-0.0058878520503640175,-0.002437145,0.002280506,-0.008455411531031132,0.0016714844
2410.216666669745,3.9577375e-07,-0.78464085,-6.342653e-05,-2.356144,0.00019296345,1.5709558,0.7859943,0.03999997,0.03999996,-9.806343,-0.006363053806126118,-0.0029739714,0.0026823308,-0.008292026817798615,0.0019609798
2410.2333333364118,-3.7680267e-05,-0.7845801,-8.70402e-05,-2.356194,0.000215659,1.5709529,0.7859924,0.039999966,0.039999954,-9.805204,-0.006670559756457806,-0.0035997117,0.003119953,-0.008072731085121632,0.0022782604
2410.2500000030786,-8.15346e-05,-0.78451675,-0.00011422932,-2.3562448,0.00024178329,1.57095,0.7859905,0.03999997,0.039999958,-9.8035145,-0.007210619747638702,-0.004218865,0.0035940844,-0.007782641798257828,0.002621922
2410.2666666697455,-0.00013163051,-0.78445005,-0.00014527993,-2.3562987,0.0002716111,1.5709472,0.78598857,0.039999973,0.039999958,-9.801977,-0.007549760863184929,-0.004905786,0.0041047847,-0.007425046991556883,0.0029939415
2410.2833333364124,-0.00018843409,-0.7843794,-0.0001804797,-2.3563569,0.00030541708,1.5709443,0.78598666,0.039999973,0.039999958,-9.800635,-0.007844772189855576,-0.005654177,0.0046522915,-0.007006938569247723,0.0033927946
2410.3000000030793,-0.0002524133,-0.7843042,-0.00022011764,-2.3564155,0.0003434784,1.5709414,0.78598475,0.039999977,0.03999996,-9.799632,-0.007892228662967682,-0.00655507,0.0052370243,-0.0065353442914783955,0.0038194826
2410.316666669746,-0.00032403698,-0.7842241,-0.00026448336,-2.3564813,0.00038607253,1.5709386,0.78598285,0.039999977,0.039999958,-9.797779,-0.008218465372920036,-0.0074401535,0.005858521,-0.00599144771695137,0.004274901
2410.333333336413,-0.0004037737,-0.7841385,-0.00031386598,-2.3565493,0.0004334756,1.5709356,0.78598094,0.039999977,0.039999958,-9.796932,-0.008298654109239578,-0.008448392,0.0065167574,-0.005404761526733637,0.004757409
2410.35000000308,-0.00049209135,-0.7840468,-0.00036855467,-2.356623,0.00048596557,1.5709326,0.7859771,0.03999998,0.039999958,-9.795364,-0.008285386487841606,-0.009578409,0.007211659,-0.004750946070998907,0.005268641
2410.366666669747,-0.0005894557,-0.7839484,-0.00042883694,-2.356703,0.0005438166,1.5709296,0.7859733,0.039999984,0.03999996,-9.794474,-0.007969705387949944,-0.010903727,0.007951889,-0.004045136738568544,0.0058068316
2410.3833333364137,-0.00069633033,-0.78384316,-0.00049499935,-2.3567865,0.0006073038,1.5709264,0.7859695,0.039999988,0.03999996,-9.793225,-0.007997502572834492,-0.012220355,0.008728196,-0.003292008535936475,0.0063736364
2410.4000000030805,-0.000813176,-0.78373045,-0.00056732615,-2.356876,0.00067669875,1.5709231,0.7859657,0.039999988,0.039999958,-9.791765,-0.007709509693086147,-0.013700786,0.0095406445,-0.0024761587847024202,0.0069679883
2410.4166666697474,-0.0009404497,-0.78360915,-0.00064609986,-2.3569727,0.00075227174,1.5709189,0.78596187,0.03999999,0.03999996,-9.790582,-0.007317471317946911,-0.015344689,0.010388637,-0.00160685065202415,0.0075889053
2410.4333333364143,-0.0010786047,-0.78347975,-0.00073160016,-2.357077,0.0008342912,1.5709122,0.7859576,0.039999995,0.03999996,-9.789938,-0.006531184539198875,-0.017265812,0.011271877,-0.0006971716647967696,0.008237927
2410.450000003081,-0.0012280891,-0.7833411,-0.00082410383,-2.3571885,0.00092302106,1.5709056,0.78595185,0.039999995,0.03999996,-9.788661,-0.006182432174682617,-0.01906154,0.012191905,0.00024980006855912507,0.008913065
2410.466666669748,-0.0013893455,-0.78319365,-0.00092388503,-2.3573077,0.0010187249,1.5708989,0.78594613,0.04,0.03999996,-9.787641,-0.0054254960268735886,-0.021253113,0.013152958,0.0012433362426236272,0.0096159205
2410.483333336415,-0.0015628125,-0.78303623,-0.0010312143,-2.3574345,0.0011216612,1.5708921,0.7859404,0.04,0.03999996,-9.786886,-0.004247615113854408,-0.023684537,0.014147812,0.002287218114361167,0.010345467
2410.500000003082,-0.001748922,-0.78286827,-0.0011463584,-2.3575692,0.0012320849,1.5708853,0.7859347,0.04,0.039999966,-9.785493,-0.0035470053553581238,-0.026088893,0.015175995,0.003378064138814807,0.011100373
2410.5166666697487,-0.0019480995,-0.7826898,-0.0012695809,-2.357712,0.001350249,1.5708783,0.7859277,0.04,0.039999966,-9.784463,-0.0024047214537858963,-0.028837595,0.016236763,0.004515676759183407,0.011881662
2410.5333333364156,-0.0021607645,-0.78250027,-0.0014011405,-2.3578634,0.0014764008,1.5708709,0.7859201,0.04,0.039999966,-9.783438,-0.0011128876358270645,-0.031724993,0.017335983,0.005698965396732092,0.0126888845
2410.5500000030825,-0.0023873306,-0.78229904,-0.0015412923,-2.3580234,0.0016107836,1.5708611,0.78591245,0.04,0.03999996,-9.78281,0.0006630197167396545,-0.03497673,0.018469533,0.006926939822733402,0.013521528
2410.5666666697493,-0.0026282028,-0.78208625,-0.0016902876,-2.358194,0.0017536399,1.5708506,0.7859048,0.04,0.039999954,-9.781492,0.0018959958106279373,-0.0381356,0.019634292,0.008187794126570225,0.014378586
2410.583333336416,-0.0028837807,-0.7818611,-0.0018483732,-2.358375,0.001905204,1.5708401,0.785896,0.04,0.039999947,-9.780707,0.0036326684057712555,-0.041666098,0.020829612,0.009483939968049526,0.015260734
2410.600000003083,-0.0031544568,-0.78162336,-0.0020157904,-2.3585646,0.002065708,1.5708295,0.78588647,0.04,0.039999947,-9.779864,0.005527755245566368,-0.045483343,0.022060359,0.010818524286150932,0.016167281
2410.61666666975,-0.0034406139,-0.78137255,-0.002192777,-2.3587651,0.0022353781,1.5708187,0.7858769,0.04,0.03999994,-9.779245,0.007963048294186592,-0.049673602,0.023323486,0.01219954714179039,0.017097197
2410.633333336417,-0.0037426276,-0.7811085,-0.0023795657,-2.358977,0.0024144372,1.5708076,0.78586704,0.04,0.039999943,-9.778002,0.009807730093598366,-0.053791627,0.02461546,0.013616332784295082,0.018051568
2410.6500000030837,-0.0040608677,-0.7808307,-0.002576385,-2.3591988,0.0026031053,1.5707953,0.7858558,0.04,0.039999943,-9.777293,0.012201590463519096,-0.05830851,0.025936976,0.01506577618420124,0.019029116
2410.6666666697506,-0.0043956963,-0.78053886,-0.0027834566,-2.3594322,0.0028015932,1.570781,0.7858444,0.04,0.039999936,-9.776312,0.014771532267332077,-0.06305781,0.027291887,0.016552802175283432,0.020029472
2410.6833333364175,-0.0047474657,-0.78023267,-0.0030009998,-2.3596768,0.0030101102,1.5707666,0.7858329,0.04,0.03999993,-9.77612,0.017943870276212692,-0.0682286,0.02867484,0.018064454197883606,0.021052638
2410.7000000030844,-0.00511652,-0.7799118,-0.0032292283,-2.3599334,0.0032288614,1.5707521,0.78582025,0.04,0.03999992,-9.774792,0.020452383905649185,-0.0733798,0.03008395,0.019611762836575508,0.022098025
2410.7166666697512,-0.005503196,-0.779576,-0.0034683496,-2.3602016,0.003458045,1.5707375,0.7858069,0.04,0.039999925,-9.774036,0.023563891649246216,-0.078976065,0.03152376,0.021192939952015877,0.023165498
2410.733333336418,-0.005907823,-0.7792248,-0.0037185673,-2.3604827,0.003697856,1.5707222,0.78579354,0.04,0.039999925,-9.773788,0.027312465012073517,-0.08501027,0.032991808,0.022806745022535324,0.02425363
2410.750000003085,-0.006330718,-0.77885824,-0.0039800787,-2.3607755,0.0039484845,1.5707048,0.7857791,0.04,0.039999917,-9.772601,0.030363503843545914,-0.09097467,0.034483835,0.024447327479720116,0.025364064
2410.766666669752,-0.006772197,-0.77847576,-0.0042530783,-2.3610814,0.0042101135,1.5706866,0.78576386,0.04,0.03999991,-9.771811,0.034051209688186646,-0.0973514,0.03600448,0.026113636791706085,0.026494846
2410.7833333364188,-0.0072325617,-0.7780771,-0.0045377524,-2.3614001,0.004482925,1.5706683,0.7857485,0.04,0.039999906,-9.7711525,0.03793700411915779,-0.10408445,0.037551668,0.027804723009467125,0.027646273
2410.8000000030856,-0.0077121085,-0.7776621,-0.004834284,-2.3617315,0.0047670905,1.5706499,0.78573215,0.04,0.03999991,-9.771007,0.04250644892454147,-0.11131857,0.039121598,0.029525121673941612,0.028817615
2410.8166666697525,-0.008211124,-0.7772304,-0.0051428527,-2.3620768,0.005062782,1.5706308,0.785715,0.04,0.039999902,-9.769682,0.046312518417835236,-0.11846387,0.040717456,0.03127513825893402,0.030008733
2410.8333333364194,-0.008729888,-0.77678186,-0.005463627,-2.3624353,0.0053701634,1.5706098,0.7856975,0.04,0.039999902,-9.769076,0.05081085115671158,-0.1261036,0.042338062,0.033047646284103394,0.031219369
2410.8500000030863,-0.009268672,-0.7763162,-0.005796776,-2.3628073,0.005689393,1.5705878,0.7856792,0.04,0.039999895,-9.768405,0.05551514774560928,-0.13401209,0.043980002,0.03483876585960388,0.032449085
2410.866666669753,-0.009827731,-0.775833,-0.0061424603,-2.3631935,0.0060206293,1.5705656,0.78566015,0.04,0.039999906,-9.768298,0.06093840301036835,-0.14248903,0.045645703,0.03665292263031006,0.033697437
2410.88333333642,-0.010407323,-0.77533215,-0.0065008393,-2.3635938,0.0063640233,1.570543,0.78564054,0.04,0.039999973,-9.7671,0.06556971371173859,-0.15090507,0.047333803,0.038488369435071945,0.034965858
2410.900000003087,-0.011007693,-0.77481353,-0.006872062,-2.3640084,0.006719714,1.5705198,0.78562015,0.04,0.03999996,-9.766446,0.07090724259614944,-0.15984334,0.049042795,0.040345657616853714,0.03625157
2410.916666669754,-0.011629077,-0.7742771,-0.007256277,-2.364437,0.007087844,1.5704945,0.7855992,0.04,0.03999996,-9.765805,0.0764586478471756,-0.16907749,0.050772894,0.04222230985760689,0.03755327
2410.9333333364207,-0.012271705,-0.7737223,-0.0076536257,-2.36488,0.00746855,1.5704687,0.78557736,0.04,0.039999966,-9.765707,0.08278670907020569,-0.17882606,0.05252293,0.04411556199193001,0.038873956
2410.9500000030876,-0.012935796,-0.77314895,-0.008064243,-2.3653378,0.00786196,1.5704426,0.7855548,0.04,0.039999958,-9.764424,0.08825255930423737,-0.18855342,0.054293156,0.04602726548910141,0.040211126
2410.9666666697544,-0.013621562,-0.772557,-0.008488257,-2.3658106,0.008268204,1.5704159,0.7855315,0.04,0.039999958,-9.76379,0.09448336064815521,-0.19883437,0.056082368,0.04795689508318901,0.04156589
2410.9833333364213,-0.014329201,-0.77194625,-0.008925801,-2.366299,0.008687395,1.5703878,0.7855075,0.04,0.03999995,-9.76374,0.10147912800312042,-0.2096573,0.057890564,0.049903593957424164,0.04293548
2411.000000003088,-0.015058915,-0.7713165,-0.009376988,-2.366802,0.009119651,1.5703582,0.78548276,0.04,0.039999943,-9.762569,0.10760947316884995,-0.22038025,0.059716493,0.051858872175216675,0.044321973
2411.016666669755,-0.015810892,-0.7706678,-0.009841936,-2.36732,0.009565085,1.5703282,0.7854572,0.04,0.039999954,-9.76182,0.1145196482539177,-0.23167165,0.0615593,0.053827475756406784,0.045724425
2411.033333336422,-0.0165853,-0.77,-0.010320758,-2.3678539,0.0100238,1.5702978,0.78543097,0.04,0.039999954,-9.761098,0.12165461480617523,-0.2433346,0.06341963,0.05581318214535713,0.04714219
2411.050000003089,-0.017382316,-0.7693123,-0.010813558,-2.3684032,0.010495897,1.5702665,0.78540385,0.04,0.039999947,-9.761096,0.12960514426231384,-0.25555333,0.065295756,0.057810425758361816,0.048575886
2411.0666666697557,-0.018202106,-0.7686053,-0.011320439,-2.3689682,0.010981476,1.5702336,0.7853761,0.04,0.03999994,-9.759724,0.13662467896938324,-0.2677376,0.06718807,0.05981866642832756,0.050023958
2411.0833333364226,-0.019044826,-0.7678784,-0.011841495,-2.3695493,0.011480627,1.5701998,0.78534746,0.04,0.03999994,-9.759058,0.14445993304252625,-0.28044108,0.06909489,0.06183271482586861,0.05148692
2411.1000000030895,-0.019910617,-0.76713187,-0.012376815,-2.3701463,0.011993435,1.5701658,0.785318,0.04,0.03999994,-9.75834,0.1525290161371231,-0.2935493,0.071016185,0.06385484337806702,0.05296367
2411.1166666697563,-0.020799624,-0.7663652,-0.012926487,-2.3707585,0.012519981,1.5701308,0.785288,0.04,0.03999994,-9.758205,0.16143107414245605,-0.30724755,0.07295204,0.06588903069496155,0.054454755
2411.133333336423,-0.021711975,-0.7655785,-0.013490592,-2.371387,0.013060345,1.5700943,0.78525686,0.04,0.039999943,-9.756728,0.16937504708766937,-0.3208708,0.07490008,0.06793171912431717,0.05595947
2411.15000000309,-0.022647783,-0.76477164,-0.014069205,-2.3720312,0.013614601,1.5700568,0.7852252,0.04,0.039999988,-9.755937,0.17816734313964844,-0.33504513,0.076862544,0.06997798383235931,0.057479892
2411.166666669757,-0.023607178,-0.76394457,-0.014662397,-2.3726916,0.014182811,1.5700189,0.7851926,0.04,0.039999995,-9.75503,0.18716706335544586,-0.34962454,0.07883591,0.07203210890293121,0.059010785
2411.183333336424,-0.024590265,-0.7630971,-0.015270238,-2.3733695,0.014765047,1.5699801,0.78515923,0.04,0.04,-9.754837,0.19704172015190125,-0.36479864,0.08082167,0.07409214973449707,0.060556024
2411.2000000030907,-0.02559714,-0.7622287,-0.015892785,-2.3740628,0.015361362,1.5699401,0.7851251,0.04,0.039999995,-9.753419,0.2059125453233719,-0.3798938,0.08281814,0.07615167647600174,0.062111977
2411.2166666697576,-0.026627894,-0.76134014,-0.016530098,-2.3747728,0.015971811,1.5698987,0.78509,0.04,0.039999995,-9.752427,0.21564991772174835,-0.3956257,0.0848253,0.07821447402238846,0.0636812
2411.2333333364245,-0.027682615,-0.7604306,-0.017182237,-2.3754992,0.016596448,1.569857,0.7850544,0.04,0.04,-9.752146,0.22627052664756775,-0.41190383,0.08684269,0.08027695119380951,0.06526728
2411.2500000030914,-0.028761378,-0.7595005,-0.017849235,-2.3762422,0.017235316,1.5698144,0.78501767,0.04,0.04,-9.750447,0.23580534756183624,-0.42817205,0.0888686,0.08234352618455887,0.066855595
2411.2666666697583,-0.029864248,-0.7585497,-0.01853114,-2.3770022,0.017888451,1.5697707,0.78498036,0.04,0.04,-9.749394,0.24630501866340637,-0.44500804,0.090904705,0.0844116359949112,0.06846364
2411.283333336425,-0.03099129,-0.7575782,-0.019227996,-2.3777783,0.018555889,1.5697256,0.7849421,0.04,0.04,-9.74838,0.25696173310279846,-0.4622222,0.09294799,0.08647491037845612,0.07007668
2411.300000003092,-0.03214256,-0.7565859,-0.019939832,-2.3785713,0.019237673,1.56968,0.784903,0.04,0.04,-9.747793,0.26853811740875244,-0.48005134,0.094999924,0.08853937685489655,0.07170366
2411.316666669759,-0.033318102,-0.75557256,-0.02066668,-2.3793805,0.019933825,1.5696335,0.7848631,0.04,0.04,-9.745979,0.27907058596611023,-0.49781284,0.097058915,0.09060142189264297,0.07334109
2411.3333333364258,-0.034517974,-0.7545381,-0.021408558,-2.3802068,0.020644393,1.5695859,0.7848223,0.04,0.04,-9.744651,0.2905352711677551,-0.516194,0.0991249,0.09266375005245209,0.074999176
2411.3500000030926,-0.0357422,-0.7534828,-0.022165496,-2.3810499,0.021369373,1.569537,0.78478074,0.04,0.04,-9.743399,0.3021237850189209,-0.5349656,0.10119722,0.09471921622753143,0.07665723
2411.3666666697595,-0.036990788,-0.7524066,-0.022937503,-2.38191,0.02210878,1.5694875,0.78473836,0.04,0.04,-9.742671,0.3146565556526184,-0.55431616,0.10327463,0.09676869958639145,0.07832604
2411.3833333364264,-0.038263783,-0.7513093,-0.023724586,-2.3827865,0.022862617,1.5694371,0.7846952,0.04,0.04,-9.740629,0.32612940669059753,-0.5736243,0.105357446,0.09881243854761124,0.08000288
2411.4000000030933,-0.03956118,-0.75019103,-0.02452677,-2.3836799,0.023630895,1.5693858,0.78465116,0.04,0.04,-9.739062,0.33849096298217773,-0.59355384,0.10744441,0.10085330158472061,0.08169081
2411.41666666976,-0.040883,-0.74905175,-0.025344051,-2.3845901,0.024413627,1.569333,0.78460634,0.04,0.04,-9.737456,0.35108494758605957,-0.61383486,0.109535925,0.102887362241745,0.08338778
2411.433333336427,-0.04222922,-0.7478914,-0.026176425,-2.3855166,0.025210816,1.5692796,0.7845607,0.04,0.04,-9.736513,0.36458128690719604,-0.6347403,0.11163026,0.104909747838974,0.08509618
2411.450000003094,-0.043599844,-0.7467101,-0.027023895,-2.3864603,0.026022451,1.5692252,0.7845142,0.04,0.04,-9.734031,0.37697944045066833,-0.65558445,0.113728024,0.10692847520112991,0.08681217
2411.466666669761,-0.044994853,-0.7455078,-0.027886435,-2.387421,0.026848536,1.5691699,0.7844668,0.04,0.04,-9.732249,0.3902899920940399,-0.6770314,0.115828015,0.10893737524747849,0.08853794
2411.4833333364277,-0.046414223,-0.74428445,-0.028764047,-2.3883982,0.02768904,1.5691134,0.7844187,0.04,0.04,-9.730991,0.4044445753097534,-0.6990967,0.11793033,0.11093554645776749,0.090268776
2411.5000000030946,-0.04785794,-0.7430401,-0.029656705,-2.389392,0.028543962,1.5690562,0.78436965,0.04,0.04,-9.728369,0.4175715148448944,-0.7210772,0.12003348,0.11292207986116409,0.09201048
2411.5166666697614,-0.049325947,-0.74177486,-0.030564396,-2.390403,0.029413244,1.5689979,0.7843199,0.04,0.04,-9.726247,0.4315168857574463,-0.7436956,0.12213797,0.11489977687597275,0.09375412
2411.5333333364283,-0.05081822,-0.7404888,-0.031487085,-2.39143,0.030296914,1.5689386,0.78426915,0.04,0.04,-9.724164,0.44577378034591675,-0.7666669,0.124242,0.11686176806688309,0.09551212
2411.550000003095,-0.052334707,-0.73918164,-0.032424744,-2.392474,0.031194886,1.5688783,0.7842177,0.04,0.04,-9.722329,0.46081405878067017,-0.79023814,0.12634675,0.11881645768880844,0.097268544
2411.566666669762,-0.053875357,-0.7378537,-0.033377346,-2.3935342,0.032107167,1.5688171,0.7841655,0.04,0.04,-9.719424,0.47486066818237305,-0.8137856,0.12845021,0.12075390666723251,0.0990381
2411.583333336429,-0.055440105,-0.736505,-0.03434486,-2.3946114,0.03303372,1.5687551,0.78411233,0.04,0.04,-9.716881,0.48974525928497314,-0.8378987,0.13055202,0.12267937511205673,0.10081479
2411.600000003096,-0.05702888,-0.7351355,-0.035327215,-2.3957045,0.03397451,1.5686921,0.7840585,0.04,0.04,-9.714312,0.504831850528717,-0.8623971,0.13265243,0.12458904832601547,0.10259432
2411.6166666697627,-0.058641616,-0.7337458,-0.03632439,-2.396815,0.034929477,1.568628,0.78400373,0.04,0.04,-9.712106,0.5208067893981934,-0.8874767,0.13475011,0.1264847218990326,0.10438062
2411.6333333364296,-0.060278233,-0.7323354,-0.03733633,-2.397941,0.035898615,1.568563,0.78394824,0.04,0.04,-9.708725,0.535708487033844,-0.91247344,0.13684542,0.12836317718029022,0.10617405
2411.6500000030965,-0.06193865,-0.7309045,-0.038362984,-2.3990834,0.03688182,1.5684972,0.78389186,0.04,0.04,-9.705666,0.5514430999755859,-0.93810403,0.13893701,0.13022832572460175,0.10797047
2411.6666666697633,-0.06362275,-0.72945315,-0.039404307,-2.4002428,0.03787904,1.5684304,0.7838347,0.04,0.04,-9.702512,0.567405641078949,-0.96408,0.14102507,0.13207890093326569,0.109771915
2411.68333333643,-0.06533048,-0.72798127,-0.040460218,-2.4014184,0.038890228,1.5683626,0.7837768,0.04,0.04,-9.699961,0.5842445492744446,-0.9906463,0.14310843,0.13390713930130005,0.111579746
2411.700000003097,-0.0670617,-0.7264894,-0.04153067,-2.4026103,0.039915357,1.5682938,0.783718,0.04,0.04,-9.696049,0.5999799966812134,-1.0171605,0.14518616,0.1357152909040451,0.11339198
2411.716666669764,-0.068816334,-0.72497743,-0.042615578,-2.403818,0.04095433,1.5682242,0.78365856,0.04,0.04,-9.69252,0.6165638566017151,-1.0442302,0.14725912,0.13750584423542023,0.11520772
2411.733333336431,-0.070594266,-0.72344536,-0.04371489,-2.405041,0.042007077,1.5681537,0.7835982,0.04,0.04,-9.68933,0.6339966058731079,-1.0718809,0.14932543,0.13927967846393585,0.11702723
2411.7500000030977,-0.072395355,-0.72189325,-0.044828515,-2.4062808,0.043073546,1.5680823,0.78353715,0.04,0.04,-9.68494,0.650324821472168,-1.099477,0.15138571,0.14103557169437408,0.11884783
2411.7666666697646,-0.074219465,-0.72032136,-0.04595641,-2.4075365,0.044153616,1.5680097,0.7834753,0.04,0.04,-9.6810665,0.6675053834915161,-1.1276344,0.15343826,0.14276739954948425,0.12067124
2411.7833333364315,-0.076066524,-0.7187299,-0.047098465,-2.4088078,0.04524728,1.5679364,0.7834126,0.04,0.04,-9.676988,0.6849133968353271,-1.1561383,0.15548308,0.14447645843029022,0.12250234
2411.8000000030984,-0.07793633,-0.717119,-0.048254594,-2.4100945,0.046354394,1.5678623,0.78334916,0.04,0.04,-9.673143,0.7031087279319763,-1.1851916,0.15752037,0.1461673527956009,0.124333516
2411.8166666697653,-0.079828784,-0.7154885,-0.04942472,-2.411397,0.047474917,1.5677872,0.7832849,0.04,0.04,-9.668179,0.7202348113059998,-1.2141974,0.15954861,0.1478375494480133,0.1261686
2411.833333336432,-0.0817437,-0.7138385,-0.05060874,-2.4127147,0.04860874,1.567711,0.78322,0.04,0.04,-9.663588,0.7381713390350342,-1.2437578,0.16156799,0.1494845449924469,0.12800455
2411.850000003099,-0.08368097,-0.71216923,-0.051806573,-2.4140482,0.04975578,1.567634,0.78315425,0.04,0.04,-9.658776,0.7562934756278992,-1.2736598,0.16357714,0.15110814571380615,0.1298427
2411.866666669766,-0.0856404,-0.7104808,-0.053018134,-2.4153967,0.050915956,1.5675563,0.78308773,0.04,0.04,-9.65436,0.7752268314361572,-1.3040951,0.16557626,0.15270626544952393,0.13168341
2411.8833333364328,-0.08762188,-0.7087735,-0.05424329,-2.41676,0.05208914,1.5674777,0.7830205,0.04,0.04,-9.648681,0.7930643558502197,-1.3344878,0.16756476,0.15428321063518524,0.13352323
2411.9000000030996,-0.089625195,-0.7070474,-0.055481955,-2.4181385,0.053275246,1.5673982,0.78295255,0.04,0.04,-9.64332,0.8117309808731079,-1.3653983,0.16954166,0.15583749115467072,0.13536654
2411.9166666697665,-0.09165019,-0.7053026,-0.056734025,-2.4195318,0.05447416,1.5673176,0.7828839,0.04,0.04,-9.637818,0.8305268883705139,-1.3966224,0.17150687,0.1573663204908371,0.13720685
2411.9333333364334,-0.09369668,-0.7035394,-0.057999395,-2.4209402,0.055685822,1.5672364,0.78281444,0.04,0.04,-9.632551,0.8501428365707397,-1.4283552,0.17345938,0.15886881947517395,0.13905124
2411.9500000031003,-0.09576448,-0.7017578,-0.059277933,-2.4223633,0.056910075,1.5671543,0.78274435,0.04,0.04,-9.626233,0.8686512112617493,-1.4600735,0.17539926,0.16034621000289917,0.14089166
2411.966666669767,-0.09785342,-0.6999579,-0.06056954,-2.4238002,0.05814685,1.5670714,0.7826734,0.04,0.04,-9.620132,0.8879677057266235,-1.4922731,0.17732531,0.1617976874113083,0.14273466
2411.983333336434,-0.099963285,-0.6981401,-0.0618741,-2.4252517,0.059396006,1.5669876,0.78260183,0.04,0.04,-9.614144,0.9080020189285278,-1.5249676,0.17923827,0.16322565078735352,0.14457493
2412.000000003101,-0.10209391,-0.6963046,-0.06319147,-2.4267173,0.060657445,1.5669031,0.7825296,0.04,0.04,-9.607206,0.9269999265670776,-1.5576191,0.18113683,0.16462740302085876,0.14641471
2412.016666669768,-0.1042451,-0.69445133,-0.06452154,-2.4281974,0.06193102,1.5668179,0.7824566,0.04,0.04,-9.600445,0.9467427730560303,-1.5907327,0.18302016,0.1660037636756897,0.14825165
2412.0333333364347,-0.1064166,-0.6925805,-0.0658642,-2.4296913,0.06321663,1.5667319,0.78238297,0.04,0.04,-9.593547,0.9666283130645752,-1.6241795,0.18488823,0.16735178232192993,0.15008727
2412.0500000031016,-0.10860824,-0.69069237,-0.0672193,-2.4311993,0.06451414,1.566645,0.78230864,0.04,0.04,-9.586749,0.987241804599762,-1.6580814,0.18674004,0.16867299377918243,0.15192096
2412.0666666697684,-0.1108198,-0.68878704,-0.06858673,-2.432721,0.06582342,1.566557,0.7822336,0.04,0.04,-9.579018,1.0068020820617676,-1.6919326,0.18857557,0.1699642390012741,0.15375045
2412.0833333364353,-0.11305107,-0.68686503,-0.069966316,-2.4342558,0.06714434,1.5664684,0.78215796,0.04,0.04,-9.571389,1.027105450630188,-1.7262518,0.19039397,0.17122691869735718,0.15557912
2412.100000003102,-0.11530178,-0.6849262,-0.07135793,-2.435804,0.06847682,1.5663791,0.7820816,0.04,0.04,-9.563478,1.0474995374679565,-1.7608398,0.19219497,0.1724645495414734,0.15740356
2412.116666669769,-0.11757176,-0.68297076,-0.07276146,-2.4373653,0.06982066,1.5662892,0.7820046,0.04,0.04,-9.5556965,1.0685733556747437,-1.7958742,0.19397858,0.17367522418498993,0.15922293
2412.133333336436,-0.119860776,-0.680999,-0.07417674,-2.4389403,0.07117575,1.5661986,0.78192705,0.04,0.04,-9.547096,1.0886518955230713,-1.8308973,0.19574347,0.17485612630844116,0.16103765
2412.150000003103,-0.12216857,-0.67901117,-0.07560366,-2.4405274,0.07254192,1.566107,0.7818487,0.04,0.04,-9.538555,1.1094144582748413,-1.8663201,0.19748895,0.17600755393505096,0.1628484
2412.1666666697697,-0.12449491,-0.6770073,-0.07704201,-2.4421284,0.07391909,1.5660145,0.78176975,0.04,0.04,-9.5296955,1.1302722692489624,-1.9020013,0.19921589,0.17713172733783722,0.16465533
2412.1833333364366,-0.12683956,-0.6749878,-0.07849168,-2.4437413,0.07530705,1.5659213,0.7816903,0.04,0.04,-9.521062,1.1517682075500488,-1.9380934,0.20092265,0.17822080850601196,0.16645437
2412.2000000031035,-0.12920226,-0.6729527,-0.079952516,-2.4453664,0.076705694,1.5658276,0.78161013,0.04,0.04,-9.511403,1.172288179397583,-1.9741709,0.20260845,0.17928355932235718,0.16824953
2412.2166666697703,-0.13158281,-0.67090243,-0.08142437,-2.4470036,0.07811487,1.5657333,0.78152937,0.04,0.04,-9.501819,1.193419337272644,-2.0106423,0.20427418,0.1803181767463684,0.1700368
2412.233333336437,-0.1339809,-0.6688371,-0.08290706,-2.448653,0.07953443,1.5656381,0.7814481,0.04,0.04,-9.492234,1.2151577472686768,-2.0474775,0.2059183,0.18132571876049042,0.17181328
2412.250000003104,-0.13639623,-0.66675687,-0.08440047,-2.4503143,0.0809642,1.565542,0.78136617,0.04,0.04,-9.481967,1.2359826564788818,-2.0842788,0.2075404,0.1823001205921173,0.17358805
2412.266666669771,-0.13882865,-0.66466194,-0.08590438,-2.4519868,0.08240403,1.5654454,0.78128356,0.04,0.04,-9.471639,1.2573623657226562,-2.121466,0.20914078,0.18324415385723114,0.17535399
2412.283333336438,-0.14127788,-0.6625528,-0.08741866,-2.4536712,0.083853774,1.5653484,0.7812005,0.04,0.04,-9.460973,1.2788357734680176,-2.1588836,0.21071908,0.18416118621826172,0.1771131
2412.3000000031047,-0.14374359,-0.66042936,-0.08894315,-2.4553666,0.08531327,1.5652508,0.78111696,0.04,0.04,-9.450412,1.3008772134780884,-2.1966352,0.21227321,0.18504713475704193,0.17886344
2412.3166666697716,-0.14622557,-0.658292,-0.09047766,-2.457074,0.086782366,1.5651525,0.78103274,0.04,0.04,-9.43902,1.3219627141952515,-2.2343647,0.21380416,0.18590450286865234,0.18060447
2412.3333333364385,-0.14872348,-0.65614086,-0.092022024,-2.4587913,0.088260904,1.5650533,0.780948,0.04,0.04,-9.427725,1.343630313873291,-2.2724383,0.21531071,0.18672817945480347,0.18233602
2412.3500000031054,-0.1512371,-0.65397644,-0.09357608,-2.4605203,0.089748666,1.5649533,0.78086287,0.04,0.04,-9.415962,1.365317463874817,-2.3107116,0.21679339,0.18752411007881165,0.18405735
2412.3666666697723,-0.15376607,-0.65179884,-0.095139645,-2.4622593,0.091245525,1.5648528,0.78077704,0.04,0.04,-9.404318,1.387559413909912,-2.349288,0.21825004,0.18828505277633667,0.18576998
2412.383333336439,-0.15631019,-0.64960814,-0.09671258,-2.464009,0.09275131,1.564752,0.7806907,0.04,0.04,-9.391855,1.4088703393936157,-2.3878505,0.21968256,0.18901832401752472,0.18747078
2412.400000003106,-0.15886913,-0.64740455,-0.09829467,-2.4657693,0.09426584,1.5646507,0.780604,0.04,0.04,-9.379428,1.4307185411453247,-2.4267364,0.22108905,0.18971988558769226,0.18916142
2412.416666669773,-0.16144264,-0.6451887,-0.09988572,-2.4675386,0.095789,1.5645487,0.78051674,0.04,0.04,-9.366723,1.4525988101959229,-2.465809,0.22246858,0.19038856029510498,0.19084142
2412.43333333644,-0.16403036,-0.6429604,-0.101485565,-2.4693182,0.097320564,1.5644461,0.78042895,0.04,0.04,-9.353657,1.4748960733413696,-2.5051146,0.2238225,0.19103197753429413,0.19250838
2412.4500000031067,-0.16663207,-0.64072037,-0.103094034,-2.4711075,0.0988604,1.5643429,0.7803407,0.04,0.04,-9.340312,1.4963924884796143,-2.5444314,0.22514923,0.1916404515504837,0.19416401
2412.4666666697735,-0.16924743,-0.6384686,-0.104710944,-2.4729056,0.10040826,1.5642389,0.780252,0.04,0.04,-9.326663,1.5183093547821045,-2.5839937,0.22644855,0.19221894443035126,0.19580427
2412.4833333364404,-0.17187618,-0.63620543,-0.1063361,-2.4747133,0.101964,1.5641346,0.78016293,0.04,0.04,-9.312854,1.5406612157821655,-2.623802,0.22772029,0.19276702404022217,0.19743244
2412.5000000031073,-0.17451793,-0.63393104,-0.107969336,-2.4765296,0.10352741,1.5640299,0.78007334,0.04,0.04,-9.298591,1.562201738357544,-2.6636088,0.22896299,0.19328439235687256,0.19904639
2412.516666669774,-0.17717251,-0.6316457,-0.10961042,-2.4783552,0.105098344,1.5639249,0.7799833,0.04,0.04,-9.284058,1.5841033458709717,-2.703647,0.2301782,0.19377373158931732,0.20064035
2412.533333336441,-0.17983946,-0.6293499,-0.1112592,-2.4801888,0.10667659,1.5638193,0.77989286,0.04,0.04,-9.269392,1.6060932874679565,-2.7438312,0.23136403,0.19423004984855652,0.20222425
2412.550000003108,-0.18251857,-0.62704355,-0.11291544,-2.482031,0.10826199,1.5637132,0.7798021,0.04,0.04,-9.25433,1.6283836364746094,-2.7841973,0.23252133,0.19465859234333038,0.20379375
2412.566666669775,-0.18520948,-0.62472695,-0.11457899,-2.4838812,0.109854385,1.5636065,0.7797108,0.04,0.04,-9.2389965,1.649937629699707,-2.8245714,0.23364802,0.19505444169044495,0.20534843
2412.5833333364417,-0.18791191,-0.6224006,-0.116249636,-2.4857385,0.111453526,1.5634992,0.7796192,0.04,0.04,-9.223379,1.6718307733535767,-2.8651414,0.23474517,0.19541916251182556,0.20688614
2412.6000000031086,-0.19062555,-0.6200647,-0.11792717,-2.4876044,0.11305929,1.5633914,0.7795272,0.04,0.04,-9.207362,1.693685531616211,-2.9058158,0.23581232,0.1957564800977707,0.20840743
2412.6166666697754,-0.19335002,-0.61771935,-0.1196114,-2.4894774,0.1146714,1.5632833,0.77943486,0.04,0.04,-9.19128,1.7158606052398682,-2.94667,0.23684853,0.19606100022792816,0.20990974
2412.6333333364423,-0.19608505,-0.61536545,-0.12130214,-2.4913573,0.11628973,1.563175,0.7793422,0.04,0.04,-9.17477,1.7373384237289429,-2.9875166,0.23785359,0.1963348686695099,0.21139692
2412.650000003109,-0.19883029,-0.6130023,-0.122999184,-2.4932442,0.11791408,1.5630661,0.77924913,0.04,0.04,-9.157896,1.759084939956665,-3.0284836,0.23882835,0.19658347964286804,0.21286528
2412.666666669776,-0.20158546,-0.6106312,-0.12470233,-2.4951377,0.11954425,1.562957,0.7791557,0.04,0.04,-9.14087,1.7807810306549072,-3.0695965,0.23977077,0.1968003213405609,0.2143133
2412.683333336443,-0.20435008,-0.60825205,-0.12641135,-2.4970384,0.12118005,1.5628475,0.7790619,0.04,0.04,-9.123443,1.8027411699295044,-3.1107774,0.24068275,0.1969906985759735,0.2157433
2412.70000000311,-0.20712401,-0.6058649,-0.12812603,-2.498945,0.12282128,1.5627376,0.7789679,0.04,0.04,-9.105907,1.824052095413208,-3.1519656,0.24156247,0.1971481740474701,0.21715464
2412.7166666697767,-0.20990682,-0.60347,-0.1298463,-2.5008576,0.124467745,1.5626274,0.7788736,0.04,0.04,-9.08792,1.8455818891525269,-3.193293,0.24240936,0.19727839529514313,0.21854609
2412.7333333364436,-0.21269819,-0.6010678,-0.13157183,-2.5027764,0.12611926,1.5625167,0.778779,0.04,0.04,-9.069667,1.8673206567764282,-3.234723,0.24322349,0.19737908244132996,0.21991494
2412.7500000031105,-0.21549776,-0.5986587,-0.1333024,-2.5047004,0.12777558,1.5624053,0.778684,0.04,0.04,-9.051247,1.8884552717208862,-3.2761314,0.24400459,0.1974485069513321,0.22126244
2412.7666666697774,-0.21830533,-0.59624255,-0.13503781,-2.5066297,0.12943654,1.5622936,0.77858883,0.04,0.04,-9.032429,1.9097288846969604,-3.3176053,0.24475369,0.19748947024345398,0.22258446
2412.7833333364442,-0.22112042,-0.5938202,-0.1367779,-2.5085642,0.1311019,1.562182,0.7784934,0.04,0.04,-9.013363,1.9310100078582764,-3.3591754,0.2454684,0.19750121235847473,0.2238891
2412.800000003111,-0.22394271,-0.5913917,-0.1385224,-2.510504,0.13277154,1.56207,0.77839774,0.04,0.04,-8.993904,1.9523810148239136,-3.4007735,0.24615,0.19748644530773163,0.22517247
2412.816666669778,-0.22677194,-0.58895737,-0.14027113,-2.512448,0.1344452,1.561958,0.77830184,0.04,0.04,-8.974414,1.9732180833816528,-3.442362,0.24679771,0.19744199514389038,0.2264332
2412.833333336445,-0.22960763,-0.58651745,-0.14202389,-2.5143967,0.13612273,1.5618457,0.77820575,0.04,0.04,-8.954458,1.9941617250442505,-3.4840071,0.24741143,0.19737157225608826,0.22766823
2412.8500000031117,-0.23244953,-0.58407235,-0.14378045,-2.5163496,0.13780385,1.5617331,0.7781095,0.04,0.04,-8.934292,2.015019178390503,-3.5256698,0.2479912,0.19727292656898499,0.22888018
2412.8666666697786,-0.23529726,-0.58162236,-0.1455406,-2.5183063,0.13948835,1.5616204,0.77801293,0.04,0.04,-8.913694,2.0359385013580322,-3.5673478,0.24853666,0.1971476823091507,0.23006697
2412.8833333364455,-0.2381505,-0.5791677,-0.14730409,-2.5202668,0.14117609,1.5615073,0.7779162,0.04,0.04,-8.893068,2.056400775909424,-3.6090038,0.24904819,0.1969958394765854,0.23123042
2412.9000000031124,-0.24100891,-0.5767086,-0.14907077,-2.5222306,0.14286683,1.5613942,0.77781934,0.04,0.04,-8.8720875,2.0768954753875732,-3.6506748,0.24952504,0.19681575894355774,0.23236592
2412.9166666697793,-0.24387214,-0.57424545,-0.15084039,-2.5241978,0.14456041,1.5612808,0.7777223,0.04,0.04,-8.850816,2.097317695617676,-3.6923661,0.24996687,0.1966097503900528,0.23347805
2412.933333336446,-0.24673976,-0.57177866,-0.15261275,-2.526168,0.14625655,1.5611674,0.7776251,0.04,0.04,-8.829147,2.117713451385498,-3.7340102,0.2503739,0.19637583196163177,0.23456365
2412.950000003113,-0.24961153,-0.56930834,-0.1543876,-2.528141,0.14795509,1.5610538,0.77752775,0.04,0.04,-8.807507,2.1377220153808594,-3.7756448,0.25074604,0.1961166262626648,0.23562199
2412.96666666978,-0.25248703,-0.56683475,-0.15616477,-2.5301166,0.1496558,1.5609399,0.77743036,0.04,0.04,-8.785439,2.1577301025390625,-3.817267,0.2510832,0.19583213329315186,0.23665439
2412.983333336447,-0.25536603,-0.56435853,-0.157944,-2.532094,0.15135846,1.5608258,0.77733284,0.04,0.04,-8.762986,2.1776881217956543,-3.8588295,0.25138435,0.1955196112394333,0.23765875
2413.0000000031137,-0.25824803,-0.56187963,-0.15972507,-2.5340738,0.15306287,1.5607116,0.7772352,0.04,0.04,-8.740567,2.197314500808716,-3.9003646,0.25165057,0.19518333673477173,0.23863484
2413.0166666697805,-0.26113272,-0.5593985,-0.16150782,-2.5360556,0.15476884,1.5605973,0.77713746,0.04,0.04,-8.717779,2.2168896198272705,-3.9418788,0.25188106,0.19482041895389557,0.2395819
2413.0333333364474,-0.26401976,-0.55691546,-0.16329196,-2.5380383,0.15647613,1.5604829,0.77703965,0.04,0.04,-8.694743,2.236280679702759,-3.9833155,0.2520766,0.1944321095943451,0.24049492
2413.0500000031143,-0.26690882,-0.55443096,-0.16507733,-2.5400226,0.15818457,1.5603683,0.7769418,0.04,0.04,-8.671166,2.255610704421997,-4.024676,0.25223675,0.19402219355106354,0.24138308
2413.066666669781,-0.26979956,-0.5519451,-0.16686372,-2.5420077,0.15989394,1.5602536,0.7768439,0.04,0.04,-8.647885,2.2746951580047607,-4.066013,0.25236094,0.19358564913272858,0.2422438
2413.083333336448,-0.2726915,-0.54945827,-0.16865085,-2.5439935,0.16160402,1.5601391,0.7767459,0.04,0.04,-8.624091,2.293611764907837,-4.107258,0.2524493,0.19312579929828644,0.24307024
2413.100000003115,-0.27558437,-0.5469706,-0.17043853,-2.5459802,0.16331464,1.5600244,0.7766479,0.04,0.04,-8.600031,2.3123779296875,-4.1484427,0.2525034,0.19264528155326843,0.24386853
2413.116666669782,-0.27847788,-0.5444825,-0.17222655,-2.5479674,0.16502546,1.5599097,0.77654994,0.04,0.04,-8.575647,2.331014394760132,-4.189506,0.25252104,0.1921379715204239,0.24463679
2413.1333333364487,-0.2813716,-0.5419944,-0.17401463,-2.5499551,0.16673644,1.5597949,0.77645195,0.04,0.04,-8.551482,2.3494436740875244,-4.2305436,0.25250226,0.19160477817058563,0.24537295
2413.1500000031156,-0.28426528,-0.5395066,-0.17580259,-2.5519423,0.16844727,1.5596801,0.77635396,0.04,0.04,-8.526844,2.3676931858062744,-4.271458,0.25244793,0.19104835391044617,0.2460783
2413.1666666697824,-0.28715837,-0.5370192,-0.1775903,-2.553929,0.17015776,1.5595654,0.77625597,0.04,0.04,-8.501893,2.3857545852661133,-4.3122654,0.25235802,0.1904716044664383,0.2467496
2413.1833333364493,-0.2900507,-0.53453255,-0.1793774,-2.5559154,0.17186774,1.5594507,0.776158,0.04,0.04,-8.476559,2.4036054611206055,-4.3529444,0.25223282,0.18987171351909637,0.24738927
2413.200000003116,-0.29294178,-0.5320471,-0.18116376,-2.5579002,0.17357689,1.5593362,0.7760601,0.04,0.04,-8.451533,2.421341896057129,-4.3935823,0.25207207,0.18924909830093384,0.2479959
2413.216666669783,-0.29583135,-0.52956325,-0.1829491,-2.559884,0.17528512,1.5592217,0.77596223,0.04,0.04,-8.425976,2.4388270378112793,-4.4340653,0.25187564,0.188607856631279,0.24856879
2413.23333333645,-0.29871893,-0.5270809,-0.18473324,-2.5618663,0.17699215,1.5591075,0.7758644,0.04,0.04,-8.400007,2.456066131591797,-4.47435,0.25164452,0.18794512748718262,0.24910717
2413.250000003117,-0.30160436,-0.5246007,-0.18651599,-2.5638473,0.1786978,1.5589933,0.7757667,0.04,0.04,-8.374399,2.473253011703491,-4.514641,0.25137842,0.18726211786270142,0.24961397
2413.2666666697837,-0.30448723,-0.5221226,-0.18829706,-2.5658262,0.18040186,1.5588793,0.77566904,0.04,0.04,-8.348372,2.4901764392852783,-4.554722,0.25107607,0.18655693531036377,0.2500843
2413.2833333364506,-0.3073671,-0.5196474,-0.19007628,-2.5678034,0.18210408,1.5587653,0.77557147,0.04,0.04,-8.322113,2.5068893432617188,-4.5946803,0.2507386,0.18583138287067413,0.2505209
2413.3000000031175,-0.31024364,-0.51717514,-0.19185336,-2.569778,0.18380433,1.5586513,0.7754741,0.04,0.04,-8.295424,2.5232863426208496,-4.634406,0.25036606,0.185084730386734,0.2509227
2413.3166666697844,-0.31311652,-0.51470613,-0.1936282,-2.57175,0.18550235,1.5585376,0.77537674,0.04,0.04,-8.269127,2.539689064025879,-4.674118,0.24995866,0.18431854248046875,0.25128886
2413.3333333364512,-0.31598538,-0.51224065,-0.19540046,-2.5737193,0.18719794,1.558424,0.7752796,0.04,0.04,-8.242384,2.5557892322540283,-4.713608,0.24951664,0.18353265523910522,0.25161928
2413.350000003118,-0.31884986,-0.5097791,-0.19717005,-2.575686,0.18889089,1.5583106,0.77518255,0.04,0.04,-8.215488,2.5716614723205566,-4.752944,0.24903993,0.18272705376148224,0.25191468
2413.366666669785,-0.3217097,-0.50732166,-0.19893667,-2.5776482,0.19058098,1.5581974,0.7750856,0.04,0.04,-8.188141,2.5871689319610596,-4.7920322,0.24852832,0.181901216506958,0.25217277
2413.383333336452,-0.32456437,-0.5048686,-0.20070012,-2.579607,0.192268,1.5580844,0.77498895,0.04,0.04,-8.161126,2.60273814201355,-4.831097,0.24798304,0.18106134235858917,0.25239184
2413.4000000031187,-0.32741374,-0.5024204,-0.2024602,-2.5815625,0.19395176,1.5579717,0.7748924,0.04,0.04,-8.133796,2.6179659366607666,-4.8699174,0.24740398,0.18020237982273102,0.25257546
2413.4166666697856,-0.3302574,-0.49997723,-0.20421666,-2.583514,0.19563204,1.5578592,0.7747961,0.04,0.04,-8.106389,2.633016586303711,-4.908543,0.24679002,0.17932333052158356,0.2527236
2413.4333333364525,-0.33309487,-0.4975394,-0.20596932,-2.5854611,0.1973087,1.5577469,0.77470005,0.04,0.04,-8.07842,2.6475961208343506,-4.946902,0.24614151,0.1784266233444214,0.25283504
2413.4500000031194,-0.33592588,-0.4951073,-0.20771793,-2.5874033,0.19898148,1.5576348,0.7746042,0.04,0.04,-8.051044,2.662368059158325,-4.9852405,0.24545959,0.1775122582912445,0.25290987
2413.4666666697863,-0.33875018,-0.49268106,-0.20946229,-2.5893412,0.20065017,1.5575231,0.7745086,0.04,0.04,-8.023119,2.6766679286956787,-5.0232925,0.24474537,0.17658336460590363,0.25294477
2413.483333336453,-0.34156725,-0.49026108,-0.21120223,-2.5912738,0.2023146,1.5574117,0.7744132,0.04,0.04,-7.9948277,2.690565586090088,-5.0610657,0.24399714,0.17563706636428833,0.2529434
2413.50000000312,-0.3443769,-0.48784772,-0.21293749,-2.5932012,0.20397455,1.5573003,0.7743181,0.04,0.04,-7.9671392,2.7046914100646973,-5.098797,0.24321565,0.17467300593852997,0.25290442
2413.516666669787,-0.34717876,-0.48544106,-0.21466789,-2.5951235,0.20562984,1.5571892,0.7742232,0.04,0.04,-7.938941,2.718348503112793,-5.1362214,0.2424025,0.17369388043880463,0.25282875
2413.533333336454,-0.34997255,-0.48304158,-0.2163932,-2.5970397,0.2072802,1.5570786,0.7741286,0.04,0.04,-7.9107456,2.731783628463745,-5.173455,0.24155545,0.17269547283649445,0.25271133
2413.5500000031207,-0.35275772,-0.48064938,-0.21811321,-2.59895,0.20892549,1.5569683,0.7740343,0.04,0.04,-7.881947,2.7447075843811035,-5.210362,0.24067657,0.17168618738651276,0.25255823
2413.5666666697875,-0.35553414,-0.47826502,-0.21982774,-2.6008546,0.2105655,1.5568583,0.7739404,0.04,0.04,-7.853913,2.757927179336548,-5.2472486,0.23976608,0.1706598997116089,0.2523656
2413.5833333364544,-0.35830134,-0.47588867,-0.22153653,-2.602753,0.21220003,1.556749,0.7738467,0.04,0.04,-7.825503,2.7706894874572754,-5.2837925,0.23882288,0.16961614787578583,0.25213316
2413.6000000031213,-0.3610591,-0.4735204,-0.22323948,-2.6046448,0.21382892,1.5566399,0.7737534,0.04,0.04,-7.7968974,2.7831809520721436,-5.320126,0.23784904,0.16856008768081665,0.25186253
2413.616666669788,-0.36380708,-0.4711608,-0.22493634,-2.6065295,0.21545194,1.5565311,0.7736604,0.04,0.04,-7.7679367,2.7951595783233643,-5.3561077,0.23684269,0.1674872189760208,0.25155324
2413.633333336455,-0.3665449,-0.46881,-0.22662689,-2.6084068,0.21706888,1.556423,0.7735677,0.04,0.04,-7.7395825,2.807513475418091,-5.392055,0.235806,0.1664021760225296,0.25120512
2413.650000003122,-0.3692723,-0.46646833,-0.22831091,-2.610277,0.21867962,1.5563151,0.77347535,0.04,0.04,-7.710833,2.819312572479248,-5.4276733,0.2347393,0.16530556976795197,0.25081864
2413.666666669789,-0.37198886,-0.464136,-0.22998825,-2.6121392,0.22028391,1.5562075,0.7733834,0.04,0.04,-7.682086,2.830880641937256,-5.4630146,0.23364201,0.1641937643289566,0.2503901
2413.6833333364557,-0.37469438,-0.46181336,-0.23165867,-2.6139941,0.22188155,1.5561004,0.7732919,0.04,0.04,-7.652818,2.841856002807617,-5.4980035,0.2325154,0.1630719155073166,0.24992326
2413.7000000031226,-0.37738845,-0.45950058,-0.233322,-2.6158412,0.2234724,1.5559937,0.77320075,0.04,0.04,-7.6244726,2.85335111618042,-5.5329638,0.23135766,0.16193337738513947,0.24941838
2413.7166666697894,-0.38007075,-0.4571981,-0.23497799,-2.61768,0.22505625,1.5558876,0.7731099,0.04,0.04,-7.595612,2.864220142364502,-5.5675697,0.23017113,0.1607830822467804,0.24887316
2413.7333333364563,-0.38274106,-0.45490617,-0.2366265,-2.6195107,0.22663285,1.555782,0.77301955,0.04,0.04,-7.5663586,2.8744871616363525,-5.6017704,0.2289558,0.1596205085515976,0.24828975
2413.750000003123,-0.38539895,-0.4526249,-0.23826727,-2.6213331,0.22820212,1.5556768,0.7729296,0.04,0.04,-7.537881,2.885293960571289,-5.6359634,0.2277115,0.15844590961933136,0.24766514
2413.76666666979,-0.3880443,-0.45035464,-0.23990023,-2.623147,0.2297638,1.5555723,0.77284014,0.04,0.04,-7.5091004,2.8954808712005615,-5.6697683,0.22643848,0.15725702047348022,0.24700114
2413.783333336457,-0.39067653,-0.44809568,-0.2415251,-2.6249516,0.23131776,1.5554682,0.77275115,0.04,0.04,-7.480227,2.90547776222229,-5.7033095,0.22513615,0.15605637431144714,0.24629866
2413.800000003124,-0.3932956,-0.4458482,-0.24314168,-2.6267467,0.23286371,1.5553645,0.77266246,0.04,0.04,-7.4509435,2.914750337600708,-5.736434,0.22380719,0.15484619140625,0.24555653
2413.8166666697907,-0.39590096,-0.44361258,-0.24474983,-2.6285322,0.23440166,1.5552615,0.7725743,0.04,0.04,-7.4224906,2.924694776535034,-5.7695503,0.22245115,0.15362435579299927,0.2447775
2413.8333333364576,-0.39849234,-0.44138896,-0.24634936,-2.6303084,0.23593132,1.5551589,0.7724866,0.04,0.04,-7.3936515,2.9339520931243896,-5.8022647,0.22106835,0.15239427983760834,0.24395779
2413.8500000031245,-0.40106964,-0.4391777,-0.24794008,-2.6320746,0.2374525,1.555057,0.7723995,0.04,0.04,-7.3649254,2.943010091781616,-5.834675,0.21965906,0.15115052461624146,0.24310148
2413.8666666697914,-0.40363243,-0.4369789,-0.24952175,-2.633831,0.2389651,1.5549557,0.77231276,0.04,0.04,-7.335747,2.9513778686523438,-5.8666873,0.21822317,0.14989922940731049,0.24220407
2413.8833333364582,-0.40618044,-0.43479294,-0.25109428,-2.635577,0.24046886,1.554855,0.77222663,0.04,0.04,-7.3074846,2.9604218006134033,-5.89869,0.2167618,0.14863690733909607,0.24126668
2413.900000003125,-0.40871337,-0.43262002,-0.25265744,-2.6373124,0.24196365,1.5547547,0.77214104,0.04,0.04,-7.278831,2.96880841255188,-5.930253,0.21527436,0.1473647803068161,0.24029091
2413.916666669792,-0.41123107,-0.43046045,-0.25421113,-2.6390371,0.24344933,1.5546554,0.77205586,0.04,0.04,-7.250232,2.9769556522369385,-5.9615316,0.21376185,0.14608395099639893,0.2392759
2413.933333336459,-0.41373292,-0.4283144,-0.25575504,-2.6407511,0.24492571,1.5545566,0.7719712,0.04,0.04,-7.221257,2.984431505203247,-5.992366,0.21222576,0.14479602873325348,0.23822467
2413.9500000031258,-0.41621894,-0.42618215,-0.25728908,-2.6424541,0.24639258,1.5544581,0.7718872,0.04,0.04,-7.193261,2.9926156997680664,-6.0232,0.21066545,0.14349792897701263,0.23713325
2413.9666666697926,-0.4186887,-0.42406392,-0.25881305,-2.6441464,0.24784982,1.5543604,0.77180374,0.04,0.04,-7.164919,3.0001378059387207,-6.05358,0.20908064,0.1421891748905182,0.23600392
2413.9833333364595,-0.42114213,-0.42195994,-0.26032686,-2.6458263,0.24929729,1.5542635,0.7717207,0.04,0.04,-7.136242,3.006938934326172,-6.0835257,0.20747197,0.14087100327014923,0.23483843
2414.0000000031264,-0.42357877,-0.41987047,-0.2618302,-2.6474953,0.25073478,1.5541673,0.7716384,0.04,0.04,-7.1083193,3.0144972801208496,-6.1134644,0.20584227,0.13955055177211761,0.23363368
2414.0166666697933,-0.42599836,-0.4177957,-0.26332313,-2.649152,0.25216213,1.5540718,0.77155656,0.04,0.04,-7.0803227,3.021406888961792,-6.142957,0.2041886,0.1382184624671936,0.23239252
2414.03333333646,-0.42840084,-0.41573584,-0.26480532,-2.6507976,0.25357926,1.5539769,0.77147526,0.04,0.04,-7.052236,3.028052568435669,-6.172134,0.20251386,0.13688164949417114,0.23111352
2414.050000003127,-0.43078572,-0.4136911,-0.26627666,-2.652431,0.254986,1.5538825,0.7713946,0.04,0.04,-7.0240283,3.0340282917022705,-6.2008576,0.20081614,0.13553380966186523,0.22979772
2414.066666669794,-0.43315282,-0.41166192,-0.26773688,-2.6540518,0.2563821,1.5537889,0.7713146,0.04,0.04,-6.9966445,3.0408148765563965,-6.229579,0.19909704,0.13417811691761017,0.22844487
2414.083333336461,-0.43550187,-0.40964827,-0.26918596,-2.65566,0.2577675,1.5536962,0.7712352,0.04,0.04,-6.968953,3.0468697547912598,-6.2578354,0.19735794,0.13281796872615814,0.2270568
2414.1000000031277,-0.4378328,-0.40765047,-0.27062368,-2.6572556,0.2591421,1.5536042,0.7711565,0.04,0.04,-6.9413757,3.0527172088623047,-6.2857985,0.19559875,0.13145266473293304,0.22563262
2414.1166666697945,-0.44014505,-0.4056686,-0.27204987,-2.6588387,0.2605057,1.553513,0.77107835,0.04,0.04,-6.9135923,3.0578556060791016,-6.3132715,0.1938185,0.13007964193820953,0.2241724
2414.1333333364614,-0.44243854,-0.40370288,-0.2734644,-2.6604095,0.26185817,1.5534223,0.7710008,0.04,0.04,-6.886746,3.0638740062713623,-6.3407664,0.19201961,0.1287001669406891,0.22267815
2414.1500000031283,-0.444713,-0.40175352,-0.27486736,-2.6619656,0.2631993,1.5533323,0.770924,0.04,0.04,-6.8597264,3.069200277328491,-6.367778,0.19020078,0.127310112118721,0.22114873
2414.166666669795,-0.44696832,-0.39982083,-0.2762583,-2.6635096,0.26452902,1.5532434,0.77084774,0.04,0.04,-6.832557,3.0742433071136475,-6.394491,0.18836427,0.125920832157135,0.21958362
2414.183333336462,-0.44920412,-0.39790493,-0.27763715,-2.6650412,0.26584718,1.5531552,0.77077216,0.04,0.04,-6.8054442,3.0786218643188477,-6.42071,0.1865088,0.12452228367328644,0.21798408
2414.200000003129,-0.45142013,-0.39600617,-0.27900383,-2.6665578,0.26715365,1.5530677,0.7706973,0.04,0.04,-6.7793117,3.083977222442627,-6.4469595,0.18463421,0.12311425060033798,0.21635254
2414.216666669796,-0.4536162,-0.3941245,-0.2803582,-2.668061,0.26844826,1.5529809,0.7706231,0.04,0.04,-6.752632,3.0884647369384766,-6.4727077,0.18274494,0.12170781940221786,0.21468745
2414.2333333364627,-0.45579225,-0.39226025,-0.2817,-2.66955,0.269731,1.5528948,0.77054965,0.04,0.04,-6.7259536,3.092245578765869,-6.497977,0.18083827,0.12029284983873367,0.21298774
2414.2500000031296,-0.45794803,-0.39041352,-0.28302923,-2.6710248,0.27100167,1.5528097,0.7704768,0.04,0.04,-6.7001376,3.0970327854156494,-6.5232673,0.17891552,0.11887671053409576,0.2112553
2414.2666666697965,-0.46008325,-0.38858452,-0.28434575,-2.672486,0.27226016,1.5527257,0.77040464,0.04,0.04,-6.67418,3.1010890007019043,-6.548074,0.17697692,0.11745556443929672,0.20949191
2414.2833333364633,-0.46219775,-0.38677338,-0.28564936,-2.6739326,0.27350637,1.5526422,0.77033335,0.04,0.04,-6.6484575,3.104980707168579,-6.572569,0.17502251,0.11602898687124252,0.20769846
2414.30000000313,-0.46429124,-0.3849804,-0.28693998,-2.6753647,0.2747401,1.5525594,0.77026254,0.04,0.04,-6.62236,3.1080236434936523,-6.5965543,0.17305312,0.11460040509700775,0.20587198
2414.316666669797,-0.46636367,-0.38320556,-0.28821763,-2.6767824,0.27596134,1.5524775,0.77019244,0.04,0.04,-6.5974283,3.1121699810028076,-6.620573,0.17107019,0.11316587775945663,0.20401078
2414.333333336464,-0.46841463,-0.3814492,-0.28948203,-2.6781852,0.27716982,1.5523967,0.77012324,0.04,0.04,-6.5721984,3.115593194961548,-6.6441097,0.16907305,0.11172819137573242,0.20212387
2414.350000003131,-0.47044414,-0.37971136,-0.29073304,-2.6795735,0.27836552,1.5523167,0.7700546,0.04,0.04,-6.5471697,3.1187922954559326,-6.6673226,0.1670625,0.11028990149497986,0.20020738
2414.3666666697977,-0.47245198,-0.37799218,-0.29197067,-2.680947,0.27954856,1.5522373,0.7699869,0.04,0.04,-6.522018,3.121251344680786,-6.6900306,0.16503939,0.10884607583284378,0.19826296
2414.3833333364646,-0.47443798,-0.37629196,-0.29319477,-2.6823056,0.2807185,1.5521588,0.7699199,0.04,0.04,-6.4979043,3.1248297691345215,-6.7127814,0.1630018,0.10739701241254807,0.1962893
2414.4000000031315,-0.47640193,-0.3746107,-0.2944052,-2.6836486,0.28187525,1.5520813,0.7698535,0.04,0.04,-6.473505,3.127567768096924,-6.735038,0.16095336,0.10594719648361206,0.19428249
2414.4166666697984,-0.47834367,-0.37294862,-0.2956019,-2.684976,0.283019,1.5520048,0.76978797,0.04,0.04,-6.4493303,3.130201816558838,-6.756985,0.15889393,0.10449647158384323,0.19224942
2414.4333333364652,-0.48026288,-0.37130576,-0.29678488,-2.6862884,0.2841494,1.5519291,0.7697231,0.04,0.04,-6.424991,3.132079839706421,-6.778406,0.15682381,0.10304436832666397,0.19019748
2414.450000003132,-0.48215958,-0.36968228,-0.29795372,-2.6875856,0.2852666,1.5518543,0.7696592,0.04,0.04,-6.401742,3.135068416595459,-6.799893,0.15474342,0.10158989578485489,0.18811467
2414.466666669799,-0.48403373,-0.36807847,-0.29910856,-2.6888666,0.28637028,1.5517801,0.769596,0.04,0.04,-6.3783727,3.137305974960327,-6.820875,0.15265165,0.10013015568256378,0.18600668
2414.483333336466,-0.48588496,-0.36649427,-0.30024937,-2.690132,0.28746045,1.5517073,0.7695334,0.04,0.04,-6.354652,3.1386849880218506,-6.841348,0.15055165,0.09867246448993683,0.18386841
2414.5000000031328,-0.4877133,-0.36492977,-0.30137587,-2.6913815,0.28853706,1.5516351,0.76947176,0.04,0.04,-6.332089,3.141300678253174,-6.861893,0.14844352,0.09721514582633972,0.18170364
2414.5166666697996,-0.48951852,-0.36338514,-0.30248818,-2.6926148,0.28959998,1.5515639,0.7694107,0.04,0.04,-6.3094087,3.143181562423706,-6.8819213,0.1463258,0.09575466811656952,0.1795195
2414.5333333364665,-0.49130052,-0.3618604,-0.30358613,-2.6938326,0.29064915,1.5514935,0.7693507,0.04,0.04,-6.2868614,3.144923210144043,-6.901636,0.14420143,0.09429603070020676,0.1773178
2414.5500000031334,-0.49305925,-0.36035585,-0.30466962,-2.6950343,0.29168454,1.5514241,0.7692913,0.04,0.04,-6.2643223,3.1458425521850586,-6.9208603,0.14206767,0.09283333271741867,0.17508607
2414.5666666698003,-0.49479446,-0.3588715,-0.30573866,-2.6962197,0.29270607,1.5513558,0.76923287,0.04,0.04,-6.242742,3.148045301437378,-6.9401326,0.13992786,0.09137170761823654,0.17283966
2414.583333336467,-0.49650612,-0.35740748,-0.30679312,-2.6973891,0.2937136,1.5512884,0.7691751,0.04,0.04,-6.2210064,3.1494295597076416,-6.9589047,0.13778134,0.08991105109453201,0.1705749
2414.600000003134,-0.49819407,-0.35596386,-0.30783293,-2.698542,0.29470715,1.5512218,0.769118,0.04,0.04,-6.1995974,3.150639533996582,-6.977368,0.13562922,0.08844996243715286,0.16827703
2414.616666669801,-0.4998583,-0.35454056,-0.30885798,-2.6996791,0.29568657,1.5511562,0.7690619,0.04,0.04,-6.177975,3.151193618774414,-6.9953275,0.13347317,0.08699045330286026,0.16597287
2414.633333336468,-0.50149846,-0.3531379,-0.3098683,-2.7007995,0.29665193,1.5510914,0.7690065,0.04,0.04,-6.1575418,3.152900218963623,-7.0133696,0.13130976,0.08552815765142441,0.16363859
2414.6500000031347,-0.50311494,-0.3517559,-0.31086376,-2.7019033,0.2976031,1.5510277,0.768952,0.04,0.04,-6.136866,3.153848886489868,-7.030892,0.12914416,0.08406835049390793,0.16128872
2414.6666666698015,-0.5047072,-0.3503945,-0.3118444,-2.7029905,0.2985401,1.550965,0.76889825,0.04,0.04,-6.1164894,3.1547908782958984,-7.048119,0.1269733,0.08261002600193024,0.1589279
2414.6833333364684,-0.5062753,-0.34905383,-0.31281015,-2.7040613,0.29946285,1.550903,0.76884544,0.04,0.04,-6.0959907,3.1548497676849365,-7.064858,0.12480016,0.0811544731259346,0.15654746
2414.7000000031353,-0.5078193,-0.34773397,-0.31376097,-2.7051165,0.3003713,1.5508423,0.7687934,0.04,0.04,-6.0765643,3.1562185287475586,-7.0816474,0.12262421,0.07969900220632553,0.15415296
2414.716666669802,-0.5093389,-0.346435,-0.31469682,-2.7061536,0.30126545,1.5507824,0.76874226,0.04,0.04,-6.0571733,3.1568868160247803,-7.0979733,0.12044387,0.07824190706014633,0.1517425
2414.733333336469,-0.5108342,-0.3451569,-0.3156176,-2.7071745,0.3021452,1.5507236,0.7686918,0.04,0.04,-6.037363,3.15665602684021,-7.1137905,0.11826428,0.07679253071546555,0.14931786
2414.750000003136,-0.5123052,-0.3438997,-0.3165233,-2.7081788,0.30301055,1.5506655,0.7686421,0.04,0.04,-6.0188127,3.1577658653259277,-7.1296835,0.116083495,0.07534412294626236,0.1468753
2414.766666669803,-0.5137517,-0.34266353,-0.317414,-2.7091663,0.30386147,1.5506085,0.7685933,0.04,0.04,-6.0001745,3.1581971645355225,-7.1450844,0.11390184,0.07389587163925171,0.1444291
2414.7833333364697,-0.51517385,-0.34144837,-0.31828952,-2.7101374,0.30469793,1.5505525,0.76854527,0.04,0.04,-5.981763,3.1584532260894775,-7.160191,0.11172024,0.07245220243930817,0.14196767
2414.8000000031366,-0.5165715,-0.3402541,-0.31915,-2.711091,0.30551994,1.5504975,0.76849824,0.04,0.04,-5.963304,3.158010482788086,-7.174814,0.109539114,0.0710105150938034,0.13949509
2414.8166666698035,-0.5179448,-0.33908087,-0.31999534,-2.7120278,0.30632752,1.5504434,0.76845187,0.04,0.04,-5.945805,3.158827304840088,-7.189527,0.107358344,0.06957445293664932,0.13701314
2414.8333333364703,-0.51929337,-0.33792874,-0.32082564,-2.7129478,0.3071205,1.5503902,0.7684066,0.04,0.04,-5.928264,3.1589043140411377,-7.2037435,0.105179876,0.06814178824424744,0.13452071
2414.850000003137,-0.5206173,-0.3367977,-0.32164064,-2.713851,0.30789906,1.5503383,0.7683619,0.04,0.04,-5.9110475,3.1589314937591553,-7.217669,0.10300242,0.06671305745840073,0.13202165
2414.866666669804,-0.52191675,-0.33568782,-0.32244045,-2.7147377,0.30866316,1.5502872,0.76831836,0.04,0.04,-5.8937545,3.1581759452819824,-7.2311187,0.1008297,0.06528909504413605,0.1295153
2414.883333336471,-0.5231916,-0.33459884,-0.32322523,-2.7156074,0.30941278,1.5502369,0.7682753,0.04,0.04,-5.8775015,3.1587283611297607,-7.2446527,0.098658465,0.06386882811784744,0.1269951
2414.900000003138,-0.5244421,-0.33353093,-0.32399485,-2.7164607,0.31014788,1.5501875,0.7682331,0.04,0.04,-5.8611794,3.158618211746216,-7.2577095,0.09649251,0.0624513141810894,0.12447698
2414.9166666698047,-0.52566814,-0.33248413,-0.3247494,-2.7172973,0.31086856,1.5501393,0.7681918,0.04,0.04,-5.8451376,3.1584558486938477,-7.270486,0.0943297,0.061038099229335785,0.1219579
2414.9333333364716,-0.5268697,-0.33145824,-0.32548872,-2.718117,0.31157476,1.5500923,0.76815116,0.04,0.04,-5.829066,3.157489538192749,-7.2828026,0.09217093,0.05963015928864479,0.11942478
2414.9500000031385,-0.52804685,-0.33045334,-0.32621303,-2.7189193,0.31226647,1.550046,0.76811165,0.04,0.04,-5.813919,3.1578826904296875,-7.295207,0.0900194,0.058230556547641754,0.11689978
2414.9666666698054,-0.52919924,-0.32946938,-0.3269222,-2.7197053,0.3129438,1.5500003,0.7680726,0.04,0.04,-5.798689,3.1574814319610596,-7.307131,0.087872915,0.05683799460530281,0.11436726
2414.9833333364722,-0.53032744,-0.32850632,-0.3276164,-2.7204745,0.31360677,1.549956,0.7680348,0.04,0.04,-5.783588,3.1564135551452637,-7.318591,0.08573528,0.05544717609882355,0.11183653
2415.000000003139,-0.53143114,-0.3275641,-0.3282956,-2.7212272,0.31425542,1.5499129,0.76799756,0.04,0.039999988,-5.769357,3.156609058380127,-7.3301644,0.08360205,0.054064907133579254,0.10929809
2415.016666669806,-0.53251076,-0.32664275,-0.32895982,-2.721963,0.31488976,1.5498705,0.76796144,0.04,0.039999977,-5.7550793,3.156162977218628,-7.3412747,0.08147913,0.052691299468278885,0.106770374
2415.033333336473,-0.53356594,-0.32574216,-0.32960913,-2.7226818,0.3155098,1.5498285,0.7679259,0.04,0.039999966,-5.7411265,3.155611515045166,-7.3520975,0.079362266,0.05132390931248665,0.104236774
2415.0500000031398,-0.534597,-0.3248622,-0.33024356,-2.7233846,0.31611568,1.5497879,0.767891,0.04,0.039999966,-5.7270865,3.154416084289551,-7.3624606,0.0772573,0.04996343329548836,0.101716034
2415.0666666698066,-0.53560424,-0.3240028,-0.33086318,-2.7240715,0.31670734,1.5497488,0.76785713,0.04,0.039999973,-5.714115,3.154468536376953,-7.3729496,0.07516238,0.04861007258296013,0.099194326
2415.0833333364735,-0.5365875,-0.32316387,-0.33146805,-2.7247417,0.31728494,1.5497102,0.7678239,0.04,0.039999958,-5.7010903,3.153857946395874,-7.383,0.07307497,0.047265805304050446,0.096671805
2415.1000000031404,-0.5375468,-0.3223454,-0.3320582,-2.7253954,0.31784847,1.5496718,0.7677917,0.04,0.039999947,-5.688298,3.1532554626464844,-7.392756,0.07099999,0.04592858999967575,0.0941666
2415.1166666698073,-0.5384823,-0.3215473,-0.3326338,-2.7260327,0.31839797,1.5496348,0.7677601,0.04,0.039999947,-5.675502,3.1518971920013428,-7.402073,0.06893553,0.044597335159778595,0.091662355
2415.133333336474,-0.5393942,-0.3207695,-0.3331948,-2.7266543,0.31893358,1.5495996,0.7677296,0.04,0.039999943,-5.663617,3.1518170833587646,-7.411511,0.06688468,0.04327797517180443,0.08916715
2415.150000003141,-0.5402825,-0.32001176,-0.3337413,-2.7272599,0.31945533,1.5495648,0.7676997,0.04,0.039999932,-5.651749,3.1511058807373047,-7.420525,0.064845055,0.04197102412581444,0.0866808
2415.166666669808,-0.54114753,-0.31927407,-0.3342734,-2.7278497,0.31996328,1.5495301,0.7676705,0.04,0.039999902,-5.6402287,3.1503419876098633,-7.4292483,0.062819,0.04066918045282364,0.08420225
2415.183333336475,-0.5419893,-0.31855613,-0.3347912,-2.7284234,0.32045755,1.5494968,0.7676422,0.04,0.0399999,-5.628624,3.1489713191986084,-7.437549,0.06080711,0.03937344253063202,0.081737764
2415.2000000031417,-0.54280806,-0.31785807,-0.33529475,-2.7289813,0.32093826,1.5494653,0.76761454,0.04,0.039999887,-5.617898,3.1487863063812256,-7.445988,0.058809463,0.038090914487838745,0.07928362
2415.2166666698085,-0.5436037,-0.31717968,-0.33578417,-2.729523,0.32140547,1.5494343,0.7675878,0.04,0.039999887,-5.6071367,3.1479692459106445,-7.4540043,0.05682807,0.03682390972971916,0.07684437
2415.2333333364754,-0.5443766,-0.31652072,-0.33625954,-2.7300491,0.3218592,1.5494034,0.76756173,0.04,0.03999989,-5.5963516,3.1464920043945312,-7.4615765,0.05486333,0.03556883707642555,0.07441917
2415.2500000031423,-0.545127,-0.31588107,-0.336721,-2.73056,0.3222996,1.5493735,0.7675366,0.04,0.03999989,-5.586569,3.146270513534546,-7.4692316,0.052914858,0.03431955724954605,0.07200956
2415.266666669809,-0.5458548,-0.31526065,-0.33716863,-2.7310555,0.32272694,1.5493454,0.7675121,0.04,0.039999884,-5.57671,3.1454174518585205,-7.476514,0.050982628,0.03308223932981491,0.06961671
2415.283333336476,-0.5465602,-0.31465915,-0.33760253,-2.7315357,0.3231412,1.5493181,0.7674883,0.04,0.039999884,-5.567068,3.1445152759552,-7.4835796,0.04906989,0.03186308592557907,0.06724102
2415.300000003143,-0.5472439,-0.3140765,-0.33802286,-2.7320008,0.32354248,1.549291,0.7674653,0.04,0.03999988,-5.557491,3.143035888671875,-7.4902234,0.04717624,0.030655348673462868,0.0648857
2415.31666666981,-0.54790545,-0.3135125,-0.33842984,-2.7324512,0.3239309,1.5492643,0.767443,0.04,0.03999988,-5.548739,3.142733097076416,-7.496941,0.045301013,0.029458502307534218,0.06254823
2415.3333333364767,-0.5485455,-0.3129671,-0.33882347,-2.7328873,0.32430652,1.5492392,0.76742166,0.04,0.03999988,-5.5400567,3.141819715499878,-7.503282,0.0434457,0.028270404785871506,0.060232453
2415.3500000031436,-0.5491642,-0.31243992,-0.33920395,-2.7333083,0.3246695,1.5492156,0.7674007,0.04,0.03999988,-5.5315704,3.140911340713501,-7.509427,0.041610103,0.027099063619971275,0.057938434
2415.3666666698105,-0.54976165,-0.31193084,-0.33957145,-2.7337148,0.32502007,1.5491923,0.76738054,0.04,0.03999988,-5.5230465,3.13942813873291,-7.5151963,0.03979734,0.025945713743567467,0.05566868
2415.3833333364773,-0.5503382,-0.31143963,-0.3399261,-2.734107,0.32535845,1.5491694,0.76736134,0.04,0.039999876,-5.515357,3.1390316486358643,-7.521023,0.038006693,0.024805517867207527,0.05342203
2415.400000003144,-0.5508941,-0.31096616,-0.340268,-2.734485,0.32568464,1.5491467,0.76734245,0.04,0.039999854,-5.507675,3.1380763053894043,-7.526484,0.036237843,0.02367868274450302,0.05120038
2415.416666669811,-0.55142933,-0.31050986,-0.3405974,-2.7348495,0.3259989,1.549126,0.7673245,0.04,0.03999984,-5.5002337,3.137110710144043,-7.531725,0.034494743,0.022564930841326714,0.04900338
2415.433333336478,-0.5519447,-0.3100709,-0.34091437,-2.7352004,0.32630125,1.5491065,0.7673072,0.04,0.039999843,-5.4928694,3.135643482208252,-7.5366826,0.032773595,0.021469444036483765,0.046836045
2415.450000003145,-0.55244,-0.30964875,-0.34121913,-2.735537,0.32659197,1.5490872,0.7672903,0.04,0.039999835,-5.486194,3.1352341175079346,-7.5416756,0.03107721,0.020392131060361862,0.044697717
2415.4666666698117,-0.5529158,-0.3092436,-0.34151182,-2.7358606,0.32687113,1.5490681,0.76727456,0.04,0.039999835,-5.4794736,3.13421893119812,-7.546313,0.029409122,0.019330492243170738,0.042589135
2415.4833333364786,-0.5533724,-0.30885482,-0.34179267,-2.7361712,0.327139,1.5490491,0.76725924,0.04,0.039999835,-5.472814,3.1327414512634277,-7.550595,0.027765283,0.018284732475876808,0.04051114
2415.5000000031455,-0.55380994,-0.30848217,-0.34206188,-2.736469,0.32739568,1.5490327,0.7672442,0.04,0.039999843,-5.4669514,3.132284641265869,-7.554973,0.026148688,0.01725080795586109,0.038465016
2415.5166666698124,-0.55422866,-0.30812553,-0.3423196,-2.736754,0.3276414,1.549017,0.7672304,0.04,0.039999846,-5.460955,3.1312992572784424,-7.559085,0.02456199,0.016243264079093933,0.036452573
2415.5333333364792,-0.5546293,-0.30778444,-0.342566,-2.737026,0.32787642,1.5490015,0.767217,0.04,0.039999843,-5.455239,3.13029408454895,-7.56295,0.023002118,0.01525498554110527,0.034475934
2415.550000003146,-0.55501187,-0.30745873,-0.34280145,-2.7372866,0.32810086,1.5489862,0.7672036,0.04,0.039999835,-5.44948,3.128817319869995,-7.5665,0.021472342,0.014285332523286343,0.032532014
2415.566666669813,-0.55537665,-0.30714792,-0.34302607,-2.737535,0.32831487,1.548971,0.76719165,0.04,0.039999835,-5.444596,3.128345251083374,-7.570113,0.019974329,0.01332799531519413,0.03062661
2415.58333333648,-0.55572414,-0.306852,-0.34324002,-2.7377708,0.3285188,1.5489569,0.76718014,0.04,0.039999835,-5.439535,3.1273226737976074,-7.5734463,0.018504323,0.012388692237436771,0.02875983
2415.6000000031468,-0.55605465,-0.30657047,-0.34344366,-2.7379959,0.32871288,1.5489448,0.76716864,0.04,0.039999843,-5.434583,3.1262669563293457,-7.5766044,0.017068012,0.011475779116153717,0.026930122
2415.6166666698136,-0.5563686,-0.3063031,-0.34363705,-2.7382095,0.3288971,1.5489331,0.76715815,0.04,0.039999843,-5.429838,3.1248726844787598,-7.579509,0.0156658,0.010586625896394253,0.025141887
2415.6333333364805,-0.55666643,-0.3060495,-0.34382048,-2.7384121,0.32907185,1.5489216,0.7671485,0.04,0.039999846,-5.4256516,3.1242775917053223,-7.582435,0.014295446,0.009717836044728756,0.02339512
2415.6500000031474,-0.55694854,-0.30580935,-0.34399432,-2.7386036,0.3292375,1.5489101,0.7671389,0.04,0.03999985,-5.421467,3.123260974884033,-7.5850806,0.012957691,0.008868113160133362,0.021690704
2415.6666666698143,-0.55721515,-0.30558223,-0.3441586,-2.7387855,0.32939407,1.5488988,0.76712936,0.04,0.03999985,-5.4173923,3.1222362518310547,-7.587565,0.011657937,0.008041458204388618,0.020029237
2415.683333336481,-0.5574669,-0.30536792,-0.34431377,-2.738957,0.3295419,1.5488877,0.76712126,0.04,0.03999985,-5.4135175,3.120840549468994,-7.589795,0.010395114,0.007230453193187714,0.01841337
2415.700000003148,-0.5577041,-0.30516595,-0.34445998,-2.7391174,0.32968125,1.5488796,0.76711357,0.04,0.039999846,-5.4100413,3.120203971862793,-7.5920987,0.009164716,0.006443089805543423,0.016843414
2415.716666669815,-0.55792725,-0.30497593,-0.34459752,-2.7392693,0.32981235,1.5488716,0.7671059,0.04,0.03999985,-5.4063964,3.1191065311431885,-7.59421,0.007974363,0.005695480853319168,0.015320275
2415.733333336482,-0.5581365,-0.30479753,-0.34472668,-2.7394128,0.32993546,1.5488638,0.76709825,0.039999995,0.039999846,-5.403111,3.1177685260772705,-7.596004,0.006822704,0.004964955151081085,0.013846281
2415.7500000031487,-0.55833256,-0.30463037,-0.34484777,-2.7395468,0.33005077,1.5488561,0.76709205,0.04,0.039999854,-5.4002843,3.117098569869995,-7.597867,0.0057115857,0.004253904335200787,0.012421646
2415.7666666698155,-0.5585161,-0.30447397,-0.34496108,-2.7396717,0.33015865,1.5488486,0.76708627,0.039999995,0.039999854,-5.3972692,3.116013765335083,-7.59951,0.004637257,0.0035696513950824738,0.011048549
2415.7833333364824,-0.55868715,-0.30432796,-0.34506693,-2.7397876,0.33025935,1.5488411,0.7670805,0.04,0.039999858,-5.3944273,3.1149587631225586,-7.601016,0.0036034244,0.0029112694319337606,0.009727082
2415.8000000031493,-0.5588465,-0.30419195,-0.34516555,-2.739895,0.33035323,1.5488337,0.76707476,0.04,0.03999986,-5.391556,3.113541841506958,-7.6023145,0.0026153144,0.0022804865147918463,0.008458776
2415.816666669816,-0.5589945,-0.30406553,-0.34525728,-2.7399952,0.33044055,1.5488282,0.7670692,0.039999995,0.039999858,-5.389177,3.1127707958221436,-7.6036673,0.0016719283,0.0016767614288255572,0.0072456016
2415.833333336483,-0.559132,-0.30394816,-0.34534246,-2.74009,0.33052155,1.548824,0.7670653,0.04,0.039999865,-5.3868246,3.1116950511932373,-7.6048555,0.00077317946,0.0011060290271416306,0.0060874154
2415.85000000315,-0.559259,-0.30383945,-0.34542134,-2.7401788,0.33059663,1.5488198,0.7670614,0.039999995,0.03999986,-5.384766,3.110703229904175,-7.605932,-9.035735e-05,0.0005598171846941113,0.0049856375
2415.866666669817,-0.5593764,-0.30373904,-0.34549418,-2.7402604,0.33066604,1.5488157,0.76705754,0.039999995,0.039999865,-5.382684,3.1093661785125732,-7.606811,-0.00090799294,3.568758620531298e-05,0.0039421534
2415.8833333364837,-0.55948466,-0.30364627,-0.34556156,-2.7403345,0.33073005,1.5488118,0.76705366,0.04,0.03999987,-5.3807316,3.1084842681884766,-7.6077337,-0.0016770293,-0.00045691055129282176,0.002958643
2415.9000000031506,-0.55958414,-0.30356088,-0.34562355,-2.7404015,0.3307891,1.548808,0.76704985,0.039999995,0.039999865,-5.378674,3.107325553894043,-7.6084957,-0.0023954418,-0.0009145549265667796,0.002035571
2415.9166666698175,-0.55967593,-0.3034824,-0.3456806,-2.7404642,0.33084345,1.5488042,0.7670462,0.04,0.039999872,-5.3767724,3.106121778488159,-7.6091475,-0.0030620624,-0.0013380994787439704,0.0011745152
2415.9333333364843,-0.5597601,-0.3034101,-0.34573334,-2.7405229,0.3308935,1.5488005,0.7670437,0.04,0.039999872,-5.375111,3.104867458343506,-7.609665,-0.0036810844,-0.0017355867894366384,0.00037577958
2415.950000003151,-0.5598373,-0.3033437,-0.3457817,-2.7405744,0.33093953,1.5487968,0.7670417,0.04,0.039999872,-5.3737125,3.1039655208587646,-7.610245,-0.004256515,-0.0021071305964142084,-0.0003603109
2415.966666669818,-0.55990845,-0.30328247,-0.34582618,-2.7406247,0.33098185,1.5487932,0.7670397,0.04,0.039999876,-5.3719435,3.1027700901031494,-7.6107087,-0.004782354,-0.0024393973872065544,-0.0010368266
2415.983333336485,-0.5599737,-0.30322614,-0.3458674,-2.7406685,0.3310208,1.5487896,0.76703775,0.039999995,0.039999872,-5.3708706,3.1017940044403076,-7.611114,-0.00527073,-0.002759161638095975,-0.0016589393
2416.000000003152,-0.5600336,-0.30317444,-0.34590498,-2.7407112,0.33105657,1.548786,0.7670358,0.04,0.039999876,-5.369384,3.100951671600342,-7.611556,-0.0057156025,-0.0030440606642514467,-0.0022317322
2416.0166666698187,-0.56008816,-0.30312678,-0.34593964,-2.7407475,0.33108947,1.5487826,0.7670338,0.04,0.039999876,-5.368529,3.100196361541748,-7.611918,-0.0061264397,-0.003317663911730051,-0.0027568017
2416.0333333364856,-0.5601386,-0.30308297,-0.34597152,-2.740783,0.3311198,1.5487821,0.76703185,0.04,0.03999988,-5.367109,3.0992820262908936,-7.612265,-0.0064979866,-0.0035578859969973564,-0.0032386575
2416.0500000031525,-0.56018496,-0.3030428,-0.34600097,-2.740816,0.33114785,1.5487816,0.76702994,0.04,0.03999988,-5.3662987,3.098609447479248,-7.612615,-0.0068429345,-0.0037756096571683884,-0.0036824774
2416.0666666698194,-0.5602276,-0.30300578,-0.34602806,-2.7408445,0.3311736,1.5487812,0.76702803,0.04,0.03999988,-5.365496,3.0980947017669678,-7.6129174,-0.0071602645,-0.003977587446570396,-0.004091959
2416.0833333364862,-0.5602665,-0.30297175,-0.34605297,-2.740872,0.3311972,1.5487807,0.7670262,0.04,0.039999884,-5.36443,3.097426652908325,-7.6131687,-0.0074483547,-0.004154457710683346,-0.0044679455
2416.100000003153,-0.5603021,-0.30294046,-0.34607592,-2.7408984,0.3312189,1.5487802,0.76702446,0.04,0.03999988,-5.363865,3.0969367027282715,-7.6133976,-0.0077141547,-0.004323514178395271,-0.0048126746
2416.11666666982,-0.5603351,-0.3029117,-0.34609705,-2.7409196,0.3312389,1.5487798,0.7670228,0.04,0.03999988,-5.363283,3.096405267715454,-7.6135926,-0.007959803,-0.004484851844608784,-0.00512919
2416.133333336487,-0.56036514,-0.30288523,-0.34611642,-2.74094,0.33125737,1.5487795,0.76702195,0.04,0.039999887,-5.362286,3.0959150791168213,-7.6138115,-0.008181437,-0.004618608858436346,-0.0054221014
2416.1500000031538,-0.56039286,-0.30286083,-0.34613422,-2.74096,0.3312743,1.5487791,0.76702154,0.04,0.039999884,-5.36187,3.095520257949829,-7.6139827,-0.0083891135,-0.004746794234961271,-0.0056898766
2416.1666666698206,-0.56041837,-0.3028384,-0.34615064,-2.7409794,0.33129,1.5487788,0.76702124,0.04,0.03999988,-5.3614526,3.0951855182647705,-7.614153,-0.008583429,-0.004869073163717985,-0.0059352303
2416.1833333364875,-0.5604418,-0.30281776,-0.34616587,-2.740996,0.33130437,1.5487784,0.7670211,0.04,0.039999884,-5.3610773,3.0948197841644287,-7.6142955,-0.008764716,-0.004987339023500681,-0.0061636115
2416.2000000031544,-0.56046325,-0.30279887,-0.34617972,-2.7410095,0.3313175,1.548778,0.767021,0.04,0.039999884,-5.360441,3.094489336013794,-7.6144614,-0.008929836,-0.005089477635920048,-0.0063727563
2416.2166666698213,-0.5604831,-0.30278134,-0.34619245,-2.7410223,0.3313297,1.5487777,0.7670209,0.04,0.039999884,-5.359849,3.094109296798706,-7.6145825,-0.009078789,-0.0051767402328550816,-0.006563705
2416.233333336488,-0.56050116,-0.30276528,-0.34620416,-2.741035,0.3313409,1.5487773,0.76702076,0.04,0.039999884,-5.359518,3.093818426132202,-7.614695,-0.009216903,-0.005259225610643625,-0.006740153
2416.250000003155,-0.5605176,-0.3027506,-0.34621498,-2.741047,0.33135116,1.548777,0.76702064,0.04,0.039999884,-5.3593035,3.0936245918273926,-7.614807,-0.009344476,-0.00533877732232213,-0.006901788
2416.266666669822,-0.56053275,-0.30273697,-0.34622493,-2.7410588,0.3313606,1.5487766,0.7670205,0.04,0.039999884,-5.3590107,3.0934019088745117,-7.6149077,-0.009461649,-0.005413312464952469,-0.007049945
2416.283333336489,-0.56054676,-0.30272448,-0.3462341,-2.7410705,0.33136937,1.5487763,0.7670204,0.04,0.039999884,-5.358826,3.09322452545166,-7.615009,-0.009571146,-0.005486489739269018,-0.0071864356
2416.3000000031557,-0.5605596,-0.30271298,-0.34624258,-2.7410798,0.33137733,1.5487759,0.7670203,0.04,0.039999884,-5.3585863,3.0930235385894775,-7.615094,-0.009672955,-0.005556794349104166,-0.007312754
2416.3166666698226,-0.5605715,-0.30270237,-0.34625033,-2.7410882,0.3313847,1.5487756,0.76702017,0.04,0.039999884,-5.3581595,3.0928072929382324,-7.615191,-0.009764381,-0.005615384317934513,-0.0074282107
2416.3333333364894,-0.56058216,-0.3026926,-0.34625745,-2.741095,0.3313915,1.5487753,0.76702005,0.04,0.039999887,-5.3578944,3.0926272869110107,-7.615266,-0.009848432,-0.00566845154389739,-0.0075356713
2416.3500000031563,-0.56059223,-0.30268365,-0.34626412,-2.7411008,0.33139786,1.5487751,0.7670199,0.04,0.039999884,-5.283454,2.8724513053894043,-7.541057,0.0,-0.0,0.0
2416.366666669823,-0.56059223,-0.30268365,-0.34626412,-2.7411008,0.33139786,1.5487751,0.7670199,0.04,0.039999884,-5.3568974,3.090874671936035,-7.6148705,0.0,-0.0,0.0
2416.38333333649,-0.56059223,-0.30268365,-0.34626412,-2.7411008,0.33139786,1.5487751,0.7670199,0.04,0.039999884,-5.3568974,3.090874671936035,-7.6148705,0.0,-0.0,0.0
2416.400000003157,-0.56059223,-0.30268365,-0.34626412,-2.7411008,0.33139786,1.5487751,0.7670199,0.04,0.039999884,-5.3568974,3.090874671936035,-7.6148705,0.0,-0.0,0.0
2416.416666669824,-0.56059223,-0.30268365,-0.34626412,-2.7411008,0.33139786,1.5487751,0.7670199,0.04,0.039999884,-5.3568974,3.090874671936035,-7.6148705,0.0,-0.0,0.0
2416.4333333364907,-0.56059223,-0.30268365,-0.34626412,-2.7411008,0.33139786,1.5487751,0.7670199,0.04,0.039999884,-5.3568974,3.090874671936035,-7.6148705,0.0,-0.0,0.0
2416.4500000031576,-0.56059223,-0.30268365,-0.34626412,-2.7411008,0.33139786,1.5487751,0.7670199,0.04,0.039999884,-5.3568974,3.090874671936035,-7.6148705,0.0,-0.0,0.0
2416.4666666698245,-0.56059223,-0.30268365,-0.34626412,-2.7411008,0.33139786,1.5487751,0.7670199,0.04,0.039999884,-5.3568974,3.090874671936035,-7.6148705,0.0,-0.0,0.0
2416.4833333364913,-0.56059223,-0.30268365,-0.34626412,-2.7411008,0.33139786,1.5487751,0.7670199,0.04,0.039999884,-5.3568974,3.090874671936035,-7.6148705,0.0,-0.0,0.0
2416.500000003158,-0.56059223,-0.30268365,-0.34626412,-2.7411008,0.33139786,1.5487751,0.7670199,0.04,0.039999884,-5.3568974,3.090874671936035,-7.6148705,0.0,-0.0,0.0
2416.516666669825,-0.56059223,-0.30268365,-0.34626412,-2.7411008,0.33139786,1.5487751,0.7670199,0.04,0.039999884,-5.3568974,3.090874671936035,-7.6148705,0.0,-0.0,0.0
2416.533333336492,-0.56059223,-0.30268365,-0.34626412,-2.7411008,0.33139786,1.5487751,0.7670199,0.04,0.039999884,-5.3568974,3.090874671936035,-7.6148705,0.0,-0.0,0.0
2416.550000003159,-0.56059223,-0.30268365,-0.34626412,-2.7411008,0.33139786,1.5487751,0.7670199,0.04,0.039999884,-5.3568974,3.090874671936035,-7.6148705,0.0,-0.0,0.0
2416.5666666698257,-0.56059223,-0.30268365,-0.34626412,-2.7411008,0.33139786,1.5487751,0.7670199,0.04,0.039999884,-5.3568974,3.090874671936035,-7.6148705,0.0,-0.0,0.0
2416.5833333364926,-0.56059223,-0.30268365,-0.34626412,-2.7411008,0.33139786,1.5487751,0.7670199,0.04,0.039999884,-5.3568974,3.090874671936035,-7.6148705,0.0,-0.0,0.0
2416.6000000031595,-0.56059223,-0.30268365,-0.34626412,-2.7411008,0.33139786,1.5487751,0.7670199,0.04,0.039999884,-5.3568974,3.090874671936035,-7.6148705,0.0,-0.0,0.0
2416.6166666698264,-0.56059223,-0.30268365,-0.34626412,-2.7411008,0.33139786,1.5487751,0.7670199,0.04,0.039999884,-5.3568974,3.090874671936035,-7.6148705,0.0,-0.0,0.0
2416.6333333364933,-0.56059223,-0.30268365,-0.34626412,-2.7411008,0.33139786,1.5487751,0.7670199,0.04,0.039999884,-5.3568974,3.090874671936035,-7.6148705,0.0,-0.0,0.0
2416.65000000316,-0.56059223,-0.30268365,-0.34626412,-2.7411008,0.33139786,1.5487751,0.7670199,0.04,0.039999884,-5.3568974,3.090874671936035,-7.6148705,0.0,-0.0,0.0
2416.666666669827,-0.56059223,-0.30268365,-0.34626412,-2.7411008,0.33139786,1.5487751,0.7670199,0.04,0.039999884,-5.3568974,3.090874671936035,-7.6148705,0.0,-0.0,0.0
2416.683333336494,-0.56059223,-0.30268365,-0.34626412,-2.7411008,0.33139786,1.5487751,0.7670199,0.04,0.039999884,-5.3568974,3.090874671936035,-7.6148705,0.0,-0.0,0.0
2416.7000000031608,-0.56059223,-0.30268365,-0.34626412,-2.7411008,0.33139786,1.5487751,0.7670199,0.04,0.039999884,-5.3568974,3.090874671936035,-7.6148705,0.0,-0.0,0.0
2416.7166666698276,-0.56059223,-0.30268365,-0.34626412,-2.7411008,0.33139786,1.5487751,0.7670199,0.04,0.039999884,-5.3568974,3.090874671936035,-7.6148705,0.0,-0.0,0.0
2416.7333333364945,-0.56059223,-0.30268365,-0.34626412,-2.7411008,0.33139786,1.5487751,0.7670199,0.04,0.039999884,-5.3568974,3.090874671936035,-7.6148705,0.0,-0.0,0.0
2416.7500000031614,-0.56059223,-0.30268365,-0.34626412,-2.7411008,0.33139786,1.5487751,0.7670199,0.04,0.039999884,-5.3568974,3.090874671936035,-7.6148705,0.0,-0.0,0.0
2416.7666666698283,-0.56059223,-0.30268365,-0.34626412,-2.7411008,0.33139786,1.5487751,0.7670199,0.04,0.039999884,-5.3568974,3.090874671936035,-7.6148705,0.0,-0.0,0.0
2416.783333336495,-0.56059223,-0.30268365,-0.34626412,-2.7411008,0.33139786,1.5487751,0.7670199,0.04,0.039999884,-5.3568974,3.090874671936035,-7.6148705,0.0,-0.0,0.0
2416.800000003162,-0.56059223,-0.30268365,-0.34626412,-2.7411008,0.33139786,1.5487751,0.7670199,0.04,0.039999884,-5.3568974,3.090874671936035,-7.6148705,0.0,-0.0,0.0
2416.816666669829,-0.56059223,-0.30268365,-0.34626412,-2.7411008,0.33139786,1.5487751,0.7670199,0.04,0.039999884,-5.3568974,3.090874671936035,-7.6148705,0.0,-0.0,0.0
2416.833333336496,-0.56059223,-0.30268365,-0.34626412,-2.7411008,0.33139786,1.5487751,0.7670199,0.04,0.039999884,-5.3568974,3.090874671936035,-7.6148705,0.0,-0.0,0.0
2416.8500000031627,-0.56059223,-0.30268365,-0.34626412,-2.7411008,0.33139786,1.5487751,0.7670199,0.04,0.039999884,-5.3568974,3.090874671936035,-7.6148705,0.0,-0.0,0.0
2416.8666666698296,-0.56059223,-0.30268365,-0.34626412,-2.7411008,0.33139786,1.5487751,0.7670199,0.04,0.039999884,-5.3568974,3.090874671936035,-7.6148705,0.0,-0.0,0.0
2416.8833333364964,-0.56059223,-0.30268365,-0.34626412,-2.7411008,0.33139786,1.5487751,0.7670199,0.04,0.039999884,-5.3568974,3.090874671936035,-7.6148705,0.0,-0.0,0.0
2416.9000000031633,-0.56059223,-0.30268365,-0.34626412,-2.7411008,0.33139786,1.5487751,0.7670199,0.04,0.039999884,-5.3568974,3.090874671936035,-7.6148705,0.0,-0.0,0.0
2416.91666666983,-0.56059223,-0.30268365,-0.34626412,-2.7411008,0.33139786,1.5487751,0.7670199,0.04,0.039999884,-5.3568974,3.090874671936035,-7.6148705,0.0,-0.0,0.0
2416.933333336497,-0.56059223,-0.30268365,-0.34626412,-2.7411008,0.33139786,1.5487751,0.7670199,0.04,0.039999884,-5.3568974,3.090874671936035,-7.6148705,0.0,-0.0,0.0
2416.950000003164,-0.56059223,-0.30268365,-0.34626412,-2.7411008,0.33139786,1.5487751,0.7670199,0.04,0.039999884,-5.3568974,3.090874671936035,-7.6148705,0.0,-0.0,0.0
2416.966666669831,-0.56059223,-0.30268365,-0.34626412,-2.7411008,0.33139786,1.5487751,0.7670199,0.04,0.039999884,-5.3568974,3.090874671936035,-7.6148705,0.0,-0.0,0.0
2416.9833333364977,-0.56059223,-0.30268365,-0.34626412,-2.7411008,0.33139786,1.5487751,0.7670199,0.04,0.039999884,-5.3568974,3.090874671936035,-7.6148705,0.0,-0.0,0.0
2417.0000000031646,-0.56059223,-0.30268365,-0.34626412,-2.7411008,0.33139786,1.5487751,0.7670199,0.04,0.039999884,-5.3568974,3.090874671936035,-7.6148705,0.0,-0.0,0.0
2417.0166666698315,-0.56059223,-0.30268365,-0.34626412,-2.7411008,0.33139786,1.5487751,0.7670199,0.04,0.039999884,-5.3568974,3.090874671936035,-7.6148705,0.0,-0.0,0.0
2417.0333333364983,-0.56059223,-0.30268365,-0.34626412,-2.7411008,0.33139786,1.5487751,0.7670199,0.04,0.039999884,-5.3568974,3.090874671936035,-7.6148705,0.0,-0.0,0.0
2417.050000003165,-0.56059223,-0.30268365,-0.34626412,-2.7411008,0.33139786,1.5487751,0.7670199,0.04,0.039999884,-5.3568974,3.090874671936035,-7.6148705,0.0,-0.0,0.0
2417.066666669832,-0.56059223,-0.30268365,-0.34626412,-2.7411008,0.33139786,1.5487751,0.7670199,0.04,0.039999884,-5.3568974,3.090874671936035,-7.6148705,0.0,-0.0,0.0
2417.083333336499,-0.56059223,-0.30268365,-0.34626412,-2.7411008,0.33139786,1.5487751,0.7670199,0.04,0.039999884,-5.3568974,3.090874671936035,-7.6148705,0.0,-0.0,0.0
2417.100000003166,-0.56059223,-0.30268365,-0.34626412,-2.7411008,0.33139786,1.5487751,0.7670199,0.04,0.039999884,-5.3568974,3.090874671936035,-7.6148705,0.0,-0.0,0.0
2417.1166666698327,-0.56059223,-0.30268365,-0.34626412,-2.7411008,0.33139786,1.5487751,0.7670199,0.04,0.039999884,-5.3568974,3.090874671936035,-7.6148705,0.0,-0.0,0.0
2417.1333333364996,-0.56059223,-0.30268365,-0.34626412,-2.7411008,0.33139786,1.5487751,0.7670199,0.04,0.039999884,-5.3568974,3.090874671936035,-7.6148705,0.0,-0.0,0.0
2417.1500000031665,-0.56059223,-0.30268365,-0.34626412,-2.7411008,0.33139786,1.5487751,0.7670199,0.04,0.039999884,-5.3568974,3.090874671936035,-7.6148705,0.0,-0.0,0.0
2417.1666666698334,-0.56059223,-0.30268365,-0.34626412,-2.7411008,0.33139786,1.5487751,0.7670199,0.04,0.039999884,-5.3568974,3.090874671936035,-7.6148705,0.0,-0.0,0.0
2417.1833333365003,-0.56059223,-0.30268365,-0.34626412,-2.7411008,0.33139786,1.5487751,0.7670199,0.04,0.039999884,-5.3568974,3.090874671936035,-7.6148705,0.0,-0.0,0.0
2417.200000003167,-0.56059223,-0.30268365,-0.34626412,-2.7411008,0.33139786,1.5487751,0.7670199,0.04,0.039999884,-5.3568974,3.090874671936035,-7.6148705,0.0,-0.0,0.0
2417.216666669834,-0.56059223,-0.30268365,-0.34626412,-2.7411008,0.33139786,1.5487751,0.7670199,0.04,0.039999884,-5.3568974,3.090874671936035,-7.6148705,0.0,-0.0,0.0
2417.233333336501,-0.56059223,-0.30268365,-0.34626412,-2.7411008,0.33139786,1.5487751,0.7670199,0.04,0.039999884,-5.3568974,3.090874671936035,-7.6148705,0.0,-0.0,0.0
2417.2500000031678,-0.56059223,-0.30268365,-0.34626412,-2.7411008,0.33139786,1.5487751,0.7670199,0.04,0.039999884,-5.3568974,3.090874671936035,-7.6148705,0.0,-0.0,0.0
2417.2666666698346,-0.56059223,-0.30268365,-0.34626412,-2.7411008,0.33139786,1.5487751,0.7670199,0.04,0.039999884,-5.3568974,3.090874671936035,-7.6148705,0.0,-0.0,0.0
2417.2833333365015,-0.56059223,-0.30268365,-0.34626412,-2.7411008,0.33139786,1.5487751,0.7670199,0.04,0.039999884,-5.3568974,3.090874671936035,-7.6148705,0.0,-0.0,0.0
2417.3000000031684,-0.56059223,-0.30268365,-0.34626412,-2.7411008,0.33139786,1.5487751,0.7670199,0.04,0.039999884,-5.3568974,3.090874671936035,-7.6148705,0.0,-0.0,0.0
2417.3166666698353,-0.56059223,-0.30268365,-0.34626412,-2.7411008,0.33139786,1.5487751,0.7670199,0.04,0.039999884,-5.3568974,3.090874671936035,-7.6148705,0.0,-0.0,0.0
2417.333333336502,-0.56059223,-0.30268365,-0.34626412,-2.7411008,0.33139786,1.5487751,0.7670199,0.04,0.039999884,-5.3568974,3.090874671936035,-7.6148705,0.0,-0.0,0.0
2417.350000003169,-0.56059223,-0.30268365,-0.34626412,-2.7411008,0.33139786,1.5487751,0.7670199,0.04,0.039999884,-5.3568974,3.090874671936035,-7.6148705,0.0,-0.0,0.0
2417.366666669836,-0.56059223,-0.30268365,-0.34626412,-2.7411008,0.33139786,1.5487751,0.7670199,0.04,0.039999884,-5.3568974,3.090874671936035,-7.6148705,0.0,-0.0,0.0
2417.383333336503,-0.56059223,-0.30268365,-0.34626412,-2.7411008,0.33139786,1.5487751,0.7670199,0.04,0.039999884,-5.3568974,3.090874671936035,-7.6148705,0.0,-0.0,0.0
2417.4000000031697,-0.56059223,-0.30268365,-0.34626412,-2.7411008,0.33139786,1.5487751,0.7670199,0.04,0.039999884,-5.3568974,3.090874671936035,-7.6148705,0.0,-0.0,0.0
2417.4166666698366,-0.56059223,-0.30268365,-0.34626412,-2.7411008,0.33139786,1.5487751,0.7670199,0.04,0.039999884,-5.3568974,3.090874671936035,-7.6148705,0.0,-0.0,0.0
2417.4333333365034,-0.56059223,-0.30268365,-0.34626412,-2.7411008,0.33139786,1.5487751,0.7670199,0.04,0.039999884,-5.3568974,3.090874671936035,-7.6148705,0.0,-0.0,0.0
2417.4500000031703,-0.56059223,-0.30268365,-0.34626412,-2.7411008,0.33139786,1.5487751,0.7670199,0.04,0.039999884,-5.3568974,3.090874671936035,-7.6148705,0.0,-0.0,0.0
2417.466666669837,-0.56059223,-0.30268365,-0.34626412,-2.7411008,0.33139786,1.5487751,0.7670199,0.04,0.039999884,-5.3568974,3.090874671936035,-7.6148705,0.0,-0.0,0.0
2417.483333336504,-0.56059223,-0.30268365,-0.34626412,-2.7411008,0.33139786,1.5487751,0.7670199,0.04,0.039999884,-5.3568974,3.090874671936035,-7.6148705,0.0,-0.0,0.0
2417.500000003171,-0.56059223,-0.30268365,-0.34626412,-2.7411008,0.33139786,1.5487751,0.7670199,0.04,0.039999884,-5.3568974,3.090874671936035,-7.6148705,0.0,-0.0,0.0
2417.516666669838,-0.56059223,-0.30268365,-0.34626412,-2.7411008,0.33139786,1.5487751,0.7670199,0.04,0.039999884,-5.3568974,3.090874671936035,-7.6148705,0.0,-0.0,0.0
2417.5333333365047,-0.56059223,-0.30268365,-0.34626412,-2.7411008,0.33139786,1.5487751,0.7670199,0.04,0.039999884,-5.3568974,3.090874671936035,-7.6148705,0.0,-0.0,0.0
2417.5500000031716,-0.56059223,-0.30268365,-0.34626412,-2.7411008,0.33139786,1.5487751,0.7670199,0.04,0.039999884,-5.3568974,3.090874671936035,-7.6148705,0.0,-0.0,0.0
2417.5666666698385,-0.56059223,-0.30268365,-0.34626412,-2.7411008,0.33139786,1.5487751,0.7670199,0.04,0.039999884,-5.3568974,3.090874671936035,-7.6148705,0.0,-0.0,0.0
2417.5833333365053,-0.56059223,-0.30268365,-0.34626412,-2.7411008,0.33139786,1.5487751,0.7670199,0.04,0.039999884,-5.3568974,3.090874671936035,-7.6148705,0.0,-0.0,0.0
2417.600000003172,-0.56059223,-0.30268365,-0.34626412,-2.7411008,0.33139786,1.5487751,0.7670199,0.04,0.039999884,-5.3568974,3.090874671936035,-7.6148705,0.0,-0.0,0.0
2417.616666669839,-0.56059223,-0.30268365,-0.34626412,-2.7411008,0.33139786,1.5487751,0.7670199,0.04,0.039999884,-5.3568974,3.090874671936035,-7.6148705,0.0,-0.0,0.0
2417.633333336506,-0.56059223,-0.30268365,-0.34626412,-2.7411008,0.33139786,1.5487751,0.7670199,0.04,0.039999884,-5.3568974,3.090874671936035,-7.6148705,0.0,-0.0,0.0
2417.650000003173,-0.56059223,-0.30268365,-0.34626412,-2.7411008,0.33139786,1.5487751,0.7670199,0.04,0.039999884,-5.3568974,3.090874671936035,-7.6148705,0.0,-0.0,0.0
2417.6666666698397,-0.56059223,-0.30268365,-0.34626412,-2.7411008,0.33139786,1.5487751,0.7670199,0.04,0.039999884,-5.3568974,3.090874671936035,-7.6148705,0.0,-0.0,0.0
2417.6833333365066,-0.56059223,-0.30268365,-0.34626412,-2.7411008,0.33139786,1.5487751,0.7670199,0.04,0.039999884,-5.3568974,3.090874671936035,-7.6148705,0.0,-0.0,0.0
2417.7000000031735,-0.56059223,-0.30268365,-0.34626412,-2.7411008,0.33139786,1.5487751,0.7670199,0.04,0.039999884,-5.3568974,3.090874671936035,-7.6148705,0.0,-0.0,0.0
2417.7166666698404,-0.56059223,-0.30268365,-0.34626412,-2.7411008,0.33139786,1.5487751,0.7670199,0.04,0.039999884,-5.3568974,3.090874671936035,-7.6148705,0.0,-0.0,0.0
2417.7333333365073,-0.56059223,-0.30268365,-0.34626412,-2.7411008,0.33139786,1.5487751,0.7670199,0.04,0.039999884,-5.3568974,3.090874671936035,-7.6148705,0.0,-0.0,0.0
2417.750000003174,-0.56059223,-0.30268365,-0.34626412,-2.7411008,0.33139786,1.5487751,0.7670199,0.04,0.039999884,-5.3568974,3.090874671936035,-7.6148705,0.0,-0.0,0.0
2417.766666669841,-0.56059223,-0.30268365,-0.34626412,-2.7411008,0.33139786,1.5487751,0.7670199,0.04,0.039999884,-5.3568974,3.090874671936035,-7.6148705,0.0,-0.0,0.0
2417.783333336508,-0.56059223,-0.30268365,-0.34626412,-2.7411008,0.33139786,1.5487751,0.7670199,0.04,0.039999884,-5.3568974,3.090874671936035,-7.6148705,0.0,-0.0,0.0
2417.800000003175,-0.56059223,-0.30268365,-0.34626412,-2.7411008,0.33139786,1.5487751,0.7670199,0.04,0.039999884,-5.3568974,3.090874671936035,-7.6148705,0.0,-0.0,0.0
2417.8166666698417,-0.56059223,-0.30268365,-0.34626412,-2.7411008,0.33139786,1.5487751,0.7670199,0.04,0.039999884,-5.3568974,3.090874671936035,-7.6148705,0.0,-0.0,0.0
2417.8333333365085,-0.56059223,-0.30268365,-0.34626412,-2.7411008,0.33139786,1.5487751,0.7670199,0.04,0.039999884,-5.3568974,3.090874671936035,-7.6148705,0.0,-0.0,0.0
2417.8500000031754,-0.56059223,-0.30268365,-0.34626412,-2.7411008,0.33139786,1.5487751,0.7670199,0.04,0.039999884,-5.3568974,3.090874671936035,-7.6148705,0.0,-0.0,0.0
2417.8666666698423,-0.56059223,-0.30268365,-0.34626412,-2.7411008,0.33139786,1.5487751,0.7670199,0.04,0.039999884,-5.3568974,3.090874671936035,-7.6148705,0.0,-0.0,0.0
2417.883333336509,-0.56059223,-0.30268365,-0.34626412,-2.7411008,0.33139786,1.5487751,0.7670199,0.04,0.039999884,-5.3568974,3.090874671936035,-7.6148705,0.0,-0.0,0.0
2417.900000003176,-0.56059223,-0.30268365,-0.34626412,-2.7411008,0.33139786,1.5487751,0.7670199,0.04,0.039999884,-5.3568974,3.090874671936035,-7.6148705,0.0,-0.0,0.0
2417.916666669843,-0.56059223,-0.30268365,-0.34626412,-2.7411008,0.33139786,1.5487751,0.7670199,0.04,0.039999884,-5.3568974,3.090874671936035,-7.6148705,0.0,-0.0,0.0
2417.93333333651,-0.56059223,-0.30268365,-0.34626412,-2.7411008,0.33139786,1.5487751,0.7670199,0.04,0.039999884,-5.3568974,3.090874671936035,-7.6148705,0.0,-0.0,0.0
2417.9500000031767,-0.56059223,-0.30268365,-0.34626412,-2.7411008,0.33139786,1.5487751,0.7670199,0.04,0.039999884,-5.3568974,3.090874671936035,-7.6148705,0.0,-0.0,0.0
