rsonawane2002/My_IMU/logs_2/traj_266/clean_266.csv
time,j1,j2,j3,j4,j5,j6,j7,gripper1,gripper2,imu_ax,imu_ay,imu_az,imu_gx,imu_gy,imu_gz,quat_x,quat_y,quat_z,quat_w
166.7833333333582,0.00016700293,-0.785875,4.0107683e-05,-2.3551247,9.29385e-05,1.570997,0.786,0.04,0.04,0.0,-0.0,0.0,2.875329272945135e-08,-0.0011641195053377316,4.421952117202833e-08,0.9999995971961153,0.00020320632366974898,0.0008736418299892524,3.263050917662294e-05
166.80000000002488,0.00016699889,-0.78576016,4.0108323e-05,-2.3552213,9.29743e-05,1.5709941,0.786,0.04,0.04,-0.29199845949219316,-2.0443113140348633e-05,0.020128412156439346,7.524434237623525e-07,-0.0022397946570149358,3.562682054952241e-07,0.9999996850575494,0.00020321286516705446,0.0007665025180952723,3.260710551729864e-05
166.81666666669156,0.00016694683,-0.7856543,4.0065057e-05,-2.35531,9.300912e-05,1.5709913,0.786,0.04,0.04,0.02332872890724591,0.00010552947481195433,-0.0016704081464036236,5.035942975201733e-06,-0.003235761216068934,2.2646768911640858e-06,0.9999997558349243,0.0002032585558663569,0.0006677972478853161,3.260194928678837e-05
166.83333333335824,0.00016676556,-0.78555703,3.9906106e-05,-2.355391,9.304457e-05,1.5709884,0.786,0.04,0.04,0.02246075612499787,0.00027898155654527946,-0.0015248223118158322,1.665069699061177e-05,-0.004166680999158213,7.245958003268229e-06,0.999999812200695,0.00020340940460204131,0.000577198189095011,3.264106542329308e-05
166.85000000002492,0.00016633686,-0.7854678,3.95285e-05,-2.3554645,9.309551e-05,1.5709856,0.786,0.04,0.039999995,0.021866446119189753,0.0005202651681742202,-0.0012069791124558193,3.872399319693633e-05,-0.005042122247551021,1.7378538982131826e-05,0.9999998564698247,0.00020376094324376024,0.0004944371097132433,3.276816351578219e-05
166.8666666666916,0.0001655095,-0.78538626,3.880106e-05,-2.3555312,9.314355e-05,1.5709827,0.786,0.04,0.04,0.01984896891249477,0.0008563063688019003,-0.001418539572406452,7.349475725119954e-05,-0.005868555471093907,3.152965974536183e-05,0.9999998908367888,0.0002044352279529974,0.00041885835100894037,3.302014459984492e-05
166.88333333335828,0.00016410215,-0.785312,3.756709e-05,-2.3555906,9.320588e-05,1.5709798,0.786,0.04,0.04,0.020602422152493638,0.0012290151153636678,-0.0008521019821738918,0.00012398069966627692,-0.006659503341533767,5.3142117244466476e-05,0.9999999168449473,0.00020557832810040157,0.0003506109070624155,3.34610460996822e-05
166.90000000002496,0.00016190698,-0.7852448,3.564729e-05,-2.3556461,9.328831e-05,1.5709796,0.786,0.04,0.04,0.015157760798123476,0.0016664966457392903,-0.00038792619856398147,0.00019209198086038751,-0.007418539405877129,8.235594545743818e-05,0.9999999361203834,0.00020735774457790563,0.0002891285166857861,3.415692510276196e-05
166.91666666669164,0.00015869222,-0.78518414,3.284208e-05,-2.3556962,9.339683e-05,1.5709795,0.786,0.04,0.04,0.016540239182094574,0.0021541218083046443,-0.0011616996800523083,0.0002794711281622689,-0.008156138709616158,0.0001200221530280445,0.9999999500326824,0.0002099598767302496,0.00023369590593150152,3.5181054817379945e-05
166.93333333335832,0.00015420487,-0.7851302,2.8933748e-05,-2.355739,9.3538394e-05,1.5709795,0.786,0.04,0.04,0.019639374150948186,0.002685722868933226,-0.0005432707276042947,0.0003880676661676633,-0.008885329414539995,0.00016689421692160322,0.9999999593578619,0.00021358817877259367,0.00018526673049185923,3.6614245063067474e-05
166.950000000025,0.0001481734,-0.7850827,2.368904e-05,-2.3557754,9.370472e-05,1.5709796,0.78599924,0.03999999,0.03999999,0.01849891731737774,0.0032677851316679964,-0.0005817188732715195,0.0005193418514757553,-0.009603470609603688,0.00022396362665242907,0.9999999651900486,0.00021807352310849277,0.00014345356087125524,3.8534606135333576e-05
166.96666666669168,0.00014030962,-0.78504163,1.6860013e-05,-2.355807,9.391658e-05,1.57098,0.78599733,0.039999988,0.039999988,0.014889727524147744,0.0038641753254432093,-0.0014493010493721314,0.0006778082594415628,-0.010316941047355024,0.0002910016529567017,0.9999999684381353,0.0002234689664426833,0.0001072431112860653,4.103979002285105e-05
166.98333333335836,0.0001303107,-0.78500706,8.186792e-06,-2.3558338,9.418205e-05,1.5709804,0.7859954,0.03999998,0.039999977,0.015727823391054052,0.004500025852288974,-0.0013546060367408685,0.0008664655413579035,-0.011042525582292703,0.00037012630018263366,0.9999999694850301,0.00023058407626196664,7.68439692895425e-05,4.422586424422361e-05
167.00000000002504,0.00011786134,-0.7849789,-2.6015089e-06,-2.3558533,9.450859e-05,1.5709809,0.7859935,0.039999973,0.039999966,0.019270179674957255,0.005163107115121681,-0.0004447122424311445,0.0010807076547879747,-0.011783562312840615,0.00046066979867444784,0.9999999687001095,0.00023967226638783285,5.323961104943347e-05,4.819261847115747e-05
167.01666666669172,0.000102635364,-0.78495735,-1.5784744e-05,-2.3558657,9.490372e-05,1.5709815,0.7859916,0.039999966,0.039999958,0.019439369059059963,0.005849112108484926,-0.0004206611607049382,0.0013215343818104327,-0.01253458220327387,0.0005621519122520355,0.9999999664259097,0.00025099563189026267,3.6549255630727874e-05,5.3042665092388015e-05
167.0333333333584,8.429728e-05,-0.7849424,-3.1651107e-05,-2.355872,9.537651e-05,1.5709821,0.7859897,0.039999966,0.039999958,0.017846669185273,0.006554226007175531,-0.0009691195532068875,0.0015892545596175648,-0.013300127763203742,0.0006757510856640434,0.9999999628556441,0.00026482388855373983,2.6266286309079373e-05,5.888209152741391e-05
167.05000000002508,6.2503655e-05,-0.7849343,-5.0495197e-05,-2.355872,9.593535e-05,1.5709827,0.78598607,0.03999997,0.03999996,0.018110060024811858,0.007276265232484917,-0.0011035228233202687,0.001884587463094747,-0.014089217422025544,0.0008017347153029528,0.9999999582211792,0.00028056869235164035,2.2510008934243397e-05,6.581905639010251e-05
167.06666666669176,3.6904414e-05,-0.78493303,-7.261743e-05,-2.355865,9.658936e-05,1.5709835,0.78598225,0.03999997,0.039999958,0.019400925697765636,0.008012180274185245,-0.0006055416568173655,0.0022155387379691497,-0.014905490421223399,0.0009411784427377009,0.9999999521468096,0.00029928621120928824,2.575728476008823e-05,7.396421137508795e-05
167.08333333335844,7.1443624e-06,-0.78493893,-9.832283e-05,-2.3558512,9.7346725e-05,1.5709844,0.78597844,0.03999997,0.039999958,0.019654781705580326,0.008760113047389911,-0.000953519119262225,0.00257546320578164,-0.015750862104480907,0.0010925323916833722,0.9999999442370837,0.00032135133138343425,3.6038000218830626e-05,8.342909505750122e-05
167.10000000002512,-2.7136126e-05,-0.7849522,-0.00012791986,-2.3558297,9.8217e-05,1.5709852,0.7859746,0.039999973,0.03999996,0.021133790796779017,0.009516347821865064,-0.0007707183047767074,0.0029636491785205482,-0.016627882044850686,0.0012567795786987976,0.9999999338795197,0.0003470529739190696,5.382911207213943e-05,9.432717682285691e-05
167.1166666666918,-6.629982e-05,-0.78497297,-0.00016171983,-2.3558004,9.920934e-05,1.5709862,0.7859689,0.039999977,0.03999996,0.02164273490583568,0.010280048558436524,-0.0006131352098037723,0.0033801149693760395,-0.017536989491625903,0.0014348709878116784,0.9999999205663112,0.0003757289806327159,7.933949376786514e-05,0.0001067724180367477
167.13333333335848,-0.00011071157,-0.7850016,-0.00020003578,-2.3557632,0.00010033219,1.5709871,0.7859632,0.03999998,0.039999966,0.022066373633533587,0.011048877623095433,-0.0009443120895236135,0.003833833149373301,-0.018480192286569577,0.0016251366600150148,0.9999999028537525,0.0004086261664401096,0.0001127182787718767,0.00012087899436103847
167.15000000002516,-0.00016073794,-0.78503853,-0.00024318243,-2.3557172,0.0001015954,1.570988,0.7859566,0.039999977,0.039999958,0.024214399572053402,0.011821285863872185,-0.0007950714167037631,0.004315340872021602,-0.019461448542399257,0.001829312235351865,0.9999998793954958,0.00044562189711220987,0.00015468102898603972,0.00013676219462340747
167.16666666669184,-0.00021674589,-0.78508365,-0.0002914746,-2.3556623,0.00010300779,1.570989,0.785949,0.03999998,0.03999996,0.024017194236591877,0.012595294053680088,-0.0007038872462894474,0.00482879075630383,-0.020477615955692405,0.002045660595747044,0.9999998484864672,0.0004868918328965088,0.0002051386816381061,0.00015453642592465266
167.18333333335852,-0.00027910247,-0.78513753,-0.00034522728,-2.3555987,0.000104577695,1.5709925,0.78594124,0.039999977,0.039999954,0.025470628927792838,0.013371595766995328,0.0008111137313804306,0.005374802511597741,-0.02153492975012672,0.0022757734267519238,0.9999998073689634,0.0005332079402210379,0.00026564127319704295,0.0001743159272706633
167.2000000000252,-0.00034817398,-0.7852005,-0.00040475497,-2.3555257,0.00010631715,1.5709968,0.7859317,0.039999984,0.03999996,0.026082267659655045,0.014143054801490302,-0.0004028927531596338,0.005948689931168932,-0.02262047584310768,0.0025181211313900042,0.9999997538426186,0.0005840300588209228,0.00033574237529082303,0.00019621582473850413
167.21666666669188,-0.0004243252,-0.78527254,-0.0004703707,-2.355443,0.000108230466,1.5710012,0.78592205,0.039999984,0.03999996,0.026732674604357243,0.014917760496134646,-0.000774006117199022,0.006558031379801491,-0.023745333298573743,0.0027722590087444943,0.9999996843534898,0.0006404857498234803,0.0004153529769604436,0.00022034706604811996
167.23333333335856,-0.00050791947,-0.78535426,-0.0005423864,-2.35535,0.000110332105,1.5710056,0.7859106,0.039999988,0.03999996,0.028099328584940686,0.015682967084343514,-0.0009748308038792786,0.0071947063158112135,-0.02491171460690614,0.0030417767834091227,0.9999995956413494,0.0007020325357218646,0.0005049209292211198,0.0002468244547336604
167.25000000002524,-0.00059931737,-0.7854459,-0.0006211114,-2.3552465,0.000112626956,1.5710102,0.78589875,0.03999999,0.039999966,0.028910952293381698,0.016450252046402776,-0.000884240156695526,0.007865494352177968,-0.026120056639840725,0.003321261375686149,0.9999994828893795,0.0007696456453861666,0.0006048342482813273,0.00027575729578868793
167.26666666669192,-0.0006988769,-0.7855477,-0.000706853,-2.3551316,0.00011512702,1.5710149,0.7858854,0.039999988,0.039999954,0.030589524289181824,0.017208254282220167,-0.0007318819040813551,0.00856431603516816,-0.027371056143108474,0.0036157275201110168,0.9999993414295051,0.0008430763559914428,0.0007155111562851685,0.00030725656916014013
167.2833333333586,-0.0008069521,-0.7856601,-0.00079991575,-2.3550062,0.000117840274,1.5710196,0.7858711,0.039999995,0.039999958,0.029666704964426138,0.017960474469804928,-0.001439214651255405,0.009295233671873744,-0.028663732017455222,0.0039224151880640715,0.9999991657157127,0.0009228775304728919,0.0008368333440909603,0.0003414306614431514
167.30000000002528,-0.00092389464,-0.78578323,-0.0009006008,-2.3548682,0.000120773504,1.5710244,0.7858558,0.04,0.03999996,0.03334422662921721,0.018712275878665155,-0.0006416850219181924,0.010055516170023619,-0.030002700883605442,0.004239384477189075,0.9999989487369776,0.0010093317209608045,0.0009698449839530751,0.000378384888529841
167.31666666669196,-0.0010500513,-0.7859176,-0.0010092064,-2.3547187,0.00012393609,1.5710292,0.7858389,0.04,0.03999996,0.03184667671474184,0.019449419759162406,-0.0014851540003801844,0.010844214427047203,-0.03138247011059511,0.004568712971224844,0.9999986842348834,0.0011023600378999678,0.0011141898239892514,0.00041822468239590137
167.33333333335864,-0.0011857655,-0.7860635,-0.0011260271,-2.3545563,0.00012733694,1.5710369,0.785821,0.04,0.039999966,0.035626052769055505,0.02018967841127435,0.001120262238774039,0.011664184409473382,-0.03280851701191628,0.004909194421096799,0.9999983612803232,0.0012025968053401715,0.0012722532984359577,0.00046105220580923455
167.35000000002532,-0.0013313747,-0.7862214,-0.0012513531,-2.354381,0.00013098579,1.5710452,0.7858019,0.04,0.039999958,0.03529353920397327,0.020908154763041396,-0.0010335740983080655,0.012511722963110657,-0.034262365678250556,0.005262252951084071,0.9999979721083692,0.0013101639549090477,0.0014429939274148704,0.000506969511751988
167.366666666692,-0.0014872135,-0.78639144,-0.0013854716,-2.354193,0.0001348914,1.5710536,0.7857812,0.04,0.039999947,0.035418188341584944,0.02162462452177374,-0.0013702340686094772,0.013387202839723427,-0.035757520742558835,0.0056265120452358465,0.9999975072539501,0.001425181242893789,0.001626383700876852,0.0005560758656764041
167.38333333335868,-0.0016536093,-0.786574,-0.0015286639,-2.353992,0.00013906049,1.5710621,0.7857592,0.039999988,0.039999932,0.03574029736763684,0.022328781526670827,-0.001814140993228186,0.014291805831492841,-0.03729680762599441,0.006000626807695595,0.9999969559550789,0.0015480309980000855,0.0018224840557335893,0.0006084673137667074
167.40000000002536,-0.0018308861,-0.7867694,-0.0016812077,-2.3537767,0.00014350211,1.5710707,0.7857358,0.03999998,0.03999992,0.03854406486021311,0.023029515580050373,-0.0013317774245402703,0.015223647102461706,-0.03888134117856072,0.006386431268302364,0.9999963050500587,0.001678914068107986,0.00203222097346621,0.0006642376811227611
167.41666666669204,-0.0020193614,-0.7869778,-0.0018433763,-2.3535466,0.00014822288,1.5710793,0.7857108,0.039999973,0.03999991,0.039584413959281584,0.023718999276472943,-0.0014233296093735248,0.016182569059531794,-0.04050851978189188,0.006780665363391643,0.9999955411393253,0.0018180263866226097,0.0022558947918711863,0.0007234778597288122
167.43333333335872,-0.0022193484,-0.7871999,-0.0020154377,-2.353302,0.00015323127,1.5710878,0.78568447,0.03999997,0.039999906,0.03984153853271444,0.02439489794077987,-0.001953823845513014,0.017168301395822462,-0.04217592749816931,0.007184710844049324,0.9999946496275497,0.0019657085705769278,0.0024936867410016703,0.0007862776402202816
167.4500000000254,-0.0024311529,-0.7874357,-0.002197656,-2.3530421,0.00015853501,1.5710996,0.7856565,0.039999966,0.0399999,0.042161271944474166,0.02507544613120482,0.0006284691299374146,0.018179469890952163,-0.04388391777092735,0.0075991602755427394,0.9999936101395696,0.002122089209394791,0.002747596346763304,0.0008527201962881199
167.46666666669208,-0.0026550756,-0.78768545,-0.00239029,-2.3527675,0.00016414114,1.5711119,0.78562695,0.039999973,0.039999902,0.04074054008731398,0.025722551754520442,-0.001855981114196048,0.01921664243601445,-0.04561950329348796,0.008022896389711497,0.9999924094471481,0.002287409072161224,0.003016136420388765,0.0009228916066553424
167.48333333335876,-0.002891412,-0.7879497,-0.0025935918,-2.3524773,0.00017005677,1.5711242,0.78559566,0.03999998,0.039999902,0.04240239765527232,0.026368784029404263,-0.0023110857473751523,0.02027896623808805,-0.0473972951687324,0.008456291522449933,0.9999910287393051,0.002461845349209982,0.0032996975991159846,0.0009968721770451498
167.50000000002544,-0.003140451,-0.78822863,-0.00280781,-2.3521717,0.00017628912,1.5711366,0.78556263,0.03999998,0.039999902,0.04270907285910397,0.027003816995122,-0.0024746819345722315,0.021366447978787367,-0.04921713812444048,0.008897534956717672,0.9999894482668251,0.0026456302213941196,0.0035984620955068288,0.001074740103205679
167.51666666669212,-0.0034024736,-0.78852254,-0.0030331877,-2.3518484,0.00018284543,1.571149,0.78552794,0.039999984,0.0399999,0.0465927250785203,0.027638106915200654,-0.001889139782007554,0.022477965905592222,-0.05107871781176553,0.009347654329870236,0.999987643078892,0.0028390209704309516,0.00391356599496275,0.001156568482581222
167.5333333333588,-0.0036777575,-0.7888318,-0.0032699623,-2.3515081,0.00018973243,1.571162,0.7854916,0.03999999,0.039999906,0.04596895777690957,0.028251370601856292,-0.0021013979696338225,0.023612868613033442,-0.052973976890726436,0.009804062887299885,0.9999855898941628,0.0030422400776374562,0.004245132388905799,0.001242429206885693
167.55000000002548,-0.003966572,-0.7891567,-0.0035183653,-2.3511515,0.00019695681,1.5711776,0.7854535,0.03999999,0.0399999,0.04621463863716535,0.028860814157649455,-0.0011552935116565521,0.02477064396845075,-0.0549042251876705,0.010268715715437476,0.9999832602047326,0.0032554755297238653,0.004594119115448964,0.0013323884352935981
167.56666666669216,-0.004269181,-0.7894972,-0.0037786236,-2.350778,0.00020452551,1.5711937,0.78541356,0.03999999,0.039999895,0.04586904574646056,0.029441741882219735,-0.002763310450659695,0.02595038251817949,-0.05686334941646289,0.010740504980082994,0.9999806324888771,0.0034788782735683975,0.004959547205603616,0.001426514850352678
167.58333333335884,-0.004585842,-0.789854,-0.004050958,-2.350386,0.00021244482,1.5712099,0.7853718,0.039999995,0.039999895,0.05014042334607893,0.030035626591433037,-0.0026465458984326062,0.02715233319230862,-0.05886177255603503,0.011218968476229052,0.9999776733127473,0.0037126564383510377,0.005342643228587111,0.001524867708106839
167.60000000002552,-0.0049168044,-0.7902273,-0.0043355846,-2.3499768,0.00022072103,1.5712261,0.7853281,0.039999995,0.039999887,0.04712232181498521,0.030585689015105375,-0.0038720915769729913,0.02837536499586109,-0.06089111484133166,0.011704487178149092,0.9999743581764832,0.003956979290710252,0.0057425181489711204,0.0016275102862839293
167.6166666666922,-0.0052623153,-0.790617,-0.004632714,-2.3495495,0.00022936027,1.5712423,0.78528243,0.03999999,0.03999988,0.04902847233541063,0.031156573996967904,-0.0034743296625672215,0.02961943522015154,-0.06296136113858339,0.012195214093432206,0.9999706537527522,0.004212016173703133,0.0061597137100431664,0.0017344970614734403
167.63333333335888,-0.00562261,-0.7910236,-0.004942549,-2.3491032,0.00023836832,1.5712613,0.78523487,0.03999999,0.039999876,0.052149626567477014,0.031725713230401804,-0.001545216351872547,0.0308841397539347,-0.06506790835424682,0.012691468040370678,0.999966513701719,0.0044779886518632305,0.0065963512990349984,0.0018458717191289242
167.65000000002556,-0.005997921,-0.7914475,-0.0052652895,-2.3486388,0.00024775107,1.5712812,0.78518534,0.039999984,0.039999865,0.050346357148889354,0.03224178544993534,-0.0036978311862556623,0.03216811124437301,-0.06719495661802649,0.01319288338215073,0.9999619098775737,0.004755051572802003,0.007051244733810383,0.001961689638798264
167.66666666669224,-0.0063884715,-0.79188895,-0.0056011267,-2.3481545,0.00025751436,1.5713012,0.78513384,0.039999973,0.03999985,0.053191718769207696,0.03277049072533591,-0.003968140231203066,0.03347121825379647,-0.06935398643765485,0.01369902066061955,0.9999568015188357,0.005043384490846117,0.007524936547781774,0.0020819940079265208
167.68333333335892,-0.0067944815,-0.7923477,-0.005950252,-2.347651,0.000267664,1.5713212,0.7850803,0.03999995,0.03999982,0.052150013111273985,0.033283190368762,-0.0043894267143018695,0.034792649825250786,-0.0715420588662714,0.014210352532926894,0.9999511527005981,0.005343134715205301,0.008017045801756432,0.002206830481192364
167.7000000000256,-0.0072161616,-0.7928247,-0.0063128443,-2.347129,0.00027820477,1.5713422,0.7850247,0.039999943,0.03999981,0.051766120727991805,0.03377264508328138,-0.004821246238639887,0.03613202816490721,-0.07376489899665596,0.014724668824469213,0.9999449197757337,0.005654439870385912,0.00852799648480894,0.0023362363768831317
167.71666666669228,-0.007653716,-0.7933196,-0.0066890805,-2.3465865,0.00028914178,1.5713654,0.784967,0.039999936,0.039999798,0.05597480847590042,0.0343053704432425,-0.0030568045800594135,0.03748907430782816,-0.07601902281743135,0.015243306831543811,0.9999380450317947,0.005977468738606655,0.009059464427977504,0.0024702367800503223
167.73333333335896,-0.008107342,-0.7938328,-0.0070791305,-2.3460238,0.00030047938,1.5713891,0.7849071,0.03999992,0.039999776,0.05464960928471818,0.03475674956573728,-0.004990213124123066,0.038862811087823905,-0.07829187719009138,0.015764250127182296,0.9999304909232963,0.006312317291603689,0.009610503443798477,0.0026088686939742256
167.75000000002564,-0.008577234,-0.79436445,-0.0074831606,-2.3454413,0.0003122229,1.5714129,0.7848451,0.039999902,0.039999753,0.05429084466790357,0.035217500484908265,-0.00583347348226404,0.04025326111902112,-0.08059220429834488,0.01628785652904682,0.9999222124163,0.006659200005675903,0.010180852780693975,0.0027521643181242597
167.76666666669232,-0.009063576,-0.79491484,-0.007901329,-2.3448381,0.00032437692,1.5714368,0.7847809,0.039999887,0.039999735,0.05615127212179605,0.03567852551287741,-0.005966593206907511,0.041659538632280155,-0.08292366429480102,0.01681364024393898,0.9999131553754378,0.007018205021582601,0.01077105687767789,0.002900144677166418
167.783333333359,-0.00956655,-0.7954842,-0.008333791,-2.3442142,0.00033694613,1.5714625,0.7847145,0.03999987,0.03999971,0.057058792549402604,0.0361516859155267,-0.005016750816166926,0.043080723204875285,-0.08528398876752616,0.017342014510911913,0.9999032560396268,0.007389480537523959,0.01138219669674889,0.003052824445418851
167.80000000002568,-0.0100863185,-0.79607254,-0.008780695,-2.3435695,0.00034993415,1.5714898,0.7846459,0.03999985,0.039999686,0.057017549481241936,0.036569413580188684,-0.005646131746139815,0.04451703584757855,-0.08766264792368854,0.017871103019947283,0.9998924607771724,0.007773159086869017,0.012014131647368588,0.003210221104668144
167.81666666669236,-0.010623058,-0.7966802,-0.00924218,-2.3429036,0.00036334526,1.5715175,0.7845751,0.039999835,0.039999664,0.057773486049383926,0.03699044652500649,-0.0068526682166725195,0.04596708406768125,-0.09006411890617723,0.01840181849307064,0.999880714992391,0.008169376738245825,0.012666661861821582,0.003372350410598576
167.83333333335904,-0.0111769205,-0.79730725,-0.009718385,-2.3422165,0.0003771834,1.5715451,0.784502,0.03999982,0.039999645,0.05772703671600432,0.037384732287043185,-0.0075096388321815866,0.04743079008427594,-0.09248987612188346,0.018932301239401674,0.999867962146612,0.008578226472180818,0.01333964742634889,0.0035392244791948584
167.85000000002572,-0.0117480615,-0.79795414,-0.010209438,-2.341508,0.00039145225,1.571574,0.7844267,0.03999981,0.039999627,0.059070289098528406,0.03780322801815936,-0.007195663430703547,0.048907651940326556,-0.09494148940878298,0.01946365423121593,0.9998541283924115,0.008999833135124074,0.014034051149700227,0.0037108420228514783
167.8666666666924,-0.012336628,-0.7986209,-0.010715469,-2.340778,0.0004061552,1.5716045,0.784349,0.039999794,0.039999608,0.05883315193342398,0.03819524780928826,-0.0073293427948817325,0.05039670290687701,-0.0974128433397999,0.019993867215920797,0.9998391477407892,0.009434284952858678,0.014750001826852589,0.003887204459317282
167.88333333335908,-0.0129427565,-0.7993074,-0.011236598,-2.340026,0.0004212961,1.5716358,0.78426903,0.039999776,0.039999582,0.060535375993131524,0.038581456104229764,-0.007835014182044908,0.051897922953292056,-0.09990272214558758,0.020524206730295657,0.9998229510407208,0.009881693843678955,0.015487658187921406,0.004068309582430329
167.90000000002576,-0.013566584,-0.80001426,-0.01177294,-2.339252,0.000436878,1.5716673,0.78418666,0.039999757,0.03999956,0.05966736710676379,0.03891433248017148,-0.00939171139977546,0.05341046231851675,-0.10241021464202243,0.021052532745585918,0.9998054765450533,0.010342133648807879,0.01624658341104944,0.004254159091637122
167.91666666669244,-0.014208235,-0.80074126,-0.012324607,-2.338456,0.0004529042,1.5716997,0.78410196,0.039999735,0.03999953,0.0605764820624799,0.03929118340374148,-0.008915155353750315,0.05493429749528456,-0.10494033229765558,0.021580043307942814,0.9997866439102475,0.010815737428160117,0.0170273537248187,0.004444739328560213
167.93333333335912,-0.014867832,-0.80148864,-0.012891698,-2.3376377,0.00046937753,1.5717337,0.78401506,0.039999716,0.039999507,0.06105103507416665,0.03963848319593205,-0.009074416612131486,0.056468316137025076,-0.10748817146622124,0.022104617286783753,0.9997663711606565,0.011302661280912634,0.017830396398064906,0.0046400332444247825
167.9500000000258,-0.0155454865,-0.8022565,-0.013474314,-2.336797,0.0004863012,1.5717689,0.78392565,0.039999694,0.039999478,0.06147627836954328,0.03996423398147167,-0.009784003067925262,0.058011348010444976,-0.11005127190230497,0.022627651077031723,0.9997445828862909,0.011802845718683539,0.018655722718085514,0.004840024000280493
167.96666666669248,-0.016241314,-0.8030451,-0.014072547,-2.3359334,0.00050367735,1.5718042,0.78383386,0.039999664,0.039999444,0.06212706891539632,0.04027506168287412,-0.010980041995622969,0.05956418032802079,-0.11262945377644262,0.023147023685219942,0.9997212032128479,0.012316437187647005,0.01950313468878996,0.005044696122612715
167.98333333335916,-0.016955407,-0.8038543,-0.014686487,-2.3350468,0.00052150886,1.5718403,0.7837397,0.039999634,0.039999407,0.06272029528302525,0.04059405047530454,-0.010828557898956426,0.061125799067505086,-0.1152252422494275,0.023663765330810348,0.9996961421300181,0.012843514698049976,0.020373090180743892,0.00525402103600667
168.00000000002584,-0.017687872,-0.80468446,-0.015316215,-2.3341384,0.0005397977,1.571878,0.783643,0.03999961,0.03999938,0.06091135267651815,0.040868936577535125,-0.011585528166824233,0.06269560148223018,-0.11783356878314698,0.024176038175280513,0.999669319854072,0.013384096000904736,0.02126542193024137,0.0054679746583589225
168.01666666669252,-0.018438792,-0.8055356,-0.015961807,-2.3332064,0.0005585465,1.5719168,0.78354394,0.039999582,0.039999343,0.06406464191344163,0.04118631832515582,-0.011655947208821793,0.0642735315315832,-0.12045831332227233,0.02468498000240341,0.9996406324411832,0.013938310705344124,0.022180915468769002,0.00568651529851333
168.0333333333592,-0.019208258,-0.8064078,-0.01662334,-2.332251,0.00057775714,1.5719558,0.7834425,0.039999552,0.03999931,0.06334752510990249,0.04143666227597528,-0.01311847539517963,0.06585845766518039,-0.12309121864577147,0.02518949911834845,0.9996100037660894,0.01450622623756618,0.023118956602064047,0.005909620692973213
168.05000000002588,-0.01999634,-0.8073011,-0.017300883,-2.3312724,0.00059743156,1.5719957,0.78333855,0.039999522,0.039999273,0.06370381006743919,0.04170559863627549,-0.01311224853914883,0.06744958603831928,-0.12573890204096005,0.0256880526817854,0.9995773330088548,0.015087841399878251,0.024080004030852694,0.006137245528009065
168.06666666669256,-0.020803109,-0.8082155,-0.017994488,-2.3302705,0.0006175718,1.5720371,0.7832321,0.039999485,0.03999923,0.06346100011969114,0.04194530437601415,-0.013432828409598585,0.06904755311348035,-0.12839673453675204,0.02618220247098045,0.9995425227935353,0.015683209351093817,0.025064188478298173,0.006369342816106605
168.08333333335923,-0.021628631,-0.80915123,-0.018704213,-2.3292458,0.00063817925,1.5720795,0.78312325,0.039999455,0.039999194,0.06318489025232132,0.04215908326649781,-0.014525810947074724,0.07065118050807877,-0.13106346659411072,0.0266698448817835,0.9995054797164075,0.01629243802958624,0.026071342518890223,0.006605874596826563
168.10000000002591,-0.022472968,-0.8101084,-0.019430118,-2.3281982,0.0006592556,1.5721223,0.78301185,0.039999437,0.03999917,0.06305543139828451,0.04236213939900618,-0.01573028100756435,0.07225973966881274,-0.13374132191418214,0.027151988932836945,0.9994661143700405,0.01691548322438371,0.02710118065486849,0.006846799285129211
168.1166666666926,-0.023336174,-0.8110869,-0.020172242,-2.327127,0.00068080134,1.5721663,0.782898,0.039999403,0.03999913,0.06437779632224583,0.04261576211460408,-0.015378970584611906,0.0738735979726663,-0.13643317452525663,0.02762655597611261,0.9994243063790935,0.01755244837215371,0.028154399282079905,0.007092050188490629
168.13333333335927,-0.024218302,-0.812087,-0.020930642,-2.3260324,0.00070281886,1.5722115,0.7827816,0.039999377,0.039999098,0.06435304652123719,0.04281959073833344,-0.016339817954680314,0.07549146889346266,-0.139131622187933,0.02809507302734269,0.9993799503195547,0.018203315166887484,0.029231070246455625,0.00734157670164376
168.15000000002595,-0.025119394,-0.8131085,-0.021705335,-2.324914,0.0007253084,1.5722578,0.78266275,0.039999343,0.03999906,0.06485890141121331,0.0429948795258997,-0.016765972117638306,0.077113529676175,-0.14183573876810304,0.028555468391109208,0.9993329364613405,0.018868168031664724,0.03033126426692332,0.007595310833231864
168.16666666669263,-0.026039468,-0.81415147,-0.022496363,-2.323772,0.0007482717,1.5723044,0.78254133,0.039999302,0.039999012,0.06424150625581326,0.0431212606008112,-0.018081676865788765,0.07873854515292572,-0.14454530558181833,0.029009021452782408,0.9992831705197275,0.019546964115342055,0.03145454675867428,0.007853203048514903
168.18333333335931,-0.02697858,-0.81521606,-0.02330375,-2.3226063,0.00077170855,1.5723523,0.7824175,0.03999926,0.039998967,0.06476698293038652,0.04333207560257915,-0.018201163624276262,0.08036690143344427,-0.1472635465548451,0.029453489904743498,0.9992305224611803,0.02023979812755836,0.03260149479859081,0.00811517656062066
168.200000000026,-0.02793675,-0.81630236,-0.024127528,-2.321417,0.0007956198,1.5724014,0.7822911,0.039999213,0.039998915,0.06477182789681457,0.043471686548177124,-0.019035251587973256,0.08199719874792044,-0.14998616110865304,0.029889460384138,0.9991748794057106,0.020946654886928495,0.0337720903574786,0.00838116498572961
168.21666666669267,-0.028913988,-0.8174103,-0.024967697,-2.3202043,0.0008200072,1.5724515,0.78216225,0.039999172,0.039998867,0.06459863389647325,0.04356534175967569,-0.019890145997436548,0.08362951769684307,-0.15271153795763112,0.030317467998682956,0.999116130191049,0.02166753592755012,0.034966195845678394,0.008651093975503362
168.23333333335935,-0.029910315,-0.8185398,-0.025824279,-2.3189685,0.0008448691,1.5725019,0.78203094,0.039999116,0.039998807,0.06305281788967498,0.043640847143196215,-0.021250372309022936,0.08526334737697726,-0.1554416075697933,0.030735419657133275,0.9990541804929596,0.022402477698002014,0.03618313755027058,0.008924908377663916
168.25000000002603,-0.030925741,-0.81969106,-0.026697287,-2.3177085,0.0008702072,1.5725538,0.781897,0.03999906,0.039998744,0.06608762889097619,0.04385807348532278,-0.02088148756527186,0.08689774549732493,-0.15817988484579334,0.031144294474099207,0.9989888641667269,0.023151405100838247,0.037424267239961624,0.009202496089727218
168.26666666669271,-0.031960275,-0.82086396,-0.027586713,-2.3164244,0.00089602114,1.5726068,0.78176063,0.03999902,0.039998695,0.06542937013986894,0.04391970912738796,-0.021826419977788447,0.08853334169304682,-0.160916496364918,0.03154348473470033,0.998920065700379,0.02391440082397035,0.03868929713402085,0.009483778870078698
168.2833333333594,-0.0330139,-0.82205856,-0.028492562,-2.3151164,0.0009223102,1.5726607,0.7816217,0.03999896,0.039998636,0.0649169185367171,0.043959377859786875,-0.022985938995589983,0.09016864082349595,-0.16365028129988587,0.031931676376353274,0.9988476711007895,0.024691389772081816,0.03997797047566186,0.009768678738663364
168.30000000002607,-0.034086626,-0.82327485,-0.029414836,-2.313785,0.0009490747,1.572715,0.78148025,0.039998904,0.039998572,0.06391948716562013,0.04400867195329394,-0.02419067336925096,0.09180410471338693,-0.16638547310464818,0.03230931958491971,0.9987715691780747,0.025482398192689493,0.04128988087623364,0.010057122905787834
168.31666666669275,-0.03517843,-0.8245127,-0.030353518,-2.3124306,0.0009763148,1.572771,0.78133625,0.03999884,0.039998505,0.06373803278170165,0.044069626037124277,-0.0242209614568889,0.0934387270031834,-0.1691249292201512,0.03267657111752954,0.9986916178758705,0.026287375157736416,0.042625395875858965,0.010349005663302026
168.33333333335943,-0.03628931,-0.82577235,-0.03130858,-2.3110528,0.0010040292,1.5728279,0.78118974,0.03999878,0.03999844,0.0641240268528076,0.04408662149567727,-0.02543344081360477,0.09507232343332189,-0.17186251163891142,0.033031759552103614,0.9986076864626585,0.027106328841628183,0.04398449526304707,0.010644230873167742
168.3500000000261,-0.037419222,-0.8270535,-0.03228002,-2.309651,0.0010322175,1.5728856,0.7810408,0.03999872,0.039998375,0.06491644052908363,0.04413795613489174,-0.02615169758186653,0.09670456652772162,-0.1745982628171094,0.03337548499400897,0.9985196380324212,0.027939264881550553,0.04536724771636892,0.010942704241767446
168.3666666666928,-0.038568135,-0.82835627,-0.033267807,-2.3082244,0.0010608793,1.5729443,0.78088933,0.039998654,0.039998304,0.0659133867698447,0.044159576973461234,-0.026785335915269215,0.09833434638348795,-0.1773325612504856,0.03370789846509207,0.9984273185499454,0.028786118623665303,0.04677407908707306,0.011244308485020752
168.38333333335947,-0.03973603,-0.8296807,-0.03427192,-2.3067744,0.0010900144,1.5730041,0.78073525,0.039998587,0.03999823,0.06429692948661803,0.04412801052466886,-0.027771014514010872,0.09996174313278826,-0.1800591993316643,0.03402850002125502,0.998330607284112,0.029646801317055403,0.0482046417730712,0.011548949862784387
168.40000000002615,-0.040922858,-0.83102643,-0.035292316,-2.3053012,0.001119621,1.5730648,0.78057873,0.039998543,0.039998177,0.06294483167810228,0.04404677480353142,-0.028830246536704074,0.10158695987978054,-0.18277975836875693,0.0343359318350867,0.9982293899099658,0.030521354941229713,0.049658377672046464,0.0118565399467678
168.41666666669283,-0.04212859,-0.8323938,-0.03632896,-2.3038049,0.0011496977,1.5731262,0.7804197,0.039998483,0.03999811,0.0631581533088621,0.04399137509659701,-0.030011241892613505,0.10320892904954615,-0.18549817191473184,0.034630534807150976,0.9981235232888069,0.03140970588945183,0.051135384378892916,0.012166967489866443
168.4333333333595,-0.04335317,-0.8337828,-0.037381817,-2.3022852,0.0011802439,1.5731888,0.7802582,0.03999842,0.039998047,0.06362157348309694,0.04397996656467784,-0.030470530677617624,0.10482736883489943,-0.18821324988824553,0.034912781488156776,0.9980128484119292,0.03231181062858239,0.05263599645905035,0.012480111192337079
168.4500000000262,-0.044596538,-0.83519274,-0.038450837,-2.3007414,0.0012112581,1.5732524,0.7800941,0.03999835,0.03999797,0.06409209162194784,0.043951280206651344,-0.030858804568856257,0.10644163559371915,-0.19092129571501842,0.035181563213242256,0.9978972212727251,0.03322758806812923,0.05416022076702203,0.012795845177869499
168.46666666669287,-0.045858655,-0.8366238,-0.039535977,-2.2991748,0.0012427391,1.5733169,0.7799277,0.03999828,0.039997898,0.06197870371247305,0.04379228990201711,-0.03235857085741589,0.10805225190968107,-0.1936201464613095,0.03543649096743284,0.9977765269718153,0.034157102515808196,0.055707408073720856,0.013114086224161265
168.48333333335955,-0.047139455,-0.8380762,-0.04063718,-2.2975848,0.0012746848,1.573382,0.7797588,0.03999821,0.03999782,0.06288763162740629,0.04368720115445063,-0.033509370155071494,0.10965756667697057,-0.1963155453299057,0.03567718062032342,0.9976506081492109,0.03510022897118133,0.05727780276302729,0.013434704921217688
168.50000000002623,-0.04843886,-0.8395497,-0.041754395,-2.2959716,0.001307094,1.5734488,0.77958745,0.039998144,0.039997745,0.06261565191785223,0.04361795467066609,-0.033639910695448805,0.11125763015753266,-0.1990021039891757,0.03590462567511266,0.9975192979284697,0.03605687541502201,0.05887173718435017,0.013757563610434518
168.5166666666929,-0.049756806,-0.8410444,-0.04288755,-2.2943356,0.0013399645,1.5735162,0.77941364,0.039998073,0.03999767,0.061725810494905886,0.04340213048155822,-0.03532911135899486,0.11285227292989361,-0.2016766533928785,0.03611725619370942,0.9973824792033027,0.0370269960659639,0.06048862085261618,0.014082559708844913
168.5333333333596,-0.051093206,-0.84256005,-0.044036586,-2.2926767,0.0013732944,1.5735844,0.77923745,0.039998,0.03999759,0.06136281707558311,0.043242870420157065,-0.036121161541635693,0.11444092344485353,-0.2043419901373009,0.036316029798671885,0.9972400074849475,0.03801054173951944,0.06212833814971188,0.014409572750265179
168.55000000002627,-0.052447997,-0.8440966,-0.045201425,-2.2909954,0.0014070817,1.5736532,0.7790587,0.03999793,0.039997514,0.06037583291478299,0.04303602605332246,-0.03729263263656524,0.11602345250020123,-0.20699895432860657,0.036499265925511344,0.9970917529897524,0.03900734782880121,0.06379059648946955,0.014738478032120346
168.56666666669295,-0.053821083,-0.8456539,-0.046382,-2.289291,0.0014413251,1.5737238,0.77887756,0.03999787,0.039997447,0.06180113365341633,0.042990108140150696,-0.03715198938831765,0.11760027727753906,-0.2096497256237169,0.03666809199108563,0.9969375038463092,0.040017432648100044,0.0654762584075845,0.015069110587170791
168.58333333335963,-0.055212364,-0.8472319,-0.04757825,-2.287564,0.0014760211,1.5737951,0.778694,0.03999781,0.039997384,0.05999932801432628,0.04266367828395512,-0.03905902415242135,0.11916966084098307,-0.21228117360481064,0.036821515016984635,0.9967771630591595,0.04104066743514144,0.06718443476178265,0.015401381300111455
168.6000000000263,-0.05662176,-0.84883046,-0.048790075,-2.2858145,0.0015111675,1.5738671,0.778508,0.03999774,0.03999731,0.06003077016401015,0.042460706893085454,-0.03982961220618808,0.12073218680790983,-0.2149035149810693,0.03696022931026167,0.9966105744318144,0.04207699565539698,0.06891512579419123,0.01573514550537417
168.616666666693,-0.058049172,-0.8504493,-0.050017398,-2.2840426,0.001546763,1.5739396,0.7783197,0.039997667,0.03999723,0.059189499912148946,0.042194341706927596,-0.04092029489675131,0.12228684333464421,-0.21751233138795684,0.03708267435322011,0.9964376031405829,0.043126351138747375,0.07066800447088396,0.016070284036401105
168.63333333335967,-0.0594945,-0.85208875,-0.051260114,-2.2822483,0.0015828036,1.5740137,0.77812916,0.039997596,0.039997153,0.059810116684921866,0.0420037926640332,-0.04129699631760797,0.12383345679731605,-0.22011144527366217,0.03718991841316281,0.9962580403247469,0.04418866741389402,0.07244378185855212,0.01640662154466505
168.65000000002635,-0.060957626,-0.85374826,-0.05251815,-2.2804317,0.0016192873,1.5740887,0.7779363,0.03999752,0.03999707,0.05838568356346663,0.04168257973465317,-0.04258443663855971,0.125371362283402,-0.22269084831003008,0.03728189703421474,0.9960717827231699,0.04526381119601324,0.074241684712081,0.016744052968437693
168.66666666669303,-0.06243844,-0.855428,-0.053791404,-2.2785933,0.001656211,1.5741644,0.777741,0.03999745,0.039996997,0.05789903271384844,0.041336694732213575,-0.043830581736070684,0.1269006598413859,-0.22525504908951247,0.03735708997543191,0.9958786825167796,0.046351636860082326,0.0760615921985449,0.017082437216532968
168.6833333333597,-0.06393684,-0.85712755,-0.055079777,-2.2767336,0.0016935716,1.5742406,0.7775434,0.039997377,0.03999692,0.056001842154396186,0.040975943621854305,-0.044879820181398244,0.1284211160616853,-0.22780510840384463,0.03741610899124571,0.9956786295622451,0.04745206647998247,0.07790284769044545,0.017421662996062858
168.7000000000264,-0.06545269,-0.858847,-0.05638316,-2.2748516,0.001731367,1.5743182,0.7773436,0.039997306,0.039996844,0.058394541666118016,0.040810329517448896,-0.04509316704237598,0.1299325619608976,-0.23034461518584534,0.037458461538414076,0.9954713784040641,0.0485650236728151,0.0797665436823754,0.017761524792067346
168.71666666669307,-0.066985875,-0.86058635,-0.057701454,-2.2729487,0.001769594,1.5743967,0.77714145,0.03999723,0.03999676,0.05504028574350173,0.04029292776500659,-0.04671054582827683,0.1314338158420458,-0.23286083181123163,0.03748589474629703,0.9952568542493869,0.049690379527293264,0.08165157741234845,0.01810193796595825
168.73333333335975,-0.06853626,-0.86234516,-0.05903455,-2.2710242,0.0018082487,1.5744759,0.776937,0.03999716,0.039996687,0.05599035105832151,0.03998435315519244,-0.047548123819640686,0.13292552427199592,-0.2353627191503619,0.03749569354441376,0.9950348898506644,0.05082798266898842,0.08355806132637306,0.01844273691878407
168.75000000002643,-0.07010371,-0.8641232,-0.060382336,-2.2690785,0.0018473287,1.5745556,0.77673036,0.039997097,0.03999662,0.05471406530723755,0.03957885151734952,-0.04848415281035745,0.1344071009998524,-0.23784553470507624,0.03749006769274094,0.9948053515418884,0.05197776885716178,0.08548563123631002,0.018783794621452524
168.7666666666931,-0.07168811,-0.8659206,-0.061744682,-2.2671115,0.0018868297,1.5746365,0.7765214,0.03999703,0.039996546,0.05479753300798862,0.039205863954414055,-0.04925742650303544,0.13587841115950558,-0.24031261014150804,0.037466643714274134,0.9945680596175293,0.0531395506281083,0.08743454644183007,0.019124932318230786
168.7833333333598,-0.0732893,-0.8677371,-0.0631215,-2.2651236,0.0019267491,1.5747187,0.7763102,0.03999696,0.03999647,0.054148713289636774,0.03883781638152062,-0.04996615961583295,0.1373386855706071,-0.24275814731457612,0.0374277045023419,0.9943228507769882,0.05431326308703674,0.08940476669102672,0.019466010594996634
168.80000000002647,-0.07490716,-0.8695726,-0.064512625,-2.2631152,0.0019670827,1.5748016,0.77609676,0.03999689,0.039996393,0.052552711852627,0.03826275903078269,-0.051499072152738634,0.13878834495754674,-0.245181227255304,0.03737152283478985,0.9940696317789373,0.05549872860007381,0.09139554105056472,0.0198069021994381
168.81666666669315,-0.076541536,-0.871427,-0.065917976,-2.2610862,0.0020078279,1.5748848,0.7758811,0.03999682,0.03999632,0.05223056029439732,0.037807336550604864,-0.05270843673441661,0.14022617294128498,-0.24758474138132794,0.0373001812296179,0.9938082522395043,0.0566958372663836,0.09340673941726149,0.020147477478868418
168.83333333335983,-0.07819225,-0.87329996,-0.06733739,-2.2590365,0.0020489786,1.5749687,0.77566344,0.039996747,0.03999624,0.05214154368711199,0.0373511128720444,-0.05314076270803714,0.14165298544834867,-0.24996911565138707,0.03721010855117484,0.9935385404163427,0.05790452201855808,0.09543843492548205,0.020487561498138202
168.8500000000265,-0.07985915,-0.8751912,-0.06877074,-2.2569675,0.0020905316,1.5750542,0.7754436,0.039996672,0.039996162,0.04952941371239028,0.03683298779427746,-0.05360503195528388,0.14306719690041783,-0.2523306672649816,0.03710324662136751,0.9932603787488938,0.059124581020248895,0.09749020052014298,0.020827019213662017
168.8666666666932,-0.08154215,-0.8771008,-0.07021789,-2.2548778,0.002132485,1.5751406,0.7752217,0.039996605,0.039996088,0.05160364850871346,0.036472035427406735,-0.05494727435011448,0.1444694644410062,-0.2546709517609573,0.0369803391416586,0.9929735605582392,0.06035592959333387,0.09956246502493298,0.021165664491735164
168.88333333335987,-0.08324099,-0.87902844,-0.07167871,-2.2527683,0.0021748329,1.5752274,0.77499765,0.039996527,0.039996006,0.04903800745950093,0.03570539877532086,-0.05617803915138886,0.14585873467312513,-0.2569846050113252,0.03684025708428654,0.9926780244621071,0.06159832904107978,0.10165426490961685,0.02150339589554843
168.90000000002655,-0.08495559,-0.88097394,-0.073153086,-2.25064,0.002217572,1.5753146,0.7747715,0.039996453,0.039995924,0.04704036021307978,0.03517948068466892,-0.05713673073290959,0.14723525851771133,-0.25927530299908663,0.036684091245149306,0.9923736581195368,0.06285168756941525,0.10376511056232465,0.021840097758793597
168.91666666669323,-0.08668572,-0.88293725,-0.07464081,-2.2484922,0.0022606975,1.5754029,0.7745433,0.039996386,0.039995853,0.04778166926882044,0.03459337525867634,-0.05773711847043561,0.14859928267305428,-0.26154894468769857,0.036509292405090335,0.9920602634121907,0.06411581016441724,0.10589542565396728,0.022175560219766726
168.9333333333599,-0.08843123,-0.884918,-0.07614179,-2.2463248,0.0023042061,1.5754924,0.77431303,0.039996315,0.03999578,0.048077602710971945,0.03422484633270051,-0.05815931847119593,0.14995023498167404,-0.26379545137235866,0.036318201001713867,0.9917376558570209,0.0653906059968422,0.1080453969096176,0.022509615928090365
168.9500000000266,-0.090191945,-0.88691604,-0.07765584,-2.2441387,0.002348093,1.5755827,0.7740809,0.039996237,0.039995693,0.04543823074598663,0.03337553857872544,-0.059527815755289204,0.1512868244079181,-0.26601122787962606,0.03611180139209702,0.9914057687583906,0.06667593003646329,0.11021414447653745,0.0228421624121306
168.96666666669327,-0.091967694,-0.88893116,-0.07918282,-2.2419336,0.0023923528,1.5756735,0.77384657,0.039996162,0.039995614,0.04545805354658761,0.03281231339216095,-0.060570483638522354,0.15260962938897876,-0.2682036096418691,0.03588750427609865,0.9910644715066597,0.06797151025124808,0.11240150148209503,0.023173035536163813
168.98333333335995,-0.0937583,-0.8909633,-0.08072261,-2.2397103,0.0024369818,1.5757647,0.77361035,0.039996088,0.039995536,0.043552820780634605,0.032111826664213416,-0.06156293790688938,0.15391900150442037,-0.2703695610932415,0.035646899834352534,0.9907136495330622,0.06927729210537421,0.11460702943087725,0.023502132508717667
169.00000000002663,-0.09556354,-0.8930119,-0.082274996,-2.2374692,0.0024819763,1.5758569,0.7733723,0.039996006,0.03999545,0.04250043120754832,0.03143610965776478,-0.06164230864347253,0.15521377344846307,-0.27251115313140506,0.035389155762357224,0.9903531663325533,0.07059310445543673,0.11683058318882163,0.023829275486040576
169.0166666666933,-0.09738328,-0.8950771,-0.08383985,-2.235209,0.00252733,1.57595,0.7731323,0.03999592,0.039995357,0.04431108567910513,0.030963611432219262,-0.06286836512281457,0.15649383418811735,-0.27462709508282707,0.035115508225638956,0.9899828075136309,0.07191878527843686,0.11907266966475202,0.024154264435334045
169.03333333336,-0.09921733,-0.8971585,-0.08541701,-2.232932,0.0025730396,1.576044,0.77289045,0.03999584,0.039995275,0.039444558124168694,0.03000946293608142,-0.0636166937456828,0.15775854528156477,-0.2767073394179348,0.03482581188276162,0.989602584816401,0.07325412671436636,0.12133190520210037,0.024477046881558932
169.05000000002667,-0.10106544,-0.89925593,-0.08700627,-2.2306368,0.0026190996,1.5761384,0.77264667,0.039995756,0.039995186,0.04170955216249439,0.02935587978160903,-0.06458862492222384,0.15900813224801494,-0.2787662438605202,0.0345186273132161,0.9892122876062625,0.07459891883704703,0.12360882011789485,0.024797397972180446
169.06666666669335,-0.10292743,-0.9013693,-0.088607475,-2.2283244,0.0026655043,1.5762333,0.772401,0.03999567,0.039995097,0.03917200391976294,0.028523627541809926,-0.0654779374884118,0.16024304904632525,-0.2807937905550021,0.03419589234471089,0.9888118489827391,0.07595297307465781,0.12590273713057085,0.02511521402431611
169.08333333336003,-0.10480314,-0.90349823,-0.0902205,-2.2259958,0.00271225,1.576329,0.77215356,0.039995592,0.039995015,0.03703083591486411,0.027836137755685164,-0.06594856612687217,0.16146308540828958,-0.2827923820745772,0.033857189779250715,0.9884011720327486,0.0773162196774499,0.12821318301873463,0.02543039518531961
169.1000000000267,-0.10669235,-0.90564287,-0.091845155,-2.22365,0.002759331,1.5764258,0.7719045,0.03999551,0.03999493,0.038560861798053736,0.027173086873311103,-0.0667802855769839,0.16266670153095275,-0.2847641017616385,0.0335018294160537,0.9879800317309795,0.07868852260443605,0.13054074199421067,0.02574272694927411
169.1166666666934,-0.10859484,-0.9078026,-0.0934812,-2.2212873,0.0028067427,1.5765232,0.77165365,0.039995417,0.03999483,0.03695520935624863,0.02625135751432306,-0.06744967335858831,0.16385341549643256,-0.28670079567938994,0.03313209360516391,0.9875483821783304,0.0800695358147223,0.13288473408685383,0.02605205823046117
169.13333333336007,-0.110510424,-0.909977,-0.095128514,-2.2189083,0.0028544785,1.5766212,0.77140087,0.039995342,0.039994754,0.03497951997615267,0.02550061450011798,-0.06803808619464391,0.16502454823088314,-0.28860554375688474,0.03274536991291511,0.9871061550981146,0.08145905922534825,0.13524459731846,0.026358283967392523
169.15000000002675,-0.11243887,-0.9121664,-0.09678693,-2.2165136,0.0029025348,1.5767194,0.7711466,0.039995264,0.03999467,0.03386310051927133,0.024543182650615947,-0.06935916542765153,0.16617949558501088,-0.290481392200827,0.03234481001706742,0.9866532396387054,0.08285707592813032,0.13761999787008572,0.026661317771726006
169.16666666669343,-0.114379995,-0.91437006,-0.09845626,-2.214103,0.0029509054,1.5768182,0.77089053,0.03999518,0.039994583,0.03336297143552436,0.023882809300013186,-0.06935897528095314,0.1673178465426614,-0.2923275230215675,0.03192648413110372,0.9861895216301734,0.08426326404961851,0.14001084327518615,0.026960962963615002
169.1833333333601,-0.11633354,-0.916588,-0.10013625,-2.2116768,0.0029995858,1.5769181,0.77063286,0.039995093,0.039994493,0.03248071276580333,0.022896325783788862,-0.06994160247324466,0.16843919207241584,-0.2941398006824828,0.03149441825940552,0.9857148624579846,0.08567745752584548,0.14241712082163102,0.02725705226579741
169.2000000000268,-0.11829932,-0.9188199,-0.10182679,-2.2092357,0.0030485701,1.5770187,0.7703735,0.039995007,0.039994404,0.03072232680976228,0.022110279749926187,-0.07067617490692513,0.16954351420509778,-0.29591884241050365,0.031047520962533742,0.9852292133056265,0.08709946129758651,0.1448382067910446,0.027549499893851432
169.21666666669347,-0.120277084,-0.92106545,-0.10352765,-2.2067797,0.0030978525,1.5771201,0.77011263,0.03999492,0.039994314,0.029632922579336807,0.02114675169143654,-0.07118458360126922,0.17063073592517822,-0.29766447406701896,0.03058605692975931,0.984732484373839,0.08852909246096897,0.14727379379635594,0.027838169260792998
169.23333333336015,-0.122266665,-0.92332447,-0.105238646,-2.2043087,0.0031474268,1.5772219,0.7698502,0.039994847,0.039994236,0.029372252984627423,0.020325532834070126,-0.07200260264776936,0.17170027027174337,-0.29937568441421253,0.030110263511520657,0.9842245620803154,0.08996616760553867,0.1497237531013302,0.02812290599200867
169.25000000002683,-0.1242678,-0.9255968,-0.106959626,-2.2018235,0.003197288,1.577324,0.76958627,0.03999477,0.039994154,0.027487210108034787,0.01934742741266371,-0.07264521684902103,0.17275230367707925,-0.3010535939584625,0.029620169384395725,0.9837053968902314,0.09141048915850201,0.1521875436831084,0.028403629143785296
169.2666666666935,-0.12628026,-0.9278819,-0.108690344,-2.1993246,0.0032474312,1.5774266,0.76932085,0.03999469,0.039994072,0.02536574077423026,0.018310288176570655,-0.0728691825869765,0.17378603000596893,-0.302697516563216,0.02911572670047561,0.9831749637027013,0.09286181877074402,0.1546645348876893,0.028680219851950916
169.2833333333602,-0.12830381,-0.93017995,-0.11043059,-2.1968112,0.00329785,1.5775299,0.76905394,0.03999461,0.03999399,0.02702377067920203,0.01754320094653483,-0.07354269600661212,0.17480228325857258,-0.304310117051215,0.028596063133037544,0.982633029487018,0.09431994430085705,0.1571554430163397,0.028952447195120537
169.30000000002687,-0.13033828,-0.9324903,-0.11218021,-2.1942847,0.0033485396,1.577634,0.76878554,0.039994534,0.039993912,0.023389721370525862,0.016588554033164504,-0.07358998209865408,0.1757998010226951,-0.3058822758229775,0.028064796087548957,0.982079644896509,0.09578468450022173,0.1596591404660912,0.029220269690211142
169.31666666669355,-0.13238338,-0.93481266,-0.11393896,-2.1917446,0.0033994925,1.5777386,0.7685158,0.039994456,0.03999383,0.023533471651004945,0.015580260182251893,-0.07415673499886477,0.17677901493278175,-0.30742134618638467,0.027519730296075788,0.9815146875454025,0.09725586526385262,0.16217563411963054,0.029483529339719053
169.33333333336023,-0.13443884,-0.9371469,-0.11570667,-2.1891916,0.0034507052,1.5778439,0.7682446,0.039994385,0.039993756,0.02169755521812533,0.014567481165700391,-0.07458842765348805,0.17773936557355982,-0.30892268681919,0.026962125923022332,0.9809381294640496,0.0987331708831016,0.16470444120451552,0.029742128008068087
169.3500000000269,-0.13650443,-0.9394929,-0.11748312,-2.1866257,0.0035021687,1.5779495,0.7679721,0.0399943,0.03999367,0.021050591809679275,0.013517249944161591,-0.07526755923445982,0.17868145445491776,-0.31038821617008555,0.026390873882089425,0.9803498892634429,0.10021644504613694,0.16724533442546152,0.029995947666066915
169.3666666666936,-0.13857996,-0.9418504,-0.119268104,-2.184048,0.003553879,1.5780555,0.7676982,0.03999422,0.039993588,0.018794008794831285,0.012488765760193532,-0.07561879660324955,0.1796045448125778,-0.31181548468904274,0.025808353447177183,0.9797499594529936,0.1017054568365447,0.16979771213931982,0.030244899632496658
169.38333333336027,-0.14066517,-0.94421864,-0.121061444,-2.1814582,0.00360583,1.578162,0.7674233,0.039994143,0.039993506,0.017549191473609227,0.011616750141230092,-0.07524420246933783,0.18050880995647328,-0.31320833051269664,0.02521312907711768,0.979138293668039,0.1032001326903705,0.17236113818132043,0.03048889191772346
169.40000000002695,-0.1427598,-0.94659793,-0.1228629,-2.1788566,0.0036580155,1.5782691,0.7671469,0.039994072,0.03999343,0.01769475261275133,0.010532108468502832,-0.0761180545094664,0.1813928056366,-0.3145653754524064,0.024605445259908112,0.9785147639443328,0.1047000412746263,0.1749358879452839,0.030727727036883323
169.41666666669363,-0.1448636,-0.9489878,-0.12467226,-2.1762428,0.003710429,1.5783768,0.76686925,0.039993994,0.039993353,0.017032409557149464,0.00958305911959445,-0.07633250877960851,0.1822581715754587,-0.31588215082883003,0.023986045778243835,0.9778793132879672,0.10620505325924832,0.1775216425388388,0.03096129415845838
169.4333333333603,-0.14697635,-0.95138776,-0.12648931,-2.1736183,0.0037630652,1.578485,0.76659054,0.039993927,0.039993282,0.013769551261599844,0.008441472341336187,-0.07613113437965335,0.18310371195479763,-0.31715716676172,0.023357248817409297,0.9772319948503492,0.10771501668712859,0.1801175014951636,0.03118956678183485
169.450000000027,-0.14909779,-0.9537978,-0.12831384,-2.170983,0.0038159161,1.5785935,0.7663107,0.039993845,0.0399932,0.013102085134830688,0.007320638160368542,-0.07677857898618079,0.18392929364322616,-0.31839493759447307,0.02271635372221585,0.9765727678730916,0.1092296540550385,0.18272320852187188,0.031412430520064455
169.46666666669367,-0.15122761,-0.9562177,-0.13014564,-2.168337,0.003868977,1.5787024,0.7660298,0.039993774,0.039993126,0.012579061137918401,0.00631913191992961,-0.07687952277131149,0.184734521087745,-0.3195968495698153,0.022064882342390305,0.975901550694343,0.11074874737657088,0.1853387072802299,0.031629762733703735
169.48333333336035,-0.15336566,-0.9586467,-0.13198447,-2.1656811,0.0039222413,1.5788116,0.7657477,0.039993703,0.03999305,0.010079584280831,0.0052772932191691435,-0.07659698682747074,0.18551999661313207,-0.3207565655247927,0.02140376568452587,0.9752184187088203,0.11227206786647312,0.1879631293066871,0.03184149194512663
169.50000000002703,-0.1555117,-0.9610849,-0.13383016,-2.1630147,0.0039757024,1.5789212,0.76546454,0.039993636,0.039992984,0.010614430929001273,0.004371483817633415,-0.07716277459590692,0.18628490287305416,-0.32188011858890586,0.020731338027385568,0.9745232357092882,0.11379941025986615,0.1905967399117617,0.032047465144909686
169.5166666666937,-0.1576654,-0.96353173,-0.13568239,-2.160339,0.0040293536,1.5790312,0.76518047,0.03999357,0.039992914,0.007262206084091005,0.0029751661725752054,-0.0765473201431055,0.18702918060013668,-0.32296135554643757,0.020050846388036975,0.9738161036253297,0.11533056048114376,0.19323857446020745,0.03224765851458201
169.5333333333604,-0.15982646,-0.9659871,-0.13754101,-2.1576545,0.0040831887,1.5791414,0.76489526,0.039993495,0.03999284,0.006519478919120303,0.0019195200741894958,-0.07699881482914339,0.1877532158295786,-0.3240056297101761,0.01935973392562012,0.9730970169411505,0.11686516814020245,0.19588834991138412,0.032441986141287814
169.55000000002707,-0.16199471,-0.96845067,-0.13940582,-2.1549606,0.0041372036,1.5792522,0.7646093,0.039993428,0.03999277,0.006565704212713186,0.0011404547932525322,-0.07680631093611723,0.18845729471946848,-0.3250119434521659,0.01866031544993762,0.9723658350470754,0.11840323680372933,0.19854626430174271,0.03263031227901734
169.56666666669375,-0.16416985,-0.9709222,-0.14127655,-2.1522582,0.0041913884,1.5793637,0.7643223,0.039993357,0.039992698,0.0045585918336144005,-0.0001140941146060559,-0.07666961668240102,0.18913959499310518,-0.3259738316259373,0.01795218949060298,0.9716226289862187,0.1199443641805463,0.20121171072148414,0.032812555703071705
169.58333333336043,-0.16635162,-0.9734016,-0.14315309,-2.1495476,0.0042457394,1.5794754,0.7640345,0.03999329,0.039992627,0.003099006572959695,-0.0012189379040628001,-0.0770659101186677,0.18980062749615745,-0.3268942442602451,0.017237143191612767,0.9708674090435072,0.1214884402417353,0.20388422527926678,0.03298871969402036
169.6000000000271,-0.1685398,-0.97588813,-0.14503504,-2.1468291,0.0043002455,1.5795875,0.76374584,0.039993223,0.03999256,0.001563708490293081,-0.0023342030286144233,-0.07625089286118492,0.19044023607473404,-0.32777506337547846,0.016512392072113385,0.9701002337936737,0.12303515975751851,0.20656328257432507,0.0331586511942398
169.6166666666938,-0.17073405,-0.978382,-0.14692226,-2.144103,0.0043549035,1.5796998,0.76345634,0.039993152,0.03999249,0.0008937365843397771,-0.0035542147773404142,-0.07672664603464163,0.19105868098697953,-0.32861612752157904,0.015781378378791823,0.9693210718161116,0.1245842584308278,0.20924876631847988,0.03332230602313721
169.63333333336047,-0.17293417,-0.9808825,-0.14881451,-2.1413696,0.0044097085,1.5798123,0.76316607,0.03999308,0.039992414,-0.0005541160194688644,-0.004474800128240197,-0.07617526167627009,0.19165648938512703,-0.32941480918874955,0.015042790639663326,0.9685299628231225,0.12613558480633938,0.21194018272651632,0.03347961029125436
169.65000000002715,-0.17513989,-0.9833895,-0.15071157,-2.138629,0.004464652,1.5799251,0.7628751,0.03999302,0.039992355,-0.0015942569240756654,-0.005612102510510475,-0.0760001687632017,0.19223234045582777,-0.3301718535058444,0.014297587618547415,0.9677269188947303,0.12768890410160014,0.21463723878016203,0.033630491293947455
169.66666666669383,-0.17735088,-0.9859029,-0.1526132,-2.1358814,0.004519727,1.5800382,0.76258343,0.03999296,0.03999229,-0.0023375548816595426,-0.006763404637194492,-0.07600388224322518,0.19278635851556675,-0.33088752014188066,0.013546012761817022,0.9669119184031661,0.12924397363335377,0.217339815178304,0.03377487331775902
169.6833333333605,-0.17956693,-0.9884218,-0.1545192,-2.1331284,0.0045749275,1.5801517,0.76229095,0.0399929,0.03999223,-0.006109795578668198,-0.007774094856261016,-0.07460671749103254,0.1933178866613449,-0.33155736389462315,0.01279023763713338,0.9660851924719487,0.13080050829224013,0.2200467028111173,0.03391277781139704
169.7000000000272,-0.18178776,-0.9909464,-0.15642928,-2.1303692,0.0046302443,1.5802654,0.7619979,0.039992847,0.039992176,-0.005091936009238296,-0.008997483782224869,-0.07520897300629104,0.19382869336798972,-0.3321915552434247,0.012026718895896231,0.9652466218153052,0.13235833213394102,0.22275823846258058,0.03404406241785362
169.71666666669387,-0.18401308,-0.99347603,-0.15834332,-2.1276035,0.004685674,1.5803791,0.7617044,0.039992783,0.039992113,-0.005906890242535212,-0.009792330912838931,-0.07470998178684685,0.19431736343329264,-0.33278008206089293,0.011259277995221383,0.9643962413244626,0.1339173526479917,0.22547401415568205,0.034168718435517664
169.73333333336055,-0.18624267,-0.99601066,-0.16026092,-2.1248329,0.00474121,1.580493,0.7614102,0.03999273,0.03999206,-0.008646991520411262,-0.01128751784495452,-0.07411663231688959,0.19478239142993,-0.33332636819576483,0.010486345736900993,0.9635342115771175,0.13547710892937198,0.22819334025272595,0.03428666710115691
169.75000000002723,-0.18847623,-0.99855006,-0.16218196,-2.122058,0.0047968435,1.5806069,0.76111555,0.039992675,0.039992,-0.010494959024232031,-0.012282223364556977,-0.07360007436577609,0.19522628961620833,-0.33383052205136354,0.009709805328597384,0.9626606038879857,0.137037525562941,0.23091569568205408,0.03439796210937101
169.7666666666939,-0.19071338,-1.0010935,-0.16410615,-2.119277,0.0048525687,1.5807213,0.7608203,0.039992627,0.039991952,-0.008502851061242822,-0.013145891141952415,-0.07316348406286588,0.19564723698965525,-0.33429587095856755,0.008928589297412678,0.961775297681938,0.13859824279794616,0.2336415868536679,0.034502358682281804
169.7833333333606,-0.19295394,-1.0036412,-0.16603325,-2.1164927,0.0049083787,1.5808358,0.76052475,0.039992586,0.03999191,-0.013219435243660982,-0.014556677579175004,-0.07248533130941315,0.19604611766908178,-0.3347123159009521,0.008145611728549457,0.9608785546803581,0.1401591310215794,0.2363697532333352,0.034600013050201425
169.80000000002727,-0.19519775,-1.0061923,-0.16796309,-2.1137033,0.004964265,1.5809507,0.7602286,0.039992545,0.039991867,-0.0111174658930846,-0.01501400214244386,-0.07201213600267486,0.19642246933766377,-0.33509020577808823,0.007357865335834954,0.9599702552724229,0.14171995327671907,0.23910064915552023,0.03469068187356132
169.81666666669395,-0.1974444,-1.0087469,-0.16989541,-2.110912,0.0050202236,1.5810658,0.7599321,0.03999251,0.039991833,-0.017618210924563726,-0.016764258652768316,-0.07063117340949665,0.19677523387615786,-0.3354191445257597,0.0065706850048780465,0.9590508323579494,0.14328047423907617,0.24183244169558854,0.03477465742318125
169.83333333336063,-0.19969359,-1.011305,-0.17182992,-2.1081161,0.005076246,1.5811808,0.7596352,0.039992463,0.039991785,-0.012614117136422465,-0.017595365522593553,-0.07190444950155861,0.1971062034136681,-0.3357140472937993,0.0057774551580696935,0.9581199431800433,0.14484040296239545,0.24456655356973792,0.034851585693938224
169.8500000000273,-0.20194513,-1.0138654,-0.1737665,-2.1053174,0.005132325,1.581296,0.7593382,0.039992422,0.039991744,-0.01734512242674846,-0.01837606090683286,-0.06937398981157195,0.19741413311412642,-0.33595640130641863,0.004985384551685065,0.9571779350793552,0.1463997238117569,0.24730143559653334,0.034921646824808715
169.866666666694,-0.20419875,-1.0164285,-0.1757048,-2.1025171,0.005188458,1.5814112,0.759041,0.039992392,0.03999171,-0.019655547783381522,-0.019838362861557268,-0.06905476169632996,0.19769759033144585,-0.33616013830191693,0.004190871126980749,0.956224958087635,0.14795809769318632,0.25003657847181193,0.034984857916302015
169.88333333336067,-0.2064541,-1.0189935,-0.17764466,-2.0997138,0.0052446336,1.5815268,0.75874346,0.039992366,0.039991684,-0.017809576591476528,-0.020462921170577575,-0.06844898589071224,0.19795875335372162,-0.3363238188149956,0.003393292339897841,0.9552609323365878,0.14951523156075355,0.25277237491550114,0.0350410211372979
169.90000000002735,-0.20871094,-1.0215603,-0.17958575,-2.0969083,0.0053008446,1.5816423,0.7584457,0.03999234,0.03999166,-0.019983797626688116,-0.021697247129820463,-0.06770232647171914,0.19819615054653525,-0.3364401763822304,0.002596602770782922,0.9542860403754801,0.1510709210861658,0.25550813913696235,0.03509018069818965
169.91666666669403,-0.210969,-1.0241287,-0.1815279,-2.094101,0.005357086,1.5817579,0.75814766,0.039992318,0.039991636,-0.020831207654037343,-0.022629735109302995,-0.06695217288437139,0.1984110036819966,-0.33651409284931905,0.001800009884839908,0.9533003557434433,0.15262494314039857,0.25824364328075405,0.035132309572487745
169.9333333333607,-0.21322793,-1.0266984,-0.18347088,-2.0912936,0.005413351,1.5818735,0.7578496,0.039992295,0.039991617,-0.02464167929066008,-0.023887838396352556,-0.06542707218244459,0.1986023391842065,-0.33654060829167803,0.001004151272387217,0.9523041958175513,0.1541770825587609,0.26097775088922043,0.0351675899481306
169.9500000000274,-0.21548757,-1.0292689,-0.18541437,-2.0884857,0.0054696323,1.5819892,0.7575515,0.039992273,0.039991595,-0.024506958333470052,-0.024723410478177943,-0.06468941337111067,0.19877087652016276,-0.33653184203112585,0.00020688745339579595,0.9512975948703486,0.15572718816152883,0.2637104029254705,0.03519591240584701
169.96666666669407,-0.21774755,-1.0318398,-0.18735819,-2.0856774,0.005525923,1.5821048,0.75725335,0.039992254,0.039991576,-0.02508993553838046,-0.025663896612349024,-0.06379763285637718,0.19891589461648046,-0.3364808353741812,-0.0005896484257567284,0.9502806550103313,0.15727496984106873,0.26644137304804366,0.035217258594330794
169.98333333336075,-0.22000764,-1.0344112,-0.1893021,-2.082869,0.005582216,1.5822204,0.7569552,0.039992224,0.039991546,-0.026259747036450065,-0.026608916408665806,-0.06299729080404548,0.1990372347088466,-0.3363856760486171,-0.0013844676304956456,0.9492534954357811,0.15882023946223564,0.2691703249665053,0.03523164908907439
170.00000000002743,-0.22226757,-1.0369825,-0.19124585,-2.0800607,0.005638504,1.5823361,0.75665706,0.0399922,0.03999152,-0.026806715267557735,-0.02752761243621782,-0.06207215230024099,0.19913538781128923,-0.33625025686760784,-0.002178495184232033,0.9482162182762119,0.16036276666859428,0.2718970324307237,0.03523904396715731
170.0166666666941,-0.224527,-1.0395533,-0.1931893,-2.0772526,0.00569478,1.5824517,0.756359,0.039992176,0.0399915,-0.027975558267545608,-0.028263737235934006,-0.060725898062652384,0.19920984717506285,-0.33606922462163835,-0.0029703252901835536,0.9471689828522509,0.16190237123953727,0.27462104480151545,0.03523949292727308
170.0333333333608,-0.22678573,-1.0421234,-0.19513203,-2.0744448,0.0057510394,1.5825673,0.75606096,0.039992154,0.03999148,-0.02816052981442496,-0.02938684546774928,-0.06016848009836595,0.19926021579048248,-0.33584530868243023,-0.00375896385553327,0.9461118580041685,0.16343879492938648,0.27734230640569657,0.03523290413092233
170.05000000002747,-0.22904345,-1.0446924,-0.19707394,-2.0716372,0.0058072736,1.5826828,0.75576293,0.039992142,0.03999147,-0.028985424761573952,-0.03006043373041667,-0.05896374064287002,0.19928632538435118,-0.3355751190933262,-0.004543178243442995,0.9450450024568187,0.16497181887021944,0.28006042696904543,0.03521930657975773
170.06666666669415,-0.23129992,-1.0472603,-0.19901471,-2.0688312,0.0058634765,1.5827982,0.75546515,0.039992124,0.039991453,-0.03146237587219325,-0.03124681713633226,-0.05774186315977703,0.199288711766039,-0.3352589697033313,-0.005323482759390154,0.9439686513189713,0.1665012843748412,0.2827747352129076,0.035198817506282516
170.08333333336083,-0.23355475,-1.0498263,-0.20095412,-2.0660288,0.0059196386,1.5829135,0.75516754,0.03999211,0.03999144,-0.035526439660893416,-0.032175237446863125,-0.05492152752114565,0.19926677925823574,-0.3349007358008602,-0.006099512731087673,0.9428832752014314,0.16802688714227257,0.28548388820626264,0.035171637967739366
170.1000000000275,-0.23580776,-1.0523903,-0.20289199,-2.0632277,0.005975757,1.5830287,0.75487036,0.039992094,0.039991423,-0.031729321901075025,-0.032664457092757004,-0.055697771191387524,0.19922272078632186,-0.33450755312236485,-0.006873834992249304,0.9417885882975711,0.1695486136692773,0.28818895696739877,0.03513755309263013
170.1166666666942,-0.2380587,-1.0549523,-0.20482804,-2.0604284,0.006031822,1.5831437,0.7545734,0.039992083,0.039991412,-0.0332746505872894,-0.03357821562639529,-0.05433132940266816,0.19915250513413585,-0.33406731669239914,-0.0076429295627288615,0.9406848212304897,0.17106614724694336,0.2908894468144681,0.03509658252054529
170.13333333336087,-0.24030726,-1.0575116,-0.20676203,-2.0576336,0.006087826,1.5832586,0.7542766,0.03999208,0.039991412,-0.03816056165941717,-0.03459449592301267,-0.05144421894146545,0.1990586527562542,-0.3335813433409311,-0.008406568156244236,0.939572519941071,0.17257915892611017,0.2935838598972393,0.035048978355723244
170.15000000002755,-0.24255317,-1.060068,-0.20869373,-2.054841,0.006143766,1.5833735,0.7539802,0.039992068,0.0399914,-0.03445086772857486,-0.03506442362466444,-0.051800152273473454,0.19894195362853612,-0.33306001107974215,-0.009166246378379076,0.9384514151138007,0.17408765936599602,0.2962732030475959,0.034994535048941455
170.16666666669423,-0.2447961,-1.062621,-0.21062285,-2.052053,0.0061996323,1.5834883,0.75368416,0.039992068,0.039991405,-0.039057447560963965,-0.03609740128447392,-0.048809329501831034,0.19880006201063888,-0.3324904773918402,-0.009919095918994144,0.9373220790744171,0.17559126693074725,0.29895598092644965,0.03493348716592129
170.1833333333609,-0.24703582,-1.0651706,-0.21254922,-2.0492673,0.0062554195,1.5836028,0.7533887,0.039992068,0.03999141,-0.035700521108150696,-0.03663588999929246,-0.049690345257780155,0.19863567497657253,-0.33188484205815494,-0.010667619280427391,0.9361842750482384,0.17708998332232537,0.30163309593227305,0.03486569083805913
170.2000000000276,-0.24927208,-1.0677166,-0.21447259,-2.0464878,0.0063111195,1.5837171,0.7530936,0.039992068,0.03999141,-0.0421898212757732,-0.03764831310544281,-0.045934318817209,0.19844468533604803,-0.33123022012073694,-0.011406996800053172,0.9350387129448012,0.1785834236483211,0.3043026768838719,0.034791477891627794
170.21666666669427,-0.2515045,-1.0702583,-0.21639273,-2.0437112,0.0063667255,1.5838311,0.75279903,0.039992068,0.039991412,-0.03741016533753694,-0.03800689503808963,-0.04649574030520798,0.19823183751041704,-0.33054080641977235,-0.012142899858782138,0.9338851127217466,0.18007150072703004,0.30696583826025997,0.03471058921686245
170.23333333336095,-0.25373295,-1.0727956,-0.21830946,-2.0409398,0.0064222305,1.5839448,0.75250494,0.039992087,0.039991435,-0.041326282044451546,-0.038768030703983936,-0.04418643629399144,0.19799364632070232,-0.32980421646875485,-0.012869602988613203,0.9327239161130709,0.18155400090661203,0.30962149550601,0.034623266543192345
170.25000000002763,-0.25595707,-1.0753282,-0.22022241,-2.0381749,0.006477629,1.5840585,0.7522115,0.039992094,0.039991442,-0.04347909871018629,-0.03963467318096603,-0.041690010824047,0.19773089917382794,-0.3290273709002069,-0.013588869926407308,0.9315554584884743,0.18303072002705215,0.3122689364181386,0.03452961967632489
170.2666666666943,-0.25817665,-1.0778555,-0.22213143,-2.0354152,0.0065329145,1.5841721,0.7519185,0.039992116,0.03999147,-0.042119747706825805,-0.039884418480906625,-0.040914605545860905,0.1974450891336031,-0.3282126122731869,-0.01430217813121422,0.9303797903526567,0.18450144591793013,0.3149083495458016,0.034429544636532486
170.28333333336099,-0.26039135,-1.0803775,-0.22403629,-2.0326605,0.0065880795,1.5842856,0.7516262,0.039992124,0.039991476,-0.041655401931794955,-0.040633269253798066,-0.04030603275769762,0.19713469166729208,-0.32735638873780326,-0.015005969799220103,0.9291969568049425,0.18596606663259957,0.3175398608697283,0.03432308675610321
170.30000000002767,-0.26260087,-1.0828937,-0.22593671,-2.0299125,0.006643118,1.5843989,0.75133467,0.03999214,0.039991494,-0.04479732328128705,-0.04139387740396128,-0.037604035616967124,0.1967996358168537,-0.32645418573152574,-0.015700636082272824,0.9280074355587183,0.18742436124043088,0.32016238414295445,0.03421046829914661
170.31666666669435,-0.26480508,-1.0854043,-0.22783251,-2.0271714,0.006698021,1.5845118,0.7510438,0.039992154,0.039991513,-0.045256952821315366,-0.04190770005718658,-0.03663667269779847,0.19644059897662836,-0.3255125263083818,-0.016386722719693346,0.9268114060271487,0.188876147663305,0.32277573160671647,0.03409172315384114
170.33333333336103,-0.26700366,-1.0879084,-0.22972348,-2.0244374,0.0067527844,1.5846243,0.7507536,0.039992176,0.03999154,-0.04615247239621034,-0.042287793141293495,-0.0345092952126258,0.19605772146180148,-0.32453207817779245,-0.01706474530394268,0.9256091514720135,0.19032123763908748,0.32537942811482884,0.033966939433104505
170.3500000000277,-0.26919624,-1.0904058,-0.2316094,-2.0217109,0.006807402,1.5847365,0.75046414,0.03999219,0.039991554,-0.046660734336745335,-0.04285643482593304,-0.032978557795204644,0.19565070704427717,-0.3235131330918127,-0.017732698200333345,0.9244008805750507,0.19175945353652166,0.3279732224984527,0.03383621278195976
170.36666666669439,-0.27138275,-1.0928963,-0.23348993,-2.0189917,0.006861867,1.5848484,0.7501756,0.03999221,0.039991576,-0.04664797609628124,-0.04336416170197532,-0.031644076143722,0.1952202806645029,-0.32245448643142305,-0.018392279449507214,0.9231867324551108,0.1931907089930548,0.3305570292605904,0.03369951608004779
170.38333333336107,-0.27356273,-1.0953796,-0.23536491,-2.0162804,0.0069161705,1.5849601,0.74988794,0.03999224,0.03999161,-0.04761860322095579,-0.043802850781637925,-0.02973824666598901,0.1947653042017029,-0.32135517068741326,-0.019041221116873862,0.9219669916934758,0.19461476237173764,0.333130437331424,0.033556999538823705
170.40000000002775,-0.27573603,-1.0978556,-0.23723413,-2.0135775,0.0069703087,1.5850713,0.7496012,0.039992265,0.03999164,-0.04844489607789271,-0.04435534012930953,-0.028492676795144334,0.19428590222129366,-0.32021683274425844,-0.019680170667048084,0.9207419100310638,0.19603145725522672,0.33569310030501637,0.033408760622733714
170.41666666669443,-0.27790233,-1.1003237,-0.23909734,-2.010883,0.007024273,1.5851822,0.7493153,0.03999229,0.03999167,-0.04905632523679593,-0.04466342080228225,-0.026360898293920076,0.19378216509355936,-0.31903913711419746,-0.020308112939741538,0.9195117567718271,0.19744060144224468,0.3382446622441658,0.03325487218202953
170.4333333333611,-0.28006145,-1.1027836,-0.24095435,-2.008198,0.007078058,1.5852925,0.7490304,0.03999232,0.039991703,-0.05049158685834776,-0.04501696396982391,-0.02439180844944211,0.19325522884405338,-0.31782312174371075,-0.020925932360225732,0.9182768835743946,0.19884208383592042,0.3407845046180335,0.03309550121886344
170.45000000002779,-0.28221303,-1.1052351,-0.24280494,-2.005522,0.0071316557,1.5854024,0.7487465,0.03999236,0.039991744,-0.049877952960253324,-0.04539296820746941,-0.02319593454384039,0.19270488696235485,-0.3165715132131262,-0.02153399955729224,0.917037387847074,0.20023571755198669,0.34331277024871387,0.032930661870210154
170.46666666669446,-0.2843569,-1.107678,-0.24464881,-2.0028558,0.007185062,1.5855122,0.7484636,0.039992396,0.039991785,-0.0508211601989661,-0.04576689250699317,-0.02114779982871351,0.1921308375729839,-0.3152810037726626,-0.022130453465942536,0.9157935503433502,0.20162130684062188,0.3458291156604749,0.032760411152719944
170.48333333336114,-0.2864928,-1.1101121,-0.24648581,-2.0001998,0.0072382693,1.5856216,0.74818164,0.03999243,0.039991822,-0.05183103207428985,-0.04600052073635563,-0.01929207657704879,0.19153285376360082,-0.3139519969768883,-0.022714822184144706,0.914545695738054,0.20299873908679564,0.3483330379286097,0.03258492018703439
170.50000000002782,-0.28862047,-1.1125364,-0.2483157,-1.9975536,0.007291272,1.5857306,0.74790084,0.03999247,0.039991863,-0.0514503305623748,-0.04613115238865095,-0.017563758153871234,0.19091067243826562,-0.31258639315781955,-0.023287267406821487,0.9132940321327913,0.2043679303611156,0.35082435157975206,0.03240423196418734
170.5166666666945,-0.29073966,-1.1149515,-0.25013825,-1.9949178,0.0073440624,1.5858392,0.7476212,0.039992508,0.039991904,-0.051832505846993726,-0.04666834293799438,-0.016411773508295813,0.1902651863594347,-0.3111841567182921,-0.023848410168016893,0.9120387510688871,0.20572865888722192,0.35330299723138686,0.03221843584794887
170.53333333336118,-0.29284996,-1.1173567,-0.25195336,-1.9922929,0.0073966356,1.5859473,0.7473427,0.039992552,0.039991952,-0.0530771217617243,-0.046693873197400926,-0.01398957237342957,0.18959587060269364,-0.3097433020295628,-0.024396439994997535,0.9107802363244765,0.20708078597166577,0.3557683675991053,0.032027766359146156
170.55000000002786,-0.2949513,-1.1197518,-0.25376058,-1.9896791,0.0074489857,1.5860548,0.7470653,0.039992586,0.03999199,-0.05308616535879551,-0.04727325047215736,-0.01254213096929524,0.18890357479693565,-0.3082661707183288,-0.024932697581383244,0.9095187410239911,0.20842407731098866,0.3582202901786737,0.031832175978151335
170.56666666669454,-0.29704335,-1.1221366,-0.25555995,-1.9870765,0.007501105,1.5861619,0.7467892,0.039992623,0.03999203,-0.05326878564009263,-0.04698757232142192,-0.010898562960603986,0.18818818975158663,-0.306752976954022,-0.025455587242143793,0.90825444703931,0.20975857135797019,0.36065859987913995,0.03163187487960375
170.58333333336122,-0.29912594,-1.1245103,-0.25735113,-1.9844862,0.0075529893,1.5862681,0.74651444,0.039992668,0.03999208,-0.055332322515866394,-0.04727696356159328,-0.007842337567443014,0.18744898239226312,-0.3052030816205906,-0.025965986797507234,0.9069879156501341,0.21108408969651768,0.3630823150969412,0.03142706485599749
170.6000000000279,-0.30119875,-1.1268733,-0.25913393,-1.981908,0.0076046307,1.5863739,0.7462408,0.039992705,0.03999212,-0.054094243173619105,-0.04749032501699668,-0.0072340449017049835,0.18668755694376907,-0.3036241479911625,-0.026465869176248477,0.9057191562490853,0.21240036855631497,0.3654919275456594,0.031217692732571935
170.61666666669458,-0.3032616,-1.1292251,-0.26090816,-1.9793419,0.007656023,1.5864797,0.74596864,0.039992742,0.039992165,-0.054035053034828806,-0.04744276017223381,-0.005429775088050537,0.185903893164174,-0.3020072825660144,-0.026951768421844605,0.9044483384748865,0.21370746826627465,0.3678873212561985,0.031003869051696675
170.63333333336126,-0.30531418,-1.1315655,-0.26267356,-1.9767888,0.007707162,1.5865849,0.7456978,0.039992787,0.03999221,-0.055547293119584396,-0.04763347278983199,-0.002867730888655995,0.18509459433383488,-0.300353247705869,-0.027422557817552477,0.9031759706916973,0.2150051109247321,0.37026774514823846,0.030785794519440995
170.65000000002794,-0.30735636,-1.1338938,-0.2644299,-1.9742485,0.0077580423,1.5866897,0.74542826,0.039992828,0.039992258,-0.055232090773760234,-0.047617896196516796,-0.0013142928593445902,0.1842647778346658,-0.29866697848804347,-0.027881786851051013,0.9019022648679291,0.21629321454810504,0.3726330938090213,0.030563497261673317
170.66666666669462,-0.30938786,-1.13621,-0.26617712,-1.9717216,0.0078086574,1.5867938,0.74516016,0.039992884,0.039992318,-0.05605775974215632,-0.04746778372596294,0.0006758221147706855,0.18341131350314593,-0.29694550417431287,-0.028325264796997957,0.9006275726555684,0.2175717310092,0.3749828931968556,0.030337222152244023
170.6833333333613,-0.3114083,-1.1385142,-0.2679149,-1.969208,0.007859001,1.5868973,0.7448935,0.039992932,0.039992366,-0.055138312387104094,-0.04796848026229483,0.0014585052161009138,0.1825349631428354,-0.29519475318092875,-0.028756497030219926,0.8993520021248604,0.21884038130408698,0.3773174174722188,0.030106980200311356
170.70000000002798,-0.31341764,-1.1408055,-0.26964298,-1.9667087,0.007909069,1.5869998,0.7446283,0.039992996,0.039992433,-0.05723015390310948,-0.047714196747750126,0.004828464288797463,0.18163675840384413,-0.29340724249910977,-0.029173006965060495,0.8980761521553695,0.2200991535611533,0.37963560162883214,0.029873023070726
170.71666666669466,-0.31541565,-1.1430842,-0.27136147,-1.9642231,0.007958848,1.5871018,0.74436474,0.039993048,0.03999249,-0.05572350631961598,-0.047292597971260175,0.005159880310973142,0.18071740292252603,-0.2915917087343232,-0.029576650933344384,0.8967999416633232,0.2213480751367803,0.381938001626896,0.029635404150367334
170.73333333336134,-0.31740206,-1.1453495,-0.2730699,-1.9617519,0.0080083385,1.5872036,0.7441024,0.039993115,0.03999256,-0.05618703832159788,-0.047373819663032446,0.008095228750437666,0.17977435869304434,-0.28974182075299676,-0.029966765549992128,0.8955238036171822,0.22258678123460504,0.3842241911640374,0.029394096328577313
170.75000000002802,-0.3193766,-1.1476016,-0.27476808,-1.9592956,0.008057539,1.5873048,0.74384177,0.03999318,0.03999263,-0.056854811856865695,-0.04752375861588609,0.009603683867004387,0.17880996235394414,-0.2878598658742163,-0.030340537373745993,0.8942480440786783,0.22381528003889725,0.38649381409440203,0.02914940392752199
170.7666666666947,-0.3213391,-1.1498399,-0.27645588,-1.9568542,0.008106438,1.5874054,0.7435828,0.039993238,0.03999269,-0.056773802040011034,-0.04716096780849055,0.011602271360255934,0.17782370979418535,-0.2859467225905233,-0.030700637005464805,0.8929729469296166,0.2250335380307334,0.38874661626653634,0.028901404023418627
170.78333333336138,-0.32328936,-1.1520648,-0.27813312,-1.9544282,0.00815503,1.5875055,0.7433254,0.039993312,0.03999277,-0.05676318156551119,-0.04731063442658945,0.01252883128129434,0.17681569789734966,-0.2840026411373641,-0.03104703575063242,0.8916987129259754,0.2262413630121298,0.3909826282995015,0.02865022507043647
170.80000000002806,-0.32522702,-1.1542754,-0.27979952,-1.9520175,0.008203315,1.5876042,0.7430697,0.03999339,0.03999285,-0.05732877585411522,-0.04724145773981059,0.015149193515689996,0.17578584805699018,-0.2820265309732425,-0.03137722928486528,0.8904258672326205,0.2274386122232157,0.39320111333261387,0.028396075556428507
170.81666666669474,-0.32715192,-1.1564714,-0.281455,-1.9496229,0.008251282,1.5877025,0.7428156,0.039993465,0.03999293,-0.05730723249701697,-0.046469967308171434,0.01749674349619812,0.17473571766417337,-0.28002447347026277,-0.03169419270260073,0.8891545834671949,0.2286252509632986,0.3954020954084273,0.02813901682491578
170.83333333336142,-0.32906392,-1.1586528,-0.28309935,-1.947244,0.008298928,1.5878005,0.7425634,0.039993543,0.03999301,-0.056532310929302554,-0.04649119993622719,0.018399470986257827,0.17366494557393897,-0.2779930332222711,-0.03199636620065004,0.8878849743678738,0.22980129745014247,0.39758570120477843,0.027879135199927494
170.8500000000281,-0.33096272,-1.160819,-0.28473243,-1.9448814,0.008346248,1.587898,0.7423131,0.039993614,0.03999309,-0.05700993505115548,-0.04604868603170775,0.020793248282491295,0.1725723983858985,-0.27593128542385736,-0.03228430920467909,0.8866174452434742,0.23096662993198622,0.3997514774886019,0.02761662349882399
170.86666666669478,-0.33284816,-1.1629705,-0.28635404,-1.9425354,0.008393236,1.5879946,0.74206424,0.039993685,0.039993163,-0.05714631204565279,-0.046252015136760694,0.021687375619761085,0.17145827388335477,-0.27384034701819027,-0.03255709192419622,0.8853523280954573,0.23212095038917052,0.40189925504037766,0.02735156895630577
170.88333333336146,-0.33472025,-1.1651067,-0.287964,-1.9402063,0.008439886,1.5880904,0.7418172,0.03999376,0.03999324,-0.0573062920101286,-0.04563723993381563,0.024011536298773617,0.1703248708029395,-0.2717220714135222,-0.03281425125755501,0.8840898937917464,0.23326441885153795,0.4040287386479354,0.02708410861946798
170.90000000002814,-0.3365785,-1.167227,-0.28956208,-1.937894,0.008486193,1.5881852,0.741572,0.039993834,0.03999332,-0.05702807881484695,-0.04555400137506993,0.025759915706824454,0.16917010507817887,-0.2695763436554655,-0.03305678769819235,0.8828304779700208,0.23439685997291784,0.4061396863106211,0.026814443972815873
170.91666666669482,-0.33842272,-1.1693317,-0.29114825,-1.9355992,0.008532153,1.5882796,0.74132866,0.03999391,0.0399934,-0.057052151036662835,-0.044925907121362574,0.02764133888817355,0.16799641840110202,-0.2674054601365361,-0.03328599206284292,0.881574269830236,0.23551818357279988,0.40823213848194984,0.026542665471071633
170.9333333333615,-0.3402528,-1.1714203,-0.2927221,-1.9333221,0.008577763,1.5883735,0.74108714,0.039993986,0.039993484,-0.0567762537464489,-0.0449263068308281,0.029384020828027158,0.16680253624772348,-0.2652071006039739,-0.03349910428373314,0.8803215706018964,0.23662827833597827,0.4103059089988954,0.02626882687428817
170.95000000002818,-0.34206858,-1.1734926,-0.29428366,-1.9310626,0.008623017,1.5884666,0.74084747,0.03999406,0.03999356,-0.05679270129776981,-0.04427155009479877,0.031018848577252234,0.16558898124827615,-0.2629818047060653,-0.03369642579820464,0.8790727093787489,0.23772717086522605,0.41236066925033876,0.02599312050012799
170.96666666669486,-0.3438698,-1.1755489,-0.29583275,-1.9288213,0.008667911,1.5885588,0.7406097,0.03999413,0.03999364,-0.05685163117994385,-0.04436130298132168,0.03191008215653879,0.16435657890556418,-0.26073234751406105,-0.03387956247624133,0.8778279179624427,0.23881469184244308,0.41439641595459814,0.025715751008002604
170.98333333336154,-0.34565634,-1.1775885,-0.29736915,-1.9265982,0.008712437,1.58865,0.74037397,0.039994214,0.039993722,-0.05655885414892481,-0.043676114984680936,0.034367902011928075,0.16310426810374112,-0.2584572012961742,-0.03404655706250381,0.8765875352714765,0.23989088989334234,0.41641280348334475,0.025436804988042384
171.00000000002822,-0.3474279,-1.1796105,-0.29889274,-1.9243935,0.008756592,1.5887406,0.74014014,0.0399943,0.039993815,-0.0565996294168869,-0.04283700175178318,0.03701253004509408,0.16183405447699017,-0.2561576124409407,-0.034200321254491926,0.8753519122096185,0.24095566541249674,0.4184095511472145,0.02515640287028049
171.0166666666949,-0.34918442,-1.1816157,-0.3004033,-1.9222076,0.008800372,1.5888307,0.73990834,0.03999438,0.0399939,-0.055842033409359004,-0.0429139774007381,0.03729582890736327,0.1605449447032291,-0.2538370739243029,-0.034339102934453115,0.8741211107124134,0.24200895088779284,0.4203869707985748,0.024874611150429025
171.03333333336158,-0.3509257,-1.1836038,-0.30190077,-1.9200407,0.008843772,1.58892,0.7396785,0.03999447,0.039993994,-0.056229676779961935,-0.04234553940486441,0.039183404809195466,0.15923696217674102,-0.25149024029393446,-0.03446213815474601,0.8728955371304079,0.24305068912436323,0.4223446394535003,0.024591650999510238
171.05000000002826,-0.35265157,-1.1855742,-0.303385,-1.9178929,0.008886785,1.5890085,0.73945063,0.039994553,0.039994083,-0.055831295029973305,-0.04179140517326374,0.04104213560722214,0.15791176359286607,-0.24912104545128774,-0.03457095675452651,0.8716754844341449,0.2440808217451812,0.42428238442885596,0.024307623414487063
171.06666666669494,-0.35436183,-1.187527,-0.30485576,-1.9157647,0.008929415,1.5890958,0.73922485,0.03999464,0.039994173,-0.05603669474920636,-0.041522002175053974,0.04260297830910864,0.15656805763910062,-0.24673030547867106,-0.0346645225385189,0.8704612820203939,0.24509931299902873,0.42619994320066373,0.02402273270399315
171.08333333336162,-0.3560562,-1.1894617,-0.30631304,-1.9136559,0.008971651,1.5891826,0.7390012,0.03999472,0.03999426,-0.055093195202315925,-0.04071303321103725,0.04417716038055408,0.15520733394996722,-0.24431916973158466,-0.03474431127222659,0.869253062967863,0.24610613734450473,0.42809745799065385,0.023737062672046047
171.1000000000283,-0.3577348,-1.1913784,-0.30775666,-1.911567,0.009013489,1.5892688,0.7387796,0.039994806,0.03999435,-0.05517920160191814,-0.04016256327830092,0.04575171486360108,0.15382996779311517,-0.24188584309865718,-0.03481009400158613,0.8680511255508158,0.24710128795642072,0.42997472246260543,0.023450692174119762
171.11666666669498,-0.35939726,-1.1932768,-0.30918637,-1.909498,0.009054928,1.589354,0.7385602,0.039994884,0.039994434,-0.054782491955984725,-0.04004705730541458,0.04714773014677376,0.15243422733898168,-0.23943247742694906,-0.03486084331144653,0.8668557733553359,0.24808466536320437,0.4318315707446391,0.02316379762402764
171.13333333336166,-0.36104342,-1.1951568,-0.31060204,-1.9074492,0.009095963,1.5894381,0.738343,0.039994966,0.03999452,-0.05487293155339579,-0.039588290359482414,0.048717235401585235,0.15102217962988315,-0.23695924659176248,-0.03489693614748415,0.8656673466990669,0.24905620657378827,0.4336677454212489,0.022876568958717276
171.15000000002834,-0.3626732,-1.1970184,-0.31200364,-1.9054209,0.009136589,1.5895213,0.7381279,0.03999505,0.03999461,-0.05422330153881383,-0.03879689071906167,0.04996820863483742,0.1495949119991605,-0.2344669425434779,-0.034919869031129425,0.8644859986793028,0.25001588408509756,0.4354833523185996,0.02258906031578177
171.16666666669502,-0.36428648,-1.1988612,-0.313391,-1.9034128,0.0091768075,1.5896039,0.73791504,0.039995134,0.039994698,-0.053302195834303845,-0.03821712755668338,0.051233231164166115,0.14815110278376606,-0.23195584821495413,-0.03492798520436872,0.8633118601562368,0.2509637594168156,0.43727848604706315,0.022301327613962325
171.1833333333617,-0.36588302,-1.2006847,-0.314764,-1.9014258,0.009216606,1.5896862,0.7377043,0.039995216,0.039994787,-0.05396154583650059,-0.03721236107416814,0.05430782826778002,0.14669101474481475,-0.2294234564514676,-0.03492139410000625,0.8621454233223255,0.2518997118937818,0.4390526248332042,0.022013559895470033
171.20000000002838,-0.3674627,-1.2024893,-0.31612253,-1.8994598,0.009255986,1.5897671,0.7374958,0.039995298,0.039994873,-0.053563417003799074,-0.03734161744537445,0.05411034234831247,0.14521531480230604,-0.22687486804200704,-0.03490005315835526,0.8609869043639442,0.2528237227311654,0.4408057360470206,0.021725993790649472
171.21666666669506,-0.36902538,-1.2042745,-0.3174665,-1.8975153,0.009294943,1.589847,0.73728955,0.039995376,0.03999496,-0.0535940890526998,-0.0364569785459401,0.05633431627687924,0.14372607820319175,-0.22431076096958447,-0.034867016156204064,0.8598366305814334,0.25373579761083304,0.4425375610840127,0.02143876747799701
171.23333333336174,-0.370571,-1.20604,-0.31879568,-1.8955919,0.009333474,1.5899261,0.73708564,0.03999546,0.03999505,-0.05231637665201738,-0.03573439650453869,0.05770179533716724,0.14222197754368224,-0.22173180409690355,-0.03482060638731334,0.8586947199924062,0.25463596781572156,0.44424824239423355,0.02115185290578906
171.25000000002842,-0.37209928,-1.2077862,-0.32011,-1.8936894,0.009371574,1.5900047,0.7368838,0.039995547,0.039995138,-0.05118454657675464,-0.03548080503481543,0.057831988056172845,0.14070311939338215,-0.2191380295006059,-0.034761045558299,0.8575612407558909,0.25552401877736225,0.4459381515241588,0.02086526290990745
171.2666666666951,-0.37361023,-1.2095125,-0.32140934,-1.8918089,0.009409243,1.5900822,0.7366844,0.03999563,0.039995227,-0.052450200060771834,-0.03461579145844773,0.060581589052810525,0.13917063747996056,-0.21652362059352248,-0.034685098911886585,0.8564367528004478,0.2564001212029477,0.44760647414701576,0.02057937320267817
171.28333333336178,-0.37510362,-1.2112192,-0.3226937,-1.8899503,0.009446476,1.5901583,0.73648727,0.03999571,0.039995316,-0.05182839210644552,-0.03428282325733667,0.06091351197750616,0.13762395372587688,-0.21389850057735904,-0.034597660951073306,0.8553214199282059,0.2572641722798281,0.4492533301507765,0.020294324862137742
171.30000000002846,-0.3765794,-1.2129055,-0.3239628,-1.8881136,0.009483269,1.5902338,0.7362926,0.03999579,0.0399954,-0.0509740970201733,-0.033301956873621474,0.06322342480651888,0.13606586723064848,-0.21125890977640194,-0.03449793493198168,0.8542154512201767,0.258116253940489,0.4508786511174773,0.020010105320140827
171.31666666669514,-0.37803748,-1.2145721,-0.32521674,-1.8862989,0.009519624,1.5903087,0.7361002,0.039995868,0.03999548,-0.05004883930932458,-0.03280230277772356,0.06301094103179361,0.1344941595726965,-0.20860788428341215,-0.03438555799951213,0.8531188615149495,0.25895628904942425,0.45248282030452197,0.019726779221483713
171.33333333336182,-0.37947768,-1.216218,-0.32645532,-1.8845062,0.009555533,1.5903827,0.73591024,0.039995953,0.039995573,-0.0500173921088809,-0.03194608622126838,0.06536554656149662,0.13290964625612192,-0.20594124521377255,-0.03425911509860535,0.8520320669997241,0.2597843467387505,0.4540653694394071,0.019444543439054864
171.3500000000285,-0.3808999,-1.2178434,-0.32767844,-1.8827361,0.009590994,1.5904553,0.73572254,0.039996035,0.03999566,-0.050364084846998836,-0.03162984669230484,0.06651731503863889,0.131312593715807,-0.20326097159786513,-0.034120178000634646,0.8509554760413304,0.2606003004397623,0.4556259629221585,0.019163588318327946
171.36666666669518,-0.3823041,-1.2194487,-0.32888597,-1.8809882,0.009626006,1.5905272,0.7355372,0.039996125,0.039995756,-0.04866744513627452,-0.031139567763149856,0.06655977666060742,0.12970516523076214,-0.20057469765584077,-0.033970590121239604,0.8498889529228502,0.26140415427269864,0.45716521805886134,0.01888383504139044
171.38333333336186,-0.38369015,-1.2210332,-0.3300779,-1.879263,0.0096605625,1.5905982,0.73535407,0.03999621,0.039995845,-0.048839828482272196,-0.03011799801935222,0.06863631689352223,0.12808682902829896,-0.19787342403561103,-0.033806748868884656,0.8488328935437132,0.26219592990776563,0.4586827330998091,0.01860547054225359
171.40000000002854,-0.38505787,-1.2225966,-0.33125415,-1.8775605,0.009694668,1.5906686,0.7351735,0.0399963,0.039995942,-0.048244180701573214,-0.02922568567763628,0.06999123865945589,0.12645704339246341,-0.19516251619569974,-0.03363025962339594,0.8477874692564519,0.262975762260613,0.4601784598045148,0.018328681543819995
171.41666666669522,-0.38640732,-1.224139,-0.3324147,-1.875881,0.009728313,1.5907373,0.7349954,0.03999638,0.039996028,-0.04866968000576399,-0.028848551506444053,0.07101557064284059,0.12481720647830148,-0.19244231827621952,-0.033443791411070574,0.8467531076164823,0.26374363367646836,0.46165196373461737,0.018053664916976426
171.4333333333619,-0.38773832,-1.2256612,-0.3335593,-1.8742243,0.009761502,1.5908056,0.7348197,0.03999647,0.039996125,-0.046613943435591665,-0.028728753690276942,0.07036147980694629,0.12316722013679884,-0.18971707443583105,-0.033247106028513676,0.8457295222244197,0.2644993727835673,0.4631042208679999,0.017780260104877762
171.45000000002858,-0.38905087,-1.227162,-0.33468804,-1.8725905,0.009794229,1.5908729,0.73464656,0.039996553,0.03999621,-0.04691753163057477,-0.027416879818442652,0.07275385154570935,0.12150831182619337,-0.18697847677277468,-0.03303692559665418,0.844717204020726,0.2652432263330005,0.4645345198971054,0.017508738956112734
171.46666666669526,-0.39034477,-1.228641,-0.33580074,-1.8709795,0.009826496,1.5909393,0.73447585,0.03999664,0.0399963,-0.04605443421983324,-0.02661248951127959,0.07423147631015481,0.11983915194404877,-0.1842342994205193,-0.03281635630446218,0.8437163643921544,0.2659751156195664,0.4659428580958219,0.017239121716042492
171.48333333336194,-0.39162,-1.2300993,-0.33689743,-1.8693919,0.009858299,1.5910044,0.73430747,0.03999672,0.03999639,-0.04619924861750668,-0.02661564808428274,0.07379256567601744,0.11816145952158263,-0.1814826327125135,-0.03258486389975884,0.8427271640056081,0.26669493705783975,0.46732932970677016,0.01697159952982233
171.50000000002862,-0.39287663,-1.2315363,-0.3379781,-1.867828,0.009889631,1.5910689,0.73414165,0.039996795,0.039996468,-0.04573344569926974,-0.02530961174730395,0.07574114107130603,0.11647628795656424,-0.17872569597450402,-0.032342471213827995,0.8417497404822419,0.26740291890464013,0.4686938811574426,0.01670626005214739
171.5166666666953,-0.3941144,-1.2329519,-0.33904263,-1.8662872,0.0099205,1.5911323,0.73397833,0.039996866,0.039996546,-0.04463562261842746,-0.02502558638327601,0.07580800696707635,0.1147822263267905,-0.17596289624046357,-0.03209038685398831,0.8407842386660914,0.2680989726562972,0.4700366229147106,0.01644317457954125
171.53333333336198,-0.39533332,-1.2343459,-0.34009093,-1.8647695,0.0099508995,1.5911949,0.7338174,0.039996948,0.03999663,-0.04371819162685142,-0.024316209633834518,0.0767098362952412,0.11308191947691691,-0.17319494853728573,-0.0318286256695648,0.8398307843880556,0.26878308386060157,0.47135765634028254,0.016182312378771244
171.55000000002866,-0.3965333,-1.2357185,-0.34112293,-1.8632753,0.009980828,1.5912561,0.733659,0.039997026,0.039996717,-0.044183876808068234,-0.023869840115187113,0.07782912544425646,0.11137375094593412,-0.17042123277547186,-0.03155504045393659,0.8388897159926624,0.26945530812683405,0.47265665027699255,0.015923952805623618
171.56666666669534,-0.39771447,-1.2370695,-0.34213877,-1.861805,0.010010285,1.5913168,0.73350316,0.039997097,0.03999679,-0.04349070732745375,-0.022633541166172666,0.07865572314889047,0.10966022945240515,-0.16764477335787298,-0.031273034273728434,0.83796104114665,0.2701157867937936,0.4739338194719964,0.01566812068747727
171.58333333336202,-0.39887658,-1.2383989,-0.34313813,-1.860358,0.010039265,1.5913764,0.73334986,0.039997168,0.03999687,-0.042446018605124536,-0.022702672555185988,0.07900541816428519,0.10794042174247766,-0.16486482606854744,-0.03098192781164715,0.8370449425885692,0.2707644006904882,0.4751892107883171,0.015414842068476597
171.6000000000287,-0.40001974,-1.2397068,-0.3441213,-1.8589343,0.010067777,1.5914351,0.73319894,0.039997235,0.03999694,-0.041786670146892746,-0.021584566550303386,0.0790514359536143,0.10621482319466737,-0.1620833728371948,-0.03068065977607867,0.8361414493367977,0.2714012709321503,0.4764229990399991,0.015164195432202269
171.61666666669538,-0.40114373,-1.2409928,-0.34508806,-1.8575342,0.0100958105,1.5914927,0.73305064,0.039997306,0.03999702,-0.04171404404336165,-0.021127538880394425,0.0806680071013588,0.10448334755083183,-0.15929783534584913,-0.030369748639363724,0.8352508674509386,0.27202640096362285,0.4776349314505414,0.014916362139254461
171.63333333336206,-0.40224868,-1.2422572,-0.3460384,-1.8561587,0.010123368,1.5915493,0.7329048,0.03999737,0.039997086,-0.042363737872896934,-0.020414575247762468,0.08196766889164708,0.10274855722379501,-0.15651193077892162,-0.030051245210303952,0.8343734906747031,0.2726397810197256,0.47882478555718794,0.014671489390665232
171.65000000002874,-0.4033344,-1.2435,-0.34697226,-1.8548069,0.01015045,1.5916047,0.7327615,0.039997444,0.039997164,-0.04058506004707141,-0.02005952373776987,0.08151010111862589,0.10101046563191848,-0.15372880974602285,-0.0297251695526582,0.8335092738447073,0.2732414431157663,0.47999290792330457,0.014429571102854984
171.66666666669542,-0.40440112,-1.2447208,-0.34788963,-1.8534789,0.010177057,1.5916593,0.7326207,0.039997518,0.039997246,-0.04014562660863419,-0.019111772746882583,0.08247697445966651,0.09926964518141743,-0.15094665043277877,-0.029391326407206844,0.8326583269423491,0.2738315290820031,0.4811393051865843,0.014190604594270824
171.6833333333621,-0.4054488,-1.2459198,-0.34879068,-1.8521746,0.010203187,1.5917131,0.7324823,0.03999759,0.03999732,-0.039486863086102275,-0.018374859548020428,0.08247502994161993,0.09752626985272236,-0.14816599450490472,-0.029049825840395886,0.8318207001539449,0.2744100696120408,0.48226414326618255,0.01395466268494725
171.70000000002878,-0.40647733,-1.2470969,-0.3496752,-1.8508941,0.010228842,1.5917659,0.7323465,0.03999766,0.0399974,-0.03896651839276899,-0.01799875004487861,0.08329709523925422,0.09577970389073553,-0.14538561518238954,-0.028700072255956194,0.8309965637949251,0.27497710170940864,0.4833673712368517,0.013721840987858913
171.71666666669546,-0.40748668,-1.2482524,-0.3505432,-1.8496375,0.010254015,1.5918175,0.7322134,0.039997738,0.03999748,-0.038784935019631206,-0.01771514208066538,0.08350029447274365,0.09403051640429393,-0.14260841798215063,-0.028342667424378784,0.8301860430138861,0.275532671338097,0.48444900501143906,0.013492314614811372
171.73333333336214,-0.40847683,-1.2493857,-0.3513948,-1.8484045,0.010278711,1.591868,0.7320827,0.039997805,0.039997555,-0.03798359327027434,-0.01653147805157351,0.08427623288956299,0.092281213065164,-0.1398358355238721,-0.02798035390007772,0.829389273365479,0.2760768230277351,0.4855090445122331,0.013266073647229766
171.75000000002882,-0.40944785,-1.2504975,-0.35222998,-1.8471955,0.01030293,1.591918,0.7319544,0.039997872,0.039997626,-0.03736004143051197,-0.016184844242017604,0.08415017928131152,0.09053075480405787,-0.13706822811631625,-0.027610700231436063,0.8286062035867884,0.27660951359111796,0.4865478540105995,0.013043087290023611
171.7666666666955,-0.41039973,-1.2515873,-0.3530488,-1.84601,0.010326673,1.5919669,0.7318288,0.039997946,0.039997708,-0.03674430054663169,-0.01552126326285208,0.08445470650454978,0.0887811015876954,-0.1343043660642465,-0.02723402763452027,0.8278369414020258,0.2771310185576606,0.4875653325729059,0.012823551629877389
171.78333333336218,-0.4113326,-1.2526553,-0.35385102,-1.8448484,0.01034994,1.5920146,0.7317057,0.03999802,0.039997786,-0.036761635588833386,-0.015340967379229298,0.08533598465355619,0.08702993522874403,-0.13154545432280101,-0.026851933066180108,0.8270817475874714,0.2776412330571775,0.48856133767408716,0.012607451933307473
171.80000000002886,-0.41224644,-1.2537018,-0.35463685,-1.8437105,0.010372732,1.592061,0.7315852,0.03999809,0.039997865,-0.03598047584674191,-0.014773588616057154,0.08468335875063682,0.08528103643989732,-0.1287949484836383,-0.02646453589913594,0.8263405424573053,0.2781402524594494,0.4895361831385654,0.012394888111040774
171.81666666669554,-0.4131412,-1.2547263,-0.35540646,-1.8425963,0.01039505,1.5921072,0.73146707,0.039998155,0.03999793,-0.035005535559040624,-0.013329791755090081,0.08567649418342871,0.08353310331962924,-0.12605164024302748,-0.02607180685965177,0.8256133173166481,0.2786281764054819,0.4904900565894937,0.012185810157338644
171.83333333336222,-0.41401696,-1.2557293,-0.35615972,-1.8415054,0.010416894,1.5921522,0.7313515,0.039998222,0.039998006,-0.034501653455398795,-0.013699478559059397,0.08485098981971251,0.08178717189094376,-0.12331514888670818,-0.025673565187015024,0.8249001261529156,0.27910503744654275,0.4914230686239068,0.011980299208729598
171.8500000000289,-0.41487378,-1.2567108,-0.35689667,-1.8404386,0.010438266,1.5921959,0.7312385,0.039998297,0.039998084,-0.035280888638578034,-0.012978578472933044,0.08616753136409527,0.08004281331003016,-0.12058580068763937,-0.02526972448580354,0.8242013287635153,0.27957090600988926,0.49233478719111556,0.01177860342928553
