rsonawane2002/My_IMU/logs_2/traj_266/imu_400hz_266.csv
time,j1,j2,j3,j4,j5,j6,j7,gripper1,gripper2,imu_ax,imu_ay,imu_az,imu_gx,imu_gy,imu_gz
0.0,0.00016700293,-0.785875,4.0107683e-05,-2.3551247,9.29385e-05,1.570997,0.786,0.04,0.04,-9.5494,-0.034631248563528,0.086103015,-3.1451762e-08,-0.0011641270248219,1.1148396e-06
0.0025,0.000167002324,-0.785857774,4.0107779000000005e-05,-2.35513919,9.294387e-05,1.570996565,0.786,0.04,0.04,-9.592153149999966,-0.029342785646444616,0.0745484500500092,6.443157129992368e-08,-0.0013254854187833317,1.1372535599999822e-06
0.005,0.000167001718,-0.785840548,4.0107875e-05,-2.3551536800000004,9.294924e-05,1.57099613,0.786,0.04,0.04,-9.634906299999932,-0.024054322729361234,0.0629938851000184,1.6031490459984738e-07,-0.0014868438127447633,1.1596675199999642e-06
0.0075,0.000167001112,-0.785823322,4.0107971000000004e-05,-2.3551681700000002,9.295461e-05,1.570995695,0.786,0.04,0.04,-9.677659449999899,-0.018765859812277852,0.051439320150027584,2.5619823789977106e-07,-0.0016482022067061948,1.1820814799999465e-06
0.01,0.000167000506,-0.7858060960000001,4.0108067e-05,-2.35518266,9.295997999999999e-05,1.5709952600000001,0.786,0.04,0.04,-9.720412599999865,-0.01347739689519447,0.03988475520003678,3.5208157119969474e-07,-0.0018095606006676265,1.2044954399999287e-06
0.0125,0.00016699990000000001,-0.7857888700000001,4.0108163e-05,-2.35519715,9.296534999999999e-05,1.570994825,0.786,0.04,0.04,-9.76316574999983,-0.008188933978111088,0.028330190250045968,4.4796490449961846e-07,-0.0019709189946290583,1.226909399999911e-06
0.015,0.00016699929400000002,-0.7857716440000001,4.0108259e-05,-2.3552116400000003,9.297071999999998e-05,1.57099439,0.786,0.04,0.04,-9.805918899999796,-0.0029004710610277054,0.016775625300055164,5.438482377995422e-07,-0.0021322773885904898,1.249323359999893e-06
0.0175,0.00016699628700000006,-0.7857548670000001,4.0106159700000035e-05,-2.355225735,9.297604099999997e-05,1.57099396,0.786,0.04,0.04,-9.834330700000002,0.0006198050716194247,0.008995513765001286,8.188585569964728e-07,-0.002289643674156668,1.3796049749980728e-06
0.02,0.00016698847800000006,-0.7857389880000002,4.009966980000004e-05,-2.35523904,9.298126399999997e-05,1.5709935400000001,0.786,0.04,0.04,-9.834059800000002,0.0006037076353096424,0.00876430906000147,1.4521228479959685e-06,-0.002439025742932149,1.7256218999977972e-06
0.0225,0.00016698066900000007,-0.7857231090000002,4.0093179900000045e-05,-2.355252345,9.298648699999996e-05,1.57099312,0.786,0.04,0.04,-9.833788900000002,0.0005876101989998602,0.008533104355001656,2.0853871389954637e-06,-0.00258840781170763,2.071638824997522e-06
0.025,0.00016697286000000007,-0.7857072300000002,4.008669000000005e-05,-2.3552656499999998,9.299170999999996e-05,1.5709927000000001,0.786,0.04,0.04,-9.833518000000003,0.0005715127626900781,0.00830189965000184,2.7186514299949603e-06,-0.0027377898804831114,2.4176557499972467e-06
0.0275,0.00016696505100000008,-0.7856913510000002,4.0080200100000055e-05,-2.3552789549999997,9.299693299999996e-05,1.57099228,0.786,0.04,0.04,-9.833247100000003,0.0005554153263802959,0.008070694945002024,3.351915720994456e-06,-0.0028871719492585923,2.7636726749969714e-06
0.03,0.00016695724200000008,-0.7856754720000002,4.007371020000006e-05,-2.3552922599999997,9.300215599999995e-05,1.57099186,0.786,0.04,0.04,-9.832976200000003,0.0005393178900705137,0.007839490240002208,3.985180011993952e-06,-0.0030365540180340733,3.1096895999966958e-06
0.0325,0.0001669494330000001,-0.7856595930000002,4.0067220300000065e-05,-2.3553055649999997,9.300737899999995e-05,1.57099144,0.786,0.04,0.04,-9.832705300000004,0.0005232204537607315,0.0076082855350023924,4.618444302993448e-06,-0.0031859360868095547,3.455706524996421e-06
0.035,0.0001669287030000003,-0.7856445730000002,4.0049161900000265e-05,-2.3553181,9.301266499999994e-05,1.57099101,0.786,0.04,0.04,-9.832464900000003,0.0004989830253183053,0.007388745570002381,5.985530959980683e-06,-0.0033288301201521444,4.105703149991066e-06
0.0375,0.00016690151250000032,-0.7856299825000002,4.002531925000029e-05,-2.3553302499999997,9.301798249999993e-05,1.570990575,0.786,0.04,0.04,-9.832239750000003,0.0004706756008093629,0.007175037975002551,7.7195287999793e-06,-0.0034684801357781326,4.907689624990426e-06
0.04,0.00016687432200000036,-0.7856153920000002,4.00014766000003e-05,-2.3553423999999996,9.302329999999993e-05,1.57099014,0.786,0.04,0.04,-9.832014600000003,0.0004423681763004204,0.006961330380002721,9.453526639977922e-06,-0.0036081301514041216,5.709676099989789e-06
0.0425,0.00016684713150000037,-0.7856008015000002,3.997763395000032e-05,-2.35535455,9.302861749999992e-05,1.5709897050000001,0.786,0.04,0.04,-9.831789450000002,0.0004140607517914779,0.006747622785002891,1.1187524479976542e-05,-0.0037477801670301107,6.511662574989151e-06
0.045,0.00016681994100000038,-0.7855862110000003,3.995379130000034e-05,-2.3553667,9.303393499999992e-05,1.57098927,0.786,0.04,0.04,-9.831564300000004,0.00038575332728253546,0.006533915190003061,1.2921522319975158e-05,-0.0038874301826560993,7.313649049988511e-06
0.0475,0.00016679275050000041,-0.7855716205000002,3.9929948650000354e-05,-2.3553788499999997,9.303925249999991e-05,1.570988835,0.786,0.04,0.04,-9.831339150000003,0.000357445902773593,0.006320207595003231,1.465552015997378e-05,-0.004027080198282088,8.115635524987875e-06
0.05,0.00016676556000000043,-0.7855570300000002,3.9906106000000376e-05,-2.355391,9.304456999999992e-05,1.5709884,0.786,0.04,0.04,-9.831114000000003,0.0003291384782646505,0.006106500000003401,1.6389517999972402e-05,-0.0041667302139080774,8.917621999987236e-06
0.0525,0.00016670125500000107,-0.7855436455000002,3.984946510000094e-05,-2.3554020249999996,9.305221099999986e-05,1.57098798,0.786,0.04,0.03999999925,-9.830922150000003,0.00028889758978105205,0.00590601424500335,1.9693380799944782e-05,-0.004298030352217701,1.0487821399973758e-05
0.055,0.00016663695000000112,-0.7855302610000002,3.979282420000099e-05,-2.3554130499999997,9.305985199999987e-05,1.57098756,0.786,0.04,0.0399999985,-9.830730300000003,0.00024865670129726363,0.00570552849000351,2.2997243599942156e-05,-0.004429330490527191,1.2058020799972508e-05
0.0575,0.00016657264500000117,-0.7855168765000002,3.973618330000103e-05,-2.3554240749999997,9.306749299999985e-05,1.57098714,0.786,0.04,0.03999999775,-9.830538450000002,0.00020841581281347515,0.005505042735003669,2.6301106399939533e-05,-0.004560630628836682,1.3628220199971259e-05
0.06,0.00016650834000000124,-0.7855034920000002,3.967954240000108e-05,-2.3554351,9.307513399999986e-05,1.57098672,0.786,0.04,0.039999997,-9.830346600000002,0.0001681749243296868,0.005304556980003829,2.9604969199936896e-05,-0.0046919307671461725,1.5198419599970007e-05
0.0625,0.0001664440350000013,-0.7854901075000003,3.962290150000113e-05,-2.355446125,9.308277499999985e-05,1.5709863,0.786,0.04,0.03999999625,-9.830154750000004,0.00012793403584589834,0.0051040712250039885,3.290883199993427e-05,-0.004823230905455663,1.676861899996876e-05
0.065,0.00016637973000000134,-0.7854767230000003,3.9566260600001173e-05,-2.35545715,9.309041599999983e-05,1.57098588,0.786,0.04,0.0399999955,-9.829962900000004,8.769314736210989e-05,0.004903585470004149,3.6212694799931644e-05,-0.004954531043765154,1.833881839996751e-05
0.0675,0.00016629549200000268,-0.7854637230000003,3.949212800000234e-05,-2.355467835,9.309791199999985e-05,1.570985455,0.786,0.04,0.03999999525,-9.829777700000003,4.3274753262494297e-05,0.004707410965004029,4.01514831998881e-05,-0.005083387764168042,2.010890619995338e-05
0.07,0.00016617138800000276,-0.7854514920000003,3.938301200000243e-05,-2.35547784,9.310511799999984e-05,1.57098502,0.786,0.04,0.039999996,-9.829605800000003,-9.4986520695733e-06,0.0045198589600041784,4.5360122799883956e-05,-0.005207357648757258,2.2278770799951656e-05
0.0725,0.00016604728400000288,-0.7854392610000003,3.927389600000252e-05,-2.355487845,9.311232399999983e-05,1.570984585,0.786,0.04,0.03999999675,-9.829433900000003,-6.227205740164061e-05,0.004332306955004329,5.056876239987978e-05,-0.005331327533346474,2.444863539994992e-05
0.075,0.00016592318000000297,-0.7854270300000004,3.91647800000026e-05,-2.35549785,9.311952999999982e-05,1.5709841500000001,0.786,0.04,0.0399999975,-9.829262000000003,-0.00011504546273370821,0.004144754950004478,5.577740199987564e-05,-0.005455297417935691,2.6618499999948195e-05
0.0775,0.00016579907600000306,-0.7854147990000003,3.905566400000269e-05,-2.355507855,9.312673599999981e-05,1.5709837150000001,0.786,0.04,0.03999999825,-9.829090100000004,-0.0001678188680657758,0.003957202945004627,6.09860415998715e-05,-0.005579267302524907,2.878836459994647e-05
0.08,0.00016567497200000315,-0.7854025680000003,3.894654800000278e-05,-2.35551786,9.313394199999982e-05,1.57098328,0.786,0.04,0.039999999,-9.828918200000004,-0.0002205922733978434,0.003769650940004776,6.619468119986736e-05,-0.0057032371871141236,3.095822919994475e-05
0.0825,0.00016555086800000327,-0.7853903370000003,3.883743200000287e-05,-2.355527865,9.314114799999981e-05,1.570982845,0.786,0.04,0.03999999975,-9.828746300000006,-0.000273365678729911,0.003582098935004925,7.140332079986323e-05,-0.0058272070717033395,3.3128093799943024e-05
0.085,0.00016536876500000572,-0.7853788340000003,3.867766300000501e-05,-2.35553714,9.314978299999974e-05,1.57098241,0.786,0.04,0.04,-9.828608400000004,-0.00033112854580225976,0.00340229559000476,7.81836865997953e-05,-0.00594762982800276,3.604293899991106e-05
0.08750000000000001,0.00016515766250000587,-0.7853676950000004,3.8492567500005156e-05,-2.35554605,9.315913249999974e-05,1.570981975,0.786,0.04,0.04,-9.828487500000003,-0.00039138614374504687,0.0032263665750048996,8.574991549978928e-05,-0.006066279020157071,3.933027449990845e-05
0.09,0.00016494656000000605,-0.7853565560000003,3.83074720000053e-05,-2.35555496,9.316848199999973e-05,1.57098154,0.786,0.04,0.04,-9.828366600000004,-0.0004516437416878336,0.0030504375600050406,9.331614439978323e-05,-0.006184928212311381,4.2617609999905814e-05
0.0925,0.00016473545750000622,-0.7853454170000004,3.812237650000545e-05,-2.35556387,9.317783149999972e-05,1.570981105,0.786,0.04,0.04,-9.828245700000004,-0.0005119013396306207,0.0028745085450051803,0.00010088237329977721,-0.006303577404465691,4.5904945499903204e-05
0.095,0.0001645243550000064,-0.7853342780000003,3.79372810000056e-05,-2.3555727799999997,9.318718099999971e-05,1.57098067,0.786,0.04,0.04,-9.828124800000003,-0.0005721589375734078,0.0026985795300053204,0.0001084486021997712,-0.006422226596620002,4.9192280999900594e-05
0.0975,0.00016431325250000655,-0.7853231390000004,3.7752185500005744e-05,-2.3555816899999997,9.31965304999997e-05,1.570980235,0.786,0.04,0.04,-9.828003900000004,-0.000632416535516195,0.00252265051500546,0.00011601483109976518,-0.006540875788774313,5.2479616499897977e-05
0.1,0.00016410215000000673,-0.7853120000000003,3.756709000000589e-05,-2.3555905999999998,9.32058799999997e-05,1.5709798,0.786,0.04,0.04,-9.827883000000003,-0.000692674133458982,0.0023467215000056,0.00012358105999975917,-0.006659524980928624,5.576695199989536e-05
0.10250000000000001,0.00016377287450001075,-0.7853019200000003,3.7279120000009394e-05,-2.355598925,9.321824449999959e-05,1.5709797699999999,0.786,0.04,0.04,-9.827770950000003,-0.0007626364909787525,0.0021814428000053922,0.0001337908369996669,-0.006773374974723846,6.019418429985556e-05
0.105,0.000163443599000011,-0.7852918400000003,3.6991150000009625e-05,-2.35560725,9.323060899999959e-05,1.57097974,0.786,0.04,0.04,-9.827658900000003,-0.0008325988484988315,0.0020161641000055247,0.00014400061399965874,-0.006887224968518915,6.462141659985202e-05
0.1075,0.00016311432350001127,-0.7852817600000004,3.6703180000009856e-05,-2.355615575,9.324297349999958e-05,1.57097971,0.786,0.04,0.04,-9.827546850000003,-0.0009025612060189109,0.001850885400005656,0.00015421039099965063,-0.007001074962313984,6.90486488998485e-05
0.11,0.00016278504800001153,-0.7852716800000004,3.641521000001008e-05,-2.3556239,9.325533799999956e-05,1.57097968,0.786,0.04,0.04,-9.827434800000004,-0.0009725235635389903,0.0016856067000057874,0.0001644201679996425,-0.007114924956109054,7.347588119984498e-05
0.1125,0.0001624557725000118,-0.7852616000000003,3.612724000001031e-05,-2.355632225,9.326770249999955e-05,1.57097965,0.786,0.04,0.04,-9.827322750000004,-0.0010424859210590696,0.001520328000005919,0.00017462994499963438,-0.0072287749499041236,7.790311349984146e-05
0.115,0.00016212649700001207,-0.7852515200000003,3.583927000001054e-05,-2.3556405499999995,9.328006699999954e-05,1.5709796200000001,0.786,0.04,0.04,-9.827210700000004,-0.0011124482785791492,0.0013550493000060503,0.00018483972199962627,-0.007342624943699192,8.233034579983793e-05
0.11750000000000001,0.00016174624200001805,-0.7852417670000003,3.5507029500015736e-05,-2.355648605,9.329373599999939e-05,1.570979595,0.786,0.04,0.04,-9.8271247,-0.0011843199259573142,0.001191842886505949,0.00019601235299951012,-0.007455404452044052,8.718066529978696e-05
0.12,0.00016126402800001842,-0.7852326680000004,3.5086248000016074e-05,-2.35565612,9.331001399999937e-05,1.57097958,0.786,0.04,0.04,-9.8270908,-0.0012600101530522887,0.0010327810460060763,0.00020911069199949965,-0.007566042989488134,9.28771591997824e-05
0.1225,0.00016078181400001882,-0.7852235690000003,3.4665466500016406e-05,-2.3556636349999995,9.332629199999937e-05,1.570979565,0.786,0.04,0.04,-9.8270569,-0.0013357003801472635,0.0008737192055062028,0.00022220903099948923,-0.007676681526932216,9.857365309977786e-05
0.125,0.00016029960000001918,-0.7852144700000003,3.4244685000016744e-05,-2.3556711499999996,9.334256999999935e-05,1.5709795500000001,0.786,0.04,0.04,-9.827023,-0.0014113906072422383,0.0007146573650063291,0.0002353073699994788,-0.007787320064376297,0.00010427014699977333
0.1275,0.00015981738600001958,-0.7852053710000004,3.3823903500017076e-05,-2.3556786649999997,9.335884799999935e-05,1.570979535,0.786,0.04,0.04,-9.8269891,-0.001487080834337213,0.0005555955245064555,0.0002484057089994684,-0.00789795860182038,0.00010996664089976881
0.13,0.00015933517200001997,-0.7851962720000004,3.3403122000017414e-05,-2.3556861799999997,9.337512599999933e-05,1.57097952,0.786,0.04,0.04,-9.8269552,-0.001562771061432188,0.00039653368400658197,0.000261504047999458,-0.008008597139264462,0.0001156631347997643
0.1325,0.00015885295800002034,-0.7851871730000004,3.2982340500017745e-05,-2.355693695,9.339140399999932e-05,1.570979505,0.786,0.04,0.04,-9.8269213,-0.0016384612885271628,0.00023747184350670844,0.00027460238699944755,-0.008119235676708544,0.00012135962869975976
0.135,0.00015824348500002893,-0.7851787460000004,3.245124680002519e-05,-2.35570048,9.341098639999909e-05,1.5709795,0.786,0.04,0.04,-9.826894650000002,-0.0017190277576410633,8.71464170062718e-05,0.0002898216499993005,-0.00822903020306944,0.00012797933299969573
0.1375,0.00015757038250002948,-0.7851706550000004,3.1864997000025654e-05,-2.3557069,9.343222099999907e-05,1.5709795,0.786,0.04,0.04,-9.826871625,-0.0018020323477648923,-5.8810802493612185e-05,0.0003061013749992875,-0.008338402723888663,0.00013506064249969009
0.14,0.00015689728000003,-0.7851625640000004,3.1278747200026124e-05,-2.3557133199999996,9.345345559999905e-05,1.5709795,0.786,0.04,0.04,-9.826848600000002,-0.0018850369378887214,-0.00020476802199349616,0.00032238109999927454,-0.008447775244707885,0.00014214195199968447
0.14250000000000002,0.00015622417750003054,-0.7851544730000004,3.0692497400026586e-05,-2.3557197399999996,9.347469019999903e-05,1.5709795,0.786,0.04,0.04,-9.826825575,-0.0019680415280125506,-0.00035072524149338017,0.00033866082499926163,-0.00855714776552711,0.00014922326149967882
0.145,0.0001555510750000311,-0.7851463820000004,3.0106247600027062e-05,-2.3557261599999997,9.349592479999902e-05,1.5709795,0.786,0.04,0.04,-9.826802550000002,-0.0020510461181363782,-0.0004966824609932625,0.0003549405499992485,-0.00866652028634633,0.00015630457099967312
0.1475,0.0001548779725000316,-0.7851382910000004,2.9519997800027525e-05,-2.3557325799999997,9.3517159399999e-05,1.5709795,0.786,0.04,0.04,-9.826779525000001,-0.0021340507082602076,-0.0006426396804931465,0.00037122027499923553,-0.008775892807165554,0.00016338588049966748
0.15,0.00015420487000003216,-0.7851302000000003,2.893374800002799e-05,-2.3557389999999994,9.353839399999898e-05,1.5709795,0.786,0.04,0.04,-9.826756500000002,-0.0022170552983840366,-0.0007885968999930304,0.0003874999999992226,-0.008885265327984776,0.00017046718999966186
0.1525,0.00015330014950004392,-0.7851230750000003,2.814704180003819e-05,-2.3557444599999995,9.356334289999879e-05,1.5709795149999999,0.785999886,0.0399999985,0.0399999985,-9.826715025000002,-0.0023049350827889638,-0.0009157281999938283,0.00040717940449904464,-0.00899298703297445,0.00017908287199958173
0.155,0.00015239542900004466,-0.7851159500000003,2.7360335600038816e-05,-2.3557499199999996,9.358829179999877e-05,1.57097953,0.785999772,0.039999997,0.039999997,-9.826673550000002,-0.002392814867194124,-0.0010428594999937273,0.000426858808999029,-0.009100708737964045,0.0001876985539995749
0.1575,0.00015149070850004536,-0.7851088250000003,2.657362940003944e-05,-2.3557553799999997,9.361324069999875e-05,1.570979545,0.785999658,0.0399999955,0.0399999955,-9.826632075000003,-0.002480694651599284,-0.0011699907999936261,0.00044653821349901335,-0.00920843044295364,0.00019631423599956804
0.16,0.0001505859880000461,-0.7851017000000003,2.5786923200040066e-05,-2.35576084,9.363818959999873e-05,1.57097956,0.785999544,0.039999994,0.039999994,-9.826590600000003,-0.002568574436004444,-0.0012971220999935251,0.00046621761799899773,-0.009316152147943233,0.0002049299179995612
0.1625,0.0001496812675000468,-0.7850945750000003,2.5000217000040693e-05,-2.3557663,9.366313849999872e-05,1.570979575,0.78599943,0.0399999925,0.0399999925,-9.826549125000001,-0.002656454220409604,-0.0014242533999934241,0.00048589702249898206,-0.009423873852932828,0.00021354559999955434
0.165,0.0001487765470000475,-0.7850874500000004,2.4213510800041316e-05,-2.3557717599999997,9.36880873999987e-05,1.57097959,0.785999316,0.039999991,0.039999991,-9.826507650000002,-0.0027443340048147642,-0.0015513846999933231,0.0005055764269989664,-0.009531595557922422,0.0002221612819995475
0.1675,0.0001477802110000629,-0.7850806465000003,2.3347588650054612e-05,-2.35577698,9.371531299999831e-05,1.5709796200000001,0.7859991445,0.0399999899,0.0399999899,-9.82647485,-0.0028336287941734383,-0.0016753981849937207,0.0005266142534987335,-0.009639083128416789,0.00023127729049946062
0.17,0.00014660064400006382,-0.7850744860000004,2.2323234600055426e-05,-2.35578172,9.374709199999829e-05,1.57097968,0.785998858,0.0399999896,0.0399999896,-9.826459400000001,-0.0029257535934398148,-0.001793176039993627,0.0005503689239987146,-0.009746102429920588,0.0002413939519994526
0.17250000000000001,0.00014542107700006476,-0.7850683255000004,2.1298880550056242e-05,-2.35578646,9.377887099999826e-05,1.57097974,0.7859985715000001,0.0399999893,0.0399999893,-9.826443950000002,-0.0030178783927061917,-0.0019109538949935335,0.0005741235944986958,-0.00985312173142439,0.00025151061349944453
0.17500000000000002,0.0001442415100000657,-0.7850621650000004,2.0274526500057056e-05,-2.3557911999999996,9.381064999999823e-05,1.5709798,0.785998285,0.039999989,0.039999989,-9.8264285,-0.0031100031919725686,-0.00202873174999344,0.0005978782649986769,-0.009960141032928188,0.00026162727499943653
0.1775,0.00014306194300006664,-0.7850560045000003,1.9250172450057883e-05,-2.3557959399999997,9.38424289999982e-05,1.57097986,0.7859979985000001,0.0399999887,0.0399999887,-9.826413050000001,-0.003202127991238944,-0.002146509604993345,0.0006216329354986577,-0.010067160334431988,0.00027174393649942837
0.18,0.00014188237600006758,-0.7850498440000004,1.8225818400058696e-05,-2.3558006799999998,9.387420799999818e-05,1.57097992,0.785997712,0.0399999884,0.0399999884,-9.826397600000002,-0.003294252790505321,-0.002264287459993251,0.0006453876059986388,-0.010174179635935787,0.0002818605979994203
0.1825,0.00014070280900006852,-0.7850436835000004,1.720146435005951e-05,-2.35580542,9.390598699999816e-05,1.57097998,0.7859974255000001,0.0399999881,0.0399999881,-9.826382150000002,-0.003386377589771698,-0.0023820653149931575,0.00066914227649862,-0.010281198937439588,0.0002919772594994123
0.185,0.00013930972800008833,-0.7850381730000003,1.5992690900076616e-05,-2.3558096799999997,9.394312699999765e-05,1.57098004,0.7859971370000001,0.0399999872,0.0399999869,-9.826408749999999,-0.003479379089543617,-0.002489249009994,0.0006959138049983345,-0.010389425512396761,0.000303307695999297
0.1875,0.00013780989000008952,-0.7850329875000004,1.469170775007765e-05,-2.3558136999999997,9.398294749999762e-05,1.5709801,0.7859968475000001,0.039999986,0.03999998525,-9.826456374999998,-0.003572818939568423,-0.002591135624993919,0.0007241937624983121,-0.01049825572408078,0.0003152450199992875
0.19,0.0001363100520000907,-0.7850278020000003,1.3390724600078685e-05,-2.3558177199999997,9.40227679999976e-05,1.57098016,0.785996558,0.0399999848,0.0399999836,-9.826503999999998,-0.0036662587895932284,-0.002693022239993838,0.0007524737199982896,-0.010607085935764798,0.00032718234399927804
0.1925,0.00013481021400009192,-0.7850226165000004,1.2089741450079718e-05,-2.3558217399999997,9.406258849999756e-05,1.57098022,0.7859962685,0.0399999836,0.03999998195,-9.826551624999997,-0.0037596986396180344,-0.002794908854993757,0.0007807536774982671,-0.010715916147448816,0.00033911966799926856
0.195,0.0001333103760000931,-0.7850174310000003,1.0788758300080753e-05,-2.3558257599999997,9.410240899999753e-05,1.5709802800000001,0.7859959790000001,0.0399999824,0.0399999803,-9.826599249999997,-0.00385313848964284,-0.0028967954699936757,0.0008090336349982447,-0.010824746359132834,0.00035105699199925903
0.1975,0.0001318105380000943,-0.7850122455000003,9.487775150081786e-06,-2.3558297799999997,9.41422294999975e-05,1.57098034,0.7859956895,0.0399999812,0.03999997865,-9.826646874999998,-0.003946578339667646,-0.002998682084993595,0.0008373135924982222,-0.010933576570816853,0.00036299431599924955
0.2,0.0001303107000000955,-0.7850070600000003,8.186792000082822e-06,-2.3558337999999996,9.418204999999747e-05,1.5709804,0.7859954,0.03999998,0.039999977,-9.826694499999997,-0.004040018189692451,-0.003100568699993514,0.0008655935499981997,-0.01104240678250087,0.0003749316399992401
0.2025,0.0001284432960001204,-0.7850028360000003,6.5685468651043044e-06,-2.355836725,9.423103099999684e-05,1.570980475,0.7859951150000001,0.03999997895,0.03999997535,-9.826755474999997,-0.004136991710395764,-0.003191529644994137,0.0008977056024979302,-0.01115356436929872,0.0003885933129991194
0.20500000000000002,0.00012657589200012185,-0.7849986120000003,4.950301730105591e-06,-2.35583965,9.42800119999968e-05,1.57098055,0.78599483,0.0399999779,0.0399999737,-9.826816449999997,-0.004233965231099302,-0.0032824905899940648,0.0009298176549979046,-0.011264721956096716,0.0004022549859991086
0.20750000000000002,0.00012470848800012334,-0.7849943880000003,3.332056595106877e-06,-2.355842575,9.432899299999677e-05,1.570980625,0.785994545,0.03999997685,0.03999997205,-9.826877424999996,-0.00433093875180284,-0.0033734515349939927,0.0009619297074978791,-0.011375879542894714,0.0004159166589990977
0.21,0.00012284108400012483,-0.7849901640000003,1.7138114601081814e-06,-2.3558455,9.437797399999673e-05,1.5709807,0.7859942600000001,0.0399999758,0.0399999704,-9.826938399999996,-0.004427912272506377,-0.0034644124799939192,0.0009940417599978533,-0.011487037129692708,0.0004295783319990867
0.2125,0.00012097368000012633,-0.7849859400000003,9.556632510946811e-08,-2.355848425,9.442695499999669e-05,1.570980775,0.785993975,0.03999997475,0.039999968749999996,-9.826999374999996,-0.004524885793209915,-0.0035553734249938467,0.0010261538124978278,-0.011598194716490706,0.0004432400049990758
0.215,0.0001191062760001278,-0.7849817160000003,-1.522678809889246e-06,-2.35585135,9.447593599999665e-05,1.57098085,0.7859936900000001,0.039999973700000004,0.0399999671,-9.827060349999996,-0.004621859313913453,-0.0036463343699937745,0.0010582658649978022,-0.011709352303288702,0.000456901677999065
0.2175,0.00011710004120015813,-0.7849778225000003,-3.2606706548630872e-06,-2.35585392,9.452834649999589e-05,1.57098093,0.785993405,0.03999997265,0.0399999656,-9.827111649999999,-0.004719879408359998,-0.0037328641349946225,0.001091705984997501,-0.011821006890378532,0.00047111440999893965
0.22,0.00011481614480015995,-0.7849745900000002,-5.2381559198615155e-06,-2.35585578,9.458761599999585e-05,1.5709810199999998,0.78599312,0.0399999716,0.0399999644,-9.827143599999998,-0.0048199926502932085,-0.0038105315399945606,0.0011278022399974722,-0.011933655478052332,0.00048642925999892747
0.2225,0.00011253224840016175,-0.7849713575000002,-7.215641184859943e-06,-2.35585764,9.46468854999958e-05,1.57098111,0.7859928350000001,0.03999997055,0.0399999632,-9.827175549999998,-0.00492010589222642,-0.003888198944994499,0.0011638984949974434,-0.012046304065726132,0.0005017441099989153
0.225,0.00011024835200016357,-0.7849681250000002,-9.193126449858371e-06,-2.3558594999999998,9.470615499999576e-05,1.5709811999999999,0.78599255,0.0399999695,0.039999962,-9.827207499999998,-0.00502021913415963,-0.003965866349994437,0.0011999947499974149,-0.012158952653399932,0.0005170589599989031
0.2275,0.0001079644556001654,-0.7849648925000002,-1.11706117148568e-05,-2.35586136,9.47654244999957e-05,1.57098129,0.7859922650000001,0.03999996845,0.0399999608,-9.827239449999997,-0.00512033237609284,-0.004043533754994375,0.0012360910049973861,-0.012271601241073732,0.0005323738099988909
0.23,0.00010568055920016721,-0.7849616600000002,-1.3148096979855228e-05,-2.35586322,9.482469399999567e-05,1.57098138,0.78599198,0.039999967399999996,0.0399999596,-9.827271399999997,-0.00522044561802605,-0.0041212011599943135,0.0012721872599973576,-0.012384249828747532,0.0005476886599988789
0.2325,0.00010339666280016902,-0.7849584275000002,-1.5125582244853654e-05,-2.3558650799999996,9.488396349999561e-05,1.57098147,0.785991695,0.03999996635,0.0399999584,-9.827303349999998,-0.005320558859959261,-0.004198868564994252,0.0013082835149973288,-0.012496898416421334,0.0005630035099988667
0.23500000000000001,0.00010080155560020576,-0.7849558550000002,-1.737138029982198e-05,-2.35586633,9.49509989999947e-05,1.57098156,0.7859914100000001,0.039999966,0.039999958,-9.827345399999997,-0.005419760895885564,-0.00426566789999541,0.0013470646899969988,-0.012611002661279111,0.0005795397289987174
0.23750000000000002,9.805084300020794e-05,-0.7849536125000002,-1.9751334749820085e-05,-2.355867275,9.502191749999464e-05,1.57098165,0.785991125,0.039999966,0.039999958,-9.827392499999997,-0.00551850732880826,-0.004327033199995361,0.001387188324996967,-0.01272583473472912,0.0005966866324987037
0.24,9.530013040021016e-05,-0.7849513700000001,-2.2131289199818168e-05,-2.35586822,9.509283599999459e-05,1.57098174,0.7859908400000001,0.039999966,0.039999958,-9.827439599999996,-0.005617253761730955,-0.004388398499995312,0.0014273119599969345,-0.012840666808179127,0.0006138335359986899
0.2425,9.254941780021235e-05,-0.7849491275000002,-2.4511243649816275e-05,-2.355869165,9.516375449999453e-05,1.57098183,0.785990555,0.039999966,0.039999958,-9.827486699999996,-0.005716000194653652,-0.004449763799995263,0.0014674355949969027,-0.012955498881629135,0.0006309804394986763
0.245,8.979870520021453e-05,-0.7849468850000002,-2.689119809981438e-05,-2.35587011,9.523467299999447e-05,1.57098192,0.78599027,0.039999966,0.039999958,-9.827533799999996,-0.0058147466275763485,-0.004511129099995214,0.0015075592299968706,-0.013070330955079144,0.0006481273429986626
0.2475,8.704799260021672e-05,-0.7849446425000002,-2.9271152549812492e-05,-2.355871055,9.530559149999441e-05,1.57098201,0.7859899850000001,0.039999966,0.039999958,-9.827580899999997,-0.005913493060499046,-0.004572494399995165,0.0015476828649968388,-0.013185163028529153,0.0006652742464986491
0.25,8.42972800002189e-05,-0.7849424000000003,-3.1651106999810595e-05,-2.355872,9.537650999999436e-05,1.5709821,0.7859897,0.039999966,0.039999958,-9.827627999999997,-0.006012239493421742,-0.004633859699995117,0.0015878064999968067,-0.013299995101979161,0.0006824211499986354
0.2525,8.102823625026276e-05,-0.7849411850000001,-3.447772049977281e-05,-2.355872,9.546033599999326e-05,1.57098219,0.7859891555,0.0399999666,0.0399999583,-9.827708999999993,-0.0061098532518292946,-0.004677939644996457,0.0016320656049964425,-0.013418342964714168,0.0007014421324984711
0.255,7.775919250026535e-05,-0.7849399700000002,-3.7304333999770563e-05,-2.355872,9.554416199999319e-05,1.57098228,0.7859886110000001,0.0399999672,0.0399999586,-9.827789999999993,-0.006207467010236756,-0.004722019589996422,0.0016763247099964075,-0.013536690827449453,0.000720463114998456
0.2575,7.449014875026795e-05,-0.7849387550000001,-4.013094749976831e-05,-2.355872,9.562798799999314e-05,1.57098237,0.7859880665000001,0.0399999678,0.0399999589,-9.827870999999993,-0.006305080768644219,-0.004766099534996388,0.0017205838149963722,-0.013655038690184739,0.0007394840974984408
0.26,7.122110500027055e-05,-0.7849375400000002,-4.2957560999766067e-05,-2.355872,9.571181399999307e-05,1.57098246,0.785987522,0.0399999684,0.039999959200000004,-9.827951999999993,-0.006402694527051681,-0.004810179479996352,0.0017648429199963371,-0.013773386552920026,0.0007585050799984258
0.2625,6.795206125027315e-05,-0.7849363250000001,-4.578417449976382e-05,-2.355872,9.5795639999993e-05,1.57098255,0.7859869775,0.039999969,0.0399999595,-9.828032999999992,-0.006500308285459144,-0.004854259424996317,0.0018091020249963018,-0.013891734415655312,0.0007775260624984107
0.265,6.468301750027576e-05,-0.78493511,-4.8610787999761577e-05,-2.355872,9.587946599999293e-05,1.57098264,0.785986433,0.039999969600000004,0.0399999598,-9.828113999999992,-0.006597922043866606,-0.0048983393699962826,0.0018533611299962668,-0.014010082278390597,0.0007965470449983955
0.2675,6.122369295032695e-05,-0.7849342364999999,-5.160130864971746e-05,-2.35587165,9.596805049999165e-05,1.57098274,0.785985879,0.03999997,0.0399999599,-9.828200299999992,-0.006695426115757866,-0.004937129819997599,0.0018993984799957773,-0.014129791175936086,0.0008162460349982072
0.27,5.7383806800330004e-05,-0.784934046,-5.4919643599714823e-05,-2.3558706000000003,9.606615199999157e-05,1.57098286,0.785985306,0.03999997,0.0399999596,-9.82829719999999,-0.006792710814616639,-0.004965341279997576,0.001948992319995738,-0.014252222143103017,0.0008373010399981905
0.2725,5.3543920650333054e-05,-0.7849338555,-5.8237978549712186e-05,-2.3558695500000004,9.61642534999915e-05,1.5709829800000001,0.785984733,0.03999997,0.0399999593,-9.828394099999992,-0.006889995513475412,-0.004993552739997554,0.0019985861599956982,-0.01437465311026995,0.0008583560449981738
0.275,4.970403450033611e-05,-0.7849336650000001,-6.155631349970955e-05,-2.3558685,9.626235499999142e-05,1.5709831,0.78598416,0.03999997,0.039999959,-9.82849099999999,-0.006987280212334184,-0.005021764199997531,0.002048179999995659,-0.014497084077436884,0.0008794110499981571
0.2775,4.5864148350339154e-05,-0.7849334745000001,-6.487464844970691e-05,-2.3558674500000003,9.636045649999134e-05,1.57098322,0.785983587,0.03999997,0.039999958700000005,-9.828587899999992,-0.007084564911192957,-0.005049975659997509,0.0020977738399956198,-0.014619515044603817,0.0009004660549981403
0.28,4.202426220034221e-05,-0.7849332840000001,-6.819298339970427e-05,-2.3558664,9.645855799999127e-05,1.5709833400000002,0.785983014,0.03999997,0.0399999584,-9.82868479999999,-0.007181849610051729,-0.005078187119997486,0.00214736767999558,-0.014741946011770748,0.0009215210599981236
0.28250000000000003,3.818437605034526e-05,-0.7849330935000001,-7.151131834970164e-05,-2.35586535,9.655665949999119e-05,1.57098346,0.785982441,0.03999997,0.0399999581,-9.828781699999992,-0.007279134308910503,-0.005106398579997463,0.002196961519995541,-0.014864376978937681,0.0009425760649981068
0.28500000000000003,3.392840884040493e-05,-0.78493362,-7.518796999965025e-05,-2.3558636200000005,9.66650964999897e-05,1.57098359,0.785981869,0.03999997,0.039999958,-9.82888249999999,-0.007376704690969006,-0.00512499015999875,0.0022494485999951077,-0.014989721309382118,0.0009648362499979262
0.28750000000000003,2.9464401100408476e-05,-0.784934505,-7.904377999964718e-05,-2.35586155,9.677870124998961e-05,1.570983725,0.7859812975,0.03999997,0.039999958,-9.82898524999999,-0.007474417914627433,-0.0051387717999987394,0.002303382299995065,-0.015116522321465898,0.000987699024997908
0.29,2.5000393360412126e-05,-0.7849353899999999,-8.289958999964402e-05,-2.3558594800000003,9.689230599998951e-05,1.5709838600000001,0.785980726,0.03999997,0.039999958,-9.82908799999999,-0.007572131138285859,-0.005152553439998727,0.002357315999995021,-0.015243323333549674,0.0010105617999978892
0.2925,2.0536385620415673e-05,-0.784936275,-8.675539999964096e-05,-2.35585741,9.700591074998942e-05,1.570983995,0.7859801545,0.03999997,0.039999958,-9.82919074999999,-0.0076698443619442865,-0.005166335079998717,0.002411249699994978,-0.015370124345633453,0.0010334245749978712
0.295,1.6072377880419224e-05,-0.7849371599999999,-9.06112099996379e-05,-2.35585534,9.711951549998934e-05,1.57098413,0.785979583,0.03999997,0.039999958,-9.82929349999999,-0.0077675575856027135,-0.005180116719998706,0.002465183399994935,-0.015496925357717233,0.001056287349997853
0.2975,1.1608370140422772e-05,-0.784938045,-9.446701999963483e-05,-2.3558532700000003,9.723312024998924e-05,1.5709842649999999,0.7859790115,0.03999997,0.039999958,-9.82939624999999,-0.007865270809261141,-0.005193898359998695,0.002519117099994892,-0.01562372636980101,0.0010791501249978346
0.3,7.144362400426323e-06,-0.7849389299999999,-9.832282999963177e-05,-2.3558512,9.734672499998915e-05,1.5709844,0.78597844,0.03999997,0.039999958,-9.82949899999999,-0.00796298403291957,-0.005207679999998684,0.0025730507999948493,-0.01575052738188479,0.0011020128999978166
0.3025,2.002289140495163e-06,-0.7849409204999999,-0.00010276238449957248,-2.3558479750000005,9.747726624998743e-05,1.5709845199999999,0.785977864,0.039999970450000005,0.0399999583,-9.82960954999999,-0.008055420638984439,-0.00520082384500066,0.0026312131049943993,-0.015882079955177687,0.00112683168999761
0.305,-3.1397841195007494e-06,-0.7849429109999998,-0.00010720193899956896,-2.3558447500000006,9.760780749998733e-05,1.57098464,0.785977288,0.0399999709,0.0399999586,-9.829720099999989,-0.008147857245048806,-0.005193967690000666,0.002689375409994353,-0.016013632528471038,0.0011516504799975902
0.3075,-8.281857379496663e-06,-0.7849449014999998,-0.00011164149349956543,-2.355841525,9.773834874998723e-05,1.57098476,0.785976712,0.03999997135,0.0399999589,-9.82983064999999,-0.008240293851113172,-0.005187111535000671,0.002747537714994307,-0.016145185101764388,0.0011764692699975706
0.31,-1.3423930639492574e-05,-0.7849468919999998,-0.0001160810479995619,-2.3558383000000003,9.786888999998711e-05,1.57098488,0.785976136,0.0399999718,0.039999959200000004,-9.829941199999988,-0.008332730457177537,-0.005180255380000677,0.0028057000199942605,-0.01627673767505774,0.0012012880599975508
0.3125,-1.8566003899488484e-05,-0.7849488824999998,-0.00012052060249955837,-2.3558350750000003,9.799943124998701e-05,1.5709849999999999,0.78597556,0.03999997225,0.0399999595,-9.830051749999988,-0.008425167063241904,-0.005173399225000682,0.0028638623249942143,-0.01640829024835109,0.0012261068499975312
0.315,-2.3708077159484393e-05,-0.7849508729999998,-0.00012496015699955485,-2.3558318500000004,9.812997249998691e-05,1.57098512,0.785974984,0.039999972700000004,0.0399999598,-9.830162299999989,-0.00851760366930627,-0.005166543070000687,0.002922024629994168,-0.01653984282164444,0.0012509256399975113
0.3175,-2.9094310699406283e-05,-0.7849532384999997,-0.0001296098584994876,-2.3558282350000006,9.826661699998496e-05,1.5709852499999999,0.785974315,0.039999973200000004,0.03999996,-9.830271449999989,-0.008608346385872441,-0.005152383865002907,0.0029815978649936938,-0.016672998014823696,0.0012764444649972795
0.32,-3.496886479940161e-05,-0.7849563539999996,-0.00013467985399948356,-2.3558238400000007,9.841546799998483e-05,1.5709854,0.78597346,0.0399999738,0.03999996,-9.830377799999988,-0.00869570132344068,-0.005123618560002929,0.003043992959993644,-0.01680935844777623,0.001303363359997258
0.3225,-4.084341889939694e-05,-0.7849594694999996,-0.00013974984949947954,-2.3558194450000007,9.856431899998473e-05,1.57098555,0.7859726050000001,0.0399999744,0.03999996,-9.830484149999988,-0.008783056261008922,-0.005094853255002953,0.0031063880549935946,-0.01694571888072876,0.0013302822549972366
0.325,-4.671797299939227e-05,-0.7849625849999997,-0.0001448198449994755,-2.355815050000001,9.87131699999846e-05,1.5709857,0.7859717500000001,0.039999975,0.03999996,-9.830590499999989,-0.008870411198577163,-0.005066087950002975,0.003168783149993545,-0.017082079313681293,0.001357201149997215
0.3275,-5.25925270993876e-05,-0.7849657004999997,-0.00014988984049947145,-2.3558106550000004,9.886202099998448e-05,1.57098585,0.7859708950000001,0.0399999756,0.03999996,-9.830696849999988,-0.008957766136145403,-0.005037322645002998,0.0032311782449934955,-0.017218439746633826,0.0013841200449971939
0.33,-5.846708119938293e-05,-0.7849688159999997,-0.00015495983599946744,-2.3558062600000005,9.901087199998436e-05,1.570986,0.78597004,0.0399999762,0.03999996,-9.83080319999999,-0.009045121073713644,-0.005008557340003021,0.003293573339993446,-0.017354800179586356,0.0014110389399971724
0.3325,-6.434163529937826e-05,-0.7849719314999997,-0.00016002983149946342,-2.3558018650000006,9.915972299998425e-05,1.5709861500000002,0.785969185,0.039999976799999996,0.03999996,-9.830909549999989,-0.009132476011281884,-0.004979792035003044,0.0033559684349933963,-0.01749116061253889,0.001437957834997151
0.335,-7.074099499928966e-05,-0.7849758329999995,-0.00016555142499938714,-2.3557966800000005,9.932162499998205e-05,1.57098629,0.7859683300000001,0.039999977299999996,0.0399999606,-9.831024999999986,-0.009220766928037456,-0.004940669640004724,0.003422082949992752,-0.017630928568526875,0.0014661077499969327
0.3375,-7.740275749928436e-05,-0.7849801274999996,-0.00017129881749938257,-2.3557911000000007,9.949005249998191e-05,1.570986425,0.7859674750000001,0.03999997775,0.0399999615,-9.831144999999987,-0.009309525834386915,-0.004896368700004759,0.003490057174992698,-0.017772400286033403,0.0014948731749969098
0.34,-8.406451999927907e-05,-0.7849844219999995,-0.000177046209999378,-2.355785520000001,9.965847999998178e-05,1.5709865600000001,0.7859666200000001,0.0399999782,0.0399999624,-9.831264999999986,-0.009398284740736375,-0.004852067760004794,0.0035580313999926437,-0.01791387200353993,0.001523638599996887
0.3425,-9.072628249927377e-05,-0.7849887164999995,-0.00018279360249937344,-2.3557799400000006,9.982690749998164e-05,1.570986695,0.785965765,0.03999997865,0.0399999633,-9.831384999999987,-0.009487043647085833,-0.0048077668200048294,0.0036260056249925897,-0.018055343721046457,0.001552404024996864
0.34500000000000003,-9.738804499926848e-05,-0.7849930109999995,-0.00018854099499936887,-2.3557743600000007,9.999533499998151e-05,1.57098683,0.78596491,0.0399999791,0.0399999642,-9.831504999999986,-0.009575802553435294,-0.004763465880004865,0.0036939798499925356,-0.018196815438552984,0.0015811694499968413
0.34750000000000003,-0.00010404980749926318,-0.7849973054999995,-0.0001942883874993643,-2.355768780000001,0.00010016376249998138,1.570986965,0.7859640550000001,0.039999979549999995,0.0399999651,-9.831624999999987,-0.009664561459784754,-0.0047191649400049,0.0037619540749924815,-0.01833828715605951,0.0016099348749968184
0.35000000000000003,-0.00011071156999925788,-0.7850015999999995,-0.00020003577999935974,-2.3557632000000006,0.00010033218999998124,1.5709871,0.7859632000000001,0.03999998,0.039999966,-9.831744999999986,-0.009753320366134213,-0.004674864000004935,0.0038299282999924274,-0.018479758873566038,0.0016387002999967955
0.3525,-0.00011821552549915793,-0.7850071394999993,-0.00020650777749927374,-2.355756300000001,0.00010052167149997875,1.570987235,0.7859622100000001,0.039999979549999995,0.039999964799999996,-9.831874149999985,-0.009834036976089887,-0.004605581700007775,0.0039020598049919054,-0.018626939505322068,0.0016695812949965346
0.355,-0.00012571948099915196,-0.7850126789999994,-0.00021297977499926859,-2.355749400000001,0.00010071115299997859,1.5709873699999999,0.7859612200000001,0.0399999791,0.0399999636,-9.832003299999986,-0.009914753586044668,-0.0045362994000078295,0.003974191309991848,-0.018774120137078736,0.0017004622899965101
0.3575,-0.000133223436499146,-0.7850182184999993,-0.00021945177249926343,-2.3557425000000007,0.00010090063449997844,1.570987505,0.7859602300000001,0.03999997865,0.0399999624,-9.832132449999985,-0.009995470195999449,-0.004467017100007885,0.004046322814991791,-0.018921300768835404,0.0017313432849964856
0.36,-0.00014072739199914004,-0.7850237579999993,-0.0002259237699992583,-2.355735600000001,0.0001010901159999783,1.57098764,0.7859592400000001,0.0399999782,0.0399999612,-9.832261599999985,-0.01007618680595423,-0.00439773480000794,0.004118454319991733,-0.01906848140059207,0.0017622242799964609
0.3625,-0.00014823134749913407,-0.7850292974999994,-0.00023239576749925316,-2.3557287000000007,0.00010127959749997814,1.570987775,0.7859582500000001,0.03999997775,0.03999996,-9.832390749999986,-0.01015690341590901,-0.004328452500007995,0.004190585824991676,-0.01921566203234874,0.0017931052749964363
0.365,-0.0001557353029991281,-0.7850348369999993,-0.000238867764999248,-2.355721800000001,0.00010146907899997799,1.57098791,0.7859572600000001,0.039999977299999996,0.0399999588,-9.832519899999985,-0.010237620025863791,-0.00425917020000805,0.004262717329991619,-0.019362842664105408,0.0018239862699964118
0.3675,-0.00016353833749901717,-0.7850407859999993,-0.00024559703849915256,-2.355714455000001,0.00010166601949997523,1.57098805,0.7859562200000001,0.03999997715,0.0399999581,-9.832645449999987,-0.010316677810615375,-0.004181208800011151,0.0043364421499910025,-0.019511768501234036,0.0018554848449961706
0.37,-0.0001719395299990105,-0.7850475539999993,-0.0002528408639991468,-2.355706220000001,0.00010187787799997505,1.5709882,0.7859550800000001,0.0399999776,0.0399999584,-9.832763799999986,-0.010392417944958819,-0.004085889200011227,0.0044133535999909415,-0.01966418474910841,0.0018882185799961445
0.3725,-0.00018034072249900382,-0.7850543219999992,-0.00026008468949914105,-2.355697985000001,0.00010208973649997488,1.57098835,0.7859539400000002,0.039999978049999996,0.039999958700000005,-9.832882149999985,-0.010468158079302264,-0.003990569600011302,0.004490265049990881,-0.01981660099698278,0.0019209523149961185
0.375,-0.00018874191499899714,-0.7850610899999992,-0.0002673285149991353,-2.355689750000001,0.00010230159499997471,1.5709885,0.7859528000000001,0.0399999785,0.039999959,-9.833000499999986,-0.010543898213645708,-0.0038952500000113783,0.004567176499990819,-0.019969017244857154,0.0019536860499960924
0.3775,-0.00019714310749899047,-0.7850678579999992,-0.00027457234049912954,-2.355681515000001,0.00010251345349997454,1.5709886499999999,0.7859516600000002,0.03999997895,0.0399999593,-9.833118849999986,-0.010619638347989154,-0.003799930400011454,0.004644087949990758,-0.02012143349273153,0.0019864197849960665
0.38,-0.0002055442999989838,-0.7850746259999992,-0.0002818161659991238,-2.355673280000001,0.00010272531199997438,1.5709888,0.7859505200000001,0.039999979399999996,0.0399999596,-9.833237199999985,-0.010695378482332598,-0.00370461080001153,0.004720999399990697,-0.020273849740605903,0.0020191535199960402
0.3825,-0.00021394549249897712,-0.7850813939999992,-0.00028905999149911804,-2.355665045000001,0.0001029371704999742,1.57098895,0.7859493800000001,0.03999997985,0.0399999599,-9.833355549999984,-0.010771118616676043,-0.003609291200011606,0.004797910849990636,-0.020426265988480276,0.0020518872549960144
0.385,-0.00022298154799885373,-0.7850890379999991,-0.0002968498679990119,-2.3556559400000014,0.00010316478049997114,1.5709893499999998,0.7859482240000002,0.0399999797,0.0399999594,-9.833488399999982,-0.010844383854410153,-0.0035016276200139505,0.004878070629989978,-0.020582797564546614,0.002086014929995732
0.3875,-0.0002323350349988463,-0.785097119999999,-0.0003049127699990055,-2.3556464000000013,0.00010340026624997096,1.570989875,0.7859470600000001,0.03999997925,0.0399999585,-9.833628499999982,-0.010916411643838915,-0.0033877920500140412,0.004959854574989913,-0.020741386804710063,0.0021208395749957045
0.39,-0.00024168852199883887,-0.785105201999999,-0.00031297567199899904,-2.355636860000001,0.00010363575199997076,1.5709904,0.7859458960000002,0.039999978799999995,0.0399999576,-9.833768599999983,-0.010988439433267678,-0.0032739564800141315,0.005041638519989847,-0.020899976044873512,0.002155664219995677
0.3925,-0.00025104200899883145,-0.785113283999999,-0.00032103857399899265,-2.3556273200000013,0.00010387123774997059,1.570990925,0.7859447320000001,0.03999997835,0.0399999567,-9.833908699999983,-0.01106046722269644,-0.003160120910014222,0.005123422464989783,-0.02105856528503696,0.0021904888649956493
0.395,-0.000260395495998824,-0.7851213659999989,-0.00032910147599898626,-2.355617780000001,0.00010410672349997039,1.57099145,0.7859435680000001,0.0399999779,0.0399999558,-9.834048799999982,-0.011132495012125203,-0.003046285340014313,0.005205206409989718,-0.02121715452520041,0.0022253135099956217
0.3975,-0.00026974898299881656,-0.785129447999999,-0.0003371643779989798,-2.355608240000001,0.0001043422092499702,1.5709919749999999,0.7859424040000001,0.03999997745,0.039999954899999995,-9.834188899999983,-0.011204522801553965,-0.002932449770014403,0.005286990354989652,-0.021375743765363858,0.0022601381549955937
0.4,-0.0002791024699988091,-0.785137529999999,-0.0003452272799989734,-2.355598700000001,0.00010457769499997002,1.5709925,0.7859412400000001,0.039999977,0.039999954,-9.834328999999983,-0.011276550590982728,-0.002818614200014494,0.005368774299989588,-0.021534333005527307,0.002294962799995566
0.4025,-0.00028946319649867264,-0.7851469754999988,-0.000354156433498856,-2.355587750000001,0.00010483861324996657,1.5709931449999999,0.7859398090000002,0.03999997805,0.039999954899999995,-9.834456949999984,-0.011341707454985903,-0.0026840110400172448,0.005454728454988988,-0.02169715678317247,0.0023316534599952996
0.405,-0.0002998239229986644,-0.7851564209999987,-0.0003630855869988489,-2.355576800000001,0.00010509953149996637,1.57099379,0.7859383780000002,0.0399999791,0.0399999558,-9.834584899999983,-0.0114068643189882,-0.002549407880017352,0.00554068260998892,-0.02185998056081817,0.0023683441199952703
0.40750000000000003,-0.00031018464949865616,-0.7851658664999988,-0.0003720147404988418,-2.3555658500000014,0.00010536044974996616,1.570994435,0.7859369470000002,0.03999998015,0.0399999567,-9.834712849999983,-0.011472021182990498,-0.002414804720017459,0.005626636764988852,-0.02202280433846387,0.002405034779995241
0.41000000000000003,-0.00032054537599864795,-0.7851753119999987,-0.0003809438939988347,-2.3555549000000013,0.00010562136799996595,1.5709950799999999,0.7859355160000002,0.0399999812,0.0399999576,-9.834840799999983,-0.011537178046992797,-0.0022802015600175657,0.005712590919988783,-0.022185628116109572,0.0024417254399952118
0.41250000000000003,-0.0003309061024986397,-0.7851847574999987,-0.0003898730474988276,-2.3555439500000013,0.00010588228624996575,1.570995725,0.7859340850000002,0.03999998225,0.0399999585,-9.834968749999984,-0.011602334910995096,-0.002145598400017673,0.005798545074988715,-0.02234845189375527,0.002478416099995183
0.41500000000000004,-0.00034126682899863147,-0.7851942029999988,-0.00039880220099882053,-2.355533000000001,0.00010614320449996554,1.57099637,0.7859326540000002,0.0399999833,0.0399999594,-9.835096699999983,-0.011667491774997393,-0.0020109952400177798,0.005884499229988647,-0.02251127567140097,0.0025151067599951536
0.4175,-0.00035198154099848187,-0.7852041019999986,-0.0004080357564986919,-2.3555215650000014,0.00010641281579996186,1.57099702,0.7859312175000002,0.039999984,0.03999996,-9.83523044999998,-0.011730915633953537,-0.0018647697770225239,0.005972222214987871,-0.022676063328958974,0.002552395199994885
0.42,-0.00036340422399847277,-0.7852149079999985,-0.000417878115998684,-2.3555091600000018,0.00010669981319996162,1.57099768,0.7859297700000002,0.039999984,0.03999996,-9.83537579999998,-0.011790873482815304,-0.0016952997080226585,0.006063482859987798,-0.02284477874634394,0.002590879199994855
0.4225,-0.00037482690699846367,-0.7852257139999985,-0.0004277204754986762,-2.3554967550000017,0.0001069868105999614,1.57099834,0.7859283225000002,0.039999984,0.03999996,-9.83552114999998,-0.01185083133167707,-0.0015258296390227933,0.006154743504987726,-0.023013494163728908,0.002629363199994824
0.425,-0.0003862495899984546,-0.7852365199999986,-0.00043756283499866836,-2.3554843500000016,0.00010727380799996117,1.570999,0.7859268750000002,0.039999984,0.03999996,-9.835666499999979,-0.011910789180538839,-0.0013563595700229279,0.006246004149987654,-0.023182209581113875,0.0026678471999947934
0.4275,-0.00039767227299844553,-0.7852473259999986,-0.00044740519449866056,-2.355471945000002,0.00010756080539996094,1.57099966,0.7859254275000003,0.039999984,0.03999996,-9.83581184999998,-0.011970747029400606,-0.0011868895010230624,0.0063372647949875805,-0.02335092499849884,0.0027063311999947627
0.43,-0.00040909495599843643,-0.7852581319999985,-0.00045724755399865276,-2.355459540000002,0.0001078478027999607,1.57100032,0.7859239800000002,0.039999984,0.03999996,-9.83595719999998,-0.012030704878262374,-0.0010174194320231973,0.006428525439987508,-0.023519640415883808,0.002744815199994732
0.4325,-0.00042051763899842733,-0.7852689379999985,-0.0004670899134986449,-2.3554471350000017,0.00010813480019996048,1.57100098,0.7859225325000002,0.039999984,0.03999996,-9.836102549999978,-0.01209066272712414,-0.0008479493630233318,0.006519786084987435,-0.02368835583326877,0.0027832991999947017
0.435,-0.00043268462699826366,-0.7852807119999983,-0.0004775722699985042,-2.355433700000002,0.00010844062989995634,1.57100164,0.7859209050000002,0.0399999844,0.03999996,-9.83624329999998,-0.01214117500930386,-0.0006601569200272725,0.006613771029986797,-0.023861226066922744,0.0028233451299943466
0.4375,-0.0004452237674982537,-0.7852929699999983,-0.0004883746249984955,-2.355419750000002,0.0001087558757499561,1.5710023,0.7859191875000002,0.039999985,0.03999996,-9.83638174999998,-0.012186964508139624,-0.0004632032900274291,0.0067091181249867215,-0.02403617370871251,0.0028641720249943142
0.44,-0.0004577629079982437,-0.7853052279999982,-0.000499176979998487,-2.355405800000002,0.00010907112159995584,1.57100296,0.7859174700000002,0.0399999856,0.03999996,-9.83652019999998,-0.012232754006975387,-0.0002662496600275856,0.006804465219986645,-0.02421112135050228,0.0029049989199942815
0.4425,-0.0004703020484982338,-0.7853174859999983,-0.0005099793349984784,-2.355391850000002,0.0001093863674499556,1.57100362,0.7859157525000002,0.039999986200000004,0.03999996,-9.836658649999979,-0.012278543505811151,-6.929603002774217e-05,0.00689981231498657,-0.024386068992292044,0.002945825814994249
0.445,-0.0004828411889982238,-0.7853297439999982,-0.0005207816899984698,-2.355377900000002,0.00010970161329995535,1.57100428,0.7859140350000002,0.0399999868,0.03999996,-9.83679709999998,-0.012324333004646915,0.00012765759997210118,0.006995159409986494,-0.02456101663408181,0.002986652709994217
0.4475,-0.0004953803294982138,-0.7853420019999983,-0.0005315840449984612,-2.355363950000002,0.00011001685914995509,1.57100494,0.7859123175000002,0.0399999874,0.03999996,-9.83693554999998,-0.012370122503482678,0.00032461122997194463,0.007090506504986418,-0.024735964275871575,0.0030274796049941845
0.45,-0.0005079194699982039,-0.7853542599999982,-0.0005423863999984526,-2.355350000000002,0.00011033210499995484,1.5710056,0.7859106000000002,0.039999988,0.03999996,-9.83707399999998,-0.012415912002318442,0.0005215648599717881,0.007185853599986343,-0.02491091191766134,0.003068306499994152
0.4525,-0.0005216291549980253,-0.785368005999998,-0.0005541951499982991,-2.355334475000002,0.00011067633264995041,1.5710062899999997,0.7859088225000003,0.0399999883,0.0399999609,-9.837219949999978,-0.012463430687778247,0.0007496258259671511,0.007286302959985532,-0.025092154927525576,0.0031106600049938997
0.455,-0.0005353388399980144,-0.785381751999998,-0.0005660038999982897,-2.3553189500000022,0.00011102056029995014,1.5710069799999997,0.7859070450000003,0.0399999886,0.0399999618,-9.837365899999979,-0.012510949373238298,0.0009776867919669698,0.007386752319985452,-0.02527339793739071,0.003153013509993866
0.4575,-0.0005490485249980035,-0.785395497999998,-0.0005778126499982803,-2.355303425000002,0.00011136478794994988,1.5710076699999997,0.7859052675000002,0.0399999889,0.0399999627,-9.837511849999979,-0.01255846805869835,0.0012057477579667886,0.007487201679985372,-0.025454640947255847,0.0031953670149938323
0.46,-0.0005627582099979926,-0.785409243999998,-0.000589621399998271,-2.355287900000002,0.0001117090155999496,1.5710083599999998,0.7859034900000003,0.0399999892,0.0399999636,-9.837657799999977,-0.012605986744158403,0.0014338087239666073,0.007587651039985292,-0.02563588395712098,0.0032377205199937984
0.4625,-0.0005764678949979816,-0.785422989999998,-0.0006014301499982616,-2.355272375000002,0.00011205324324994932,1.5710090499999998,0.7859017125000003,0.0399999895,0.0399999645,-9.837803749999978,-0.012653505429618454,0.001661869689966426,0.007688100399985212,-0.02581712696698612,0.003280074024993765
0.465,-0.0005901775799979708,-0.785436735999998,-0.0006132388999982521,-2.355256850000002,0.00011239747089994905,1.5710097399999998,0.7858999350000002,0.039999989799999996,0.0399999654,-9.837949699999978,-0.012701024115078507,0.0018899306559662448,0.007788549759985133,-0.025998369976851253,0.003322427529993731
0.4675,-0.0006042953464977778,-0.7854509899999977,-0.0006253984799980862,-2.3552407550000023,0.0001127519591999442,1.5710104349999998,0.7858980825000003,0.0399999899,0.0399999654,-9.838095499999978,-0.012743441434572251,0.0021277747499616963,0.007890395999984428,-0.026181745715411313,0.0033655421149933577
0.47000000000000003,-0.0006192292759977659,-0.7854662599999978,-0.0006382597199980759,-2.3552235200000022,0.0001131269687999439,1.5710111399999998,0.7858960800000002,0.0399999896,0.0399999636,-9.838240999999979,-0.01277565602212656,0.0023851850999614915,0.007995035999984346,-0.02636938691136407,0.0034101788599933225
0.47250000000000003,-0.000634163205497754,-0.7854815299999978,-0.0006511209599980657,-2.3552062850000026,0.0001135019783999436,1.571011845,0.7858940775000003,0.0399999893,0.0399999618,-9.838386499999977,-0.01280787060968087,0.0026425954499612867,0.008099675999984263,-0.026557028107316825,0.0034548156049932868
0.47500000000000003,-0.0006490971349977421,-0.7854967999999977,-0.0006639821999980555,-2.3551890500000026,0.0001138769879999433,1.5710125499999998,0.7858920750000002,0.039999989,0.03999996,-9.838531999999978,-0.012840085197235179,0.0029000057999610824,0.008204315999984179,-0.026744669303269582,0.0034994523499932515
0.47750000000000004,-0.0006640310644977302,-0.7855120699999977,-0.0006768434399980453,-2.3551718150000025,0.000114251997599943,1.5710132549999998,0.7858900725000003,0.0399999887,0.0399999582,-9.838677499999978,-0.012872299784789489,0.0031574161499608776,0.008308955999984095,-0.026932310499222338,0.003544089094993216
0.48,-0.000678964993997718,-0.7855273399999977,-0.0006897046799980347,-2.3551545800000024,0.0001146270071999427,1.57101396,0.7858880700000003,0.0399999884,0.039999956399999995,-9.838822999999978,-0.012904514372343797,0.003414826499960667,0.00841359599998401,-0.027119951695175087,0.0035887258399931797
0.4825,-0.0006938989234977061,-0.7855426099999976,-0.0007025659199980245,-2.355137345000003,0.0001150020167999424,1.5710146649999999,0.7858860675000002,0.0399999881,0.0399999546,-9.838968499999977,-0.012936728959898107,0.0036722368499604624,0.008518235999983928,-0.027307592891127844,0.003633362584993144
0.485,-0.0007096844199974971,-0.7855589399999974,-0.0007161592749978448,-2.355119060000003,0.00011539834539993716,1.5710153699999998,0.7858839700000003,0.0399999887,0.039999954399999996,-9.839110799999979,-0.01296457182615593,0.00394919686995573,0.008626075599983104,-0.027499398961633306,0.0036792428999928204
0.4875,-0.0007258956999974842,-0.7855757999999974,-0.0007301186874978337,-2.355100250000003,0.00011580533349993683,1.571016075,0.7858818250000003,0.03999998975,0.039999955,-9.839251499999978,-0.012990228831763994,0.004235931724955502,0.008735514999983016,-0.02769328746941656,0.0037257449999927835
0.49,-0.0007421069799974713,-0.7855926599999974,-0.0007440780999978226,-2.355081440000003,0.00011621232159993652,1.57101678,0.7858796800000003,0.0399999908,0.0399999556,-9.839392199999978,-0.013015885837372058,0.004522666579955275,0.008844954399982929,-0.027887175977199818,0.0037722470999927466
0.4925,-0.0007583182599974585,-0.7856095199999973,-0.0007580375124978115,-2.355062630000003,0.00011661930969993619,1.5710174849999998,0.7858775350000003,0.03999999185,0.0399999562,-9.839532899999979,-0.013041542842980123,0.004809401434955046,0.008954393799982842,-0.028081064484983074,0.0038187491999927096
0.495,-0.0007745295399974456,-0.7856263799999973,-0.0007719969249978004,-2.355043820000003,0.00011702629779993588,1.57101819,0.7858753900000004,0.0399999929,0.0399999568,-9.839673599999978,-0.013067199848588187,0.005096136289954818,0.009063833199982756,-0.02827495299276633,0.0038652512999926723
0.4975,-0.0007907408199974326,-0.7856432399999973,-0.0007859563374977894,-2.355025010000003,0.00011743328589993555,1.571018895,0.7858732450000003,0.03999999395,0.0399999574,-9.839814299999977,-0.013092856854196252,0.005382871144954591,0.009173272599982669,-0.028468841500549583,0.003911753399992635
0.5,-0.0008069520999974198,-0.7856600999999973,-0.0007999157499977783,-2.355006200000003,0.00011784027399993522,1.5710195999999998,0.7858711000000004,0.039999995,0.039999958,-9.839954999999977,-0.013118513859804316,0.005669605999954363,0.009282711999982582,-0.02866273000833284,0.0039582554999925985
0.5025000000000001,-0.0008244934809971946,-0.785678569499997,-0.0008150185074975846,-2.3549855000000033,0.00011828025849992963,1.57102032,0.7858688050000004,0.03999999575,0.0399999583,-9.840110999999975,-0.013134749606249073,0.005992401349948374,0.009396540399981796,-0.028863568790224833,0.0040063410149923095
0.505,-0.0008420348619971802,-0.785697038999997,-0.0008301212649975722,-2.3549648000000034,0.00011872024299992928,1.57102104,0.7858665100000004,0.0399999965,0.0399999586,-9.840266999999974,-0.01315098535269233,0.00631519669994811,0.009510368799981702,-0.029064407572117923,0.00405442652999227
0.5075000000000001,-0.0008595762429971667,-0.785715508499997,-0.0008452240224975606,-2.354944100000003,0.00011916022749992893,1.5710217599999998,0.7858642150000004,0.03999999725,0.0399999589,-9.840422999999975,-0.013167221099135588,0.006637992049947861,0.009624197199981614,-0.029265246354011024,0.004102512044992233
0.51,-0.0008771176239971523,-0.785733977999997,-0.0008603267799975482,-2.354923400000003,0.00011960021199992856,1.5710224799999999,0.7858619200000004,0.039999998,0.039999959200000004,-9.840578999999975,-0.013183456845578844,0.006960787399947597,0.009738025599981522,-0.029466085135904114,0.004150597559992194
0.5125,-0.000894659004997138,-0.7857524474999971,-0.0008754295374975359,-2.3549027000000033,0.00012004019649992821,1.5710232,0.7858596250000004,0.03999999875,0.0399999595,-9.840734999999974,-0.0131996925920221,0.007283582749947334,0.009851853999981428,-0.029666923917797204,0.004198683074992155
0.515,-0.0009122003859971244,-0.785770916999997,-0.0008905322949975242,-2.3548820000000035,0.00012048018099992787,1.5710239199999998,0.7858573300000004,0.0399999995,0.0399999598,-9.840890999999974,-0.013215928338465358,0.007606378099947084,0.00996568239998134,-0.029867762699690305,0.004246768589992117
0.5175,-0.0009302024729968824,-0.7857899484999967,-0.0009060310799973161,-2.3548607250000035,0.00012093163329992185,1.5710246399999999,0.7858549550000005,0.04,0.03999996,-9.841040399999978,-0.013229863019658523,0.007938188849942365,0.010080926249980549,-0.030070633999969232,0.004295485019991766
0.52,-0.0009491259719968677,-0.7858101039999967,-0.0009223219199973035,-2.3548383000000035,0.00012140602119992148,1.57102536,0.7858524200000004,0.04,0.03999996,-9.841176599999978,-0.013239195570348096,0.008288030399942095,0.010199000999980458,-0.030277570337022847,0.004345463279991728
0.5225,-0.0009680494709968523,-0.7858302594999966,-0.0009386127599972903,-2.3548158750000034,0.00012188040909992109,1.5710260799999998,0.7858498850000004,0.04,0.03999996,-9.841312799999978,-0.013248528121037668,0.008637871949941808,0.010317075749980361,-0.030484506674076452,0.004395441539991687
0.525,-0.0009869729699968376,-0.7858504149999966,-0.0009549035999972777,-2.3547934500000034,0.00012235479699992073,1.5710267999999998,0.7858473500000004,0.04,0.03999996,-9.841448999999978,-0.01325786067172724,0.008987713499941537,0.01043515049998027,-0.030691443011130068,0.004445419799991648
0.5275,-0.0010058964689968223,-0.7858705704999966,-0.0009711944399972644,-2.354771025000004,0.00012282918489992032,1.57102752,0.7858448150000005,0.04,0.03999996,-9.841585199999978,-0.013267193222416812,0.009337555049941252,0.010553225249980171,-0.030898379348183673,0.0044953980599916074
0.53,-0.0010248199679968077,-0.7858907259999967,-0.0009874852799972517,-2.3547486000000037,0.00012330357279991997,1.5710282399999997,0.7858422800000004,0.04,0.03999996,-9.841721399999978,-0.013276525773106385,0.009687396599940981,0.01067129999998008,-0.03110531568523729,0.004545376319991569
0.5325,-0.0010437434669967921,-0.7859108814999965,-0.0010037761199972386,-2.3547261750000037,0.00012377796069991956,1.5710289599999998,0.7858397450000004,0.04,0.03999996,-9.841857599999978,-0.013285858323795958,0.010037238149940696,0.010789374749979985,-0.03131225202229089,0.004595354579991528
0.535,-0.0010636227199965335,-0.7859321899999963,-0.001020888469997016,-2.354702460000004,0.00012427617499991312,1.5710299699999997,0.7858371100000004,0.04,0.0399999606,-9.842008449999973,-0.013287383317947744,0.010412143899934022,0.010910565749979097,-0.03152382299300363,0.004646475139991197
0.5375,-0.0010839798499965169,-0.7859540749999963,-0.0010384115749970018,-2.354678100000004,0.0001247863024999127,1.5710311249999998,0.7858344250000004,0.04,0.0399999615,-9.842166624999974,-0.013285004533827657,0.010799581749933706,0.011033314874978996,-0.0317377112805477,0.004698166849991156
0.54,-0.001104336979996501,-0.7859759599999963,-0.001055934679996988,-2.3546537400000043,0.00012529642999991233,1.5710322799999998,0.7858317400000004,0.04,0.0399999624,-9.842324799999973,-0.013282625749707568,0.011187019599933406,0.011156063999978903,-0.03195159956809177,0.004749858559991115
0.5425,-0.0011246941099964844,-0.7859978449999963,-0.0010734577849969738,-2.354629380000004,0.0001258065574999119,1.5710334349999997,0.7858290550000004,0.04,0.0399999633,-9.842482974999973,-0.01328024696558748,0.01157445744993309,0.011278813124978802,-0.03216548785563584,0.004801550269991073
0.545,-0.0011450512399964687,-0.7860197299999963,-0.0010909808899969603,-2.354605020000004,0.00012631668499991152,1.5710345899999998,0.7858263700000004,0.04,0.0399999642,-9.842641149999974,-0.013277868181467393,0.01196189529993279,0.011401562249978707,-0.032379376143179914,0.004853241979991033
0.5475,-0.001165408369996452,-0.7860416149999963,-0.001108503994996946,-2.3545806600000043,0.0001268268124999111,1.5710357449999997,0.7858236850000004,0.04,0.0399999651,-9.842799324999973,-0.013275489397347304,0.012349333149932473,0.011524311374978606,-0.03259326443072398,0.004904933689990991
0.55,-0.0011857654999964363,-0.7860634999999961,-0.0011260270999969323,-2.3545563000000045,0.0001273369399999107,1.5710368999999997,0.7858210000000004,0.04,0.039999966,-9.842957499999972,-0.013273110613227217,0.012736770999932173,0.011647060499978512,-0.032807152718268055,0.004956625399990951
0.5525,-0.0012076068799961586,-0.7860871849999959,-0.0011448259999966937,-2.354530005000005,0.00012788426749990375,1.5710381449999997,0.7858181350000005,0.04,0.039999964799999996,-9.843084924999978,-0.01325826933607711,0.013151067249927133,0.011773928849977687,-0.03302524201568097,0.005010234379990572
0.555,-0.0012294482599961418,-0.7861108699999958,-0.0011636248999966792,-2.354503710000005,0.00012843159499990333,1.5710393899999997,0.7858152700000005,0.04,0.0399999636,-9.843212349999979,-0.013243428058924821,0.013565363499926814,0.01190079719997759,-0.03324333131309462,0.005063843359990531
0.5575,-0.0012512896399961239,-0.7861345549999957,-0.001182423799996664,-2.3544774150000047,0.00012897892249990288,1.5710406349999997,0.7858124050000005,0.04,0.0399999624,-9.843339774999977,-0.013228586781772534,0.013979659749926475,0.012027665549977485,-0.03346142061050827,0.005117452339990487
0.56,-0.001273131019996107,-0.7861582399999958,-0.0012012226999966492,-2.3544511200000047,0.00012952624999990246,1.5710418799999997,0.7858095400000006,0.04,0.0399999612,-9.843467199999978,-0.013213745504620246,0.014393955999926156,0.012154533899977386,-0.03367950990792193,0.005171061319990445
0.5625,-0.0012949723999960891,-0.7861819249999957,-0.001220021599996634,-2.3544248250000046,0.000130073577499902,1.5710431249999997,0.7858066750000006,0.04,0.03999996,-9.843594624999977,-0.013198904227467957,0.014808252249925817,0.012281402249977284,-0.03389759920533557,0.005224670299990401
0.5650000000000001,-0.0013168137799960723,-0.7862056099999957,-0.0012388204999966195,-2.354398530000005,0.0001306209049999016,1.5710443699999996,0.7858038100000005,0.04,0.0399999588,-9.843722049999977,-0.013184062950315668,0.015222548499925498,0.012408270599977185,-0.03411568850274923,0.00527827927999036
0.5675,-0.0013391666399957772,-0.7862299019999953,-0.0012580590249963658,-2.3543716000000052,0.0001311810704998942,1.5710456199999996,0.7858008650000006,0.04,0.039999957450000005,-9.843852599999975,-0.01316493223421767,0.015654118949915797,0.012536530949976327,-0.034335831180174275,0.005332460554990006
0.5700000000000001,-0.0013625424599957592,-0.7862554079999954,-0.0012781767999963502,-2.354343400000005,0.00013176691199989372,1.5710468799999997,0.7857977600000006,0.04,0.0399999558,-9.843989399999975,-0.013137222640221286,0.01612023779991544,0.012667575299976227,-0.03456008061762548,0.005387786419989963
0.5725,-0.00138591827999574,-0.7862809139999953,-0.001298294574996334,-2.354315200000005,0.00013235275349989325,1.5710481399999996,0.7857946550000006,0.04,0.03999995415,-9.844126199999975,-0.013109513046224904,0.016586356649915056,0.012798619649976119,-0.03478433005507666,0.005443112284989918
0.5750000000000001,-0.001409294099995722,-0.7863064199999953,-0.0013184123499963183,-2.354287000000005,0.0001329385949998928,1.5710493999999997,0.7857915500000006,0.04,0.039999952500000005,-9.844262999999975,-0.013081803452228521,0.017052475499914697,0.012929663999976018,-0.035008579492527864,0.005498438149989875
0.5775,-0.001432669919995703,-0.7863319259999954,-0.0013385301249963018,-2.354258800000005,0.0001335244364998923,1.5710506599999996,0.7857884450000006,0.04,0.03999995085,-9.844399799999975,-0.013054093858232139,0.017518594349914315,0.013060708349975912,-0.035232828929979046,0.00555376401498983
0.58,-0.0014560457399956839,-0.7863574319999953,-0.0013586478999962855,-2.354230600000005,0.00013411027799989183,1.5710519199999997,0.7857853400000006,0.04,0.0399999492,-9.844536599999975,-0.013026384264235757,0.017984713199913935,0.013191752699975804,-0.035457078367430235,0.005609089879989784
0.5825,-0.0014794215599956658,-0.7863829379999954,-0.00137876567499627,-2.354202400000005,0.00013469611949989136,1.5710531799999996,0.7857822350000006,0.04,0.03999994755,-9.844673399999975,-0.012998674670239373,0.018450832049913574,0.013322797049975703,-0.03568132780488143,0.005664415744989742
0.585,-0.0015038530799953518,-0.786409695999995,-0.001399790829996,-2.354172900000006,0.00013530830899988354,1.5710544499999997,0.7857790000000006,0.0399999988,0.0399999455,-9.84482299999997,-0.012968458700930892,0.01893916019990699,0.013456740149974786,-0.035909998789386624,0.005720757689989413
0.5875,-0.0015288124499953325,-0.7864370799999949,-0.0014212696749959833,-2.3541427500000056,0.00013593367249988304,1.5710557249999997,0.7857757000000006,0.039999997,0.03999994325,-9.84497899999997,-0.01293698954396531,0.019438592999906603,0.013592132624974681,-0.03614088054742068,0.005777607674989369
0.59,-0.0015537718199953121,-0.7864644639999949,-0.0014427485199959658,-2.3541126000000054,0.00013655903599988254,1.5710569999999997,0.7857724000000006,0.0399999952,0.039999941000000004,-9.84513499999997,-0.012905520386999731,0.019938025799906195,0.013727525099974571,-0.03637176230545472,0.005834457659989322
0.5925,-0.0015787311899952928,-0.7864918479999948,-0.0014642273649959493,-2.3540824500000057,0.00013718439949988206,1.5710582749999997,0.7857691000000006,0.0399999934,0.039999938750000005,-9.84529099999997,-0.01287405123003415,0.02043745859990581,0.013862917574974466,-0.036602644063488766,0.005891307644989278
0.595,-0.0016036905599952724,-0.7865192319999949,-0.0014857062099959317,-2.3540523000000055,0.00013780976299988156,1.5710595499999997,0.7857658000000006,0.0399999916,0.0399999365,-9.84544699999997,-0.01284258207306857,0.0209368913999054,0.013998310049974356,-0.03683352582152281,0.005948157629989232
0.5975,-0.0016286499299952531,-0.7865466159999948,-0.001507185054995915,-2.354022150000006,0.00013843512649988106,1.5710608249999998,0.7857625000000006,0.0399999898,0.03999993425,-9.84560299999997,-0.01281111291610299,0.021436324199905016,0.014133702524974251,-0.03706440757955686,0.006005007614989188
0.6,-0.0016536092999952328,-0.7865739999999948,-0.0015286638999958977,-2.3539920000000056,0.00013906048999988056,1.5710620999999998,0.7857592000000007,0.039999988,0.039999932,-9.845758999999969,-0.012779643759137411,0.021935756999904608,0.014269094999974141,-0.0372952893375909,0.006061857599989141
0.6025,-0.0016802008199949003,-0.7866033099999944,-0.001551545469995612,-2.353959705000006,0.00013972673299987224,1.5710633899999997,0.7857556900000007,0.0399999868,0.0399999302,-9.84591199999997,-0.012731396127501403,0.02247524654989654,0.014408556299973256,-0.03753296881909577,0.006120506054988753
0.605,-0.0017067923399948785,-0.7866326199999943,-0.0015744270399955932,-2.353927410000006,0.0001403929759998717,1.5710646799999997,0.7857521800000007,0.0399999856,0.0399999284,-9.84606499999997,-0.012683148495862193,0.0230147360998961,0.01454801759997314,-0.03777064830060192,0.006179154509988704
0.6075,-0.0017333838599948581,-0.7866619299999943,-0.0015973086099955755,-2.353895115000006,0.00014105921899987118,1.5710659699999998,0.7857486700000007,0.0399999844,0.0399999266,-9.84621799999997,-0.01263490086422298,0.02355422564989568,0.014687478899973034,-0.03800832778210809,0.006237802964988659
0.61,-0.0017599753799948364,-0.7866912399999942,-0.0016201901799955567,-2.3538628200000065,0.00014172546199987061,1.5710672599999997,0.7857451600000007,0.0399999832,0.0399999248,-9.84637099999997,-0.01258665323258377,0.02409371519989524,0.014826940199972919,-0.03824600726361425,0.006296451419988611
0.6125,-0.0017865668999948157,-0.7867205499999943,-0.001643071749995539,-2.3538305250000064,0.0001423917049998701,1.5710685499999997,0.7857416500000006,0.039999981999999996,0.039999923,-9.84652399999997,-0.012538405600944557,0.024633204749894826,0.01496640149997281,-0.03848368674512041,0.006355099874988566
0.615,-0.001813158419994794,-0.7867498599999942,-0.0016659533199955203,-2.3537982300000064,0.00014305794799986956,1.5710698399999996,0.7857381400000006,0.0399999808,0.0399999212,-9.84667699999997,-0.012490157969305346,0.025172694299894383,0.015105862799972697,-0.038721366226626565,0.006413748329988518
0.6175,-0.0018403098649944433,-0.7867798199999938,-0.001689316129995219,-2.353765195000007,0.00014373814849986082,1.5710711299999998,0.7857345500000007,0.039999979649999996,0.0399999195,-9.846824499999974,-0.012437401525688311,0.025725971499885838,0.015246669849971795,-0.03896117061371772,0.006472833834988215
0.62,-0.0018685811599944203,-0.7868110799999938,-0.0017136414199951991,-2.353730680000007,0.00014444626399986023,1.5710724199999997,0.7857308000000007,0.0399999786,0.039999918,-9.846960999999974,-0.012375627458107672,0.026306823999885362,0.015390168399971678,-0.03920522481198259,0.006532793439988166
0.6225,-0.0018968524549943984,-0.7868423399999938,-0.0017379667099951803,-2.353696165000007,0.0001451543794998597,1.5710737099999996,0.7857270500000008,0.039999977549999996,0.0399999165,-9.847097499999974,-0.01231385339052703,0.026887676499884914,0.015533666949971568,-0.03944927901024747,0.00659275304498812
0.625,-0.0019251237499943754,-0.7868735999999937,-0.0017622919999951603,-2.353661650000007,0.0001458624949998591,1.5710749999999998,0.7857233000000008,0.0399999765,0.039999915000000004,-9.847233999999974,-0.012252079322946391,0.027468528999884438,0.01567716549997145,-0.039693333208512344,0.006652712649988071
0.6275000000000001,-0.0019533950449943534,-0.7869048599999937,-0.0017866172899951415,-2.353627135000007,0.00014657061049985857,1.5710762899999997,0.7857195500000008,0.03999997545,0.0399999135,-9.847370499999974,-0.012190305255365748,0.02804938149988399,0.015820664049971338,-0.03993738740677723,0.006712672254988025
0.63,-0.0019816663399943304,-0.7869361199999937,-0.0018109425799951217,-2.353592620000007,0.00014727872599985798,1.5710775799999999,0.7857158000000007,0.0399999744,0.039999912,-9.847506999999974,-0.012128531187785108,0.028630233999883514,0.015964162599971223,-0.0401814416050421,0.006772631859987975
0.6325000000000001,-0.0020099376349943087,-0.7869673799999937,-0.0018352678699951029,-2.353558105000007,0.00014798684149985744,1.5710788699999998,0.7857120500000008,0.03999997335,0.0399999105,-9.847643499999974,-0.012066757120204467,0.029211086499883066,0.01610766114997111,-0.040425495803306975,0.006832591464987929
0.635,-0.0020393600999939364,-0.7870000099999932,-0.0018605824399947832,-2.3535221400000075,0.00014872371899984815,1.5710801499999998,0.7857081670000008,0.039999972700000004,0.0399999096,-9.847777849999973,-0.01200124798343945,0.029816471799875153,0.016253829599970186,-0.04067358411843484,0.006893560599987574
0.6375000000000001,-0.0020693581499939134,-0.7870333249999932,-0.0018863916499947632,-2.3534854500000075,0.00014947497749984756,1.5710814249999998,0.7857042175000009,0.03999997225,0.039999909,-9.847911124999973,-0.011933871312080546,0.030434123499874677,0.01640133299997007,-0.040923689491996026,0.006955034499987527
0.64,-0.0020993561999938888,-0.7870666399999932,-0.001912200859994742,-2.3534487600000076,0.00015022623599984694,1.5710826999999998,0.7857002680000008,0.0399999718,0.0399999084,-9.848044399999972,-0.011866494640721646,0.031051775199874173,0.01654883639996995,-0.04117379486555721,0.007016508399987477
0.6425,-0.002129354249993864,-0.7870999549999932,-0.001938010069994721,-2.353412070000007,0.00015097749449984635,1.5710839749999996,0.7856963185000008,0.03999997135,0.0399999078,-9.848177674999972,-0.011799117969362746,0.03166942689987367,0.01669633979996983,-0.04142390023911839,0.007077982299987426
0.645,-0.002159352299993841,-0.7871332699999931,-0.001963819279994701,-2.3533753800000072,0.00015172875299984575,1.5710852499999997,0.7856923690000008,0.0399999709,0.039999907200000004,-9.848310949999972,-0.011731741298003844,0.03228707859987319,0.016843843199969715,-0.04167400561267958,0.007139456199987379
0.6475,-0.0021893503499938165,-0.787166584999993,-0.00198962848999468,-2.3533386900000073,0.00015248001149984513,1.5710865249999997,0.7856884195000008,0.039999970450000005,0.0399999066,-9.848444224999971,-0.011664364626644944,0.03290473029987269,0.016991346599969596,-0.04192411098624076,0.007200930099987329
0.65,-0.002219348399993793,-0.7871998999999931,-0.00201543769999466,-2.3533020000000073,0.00015323126999984454,1.5710877999999997,0.7856844700000007,0.03999997,0.039999906,-9.848577499999971,-0.01159698795528604,0.03352238199987221,0.017138849999969483,-0.04217421635980195,0.007262403999987281
0.6525,-0.0022511190749934006,-0.7872352699999926,-0.0020427704449943224,-2.353263015000008,0.00015402683099983473,1.5710895699999996,0.7856802745000009,0.0399999694,0.039999905100000004,-9.848711374999972,-0.01151141165757458,0.034186747899862,0.017290144499968574,-0.042430405318683764,0.007325489289986896
0.655,-0.002282889749993376,-0.7872706399999926,-0.0020701031899943013,-2.3532240300000082,0.0001548223919998341,1.5710913399999995,0.7856760790000008,0.0399999688,0.0399999042,-9.848845249999972,-0.011425835359859353,0.034851113799861486,0.017441438999968455,-0.042686594277566846,0.007388574579986847
0.6575,-0.00231466042499335,-0.7873060099999926,-0.002097435934994279,-2.353185045000008,0.00015561795299983346,1.5710931099999996,0.7856718835000008,0.0399999682,0.0399999033,-9.848979124999971,-0.011340259062144127,0.03551547969986094,0.017592733499968333,-0.04294278323644992,0.0074516598699867955
0.66,-0.0023464310999933256,-0.7873413799999925,-0.002124768679994258,-2.3531460600000083,0.00015641351399983287,1.5710948799999995,0.7856676880000009,0.0399999676,0.0399999024,-9.849112999999972,-0.011254682764428899,0.03617984559986043,0.017744027999968215,-0.043198972195333,0.007514745159986747
0.6625,-0.0023782017749932995,-0.7873767499999925,-0.0021521014249942356,-2.3531070750000085,0.00015720907499983222,1.5710966499999997,0.7856634925000009,0.039999967,0.0399999015,-9.849246874999972,-0.011169106466713673,0.036844211499859884,0.017895322499968093,-0.04345516115421607,0.007577830449986695
0.665,-0.002409972449993275,-0.7874121199999925,-0.0021794341699942145,-2.3530680900000083,0.0001580046359998316,1.5710984199999996,0.7856592970000008,0.039999966399999996,0.0399999006,-9.849380749999971,-0.011083530168998445,0.03750857739985937,0.018046616999967974,-0.04371135011309915,0.0076409157399866465
0.6675,-0.002442349034992863,-0.787448187499992,-0.0022072876999938602,-2.353028370000009,0.0001588153164998213,1.5711002149999995,0.785655022500001,0.03999996635,0.0399999001,-9.849511749999973,-0.01099412348123465,0.03818306694985238,0.018199207299967025,-0.04396891966456595,0.007704475169986293
0.67,-0.002475937439992837,-0.7874856499999919,-0.002236182799993838,-2.352987180000009,0.00015965623599982067,1.5711020599999996,0.7856505900000009,0.039999967399999996,0.039999900399999996,-9.849636999999973,-0.0108970560133664,0.03887780379985184,0.018354389199966906,-0.04422925040120288,0.007768982879986243
0.6725,-0.0025095258449928095,-0.787523112499992,-0.002265077899993814,-2.352945990000009,0.00016049715549981998,1.5711039049999995,0.785646157500001,0.03999996845,0.0399999007,-9.849762249999973,-0.010799988545498155,0.03957254064985127,0.01850957109996678,-0.04448958113783979,0.00783349058998619
0.675,-0.0025431142499927834,-0.787560574999992,-0.0022939729999937922,-2.352904800000009,0.00016133807499981934,1.5711057499999996,0.785641725000001,0.039999969499999996,0.039999901,-9.849887499999973,-0.010702921077629905,0.040267277499850734,0.01866475299996666,-0.04474991187447672,0.00789799829998614
0.6775,-0.002576702654992756,-0.7875980374999919,-0.0023228680999937685,-2.352863610000009,0.00016217899449981864,1.5711075949999995,0.785637292500001,0.03999997055,0.039999901299999994,-9.850012749999973,-0.01060585360976166,0.04096201434985017,0.018819934899966532,-0.04501024261111363,0.007962506009986088
0.68,-0.0026102910599927302,-0.7876354999999919,-0.002351763199993746,-2.352822420000009,0.000163019913999818,1.5711094399999996,0.785632860000001,0.0399999716,0.0399999016,-9.850137999999973,-0.01050878614189341,0.041656751199849636,0.018975116799966413,-0.04527057334775055,0.008027013719986037
0.6825,-0.0026438794649927028,-0.7876729624999919,-0.0023806582999937225,-2.352781230000009,0.0001638608334998173,1.5711112849999995,0.7856284275000011,0.03999997265,0.039999901899999996,-9.850263249999973,-0.010411718674025164,0.04235148804984906,0.019130298699966287,-0.045530904084387466,0.008091521429985985
0.685,-0.002678709239992271,-0.7877118749999914,-0.0024106201799933514,-2.3527384800000095,0.00016473270299980654,1.5711131299999996,0.785623821000001,0.039999973700000004,0.039999902,-9.85039639999997,-0.010302254185105738,0.04308533779983574,0.01928798039996535,-0.045795464888156896,0.00815702699998561
0.6875,-0.0027141596999922415,-0.7877515124999913,-0.0024411154499933262,-2.3526949500000094,0.00016562004749980582,1.5711149749999995,0.7856191275000011,0.03999997475,0.039999902,-9.85053349999997,-0.010186591185654662,0.043838743999835124,0.01944691199996522,-0.04606214072549464,0.008223031499985555
0.6900000000000001,-0.0027496101599922143,-0.7877911499999913,-0.0024716107199933028,-2.3526514200000097,0.00016650739199980513,1.5711168199999996,0.7856144340000011,0.0399999758,0.039999902,-9.85067059999997,-0.010070928186203582,0.04459215019983454,0.019605843599965096,-0.046328816562832394,0.008289035999985504
0.6925,-0.0027850606199921854,-0.7878307874999912,-0.0025021059899932776,-2.3526078900000096,0.0001673947364998044,1.5711186649999997,0.7856097405000011,0.03999997685,0.039999902,-9.85080769999997,-0.009955265186752507,0.045345556399833925,0.019764775199964967,-0.046595492400170135,0.00835504049998545
0.6950000000000001,-0.002820511079992158,-0.7878704249999913,-0.002532601259993254,-2.3525643600000095,0.00016828208099980372,1.5711205099999996,0.7856050470000011,0.0399999779,0.039999902,-9.85094479999997,-0.009839602187301425,0.04609896259983334,0.019923706799964844,-0.046862168237507884,0.008421044999985399
0.6975,-0.002855961539992129,-0.7879100624999912,-0.0025630965299932294,-2.3525208300000098,0.000169169425499803,1.5711223549999997,0.7856003535000011,0.03999997895,0.039999902,-9.85108189999997,-0.00972393918785035,0.046852368799832726,0.020082638399964714,-0.04712884407484563,0.008487049499985345
0.7000000000000001,-0.0028914119999921017,-0.7879496999999911,-0.0025935917999932055,-2.3524773000000097,0.0001700567699998023,1.5711241999999996,0.785595660000001,0.03999998,0.039999902,-9.85121899999997,-0.009608276188399269,0.047605774999832144,0.02024156999996459,-0.04739551991218338,0.008553053999985294
0.7025,-0.0029287678499916466,-0.7879915394999906,-0.0026257245299928147,-2.3524314600000102,0.00017099162249979098,1.5711260599999997,0.7855907055000011,0.03999998,0.039999902,-9.85136074999997,-0.009488390665528108,0.048403351249821654,0.020404250399963623,-0.04766849447035638,0.008620291199984963
0.705,-0.002966123699991616,-0.7880333789999906,-0.002657857259992788,-2.3523856200000104,0.00017192647499979019,1.5711279199999997,0.7855857510000012,0.03999998,0.039999902,-9.851502499999969,-0.009368505142656006,0.049200927499821,0.02056693079996349,-0.047941469028530775,0.00868752839998491
0.7075,-0.003003479549991587,-0.7880752184999905,-0.0026899899899927634,-2.35233978000001,0.00017286132749978948,1.5711297799999997,0.7855807965000011,0.03999998,0.039999902,-9.851644249999968,-0.0092486196197839,0.049998503749820386,0.020729611199963364,-0.04821444358670519,0.008754765599984856
0.71,-0.0030408353999915563,-0.7881170579999905,-0.0027221227199927373,-2.3522939400000102,0.00017379617999978872,1.5711316399999997,0.7855758420000012,0.03999998,0.039999902,-9.851785999999969,-0.009128734096911797,0.050796079999819735,0.020892291599963232,-0.048487418144879585,0.008822002799984801
0.7125,-0.0030781912499915276,-0.7881588974999905,-0.0027542554499927125,-2.3522481000000104,0.00017473103249978798,1.5711334999999995,0.7855708875000011,0.03999998,0.039999902,-9.851927749999968,-0.00900884857403969,0.05159365624981912,0.021054971999963104,-0.04876039270305399,0.00888923999998475
0.715,-0.003115547099991497,-0.7882007369999905,-0.002786388179992686,-2.3522022600000105,0.00017566588499978722,1.5711353599999995,0.7855659330000012,0.03999998,0.039999902,-9.852069499999969,-0.008888963051167587,0.05239123249981847,0.021217652399962973,-0.04903336726122839,0.008956477199984695
0.7175,-0.0031535521299910236,-0.7882433254999899,-0.002819078884992279,-2.352155535000011,0.0001766169354997754,1.5711372199999996,0.7855608955000012,0.0399999802,0.039999901899999996,-9.85220939999997,-0.008762713521750716,0.053203964249807466,0.02138152594996203,-0.04930842760943947,0.009024176099984326
0.72,-0.0031928555199909913,-0.7882874119999899,-0.0028528855399922513,-2.352107040000011,0.0001776003819997746,1.5711390799999996,0.7855556920000012,0.0399999808,0.0399999016,-9.85234559999997,-0.008623735979231254,0.054047006999806774,0.021547785799961895,-0.04958765953772818,0.00909279839998427
0.7225,-0.003232158909990961,-0.7883314984999898,-0.0028866921949922252,-2.3520585450000113,0.00017858382849977384,1.5711409399999996,0.7855504885000012,0.0399999814,0.039999901299999994,-9.852481799999968,-0.008484758436711787,0.05489004974980612,0.021714045649961766,-0.0498668914660169,0.009161420699984218
0.725,-0.003271462299990929,-0.7883755849999898,-0.002920498849992198,-2.352010050000011,0.00017956727499977303,1.5711427999999996,0.7855452850000012,0.039999981999999996,0.039999901,-9.852617999999968,-0.008345780894192325,0.05573309249980543,0.02188030549996163,-0.05014612339430561,0.009230042999984162
0.7275,-0.0033107656899908984,-0.7884196714999898,-0.0029543055049921713,-2.3519615550000115,0.00018055072149977225,1.5711446599999994,0.7855400815000012,0.0399999826,0.0399999007,-9.852754199999968,-0.008206803351672858,0.05657613524980478,0.0220465653499615,-0.050425355322594324,0.009298665299984108
0.73,-0.0033500690799908666,-0.7884637579999898,-0.002988112159992144,-2.3519130600000113,0.00018153416799977144,1.5711465199999994,0.7855348780000012,0.0399999832,0.039999900399999996,-9.852890399999968,-0.008067825809153396,0.05741917799980409,0.022212825199961365,-0.05070458725088303,0.009367287599984052
0.7325,-0.003389372469990836,-0.7885078444999897,-0.003021918814992118,-2.3518645650000116,0.0001825176144997707,1.5711483799999995,0.7855296745000012,0.0399999838,0.0399999001,-9.853026599999968,-0.007928848266633927,0.05826222074980344,0.022379085049961236,-0.050983819179171753,0.009435909899984
0.735,-0.0034300019899903386,-0.7885534659999891,-0.0030568651599916902,-2.351814370000012,0.00018353412999975828,1.5711502999999996,0.7855243060000013,0.0399999846,0.0399999006,-9.853139199999976,-0.0077809814364073965,0.059136250499791876,0.022547666099960284,-0.05126642063253423,0.009505189699983712
0.7375,-0.0034712945749903064,-0.7885998549999891,-0.0030923813499916628,-2.3517633250000123,0.0001845671799997575,1.5711522499999995,0.7855188550000013,0.0399999855,0.0399999015,-9.853239999999976,-0.007628669962322654,0.06002577374979119,0.022717407749960155,-0.051550706848435386,0.00957479824998366
0.74,-0.003512587159990273,-0.7886462439999891,-0.0031278975399916336,-2.351712280000012,0.00018560022999975664,1.5711541999999994,0.7855134040000012,0.0399999864,0.0399999024,-9.853340799999977,-0.007476358488237919,0.060915296999790466,0.022887149399960015,-0.05183499306433653,0.009644406799983603
0.7425,-0.003553879744990241,-0.788692632999989,-0.003163413729991606,-2.3516612350000123,0.00018663327999975584,1.5711561499999995,0.7855079530000013,0.0399999873,0.0399999033,-9.853441599999977,-0.007324047014153176,0.061804820249789776,0.023056891049959886,-0.052119279280237685,0.009714015349983549
0.745,-0.0035951723299902072,-0.788739021999989,-0.0031989299199915774,-2.351610190000012,0.00018766632999975502,1.5711580999999994,0.7855025020000013,0.0399999882,0.0399999042,-9.853542399999977,-0.007171735540068441,0.06269434349978906,0.023226632699959747,-0.05240356549613883,0.009783623899983492
0.7475,-0.0036364649149901755,-0.7887854109999889,-0.00323444610999155,-2.3515591450000124,0.00018869937999975423,1.5711600499999996,0.7854970510000012,0.0399999891,0.039999905100000004,-9.853643199999976,-0.007019424065983698,0.06358386674978836,0.023396374349959614,-0.05268785171203998,0.009853232449983438
0.75,-0.0036777574999901416,-0.7888317999999889,-0.0032699622999915207,-2.351508100000012,0.00018973242999975338,1.5711619999999995,0.7854916000000013,0.03999999,0.039999906,-9.853743999999976,-0.006867112591898963,0.06447338999978763,0.02356611599995948,-0.05297213792794113,0.009922840999983381
0.7525000000000001,-0.0037210796749896236,-0.7888805349999883,-0.0033072227499910756,-2.351454610000013,0.00019081608699974046,1.5711643399999995,0.7854858850000014,0.03999999,0.039999905100000004,-9.853849899999975,-0.006695091351907846,0.06541341824977485,0.02373926654995853,-0.05326167456798767,0.009993737599983019
0.755,-0.0037644018499895884,-0.7889292699999882,-0.003344483199991045,-2.351401120000013,0.00019189974399973957,1.5711666799999995,0.7854801700000014,0.03999999,0.0399999042,-9.853955799999975,-0.0065230701119120315,0.06635344649977408,0.023912417099958387,-0.05355121120803545,0.010064634199982962
0.7575000000000001,-0.003807724024989555,-0.7889780049999883,-0.0033817436499910163,-2.351347630000013,0.00019298340099973874,1.5711690199999995,0.7854744550000013,0.03999999,0.0399999033,-9.854061699999974,-0.00635104887191621,0.06729347474977336,0.024085567649958253,-0.05384074784808325,0.010135530799982907
0.76,-0.003851046199989519,-0.7890267399999882,-0.0034190040999909858,-2.351294140000013,0.00019406705799973785,1.5711713599999995,0.7854687400000013,0.03999999,0.0399999024,-9.854167599999975,-0.0061790276319203955,0.06823350299977259,0.02425871819995811,-0.05413028448813103,0.010206427399982848
0.7625000000000001,-0.0038943683749894857,-0.7890754749999882,-0.003456264549990957,-2.3512406500000127,0.000195150714999737,1.5711736999999995,0.7854630250000014,0.03999999,0.0399999015,-9.854273499999975,-0.006007006391924573,0.06917353124977185,0.024431868749957977,-0.05441982112817883,0.010277323999982794
0.765,-0.0039376905499894505,-0.7891242099999882,-0.0034935249999909265,-2.3511871600000127,0.0001962343719997361,1.5711760399999994,0.7854573100000014,0.03999999,0.0399999006,-9.854379399999974,-0.005834985151928759,0.07011355949977109,0.024605019299957835,-0.054709357768226614,0.010348220599982735
0.7675000000000001,-0.003981702449988912,-0.7891737249999876,-0.0035313782149904633,-2.3511328250000134,0.00019733524499972267,1.5711784049999993,0.7854515030000014,0.03999999,0.03999989975,-9.85449224999997,-0.005661114957226907,0.07106691499976059,0.0247792616499569,-0.05500034242861236,0.01041948664998241
0.77,-0.0040270937999888744,-0.7892247999999875,-0.0035704169599904316,-2.3510768000000137,0.00019847054999972173,1.5711808199999995,0.7854455120000015,0.03999999,0.039999899,-9.85461899999997,-0.005483546853108942,0.07204692499975979,0.02495568759995676,-0.05529422312967719,0.01049149159998235
0.7725,-0.004072485149988837,-0.7892758749999875,-0.0036094557049903995,-2.3510207750000136,0.0001996058549997208,1.5711832349999995,0.7854395210000015,0.03999999,0.03999989825,-9.854745749999969,-0.005305978748990977,0.073026934999759,0.025132113549956613,-0.05558810383074201,0.010563496549982293
0.775,-0.0041178764999888024,-0.7893269499999874,-0.003648494449990369,-2.350964750000014,0.00020074115999971993,1.5711856499999994,0.7854335300000015,0.03999999,0.0399998975,-9.854872499999969,-0.005128410644873005,0.07400694499975824,0.025308539499956477,-0.05588198453180685,0.010635501499982236
0.7775,-0.004163267849988765,-0.7893780249999873,-0.0036875331949903375,-2.350908725000014,0.000201876464999719,1.5711880649999994,0.7854275390000015,0.03999999,0.03999989675,-9.854999249999969,-0.004950842540755039,0.07498695499975744,0.02548496544995633,-0.05617586523287168,0.010707506449982179
0.78,-0.0042086591999887304,-0.7894290999999873,-0.003726571939990307,-2.350852700000014,0.0002030117699997181,1.5711904799999994,0.7854215480000014,0.03999999,0.039999896,-9.855125999999968,-0.004773274436637067,0.07596696499975668,0.025661391399956195,-0.05646974593393651,0.010779511399982122
0.7825,-0.004254050549988693,-0.7894801749999872,-0.0037656106849902754,-2.350796675000014,0.0002041470749997172,1.5711928949999994,0.7854155570000014,0.03999999,0.03999989525,-9.855252749999968,-0.004595706332519102,0.07694697499975588,0.025837817349956053,-0.05676362663500134,0.010851516349982064
0.785,-0.0043008470999881315,-0.7895328799999867,-0.0038058570399897925,-2.350738800000015,0.00020531744099970317,1.5711953199999995,0.7854093840000015,0.0399999905,0.039999895,-9.855379199999968,-0.004403948411395098,0.07796502899974087,0.02601644059995509,-0.057061442732736,0.010924231799981742
0.7875,-0.004348346249988093,-0.7895863999999866,-0.003846707199989759,-2.3506800000000148,0.0002065053374997022,1.5711977499999994,0.7854031200000016,0.03999999125,0.039999895,-9.855505499999968,-0.004205095581760125,0.07900210499974002,0.026196162499954944,-0.05736122652880777,0.010997302499981683
0.79,-0.0043958453999880555,-0.7896399199999865,-0.003887557359989728,-2.3506212000000146,0.0002076932339997013,1.5712001799999993,0.7853968560000015,0.039999992,0.039999895,-9.85563179999997,-0.0040062427521251436,0.08003918099973922,0.026375884399954808,-0.05766101032487955,0.011070373199981626
0.7925,-0.004443344549988017,-0.7896934399999864,-0.003928407519989695,-2.350562400000015,0.00020888113049970033,1.5712026099999994,0.7853905920000015,0.039999992750000005,0.039999895,-9.855758099999969,-0.0038073899224901715,0.08107625699973837,0.02655560629995466,-0.05796079412095133,0.011143443899981566
0.795,-0.00449084369998798,-0.7897469599999865,-0.003969257679989663,-2.350503600000015,0.00021006902699969942,1.5712050399999993,0.7853843280000016,0.039999993500000004,0.039999895,-9.855884399999969,-0.00360853709285519,0.08211333299973757,0.02673532819995452,-0.05826057791702311,0.01121651459998151
0.7975,-0.004538342849987941,-0.7898004799999864,-0.00401010783998963,-2.3504448000000147,0.00021125692349969842,1.5712074699999994,0.7853780640000015,0.039999994250000004,0.039999895,-9.856010699999969,-0.0034096842632202174,0.08315040899973672,0.026915050099954374,-0.05856036171309488,0.01128958529998145
0.8,-0.004585841999987904,-0.7898539999999863,-0.004050957999989598,-2.350386000000015,0.0002124448199996975,1.5712098999999993,0.7853718000000015,0.039999995,0.039999895,-9.856136999999968,-0.0032108314335852362,0.08418748499973593,0.027094771999954234,-0.05886014550916666,0.011362655999981394
0.8025,-0.004635486359987318,-0.7899099949999856,-0.0040936519899890935,-2.3503246200000154,0.00021368625149968286,1.5712123299999994,0.7853652450000016,0.039999995,0.0399998938,-9.856224149999978,-0.002997838053906706,0.0852792817497211,0.027277635499953285,-0.059164553321820204,0.011436824849981053
0.805,-0.004685130719987279,-0.7899659899999856,-0.004136345979989061,-2.3502632400000154,0.00021492768299968191,1.5712147599999993,0.7853586900000017,0.039999995,0.0399998926,-9.856311299999978,-0.0027848446742245654,0.08637107849972026,0.027460498999953144,-0.05946896113447494,0.011510993699980996
0.8075,-0.004734775079987238,-0.7900219849999855,-0.004179039969989026,-2.350201860000016,0.0002161691144996809,1.5712171899999994,0.7853521350000017,0.039999995,0.0399998914,-9.856398449999977,-0.0025718512945424347,0.08746287524971937,0.027643362499952993,-0.05977336894712966,0.011585162549980935
0.81,-0.0047844194399872,-0.7900779799999855,-0.004221733959988993,-2.350140480000016,0.00021741054599967992,1.5712196199999995,0.7853455800000017,0.039999995,0.0399998902,-9.856485599999978,-0.002358857914860294,0.08855467199971852,0.027826225999952853,-0.060077776759784395,0.011659331399980878
0.8125,-0.004834063799987159,-0.7901339749999855,-0.004264427949988958,-2.350079100000016,0.0002186519774996789,1.5712220499999994,0.7853390250000016,0.039999995,0.039999889,-9.856572749999978,-0.002145864535178163,0.08964646874971763,0.028009089499952705,-0.060382184572439115,0.011733500249980816
0.8150000000000001,-0.004883708159987121,-0.7901899699999855,-0.004307121939988925,-2.350017720000016,0.00021989340899967796,1.5712244799999995,0.7853324700000017,0.039999995,0.0399998878,-9.856659899999977,-0.0019328711554960226,0.09073826549971678,0.02819195299995256,-0.06068659238509385,0.01180766909998076
0.8175,-0.004934079944986513,-0.7902467849999848,-0.004350441069988402,-2.3499554350000165,0.00022115299199966277,1.5712269099999994,0.7853258165000018,0.039999994750000004,0.03999988665,-9.85675849999997,-0.0017131161876629453,0.09184858874970142,0.028375854199951603,-0.060993053950288506,0.011882120699980478
0.8200000000000001,-0.004985906579986473,-0.7903052399999847,-0.004395010479988367,-2.3498913400000165,0.00022244887799966175,1.5712293399999995,0.7853189660000017,0.039999994000000004,0.0399998856,-9.856879999999968,-0.0014798380435121455,0.09299596499970054,0.02856183079995146,-0.06130362302056786,0.01195713779998042
0.8225,-0.0050377332149864305,-0.7903636949999847,-0.004439579889988331,-2.3498272450000166,0.0002237447639996607,1.5712317699999994,0.7853121155000018,0.039999993250000004,0.039999884549999996,-9.857001499999969,-0.0012465598993613562,0.0941433412496996,0.02874780739995131,-0.061614192090847196,0.012032154899980359
0.8250000000000001,-0.005089559849986391,-0.7904221499999846,-0.004484149299988296,-2.3497631500000167,0.0002250406499996597,1.5712341999999995,0.7853052650000018,0.039999992500000005,0.0399998835,-9.85712299999997,-0.0010132817552105564,0.09529071749969871,0.028933783999951165,-0.061924761161126544,0.012107171999980302
0.8275,-0.005141386484986348,-0.7904806049999846,-0.00452871870998826,-2.3496990550000167,0.00022633653599965863,1.5712366299999994,0.7852984145000018,0.03999999175,0.03999988245,-9.857244499999968,-0.0007800036110597671,0.09643809374969778,0.02911976059995101,-0.06223533023140588,0.01218218909998024
0.8300000000000001,-0.005193213119986308,-0.7905390599999845,-0.004573288119988225,-2.3496349600000173,0.00022763242199965765,1.5712390599999995,0.7852915640000018,0.039999991,0.0399998814,-9.857365999999969,-0.0005467254669089673,0.09758546999969689,0.029305737199950867,-0.06254589930168523,0.012257206199980183
0.8325,-0.005245039754986266,-0.7905975149999845,-0.004617857529988189,-2.3495708650000173,0.00022892830799965658,1.5712414899999994,0.7852847135000018,0.03999999025,0.03999988035,-9.857487499999968,-0.00031344732275817794,0.09873284624969594,0.029491713799950716,-0.06285646837196457,0.012332223299980122
0.835,-0.005298344769985634,-0.7906576599999838,-0.0046636974999876455,-2.349504870000018,0.00023026107499964083,1.5712441999999993,0.7852776740000019,0.03999999,0.0399998796,-9.85760039999997,-7.50072301074068e-05,0.09990775749968403,0.02967973109994975,-0.06317066401234801,0.012407839099979822
0.8375,-0.005352388974985593,-0.7907186499999838,-0.00471017274998761,-2.349437925000018,0.00023161228249963977,1.5712470499999993,0.7852705400000018,0.03999999,0.039999879,-9.857708999999971,0.00016601383679644695,0.10109643624968312,0.029868768749949603,-0.0634866729377857,0.012483754249979762
0.84,-0.005406433179985549,-0.7907796399999837,-0.004756647999987572,-2.349370980000018,0.00023296348999963867,1.5712498999999993,0.7852634060000019,0.03999999,0.0399998784,-9.85781759999997,0.00040703490370028997,0.10228511499968214,0.03005780639994945,-0.06380268186322338,0.0125596693999797
0.8425,-0.005460477384985506,-0.7908406299999837,-0.004803123249987536,-2.349304035000018,0.00023431469749963764,1.5712527499999993,0.7852562720000019,0.03999999,0.0399998778,-9.857926199999971,0.0006480559706041436,0.10347379374968123,0.030246844049949304,-0.06411869078866106,0.012635584549979642
0.845,-0.005514521589985462,-0.7909016199999837,-0.0048495984999874986,-2.349237090000018,0.00023566590499963654,1.5712555999999993,0.785249138000002,0.03999999,0.0399998772,-9.85803479999997,0.0008890770375079867,0.10466247249968025,0.03043588169994915,-0.06443469971409874,0.012711499699979579
0.8475,-0.0055685657949854205,-0.7909626099999836,-0.004896073749987463,-2.349170145000018,0.0002370171124996355,1.5712584499999993,0.785242004000002,0.03999999,0.0399998766,-9.858143399999971,0.0011300981044118405,0.10585115124967934,0.030624919349949004,-0.06475070863953643,0.01278741484997952
