rsonawane2002/My_IMU/logs_2/traj_266/imu_266.csv
time,j1,j2,j3,j4,j5,j6,j7,gripper1,gripper2,imu_ax,imu_ay,imu_az,imu_gx,imu_gy,imu_gz
166.7833333333582,0.00016700293,-0.785875,4.0107683e-05,-2.3551247,9.29385e-05,1.570997,0.786,0.04,0.04,-9.5494,-0.03463124856352806,0.086103015,-3.1451762e-08,-0.001164127024821937,1.1148396e-06
166.80000000002488,0.00016699889,-0.78576016,4.0108323e-05,-2.3552213,9.29743e-05,1.5709941,0.786,0.04,0.04,-9.834421,0.0006251708837226033,0.009072582,6.0777046e-07,-0.002239849651232362,1.264266e-06
166.81666666669156,0.00016694683,-0.7856543,4.0065057e-05,-2.35531,9.300912e-05,1.5709913,0.786,0.04,0.04,-9.832615,0.0005178546416573226,0.0075312173,4.8295324e-06,-0.0032357301097363234,3.5710455e-06
166.83333333335824,0.00016676556,-0.78555703,3.9906106e-05,-2.355391,9.304457e-05,1.5709884,0.786,0.04,0.04,-9.831114,0.0003291384782642126,0.0061065,1.6389518e-05,-0.004166730213910341,8.917622e-06
166.85000000002492,0.00016633686,-0.7854678,3.95285e-05,-2.3554645,9.309551e-05,1.5709856,0.786,0.04,0.039999995,-9.829835,6.086588837206364e-05,0.0047699283,3.841527e-05,-0.005042064469307661,1.9385618e-05
166.8666666666916,0.0001655095,-0.78538626,3.880106e-05,-2.3555312,9.314355e-05,1.5709827,0.786,0.04,0.04,-9.828689,-0.0002909568138420582,0.0035195816,7.3139534e-05,-0.0058685303665697575,3.3851382e-05
166.88333333335828,0.00016410215,-0.785312,3.756709e-05,-2.3555906,9.320588e-05,1.5709798,0.786,0.04,0.04,-9.827883,-0.0006926741334609687,0.0023467215,0.00012358106,-0.006659524980932474,5.5766952e-05
166.90000000002496,0.00016190698,-0.7852448,3.564729e-05,-2.3556461,9.328831e-05,1.5709796,0.786,0.04,0.04,-9.827136,-0.0011590898502618074,0.0012448635,0.00019164624,-0.007418524939566851,8.5281834e-05
166.91666666669164,0.00015869222,-0.78518414,3.284208e-05,-2.3556962,9.339683e-05,1.5709795,0.786,0.04,0.04,-9.82691,-0.0016636913642287254,0.00018445123,0.0002789685,-0.00815611518919468,0.00012325846
166.93333333335832,0.00015420487,-0.7851302,2.8933748e-05,-2.355739,9.3538394e-05,1.5709795,0.786,0.04,0.04,-9.8267565,-0.0022170552983880043,-0.0007885969,0.0003875,-0.008885265327990055,0.00017046719
166.950000000025,0.0001481734,-0.7850827,2.368904e-05,-2.3557754,9.370472e-05,1.5709796,0.78599924,0.03999999,0.03999999,-9.82648,-0.002802920527756214,-0.0016361389,0.00051869603,-0.0096034100279212,0.00022790507
166.96666666669168,0.00014030962,-0.78504163,1.6860013e-05,-2.355807,9.391658e-05,1.57098,0.78599733,0.039999988,0.039999988,-9.826377,-0.0034170858561992645,-0.0024213246,0.0006770605,-0.010316872037947178,0.00029534948
166.98333333335836,0.0001303107,-0.78500706,8.186792e-06,-2.3558338,9.418205e-05,1.5709804,0.7859954,0.03999998,0.039999977,-9.8266945,-0.004040018189698458,-0.0031005687,0.00086559355,-0.011042406782507896,0.00037493164
167.00000000002504,0.00011786134,-0.7849789,-2.6015089e-06,-2.3558533,9.450859e-05,1.5709809,0.7859935,0.039999973,0.039999966,-9.827101,-0.0046865083277225494,-0.003706975,0.0010796739,-0.011783457361161709,0.00046600946
167.01666666669172,0.000102635364,-0.78495735,-1.5784744e-05,-2.3558657,9.490372e-05,1.5709815,0.7859916,0.039999966,0.039999958,-9.827314,-0.005353929940611124,-0.0042247577,0.0013203156,-0.012534447945654392,0.00056810846
167.0333333333584,8.429728e-05,-0.7849424,-3.1651107e-05,-2.355872,9.537651e-05,1.5709821,0.7859897,0.039999966,0.039999958,-9.827628,-0.006012239493429661,-0.0046338597,0.0015878065,-0.013299995101988316,0.00068242115
167.05000000002508,6.2503655e-05,-0.7849343,-5.0495197e-05,-2.355872,9.593535e-05,1.5709827,0.78598607,0.03999997,0.03999996,-9.828168,-0.006662997882813215,-0.004927726,0.0018828672,-0.014088980853557587,0.0008092277
167.06666666669176,3.6904414e-05,-0.78493303,-7.261743e-05,-2.355865,9.658936e-05,1.5709835,0.78598225,0.03999997,0.039999958,-9.828814,-0.007311562541872263,-0.0051158024,0.0022134928,-0.014905187301337719,0.0009495944
167.08333333335844,7.1443624e-06,-0.78493893,-9.832283e-05,-2.3558512,9.7346725e-05,1.5709844,0.78597844,0.03999997,0.039999958,-9.829499,-0.007962984032928944,-0.00520768,0.0025730508,-0.015750527381896973,0.0011020129
167.10000000002512,-2.7136126e-05,-0.7849522,-0.00012791986,-2.3558297,9.8217e-05,1.5709852,0.7859746,0.039999973,0.03999996,-9.830236,-0.008579228073358536,-0.0051619723,0.0029607995,-0.016627544537186623,0.0012674715
167.1166666666918,-6.629982e-05,-0.78497297,-0.00016171983,-2.3558004,9.920934e-05,1.5709862,0.7859689,0.039999977,0.03999996,-9.830945,-0.009161594323813915,-0.0049702036,0.0033767668,-0.01753661409020424,0.0014469308
167.13333333335848,-0.00011071157,-0.7850016,-0.00020003578,-2.3557632,0.00010033219,1.5709871,0.7859632,0.03999998,0.039999966,-9.831745,-0.00975332036614418,-0.004674864,0.0038299283,-0.018479758873581886,0.0016387003
167.15000000002516,-0.00016073794,-0.78503853,-0.00024318243,-2.3557172,0.0001015954,1.570988,0.7859566,0.039999977,0.039999958,-9.832606,-0.010291431099176407,-0.004212982,0.004310805,-0.01946096308529377,0.0018445736
167.16666666669184,-0.00021674589,-0.78508365,-0.0002914746,-2.3556623,0.00010300779,1.570989,0.785949,0.03999998,0.03999996,-9.833395,-0.010796365328133106,-0.003577518,0.004823548,-0.020477071404457092,0.0020627985
167.18333333335852,-0.00027910247,-0.78513753,-0.00034522728,-2.3555987,0.000104577695,1.5709925,0.78594124,0.039999977,0.039999954,-9.834329,-0.011276550590991974,-0.0028186142,0.0053687743,-0.021534333005547523,0.0022949628
167.2000000000252,-0.00034817398,-0.7852005,-0.00040475497,-2.3555257,0.00010631715,1.5709968,0.7859317,0.039999984,0.03999996,-9.835182,-0.011710929684340954,-0.0019212598,0.005941802,-0.0226198248565197,0.0025395672
167.21666666669188,-0.0004243252,-0.78527254,-0.0004703707,-2.355443,0.000108230466,1.5710012,0.78592205,0.039999984,0.03999996,-9.836151,-0.012110648676753044,-0.00079145934,0.0065502063,-0.023744594305753708,0.0027961272
167.23333333335856,-0.00050791947,-0.78535426,-0.0005423864,-2.35535,0.000110332105,1.5710056,0.7859106,0.039999988,0.03999996,-9.837074,-0.012415912002325058,0.00052156486,0.0071858536,-0.024910911917686462,0.0030683065
167.25000000002524,-0.00059931737,-0.7854459,-0.0006211114,-2.3552465,0.000112626956,1.5710102,0.78589875,0.03999999,0.039999966,-9.838047,-0.012732703238725662,0.0020419713,0.007855516,-0.02611919865012169,0.0033506632
167.26666666669192,-0.0006988769,-0.7855477,-0.000706853,-2.3551316,0.00011512702,1.5710149,0.7858854,0.039999988,0.039999954,-9.839017,-0.012947467155754566,0.0037580403,0.008553116,-0.027370139956474304,0.0036482415
167.2833333333586,-0.0008069521,-0.7856601,-0.00079991575,-2.3550062,0.000117840274,1.5710196,0.7858711,0.039999995,0.039999958,-9.839955,-0.013118513859808445,0.005669606,0.009282712,-0.028662730008363724,0.0039582555
167.30000000002528,-0.00092389464,-0.78578323,-0.0009006008,-2.3548682,0.000120773504,1.5710244,0.7858558,0.04,0.03999996,-9.840995,-0.013226752169430256,0.007821575,0.010041568,-0.030001655220985413,0.0042788256
167.31666666669196,-0.0010500513,-0.7859176,-0.0010092064,-2.3547187,0.00012393609,1.5710292,0.7858389,0.04,0.03999996,-9.841903,-0.013288969174027443,0.010153852,0.010828733,-0.03138123080134392,0.004612014
167.33333333335864,-0.0011857655,-0.7860635,-0.0011260271,-2.3545563,0.00012733694,1.5710369,0.785821,0.04,0.039999966,-9.8429575,-0.01327311061322689,0.012736771,0.0116470605,-0.03280715271830559,0.0049566254
167.35000000002532,-0.0013313747,-0.7862214,-0.0012513531,-2.354381,0.00013098579,1.5710452,0.7858019,0.04,0.039999958,-9.843807,-0.013174168765544891,0.015498746,0.0124928495,-0.034261081367731094,0.0053140186
167.366666666692,-0.0014872135,-0.78639144,-0.0013854716,-2.354193,0.0001348914,1.5710536,0.7857812,0.04,0.039999947,-9.844719,-0.012989438138902187,0.018606205,0.0133664785,-0.035756077617406845,0.0056828577
167.38333333335868,-0.0016536093,-0.786574,-0.0015286639,-2.353992,0.00013906049,1.5710621,0.7857592,0.039999988,0.039999932,-9.845759,-0.012779643759131432,0.021935757,0.014269095,-0.03729528933763504,0.0060618576
167.40000000002536,-0.0018308861,-0.7867694,-0.0016812077,-2.3537767,0.00014350211,1.5710707,0.7857358,0.03999998,0.03999992,-9.846779,-0.012457992881536484,0.025532354,0.015198837,-0.038879819214344025,0.0064528473
167.41666666669204,-0.0020193614,-0.7869778,-0.0018433763,-2.3535466,0.00014822288,1.5710793,0.7857108,0.039999973,0.03999991,-9.847689,-0.012046165764331818,0.029404704,0.016155494,-0.04050684720277786,0.006852578
167.43333333335872,-0.0022193484,-0.7871999,-0.0020154377,-2.353302,0.00015323127,1.5710878,0.78568447,0.03999997,0.039999906,-9.8485775,-0.011596987955272198,0.033522382,0.01713885,-0.042174216359853745,0.007262404
167.4500000000254,-0.0024311529,-0.7874357,-0.002197656,-2.3530421,0.00015853501,1.5710996,0.7856565,0.039999966,0.0399999,-9.84947,-0.011026479303836823,0.037951488,0.01814748,-0.04388214275240898,0.0076829726
167.46666666669208,-0.0026550756,-0.78768545,-0.00239029,-2.3527675,0.00016414114,1.5711119,0.78562695,0.039999973,0.039999902,-9.850305,-0.010379362851381302,0.042583067,0.019182026,-0.04561768099665642,0.008113024
167.48333333335876,-0.002891412,-0.7879497,-0.0025935918,-2.3524773,0.00017005677,1.5711242,0.78559566,0.03999998,0.039999902,-9.851219,-0.009608276188373566,0.047605775,0.02024157,-0.04739551991224289,0.008553054
167.50000000002544,-0.003140451,-0.78822863,-0.00280781,-2.3521717,0.00017628912,1.5711366,0.78556263,0.03999998,0.039999902,-9.852164,-0.008809039369225502,0.05292295,0.021326106,-0.049215350300073624,0.009001302
167.51666666669212,-0.0034024736,-0.78852254,-0.0030331877,-2.3518484,0.00018284543,1.571149,0.78552794,0.039999984,0.0399999,-9.853072,-0.00788252241909504,0.058543235,0.022434505,-0.051076896488666534,0.009458784
167.5333333333588,-0.0036777575,-0.7888318,-0.0032699623,-2.3515081,0.00018973243,1.571162,0.7854916,0.03999999,0.039999906,-9.853744,-0.0068671125918626785,0.06447339,0.023566116,-0.05297213792800903,0.009922841
167.55000000002548,-0.003966572,-0.7891567,-0.0035183653,-2.3511515,0.00019695681,1.5711776,0.7854535,0.03999999,0.0399999,-9.85445,-0.005720304325222969,0.070740245,0.024720453,-0.05490238219499588,0.010395485
167.56666666669216,-0.004269181,-0.7894972,-0.0037786236,-2.350778,0.00020452551,1.5711937,0.78541356,0.03999999,0.039999895,-9.855295,-0.004536516964435577,0.077273645,0.025896626,-0.05686158686876297,0.010875518
167.58333333335884,-0.004585842,-0.789854,-0.004050958,-2.350386,0.00021244482,1.5712099,0.7853718,0.039999995,0.039999895,-9.856137,-0.003210831433534622,0.084187485,0.027094772,-0.05886014550924301,0.011362656
167.60000000002552,-0.0049168044,-0.7902273,-0.0043355846,-2.3499768,0.00022072103,1.5712261,0.7853281,0.039999995,0.039999887,-9.856718,-0.001790875568985939,0.09146613,0.028313862,-0.060889530926942825,0.011857115
167.6166666666922,-0.0052623153,-0.790617,-0.004632714,-2.3495495,0.00022936027,1.5712423,0.78528243,0.03999999,0.03999988,-9.857528,-0.00023568794131278992,0.099115305,0.029553706,-0.06295999139547348,0.012357229
167.63333333335888,-0.00562261,-0.7910236,-0.004942549,-2.3491032,0.00023836832,1.5712613,0.78523487,0.03999999,0.039999876,-9.858252,0.0013711191713809967,0.10703983,0.030813957,-0.06506671756505966,0.01286333
167.65000000002556,-0.005997921,-0.7914475,-0.0052652895,-2.3486388,0.00024775107,1.5712812,0.78518534,0.039999984,0.039999865,-9.858803,0.0031056851148605347,0.11530154,0.032093346,-0.06719398498535156,0.013374755
167.66666666669224,-0.0063884715,-0.79188895,-0.0056011267,-2.3481545,0.00025751436,1.5713012,0.78513384,0.039999973,0.03999985,-9.859413,0.004989307373762131,0.12399386,0.033391643,-0.06935325264930725,0.01389133
167.68333333335892,-0.0067944815,-0.7923477,-0.005950252,-2.347651,0.000267664,1.5713212,0.7850803,0.03999995,0.03999982,-9.859958,0.006921406835317612,0.13305761,0.03470805,-0.0715416967868805,0.014413437
167.7000000000256,-0.0072161616,-0.7928247,-0.0063128443,-2.347129,0.00027820477,1.5713422,0.7850247,0.039999943,0.03999981,-9.86054,0.008994385600090027,0.14247012,0.036042094,-0.0737648457288742,0.014938987
167.71666666669228,-0.007653716,-0.7933196,-0.0066890805,-2.3465865,0.00028914178,1.5713654,0.784967,0.039999936,0.039999798,-9.861181,0.011189091950654984,0.15227908,0.037393536,-0.07601955533027649,0.015469314
167.73333333335896,-0.008107342,-0.7938328,-0.0070791305,-2.3460238,0.00030047938,1.5713891,0.7849071,0.03999992,0.039999776,-9.861485,0.013523608446121216,0.16242011,0.038761433,-0.0782928615808487,0.016002152
167.75000000002564,-0.008577234,-0.79436445,-0.0074831606,-2.3454413,0.0003122229,1.5714129,0.7848451,0.039999902,0.039999753,-9.861971,0.015907373279333115,0.17298214,0.040145803,-0.08059375733137131,0.016538057
167.76666666669232,-0.009063576,-0.79491484,-0.007901329,-2.3448381,0.00032437692,1.5714368,0.7847809,0.039999887,0.039999735,-9.862436,0.018451131880283356,0.1839469,0.041545603,-0.08292602747678757,0.01707665
167.783333333359,-0.00956655,-0.7954842,-0.008333791,-2.3442142,0.00033694613,1.5714625,0.7847145,0.03999987,0.03999971,-9.862809,0.021115317940711975,0.19530432,0.042960007,-0.0852871835231781,0.017618334
167.80000000002568,-0.0100863185,-0.79607254,-0.008780695,-2.3435695,0.00034993415,1.5714898,0.7846459,0.03999985,0.039999686,-9.863021,0.023928672075271606,0.20704198,0.044389214,-0.08766663819551468,0.018160982
167.81666666669236,-0.010623058,-0.7966802,-0.00924218,-2.3429036,0.00036334526,1.5715175,0.7845751,0.039999835,0.039999664,-9.863391,0.026799190789461136,0.21915989,0.04583186,-0.0900692269206047,0.018705666
167.83333333335904,-0.0111769205,-0.79730725,-0.009718385,-2.3422165,0.0003771834,1.5715451,0.784502,0.03999982,0.039999645,-9.863624,0.02982516586780548,0.23173168,0.04728772,-0.09249626100063324,0.019250583
167.85000000002572,-0.0117480615,-0.79795414,-0.010209438,-2.341508,0.00039145225,1.571574,0.7844267,0.03999981,0.039999627,-9.86382,0.032979875802993774,0.24470282,0.04875635,-0.09494909644126892,0.019796902
167.8666666666924,-0.012336628,-0.7986209,-0.010715469,-2.340778,0.0004061552,1.5716045,0.784349,0.039999794,0.039999608,-9.863902,0.03629302605986595,0.25810787,0.050236713,-0.09742195904254913,0.020342458
167.88333333335908,-0.0129427565,-0.7993074,-0.011236598,-2.340026,0.0004212961,1.5716358,0.78426903,0.039999776,0.039999582,-9.864079,0.03965900465846062,0.27186942,0.051728882,-0.09991355985403061,0.0208886
167.90000000002576,-0.013566584,-0.80001426,-0.01177294,-2.339252,0.000436878,1.5716673,0.78418666,0.039999757,0.03999956,-9.864053,0.04318791627883911,0.28608236,0.053231914,-0.10242289304733276,0.02143302
167.91666666669244,-0.014208235,-0.80074126,-0.012324607,-2.338456,0.0004529042,1.5716997,0.78410196,0.039999735,0.03999953,-9.864005,0.046889640390872955,0.30076978,0.05474568,-0.10495505481958389,0.021977266
167.93333333335912,-0.014867832,-0.80148864,-0.012891698,-2.3376377,0.00046937753,1.5717337,0.78401506,0.039999716,0.039999507,-9.8639965,0.05063927173614502,0.31580845,0.056269113,-0.10750513523817062,0.022519028
167.9500000000258,-0.0155454865,-0.8022565,-0.013474314,-2.336797,0.0004863012,1.5717689,0.78392565,0.039999694,0.039999478,-9.863872,0.05456826090812683,0.33128756,0.057801034,-0.11007063090801239,0.02305973
167.96666666669248,-0.016241314,-0.8030451,-0.014072547,-2.3359334,0.00050367735,1.5718042,0.78383386,0.039999664,0.039999444,-9.863668,0.058614570647478104,0.3472088,0.059342217,-0.11265169829130173,0.02359716
167.98333333335916,-0.016955407,-0.8038543,-0.014686487,-2.3350468,0.00052150886,1.5718403,0.7837397,0.039999634,0.039999407,-9.863343,0.06284132599830627,0.36360297,0.06089154,-0.11525043845176697,0.024132507
168.00000000002584,-0.017687872,-0.80468446,-0.015316215,-2.3341384,0.0005397977,1.571878,0.783643,0.03999961,0.03999938,-9.863001,0.06711912155151367,0.38037357,0.062448394,-0.11786207556724548,0.02466382
168.01666666669252,-0.018438792,-0.8055356,-0.015961807,-2.3332064,0.0005585465,1.5719168,0.78354394,0.039999582,0.039999343,-9.862741,0.07158267498016357,0.39760578,0.064012684,-0.12049050629138947,0.02519242
168.0333333333592,-0.019208258,-0.8064078,-0.01662334,-2.332251,0.00057775714,1.5719558,0.7834425,0.039999552,0.03999931,-9.862193,0.07616208493709564,0.4152741,0.0655834,-0.12312722206115723,0.025716776
168.05000000002588,-0.01999634,-0.8073011,-0.017300883,-2.3312724,0.00059743156,1.5719957,0.78333855,0.039999522,0.039999273,-9.861562,0.08092319965362549,0.43342686,0.06715948,-0.12577925622463226,0.026235959
168.06666666669256,-0.020803109,-0.8082155,-0.017994488,-2.3302705,0.0006175718,1.5720371,0.7832321,0.039999485,0.03999923,-9.860995,0.0857519805431366,0.4519612,0.068741605,-0.1284417361021042,0.026751138
168.08333333335923,-0.021628631,-0.80915123,-0.018704213,-2.3292458,0.00063817925,1.5720795,0.78312325,0.039999455,0.039999194,-9.860294,0.09074442833662033,0.4709435,0.07032857,-0.13111357390880585,0.027260277
168.10000000002591,-0.022472968,-0.8101084,-0.019430118,-2.3281982,0.0006592556,1.5721223,0.78301185,0.039999437,0.03999917,-9.859584,0.09588202834129333,0.4904065,0.07191963,-0.13379693031311035,0.027764415
168.1166666666926,-0.023336174,-0.8110869,-0.020172242,-2.327127,0.00068080134,1.5721663,0.782898,0.039999403,0.03999913,-9.858749,0.10119110345840454,0.51033384,0.073514916,-0.13649483025074005,0.028261881
168.13333333335927,-0.024218302,-0.812087,-0.020930642,-2.3260324,0.00070281886,1.5722115,0.7827816,0.039999377,0.039999098,-9.8578415,0.10656706988811493,0.5306331,0.07511339,-0.1391996294260025,0.028753763
168.15000000002595,-0.025119394,-0.8131085,-0.021705335,-2.324914,0.0007253084,1.5722578,0.78266275,0.039999343,0.03999906,-9.856801,0.11211328953504562,0.55142385,0.076714896,-0.14191076159477234,0.029237907
168.16666666669263,-0.026039468,-0.81415147,-0.022496363,-2.323772,0.0007482717,1.5723044,0.78254133,0.039999302,0.039999012,-9.855585,0.11785072833299637,0.57266736,0.078318425,-0.1446278691291809,0.029715762
168.18333333335931,-0.02697858,-0.81521606,-0.02330375,-2.3226063,0.00077170855,1.5723523,0.7824175,0.03999926,0.039998967,-9.85445,0.12363965064287186,0.59432983,0.07992395,-0.14735423028469086,0.030185277
168.200000000026,-0.02793675,-0.81630236,-0.024127528,-2.321417,0.0007956198,1.5724014,0.7822911,0.039999213,0.039998915,-9.853135,0.1296108514070511,0.6164628,0.08153038,-0.15008564293384552,0.030646876
168.21666666669267,-0.028913988,-0.8174103,-0.024967697,-2.3202043,0.0008200072,1.5724515,0.78216225,0.039999172,0.039998867,-9.851712,0.13572728633880615,0.63904953,0.08313771,-0.15282025933265686,0.031100977
168.23333333335935,-0.029910315,-0.8185398,-0.025824279,-2.3189685,0.0008448691,1.5725019,0.78203094,0.039999116,0.039998807,-9.850144,0.1420169472694397,0.6620958,0.08474506,-0.15556035935878754,0.031545747
168.25000000002603,-0.030925741,-0.81969106,-0.026697287,-2.3177085,0.0008702072,1.5725538,0.781897,0.03999906,0.039998744,-9.848664,0.14837950468063354,0.6855638,0.08635162,-0.15830940008163452,0.031982463
168.26666666669271,-0.031960275,-0.82086396,-0.027586713,-2.3164244,0.00089602114,1.5726068,0.78176063,0.03999902,0.039998695,-9.846865,0.15492115914821625,0.70947397,0.08795794,-0.16105736792087555,0.032409843
168.2833333333594,-0.0330139,-0.82205856,-0.028492562,-2.3151164,0.0009223102,1.5726607,0.7816217,0.03999896,0.039998636,-9.844908,0.16160069406032562,0.7338482,0.08956261,-0.16380348801612854,0.03282667
168.30000000002607,-0.034086626,-0.82327485,-0.029414836,-2.313785,0.0009490747,1.572715,0.78148025,0.039998904,0.039998572,-9.842885,0.16846342384815216,0.7586947,0.091165856,-0.16655181348323822,0.03323356
168.31666666669275,-0.03517843,-0.8245127,-0.030353518,-2.3124306,0.0009763148,1.572771,0.78133625,0.03999884,0.039998505,-9.840909,0.17540068924427032,0.783968,0.09276653,-0.16930526494979858,0.033631016
168.33333333335943,-0.03628931,-0.82577235,-0.03130858,-2.3110528,0.0010040292,1.5728279,0.78118974,0.03999878,0.03999844,-9.838712,0.18250598013401031,0.80965585,0.09436459,-0.17205780744552612,0.034017064
168.3500000000261,-0.037419222,-0.8270535,-0.03228002,-2.309651,0.0010322175,1.5728856,0.7810408,0.03999872,0.039998375,-9.83638,0.18975989520549774,0.83582556,0.09595943,-0.17480938136577606,0.034392368
168.3666666666928,-0.038568135,-0.82835627,-0.033267807,-2.3082244,0.0010608793,1.5729443,0.78088933,0.039998654,0.039998304,-9.833806,0.19720785319805145,0.86244524,0.09754998,-0.17756034433841705,0.03475713
168.38333333335947,-0.03973603,-0.8296807,-0.03427192,-2.3067744,0.0010900144,1.5730041,0.78073525,0.039998587,0.03999823,-9.831113,0.20470017194747925,0.88948184,0.09913651,-0.18030479550361633,0.035110414
168.40000000002615,-0.040922858,-0.83102643,-0.035292316,-2.3053012,0.001119621,1.5730648,0.78057873,0.039998543,0.039998177,-9.82831,0.21238595247268677,0.91698605,0.10071877,-0.1830444037914276,0.03545109
168.41666666669283,-0.04212859,-0.8323938,-0.03632896,-2.3038049,0.0011496977,1.5731262,0.7804197,0.039998483,0.03999811,-9.825376,0.22025512158870697,0.944927,0.10229569,-0.18578287959098816,0.035779797
168.4333333333595,-0.04335317,-0.8337828,-0.037381817,-2.3022852,0.0011802439,1.5731888,0.7802582,0.03999842,0.039998047,-9.822416,0.22819310426712036,0.9732844,0.10386687,-0.18851926922798157,0.036097147
168.4500000000262,-0.044596538,-0.83519274,-0.038450837,-2.3007414,0.0012112581,1.5732524,0.7800941,0.03999835,0.03999797,-9.8192005,0.23631200194358826,1.0021057,0.10543179,-0.1912497878074646,0.03640164
168.46666666669287,-0.045858655,-0.8366238,-0.039535977,-2.2991748,0.0012427391,1.5733169,0.7799277,0.03999828,0.039997898,-9.815746,0.24456632137298584,1.0313172,0.106990755,-0.19397246837615967,0.036692757
168.48333333335955,-0.047139455,-0.8380762,-0.04063718,-2.2975848,0.0012746848,1.573382,0.7797588,0.03999821,0.03999782,-9.812237,0.2530132830142975,1.0609888,0.1085418,-0.19669294357299805,0.036970872
168.50000000002623,-0.04843886,-0.8395497,-0.041754395,-2.2959716,0.001307094,1.5734488,0.77958745,0.039998144,0.039997745,-9.808535,0.26152193546295166,1.0910923,0.1100854,-0.19940577447414398,0.037236404
168.5166666666929,-0.049756806,-0.8410444,-0.04288755,-2.2943356,0.0013399645,1.5735162,0.77941364,0.039998073,0.03999767,-9.8046665,0.27021536231040955,1.1215887,0.111620866,-0.20210829377174377,0.037487768
168.5333333333596,-0.051093206,-0.84256005,-0.044036586,-2.2926767,0.0013732944,1.5735844,0.77923745,0.039998,0.03999759,-9.800614,0.2790466547012329,1.1525601,0.11314792,-0.20480306446552277,0.037726052
168.55000000002627,-0.052447997,-0.8440966,-0.045201425,-2.2909954,0.0014070817,1.5736532,0.7790587,0.03999793,0.039997514,-9.796351,0.2880588471889496,1.1839492,0.11466594,-0.20749089121818542,0.03794974
168.56666666669295,-0.053821083,-0.8456539,-0.046382,-2.289291,0.0014413251,1.5737238,0.77887756,0.03999787,0.039997447,-9.792097,0.297150194644928,1.215725,0.11617524,-0.21017411351203918,0.038160346
168.58333333335963,-0.055212364,-0.8472319,-0.04757825,-2.287564,0.0014760211,1.5737951,0.778694,0.03999781,0.039997384,-9.787384,0.3064032793045044,1.247896,0.11767442,-0.21283964812755585,0.03835562
168.6000000000263,-0.05662176,-0.84883046,-0.048790075,-2.2858145,0.0015111675,1.5738671,0.778508,0.03999774,0.03999731,-9.782682,0.3158128261566162,1.2805192,0.119163714,-0.2154979258775711,0.038537264
168.616666666693,-0.058049172,-0.8504493,-0.050017398,-2.2840426,0.001546763,1.5739396,0.7783197,0.039997667,0.03999723,-9.777603,0.3253912329673767,1.313555,0.120642036,-0.2181442677974701,0.038703453
168.63333333335967,-0.0594945,-0.85208875,-0.051260114,-2.2822483,0.0015828036,1.5740137,0.77812916,0.039997596,0.039997153,-9.772534,0.33504581451416016,1.3469555,0.122108996,-0.22078269720077515,0.038855966
168.65000000002635,-0.060957626,-0.85374826,-0.05251815,-2.2804317,0.0016192873,1.5740887,0.7779363,0.03999752,0.03999707,-9.767106,0.344866007566452,1.3807714,0.123564295,-0.22340328991413116,0.038993444
168.66666666669303,-0.06243844,-0.855428,-0.053791404,-2.2785933,0.001656211,1.5741644,0.777741,0.03999745,0.039996997,-9.761451,0.35486388206481934,1.4150101,0.12500755,-0.2260105013847351,0.03911496
168.6833333333597,-0.06393684,-0.85712755,-0.055079777,-2.2767336,0.0016935716,1.5742406,0.7775434,0.039997377,0.03999692,-9.755736,0.36493414640426636,1.4496223,0.12643838,-0.2286057472229004,0.039221387
168.7000000000264,-0.06545269,-0.858847,-0.05638316,-2.2748516,0.001731367,1.5743182,0.7773436,0.039997306,0.039996844,-9.749835,0.37518805265426636,1.4846175,0.12785637,-0.2311924248933792,0.039312877
168.71666666669307,-0.066985875,-0.86058635,-0.057701454,-2.2729487,0.001769594,1.5743967,0.77714145,0.03999723,0.03999676,-9.743499,0.3855758011341095,1.5199853,0.12926088,-0.23375765979290009,0.039389566
168.73333333335975,-0.06853626,-0.86234516,-0.05903455,-2.2710242,0.0018082487,1.5744759,0.776937,0.03999716,0.039996687,-9.737088,0.3961259722709656,1.5557914,0.13065195,-0.23631088435649872,0.039449982
168.75000000002643,-0.07010371,-0.8641232,-0.060382336,-2.2690785,0.0018473287,1.5745556,0.77673036,0.039997097,0.03999662,-9.730401,0.4067493677139282,1.5919024,0.13202922,-0.2388470321893692,0.03949589
168.7666666666931,-0.07168811,-0.8659206,-0.061744682,-2.2671115,0.0018868297,1.5746365,0.7765214,0.03999703,0.039996546,-9.723555,0.4175426661968231,1.6284117,0.13339199,-0.2413698434829712,0.039525114
168.7833333333598,-0.0732893,-0.8677371,-0.0631215,-2.2651236,0.0019267491,1.5747187,0.7763102,0.03999696,0.03999647,-9.716371,0.4284844994544983,1.6652858,0.13473997,-0.24387343227863312,0.039539706
168.80000000002647,-0.07490716,-0.8695726,-0.064512625,-2.2631152,0.0019670827,1.5748016,0.77609676,0.03999689,0.039996393,-9.708931,0.4395712912082672,1.7025328,0.13607325,-0.24635688960552216,0.039537504
168.81666666669315,-0.076541536,-0.871427,-0.065917976,-2.2610862,0.0020078279,1.5748848,0.7758811,0.03999682,0.03999632,-9.701352,0.4507586359977722,1.7401232,0.13739066,-0.24882307648658752,0.03952141
168.83333333335983,-0.07819225,-0.87329996,-0.06733739,-2.2590365,0.0020489786,1.5749687,0.77566344,0.039996747,0.03999624,-9.693496,0.46207869052886963,1.7780995,0.1386924,-0.25127264857292175,0.039487787
168.8500000000265,-0.07985915,-0.8751912,-0.06877074,-2.2569675,0.0020905316,1.5750542,0.7754436,0.039996672,0.039996162,-9.685327,0.4735458493232727,1.8163835,0.13997737,-0.25370192527770996,0.039438378
168.8666666666932,-0.08154215,-0.8771008,-0.07021789,-2.2548778,0.002132485,1.5751406,0.7752217,0.039996605,0.039996088,-9.676988,0.4851798713207245,1.8550211,0.1412458,-0.25611263513565063,0.039374076
168.88333333335987,-0.08324099,-0.87902844,-0.07167871,-2.2527683,0.0021748329,1.5752274,0.77499765,0.039996527,0.039996006,-9.66832,0.4968775808811188,1.8939614,0.14249684,-0.25849902629852295,0.03929319
168.90000000002655,-0.08495559,-0.88097394,-0.073153086,-2.25064,0.002217572,1.5753146,0.7747715,0.039996453,0.039995924,-9.659389,0.5087395310401917,1.9332788,0.14373079,-0.26086512207984924,0.03919732
168.91666666669323,-0.08668572,-0.88293725,-0.07464081,-2.2484922,0.0022606975,1.5754029,0.7745433,0.039996386,0.039995853,-9.650304,0.5207575559616089,1.9729337,0.1449468,-0.26321712136268616,0.03908483
168.9333333333599,-0.08843123,-0.884918,-0.07614179,-2.2463248,0.0023042061,1.5754924,0.77431303,0.039996315,0.03999578,-9.640879,0.5328335165977478,2.012849,0.14614518,-0.2655446231365204,0.03895684
168.9500000000266,-0.090191945,-0.88691604,-0.07765584,-2.2441387,0.002348093,1.5755827,0.7740809,0.039996237,0.039995693,-9.631077,0.5450953841209412,2.0530732,0.14732483,-0.26784414052963257,0.03881372
168.96666666669327,-0.091967694,-0.88893116,-0.07918282,-2.2419336,0.0023923528,1.5756735,0.77384657,0.039996162,0.039995614,-9.621141,0.5574431419372559,2.0936375,0.14848551,-0.27012309432029724,0.038654283
168.98333333335995,-0.0937583,-0.8909633,-0.08072261,-2.2397103,0.0024369818,1.5757647,0.77361035,0.039996088,0.039995536,-9.610762,0.5699754357337952,2.1345253,0.14962767,-0.2723786532878876,0.03847937
169.00000000002663,-0.09556354,-0.8930119,-0.082274996,-2.2374692,0.0024819763,1.5758569,0.7733723,0.039996006,0.03999545,-9.600307,0.5825674533843994,2.1756697,0.15074997,-0.27461275458335876,0.038288966
169.0166666666933,-0.09738328,-0.8950771,-0.08383985,-2.235209,0.00252733,1.57595,0.7731323,0.03999592,0.039995357,-9.58952,0.5953088998794556,2.2170846,0.15185247,-0.27682411670684814,0.038084112
169.03333333336,-0.09921733,-0.8971585,-0.08541701,-2.232932,0.0025730396,1.576044,0.77289045,0.03999584,0.039995275,-9.578188,0.6081617474555969,2.2587996,0.15293482,-0.2790028750896454,0.037862994
169.05000000002667,-0.10106544,-0.89925593,-0.08700627,-2.2306368,0.0026190996,1.5761384,0.77264667,0.039995756,0.039995186,-9.5668955,0.6211758852005005,2.3008082,0.15399636,-0.28116318583488464,0.037627008
169.06666666669335,-0.10292743,-0.9013693,-0.088607475,-2.2283244,0.0026655043,1.5762333,0.772401,0.03999567,0.039995097,-9.555121,0.6342411637306213,2.3430436,0.15503803,-0.2832954227924347,0.037375744
169.08333333336003,-0.10480314,-0.90349823,-0.0902205,-2.2259958,0.00271225,1.576329,0.77215356,0.039995592,0.039995015,-9.543094,0.6474565267562866,2.385568,0.1560593,-0.2854017913341522,0.03710971
169.1000000000267,-0.10669235,-0.90564287,-0.091845155,-2.22365,0.002759331,1.5764258,0.7719045,0.03999551,0.03999493,-9.530844,0.660793125629425,2.4283404,0.15705866,-0.28748440742492676,0.036828745
169.1166666666934,-0.10859484,-0.9078026,-0.0934812,-2.2212873,0.0028067427,1.5765232,0.77165365,0.039995417,0.03999483,-9.51806,0.6742621064186096,2.4713862,0.1580361,-0.2895348370075226,0.036533963
169.13333333336007,-0.110510424,-0.909977,-0.095128514,-2.2189083,0.0028544785,1.5766212,0.77140087,0.039995342,0.039994754,-9.505122,0.6877812147140503,2.5146265,0.15899207,-0.2915568947792053,0.036223028
169.15000000002675,-0.11243887,-0.9121664,-0.09678693,-2.2165136,0.0029025348,1.5767194,0.7711466,0.039995264,0.03999467,-9.491902,0.7014622092247009,2.5581,0.15992671,-0.2935531437397003,0.035899553
169.16666666669343,-0.114379995,-0.91437006,-0.09845626,-2.214103,0.0029509054,1.5768182,0.77089053,0.03999518,0.039994583,-9.47829,0.7152696251869202,2.6018674,0.16083817,-0.2955232858657837,0.035560198
169.1833333333601,-0.11633354,-0.916588,-0.10013625,-2.2116768,0.0029995858,1.5769181,0.77063286,0.039995093,0.039994493,-9.464385,0.72913658618927,2.6457534,0.16172755,-0.2974625527858734,0.035207838
169.2000000000268,-0.11829932,-0.9188199,-0.10182679,-2.2092357,0.0030485701,1.5770187,0.7703735,0.039995007,0.039994404,-9.450191,0.743120551109314,2.689898,0.16259433,-0.29937171936035156,0.034841437
169.21666666669347,-0.120277084,-0.92106545,-0.10352765,-2.2067797,0.0030978525,1.5771201,0.77011263,0.03999492,0.039994314,-9.43565,0.7572294473648071,2.7342474,0.1634383,-0.3012511432170868,0.03446173
169.23333333336015,-0.122266665,-0.92332447,-0.105238646,-2.2043087,0.0031474268,1.5772219,0.7698502,0.039994847,0.039994236,-9.420723,0.7714465856552124,2.7787895,0.16425906,-0.303099125623703,0.034068637
169.25000000002683,-0.1242678,-0.9255968,-0.106959626,-2.2018235,0.003197288,1.577324,0.76958627,0.03999477,0.039994154,-9.405576,0.7857366800308228,2.8235106,0.16505641,-0.3049173355102539,0.033662464
169.2666666666935,-0.12628026,-0.9278819,-0.108690344,-2.1993246,0.0032474312,1.5774266,0.76932085,0.03999469,0.039994072,-9.3900385,0.8001445531845093,2.868409,0.16582973,-0.3067048192024231,0.033243373
169.2833333333602,-0.12830381,-0.93017995,-0.11043059,-2.1968112,0.00329785,1.5775299,0.76905394,0.03999461,0.03999399,-9.374269,0.8146504759788513,2.9134798,0.16657913,-0.30846455693244934,0.032810938
169.30000000002687,-0.13033828,-0.9324903,-0.11218021,-2.1942847,0.0033485396,1.577634,0.76878554,0.039994534,0.039993912,-9.357914,0.8292554020881653,2.9587529,0.16730508,-0.31018689274787903,0.032366645
169.31666666669355,-0.13238338,-0.93481266,-0.11393896,-2.1917446,0.0033994925,1.5777386,0.7685158,0.039994456,0.03999383,-9.341518,0.8439522385597229,3.004126,0.16800657,-0.31187960505485535,0.031910256
169.33333333336023,-0.13443884,-0.9371469,-0.11570667,-2.1891916,0.0034507052,1.5778439,0.7682446,0.039994385,0.039993756,-9.3246,0.8587310910224915,3.0496516,0.16868372,-0.3135377764701843,0.03144218
169.3500000000269,-0.13650443,-0.9394929,-0.11748312,-2.1866257,0.0035021687,1.5779495,0.7679721,0.0399943,0.03999367,-9.307456,0.8736050128936768,3.0953276,0.1693367,-0.3151637613773346,0.030961387
169.3666666666936,-0.13857996,-0.9418504,-0.119268104,-2.184048,0.003553879,1.5780555,0.7676982,0.03999422,0.039993588,-9.289802,0.8885873556137085,3.141183,0.16996525,-0.31675437092781067,0.030470036
169.38333333336027,-0.14066517,-0.94421864,-0.121061444,-2.1814582,0.00360583,1.578162,0.7674233,0.039994143,0.039993506,-9.272043,0.9036396741867065,3.1871216,0.17056914,-0.3183141052722931,0.029967519
169.40000000002695,-0.1427598,-0.94659793,-0.1228629,-2.1788566,0.0036580155,1.5782691,0.7671469,0.039994072,0.03999343,-9.253874,0.918775737285614,3.2331326,0.171147,-0.3198413848876953,0.029454641
169.41666666669363,-0.1448636,-0.9489878,-0.12467226,-2.1762428,0.003710429,1.5783768,0.76686925,0.039993994,0.039993353,-9.235229,0.9340115189552307,3.2793307,0.17170072,-0.32133156061172485,0.028929872
169.4333333333603,-0.14697635,-0.95138776,-0.12648931,-2.1736183,0.0037630652,1.578485,0.76659054,0.039993927,0.039993282,-9.216287,0.9493074417114258,3.3255703,0.17222972,-0.3227831721305847,0.028395794
169.450000000027,-0.14909779,-0.9537978,-0.12831384,-2.170983,0.0038159161,1.5785935,0.7663107,0.039993845,0.0399932,-9.197102,0.964697003364563,3.3719218,0.17273265,-0.32420092821121216,0.027851155
169.46666666669367,-0.15122761,-0.9562177,-0.13014564,-2.168337,0.003868977,1.5787024,0.7660298,0.039993774,0.039993126,-9.177571,0.9801570177078247,3.4183676,0.17321008,-0.3255857825279236,0.027297407
169.48333333336035,-0.15336566,-0.9586467,-0.13198447,-2.1656811,0.0039222413,1.5788116,0.7657477,0.039993703,0.03999305,-9.157543,0.995708703994751,3.4649074,0.17366245,-0.3269316852092743,0.026734257
169.50000000002703,-0.1555117,-0.9610849,-0.13383016,-2.1630147,0.0039757024,1.5789212,0.76546454,0.039993636,0.039992984,-9.137381,1.0113096237182617,3.5114539,0.17408863,-0.32824456691741943,0.026161656
169.5166666666937,-0.1576654,-0.96353173,-0.13568239,-2.160339,0.0040293536,1.5790312,0.76518047,0.03999357,0.039992914,-9.116699,1.0270042419433594,3.5580807,0.17448957,-0.32951799035072327,0.025581129
169.5333333333604,-0.15982646,-0.9659871,-0.13754101,-2.1576545,0.0040831887,1.5791414,0.76489526,0.039993495,0.03999284,-9.09583,1.0427478551864624,3.6047707,0.1748644,-0.330757737159729,0.024991669
169.55000000002707,-0.16199471,-0.96845067,-0.13940582,-2.1549606,0.0041372036,1.5792522,0.7646093,0.039993428,0.03999277,-9.074547,1.0585827827453613,3.6514919,0.17521445,-0.33196234703063965,0.024395017
169.56666666669375,-0.16416985,-0.9709222,-0.14127655,-2.1522582,0.0041913884,1.5793637,0.7643223,0.039993357,0.039992698,-9.0529,1.074458360671997,3.6982224,0.17553766,-0.3331255316734314,0.023789654
169.58333333336043,-0.16635162,-0.9734016,-0.14315309,-2.1495476,0.0042457394,1.5794754,0.7640345,0.03999329,0.039992627,-9.030913,1.0904121398925781,3.7450056,0.17583546,-0.3342498540878296,0.023178028
169.6000000000271,-0.1685398,-0.97588813,-0.14503504,-2.1468291,0.0043002455,1.5795875,0.76374584,0.039993223,0.03999256,-9.008638,1.106432557106018,3.791824,0.17610635,-0.3353377878665924,0.02255817
169.6166666666938,-0.17073405,-0.978382,-0.14692226,-2.144103,0.0043549035,1.5796998,0.76345634,0.039993152,0.03999249,-8.985998,1.1225067377090454,3.8386176,0.17635182,-0.33638840913772583,0.021932853
169.63333333336047,-0.17293417,-0.9808825,-0.14881451,-2.1413696,0.0044097085,1.5798123,0.76316607,0.03999308,0.039992414,-8.963024,1.1386146545410156,3.8854365,0.1765718,-0.3373994529247284,0.02130016
169.65000000002715,-0.17513989,-0.9833895,-0.15071157,-2.138629,0.004464652,1.5799251,0.7628751,0.03999302,0.039992355,-8.939685,1.1548032760620117,3.9322176,0.17676552,-0.3383714556694031,0.020661453
169.66666666669383,-0.17735088,-0.9859029,-0.1526132,-2.1358814,0.004519727,1.5800382,0.76258343,0.03999296,0.03999229,-8.916021,1.1710333824157715,3.9790032,0.1769331,-0.33930477499961853,0.02001744
169.6833333333605,-0.17956693,-0.9884218,-0.1545192,-2.1331284,0.0045749275,1.5801517,0.76229095,0.0399929,0.03999223,-8.891956,1.1873250007629395,4.0257797,0.17707467,-0.3401942551136017,0.019368557
169.7000000000272,-0.18178776,-0.9909464,-0.15642928,-2.1303692,0.0046302443,1.5802654,0.7619979,0.039992847,0.039992176,-8.867832,1.2036480903625488,4.072458,0.17719077,-0.3410509526729584,0.018714312
169.71666666669387,-0.18401308,-0.99347603,-0.15834332,-2.1276035,0.004685674,1.5803791,0.7617044,0.039992783,0.039992113,-8.8431,1.2200169563293457,4.1191387,0.17728119,-0.3418639600276947,0.018055486
169.73333333336055,-0.18624267,-0.99601066,-0.16026092,-2.1248329,0.00474121,1.580493,0.7614102,0.03999273,0.03999206,-8.818075,1.236449956893921,4.1657567,0.17734405,-0.342637300491333,0.017392507
169.75000000002723,-0.18847623,-0.99855006,-0.16218196,-2.122058,0.0047968435,1.5806069,0.76111555,0.039992675,0.039992,-8.792815,1.252884864807129,4.21233,0.17738262,-0.3433702886104584,0.01672556
169.7666666666939,-0.19071338,-1.0010935,-0.16410615,-2.119277,0.0048525687,1.5807213,0.7608203,0.039992627,0.039991952,-8.767294,1.2693995237350464,4.2588406,0.17739438,-0.34406664967536926,0.016056381
169.7833333333606,-0.19295394,-1.0036412,-0.16603325,-2.1164927,0.0049083787,1.5808358,0.76052475,0.039992586,0.03999191,-8.741206,1.2859153747558594,4.305221,0.17738165,-0.34471574425697327,0.015382947
169.80000000002727,-0.19519775,-1.0061923,-0.16796309,-2.1137033,0.004964265,1.5809507,0.7602286,0.039992545,0.039991867,-8.715064,1.3024721145629883,4.3516097,0.17734262,-0.3453283905982971,0.014706748
169.81666666669395,-0.1974444,-1.0087469,-0.16989541,-2.110912,0.0050202236,1.5810658,0.7599321,0.03999251,0.039991833,-8.68836,1.3190762996673584,4.39781,0.17727886,-0.3458932042121887,0.014029295
169.83333333336063,-0.19969359,-1.011305,-0.17182992,-2.1081161,0.005076246,1.5811808,0.7596352,0.039992463,0.039991785,-8.661751,1.3356943130493164,4.443985,0.17718875,-0.3464263081550598,0.013349226
169.8500000000273,-0.20194513,-1.0138654,-0.1737665,-2.1053174,0.005132325,1.581296,0.7593382,0.039992422,0.039991744,-8.634288,1.3523424863815308,4.4900684,0.17707448,-0.34690797328948975,0.012666905
169.866666666694,-0.20419875,-1.0164285,-0.1757048,-2.1025171,0.005188458,1.5814112,0.759041,0.039992392,0.03999171,-8.60691,1.3690263032913208,4.5359507,0.17693327,-0.3473523259162903,0.011984554
169.88333333336067,-0.2064541,-1.0189935,-0.17764466,-2.0997138,0.0052446336,1.5815268,0.75874346,0.039992366,0.039991684,-8.579253,1.3857179880142212,4.581803,0.17676663,-0.34775838255882263,0.011300295
169.90000000002735,-0.20871094,-1.0215603,-0.17958575,-2.0969083,0.0053008446,1.5816423,0.7584457,0.03999234,0.03999166,-8.551066,1.4024337530136108,4.6274366,0.17657502,-0.34811797738075256,0.010615658
169.91666666669403,-0.210969,-1.0241287,-0.1815279,-2.094101,0.005357086,1.5817579,0.75814766,0.039992318,0.039991636,-8.522699,1.4191505908966064,4.672994,0.17635939,-0.3484359383583069,0.009930871
169.9333333333607,-0.21322793,-1.0266984,-0.18347088,-2.0912936,0.005413351,1.5818735,0.7578496,0.039992295,0.039991617,-8.493962,1.4358950853347778,4.718384,0.1761191,-0.3487080931663513,0.009245327
169.9500000000274,-0.21548757,-1.0292689,-0.18541437,-2.0884857,0.0054696323,1.5819892,0.7575515,0.039992273,0.039991595,-8.46521,1.4526547193527222,4.7636456,0.1758539,-0.34894540905952454,0.008561068
169.96666666669407,-0.21774755,-1.0318398,-0.18735819,-2.0856774,0.005525923,1.5821048,0.75725335,0.039992254,0.039991576,-8.436056,1.4694225788116455,4.8087177,0.17556381,-0.34914132952690125,0.007877966
169.98333333336075,-0.22000764,-1.0344112,-0.1893021,-2.082869,0.005582216,1.5822204,0.7569552,0.039992224,0.039991546,-8.40653,1.4861829280853271,4.8536263,0.17524965,-0.34929367899894714,0.0071959156
170.00000000002743,-0.22226757,-1.0369825,-0.19124585,-2.0800607,0.005638504,1.5823361,0.75665706,0.0399922,0.03999152,-8.376867,1.5029631853103638,4.898357,0.17491126,-0.34940627217292786,0.006515462
170.0166666666941,-0.224527,-1.0395533,-0.1931893,-2.0772526,0.00569478,1.5824517,0.756359,0.039992176,0.0399915,-8.346776,1.519747018814087,4.9429173,0.17454873,-0.3494736850261688,0.0058360547
170.0333333333608,-0.22678573,-1.0421234,-0.19513203,-2.0744448,0.0057510394,1.5825673,0.75606096,0.039992154,0.03999148,-8.316493,1.5365461111068726,4.987274,0.17416225,-0.3494981825351715,0.005159505
170.05000000002747,-0.22904345,-1.0446924,-0.19707394,-2.0716372,0.0058072736,1.5826828,0.75576293,0.039992142,0.03999147,-8.285858,1.5532864332199097,5.0314384,0.17375278,-0.34947600960731506,0.004485815
170.06666666669415,-0.23129992,-1.0472603,-0.19901471,-2.0688312,0.0058634765,1.5827982,0.75546515,0.039992124,0.039991453,-8.254977,1.570074200630188,5.0753984,0.17332014,-0.34940776228904724,0.0038140593
170.08333333336083,-0.23355475,-1.0498263,-0.20095412,-2.0660288,0.0059196386,1.5829135,0.75516754,0.03999211,0.03999144,-8.223947,1.586835265159607,5.1191936,0.1728642,-0.3492969870567322,0.0031463744
170.1000000000275,-0.23580776,-1.0523903,-0.20289199,-2.0632277,0.005975757,1.5830287,0.75487036,0.039992094,0.039991423,-8.192907,1.603588342666626,5.1627274,0.1723856,-0.34915122389793396,0.0024825423
170.1166666666942,-0.2380587,-1.0549523,-0.20482804,-2.0604284,0.006031822,1.5831437,0.7545734,0.039992083,0.039991412,-8.161265,1.6203250885009766,5.20604,0.17188281,-0.34895774722099304,0.0018224033
170.13333333336087,-0.24030726,-1.0575116,-0.20676203,-2.0576336,0.006087826,1.5832586,0.7542766,0.03999208,0.039991412,-8.129456,1.6370617151260376,5.249161,0.1713578,-0.3487178087234497,0.0011656157
170.15000000002755,-0.24255317,-1.060068,-0.20869373,-2.054841,0.006143766,1.5833735,0.7539802,0.039992068,0.0399914,-8.097703,1.6537718772888184,5.2920084,0.17081106,-0.34844157099723816,0.0005143112
170.16666666669423,-0.2447961,-1.062621,-0.21062285,-2.052053,0.0061996323,1.5834883,0.75368416,0.039992068,0.039991405,-8.065384,1.6704376935958862,5.3346252,0.17024179,-0.3481162488460541,-0.00013293767
170.1833333333609,-0.24703582,-1.0651706,-0.21254922,-2.0492673,0.0062554195,1.5836028,0.7533887,0.039992068,0.03999141,-8.033179,1.6871211528778076,5.376969,0.16965114,-0.34775394201278687,-0.0007750567
170.2000000000276,-0.24927208,-1.0677166,-0.21447259,-2.0464878,0.0063111195,1.5837171,0.7530936,0.039992068,0.03999141,-8.000375,1.7037672996520996,5.419117,0.1690382,-0.34734058380126953,-0.001411174
170.21666666669427,-0.2515045,-1.0702583,-0.21639273,-2.0437112,0.0063667255,1.5838311,0.75279903,0.039992068,0.039991412,-7.9678173,1.720384120941162,5.460989,0.16840397,-0.3468918204307556,-0.0020420405
170.23333333336095,-0.25373295,-1.0727956,-0.21830946,-2.0409398,0.0064222305,1.5839448,0.75250494,0.039992087,0.039991435,-7.934659,1.736952543258667,5.502563,0.16774888,-0.3463938534259796,-0.0026673544
170.25000000002763,-0.25595707,-1.0753282,-0.22022241,-2.0381749,0.006477629,1.5840585,0.7522115,0.039992094,0.039991442,-7.9015336,1.753543496131897,5.5439186,0.16707247,-0.34585365653038025,-0.0032854453
170.2666666666943,-0.25817665,-1.0778555,-0.22213143,-2.0354152,0.0065329145,1.5841721,0.7519185,0.039992116,0.03999147,-7.8683395,1.7700546979904175,5.584962,0.16637552,-0.34527403116226196,-0.003897744
170.28333333336099,-0.26039135,-1.0803775,-0.22403629,-2.0326605,0.0065880795,1.5842856,0.7516262,0.039992124,0.039991476,-7.8348317,1.7865525484085083,5.6257043,0.16565862,-0.3446505069732666,-0.004502077
170.30000000002767,-0.26260087,-1.0828937,-0.22593671,-2.0299125,0.006643118,1.5843989,0.75133467,0.03999214,0.039991494,-7.8010335,1.8029630184173584,5.6661954,0.16492166,-0.3439788520336151,-0.0051006484
170.31666666669435,-0.26480508,-1.0854043,-0.22783251,-2.0271714,0.006698021,1.5845118,0.7510438,0.039992154,0.039991513,-7.76725,1.8193939924240112,5.706388,0.16416477,-0.34326526522636414,-0.005691492
170.33333333336103,-0.26700366,-1.0879084,-0.22972348,-2.0244374,0.0067527844,1.5846243,0.7507536,0.039992176,0.03999154,-7.7333145,1.8357652425765991,5.7463155,0.16338822,-0.34251055121421814,-0.0062753046
170.3500000000277,-0.26919624,-1.0904058,-0.2316094,-2.0217109,0.006807402,1.5847365,0.75046414,0.03999219,0.039991554,-7.6992335,1.8521029949188232,5.7859025,0.16259277,-0.3417145907878876,-0.0068498487
170.36666666669439,-0.27138275,-1.0928963,-0.23348993,-2.0189917,0.006861867,1.5848484,0.7501756,0.03999221,0.039991576,-7.665009,1.8683488368988037,5.825191,0.16177839,-0.3408763110637665,-0.0074176965
170.38333333336107,-0.27356273,-1.0953796,-0.23536491,-2.0162804,0.0069161705,1.5849601,0.74988794,0.03999224,0.03999161,-7.630603,1.8845893144607544,5.8641796,0.160945,-0.3399941325187683,-0.007976771
170.40000000002775,-0.27573603,-1.0978556,-0.23723413,-2.0135775,0.0069703087,1.5850713,0.7496012,0.039992265,0.03999164,-7.596114,1.9007620811462402,5.902828,0.16009313,-0.33906999230384827,-0.0085272705
170.41666666669443,-0.27790233,-1.1003237,-0.23909734,-2.010883,0.007024273,1.5851822,0.7493153,0.03999229,0.03999167,-7.56151,1.916868805885315,5.9412007,0.15922326,-0.3381028473377228,-0.0090685375
170.4333333333611,-0.28006145,-1.1027836,-0.24095435,-2.008198,0.007078058,1.5852925,0.7490304,0.03999232,0.039991703,-7.526779,1.932956337928772,5.979239,0.15833555,-0.33709418773651123,-0.009601778
170.45000000002779,-0.28221303,-1.1052351,-0.24280494,-2.005522,0.0071316557,1.5854024,0.7487465,0.03999236,0.039991744,-7.4920506,1.948956847190857,6.0169363,0.15743041,-0.33604687452316284,-0.010125593
170.46666666669446,-0.2843569,-1.107678,-0.24464881,-2.0028558,0.007185062,1.5855122,0.7484636,0.039992396,0.039991785,-7.457124,1.9649091958999634,6.0542974,0.15650813,-0.3349567651748657,-0.010640193
170.48333333336114,-0.2864928,-1.1101121,-0.24648581,-2.0001998,0.0072382693,1.5856216,0.74818164,0.03999243,0.039991822,-7.422169,1.980769157409668,6.091337,0.15556934,-0.3338240683078766,-0.011145297
170.50000000002782,-0.28862047,-1.1125364,-0.2483157,-1.9975536,0.007291272,1.5857306,0.74790084,0.03999247,0.039991863,-7.38714,1.9966193437576294,6.128043,0.15461387,-0.3326507806777954,-0.011639774
170.5166666666945,-0.29073966,-1.1149515,-0.25013825,-1.9949178,0.0073440624,1.5858392,0.7476212,0.039992508,0.039991904,-7.3520103,2.0123581886291504,6.1643724,0.15364198,-0.3314368724822998,-0.012124724
170.53333333336118,-0.29284996,-1.1173567,-0.25195336,-1.9922929,0.0073966356,1.5859473,0.7473427,0.039992552,0.039991952,-7.3167934,2.0280394554138184,6.200408,0.15265453,-0.33017975091934204,-0.012599801
170.55000000002786,-0.2949513,-1.1197518,-0.25376058,-1.9896791,0.0074489857,1.5860548,0.7470653,0.039992586,0.03999199,-7.2815795,2.043649673461914,6.2360816,0.15165117,-0.3288824260234833,-0.013065159
170.56666666669454,-0.29704335,-1.1221366,-0.25555995,-1.9870765,0.007501105,1.5861619,0.7467892,0.039992623,0.03999203,-7.246278,2.0591959953308105,6.271408,0.15063344,-0.32754412293434143,-0.013520171
170.58333333336122,-0.29912594,-1.1245103,-0.25735113,-1.9844862,0.0075529893,1.5862681,0.74651444,0.039992668,0.03999208,-7.2109404,2.0746781826019287,6.306391,0.14960006,-0.3261646330356598,-0.013964659
170.6000000000279,-0.30119875,-1.1268733,-0.25913393,-1.981908,0.0076046307,1.5863739,0.7462408,0.039992705,0.03999212,-7.175726,2.090059757232666,6.3409786,0.14855179,-0.324751615524292,-0.01439812
170.61666666669458,-0.3032616,-1.1292251,-0.26090816,-1.9793419,0.007656023,1.5864797,0.74596864,0.039992742,0.039992165,-7.1403627,2.105344295501709,6.375238,0.14749001,-0.3232960104942322,-0.014822057
170.63333333336126,-0.30531418,-1.1315655,-0.26267356,-1.9767888,0.007707162,1.5865849,0.7456978,0.039992787,0.03999221,-7.104905,2.1206202507019043,6.4091635,0.14641325,-0.32179734110832214,-0.015233497
170.65000000002794,-0.30735636,-1.1338938,-0.2644299,-1.9742485,0.0077580423,1.5866897,0.74542826,0.039992828,0.039992258,-7.069615,2.135749101638794,6.4426866,0.1453234,-0.3202621638774872,-0.015635895
170.66666666669462,-0.30938786,-1.13621,-0.26617712,-1.9717216,0.0078086574,1.5867938,0.74516016,0.039992884,0.039992318,-7.034231,2.150784969329834,6.47584,0.14422081,-0.3186858594417572,-0.01602549
170.6833333333613,-0.3114083,-1.1385142,-0.2679149,-1.969208,0.007859001,1.5868973,0.7448935,0.039992932,0.039992366,-6.9989295,2.165804862976074,6.508645,0.14310445,-0.3170747756958008,-0.016403308
170.70000000002798,-0.31341764,-1.1408055,-0.26964298,-1.9667087,0.007909069,1.5869998,0.7446283,0.039992996,0.039992433,-6.9635057,2.180692672729492,6.5411224,0.14197592,-0.31542158126831055,-0.01677137
170.71666666669466,-0.31541565,-1.1430842,-0.27136147,-1.9642231,0.007958848,1.5871018,0.74436474,0.039993048,0.03999249,-6.928294,2.195477247238159,6.573174,0.14083546,-0.3137351870536804,-0.017127408
170.73333333336134,-0.31740206,-1.1453495,-0.2730699,-1.9617519,0.0080083385,1.5872036,0.7441024,0.039993115,0.03999256,-6.893003,2.2101950645446777,6.6048903,0.13968135,-0.3120087683200836,-0.017472459
170.75000000002802,-0.3193766,-1.1476016,-0.27476808,-1.9592956,0.008057539,1.5873048,0.74384177,0.03999318,0.03999263,-6.8577633,2.224822521209717,6.636195,0.13851747,-0.31024399399757385,-0.017805556
170.7666666666947,-0.3213391,-1.1498399,-0.27645588,-1.9568542,0.008106438,1.5874054,0.7435828,0.039993238,0.03999269,-6.822603,2.2393434047698975,6.6671715,0.13734148,-0.30844223499298096,-0.01812722
170.78333333336138,-0.32328936,-1.1520648,-0.27813312,-1.9544282,0.00815503,1.5875055,0.7433254,0.039993312,0.03999277,-6.787506,2.2537598609924316,6.697745,0.1361541,-0.3066038489341736,-0.01843781
170.80000000002806,-0.32522702,-1.1542754,-0.27979952,-1.9520175,0.008203315,1.5876042,0.7430697,0.03999339,0.03999285,-6.7524486,2.268066644668579,6.7279854,0.13495661,-0.3047269880771637,-0.018736329
170.81666666669474,-0.32715192,-1.1564714,-0.281455,-1.9496229,0.008251282,1.5877025,0.7428156,0.039993465,0.03999293,-6.7174845,2.2823102474212646,6.7578306,0.13374886,-0.30281829833984375,-0.019022806
170.83333333336142,-0.32906392,-1.1586528,-0.28309935,-1.947244,0.008298928,1.5878005,0.7425634,0.039993543,0.03999301,-6.6826606,2.296431541442871,6.787245,0.13253166,-0.30087384581565857,-0.01929812
170.8500000000281,-0.33096272,-1.160819,-0.28473243,-1.9448814,0.008346248,1.587898,0.7423131,0.039993614,0.03999309,-6.6478534,2.3104476928710938,6.8163347,0.13130346,-0.29889315366744995,-0.019561648
170.86666666669478,-0.33284816,-1.1629705,-0.28635404,-1.9425354,0.008393236,1.5879946,0.74206424,0.039993685,0.039993163,-6.613216,2.3243460655212402,6.8450036,0.13006555,-0.2968764901161194,-0.019812997
170.88333333336146,-0.33472025,-1.1651067,-0.287964,-1.9402063,0.008439886,1.5880904,0.7418172,0.03999376,0.03999324,-6.5785785,2.338181734085083,6.8733716,0.12882006,-0.29482606053352356,-0.020053044
170.90000000002814,-0.3365785,-1.167227,-0.28956208,-1.937894,0.008486193,1.5881852,0.741572,0.039993834,0.03999332,-6.5441275,2.351895809173584,6.901328,0.1275649,-0.29274117946624756,-0.020280505
170.91666666669482,-0.33842272,-1.1693317,-0.29114825,-1.9355992,0.008532153,1.5882796,0.74132866,0.03999391,0.0399934,-6.509863,2.3654468059539795,6.928869,0.1263012,-0.29062551259994507,-0.020496951
170.9333333333615,-0.3402528,-1.1714203,-0.2927221,-1.9333221,0.008577763,1.5883735,0.74108714,0.039993986,0.039993484,-6.4756036,2.378983497619629,6.956091,0.12502983,-0.2884751856327057,-0.0207013
170.95000000002818,-0.34206858,-1.1734926,-0.29428366,-1.9310626,0.008623017,1.5884666,0.74084747,0.03999406,0.03999356,-6.441548,2.392327070236206,6.9829044,0.12375128,-0.2862912118434906,-0.020893954
170.96666666669486,-0.3438698,-1.1755489,-0.29583275,-1.9288213,0.008667911,1.5885588,0.7406097,0.03999413,0.03999364,-6.407644,2.40558123588562,7.0093303,0.1224654,-0.28407609462738037,-0.021075044
170.98333333336154,-0.34565634,-1.1775885,-0.29736915,-1.9265982,0.008712437,1.58865,0.74037397,0.039994214,0.039993722,-6.3738847,2.4187111854553223,7.035438,0.12117247,-0.28182846307754517,-0.021243522
171.00000000002822,-0.3474279,-1.1796105,-0.29889274,-1.9243935,0.008756592,1.5887406,0.74014014,0.0399943,0.039993815,-6.3402286,2.4317610263824463,7.0611463,0.11987219,-0.27955010533332825,-0.021401927
171.0166666666949,-0.34918442,-1.1816157,-0.3004033,-1.9222076,0.008800372,1.5888307,0.73990834,0.03999438,0.0399939,-6.3069015,2.444655179977417,7.0863943,0.118565924,-0.27724361419677734,-0.021547258
171.03333333336158,-0.3509257,-1.1836038,-0.30190077,-1.9200407,0.008843772,1.58892,0.7396785,0.03999447,0.039993994,-6.2735863,2.4574477672576904,7.111362,0.11725325,-0.2749038338661194,-0.021681216
171.05000000002826,-0.35265157,-1.1855742,-0.303385,-1.9178929,0.008886785,1.5890085,0.73945063,0.039994553,0.039994083,-6.2405753,2.4700894355773926,7.1359353,0.1159349,-0.27253520488739014,-0.021804808
171.06666666669494,-0.35436183,-1.187527,-0.30485576,-1.9157647,0.008929415,1.5890958,0.73922485,0.03999464,0.039994173,-6.2076397,2.482670783996582,7.160146,0.11461113,-0.27013731002807617,-0.021915829
171.08333333336162,-0.3560562,-1.1894617,-0.30631304,-1.9136559,0.008971651,1.5891826,0.7390012,0.03999472,0.03999426,-6.1749973,2.4950954914093018,7.1839747,0.11328189,-0.26771265268325806,-0.022015428
171.1000000000283,-0.3577348,-1.1913784,-0.30775666,-1.911567,0.009013489,1.5892688,0.7387796,0.039994806,0.03999435,-6.1425076,2.507385730743408,7.2074237,0.11194778,-0.2652592062950134,-0.02210506
171.11666666669498,-0.35939726,-1.1932768,-0.30918637,-1.909498,0.009054928,1.589354,0.7385602,0.039994884,0.039994434,-6.1103334,2.5195605754852295,7.230488,0.11060829,-0.2627781927585602,-0.022181807
171.13333333336166,-0.36104342,-1.1951568,-0.31060204,-1.9074492,0.009095963,1.5894381,0.738343,0.039994966,0.03999452,-6.0782166,2.5316245555877686,7.253232,0.109264955,-0.2602703273296356,-0.022247568
171.15000000002834,-0.3626732,-1.1970184,-0.31200364,-1.9054209,0.009136589,1.5895213,0.7381279,0.03999505,0.03999461,-6.0463977,2.543534994125366,7.275607,0.1079175,-0.25773710012435913,-0.022303497
171.16666666669502,-0.36428648,-1.1988612,-0.313391,-1.9034128,0.0091768075,1.5896039,0.73791504,0.039995134,0.039994698,-6.014862,2.5553066730499268,7.2975903,0.10656636,-0.2551778256893158,-0.022347732
171.1833333333617,-0.36588302,-1.2006847,-0.314764,-1.9014258,0.009216606,1.5896862,0.7377043,0.039995216,0.039994787,-5.9833946,2.5670039653778076,7.3192525,0.10521133,-0.25259026885032654,-0.022381665
171.20000000002838,-0.3674627,-1.2024893,-0.31612253,-1.8994598,0.009255986,1.5897671,0.7374958,0.039995298,0.039994873,-5.952379,2.57853627204895,7.3404746,0.103854,-0.24997903406620026,-0.022403754
171.21666666669506,-0.36902538,-1.2042745,-0.3174665,-1.8975153,0.009294943,1.589847,0.73728955,0.039995376,0.03999496,-5.9215436,2.589951515197754,7.361418,0.10249314,-0.2473464161157608,-0.022416392
171.23333333336174,-0.370571,-1.20604,-0.31879568,-1.8955919,0.009333474,1.5899261,0.73708564,0.03999546,0.03999505,-5.891048,2.601196765899658,7.3819594,0.10112976,-0.24469199776649475,-0.022417888
171.25000000002842,-0.37209928,-1.2077862,-0.32011,-1.8936894,0.009371574,1.5900047,0.7368838,0.039995547,0.039995138,-5.8607078,2.6123509407043457,7.402143,0.09976363,-0.24201588332653046,-0.022408305
171.2666666666951,-0.37361023,-1.2095125,-0.32140934,-1.8918089,0.009409243,1.5900822,0.7366844,0.03999563,0.039995227,-5.830513,2.6233463287353516,7.4220104,0.09839711,-0.23931191861629486,-0.02238984
171.28333333336178,-0.37510362,-1.2112192,-0.3226937,-1.8899503,0.009446476,1.5901583,0.73648727,0.03999571,0.039995316,-5.8008385,2.6342217922210693,7.4414973,0.097027756,-0.2365904152393341,-0.022359857
171.30000000002846,-0.3765794,-1.2129055,-0.3239628,-1.8881136,0.009483269,1.5902338,0.7362926,0.03999579,0.0399954,-5.7713785,2.6449291706085205,7.4606624,0.09565735,-0.23384883999824524,-0.022321554
171.31666666669514,-0.37803748,-1.2145721,-0.32521674,-1.8862989,0.009519624,1.5903087,0.7361002,0.039995868,0.03999548,-5.742161,2.6555469036102295,7.479469,0.09428549,-0.2310888022184372,-0.022272045
171.33333333336182,-0.37947768,-1.216218,-0.32645532,-1.8845062,0.009555533,1.5903827,0.73591024,0.039995953,0.039995573,-5.713191,2.6660280227661133,7.497942,0.09291297,-0.22830617427825928,-0.022213334
171.3500000000285,-0.3808999,-1.2178434,-0.32767844,-1.8827361,0.009590994,1.5904553,0.73572254,0.039996035,0.03999566,-5.6845636,2.6763389110565186,7.5160313,0.09153941,-0.22550369799137115,-0.02214531
171.36666666669518,-0.3823041,-1.2194487,-0.32888597,-1.8809882,0.009626006,1.5905272,0.7355372,0.039996125,0.039995756,-5.6564097,2.686492681503296,7.5337877,0.09016585,-0.22268889844417572,-0.022066988
171.38333333336186,-0.38369015,-1.2210332,-0.3300779,-1.879263,0.0096605625,1.5905982,0.73535407,0.03999621,0.039995845,-5.6282578,2.696570873260498,7.5512853,0.088793166,-0.21985267102718353,-0.021980869
171.40000000002854,-0.38505787,-1.2225966,-0.33125415,-1.8775605,0.009694668,1.5906686,0.7351735,0.0399963,0.039995942,-5.600569,2.7064692974090576,7.5683913,0.08742117,-0.2169998735189438,-0.021884555
171.41666666669522,-0.38640732,-1.224139,-0.3324147,-1.875881,0.009728313,1.5907373,0.7349954,0.03999638,0.039996028,-5.5733223,2.7162039279937744,7.585115,0.08604856,-0.21413254737854004,-0.021780156
171.4333333333619,-0.38773832,-1.2256612,-0.3335593,-1.8742243,0.009761502,1.5908056,0.7348197,0.03999647,0.039996125,-5.54626,2.725863456726074,7.6015873,0.084676415,-0.21125392615795135,-0.02166572
171.45000000002858,-0.38905087,-1.227162,-0.33468804,-1.8725905,0.009794229,1.5908729,0.73464656,0.039996553,0.03999621,-5.5194573,2.7353405952453613,7.617757,0.083306216,-0.20835602283477783,-0.021544432
171.46666666669526,-0.39034477,-1.228641,-0.33580074,-1.8709795,0.009826496,1.5909393,0.73447585,0.03999664,0.0399963,-5.493085,2.7446939945220947,7.633547,0.08193648,-0.20544618368148804,-0.021413319
171.48333333336194,-0.39162,-1.2300993,-0.33689743,-1.8693919,0.009858299,1.5910044,0.73430747,0.03999672,0.03999639,-5.467136,2.7538349628448486,7.64895,0.08056848,-0.20252318680286407,-0.021274226
171.50000000002862,-0.39287663,-1.2315363,-0.3379781,-1.867828,0.009889631,1.5910689,0.73414165,0.039996795,0.039996468,-5.441342,2.7629454135894775,7.6641793,0.07920306,-0.19958919286727905,-0.021127153
171.5166666666953,-0.3941144,-1.2329519,-0.33904263,-1.8662872,0.0099205,1.5911323,0.73397833,0.039996866,0.039996546,-5.4160194,2.771864414215088,7.6790247,0.07783854,-0.1966436505317688,-0.02097175
171.53333333336198,-0.39533332,-1.2343459,-0.34009093,-1.8647695,0.0099508995,1.5911949,0.7338174,0.039996948,0.03999663,-5.3910146,2.780634880065918,7.6935596,0.07647656,-0.19368810951709747,-0.020809663
171.55000000002866,-0.3965333,-1.2357185,-0.34112293,-1.8632753,0.009980828,1.5912561,0.733659,0.039997026,0.039996717,-5.3663726,2.7892231941223145,7.7077565,0.075117916,-0.19072048366069794,-0.020639282
171.56666666669534,-0.39771447,-1.2370695,-0.34213877,-1.861805,0.010010285,1.5913168,0.73350316,0.039997097,0.03999679,-5.342013,2.7977278232574463,7.7217083,0.07376175,-0.18774549663066864,-0.020462457
171.58333333336202,-0.39887658,-1.2383989,-0.34313813,-1.860358,0.010039265,1.5913764,0.73334986,0.039997168,0.03999687,-5.318096,2.8060929775238037,7.7353415,0.07240815,-0.18476200103759766,-0.020278757
171.6000000000287,-0.40001974,-1.2397068,-0.3441213,-1.8589343,0.010067777,1.5914351,0.73319894,0.039997235,0.03999694,-5.294516,2.8142600059509277,7.748648,0.07105881,-0.1817713975906372,-0.02008704
171.61666666669538,-0.40114373,-1.2409928,-0.34508806,-1.8575342,0.0100958105,1.5914927,0.73305064,0.039997306,0.03999702,-5.2713,2.8223025798797607,7.7616625,0.0697126,-0.178771510720253,-0.01988879
171.63333333336206,-0.40224868,-1.2422572,-0.3460384,-1.8561587,0.010123368,1.5915493,0.7329048,0.03999737,0.039997086,-5.2484064,2.8302271366119385,7.7744083,0.06837014,-0.17576724290847778,-0.019685114
171.65000000002874,-0.4033344,-1.2435,-0.34697226,-1.8548069,0.01015045,1.5916047,0.7327615,0.039997444,0.039997164,-5.226028,2.837998390197754,7.7868757,0.067032225,-0.17276129126548767,-0.019474564
171.66666666669542,-0.40440112,-1.2447208,-0.34788963,-1.8534789,0.010177057,1.5916593,0.7326207,0.039997518,0.039997246,-5.2040157,2.845562219619751,7.7989984,0.065699056,-0.1697520762681961,-0.01925841
171.6833333333621,-0.4054488,-1.2459198,-0.34879068,-1.8521746,0.010203187,1.5917131,0.7324823,0.03999759,0.03999732,-5.182254,2.853058338165283,7.81088,0.06437065,-0.1667400598526001,-0.019036544
171.70000000002878,-0.40647733,-1.2470969,-0.3496752,-1.8508941,0.010228842,1.5917659,0.7323465,0.03999766,0.0399974,-5.1608934,2.860403060913086,7.8224635,0.06304695,-0.16372403502464294,-0.018809034
171.71666666669546,-0.40748668,-1.2482524,-0.3505432,-1.8496375,0.010254015,1.5918175,0.7322134,0.039997738,0.03999748,-5.139945,2.8675713539123535,7.83377,0.0617286,-0.16070665419101715,-0.018575054
171.73333333336214,-0.40847683,-1.2493857,-0.3513948,-1.8484045,0.010278711,1.591868,0.7320827,0.039997805,0.039997555,-5.11949,2.8745627403259277,7.8447857,0.060414862,-0.15769094228744507,-0.018336922
171.75000000002882,-0.40944785,-1.2504975,-0.35222998,-1.8471955,0.01030293,1.591918,0.7319544,0.039997872,0.039997626,-5.0992527,2.881490707397461,7.8555465,0.059107535,-0.15467607975006104,-0.018092945
171.7666666666955,-0.41039973,-1.2515873,-0.3530488,-1.84601,0.010326673,1.5919669,0.7318288,0.039997946,0.039997708,-5.0794764,2.8882369995117188,7.8660417,0.057806954,-0.15166153013706207,-0.017845387
171.78333333336218,-0.4113326,-1.2526553,-0.35385102,-1.8448484,0.01034994,1.5920146,0.7317057,0.03999802,0.039997786,-5.0600514,2.894853115081787,7.876263,0.05651093,-0.1486484408378601,-0.017592348
171.80000000002886,-0.41224644,-1.2537018,-0.35463685,-1.8437105,0.010372732,1.592061,0.7315852,0.03999809,0.039997865,-5.041166,2.9012351036071777,7.886194,0.05522236,-0.14564074575901031,-0.01733535
171.81666666669554,-0.4131412,-1.2547263,-0.35540646,-1.8425963,0.01039505,1.5921072,0.73146707,0.039998155,0.03999793,-5.0224586,2.907592535018921,7.895957,0.053940143,-0.1426371932029724,-0.017073816
171.83333333336222,-0.41401696,-1.2557293,-0.35615972,-1.8415054,0.010416894,1.5921522,0.7313515,0.039998222,0.039998006,-5.004278,2.9137721061706543,7.9053545,0.052665073,-0.1396375149488449,-0.01680887
171.8500000000289,-0.41487378,-1.2567108,-0.35689667,-1.8404386,0.010438266,1.5921959,0.7312385,0.039998297,0.039998084,-4.9863873,2.9197988510131836,7.914572,0.05139697,-0.13664191961288452,-0.016539993
171.86666666669558,-0.41571167,-1.2576703,-0.35761738,-1.8393949,0.010459166,1.5922385,0.73112786,0.039998364,0.039998155,-4.969138,2.925644636154175,7.923498,0.050135903,-0.1336587816476822,-0.016267505
171.88333333336226,-0.41653073,-1.2586081,-0.35832182,-1.8383749,0.010479595,1.5922807,0.73101974,0.03999843,0.03999823,-4.952013,2.9314041137695312,7.9321923,0.04888351,-0.1306818127632141,-0.015992435
171.90000000002894,-0.41733092,-1.2595251,-0.35901016,-1.8373783,0.0104995575,1.5923218,0.7309142,0.0399985,0.039998304,-4.935441,2.9369919300079346,7.9406133,0.047639,-0.12771429121494293,-0.015713183
171.91666666669562,-0.41811246,-1.2604206,-0.3596824,-1.8364048,0.01051905,1.5923616,0.730811,0.039998572,0.03999838,-4.91926,2.9424288272857666,7.9488378,0.046402562,-0.12475623935461044,-0.015432108
171.9333333333623,-0.41887537,-1.2612945,-0.3603387,-1.8354546,0.010538075,1.5924004,0.7307103,0.03999863,0.039998442,-4.903327,2.947767734527588,7.9568386,0.04517476,-0.12180893123149872,-0.0151494155
171.95000000002898,-0.41961977,-1.2621473,-0.36097893,-1.8345275,0.010556642,1.592439,0.73061204,0.039998688,0.039998505,-4.8879495,2.952946662902832,7.9645576,0.04395521,-0.11887561529874802,-0.014863043
171.96666666669566,-0.42034552,-1.262979,-0.3616033,-1.8336232,0.010574747,1.5924761,0.7305162,0.039998736,0.03999856,-4.8728766,2.9579660892486572,7.972059,0.0427453,-0.1159510463476181,-0.014575341
171.98333333336234,-0.42105293,-1.2637899,-0.36221176,-1.832742,0.010592395,1.5925121,0.7304228,0.039998803,0.039998632,-4.85832,2.9628241062164307,7.979314,0.041545358,-0.11304298043251038,-0.014285523
172.00000000002902,-0.42174205,-1.26458,-0.36280453,-1.8318837,0.010609586,1.5925472,0.73033184,0.039998855,0.039998688,-4.8440313,2.967597007751465,7.9864,0.040355228,-0.11015093326568604,-0.0139941545
172.0166666666957,-0.42241296,-1.265349,-0.3633817,-1.8310483,0.0106263235,1.5925821,0.7302432,0.039998904,0.039998744,-4.830182,2.9722139835357666,7.9932547,0.039174564,-0.10727491974830627,-0.013702459
172.03333333336238,-0.42306578,-1.2660974,-0.36394337,-1.830235,0.010642609,1.5926155,0.7301571,0.039998956,0.0399988,-4.8167768,2.976696491241455,7.999819,0.038004037,-0.10441454499959946,-0.013408532
172.05000000002906,-0.4237006,-1.2668252,-0.36448947,-1.8294444,0.010658448,1.5926477,0.7300732,0.039999,0.039998848,-4.8037915,2.981001615524292,8.006205,0.03684373,-0.10157427936792374,-0.013114006
172.06666666669574,-0.42431766,-1.2675326,-0.36502033,-1.828676,0.010673835,1.5926789,0.72999173,0.039999057,0.039998908,-4.7911115,2.9852166175842285,8.012409,0.035695154,-0.09875603020191193,-0.012818648
172.08333333336242,-0.42491695,-1.26822,-0.36553589,-1.8279293,0.0106887845,1.59271,0.72991264,0.039999116,0.03999897,-4.7788334,2.98930025100708,8.018387,0.03455673,-0.09595759958028793,-0.012522123
172.1000000000291,-0.42549863,-1.2688869,-0.36603642,-1.8272045,0.010703295,1.5927402,0.72983587,0.039999165,0.039999023,-4.7668805,2.9932146072387695,8.024131,0.03343017,-0.09317424148321152,-0.012226122
172.11666666669578,-0.42606297,-1.269534,-0.36652192,-1.8265013,0.0107173715,1.5927689,0.72976124,0.039999217,0.03999908,-4.755511,2.996997117996216,8.029664,0.032314956,-0.09041616320610046,-0.011929363
172.13333333336246,-0.42660996,-1.2701614,-0.36699256,-1.8258196,0.010731015,1.5927963,0.7296891,0.039999273,0.039999135,-4.74433,3.000683307647705,8.035056,0.031212457,-0.08768264204263687,-0.011632577
172.15000000002914,-0.42713985,-1.2707692,-0.3674485,-1.8251592,0.01074423,1.5928236,0.72961926,0.039999317,0.039999183,-4.733623,3.0042057037353516,8.040229,0.030121148,-0.08497557044029236,-0.011338506
172.16666666669582,-0.42765275,-1.2713577,-0.36788985,-1.8245199,0.010757022,1.5928508,0.72955155,0.039999362,0.039999228,-4.723326,3.0076003074645996,8.045164,0.029042363,-0.0822903960943222,-0.0110431425
172.1833333333625,-0.42814887,-1.2719266,-0.36831653,-1.8239018,0.01076939,1.5928762,0.7294859,0.039999407,0.039999273,-4.7132616,3.0108964443206787,8.049944,0.027976748,-0.07962806522846222,-0.010748809
172.20000000002918,-0.42862839,-1.2724771,-0.36872914,-1.8233043,0.010781344,1.5929002,0.7294226,0.03999945,0.03999932,-4.7037935,3.0139975547790527,8.054543,0.026926076,-0.07700096815824509,-0.01045616
172.21666666669586,-0.42909142,-1.2730088,-0.3691276,-1.8227272,0.01079289,1.5929236,0.7293616,0.0399995,0.03999937,-4.6945086,3.0170557498931885,8.059,0.025887521,-0.07440201938152313,-0.010165082
172.23333333336254,-0.42953822,-1.2735218,-0.36951208,-1.8221706,0.010804031,1.5929471,0.7293026,0.039999537,0.039999407,-4.685733,3.0199191570281982,8.063194,0.024862632,-0.07183206081390381,-0.009875849
172.25000000002922,-0.42996895,-1.2740163,-0.36988282,-1.8216338,0.010814771,1.5929695,0.72924566,0.039999582,0.039999455,-4.677234,3.0226962566375732,8.067224,0.023852164,-0.06929163634777069,-0.0095897
172.2666666666959,-0.43038386,-1.2744924,-0.37023994,-1.8211167,0.01082511,1.5929904,0.72919077,0.03999963,0.039999507,-4.669115,3.0253543853759766,8.071091,0.022856211,-0.06678356230258942,-0.009305052
172.28333333336258,-0.43078318,-1.2749506,-0.37058356,-1.8206189,0.01083506,1.5930102,0.7291379,0.039999675,0.03999956,-4.6614103,3.027852773666382,8.074791,0.021875413,-0.06431353837251663,-0.009025363
172.30000000002926,-0.43116695,-1.2753915,-0.37091392,-1.8201406,0.010844625,1.5930299,0.72908705,0.039999716,0.039999615,-4.6540723,3.0302038192749023,8.078291,0.02091013,-0.061877764761447906,-0.008750545
172.31666666669594,-0.43153542,-1.2758149,-0.37123123,-1.8196812,0.010853806,1.5930495,0.7290383,0.03999976,0.039999686,-4.646998,3.032491683959961,8.081671,0.019960932,-0.05947611480951309,-0.008483093
172.33333333336262,-0.43188915,-1.2762213,-0.3715357,-1.8192405,0.010862614,1.5930681,0.7289915,0.039999783,0.039999753,-4.6402636,3.0346360206604004,8.084846,0.019027365,-0.05710696056485176,-0.008222442
172.3500000000293,-0.4322281,-1.2766109,-0.37182748,-1.8188179,0.0108710565,1.5930848,0.7289467,0.039999817,0.03999983,-4.6339335,3.0366857051849365,8.0879,0.018109703,-0.05477786064147949,-0.007964105
172.36666666669598,-0.4325526,-1.2769839,-0.3721068,-1.8184135,0.010879144,1.5931008,0.7289038,0.039999846,0.039999936,-4.6280055,3.03857421875,8.09078,0.017208207,-0.052492473274469376,-0.007714376
172.38333333336266,-0.43286288,-1.2773403,-0.37237394,-1.8180267,0.010886899,1.5931166,0.72886276,0.039999854,0.04,-4.6222897,3.040478229522705,8.093529,0.016323872,-0.050248079001903534,-0.0074565304
172.40000000002934,-0.43315917,-1.2776811,-0.3726291,-1.8176572,0.010894346,1.5931325,0.7288236,0.039999858,0.04,-4.6169662,3.0422422885894775,8.09606,0.015456531,-0.04804361239075661,-0.007193586
172.41666666669602,-0.4334418,-1.2780061,-0.3728725,-1.8173046,0.0109014595,1.593148,0.7287863,0.039999858,0.04,-4.611945,3.0438082218170166,8.098474,0.014607293,-0.045877330005168915,-0.0069379886
172.4333333333627,-0.43371102,-1.2783155,-0.37310436,-1.8169689,0.010908237,1.5931615,0.72875077,0.039999858,0.04,-4.607177,3.0453155040740967,8.100745,0.013775773,-0.04375312104821205,-0.0066870726
172.45000000002938,-0.4339671,-1.2786101,-0.37332496,-1.8166494,0.010914688,1.5931737,0.72871697,0.03999986,0.04,-4.6028867,3.046699285507202,8.1029215,0.0129627725,-0.04168277606368065,-0.0064401897
172.46666666669606,-0.43421033,-1.2788899,-0.3735345,-1.8163458,0.0109208245,1.5931858,0.72868484,0.039999858,0.04,-4.598793,3.0479912757873535,8.1049385,0.012168692,-0.03965918347239494,-0.0061985296
172.48333333336274,-0.43444106,-1.2791551,-0.37373322,-1.816058,0.010926636,1.5931978,0.7286543,0.039999854,0.04,-4.5950756,3.0491323471069336,8.106753,0.011394294,-0.0376817062497139,-0.0059631555
172.50000000002942,-0.43465957,-1.2794069,-0.37392145,-1.8157855,0.01093215,1.5932096,0.72862536,0.03999985,0.04,-4.591595,3.0502374172210693,8.10848,0.010639755,-0.03575175628066063,-0.005731124
172.5166666666961,-0.4348662,-1.2796447,-0.3740995,-1.8155278,0.010937369,1.5932213,0.7285982,0.039999846,0.04,-4.5883555,3.0512242317199707,8.110126,0.009906098,-0.033868785947561264,-0.0055051753
172.53333333336278,-0.4350612,-1.2798692,-0.3742675,-1.8152844,0.010942287,1.5932307,0.7285726,0.039999843,0.04,-4.5854664,3.0521087646484375,8.1115675,0.00919158,-0.03203577175736427,-0.005285122
172.55000000002946,-0.43524492,-1.280081,-0.37442586,-1.8150548,0.010946921,1.5932393,0.7285483,0.03999984,0.04,-4.58294,3.0528688430786133,8.112951,0.008498039,-0.030262582004070282,-0.0050712884
172.56666666669614,-0.43541777,-1.2802805,-0.37457487,-1.8148391,0.010951289,1.5932475,0.7285253,0.03999983,0.04,-4.5805287,3.0536036491394043,8.114227,0.007827083,-0.028543822467327118,-0.004863202
172.58333333336282,-0.43558004,-1.2804675,-0.37471476,-1.8146363,0.010955362,1.5932558,0.72850394,0.039999828,0.04,-4.5784717,3.054206132888794,8.115356,0.0071783173,-0.026879413053393364,-0.0046640523
172.6000000000295,-0.4357321,-1.2806429,-0.37484592,-1.8144464,0.0109591875,1.593264,0.72848403,0.039999824,0.04,-4.5766554,3.0547311305999756,8.116334,0.00655096,-0.02526981011033058,-0.0044681705
172.61666666669618,-0.4358744,-1.280807,-0.37496862,-1.8142687,0.010962764,1.5932719,0.728465,0.03999982,0.04,-4.575127,3.0551698207855225,8.117223,0.005945654,-0.023716004565358162,-0.0042791236
172.63333333336286,-0.43600717,-1.2809602,-0.3750832,-1.8141026,0.010966111,1.5932797,0.72844756,0.039999817,0.04,-4.573724,3.0555381774902344,8.118044,0.005365479,-0.022219248116016388,-0.004096634
172.65000000002954,-0.43613085,-1.2811029,-0.37518996,-1.8139478,0.010969226,1.5932862,0.72843134,0.039999813,0.04,-4.5726266,3.055816411972046,8.118726,0.004807434,-0.020781327039003372,-0.003922212
172.66666666669622,-0.43624583,-1.2812359,-0.37528926,-1.813804,0.010972121,1.5932912,0.72841597,0.03999982,0.04,-4.5718184,3.0560028553009033,8.1193495,0.004273518,-0.019408734515309334,-0.0037545294
172.6833333333629,-0.43635252,-1.2813591,-0.37538138,-1.8136708,0.010974825,1.5932957,0.7284022,0.039999813,0.04,-4.5711656,3.0561516284942627,8.119922,0.0037656818,-0.0181035865098238,-0.0035948835
172.70000000002958,-0.43645138,-1.2814733,-0.37546676,-1.8135474,0.010977309,1.5933001,0.7283887,0.039999813,0.04,-4.5708184,3.0561861991882324,8.120332,0.0032803952,-0.016865385696291924,-0.003444524
172.71666666669626,-0.43654272,-1.2815791,-0.37554562,-1.8134332,0.010979608,1.5933045,0.7283769,0.039999813,0.04,-4.5705833,3.0561885833740234,8.120663,0.002824188,-0.01569056510925293,-0.003300111
172.73333333336294,-0.4366269,-1.2816772,-0.37561852,-1.8133279,0.01098173,1.5933089,0.72836536,0.03999981,0.04,-4.5705304,3.056084632873535,8.120904,0.0023912464,-0.014579187147319317,-0.0031648115
172.75000000002962,-0.4367045,-1.2817675,-0.37568572,-1.8132308,0.010983682,1.5933133,0.72835547,0.03999981,0.04,-4.5706177,3.0559744834899902,8.121133,0.0019882042,-0.0135333938524127,-0.0030380834
172.7666666666963,-0.43677595,-1.2818503,-0.37574756,-1.8131413,0.010985483,1.5933175,0.7283458,0.03999981,0.04,-4.5709805,3.0557661056518555,8.121202,0.0016085608,-0.012556919828057289,-0.0029192579
172.78333333336298,-0.43684167,-1.2819259,-0.37580457,-1.8130591,0.010987141,1.5933216,0.72833735,0.0399998,0.04,-4.571489,3.0554938316345215,8.121239,0.0012590154,-0.011651278473436832,-0.0028096058
172.80000000002966,-0.43690208,-1.2819967,-0.37585682,-1.8129834,0.010988675,1.5933256,0.7283295,0.0399998,0.04,-4.572242,3.0551977157592773,8.12115,0.0009343485,-0.010819563642144203,-0.00270603
172.81666666669634,-0.43695766,-1.2820606,-0.37590504,-1.8129137,0.010990078,1.5933295,0.72832173,0.0399998,0.04,-4.572643,3.054885149002075,8.121231,0.00063768006,-0.010046971961855888,-0.0026139906
172.83333333336302,-0.43700874,-1.2821202,-0.3759494,-1.8128495,0.010991373,1.5933325,0.7283152,0.039999798,0.04,-4.573355,3.0546202659606934,8.121111,0.00036594618,-0.00934045109897852,-0.0025268504
172.8500000000297,-0.43705577,-1.2821757,-0.3759901,-1.8127903,0.010992556,1.593334,0.7283092,0.039999794,0.04,-4.5737805,3.054387092590332,8.12118,0.00011367543,-0.008689802139997482,-0.0024490047
172.86666666669637,-0.437099,-1.282225,-0.37602764,-1.8127358,0.0109936185,1.5933353,0.7283034,0.039999798,0.04,-4.574206,3.054133892059326,8.121236,-0.00011780324,-0.00809358712285757,-0.0023789727
172.88333333336305,-0.43713868,-1.2822703,-0.37606224,-1.8126858,0.010994624,1.5933365,0.7282976,0.039999798,0.04,-4.5748653,3.053938865661621,8.121081,-0.0003302858,-0.007552481256425381,-0.0023092509
172.90000000002973,-0.43717524,-1.2823131,-0.376094,-1.81264,0.0109955445,1.5933375,0.72829294,0.039999798,0.04,-4.57532,3.0537381172180176,8.121056,-0.00052390556,-0.007056082598865032,-0.0022479782
172.91666666669641,-0.43720892,-1.2823529,-0.37612328,-1.8125978,0.010996395,1.5933384,0.7282888,0.039999794,0.04,-4.575564,3.0535645484924316,8.121123,-0.00070455077,-0.0065947710536420345,-0.0021920244
172.9333333333631,-0.43723986,-1.2823893,-0.37615016,-1.8125588,0.010997172,1.5933391,0.7282849,0.039999794,0.04,-4.5758433,3.053419589996338,8.121154,-0.00087155675,-0.006169126369059086,-0.0021411104
172.95000000002977,-0.43726826,-1.2824221,-0.3761749,-1.8125228,0.010997891,1.5933398,0.72828096,0.03999979,0.04,-4.576182,3.0532610416412354,8.121104,-0.0010242633,-0.005778232589364052,-0.0020939417
172.96666666669645,-0.43729445,-1.2824516,-0.37619767,-1.8124897,0.010998516,1.5933405,0.7282771,0.039999794,0.04,-4.5765576,3.0530991554260254,8.121031,-0.0011635162,-0.005420838017016649,-0.0020523416
172.98333333336313,-0.43731853,-1.2824802,-0.37621862,-1.8124596,0.010999121,1.5933411,0.72827345,0.039999794,0.04,-4.576924,3.0529839992523193,8.120966,-0.0012908115,-0.0050947703421115875,-0.002008908
173.00000000002981,-0.43734056,-1.2825056,-0.37623793,-1.8124316,0.010999678,1.5933417,0.7282708,0.03999979,0.04,-4.577006,3.0528786182403564,8.1210785,-0.001407083,-0.004789869766682386,-0.00197268
173.0166666666965,-0.43736094,-1.28253,-0.37625566,-1.812406,0.01100019,1.5933423,0.7282686,0.03999979,0.04,-4.5773306,3.052764892578125,8.120978,-0.0015175326,-0.0045121232978999615,-0.0019385137
173.03333333336317,-0.4373796,-1.2825514,-0.37627202,-1.8123823,0.011000662,1.5933429,0.7282665,0.03999979,0.04,-4.5774226,3.052677631378174,8.121049,-0.0016198733,-0.0042526680044829845,-0.0019078692
173.05000000002985,-0.43739676,-1.282572,-0.37628704,-1.8123606,0.011001095,1.5933435,0.7282644,0.03999979,0.04,-4.5777493,3.0525786876678467,8.120955,-0.0017138291,-0.0040178666822612286,-0.001878917
173.06666666669653,-0.4374126,-1.2825898,-0.37630084,-1.8123407,0.011001493,1.5933441,0.72826236,0.03999979,0.04,-4.577801,3.052504539489746,8.12102,-0.001799282,-0.0037977593019604683,-0.0018534056
173.0833333333632,-0.43742707,-1.2826071,-0.37631357,-1.8123223,0.01100186,1.5933447,0.72826034,0.03999979,0.04,-4.5781374,3.0524065494537354,8.12091,-0.0018778414,-0.0036006318405270576,-0.0018280587
173.1000000000299,-0.43744043,-1.2826227,-0.37632525,-1.8123055,0.011002193,1.5933453,0.7282583,0.03999979,0.04,-4.5781374,3.0523505210876465,8.120978,-0.0019489825,-0.00341425440274179,-0.0018071872
173.11666666669657,-0.43745276,-1.2826366,-0.376336,-1.81229,0.011002497,1.5933459,0.72825634,0.03999979,0.04,-4.5783386,3.052278995513916,8.120952,-0.0020137648,-0.003244659397751093,-0.00178675
173.13333333336325,-0.43746415,-1.2826501,-0.3763459,-1.8122756,0.011002777,1.5933465,0.72825444,0.03999979,0.04,-4.57851,3.052218198776245,8.120911,-0.0020732041,-0.0030900421552360058,-0.0017669979
173.15000000002993,-0.4374746,-1.282663,-0.37635502,-1.8122625,0.011003041,1.5933471,0.72825265,0.03999979,0.04,-4.5785294,3.05216908454895,8.120959,-0.0021272472,-0.0029444540850818157,-0.0017497118
173.1666666666966,-0.43748415,-1.2826736,-0.37636337,-1.8122504,0.011003282,1.5933477,0.728251,0.03999979,0.04,-4.5785775,3.0521206855773926,8.120993,-0.0021766198,-0.00280841626226902,-0.0017344691
173.1833333333633,-0.4374928,-1.2826836,-0.37637118,-1.812239,0.011003515,1.5933483,0.7282494,0.03999979,0.04,-4.5788374,3.052048683166504,8.120887,-0.0022220833,-0.0026882230304181576,-0.0017182459
173.20000000002997,-0.43750075,-1.2826933,-0.37637827,-1.8122289,0.0110037215,1.5933489,0.72824895,0.039999787,0.04,-4.511201,2.9574804306030273,8.057296,0.0,-0.0,0.0
173.21666666669665,-0.43750075,-1.2826933,-0.37637827,-1.8122289,0.0110037215,1.5933489,0.72824895,0.039999787,0.04,-4.582062,3.0507924556732178,8.119944,0.0,-0.0,0.0
173.23333333336333,-0.43750075,-1.2826933,-0.37637827,-1.8122289,0.0110037215,1.5933489,0.72824895,0.039999787,0.04,-4.582062,3.0507924556732178,8.119944,0.0,-0.0,0.0
173.25000000003,-0.43750075,-1.2826933,-0.37637827,-1.8122289,0.0110037215,1.5933489,0.72824895,0.039999787,0.04,-4.582062,3.0507924556732178,8.119944,0.0,-0.0,0.0
173.2666666666967,-0.43750075,-1.2826933,-0.37637827,-1.8122289,0.0110037215,1.5933489,0.72824895,0.039999787,0.04,-4.582062,3.0507924556732178,8.119944,0.0,-0.0,0.0
173.28333333336337,-0.43750075,-1.2826933,-0.37637827,-1.8122289,0.0110037215,1.5933489,0.72824895,0.039999787,0.04,-4.582062,3.0507924556732178,8.119944,0.0,-0.0,0.0
173.30000000003005,-0.43750075,-1.2826933,-0.37637827,-1.8122289,0.0110037215,1.5933489,0.72824895,0.039999787,0.04,-4.582062,3.0507924556732178,8.119944,0.0,-0.0,0.0
173.31666666669673,-0.43750075,-1.2826933,-0.37637827,-1.8122289,0.0110037215,1.5933489,0.72824895,0.039999787,0.04,-4.582062,3.0507924556732178,8.119944,0.0,-0.0,0.0
173.3333333333634,-0.43750075,-1.2826933,-0.37637827,-1.8122289,0.0110037215,1.5933489,0.72824895,0.039999787,0.04,-4.582062,3.0507924556732178,8.119944,0.0,-0.0,0.0
173.3500000000301,-0.43750075,-1.2826933,-0.37637827,-1.8122289,0.0110037215,1.5933489,0.72824895,0.039999787,0.04,-4.582062,3.0507924556732178,8.119944,0.0,-0.0,0.0
173.36666666669677,-0.43750075,-1.2826933,-0.37637827,-1.8122289,0.0110037215,1.5933489,0.72824895,0.039999787,0.04,-4.582062,3.0507924556732178,8.119944,0.0,-0.0,0.0
173.38333333336345,-0.43750075,-1.2826933,-0.37637827,-1.8122289,0.0110037215,1.5933489,0.72824895,0.039999787,0.04,-4.582062,3.0507924556732178,8.119944,0.0,-0.0,0.0
173.40000000003013,-0.43750075,-1.2826933,-0.37637827,-1.8122289,0.0110037215,1.5933489,0.72824895,0.039999787,0.04,-4.582062,3.0507924556732178,8.119944,0.0,-0.0,0.0
173.4166666666968,-0.43750075,-1.2826933,-0.37637827,-1.8122289,0.0110037215,1.5933489,0.72824895,0.039999787,0.04,-4.582062,3.0507924556732178,8.119944,0.0,-0.0,0.0
173.4333333333635,-0.43750075,-1.2826933,-0.37637827,-1.8122289,0.0110037215,1.5933489,0.72824895,0.039999787,0.04,-4.582062,3.0507924556732178,8.119944,0.0,-0.0,0.0
173.45000000003017,-0.43750075,-1.2826933,-0.37637827,-1.8122289,0.0110037215,1.5933489,0.72824895,0.039999787,0.04,-4.582062,3.0507924556732178,8.119944,0.0,-0.0,0.0
173.46666666669685,-0.43750075,-1.2826933,-0.37637827,-1.8122289,0.0110037215,1.5933489,0.72824895,0.039999787,0.04,-4.582062,3.0507924556732178,8.119944,0.0,-0.0,0.0
173.48333333336353,-0.43750075,-1.2826933,-0.37637827,-1.8122289,0.0110037215,1.5933489,0.72824895,0.039999787,0.04,-4.582062,3.0507924556732178,8.119944,0.0,-0.0,0.0
173.5000000000302,-0.43750075,-1.2826933,-0.37637827,-1.8122289,0.0110037215,1.5933489,0.72824895,0.039999787,0.04,-4.582062,3.0507924556732178,8.119944,0.0,-0.0,0.0
173.5166666666969,-0.43750075,-1.2826933,-0.37637827,-1.8122289,0.0110037215,1.5933489,0.72824895,0.039999787,0.04,-4.582062,3.0507924556732178,8.119944,0.0,-0.0,0.0
173.53333333336357,-0.43750075,-1.2826933,-0.37637827,-1.8122289,0.0110037215,1.5933489,0.72824895,0.039999787,0.04,-4.582062,3.0507924556732178,8.119944,0.0,-0.0,0.0
173.55000000003025,-0.43750075,-1.2826933,-0.37637827,-1.8122289,0.0110037215,1.5933489,0.72824895,0.039999787,0.04,-4.582062,3.0507924556732178,8.119944,0.0,-0.0,0.0
173.56666666669693,-0.43750075,-1.2826933,-0.37637827,-1.8122289,0.0110037215,1.5933489,0.72824895,0.039999787,0.04,-4.582062,3.0507924556732178,8.119944,0.0,-0.0,0.0
173.5833333333636,-0.43750075,-1.2826933,-0.37637827,-1.8122289,0.0110037215,1.5933489,0.72824895,0.039999787,0.04,-4.582062,3.0507924556732178,8.119944,0.0,-0.0,0.0
173.6000000000303,-0.43750075,-1.2826933,-0.37637827,-1.8122289,0.0110037215,1.5933489,0.72824895,0.039999787,0.04,-4.582062,3.0507924556732178,8.119944,0.0,-0.0,0.0
173.61666666669697,-0.43750075,-1.2826933,-0.37637827,-1.8122289,0.0110037215,1.5933489,0.72824895,0.039999787,0.04,-4.582062,3.0507924556732178,8.119944,0.0,-0.0,0.0
173.63333333336365,-0.43750075,-1.2826933,-0.37637827,-1.8122289,0.0110037215,1.5933489,0.72824895,0.039999787,0.04,-4.582062,3.0507924556732178,8.119944,0.0,-0.0,0.0
173.65000000003033,-0.43750075,-1.2826933,-0.37637827,-1.8122289,0.0110037215,1.5933489,0.72824895,0.039999787,0.04,-4.582062,3.0507924556732178,8.119944,0.0,-0.0,0.0
173.666666666697,-0.43750075,-1.2826933,-0.37637827,-1.8122289,0.0110037215,1.5933489,0.72824895,0.039999787,0.04,-4.582062,3.0507924556732178,8.119944,0.0,-0.0,0.0
173.6833333333637,-0.43750075,-1.2826933,-0.37637827,-1.8122289,0.0110037215,1.5933489,0.72824895,0.039999787,0.04,-4.582062,3.0507924556732178,8.119944,0.0,-0.0,0.0
173.70000000003037,-0.43750075,-1.2826933,-0.37637827,-1.8122289,0.0110037215,1.5933489,0.72824895,0.039999787,0.04,-4.582062,3.0507924556732178,8.119944,0.0,-0.0,0.0
173.71666666669705,-0.43750075,-1.2826933,-0.37637827,-1.8122289,0.0110037215,1.5933489,0.72824895,0.039999787,0.04,-4.582062,3.0507924556732178,8.119944,0.0,-0.0,0.0
173.73333333336373,-0.43750075,-1.2826933,-0.37637827,-1.8122289,0.0110037215,1.5933489,0.72824895,0.039999787,0.04,-4.582062,3.0507924556732178,8.119944,0.0,-0.0,0.0
173.7500000000304,-0.43750075,-1.2826933,-0.37637827,-1.8122289,0.0110037215,1.5933489,0.72824895,0.039999787,0.04,-4.582062,3.0507924556732178,8.119944,0.0,-0.0,0.0
173.7666666666971,-0.43750075,-1.2826933,-0.37637827,-1.8122289,0.0110037215,1.5933489,0.72824895,0.039999787,0.04,-4.582062,3.0507924556732178,8.119944,0.0,-0.0,0.0
173.78333333336377,-0.43750075,-1.2826933,-0.37637827,-1.8122289,0.0110037215,1.5933489,0.72824895,0.039999787,0.04,-4.582062,3.0507924556732178,8.119944,0.0,-0.0,0.0
173.80000000003045,-0.43750075,-1.2826933,-0.37637827,-1.8122289,0.0110037215,1.5933489,0.72824895,0.039999787,0.04,-4.582062,3.0507924556732178,8.119944,0.0,-0.0,0.0
173.81666666669713,-0.43750075,-1.2826933,-0.37637827,-1.8122289,0.0110037215,1.5933489,0.72824895,0.039999787,0.04,-4.582062,3.0507924556732178,8.119944,0.0,-0.0,0.0
173.8333333333638,-0.43750075,-1.2826933,-0.37637827,-1.8122289,0.0110037215,1.5933489,0.72824895,0.039999787,0.04,-4.582062,3.0507924556732178,8.119944,0.0,-0.0,0.0
173.8500000000305,-0.43750075,-1.2826933,-0.37637827,-1.8122289,0.0110037215,1.5933489,0.72824895,0.039999787,0.04,-4.582062,3.0507924556732178,8.119944,0.0,-0.0,0.0
173.86666666669717,-0.43750075,-1.2826933,-0.37637827,-1.8122289,0.0110037215,1.5933489,0.72824895,0.039999787,0.04,-4.582062,3.0507924556732178,8.119944,0.0,-0.0,0.0
173.88333333336385,-0.43750075,-1.2826933,-0.37637827,-1.8122289,0.0110037215,1.5933489,0.72824895,0.039999787,0.04,-4.582062,3.0507924556732178,8.119944,0.0,-0.0,0.0
173.90000000003053,-0.43750075,-1.2826933,-0.37637827,-1.8122289,0.0110037215,1.5933489,0.72824895,0.039999787,0.04,-4.582062,3.0507924556732178,8.119944,0.0,-0.0,0.0
173.9166666666972,-0.43750075,-1.2826933,-0.37637827,-1.8122289,0.0110037215,1.5933489,0.72824895,0.039999787,0.04,-4.582062,3.0507924556732178,8.119944,0.0,-0.0,0.0
173.9333333333639,-0.43750075,-1.2826933,-0.37637827,-1.8122289,0.0110037215,1.5933489,0.72824895,0.039999787,0.04,-4.582062,3.0507924556732178,8.119944,0.0,-0.0,0.0
173.95000000003057,-0.43750075,-1.2826933,-0.37637827,-1.8122289,0.0110037215,1.5933489,0.72824895,0.039999787,0.04,-4.582062,3.0507924556732178,8.119944,0.0,-0.0,0.0
173.96666666669725,-0.43750075,-1.2826933,-0.37637827,-1.8122289,0.0110037215,1.5933489,0.72824895,0.039999787,0.04,-4.582062,3.0507924556732178,8.119944,0.0,-0.0,0.0
173.98333333336393,-0.43750075,-1.2826933,-0.37637827,-1.8122289,0.0110037215,1.5933489,0.72824895,0.039999787,0.04,-4.582062,3.0507924556732178,8.119944,0.0,-0.0,0.0
174.0000000000306,-0.43750075,-1.2826933,-0.37637827,-1.8122289,0.0110037215,1.5933489,0.72824895,0.039999787,0.04,-4.582062,3.0507924556732178,8.119944,0.0,-0.0,0.0
174.0166666666973,-0.43750075,-1.2826933,-0.37637827,-1.8122289,0.0110037215,1.5933489,0.72824895,0.039999787,0.04,-4.582062,3.0507924556732178,8.119944,0.0,-0.0,0.0
174.03333333336397,-0.43750075,-1.2826933,-0.37637827,-1.8122289,0.0110037215,1.5933489,0.72824895,0.039999787,0.04,-4.582062,3.0507924556732178,8.119944,0.0,-0.0,0.0
174.05000000003065,-0.43750075,-1.2826933,-0.37637827,-1.8122289,0.0110037215,1.5933489,0.72824895,0.039999787,0.04,-4.582062,3.0507924556732178,8.119944,0.0,-0.0,0.0
174.06666666669733,-0.43750075,-1.2826933,-0.37637827,-1.8122289,0.0110037215,1.5933489,0.72824895,0.039999787,0.04,-4.582062,3.0507924556732178,8.119944,0.0,-0.0,0.0
174.083333333364,-0.43750075,-1.2826933,-0.37637827,-1.8122289,0.0110037215,1.5933489,0.72824895,0.039999787,0.04,-4.582062,3.0507924556732178,8.119944,0.0,-0.0,0.0
174.1000000000307,-0.43750075,-1.2826933,-0.37637827,-1.8122289,0.0110037215,1.5933489,0.72824895,0.039999787,0.04,-4.582062,3.0507924556732178,8.119944,0.0,-0.0,0.0
174.11666666669737,-0.43750075,-1.2826933,-0.37637827,-1.8122289,0.0110037215,1.5933489,0.72824895,0.039999787,0.04,-4.582062,3.0507924556732178,8.119944,0.0,-0.0,0.0
174.13333333336405,-0.43750075,-1.2826933,-0.37637827,-1.8122289,0.0110037215,1.5933489,0.72824895,0.039999787,0.04,-4.582062,3.0507924556732178,8.119944,0.0,-0.0,0.0
174.15000000003073,-0.43750075,-1.2826933,-0.37637827,-1.8122289,0.0110037215,1.5933489,0.72824895,0.039999787,0.04,-4.582062,3.0507924556732178,8.119944,0.0,-0.0,0.0
174.1666666666974,-0.43750075,-1.2826933,-0.37637827,-1.8122289,0.0110037215,1.5933489,0.72824895,0.039999787,0.04,-4.582062,3.0507924556732178,8.119944,0.0,-0.0,0.0
174.1833333333641,-0.43750075,-1.2826933,-0.37637827,-1.8122289,0.0110037215,1.5933489,0.72824895,0.039999787,0.04,-4.582062,3.0507924556732178,8.119944,0.0,-0.0,0.0
174.20000000003077,-0.43750075,-1.2826933,-0.37637827,-1.8122289,0.0110037215,1.5933489,0.72824895,0.039999787,0.04,-4.582062,3.0507924556732178,8.119944,0.0,-0.0,0.0
174.21666666669745,-0.43750075,-1.2826933,-0.37637827,-1.8122289,0.0110037215,1.5933489,0.72824895,0.039999787,0.04,-4.582062,3.0507924556732178,8.119944,0.0,-0.0,0.0
174.23333333336413,-0.43750075,-1.2826933,-0.37637827,-1.8122289,0.0110037215,1.5933489,0.72824895,0.039999787,0.04,-4.582062,3.0507924556732178,8.119944,0.0,-0.0,0.0
174.2500000000308,-0.43750075,-1.2826933,-0.37637827,-1.8122289,0.0110037215,1.5933489,0.72824895,0.039999787,0.04,-4.582062,3.0507924556732178,8.119944,0.0,-0.0,0.0
174.2666666666975,-0.43750075,-1.2826933,-0.37637827,-1.8122289,0.0110037215,1.5933489,0.72824895,0.039999787,0.04,-4.582062,3.0507924556732178,8.119944,0.0,-0.0,0.0
174.28333333336417,-0.43750075,-1.2826933,-0.37637827,-1.8122289,0.0110037215,1.5933489,0.72824895,0.039999787,0.04,-4.582062,3.0507924556732178,8.119944,0.0,-0.0,0.0
174.30000000003085,-0.43750075,-1.2826933,-0.37637827,-1.8122289,0.0110037215,1.5933489,0.72824895,0.039999787,0.04,-4.582062,3.0507924556732178,8.119944,0.0,-0.0,0.0
174.31666666669753,-0.43750075,-1.2826933,-0.37637827,-1.8122289,0.0110037215,1.5933489,0.72824895,0.039999787,0.04,-4.582062,3.0507924556732178,8.119944,0.0,-0.0,0.0
174.3333333333642,-0.43750075,-1.2826933,-0.37637827,-1.8122289,0.0110037215,1.5933489,0.72824895,0.039999787,0.04,-4.582062,3.0507924556732178,8.119944,0.0,-0.0,0.0
174.3500000000309,-0.43750075,-1.2826933,-0.37637827,-1.8122289,0.0110037215,1.5933489,0.72824895,0.039999787,0.04,-4.582062,3.0507924556732178,8.119944,0.0,-0.0,0.0
174.36666666669757,-0.43750075,-1.2826933,-0.37637827,-1.8122289,0.0110037215,1.5933489,0.72824895,0.039999787,0.04,-4.582062,3.0507924556732178,8.119944,0.0,-0.0,0.0
174.38333333336425,-0.43750075,-1.2826933,-0.37637827,-1.8122289,0.0110037215,1.5933489,0.72824895,0.039999787,0.04,-4.582062,3.0507924556732178,8.119944,0.0,-0.0,0.0
174.40000000003093,-0.43750075,-1.2826933,-0.37637827,-1.8122289,0.0110037215,1.5933489,0.72824895,0.039999787,0.04,-4.582062,3.0507924556732178,8.119944,0.0,-0.0,0.0
174.4166666666976,-0.43750075,-1.2826933,-0.37637827,-1.8122289,0.0110037215,1.5933489,0.72824895,0.039999787,0.04,-4.582062,3.0507924556732178,8.119944,0.0,-0.0,0.0
174.4333333333643,-0.43750075,-1.2826933,-0.37637827,-1.8122289,0.0110037215,1.5933489,0.72824895,0.039999787,0.04,-4.582062,3.0507924556732178,8.119944,0.0,-0.0,0.0
174.45000000003097,-0.43750075,-1.2826933,-0.37637827,-1.8122289,0.0110037215,1.5933489,0.72824895,0.039999787,0.04,-4.582062,3.0507924556732178,8.119944,0.0,-0.0,0.0
174.46666666669765,-0.43750075,-1.2826933,-0.37637827,-1.8122289,0.0110037215,1.5933489,0.72824895,0.039999787,0.04,-4.582062,3.0507924556732178,8.119944,0.0,-0.0,0.0
174.48333333336433,-0.43750075,-1.2826933,-0.37637827,-1.8122289,0.0110037215,1.5933489,0.72824895,0.039999787,0.04,-4.582062,3.0507924556732178,8.119944,0.0,-0.0,0.0
174.500000000031,-0.43750075,-1.2826933,-0.37637827,-1.8122289,0.0110037215,1.5933489,0.72824895,0.039999787,0.04,-4.582062,3.0507924556732178,8.119944,0.0,-0.0,0.0
174.5166666666977,-0.43750075,-1.2826933,-0.37637827,-1.8122289,0.0110037215,1.5933489,0.72824895,0.039999787,0.04,-4.582062,3.0507924556732178,8.119944,0.0,-0.0,0.0
174.53333333336437,-0.43750075,-1.2826933,-0.37637827,-1.8122289,0.0110037215,1.5933489,0.72824895,0.039999787,0.04,-4.582062,3.0507924556732178,8.119944,0.0,-0.0,0.0
174.55000000003105,-0.43750075,-1.2826933,-0.37637827,-1.8122289,0.0110037215,1.5933489,0.72824895,0.039999787,0.04,-4.582062,3.0507924556732178,8.119944,0.0,-0.0,0.0
174.56666666669773,-0.43750075,-1.2826933,-0.37637827,-1.8122289,0.0110037215,1.5933489,0.72824895,0.039999787,0.04,-4.582062,3.0507924556732178,8.119944,0.0,-0.0,0.0
174.5833333333644,-0.43750075,-1.2826933,-0.37637827,-1.8122289,0.0110037215,1.5933489,0.72824895,0.039999787,0.04,-4.582062,3.0507924556732178,8.119944,0.0,-0.0,0.0
174.6000000000311,-0.43750075,-1.2826933,-0.37637827,-1.8122289,0.0110037215,1.5933489,0.72824895,0.039999787,0.04,-4.582062,3.0507924556732178,8.119944,0.0,-0.0,0.0
174.61666666669777,-0.43750075,-1.2826933,-0.37637827,-1.8122289,0.0110037215,1.5933489,0.72824895,0.039999787,0.04,-4.582062,3.0507924556732178,8.119944,0.0,-0.0,0.0
174.63333333336445,-0.43750075,-1.2826933,-0.37637827,-1.8122289,0.0110037215,1.5933489,0.72824895,0.039999787,0.04,-4.582062,3.0507924556732178,8.119944,0.0,-0.0,0.0
174.65000000003113,-0.43750075,-1.2826933,-0.37637827,-1.8122289,0.0110037215,1.5933489,0.72824895,0.039999787,0.04,-4.582062,3.0507924556732178,8.119944,0.0,-0.0,0.0
174.6666666666978,-0.43750075,-1.2826933,-0.37637827,-1.8122289,0.0110037215,1.5933489,0.72824895,0.039999787,0.04,-4.582062,3.0507924556732178,8.119944,0.0,-0.0,0.0
174.6833333333645,-0.43750075,-1.2826933,-0.37637827,-1.8122289,0.0110037215,1.5933489,0.72824895,0.039999787,0.04,-4.582062,3.0507924556732178,8.119944,0.0,-0.0,0.0
174.70000000003117,-0.43750075,-1.2826933,-0.37637827,-1.8122289,0.0110037215,1.5933489,0.72824895,0.039999787,0.04,-4.582062,3.0507924556732178,8.119944,0.0,-0.0,0.0
174.71666666669785,-0.43750075,-1.2826933,-0.37637827,-1.8122289,0.0110037215,1.5933489,0.72824895,0.039999787,0.04,-4.582062,3.0507924556732178,8.119944,0.0,-0.0,0.0
174.73333333336453,-0.43750075,-1.2826933,-0.37637827,-1.8122289,0.0110037215,1.5933489,0.72824895,0.039999787,0.04,-4.582062,3.0507924556732178,8.119944,0.0,-0.0,0.0
174.7500000000312,-0.43750075,-1.2826933,-0.37637827,-1.8122289,0.0110037215,1.5933489,0.72824895,0.039999787,0.04,-4.582062,3.0507924556732178,8.119944,0.0,-0.0,0.0
174.7666666666979,-0.43750075,-1.2826933,-0.37637827,-1.8122289,0.0110037215,1.5933489,0.72824895,0.039999787,0.04,-4.582062,3.0507924556732178,8.119944,0.0,-0.0,0.0
174.78333333336457,-0.43750075,-1.2826933,-0.37637827,-1.8122289,0.0110037215,1.5933489,0.72824895,0.039999787,0.04,-4.582062,3.0507924556732178,8.119944,0.0,-0.0,0.0
174.80000000003125,-0.43750075,-1.2826933,-0.37637827,-1.8122289,0.0110037215,1.5933489,0.72824895,0.039999787,0.04,-4.582062,3.0507924556732178,8.119944,0.0,-0.0,0.0
