rsonawane2002/My_IMU/logs_2/traj_310/imu_310.csv
time,j1,j2,j3,j4,j5,j6,j7,gripper1,gripper2,imu_ax,imu_ay,imu_az,imu_gx,imu_gy,imu_gz
652.9833333330681,0.00016700293,-0.785875,4.0107683e-05,-2.3551247,9.29385e-05,1.570997,0.786,0.04,0.04,-9.504774,0.01396165881305933,0.111294776,-3.019862e-07,-0.0011641274904832244,3.7324145e-07
652.9999999997348,0.00016699948,-0.78576016,4.0121875e-05,-2.3552213,9.2970826e-05,1.5709941,0.786,0.04,0.04,-9.834419,0.0006327829323709011,0.00907789,5.0315737e-07,-0.002238763030618429,5.100931e-07
653.0166666664014,0.00016695324,-0.7856543,4.018567e-05,-2.35531,9.2978335e-05,1.5709913,0.786,0.04,0.04,-9.832576,0.0006517255096696317,0.007510938,4.8896495e-06,-0.003231618320569396,-2.3737875e-06
653.0333333330681,0.00016679514,-0.78555703,4.0381503e-05,-2.355391,9.292496e-05,1.5709884,0.786,0.04,0.04,-9.830955,0.000679355172906071,0.0060417885,1.6649856e-05,-0.004152948036789894,-1.0738225e-05
653.0499999997347,0.00016642708,-0.7854678,4.0827552e-05,-2.3554652,9.275939e-05,1.5709856,0.786,0.04,0.04,-9.829491,0.0007212150376290083,0.0046545914,3.9297127e-05,-0.005007370375096798,-2.693248e-05
653.0666666664014,0.00016572498,-0.7853863,4.167426e-05,-2.355532,9.241615e-05,1.5709827,0.7860019,0.04,0.04,-9.828235,0.0007656770758330822,0.0033201543,7.687713e-05,-0.005804239772260189,-5.306833e-05
653.083333333068,0.0001645408,-0.78531224,4.3100714e-05,-2.3555934,9.181622e-05,1.5709798,0.7860038,0.04,0.04,-9.827075,0.0008204965852200985,0.0020575486,0.00012326431,-0.006546307820826769,-9.102582e-05
653.0999999997347,0.00016270578,-0.7852452,4.531193e-05,-2.3556511,9.088093e-05,1.5709769,0.78600764,0.04,0.039999995,-9.82627,0.000881847576238215,0.000858821,0.0001912359,-0.0072468603029847145,-0.00014175035
653.1166666664013,0.00016003232,-0.78518516,4.8536254e-05,-2.355702,8.949123e-05,1.5709739,0.78601146,0.04,0.04,-9.8258,0.0009278448997065425,-0.00030715438,0.00027491327,-0.007918638177216053,-0.00020907016
653.133333333068,0.00015631584,-0.7851318,5.302227e-05,-2.3557482,8.755831e-05,1.5709707,0.7860172,0.04,0.039999995,-9.824957,0.0009849753696471453,-0.0014194422,0.00038677288,-0.008547179400920868,-0.00029121822
653.1499999997346,0.00015133734,-0.78508514,5.9036898e-05,-2.3557906,8.495598e-05,1.570964,0.7860252,0.04,0.039999995,-9.824582,0.0010228699538856745,-0.0024648476,0.0005206244,-0.009151294827461243,-0.00039173922
653.1666666664013,0.00014486439,-0.7850452,6.686301e-05,-2.3558266,8.1570426e-05,1.5709573,0.7860366,0.04,0.03999999,-9.824409,0.0010603866539895535,-0.0033986305,0.0006779509,-0.009749135933816433,-0.0005100961
653.1833333330679,0.00013665338,-0.7850119,7.679777e-05,-2.355861,7.725242e-05,1.5709503,0.7860501,0.04,0.039999995,-9.82391,0.001065943855792284,-0.00435985,0.0008569327,-0.010316380299627781,-0.00064955314
653.1999999997346,0.00012645054,-0.7849853,8.915046e-05,-2.3558886,7.1875926e-05,1.5709407,0.78606725,0.04,0.039999995,-9.824172,0.0010667776223272085,-0.0052708043,0.0010667033,-0.010881507769227028,-0.0008085208
653.2166666664012,0.00011399362,-0.78496575,0.000104240884,-2.3559122,6.529579e-05,1.5709301,0.7860882,0.04,0.04,-9.823819,0.0010309569770470262,-0.0060682725,0.0013021368,-0.011430240236222744,-0.000989261
653.2333333330679,9.901268e-05,-0.7849532,0.00012239785,-2.3559318,5.7384397e-05,1.5709178,0.78611344,0.039999995,0.03999999,-9.823765,0.0009826403111219406,-0.0068061906,0.0015660384,-0.011968362145125866,-0.0011900474
653.2499999997345,8.123189e-05,-0.78494775,0.0001439581,-2.3559468,4.7987847e-05,1.5709032,0.78614324,0.039999995,0.03999999,-9.823976,0.000897514633834362,-0.00751971,0.001859022,-0.012504682876169682,-0.0014137345
653.2666666664012,6.0370116e-05,-0.78494984,0.0001692647,-2.3559582,3.695605e-05,1.5708851,0.7861784,0.039999995,0.03999999,-9.824107,0.0007721550646238029,-0.008141516,0.0021819733,-0.013039984740316868,-0.0016599337
653.2833333330678,3.6142115e-05,-0.7849595,0.00019866577,-2.3559647,2.4131066e-05,1.5708659,0.78621924,0.039999995,0.039999995,-9.824402,0.0006044397014193237,-0.00867225,0.002534119,-0.013583367690443993,-0.0019297295
653.2999999997345,8.259032e-06,-0.78497714,0.00023251366,-2.3559685,9.3669405e-06,1.5708436,0.78626615,0.03999999,0.03999999,-9.824537,0.0003992586862295866,-0.009202946,0.0029168688,-0.01411974523216486,-0.00222185
653.3166666664011,-2.3570334e-05,-0.78500307,0.00027116376,-2.355966,-7.4908667e-06,1.5708175,0.7863197,0.03999999,0.03999999,-9.825082,0.00014477747026830912,-0.00959874,0.0033308154,-0.014670860022306442,-0.0025372782
653.3333333330678,-5.9638885e-05,-0.78503734,0.0003149738,-2.35596,-2.6598062e-05,1.5707878,0.78638047,0.039999988,0.039999988,-9.825169,-0.00017002911772578955,-0.009906414,0.0037757305,-0.015222459100186825,-0.0028761611
653.3499999997345,-0.00010024088,-0.7850806,0.00036430277,-2.355949,-4.811096e-05,1.5707545,0.7864488,0.039999984,0.039999984,-9.825635,-0.0005417661741375923,-0.010155943,0.004251101,-0.015786753967404366,-0.0032385774
653.3666666664011,-0.00014567097,-0.7851328,0.00041951044,-2.355934,-7.2185874e-05,1.5707176,0.7865252,0.03999998,0.03999998,-9.826008,-0.0009682406671345234,-0.0103114955,0.004758039,-0.016359511762857437,-0.003624565
653.3833333330678,-0.00019622361,-0.7851947,0.0004809566,-2.3559148,-9.897945e-05,1.5706766,0.7866102,0.039999977,0.039999977,-9.826488,-0.0014675117563456297,-0.010407961,0.005296597,-0.016944264993071556,-0.0040341183
653.3999999997344,-0.00025219284,-0.7852663,0.00054899993,-2.3558896,-0.00012864737,1.5706311,0.78670436,0.039999973,0.03999997,-9.827041,-0.0020335218869149685,-0.010386056,0.005866251,-0.017544299364089966,-0.004466324
653.416666666401,-0.00031387154,-0.785348,0.0006239982,-2.35586,-0.00016134615,1.5705816,0.7868082,0.03999997,0.039999966,-9.82732,-0.0026787170208990574,-0.010292849,0.0064670146,-0.018150676041841507,-0.0049228175
653.4333333330677,-0.00038155113,-0.7854403,0.00070630753,-2.3558257,-0.00019723001,1.5705274,0.78692216,0.039999973,0.03999997,-9.827871,-0.003402426140382886,-0.010097885,0.0070983837,-0.0187717042863369,-0.0054026153
653.4499999997344,-0.00045552105,-0.78554344,0.00079628086,-2.3557856,-0.00023645333,1.5704683,0.7870468,0.039999973,0.039999973,-9.82841,-0.0042099179700016975,-0.009781678,0.007760646,-0.019406907260417938,-0.005906412
653.466666666401,-0.0005360687,-0.785658,0.00089426944,-2.3557408,-0.0002791676,1.5704035,0.7871824,0.03999997,0.03999997,-9.828825,-0.005103032570332289,-0.009379708,0.008453025,-0.020053956657648087,-0.0064323274
653.4833333330677,-0.0006234784,-0.7857839,0.0010006211,-2.3556907,-0.0003255246,1.5703335,0.78732944,0.03999997,0.03999997,-9.829346,-0.006095282733440399,-0.00878136,0.009176625,-0.020719869062304497,-0.006980996
653.4999999997343,-0.0007180324,-0.7859219,0.0011156795,-2.355635,-0.0003756739,1.5702578,0.78748864,0.03999997,0.03999997,-9.830005,-0.007166614290326834,-0.008222479,0.009930672,-0.021403197199106216,-0.0075521986
653.516666666401,-0.00082000915,-0.7860722,0.0012397853,-2.3555737,-0.0004297633,1.5701759,0.7876604,0.039999966,0.039999966,-9.830472,-0.008348880335688591,-0.0074637732,0.010714085,-0.022100238129496574,-0.008145674
653.5333333330676,-0.00092968374,-0.7862352,0.0013732745,-2.3555064,-0.00048793922,1.570088,0.787845,0.039999966,0.039999966,-9.831041,-0.00962793081998825,-0.0065869647,0.01152689,-0.02281571924686432,-0.008761148
653.5499999997343,-0.0010473276,-0.78641135,0.0015164794,-2.3554337,-0.0005503461,1.5699939,0.7880432,0.039999966,0.039999966,-9.831585,-0.011017398908734322,-0.0056046164,0.012369412,-0.023547794669866562,-0.009398339
653.5666666664009,-0.001173209,-0.78660095,0.0016697265,-2.3553548,-0.00061712565,1.5698928,0.7882553,0.039999966,0.039999966,-9.83214,-0.012521294876933098,-0.004477728,0.013240587,-0.024296682327985764,-0.010056939
653.5833333330676,-0.0013075914,-0.78680444,0.0018333386,-2.35527,-0.00068841805,1.5697849,0.78848165,0.03999996,0.03999996,-9.832681,-0.01413667295128107,-0.0032210238,0.014139876,-0.025064243003726006,-0.010736616
653.5999999997342,-0.0014507346,-0.78702205,0.0020076323,-2.3551784,-0.0007643609,1.5696702,0.78872293,0.03999996,0.03999996,-9.833234,-0.015873445197939873,-0.001845385,0.015067634,-0.025848908349871635,-0.01143705
653.6166666664009,-0.0016028937,-0.78725433,0.002192919,-2.3550806,-0.0008450905,1.5695482,0.78897923,0.03999996,0.03999996,-9.833697,-0.017722908407449722,-0.00033623166,0.016022757,-0.026648519560694695,-0.012157904
653.6333333330675,-0.0017643196,-0.7875015,0.0023895057,-2.3549762,-0.00093073945,1.5694189,0.78925115,0.03999996,0.03999996,-9.834302,-0.019708916544914246,0.0013407376,0.017006168,-0.027467144653201103,-0.012898817
653.6499999997342,-0.0019352583,-0.7877638,0.002597694,-2.3548658,-0.0010214384,1.5692819,0.7895392,0.03999996,0.03999996,-9.834748,-0.021821342408657074,0.0031366348,0.018016493,-0.028300702571868896,-0.01365945
653.6666666664008,-0.0021159516,-0.7880417,0.0028177784,-2.354748,-0.0011173153,1.5691371,0.7898436,0.03999996,0.03999996,-9.835434,-0.024063218384981155,0.0050781537,0.019052688,-0.029157821089029312,-0.014439373
653.6833333330675,-0.0023066362,-0.7883356,0.0030500474,-2.3546233,-0.0012184981,1.5689843,0.79016495,0.03999996,0.039999966,-9.835841,-0.026453766971826553,0.007173851,0.020115972,-0.030028942972421646,-0.015240069
653.6999999997341,-0.0025075437,-0.7886459,0.003294785,-2.3544912,-0.0013251059,1.5688233,0.79050344,0.039999958,0.039999958,-9.836328,-0.028957152739167213,0.0094304215,0.021204626,-0.030916227027773857,-0.016056681
653.7166666664008,-0.0027189008,-0.78897274,0.0035522683,-2.3543515,-0.0014372608,1.5686541,0.7908595,0.039999958,0.039999958,-9.8368025,-0.03161846101284027,0.011844499,0.022318745,-0.03181908652186394,-0.01689232
653.7333333330674,-0.0029409311,-0.7893166,0.0038227688,-2.3542044,-0.0015550816,1.5684762,0.7912336,0.039999958,0.03999996,-9.837089,-0.034432604908943176,0.0144755915,0.023458106,-0.03273584693670273,-0.01774577
653.7499999997341,-0.003173851,-0.7896777,0.004106552,-2.3540497,-0.001678685,1.5682896,0.79162616,0.039999958,0.03999998,-9.837694,-0.037409014999866486,0.01715805,0.024621697,-0.03367064520716667,-0.018622683
653.7666666664007,-0.0034178712,-0.7900562,0.004403874,-2.3538876,-0.001808177,1.5680941,0.7920374,0.03999996,0.039999966,-9.838086,-0.040441662073135376,0.020061223,0.0258091,-0.034619465470314026,-0.019505275
653.7833333330674,-0.0036731986,-0.7904527,0.004714989,-2.3537178,-0.0019436732,1.5678895,0.7924678,0.039999958,0.039999995,-9.8386135,-0.04377405717968941,0.023131872,0.027019884,-0.03558821976184845,-0.020417329
653.799999999734,-0.0039400356,-0.7908674,0.005040144,-2.3535402,-0.002085281,1.5676756,0.79291755,0.03999996,0.04,-9.839011,-0.04713687300682068,0.026384462,0.028253822,-0.036571476608514786,-0.02133787
653.8166666664007,-0.004218579,-0.7913005,0.005379578,-2.353355,-0.002233087,1.5674523,0.79338706,0.03999996,0.04,-9.839443,-0.05071089416742325,0.029801926,0.029510621,-0.03757137432694435,-0.022274273
653.8333333330673,-0.0045090173,-0.79175246,0.005733525,-2.3531618,-0.0023871993,1.5672195,0.7938766,0.03999996,0.04,-9.839868,-0.05443853884935379,0.033399623,0.030789752,-0.03858809173107147,-0.023226071
653.849999999734,-0.004811538,-0.79222345,0.006102211,-2.3529603,-0.0025477316,1.5669773,0.7943865,0.03999996,0.04,-9.840288,-0.05833660066127777,0.037195798,0.032090846,-0.039620764553546906,-0.024192872
653.8666666664006,-0.005126322,-0.79271376,0.0064858585,-2.35275,-0.0027147795,1.5667249,0.79491717,0.03999997,0.04,-9.840612,-0.06240321695804596,0.041143186,0.033413287,-0.04066639766097069,-0.025175782
653.8833333330673,-0.005453544,-0.79322356,0.0068846783,-2.3525307,-0.00288843,1.5664625,0.79546875,0.039999966,0.04,-9.840904,-0.06663107126951218,0.045298323,0.034756415,-0.04172541946172714,-0.026172841
653.899999999734,-0.005793375,-0.79375327,0.0072988803,-2.352303,-0.0030687633,1.5661902,0.7960416,0.03999996,0.04,-9.841153,-0.07102655619382858,0.049647607,0.03612027,-0.042796820402145386,-0.027182832
653.9166666664006,-0.0061459774,-0.7943031,0.007728667,-2.3520668,-0.0032558907,1.5659075,0.796636,0.039999958,0.04,-9.841459,-0.07560136169195175,0.054183666,0.03750441,-0.043881043791770935,-0.028206933
653.9333333330673,-0.0065115117,-0.794873,0.008174227,-2.3518221,-0.0034498882,1.5656146,0.7972521,0.039999954,0.04,-9.841757,-0.0803401842713356,0.058934696,0.038908064,-0.04497995972633362,-0.029243832
653.9499999997339,-0.0068901335,-0.79546386,0.008635754,-2.3515692,-0.0036508315,1.5653111,0.79789037,0.039999958,0.04,-9.842103,-0.08525943756103516,0.06384181,0.04033139,-0.04609496518969536,-0.030292371
653.9666666664006,-0.0072819884,-0.7960751,0.009113431,-2.3513062,-0.0038587898,1.5649971,0.79855096,0.039999958,0.04,-9.842361,-0.0903635248541832,0.06900606,0.041773356,-0.04722316563129425,-0.03135298
653.9833333330672,-0.0076872236,-0.7967076,0.009607433,-2.351034,-0.004073872,1.5646722,0.79923415,0.039999977,0.04,-9.842343,-0.09566739946603775,0.07438224,0.04323358,-0.048359885811805725,-0.03242648
653.9999999997339,-0.008105976,-0.7973612,0.010117927,-2.3507526,-0.0042961137,1.5643365,0.7999399,0.039999988,0.04,-9.842654,-0.10113069415092468,0.079877034,0.04471145,-0.04950912669301033,-0.033516478
654.0166666664005,-0.008538382,-0.7980362,0.010645076,-2.350463,-0.0045255735,1.56399,0.80066943,0.039999988,0.04,-9.842809,-0.10673274099826813,0.08563119,0.046208367,-0.05066957697272301,-0.03461021
654.0333333330672,-0.008984567,-0.79873294,0.011189037,-2.3501644,-0.004762343,1.5636324,0.8014219,0.03999998,0.04,-9.843068,-0.11257501691579819,0.09158753,0.047718547,-0.05184509977698326,-0.035715986
654.0499999997338,-0.00944465,-0.79945135,0.011749962,-2.3498554,-0.005006501,1.5632639,0.8021976,0.039999973,0.04,-9.843239,-0.11858153343200684,0.09776647,0.04924718,-0.053033698350191116,-0.036831725
654.0666666664005,-0.009918753,-0.80019194,0.0123279905,-2.3495367,-0.005258087,1.562884,0.8029969,0.03999997,0.04,-9.843177,-0.12477612495422363,0.10414235,0.050793074,-0.05422693490982056,-0.03795641
654.0833333330671,-0.01040699,-0.8009545,0.01292326,-2.3492093,-0.0055171847,1.5624928,0.80381995,0.039999966,0.04,-9.843206,-0.13116344809532166,0.110789396,0.052355126,-0.055429860949516296,-0.039091144
654.0999999997338,-0.010909466,-0.8017395,0.013535905,-2.3488717,-0.005783845,1.5620899,0.80466706,0.03999996,0.04,-9.843395,-0.13773523271083832,0.11760782,0.053932708,-0.05664787068963051,-0.04023465
654.1166666664004,-0.011426283,-0.8025471,0.014166049,-2.3485243,-0.006058119,1.5616757,0.80553836,0.039999958,0.04,-9.843329,-0.14449338614940643,0.124685116,0.05552559,-0.05787469819188118,-0.041385733
654.1333333330671,-0.011957537,-0.8033773,0.0148138115,-2.348168,-0.006340046,1.56125,0.806434,0.039999954,0.04,-9.8432455,-0.1514468789100647,0.1319711,0.057132766,-0.05910760909318924,-0.042544965
654.1499999997337,-0.012503323,-0.8042301,0.015479304,-2.3478014,-0.0066296863,1.5608127,0.80735415,0.039999947,0.04,-9.843319,-0.15859928727149963,0.13948104,0.05875497,-0.060353681445121765,-0.04371264
654.1666666664004,-0.01306373,-0.8051059,0.016162634,-2.3474245,-0.0069270814,1.5603635,0.808299,0.039999943,0.04,-9.84318,-0.16592782735824585,0.14720578,0.06039051,-0.06160646304488182,-0.044886753
654.183333333067,-0.013638836,-0.8060046,0.016863897,-2.347038,-0.0072322707,1.5599024,0.8092687,0.03999994,0.04,-9.843002,-0.1734546720981598,0.15520397,0.062039483,-0.06286614388227463,-0.04606786
654.1999999997337,-0.014228723,-0.80692655,0.017583197,-2.3466423,-0.0075453087,1.5594295,0.81026334,0.039999943,0.04,-9.842921,-0.1811755746603012,0.16339548,0.063701265,-0.0641370490193367,-0.047255334
654.2166666664003,-0.014833459,-0.8078717,0.018320622,-2.3462353,-0.007866205,1.558945,0.8112829,0.039999943,0.04,-9.842795,-0.1890847086906433,0.17184973,0.065375924,-0.06541741639375687,-0.048448138
654.233333333067,-0.015453114,-0.8088402,0.019076247,-2.3458188,-0.008195036,1.558448,0.81232756,0.039999947,0.04,-9.842282,-0.19722440838813782,0.1806181,0.06706374,-0.06669937074184418,-0.049649365
654.2499999997336,-0.01608775,-0.80983216,0.019850153,-2.3453922,-0.008531799,1.557939,0.81339747,0.039999947,0.04,-9.842264,-0.205494225025177,0.18945466,0.06876321,-0.06799347698688507,-0.05085412
654.2666666664003,-0.016737424,-0.8108479,0.020642407,-2.3449554,-0.008876545,1.5574183,0.81449276,0.039999943,0.04,-9.841961,-0.2139999121427536,0.19861405,0.070474975,-0.06929367035627365,-0.052065514
654.2833333330669,-0.017402187,-0.8118871,0.021453073,-2.344509,-0.009229293,1.5568856,0.8156136,0.039999943,0.04,-9.841582,-0.22266970574855804,0.20803376,0.07219738,-0.07059720158576965,-0.053279985
654.2999999997336,-0.018082099,-0.81295,0.022282219,-2.344052,-0.009590072,1.5563406,0.81676006,0.03999994,0.04,-9.841289,-0.2315545529127121,0.21768194,0.07393035,-0.07191013544797897,-0.054499447
654.3166666664002,-0.018777194,-0.8140366,0.023129888,-2.3435845,-0.009958922,1.5557833,0.8179321,0.039999936,0.04,-9.840864,-0.24063830077648163,0.22758554,0.07567345,-0.07322912663221359,-0.0557235
654.3333333330669,-0.019487513,-0.8151473,0.023996135,-2.3431075,-0.010335889,1.5552139,0.81912977,0.039999954,0.04,-9.8403425,-0.2499501258134842,0.23773272,0.07742658,-0.07455182820558548,-0.05695942
654.3499999997335,-0.020213094,-0.8162818,0.024880996,-2.3426197,-0.010720895,1.5546322,0.8203531,0.039999954,0.04,-9.839913,-0.25933369994163513,0.2481461,0.07918995,-0.07588136196136475,-0.05818675
654.3666666664002,-0.02095396,-0.81744003,0.025784517,-2.3421214,-0.011114007,1.5540384,0.8216022,0.039999947,0.04,-9.839299,-0.2689991891384125,0.25879803,0.08096307,-0.07721345871686935,-0.059419554
654.3833333330668,-0.02171014,-0.8186224,0.026706716,-2.3416133,-0.011515263,1.5534323,0.8228773,0.039999943,0.04,-9.838731,-0.27885016798973083,0.26969597,0.082744606,-0.07855100184679031,-0.060656294
654.3999999997335,-0.022481658,-0.81982875,0.027647628,-2.3410945,-0.011924646,1.5528139,0.8241781,0.039999943,0.04,-9.8381195,-0.2888624668121338,0.28086898,0.084534675,-0.07989338040351868,-0.061892584
654.4166666664001,-0.023268525,-0.8210591,0.028607268,-2.3405654,-0.012342173,1.5521832,0.82550484,0.03999994,0.04,-9.837377,-0.29908692836761475,0.2922978,0.08633329,-0.08123824000358582,-0.06313143
654.4333333330668,-0.024070753,-0.82231355,0.029585652,-2.340026,-0.012767842,1.5515401,0.8268575,0.039999936,0.04,-9.836671,-0.3094879984855652,0.30398232,0.0881397,-0.0825880616903305,-0.06437076
654.4499999997334,-0.024888355,-0.823592,0.030582786,-2.3394754,-0.013201673,1.5508848,0.8282361,0.039999932,0.04,-9.835831,-0.32009413838386536,0.31593055,0.08995342,-0.08393900841474533,-0.06561281
654.4666666664001,-0.025721328,-0.82489455,0.03159868,-2.3389156,-0.013643646,1.5502172,0.8296408,0.039999932,0.04,-9.834916,-0.3308548927307129,0.3281428,0.09177417,-0.08529016375541687,-0.06685329
654.4833333330668,-0.026569672,-0.8262211,0.032633327,-2.3383455,-0.014093788,1.5495372,0.83107144,0.03999993,0.04,-9.834012,-0.3418608009815216,0.3407224,0.09360088,-0.08664950728416443,-0.06809695
654.4999999997334,-0.027433388,-0.8275719,0.033686724,-2.3377647,-0.014552079,1.5488448,0.8325276,0.039999932,0.04,-9.83319,-0.35298535227775574,0.3533506,0.09543389,-0.08801056444644928,-0.069338955
654.5166666664,-0.028312463,-0.8289467,0.03475886,-2.3371735,-0.015018503,1.5481399,0.8340098,0.03999993,0.04,-9.832148,-0.36431583762168884,0.3663756,0.09727495,-0.08937305212020874,-0.07058064
654.5333333330667,-0.029206883,-0.83034533,0.035849717,-2.336572,-0.015493089,1.5474231,0.83551776,0.03999993,0.04,-9.8310375,-0.37583857774734497,0.37964892,0.09912088,-0.09073685109615326,-0.07182235
654.5499999997334,-0.030116634,-0.83176804,0.03695928,-2.3359601,-0.015975831,1.5466933,0.83705163,0.039999947,0.04,-9.829925,-0.3875892162322998,0.3931685,0.10097271,-0.09210172295570374,-0.07307215
654.5666666664,-0.031041687,-0.8332146,0.038087506,-2.3353384,-0.016466638,1.5459517,0.83861136,0.03999995,0.04,-9.828725,-0.39938580989837646,0.40700412,0.102828994,-0.09347007423639297,-0.07430877
654.5833333330667,-0.03198202,-0.8346852,0.03923436,-2.3347058,-0.016965553,1.5451983,0.8401969,0.039999943,0.04,-9.827525,-0.41145041584968567,0.42106077,0.104689926,-0.09483993798494339,-0.07554624
654.5999999997333,-0.032937612,-0.8361797,0.040399823,-2.334063,-0.017472563,1.5444318,0.84180814,0.039999943,0.04,-9.826078,-0.4236650764942169,0.43542796,0.10655455,-0.09620419144630432,-0.076781124
654.6166666664,-0.033908397,-0.8376981,0.041583847,-2.3334107,-0.017987618,1.5436534,0.84344506,0.039999936,0.04,-9.824705,-0.43605005741119385,0.45007688,0.10842301,-0.09757263213396072,-0.07801335
654.6333333330666,-0.034894377,-0.83924013,0.042786375,-2.3327477,-0.018510723,1.5428631,0.8451077,0.03999993,0.04,-9.823332,-0.44862839579582214,0.46498585,0.110295124,-0.09894365817308426,-0.07924274
654.6499999997333,-0.035895474,-0.8408059,0.044007376,-2.3320742,-0.01904188,1.5420609,0.84679574,0.03999992,0.04,-9.82172,-0.46135732531547546,0.48015267,0.1121694,-0.10031021386384964,-0.08047096
654.6666666663999,-0.036911663,-0.84239525,0.04524677,-2.3313913,-0.01958103,1.5412462,0.84850925,0.039999925,0.04,-9.820091,-0.47424399852752686,0.49561226,0.11404695,-0.10167496651411057,-0.08169335
654.6833333330666,-0.037942883,-0.84400815,0.046504505,-2.3306978,-0.020128144,1.5404195,0.8502481,0.03999993,0.04,-9.8185,-0.48730722069740295,0.51135725,0.115927055,-0.10304290801286697,-0.08291263
654.6999999997332,-0.038989093,-0.8456444,0.047780532,-2.329994,-0.020683208,1.539581,0.8520121,0.039999925,0.04,-9.816637,-0.5005428791046143,0.5273746,0.11780885,-0.10440634191036224,-0.08412981
654.7166666663999,-0.040050235,-0.8473044,0.049074754,-2.3292804,-0.02124623,1.5387304,0.85380137,0.039999943,0.04,-9.814802,-0.5139647126197815,0.5436643,0.11969285,-0.10576783120632172,-0.085350074
654.7333333330665,-0.041126247,-0.84898746,0.050387118,-2.3285568,-0.021817101,1.5378678,0.85561574,0.03999994,0.04,-9.812768,-0.5274621844291687,0.5603702,0.12157775,-0.10712768882513046,-0.08655739
654.7499999997332,-0.04221707,-0.8506936,0.051717527,-2.3278234,-0.022395814,1.5369934,0.85745496,0.03999994,0.04,-9.810883,-0.5411348938941956,0.57711834,0.12346342,-0.10848574340343475,-0.08775882
654.7666666663998,-0.043322604,-0.852423,0.053065907,-2.3270805,-0.022982333,1.5361072,0.85931903,0.039999943,0.04,-9.808859,-0.5549664497375488,0.59425116,0.12534988,-0.10984345525503159,-0.08895429
654.7833333330665,-0.044442814,-0.8541752,0.05443218,-2.3263268,-0.02357661,1.5352092,0.8612078,0.039999936,0.04,-9.806668,-0.5689687728881836,0.6116879,0.1272365,-0.11119676381349564,-0.09014604
654.7999999997331,-0.04557761,-0.85595024,0.05581624,-2.3255634,-0.02417865,1.5342997,0.8631212,0.039999925,0.04,-9.804364,-0.5831096172332764,0.6293812,0.12912299,-0.1125466376543045,-0.09133252
654.8166666663998,-0.046726912,-0.8577479,0.057217993,-2.3247907,-0.024788382,1.5333785,0.8650591,0.03999993,0.04,-9.801965,-0.5973744988441467,0.64737844,0.13100815,-0.11388996988534927,-0.092511624
654.8333333330664,-0.047890637,-0.85956824,0.058637332,-2.3240077,-0.025405748,1.5324454,0.8670213,0.039999932,0.04,-9.799627,-0.6117908954620361,0.6656463,0.13289274,-0.11523406207561493,-0.09368392
654.8499999997331,-0.049068723,-0.86141104,0.060074165,-2.323215,-0.026030716,1.5315009,0.86900777,0.03999992,0.04,-9.797007,-0.6263440847396851,0.68422204,0.13477536,-0.11657249182462692,-0.094851285
654.8666666663997,-0.050261043,-0.8632763,0.06152837,-2.3224132,-0.026663303,1.5305451,0.87101823,0.039999936,0.04,-9.794376,-0.6410788297653198,0.70307595,0.13665622,-0.11790655553340912,-0.096020445
654.8833333330664,-0.051467523,-0.8651634,0.06299985,-2.3216019,-0.027303353,1.5295779,0.8730526,0.039999943,0.04,-9.791677,-0.6558163166046143,0.7222097,0.1385348,-0.11923607438802719,-0.09717
654.899999999733,-0.05268807,-0.86707276,0.06448849,-2.3207808,-0.027950833,1.5285994,0.87511057,0.039999943,0.04,-9.78889,-0.6707729697227478,0.7416037,0.1404108,-0.12056269496679306,-0.09831439
654.9166666663997,-0.05392258,-0.86900383,0.065994136,-2.3199503,-0.02860573,1.5276098,0.8771921,0.039999943,0.04,-9.78593,-0.685828447341919,0.76132953,0.14228433,-0.12188273668289185,-0.0994509
654.9333333330663,-0.055170953,-0.8709568,0.06751667,-2.3191109,-0.029267948,1.5266092,0.87929696,0.039999932,0.04,-9.7829,-0.7010044455528259,0.7813004,0.14415434,-0.12319707125425339,-0.100578725
654.949999999733,-0.056433085,-0.8729312,0.06905599,-2.3182619,-0.02993747,1.5255973,0.88142496,0.03999993,0.04,-9.779771,-0.7162944078445435,0.8015977,0.14602041,-0.12450583279132843,-0.10169878
654.9666666663996,-0.057708856,-0.8749269,0.07061195,-2.317404,-0.030614227,1.5245746,0.88357633,0.03999993,0.04,-9.776512,-0.7316946983337402,0.82215124,0.14788269,-0.12580879032611847,-0.102809325
654.9833333330663,-0.058998168,-0.876944,0.07218441,-2.3165362,-0.031298187,1.5235413,0.88575035,0.03999993,0.04,-9.773104,-0.7472307085990906,0.8430863,0.14973885,-0.12710700929164886,-0.10391395
654.999999999733,-0.06030091,-0.878982,0.07377328,-2.31566,-0.031989273,1.522497,0.887947,0.039999947,0.04,-9.769629,-0.7628730535507202,0.86413854,0.1515906,-0.1283937692642212,-0.105015345
655.0166666663996,-0.061616942,-0.88104075,0.07537833,-2.3147748,-0.032687385,1.5214423,0.8901659,0.039999947,0.04,-9.766134,-0.7785366177558899,0.885561,0.15343729,-0.12967686355113983,-0.106097125
655.0333333330663,-0.062946156,-0.8831202,0.07699944,-2.313881,-0.033392474,1.5203772,0.892407,0.039999947,0.04,-9.762459,-0.794355571269989,0.90726185,0.15527882,-0.1309526562690735,-0.107171
655.0499999997329,-0.064288445,-0.88522,0.07863647,-2.3129783,-0.034104478,1.5193013,0.89466995,0.03999994,0.04,-9.758691,-0.8102539777755737,0.9292516,0.15711448,-0.1322222799062729,-0.10823463
655.0666666663996,-0.065643676,-0.8873405,0.080289274,-2.312066,-0.03482335,1.518215,0.8969548,0.03999994,0.04,-9.754764,-0.8262439370155334,0.9515281,0.15894412,-0.13348469138145447,-0.10928798
655.0833333330662,-0.06701169,-0.8894808,0.08195768,-2.311146,-0.03554899,1.5171185,0.89926124,0.039999932,0.04,-9.750559,-0.8423035740852356,0.97412664,0.160766,-0.13473322987556458,-0.11033134
655.0999999997329,-0.068392366,-0.891641,0.083641544,-2.3102174,-0.036281366,1.516012,0.9015891,0.039999932,0.04,-9.7465515,-0.8584683537483215,0.9969663,0.16258086,-0.13597913086414337,-0.11136327
655.1166666663995,-0.0697856,-0.89382064,0.085340686,-2.3092806,-0.0370204,1.5148953,0.90393823,0.039999936,0.04,-9.742216,-0.8747172951698303,1.0200943,0.16438754,-0.1372150033712387,-0.11238822
655.1333333330662,-0.07119124,-0.8960197,0.08705495,-2.3083355,-0.037766047,1.5137684,0.9063081,0.039999947,0.04,-9.737886,-0.8910380601882935,1.0434879,0.16618563,-0.1384456306695938,-0.11340387
655.1499999997328,-0.07260916,-0.89823794,0.08878416,-2.307382,-0.03851815,1.5126319,0.90869886,0.03999995,0.04,-9.733326,-0.9073428511619568,1.0671848,0.16797549,-0.13966764509677887,-0.11439906
655.1666666663995,-0.07403917,-0.90047526,0.090528116,-2.3064198,-0.039276663,1.5114858,0.9111099,0.03999994,0.04,-9.728647,-0.9237951636314392,1.0911448,0.16975571,-0.1408795714378357,-0.11538571
655.1833333330661,-0.07548115,-0.9027313,0.09228669,-2.3054497,-0.040041536,1.5103298,0.9135411,0.039999943,0.04,-9.723785,-0.9402593970298767,1.1154058,0.17152649,-0.14207857847213745,-0.11635997
655.1999999997328,-0.07693494,-0.90500593,0.094059646,-2.3044715,-0.04081266,1.5091647,0.9159923,0.03999994,0.04,-9.718839,-0.956798791885376,1.1399447,0.17328788,-0.1432691514492035,-0.1173218
655.2166666663994,-0.07840042,-0.9072989,0.09584682,-2.3034854,-0.041589964,1.50799,0.9184631,0.039999936,0.04,-9.713766,-0.9733840227127075,1.1647605,0.17503841,-0.1444481462240219,-0.11827135
655.2333333330661,-0.079877414,-0.90961003,0.09764804,-2.3024917,-0.042373396,1.5068061,0.9209534,0.039999936,0.04,-9.708453,-0.9899934530258179,1.1899457,0.17677836,-0.14561673998832703,-0.11920908
655.2499999997327,-0.081365764,-0.9119387,0.099463105,-2.3014903,-0.043162886,1.5056132,0.9234626,0.03999995,0.04,-9.703231,-1.006730079650879,1.215237,0.17850707,-0.14677661657333374,-0.12014215
655.2666666663994,-0.082865365,-0.91428506,0.10129183,-2.3004818,-0.043958258,1.5044112,0.92599094,0.039999954,0.04,-9.69773,-1.023356318473816,1.2408606,0.18022512,-0.14792436361312866,-0.121050455
655.283333333066,-0.084376,-0.9166488,0.10313402,-2.2994654,-0.044759497,1.5032005,0.9285378,0.039999947,0.04,-9.692177,-1.0401077270507812,1.2667686,0.18193063,-0.14906418323516846,-0.121948
655.2999999997327,-0.08589752,-0.9190296,0.104989454,-2.298442,-0.0455665,1.5019811,0.931103,0.039999947,0.04,-9.6863365,-1.0568517446517944,1.2929691,0.18362358,-0.150189608335495,-0.12283239
655.3166666663993,-0.087429754,-0.9214271,0.10685798,-2.2974112,-0.046379186,1.500753,0.9336863,0.039999943,0.04,-9.680448,-1.073613166809082,1.3194205,0.18530388,-0.15130379796028137,-0.12370133
655.333333333066,-0.08897255,-0.9238411,0.10873936,-2.2963734,-0.047197457,1.4995166,0.93628734,0.039999943,0.04,-9.67439,-1.0904027223587036,1.3461442,0.1869707,-0.1524074524641037,-0.12455611
655.3499999997326,-0.090525724,-0.9262715,0.110633366,-2.2953289,-0.04802125,1.4982717,0.9389058,0.039999943,0.04,-9.668185,-1.1072137355804443,1.3731315,0.18862428,-0.15349824726581573,-0.12539892
655.3666666663993,-0.0920891,-0.9287178,0.11253981,-2.2942772,-0.048850484,1.4970187,0.9415416,0.039999958,0.04,-9.6618595,-1.1240577697753906,1.4004028,0.19026424,-0.1545795053243637,-0.12623416
655.3833333330659,-0.09366255,-0.9311799,0.11445849,-2.2932189,-0.04968501,1.4957578,0.94419426,0.039999954,0.04,-9.65533,-1.1408005952835083,1.4278971,0.19188878,-0.1556461900472641,-0.1270463
655.3999999997326,-0.09524586,-0.9336575,0.116389185,-2.2921538,-0.050524753,1.494489,0.9468636,0.039999954,0.04,-9.648675,-1.1575767993927002,1.4556736,0.19349863,-0.15669985115528107,-0.12784292
655.4166666663992,-0.09683887,-0.9361503,0.11833168,-2.291082,-0.051369634,1.4932122,0.94954914,0.03999995,0.04,-9.64183,-1.1743755340576172,1.4837266,0.1950926,-0.1577392816543579,-0.12862617
655.4333333330659,-0.09844136,-0.9386581,0.120285764,-2.2900038,-0.05221955,1.4919279,0.95225066,0.03999995,0.04,-9.634819,-1.1911275386810303,1.5120229,0.19667162,-0.15876436233520508,-0.12939368
655.4499999997325,-0.1000532,-0.94118047,0.1222512,-2.2889192,-0.053074423,1.4906361,0.9549681,0.039999943,0.04,-9.627732,-1.2078791856765747,1.5405898,0.19823442,-0.1597772091627121,-0.13014562
655.4666666663992,-0.101674154,-0.9437171,0.12422776,-2.2878292,-0.053934157,1.4893371,0.9577008,0.039999947,0.04,-9.62044,-1.224597692489624,1.569378,0.19977984,-0.160775825381279,-0.13088197
655.4833333330658,-0.103304096,-0.9462679,0.12621526,-2.2867327,-0.054798625,1.4880308,0.9604486,0.039999943,0.04,-9.61301,-1.2413023710250854,1.5985043,0.20130894,-0.16176331043243408,-0.13160612
655.4999999997325,-0.10494281,-0.9488323,0.12821344,-2.28563,-0.05566777,1.4867177,0.96321124,0.03999995,0.04,-9.605399,-1.257983684539795,1.6277314,0.20282046,-0.1627342700958252,-0.13231674
655.5166666663991,-0.10659012,-0.95141006,0.13022204,-2.2845216,-0.056541428,1.4853977,0.96598834,0.039999954,0.04,-9.597647,-1.274536371231079,1.6572533,0.20431359,-0.16368991136550903,-0.13300306
655.5333333330658,-0.10824583,-0.9540011,0.13224086,-2.2834072,-0.05741953,1.4840707,0.96877944,0.03999995,0.04,-9.589712,-1.29111909866333,1.6870394,0.20578896,-0.16463056206703186,-0.13367592
655.5499999997324,-0.10990972,-0.9566051,0.1342697,-2.2822883,-0.058301996,1.4827368,0.9715845,0.03999995,0.04,-9.581582,-1.3076266050338745,1.7170851,0.20724533,-0.1655559539794922,-0.13433206
655.5666666663991,-0.111581646,-0.9592217,0.13630831,-2.2811637,-0.059188705,1.481397,0.97440296,0.03999995,0.04,-9.5734625,-1.3241046667099,1.74734,0.2086832,-0.16647155582904816,-0.13497137
655.5833333330658,-0.113261394,-0.96185064,0.1383564,-2.280034,-0.060079545,1.4800508,0.9772345,0.039999947,0.04,-9.564996,-1.3404972553253174,1.7778283,0.21010143,-0.16736823320388794,-0.13559368
655.5999999997324,-0.114948735,-0.9644914,0.14041378,-2.2788987,-0.06097442,1.4786984,0.980079,0.039999947,0.04,-9.55645,-1.3568196296691895,1.8085592,0.21149965,-0.1682509183883667,-0.13619827
655.616666666399,-0.1166435,-0.967144,0.14248018,-2.2777584,-0.061873253,1.4773402,0.98293614,0.039999943,0.04,-9.547612,-1.3731305599212646,1.8395089,0.21287704,-0.16911624372005463,-0.136794
655.6333333330657,-0.118345484,-0.9698079,0.14455532,-2.2766132,-0.06277594,1.475976,0.9858052,0.039999947,0.04,-9.538716,-1.3892841339111328,1.870685,0.21423326,-0.16996410489082336,-0.13736865
655.6499999997324,-0.12005449,-0.97248256,0.146639,-2.2754638,-0.0636823,1.4746064,0.9886861,0.03999995,0.04,-9.529627,-1.4053419828414917,1.902075,0.215569,-0.17079651355743408,-0.13792084
655.666666666399,-0.121770315,-0.9751681,0.14873102,-2.2743092,-0.06459231,1.4732316,0.9915785,0.039999954,0.04,-9.520453,-1.4214036464691162,1.9336591,0.21688342,-0.17161445319652557,-0.13845901
655.6833333330657,-0.123492785,-0.9778642,0.15083104,-2.2731507,-0.065505825,1.4718513,0.994482,0.03999995,0.04,-9.510967,-1.4373031854629517,1.9654971,0.21817556,-0.17241257429122925,-0.13897869
655.6999999997323,-0.12522165,-0.9805704,0.15293892,-2.271987,-0.06642271,1.4704655,0.99739623,0.039999947,0.04,-9.501402,-1.4531207084655762,1.9975429,0.2194456,-0.17319390177726746,-0.13947909
655.716666666399,-0.12695679,-0.98328614,0.15505426,-2.27082,-0.0673429,1.4690753,1.0003213,0.03999994,0.04,-9.491549,-1.4688509702682495,2.0298007,0.22069287,-0.17395715415477753,-0.13996416
655.7333333330656,-0.1286979,-0.9860112,0.15717699,-2.2696483,-0.068266265,1.4676802,1.003256,0.039999932,0.04,-9.481714,-1.4844530820846558,2.0622635,0.2219146,-0.17470552027225494,-0.14043103
655.7499999997323,-0.13044477,-0.9887455,0.15930669,-2.2684727,-0.069192715,1.4662797,1.0062017,0.03999994,0.04,-9.471588,-1.499999761581421,2.0948462,0.223116,-0.17543476819992065,-0.1408809
655.7666666663989,-0.1321972,-0.9914885,0.16144317,-2.2672935,-0.07012212,1.4648751,1.0091554,0.03999995,0.04,-9.461304,-1.5154147148132324,2.1277137,0.22428675,-0.17614905536174774,-0.14131747
655.7833333330656,-0.13395503,-0.9942399,0.16358621,-2.2661104,-0.07105436,1.4634665,1.0121182,0.039999947,0.04,-9.450878,-1.5306395292282104,2.160714,0.22544064,-0.17684361338615417,-0.14172868
655.7999999997322,-0.13571799,-0.9969995,0.16573548,-2.264924,-0.07198932,1.462054,1.0150908,0.039999958,0.04,-9.440258,-1.545775294303894,2.1939192,0.22656883,-0.1775183081626892,-0.14211994
655.8166666663989,-0.13748592,-0.9997669,0.16789079,-2.2637346,-0.0729269,1.4606375,1.0180713,0.039999947,0.04,-9.429476,-1.560824990272522,2.2273183,0.22766668,-0.17817464470863342,-0.14249802
655.8333333330655,-0.13925856,-1.0025417,0.17005181,-2.2625413,-0.073866986,1.4592172,1.0210598,0.039999936,0.04,-9.418549,-1.5756889581680298,2.2608924,0.22874133,-0.1788131594657898,-0.142855
655.8499999997322,-0.14103578,-1.0053236,0.17221835,-2.2613454,-0.0748095,1.4577932,1.0240558,0.039999936,0.04,-9.407356,-1.5904186964035034,2.2946312,0.22979,-0.179429829120636,-0.14319374
655.8666666663988,-0.14281726,-1.0081122,0.17439015,-2.2601466,-0.075754285,1.4563658,1.0270596,0.039999925,0.04,-9.396124,-1.605025291442871,2.3285537,0.23081203,-0.18003056943416595,-0.14351362
655.8833333330655,-0.1446028,-1.0109073,0.1765669,-2.2589452,-0.07670123,1.4549351,1.0300686,0.03999992,0.04,-9.384686,-1.6194944381713867,2.362624,0.23180662,-0.18061313033103943,-0.1438145
655.8999999997321,-0.14639227,-1.0137086,0.17874832,-2.2577412,-0.07765026,1.4535006,1.0330848,0.03999993,0.04,-9.373039,-1.6337865591049194,2.396856,0.23278116,-0.18117576837539673,-0.14409769
655.9166666663988,-0.14818536,-1.0165156,0.18093418,-2.2565346,-0.0786012,1.4520633,1.0361077,0.039999932,0.04,-9.361264,-1.6479175090789795,2.4312704,0.23372565,-0.18172168731689453,-0.14436139
655.9333333330654,-0.14998189,-1.019328,0.18312417,-2.2553256,-0.07955399,1.4506242,1.0391356,0.03999994,0.04,-9.349272,-1.6619504690170288,2.4657986,0.23463997,-0.18224801123142242,-0.14461154
655.9499999997321,-0.15178165,-1.0221456,0.18531813,-2.2541144,-0.08050847,1.4491822,1.0421686,0.039999932,0.04,-9.337114,-1.6757240295410156,2.500453,0.23552981,-0.18274924159049988,-0.14483802
655.9666666663987,-0.1535844,-1.0249681,0.18751568,-2.2529016,-0.08146451,1.4477365,1.0452076,0.039999936,0.04,-9.324793,-1.6893515586853027,2.5353107,0.23639244,-0.18323083221912384,-0.14504306
655.9833333330654,-0.15538995,-1.0277951,0.1897166,-2.2516866,-0.08242201,1.4462904,1.0482508,0.03999993,0.04,-9.312399,-1.7028203010559082,2.570332,0.23722236,-0.183699369430542,-0.14522944
655.999999999732,-0.15719798,-1.030626,0.1919206,-2.2504697,-0.083380885,1.4448408,1.0512983,0.039999925,0.04,-9.299701,-1.7161612510681152,2.6053505,0.23802552,-0.18413937091827393,-0.14540063
656.0166666663987,-0.1590084,-1.0334604,0.19412746,-2.2492516,-0.084341004,1.443391,1.0543495,0.039999917,0.04,-9.286884,-1.729241132736206,2.6406024,0.23879947,-0.18456274271011353,-0.1455495
656.0333333330653,-0.16082089,-1.0362982,0.19633682,-2.248032,-0.08530224,1.4419378,1.0574046,0.039999913,0.04,-9.273982,-1.7422218322753906,2.6758564,0.23954536,-0.18496215343475342,-0.14567937
656.049999999732,-0.16263531,-1.0391389,0.1985485,-2.2468114,-0.08626447,1.4404842,1.0604632,0.039999913,0.04,-9.260904,-1.754958987236023,2.7113585,0.24026023,-0.18534857034683228,-0.145788
656.0666666663986,-0.16445139,-1.0419819,0.20076215,-2.2455888,-0.08722761,1.4390296,1.0635238,0.039999906,0.04,-9.247575,-1.767532467842102,2.7468727,0.24094307,-0.18570910394191742,-0.14588158
656.0833333330653,-0.16626891,-1.0448277,0.20297754,-2.2443652,-0.08819153,1.4375725,1.0665871,0.0399999,0.04,-9.23406,-1.7798800468444824,2.7825017,0.24159928,-0.18604476749897003,-0.14595549
656.099999999732,-0.16808769,-1.0476756,0.20519438,-2.2431414,-0.08915611,1.4361153,1.0696523,0.03999989,0.04,-9.220474,-1.7920317649841309,2.8183203,0.24222338,-0.1863647699356079,-0.1460097
656.1166666663986,-0.16990747,-1.0505248,0.20741245,-2.241917,-0.09012122,1.434658,1.0727193,0.03999989,0.04,-9.206744,-1.8039904832839966,2.854163,0.24281734,-0.18666061758995056,-0.14604217
656.1333333330653,-0.171728,-1.0533755,0.2096314,-2.2406921,-0.09108669,1.4332002,1.0757874,0.039999887,0.04,-9.192836,-1.8157793283462524,2.8900418,0.24337958,-0.18693304061889648,-0.14605871
656.1499999997319,-0.17354906,-1.0562267,0.21185099,-2.2394667,-0.09205249,1.431741,1.0788565,0.039999876,0.04,-9.178768,-1.8273378610610962,2.9260786,0.24391146,-0.18718381226062775,-0.1460571
656.1666666663986,-0.17537051,-1.0590786,0.21407096,-2.238241,-0.09301848,1.4302803,1.0819266,0.039999872,0.04,-9.164568,-1.838683009147644,2.9621723,0.24441166,-0.1874181181192398,-0.146036
656.1833333330652,-0.177192,-1.0619313,0.21629106,-2.2370155,-0.09398452,1.4288197,1.0849969,0.039999872,0.04,-9.150222,-1.8498024940490723,2.9983366,0.24487783,-0.18763554096221924,-0.14599337
656.1999999997319,-0.1790134,-1.0647837,0.21851094,-2.2357903,-0.094950534,1.4273602,1.0880668,0.03999988,0.04,-9.135667,-1.8607194423675537,3.0346105,0.24531087,-0.18782830238342285,-0.14593259
656.2166666663985,-0.18083444,-1.067635,0.22073047,-2.2345643,-0.095916346,1.4259018,1.0911356,0.03999988,0.04,-9.121027,-1.8714089393615723,3.070827,0.24571364,-0.1879960298538208,-0.1458509
656.2333333330652,-0.18265495,-1.0704862,0.22294928,-2.2333393,-0.09688182,1.4244442,1.0942035,0.03999987,0.04,-9.106138,-1.8818750381469727,3.1071234,0.24608546,-0.18813556432724,-0.1457523
656.2499999997318,-0.18447466,-1.0733355,0.22516704,-2.2321146,-0.097846895,1.422987,1.0972704,0.039999865,0.04,-9.091195,-1.8921446800231934,3.1435268,0.24642457,-0.18825262784957886,-0.14563425
656.2666666663985,-0.18629338,-1.0761839,0.2273836,-2.2308903,-0.09881146,1.4215299,1.1003352,0.03999986,0.04,-9.076087,-1.9021741151809692,3.1799166,0.24672921,-0.18834920227527618,-0.14549673
656.2833333330651,-0.1881108,-1.0790299,0.2295986,-2.2296674,-0.09977536,1.4200732,1.1033983,0.039999858,0.04,-9.060809,-1.9119505882263184,3.2164302,0.24700174,-0.1884222775697708,-0.14533868
656.2999999997318,-0.18992676,-1.0818737,0.2318118,-2.2284453,-0.10073848,1.4186186,1.1064585,0.03999985,0.04,-9.045545,-1.9215601682662964,3.2528841,0.24724011,-0.18848101794719696,-0.1451626
656.3166666663984,-0.19174114,-1.084715,0.23402296,-2.2272239,-0.101700716,1.4171653,1.1095161,0.039999843,0.04,-9.02999,-1.9309042692184448,3.289361,0.24744733,-0.18851152062416077,-0.14496861
656.3333333330651,-0.19355357,-1.0875537,0.23623171,-2.226004,-0.10266195,1.4157126,1.112571,0.03999983,0.04,-9.01431,-1.9400068521499634,3.3258815,0.24761902,-0.18851794302463531,-0.14475603
656.3499999997317,-0.19536386,-1.0903889,0.23843788,-2.2247853,-0.10362206,1.414263,1.115622,0.03999983,0.04,-8.998531,-1.9488471746444702,3.3624618,0.24775429,-0.18850339949131012,-0.14452161
656.3666666663984,-0.19717176,-1.0932202,0.24064116,-2.2235684,-0.104580924,1.4128141,1.1186693,0.039999817,0.04,-8.982619,-1.9575188159942627,3.3989582,0.24785686,-0.18846161663532257,-0.14427252
656.383333333065,-0.19897708,-1.0960479,0.24284127,-2.2223532,-0.105538435,1.4113685,1.1217123,0.039999817,0.04,-8.966676,-1.9659199714660645,3.4354784,0.24792618,-0.18840384483337402,-0.14400102
656.3999999997317,-0.20077966,-1.0988712,0.24503799,-2.2211397,-0.10649447,1.4099234,1.1247495,0.039999813,0.04,-8.950468,-1.97407865524292,3.4720073,0.2479594,-0.18831591308116913,-0.14371319
656.4166666663983,-0.20257922,-1.1016898,0.24723098,-2.2199283,-0.10744888,1.408482,1.1277819,0.03999981,0.04,-8.934225,-1.9819955825805664,3.508541,0.24796362,-0.18821123242378235,-0.14340463
656.433333333065,-0.20437555,-1.1045035,0.24942002,-2.2187192,-0.108401604,1.4070435,1.1308094,0.039999798,0.04,-8.91784,-1.9896903038024902,3.544997,0.24793267,-0.18807880580425262,-0.14308019
656.4499999997316,-0.2061684,-1.107312,0.25160486,-2.2175121,-0.109352514,1.4056064,1.1338304,0.039999783,0.04,-8.901369,-1.997158408164978,3.581453,0.24786422,-0.18792295455932617,-0.14273836
656.4666666663983,-0.20795758,-1.1101147,0.2537852,-2.2163079,-0.110301524,1.4041728,1.1368461,0.039999772,0.04,-8.884755,-2.004326343536377,3.6179152,0.24776427,-0.1877473145723343,-0.14237592
656.4833333330649,-0.20974292,-1.1129113,0.25596067,-2.2151065,-0.111248456,1.4027429,1.1398544,0.03999977,0.04,-8.868122,-2.011277914047241,3.6542583,0.24762638,-0.18754728138446808,-0.14199452
656.4999999997316,-0.21152411,-1.1157014,0.2581313,-2.2139072,-0.1121932,1.4013163,1.1428558,0.039999764,0.04,-8.851303,-2.0180370807647705,3.6905994,0.24745673,-0.1873234361410141,-0.14159635
656.5166666663982,-0.213301,-1.1184849,0.26029655,-2.2127113,-0.11313564,1.3998929,1.1458496,0.03999976,0.04,-8.834328,-2.0245087146759033,3.726884,0.24725345,-0.1870739459991455,-0.14118041
656.5333333330649,-0.21507338,-1.1212612,0.26245633,-2.2115185,-0.114075705,1.3984731,1.1488358,0.039999753,0.04,-8.817379,-2.0307507514953613,3.7631166,0.24701627,-0.18680398166179657,-0.14074604
656.5499999997315,-0.216841,-1.1240301,0.26461017,-2.2103283,-0.115013234,1.3970574,1.1518137,0.039999735,0.04,-8.800277,-2.036726951599121,3.799272,0.2467443,-0.18650975823402405,-0.14029066
656.5666666663982,-0.2186036,-1.1267912,0.26675794,-2.2091417,-0.11594815,1.3956457,1.1547837,0.03999973,0.04,-8.783045,-2.042466640472412,3.835356,0.24643825,-0.18619029223918915,-0.13981949
656.5833333330648,-0.22036105,-1.1295447,0.2688994,-2.2079587,-0.11688032,1.3942381,1.1577457,0.03999972,0.04,-8.7657585,-2.0479891300201416,3.8713748,0.24609578,-0.18584764003753662,-0.13933325
656.5999999997315,-0.22211313,-1.1322898,0.27103418,-2.2067792,-0.11780962,1.3928345,1.1606978,0.03999971,0.04,-8.748413,-2.053244113922119,3.9073446,0.2457147,-0.1854812502861023,-0.13882819
656.6166666663981,-0.22385964,-1.135026,0.27316225,-2.2056034,-0.11873596,1.3914351,1.1636409,0.039999705,0.04,-8.730969,-2.0582587718963623,3.943193,0.24530265,-0.18509303033351898,-0.13830657
656.6333333330648,-0.22560032,-1.1377534,0.2752832,-2.2044322,-0.119659215,1.3900403,1.1665738,0.03999969,0.04,-8.713441,-2.06304931640625,3.9789462,0.24485397,-0.18468131124973297,-0.1377666
656.6499999997314,-0.22733498,-1.1404711,0.27739677,-2.2032645,-0.12057931,1.388651,1.1694974,0.039999682,0.04,-8.69595,-2.067600965499878,4.0146155,0.24437214,-0.18425044417381287,-0.13720779
656.6666666663981,-0.22906335,-1.143179,0.27950275,-2.202101,-0.1214961,1.3872664,1.1724102,0.03999968,0.04,-8.678208,-2.0719127655029297,4.0501223,0.243852,-0.18379047513008118,-0.13663547
656.6833333330648,-0.23078534,-1.1458769,0.28160083,-2.2009418,-0.122409455,1.3858865,1.175312,0.039999675,0.04,-8.660509,-2.0759811401367188,4.085563,0.24329863,-0.18330958485603333,-0.13604473
656.6999999997314,-0.23250067,-1.1485643,0.28369087,-2.1997871,-0.12331931,1.3845127,1.1782026,0.039999675,0.04,-8.642761,-2.079807996749878,4.120862,0.24271193,-0.18280832469463348,-0.13543645
656.716666666398,-0.23420915,-1.1512414,0.28577256,-2.1986368,-0.12422555,1.3831438,1.1810814,0.039999668,0.04,-8.624903,-2.0834240913391113,4.1560383,0.2420912,-0.18228064477443695,-0.13481347
656.7333333330647,-0.23591061,-1.1539079,0.2878456,-2.1974916,-0.12512805,1.3817809,1.1839486,0.03999966,0.04,-8.607015,-2.086747407913208,4.1911006,0.24143603,-0.18172861635684967,-0.13417453
656.7499999997314,-0.2376048,-1.1565628,0.28990975,-2.196351,-0.12602672,1.3804237,1.1868035,0.039999653,0.04,-8.589015,-2.089876413345337,4.2260904,0.24074517,-0.1811523288488388,-0.13351957
656.766666666398,-0.23929152,-1.159206,0.29196483,-2.1952155,-0.12692146,1.3790725,1.1896455,0.03999964,0.04,-8.571022,-2.0927793979644775,4.260855,0.24002129,-0.18055403232574463,-0.13284887
656.7833333330647,-0.24097069,-1.1618371,0.29401064,-2.1940854,-0.12781213,1.3777274,1.1924751,0.03999963,0.04,-8.552966,-2.0954439640045166,4.295477,0.23926388,-0.17993144690990448,-0.13216221
656.7999999997313,-0.24264202,-1.1644562,0.29604688,-2.19296,-0.12869866,1.3763887,1.1952909,0.039999608,0.04,-8.534998,-2.097917079925537,4.3299403,0.23847248,-0.17928971350193024,-0.13145587
656.816666666398,-0.2443053,-1.1670626,0.29807332,-2.19184,-0.12958096,1.3750564,1.1980932,0.039999593,0.04,-8.516772,-2.100095748901367,4.3643064,0.23764741,-0.1786203533411026,-0.13073651
656.8333333330646,-0.24596033,-1.169656,0.30008966,-2.1907258,-0.13045892,1.3737307,1.2008821,0.039999582,0.04,-8.498643,-2.1021218299865723,4.3984466,0.23679002,-0.1779293566942215,-0.13000284
656.8499999997313,-0.2476069,-1.1722368,0.3020957,-2.1896176,-0.13133241,1.3724116,1.2036567,0.039999574,0.04,-8.480508,-2.1039059162139893,4.432435,0.23589714,-0.17721635103225708,-0.12925473
656.8666666663979,-0.24924491,-1.1748039,0.30409127,-2.188515,-0.1322013,1.3710995,1.2064164,0.039999563,0.04,-8.462348,-2.105452060699463,4.466292,0.23497052,-0.17648158967494965,-0.128491
656.8833333330646,-0.25087407,-1.1773572,0.30607614,-2.187418,-0.13306555,1.3697944,1.2091613,0.03999956,0.04,-8.444139,-2.1067893505096436,4.49992,0.23401268,-0.17572395503520966,-0.12771215
656.8999999997312,-0.2524943,-1.1798964,0.30804998,-2.186327,-0.13392504,1.3684965,1.2118913,0.039999552,0.04,-8.425855,-2.107923984527588,4.533381,0.2330222,-0.17494156956672668,-0.12691961
656.9166666663979,-0.25410536,-1.1824213,0.3100127,-2.1852427,-0.13477966,1.3672061,1.2146059,0.03999954,0.04,-8.407654,-2.108853578567505,4.5666294,0.23199768,-0.17413808405399323,-0.12611337
656.9333333330645,-0.25570703,-1.1849316,0.31196395,-2.1841643,-0.13562936,1.365923,1.2173046,0.03999953,0.04,-8.389482,-2.109570264816284,4.599717,0.23094018,-0.17331382632255554,-0.12529084
656.9499999997312,-0.25729913,-1.1874273,0.3139035,-2.1830924,-0.13647395,1.3646477,1.2199869,0.039999515,0.04,-8.371207,-2.1100692749023438,4.6325846,0.22985144,-0.17246602475643158,-0.12445452
656.9666666663978,-0.25888157,-1.1899076,0.31583124,-2.1820269,-0.1373134,1.3633804,1.2226535,0.039999496,0.04,-8.352949,-2.1103227138519287,4.6652665,0.22873116,-0.17159417271614075,-0.12360185
656.9833333330645,-0.2604542,-1.1923726,0.31774682,-2.1809676,-0.13814764,1.3621209,1.2253029,0.039999485,0.04,-8.33482,-2.110466718673706,4.6976523,0.22757664,-0.1707010120153427,-0.12274005
656.9999999997311,-0.2620167,-1.194822,0.31965032,-2.1799152,-0.13897651,1.3608694,1.2279353,0.039999474,0.04,-8.316461,-2.110355854034424,4.7299824,0.22639115,-0.16978442668914795,-0.12186557
657.0166666663978,-0.26356888,-1.1972553,0.3215412,-2.17887,-0.1398,1.3596258,1.2305504,0.03999947,0.04,-8.298243,-2.1100828647613525,4.762042,0.22517549,-0.16884541511535645,-0.120977916
657.0333333330644,-0.26511073,-1.1996726,0.3234194,-2.177832,-0.14061794,1.358391,1.233148,0.03999946,0.04,-8.2801485,-2.1096088886260986,4.7938423,0.22392945,-0.167888805270195,-0.12007532
657.0499999997311,-0.26664194,-1.202073,0.32528463,-2.176801,-0.14143026,1.3571647,1.2357277,0.03999945,0.04,-8.261929,-2.108957290649414,4.8254337,0.22265193,-0.16690680384635925,-0.119162954
657.0666666663977,-0.26816234,-1.2044567,0.32713684,-2.175777,-0.14223687,1.3559468,1.2382897,0.03999944,0.04,-8.243888,-2.108135223388672,4.8567576,0.22134456,-0.16590717434883118,-0.11823635
657.0833333330644,-0.2696718,-1.2068232,0.32897568,-2.1747603,-0.14303769,1.3547378,1.2408333,0.039999433,0.04,-8.225731,-2.1070826053619385,4.887878,0.22000527,-0.16488373279571533,-0.1172931
657.099999999731,-0.27117023,-1.2091727,0.3308011,-2.1737516,-0.14383262,1.3535376,1.2433577,0.03999941,0.04,-8.207675,-2.1059069633483887,4.9187503,0.21863642,-0.16384008526802063,-0.11634157
657.1166666663977,-0.27265754,-1.2115046,0.33261278,-2.1727502,-0.14462166,1.3523465,1.2458632,0.039999403,0.04,-8.189709,-2.104579448699951,4.9494,0.21724024,-0.16277728974819183,-0.11537946
657.1333333330643,-0.27413344,-1.2138184,0.33441052,-2.171756,-0.14540468,1.3511646,1.2483497,0.039999396,0.04,-8.171721,-2.103041648864746,4.979758,0.21581416,-0.16169312596321106,-0.114405654
657.149999999731,-0.27559775,-1.2161143,0.33619425,-2.1707695,-0.14618151,1.3499918,1.2508163,0.039999377,0.04,-8.153756,-2.1013476848602295,5.00988,0.2143585,-0.16058753430843353,-0.11342124
657.1666666663976,-0.27705032,-1.2183921,0.33796364,-2.169791,-0.14695214,1.3488284,1.2532635,0.03999937,0.04,-8.135868,-2.099503993988037,5.0397635,0.21287584,-0.15946140885353088,-0.11242631
657.1833333330643,-0.2784911,-1.220651,0.33971852,-2.1688206,-0.14771648,1.3476745,1.2556906,0.03999936,0.04,-8.118057,-2.0974812507629395,5.0694003,0.21136385,-0.15831522643566132,-0.111421175
657.199999999731,-0.27991986,-1.222891,0.34145877,-2.1678588,-0.14847445,1.3465303,1.2580976,0.039999343,0.04,-8.100379,-2.0953168869018555,5.0987105,0.20982467,-0.15715152025222778,-0.11040031
657.2166666663976,-0.2813364,-1.2251123,0.3431843,-2.1669052,-0.14922605,1.3453959,1.2604841,0.039999332,0.04,-8.082749,-2.093050479888916,5.127765,0.20825844,-0.1559702605009079,-0.10936884
657.2333333330643,-0.2827407,-1.2273144,0.34489477,-2.1659598,-0.14997104,1.3442713,1.2628497,0.039999325,0.04,-8.065244,-2.090604543685913,5.1565313,0.20666532,-0.15476909279823303,-0.108329244
657.2499999997309,-0.28413263,-1.2294968,0.34659007,-2.1650233,-0.15070945,1.3431567,1.2651944,0.039999317,0.04,-8.04759,-2.0880210399627686,5.185135,0.20504583,-0.15354880690574646,-0.107280426
657.2666666663976,-0.28551197,-1.2316595,0.34827003,-2.1640944,-0.1514412,1.3420522,1.267518,0.03999931,0.04,-8.030229,-2.0853419303894043,5.2133718,0.20340048,-0.15231311321258545,-0.1062213
657.2833333330642,-0.2868785,-1.2338026,0.34993455,-2.1631744,-0.15216623,1.3409578,1.2698203,0.039999306,0.04,-8.012743,-2.082467794418335,5.241353,0.20172863,-0.151055246591568,-0.105155185
657.2999999997309,-0.28823215,-1.2359254,0.35158345,-2.162263,-0.15288447,1.3398737,1.2721008,0.039999302,0.04,-7.9955215,-2.0795161724090576,5.2690578,0.20003168,-0.14978119730949402,-0.10407796
657.3166666663975,-0.28957286,-1.238028,0.35321647,-2.1613598,-0.15359579,1.3388,1.2743596,0.039999265,0.04,-7.9783025,-2.0763885974884033,5.296462,0.19831048,-0.14848753809928894,-0.10298878
657.3333333330642,-0.2909005,-1.2401103,0.3548335,-2.1604657,-0.15430018,1.3377367,1.276596,0.03999925,0.04,-7.9611583,-2.073190689086914,5.323589,0.19656393,-0.14717595279216766,-0.10189617
657.3499999997308,-0.2922149,-1.2421716,0.35643446,-2.1595807,-0.15499757,1.3366842,1.27881,0.039999243,0.04,-7.944192,-2.0698697566986084,5.350423,0.19479515,-0.145847886800766,-0.100794174
657.3666666663975,-0.2935159,-1.2442122,0.35801905,-2.1587048,-0.15568788,1.3356422,1.2810019,0.03999923,0.04,-7.927314,-2.0664560794830322,5.3769307,0.19300297,-0.14450253546237946,-0.099683896
657.3833333330641,-0.29480347,-1.2462317,0.35958728,-2.1578379,-0.15637106,1.3346109,1.2831709,0.039999228,0.04,-7.910568,-2.0629377365112305,5.403166,0.19118655,-0.14314329624176025,-0.0985664
657.3999999997308,-0.2960775,-1.2482302,0.36113894,-2.15698,-0.15704703,1.3335907,1.2853171,0.03999922,0.04,-7.8938627,-2.0592806339263916,5.4291053,0.18934844,-0.1417664736509323,-0.09743986
657.4166666663974,-0.29733774,-1.2502072,0.36267388,-2.1561313,-0.15771574,1.3325814,1.28744,0.039999213,0.04,-7.877285,-2.055520534515381,5.454747,0.18748777,-0.14037162065505981,-0.09630538
657.4333333330641,-0.29858425,-1.2521625,0.36419216,-2.155292,-0.1583771,1.331583,1.2895397,0.0399992,0.04,-7.860846,-2.051703929901123,5.4800754,0.1856068,-0.1389613300561905,-0.09516239
657.4499999997307,-0.29981682,-1.2540959,0.36569348,-2.154462,-0.15903112,1.330596,1.2916162,0.03999918,0.04,-7.844559,-2.0478615760803223,5.5050874,0.1837049,-0.13753844797611237,-0.09401581
657.4666666663974,-0.30103543,-1.2560074,0.36717772,-2.1536412,-0.15967773,1.32962,1.2936687,0.039999165,0.04,-7.8283715,-2.043883800506592,5.5298095,0.18178166,-0.13610000908374786,-0.092862956
657.483333333064,-0.30223992,-1.2578968,0.36864468,-2.15283,-0.16031687,1.3286555,1.2956976,0.039999153,0.04,-7.8123655,-2.039809465408325,5.5540915,0.17984001,-0.13464555144309998,-0.091705404
657.4999999997307,-0.3034302,-1.2597641,0.37009442,-2.1520278,-0.16094841,1.3277023,1.2977028,0.03999915,0.04,-7.79633,-2.0356669425964355,5.578283,0.17787853,-0.1331770271062851,-0.0905403
657.5166666663973,-0.3046062,-1.2616088,0.37152663,-2.1512358,-0.16157244,1.3267608,1.2996838,0.039999146,0.04,-7.7804956,-2.0314626693725586,5.6020803,0.17589672,-0.131693035364151,-0.08937094
657.533333333064,-0.30576786,-1.263431,0.37294137,-2.1504536,-0.16218877,1.3258307,1.3016407,0.039999124,0.04,-7.7648907,-2.027165412902832,5.625515,0.17389709,-0.13019566237926483,-0.08819029
657.5499999997306,-0.30691507,-1.2652305,0.37433845,-2.1496809,-0.16279739,1.3249121,1.3035729,0.03999911,0.04,-7.749406,-2.022904634475708,5.648665,0.17187993,-0.12868812680244446,-0.08700911
657.5666666663973,-0.30804756,-1.2670074,0.37571782,-2.1489184,-0.16339834,1.3240054,1.3054804,0.039999098,0.04,-7.7339983,-2.0185060501098633,5.6715064,0.16984639,-0.12716667354106903,-0.08582439
657.5833333330639,-0.30916557,-1.2687614,0.37707928,-2.1481652,-0.16399153,1.3231102,1.3073636,0.039999098,0.04,-7.71886,-2.0141000747680664,5.6940064,0.16779819,-0.1256343573331833,-0.08463326
657.5999999997306,-0.31026873,-1.270492,0.37842292,-2.1474218,-0.1645769,1.3222268,1.309222,0.039999083,0.04,-7.7036915,-2.0095925331115723,5.716211,0.16573048,-0.12408778071403503,-0.08344048
657.6166666663972,-0.31135723,-1.2721997,0.37974852,-2.1466892,-0.16515444,1.321355,1.3110553,0.03999908,0.04,-7.688791,-2.005115509033203,5.7380624,0.16364941,-0.12253054976463318,-0.08224425
657.6333333330639,-0.31243077,-1.2738845,0.381056,-2.1459658,-0.1657241,1.3204955,1.3128636,0.039999068,0.04,-7.6741323,-2.0005204677581787,5.7596173,0.1615536,-0.12096410989761353,-0.081037246
657.6499999997305,-0.31348944,-1.2755454,0.3823453,-2.145253,-0.16628586,1.3196479,1.3146468,0.039999045,0.04,-7.6594357,-1.995905876159668,5.7808533,0.15944256,-0.11938193440437317,-0.0798302
657.6666666663972,-0.31453308,-1.2771832,0.3836163,-2.1445503,-0.16683966,1.318812,1.3164048,0.039999038,0.04,-7.6451187,-1.991370677947998,5.8017044,0.15731946,-0.11779513210058212,-0.07862191
657.6833333330638,-0.3155618,-1.278797,0.384869,-2.1438572,-0.1673855,1.3179882,1.3181374,0.039999027,0.04,-7.6308613,-1.9867159128189087,5.8223147,0.15518296,-0.11619865894317627,-0.07741099
657.6999999997305,-0.31657544,-1.280387,0.38610336,-2.1431746,-0.16792327,1.3171766,1.3198446,0.039999023,0.04,-7.616718,-1.9820327758789062,5.842528,0.15303428,-0.11459082365036011,-0.07619653
657.7166666663971,-0.31757382,-1.2819538,0.38731927,-2.1425023,-0.16845305,1.3163773,1.3215262,0.039999023,0.04,-7.602871,-1.9774138927459717,5.8624196,0.15087445,-0.11297668516635895,-0.074980736
657.7333333330638,-0.31855702,-1.2834964,0.3885166,-2.14184,-0.1689748,1.31559,1.3231823,0.039999016,0.04,-7.589245,-1.972696304321289,5.88193,0.14870423,-0.11135236918926239,-0.07376358
657.7499999997304,-0.31952503,-1.2850157,0.38969544,-2.1411881,-0.16948846,1.3148149,1.3248128,0.039998997,0.04,-7.57555,-1.9679824113845825,5.9012766,0.14652273,-0.10971953719854355,-0.072541066
657.7666666663971,-0.32047775,-1.28651,0.39085576,-2.1405468,-0.16999404,1.314052,1.3264176,0.039998982,0.04,-7.5621667,-1.9632622003555298,5.920266,0.14433105,-0.10807833820581436,-0.07131816
657.7833333330638,-0.3214151,-1.2879812,0.39199728,-2.139915,-0.17049146,1.3133013,1.3279963,0.03999897,0.04,-7.5490875,-1.9586572647094727,5.938797,0.14213268,-0.10643664747476578,-0.07009409
657.7999999997304,-0.32233718,-1.2894286,0.39312014,-2.1392937,-0.17098078,1.3125631,1.3295496,0.039998963,0.04,-7.5359344,-1.9538781642913818,5.957134,0.13992524,-0.10478240251541138,-0.06887371
657.816666666397,-0.32324398,-1.2908518,0.39422435,-2.138683,-0.17146194,1.3118373,1.3310761,0.039998956,0.04,-7.52309,-1.9491642713546753,5.975116,0.13770707,-0.10312017798423767,-0.067653306
657.8333333330637,-0.3241353,-1.2922511,0.39530987,-2.1380832,-0.17193493,1.3111237,1.3325768,0.039998952,0.04,-7.510546,-1.9445137977600098,5.992717,0.13548656,-0.10145468264818192,-0.06643071
657.8499999997304,-0.3250113,-1.2936261,0.39637658,-2.137493,-0.17239982,1.3104222,1.3340528,0.039998952,0.04,-7.4981146,-1.939845323562622,6.0100436,0.13326024,-0.09978438913822174,-0.065207325
657.866666666397,-0.32587183,-1.2949768,0.3974245,-2.136913,-0.17285644,1.3097336,1.3355023,0.03999894,0.04,-7.4858174,-1.9351626634597778,6.0270095,0.13102199,-0.09810913354158401,-0.0639835
657.8833333330637,-0.32671693,-1.2963033,0.3984536,-2.1363442,-0.17330486,1.3090568,1.3369259,0.039998922,0.04,-7.473764,-1.9305363893508911,6.043645,0.12878138,-0.0964278131723404,-0.062761284
657.8999999997303,-0.32754663,-1.2976056,0.39946395,-2.135785,-0.17374516,1.3083924,1.3383232,0.039998915,0.04,-7.4620004,-1.9259535074234009,6.0599637,0.12653732,-0.09474875032901764,-0.061539613
657.916666666397,-0.32836094,-1.2988838,0.4004555,-2.1352372,-0.17417723,1.3077406,1.3396945,0.0399989,0.04,-7.4502482,-1.9213629961013794,6.0759764,0.12428994,-0.0930628851056099,-0.060321897
657.9333333330636,-0.32915968,-1.3001379,0.40142825,-2.1346986,-0.17460111,1.307101,1.3410398,0.039998896,0.04,-7.438933,-1.9168448448181152,6.0916395,0.122041106,-0.09137894958257675,-0.059103776
657.9499999997303,-0.329943,-1.3013679,0.4023822,-2.1341708,-0.17501679,1.3064739,1.3423592,0.03999889,0.04,-7.4275246,-1.9122992753982544,6.107005,0.11979045,-0.08968821167945862,-0.05789248
657.9666666663969,-0.330711,-1.3025736,0.4033174,-2.1336536,-0.17542431,1.305859,1.3436526,0.03999889,0.04,-7.416506,-1.907806396484375,6.1220465,0.117537245,-0.08799663931131363,-0.056681998
657.9833333330636,-0.33146352,-1.3037552,0.4042339,-2.133146,-0.17582367,1.3052565,1.3449202,0.03999889,0.04,-7.4058557,-1.9033969640731812,6.136608,0.11528409,-0.08630739152431488,-0.055472024
657.9999999997302,-0.33220083,-1.3049126,0.40513167,-2.1326497,-0.17621484,1.3046662,1.3461617,0.03999887,0.04,-7.3949714,-1.8989661931991577,6.151125,0.11303128,-0.08461311459541321,-0.054267965
658.0166666663969,-0.33292276,-1.3060464,0.40601072,-2.1321635,-0.17659788,1.3040882,1.3473774,0.03999886,0.04,-7.384675,-1.8946136236190796,6.1651797,0.11078005,-0.08292334526777267,-0.053059615
658.0333333330635,-0.33362937,-1.3071556,0.40687114,-2.1316872,-0.1769728,1.3035225,1.3485672,0.03999885,0.04,-7.374421,-1.8903186321258545,6.178955,0.10853017,-0.08123375475406647,-0.051860552
658.0499999997302,-0.33432063,-1.3082412,0.4077129,-2.1312215,-0.17733964,1.3029691,1.3497314,0.039998848,0.04,-7.364371,-1.8860726356506348,6.1923585,0.106283434,-0.07954522222280502,-0.050666366
658.0666666663968,-0.3349966,-1.3093028,0.40853617,-2.130766,-0.17769839,1.3024279,1.3508698,0.039998844,0.04,-7.354627,-1.8818821907043457,6.205484,0.104039915,-0.07786021381616592,-0.04947553
658.0833333330635,-0.33565742,-1.3103408,0.40934086,-2.1303208,-0.17804907,1.301899,1.3519826,0.039998833,0.04,-7.344968,-1.8777230978012085,6.218285,0.1018017,-0.07617650181055069,-0.048290957
658.0999999997301,-0.3363031,-1.3113549,0.4101271,-2.1298857,-0.17839172,1.3013822,1.3530699,0.03999883,0.04,-7.335628,-1.8736424446105957,6.2307787,0.099567294,-0.07449648529291153,-0.0471122
658.1166666663968,-0.3369337,-1.3123451,0.41089496,-2.1294606,-0.17872638,1.3008773,1.3541319,0.03999883,0.04,-7.326443,-1.8695948123931885,6.2429514,0.09733867,-0.07281967997550964,-0.045937173
658.1333333330634,-0.33754924,-1.3133118,0.41164446,-2.1290462,-0.179053,1.3003844,1.3551685,0.03999883,0.04,-7.3174987,-1.865647792816162,6.254805,0.09511652,-0.07114914059638977,-0.04476808
658.1499999997301,-0.33814982,-1.3142549,0.41237578,-2.1286416,-0.1793717,1.2999036,1.3561801,0.03999883,0.04,-7.308808,-1.861757516860962,6.2663627,0.092903,-0.06948605179786682,-0.04360449
658.1666666663967,-0.3387355,-1.3151749,0.41308892,-2.1282468,-0.17968248,1.2994347,1.3571663,0.039998814,0.04,-7.300283,-1.8579213619232178,6.277591,0.090696365,-0.06782811135053635,-0.042445257
658.1833333330634,-0.33930635,-1.3160715,0.41378397,-2.127863,-0.17998534,1.2989774,1.3581276,0.039998803,0.04,-7.2918835,-1.8541024923324585,6.28858,0.0884992,-0.06617334485054016,-0.04129381
658.19999999973,-0.33986247,-1.316945,0.4144611,-2.1274881,-0.18028039,1.2985324,1.359064,0.0399988,0.04,-7.283959,-1.8504645824432373,6.299193,0.086312756,-0.06453299522399902,-0.040146496
658.2166666663967,-0.34040385,-1.3177955,0.41512033,-2.1271229,-0.18056768,1.2980992,1.3599758,0.039998792,0.04,-7.275911,-1.846824288368225,6.3095403,0.0841365,-0.062894307076931,-0.039012287
658.2333333330633,-0.3409307,-1.3186232,0.41576186,-2.1267684,-0.18084723,1.2976775,1.3608629,0.03999879,0.04,-7.2683263,-1.8432577848434448,6.31949,0.081970856,-0.06126292794942856,-0.037886813
658.24999999973,-0.34144306,-1.319428,0.41638574,-2.126423,-0.18111907,1.2972674,1.3617254,0.03999878,0.04,-7.2608294,-1.839799165725708,6.3293505,0.079819776,-0.05964367464184761,-0.036767457
658.2666666663966,-0.341941,-1.32021,0.41699213,-2.1260872,-0.18138328,1.2968689,1.362564,0.03999878,0.04,-7.253528,-1.8363858461380005,6.338805,0.07768148,-0.058032695204019547,-0.03565777
658.2833333330633,-0.34242466,-1.3209702,0.41758108,-2.1257613,-0.18163995,1.2964816,1.3633784,0.03999878,0.04,-7.2464843,-1.8330614566802979,6.347963,0.07555711,-0.05643269047141075,-0.034556452
658.29999999973,-0.34289417,-1.321708,0.4181527,-2.1254451,-0.18188906,1.296106,1.3641688,0.039998785,0.04,-7.2396555,-1.8297806978225708,6.3568764,0.073447,-0.054843682795763016,-0.03346364
658.3166666663966,-0.34334958,-1.3224237,0.41870725,-2.1251383,-0.18213072,1.2957413,1.3649356,0.03999878,0.04,-7.2330804,-1.8266206979751587,6.3654532,0.07135389,-0.05326688289642334,-0.032380726
658.3333333330633,-0.34379113,-1.3231174,0.41924483,-2.1248405,-0.18236499,1.2953877,1.3656791,0.039998773,0.04,-7.2266326,-1.8235232830047607,6.3737783,0.06927632,-0.051702260971069336,-0.03130823
658.3499999997299,-0.34421876,-1.3237892,0.4197656,-2.124553,-0.18259187,1.2950455,1.3663992,0.03999876,0.04,-7.2203994,-1.820509433746338,6.3817945,0.067215875,-0.05015052855014801,-0.030247284
658.3666666663966,-0.3446328,-1.32444,0.42026967,-2.124274,-0.18281154,1.2947142,1.3670963,0.039998755,0.04,-7.2145042,-1.8176183700561523,6.3895316,0.06517649,-0.048615485429763794,-0.029194785
658.3833333330632,-0.3450332,-1.325069,0.4207572,-2.1240036,-0.18302403,1.2943938,1.3677706,0.039998755,0.04,-7.20864,-1.814736247062683,6.3970184,0.06315379,-0.047091469168663025,-0.02815513
658.3999999997299,-0.3454202,-1.3256773,0.42122853,-2.1237423,-0.18322937,1.294084,1.3684222,0.03999875,0.04,-7.203024,-1.8119409084320068,6.4042015,0.061152942,-0.04558228701353073,-0.027125083
658.4166666663965,-0.34579414,-1.3262649,0.4216836,-2.1234908,-0.1834277,1.2937849,1.3690515,0.039998747,0.04,-7.197638,-1.8092453479766846,6.4111695,0.059172943,-0.04408813640475273,-0.026106738
658.4333333330632,-0.3461547,-1.3268317,0.4221227,-2.1232483,-0.18361908,1.2934963,1.3696588,0.03999874,0.04,-7.1925273,-1.8066529035568237,6.4178333,0.057214417,-0.042612772434949875,-0.025099348
658.4499999997298,-0.34650245,-1.3273782,0.42254594,-2.1230145,-0.18380357,1.2932178,1.3702445,0.039998736,0.04,-7.1875787,-1.8041620254516602,6.4242387,0.055279396,-0.0411563441157341,-0.024107115
658.4666666663965,-0.34683752,-1.3279047,0.42295378,-2.1227887,-0.1839813,1.2929498,1.3708084,0.03999873,0.04,-7.18279,-1.8017151355743408,6.430374,0.053367108,-0.039718735963106155,-0.023128176
658.4833333330631,-0.3471599,-1.3284112,0.4233463,-2.1225712,-0.18415233,1.2926921,1.3713511,0.039998725,0.04,-7.178246,-1.7993628978729248,6.4361916,0.051479947,-0.038295991718769073,-0.022163345
658.4999999997298,-0.3474698,-1.3288983,0.42372373,-2.1223621,-0.1843168,1.292444,1.3718727,0.03999872,0.04,-7.173729,-1.7970906496047974,6.441924,0.04961924,-0.03689228370785713,-0.0212131
658.5166666663964,-0.3477675,-1.3293663,0.42408615,-2.1221611,-0.18447475,1.2922055,1.3723738,0.03999872,0.04,-7.1695185,-1.7948909997940063,6.4473286,0.047786098,-0.03550902381539345,-0.020276861
658.5333333330631,-0.34805313,-1.3298156,0.42443386,-2.1219685,-0.18462627,1.2919769,1.3728547,0.039998725,0.04,-7.1655064,-1.792741298675537,6.4525,0.045978338,-0.034146398305892944,-0.019354155
658.5499999997297,-0.34832692,-1.3302462,0.4247672,-2.121784,-0.18477146,1.2917576,1.3733156,0.03999873,0.04,-7.16167,-1.790710687637329,6.4574103,0.044199087,-0.032803844660520554,-0.018448234
658.5666666663964,-0.34858894,-1.3306584,0.42508626,-2.1216075,-0.18491048,1.291548,1.3737566,0.039998725,0.04,-7.1580634,-1.7887760400772095,6.4620976,0.042449046,-0.03148560971021652,-0.017556798
658.583333333063,-0.34883955,-1.3310524,0.42539144,-2.1214392,-0.18504342,1.2913474,1.3741785,0.039998725,0.04,-7.1546474,-1.786925196647644,6.466525,0.040731464,-0.03019014187157154,-0.016681679
658.5999999997297,-0.34907892,-1.3314288,0.42568287,-2.1212785,-0.18517037,1.2911558,1.3745812,0.039998725,0.04,-7.1514072,-1.7851570844650269,6.470718,0.039044283,-0.028920354321599007,-0.015821557
658.6166666663963,-0.34930727,-1.3317881,0.42596078,-2.1211252,-0.18529148,1.290973,1.3749657,0.039998725,0.04,-7.148347,-1.7834577560424805,6.4747043,0.037391417,-0.027675941586494446,-0.0149776945
658.633333333063,-0.3495248,-1.3321302,0.42622548,-2.120979,-0.1854068,1.2907991,1.3753318,0.039998725,0.04,-7.145385,-1.7817884683609009,6.478481,0.03576839,-0.026454627513885498,-0.014152257
658.6499999997296,-0.34973165,-1.3324559,0.42647734,-2.1208394,-0.18551654,1.2906336,1.3756801,0.039998718,0.04,-7.142667,-1.7802599668502808,6.482009,0.034181118,-0.025260312482714653,-0.013345262
658.6666666663963,-0.34992826,-1.3327647,0.42671654,-2.1207066,-0.18562084,1.2904764,1.3760109,0.039998714,0.04,-7.1399527,-1.7787193059921265,6.4853764,0.03262749,-0.024087972939014435,-0.012558136
658.6833333330629,-0.35011476,-1.333058,0.42694348,-2.1205802,-0.18571973,1.2903273,1.3763249,0.03999871,0.04,-7.137576,-1.777348518371582,6.4884596,0.031111352,-0.02294459566473961,-0.011789548
658.6999999997296,-0.35029137,-1.333336,0.42715845,-2.1204605,-0.18581335,1.2901862,1.3766222,0.03999871,0.04,-7.135257,-1.7759878635406494,6.4914174,0.029630445,-0.021827254444360733,-0.011041466
658.7166666663962,-0.35045835,-1.333599,0.42736173,-2.1203473,-0.1859019,1.2900527,1.3769034,0.039998714,0.04,-7.1331615,-1.7747035026550293,6.494174,0.028187815,-0.020737826824188232,-0.010312541
658.7333333330629,-0.3506161,-1.3338473,0.42755362,-2.120241,-0.1859855,1.2899265,1.3771688,0.039998714,0.04,-7.1312814,-1.7735145092010498,6.4966507,0.02678434,-0.019678108394145966,-0.009604175
658.7499999997295,-0.35076466,-1.3340809,0.42773446,-2.120141,-0.18606426,1.2898077,1.3774188,0.039998714,0.04,-7.1294904,-1.7723926305770874,6.499073,0.02542102,-0.018650349229574203,-0.008914585
658.7666666663962,-0.35090452,-1.334301,0.42790467,-2.120047,-0.18613839,1.2896959,1.377654,0.039998714,0.04,-7.1279216,-1.77137291431427,6.5012054,0.02410115,-0.01765715330839157,-0.008244661
658.7833333330628,-0.35103586,-1.3345078,0.42806447,-2.119958,-0.18620802,1.289591,1.3778749,0.039998714,0.04,-7.1264043,-1.7703791856765747,6.503214,0.022822376,-0.016694240272045135,-0.0075960266
658.7999999997295,-0.35115898,-1.3347014,0.4282143,-2.1198747,-0.18627326,1.2894925,1.378082,0.039998714,0.04,-7.1249123,-1.769396424293518,6.5050564,0.021585358,-0.015758974477648735,-0.00697282
658.8166666663961,-0.35127413,-1.3348827,0.4283544,-2.1197975,-0.1863343,1.2894003,1.3782758,0.039998718,0.04,-7.12379,-1.7685712575912476,6.5066786,0.020393215,-0.014860748313367367,-0.0063688187
658.8333333330628,-0.3513817,-1.3350521,0.42848524,-2.1197245,-0.1863913,1.2893145,1.3784568,0.039998714,0.04,-7.1227326,-1.7677576541900635,6.508179,0.019245863,-0.013997901231050491,-0.005787693
658.8499999997294,-0.3514819,-1.33521,0.42860714,-2.1196568,-0.18644434,1.2892342,1.378625,0.039998718,0.04,-7.1216717,-1.7669761180877686,6.5095167,0.018142987,-0.013165347278118134,-0.0052322457
658.8666666663961,-0.35157505,-1.3353566,0.4287205,-2.119594,-0.1864937,1.2891597,1.3787816,0.039998714,0.04,-7.120895,-1.7662885189056396,6.5107183,0.017090555,-0.012371952645480633,-0.004699042
658.8833333330628,-0.3516615,-1.3354926,0.42882568,-2.1195354,-0.18653952,1.2890904,1.378927,0.039998714,0.04,-7.120197,-1.765665054321289,6.5117326,0.016085347,-0.011615149676799774,-0.004190349
658.8999999997294,-0.3517417,-1.3356191,0.42892313,-2.1194813,-0.18658194,1.2890265,1.3790617,0.039998714,0.04,-7.1195636,-1.7650750875473022,6.5126214,0.015129435,-0.010894997045397758,-0.0037071262
658.916666666396,-0.3518158,-1.3357359,0.42901322,-2.1194315,-0.18662119,1.2889671,1.3791859,0.039998718,0.04,-7.119057,-1.7645041942596436,6.513416,0.01422176,-0.01021068450063467,-0.0032490718
658.9333333330627,-0.35188416,-1.3358438,0.42909637,-2.119385,-0.18665741,1.2889123,1.3793011,0.039998714,0.04,-7.118671,-1.764013648033142,6.514059,0.013367685,-0.009565861895680428,-0.0028172962
658.9499999997294,-0.35194725,-1.3359431,0.42917305,-2.1193428,-0.18669085,1.2888619,1.379407,0.039998714,0.04,-7.1183486,-1.7635523080825806,6.5145802,0.012563589,-0.008960445411503315,-0.0024123667
658.966666666396,-0.3520053,-1.3360339,0.42924365,-2.1193035,-0.18672158,1.2888155,1.3795046,0.03999871,0.04,-7.118251,-1.763183355331421,6.5149627,0.011814634,-0.00839766301214695,-0.0020328395
658.9833333330627,-0.3520588,-1.336118,0.42930877,-2.1192675,-0.18674985,1.2887728,1.3795944,0.03999871,0.04,-7.118142,-1.7628247737884521,6.5151873,0.011120996,-0.007875900715589523,-0.0016810001
658.9999999997293,-0.352108,-1.336196,0.4293684,-2.1192348,-0.18677585,1.2887334,1.379677,0.03999871,0.04,-7.118063,-1.762482762336731,6.5154767,0.0104806535,-0.007393774576485157,-0.001356874
659.016666666396,-0.35215327,-1.3362671,0.4294233,-2.119204,-0.1867998,1.2886969,1.3797529,0.03999871,0.04,-7.1180696,-1.7621179819107056,6.515681,0.009890097,-0.006950816139578819,-0.0010584723
659.0333333330626,-0.352195,-1.336333,0.4294739,-2.119176,-0.18682185,1.2886637,1.3798233,0.03999871,0.04,-7.1179976,-1.7618516683578491,6.5158157,0.009348309,-0.006543359253555536,-0.0007845795
659.0499999997293,-0.35223332,-1.336393,0.42952058,-2.1191509,-0.18684208,1.2886335,1.3798872,0.03999871,0.04,-7.117963,-1.7615782022476196,6.5159965,0.00884584,-0.006165552884340286,-0.0005332232
659.0666666663959,-0.3522686,-1.3364489,0.42956343,-2.1191263,-0.18686076,1.2886051,1.3799466,0.03999871,0.04,-7.118088,-1.7614275217056274,6.5160794,0.008390526,-0.0058226203545928,-0.00029945848
659.0833333330626,-0.35230112,-1.3365005,0.42960274,-2.1191041,-0.18687797,1.2885793,1.3800018,0.03999871,0.04,-7.117847,-1.7610869407653809,6.5162854,0.0079656895,-0.005500855389982462,-8.8135406e-05
659.0999999997292,-0.35233104,-1.3365481,0.429639,-2.1190844,-0.18689379,1.2885551,1.3800524,0.03999871,0.04,-7.1178665,-1.7608743906021118,6.516397,0.0075715748,-0.00520442146807909,0.00010627831
659.1166666663959,-0.35235867,-1.3365918,0.42967245,-2.119067,-0.1869083,1.2885333,1.380099,0.03999871,0.04,-7.117941,-1.760703444480896,6.516527,0.0072101443,-0.004935399163514376,0.00028829792
659.1333333330625,-0.352384,-1.336632,0.42970318,-2.1190495,-0.18692172,1.288513,1.3801422,0.03999871,0.04,-7.118011,-1.7605767250061035,6.5166073,0.0068782615,-0.004689069464802742,0.0004570144
659.1499999997292,-0.35240728,-1.3366687,0.42973137,-2.1190333,-0.18693398,1.2884946,1.380182,0.03999871,0.04,-7.117837,-1.76035737991333,6.516714,0.006570741,-0.004458803683519363,0.0006092341
659.1666666663958,-0.3524287,-1.3367019,0.4297574,-2.1190186,-0.18694526,1.2884774,1.380218,0.03999871,0.04,-7.1178145,-1.7602152824401855,6.5167727,0.0062876404,-0.004246004857122898,0.00074753875
659.1833333330625,-0.3524485,-1.3367336,0.42978138,-2.1190052,-0.18695565,1.2884618,1.3802505,0.03999871,0.04,-7.117876,-1.760127067565918,6.5168138,0.006031791,-0.004054093733429909,0.00087687443
659.1999999997291,-0.3524667,-1.3367623,0.4298034,-2.1189935,-0.18696526,1.2884475,1.3802797,0.03999871,0.04,-7.1178074,-1.7599453926086426,6.516975,0.0057970323,-0.0038728604558855295,0.0009948454
659.2166666663958,-0.35248345,-1.3367878,0.42982364,-2.1189837,-0.18697405,1.2884341,1.380308,0.03999871,0.04,-7.1179013,-1.7598847150802612,6.5169935,0.00558516,-0.0037097905296832323,0.0011055671
659.2333333330624,-0.35249892,-1.3368123,0.4298423,-2.118974,-0.18698221,1.2884219,1.3803331,0.03999871,0.04,-7.118095,-1.7598695755004883,6.516963,0.0053861006,-0.0035677661653608084,0.0012115894
659.2499999997291,-0.3525131,-1.336834,0.42985943,-2.1189642,-0.18698965,1.2884107,1.3803576,0.03999871,0.04,-7.1179028,-1.7596875429153442,6.5171065,0.005204999,-0.0034302377607673407,0.0013062244
659.2666666663957,-0.35252616,-1.3368546,0.42987522,-2.1189547,-0.18699652,1.2884003,1.3803786,0.03999871,0.04,-7.117849,-1.7596150636672974,6.5171022,0.00503255,-0.0033037487883120775,0.0013914324
659.2833333330624,-0.35253817,-1.3368725,0.42988974,-2.1189456,-0.18700285,1.2883908,1.3803993,0.03999871,0.04,-7.117737,-1.7594797611236572,6.517211,0.004879506,-0.003183098742738366,0.0014677782
659.299999999729,-0.35254923,-1.3368899,0.4299031,-2.1189375,-0.18700868,1.2883819,1.3804168,0.03999871,0.04,-7.117778,-1.7594571113586426,6.517174,0.0047341227,-0.003075200831517577,0.0015387177
659.3166666663957,-0.35255936,-1.3369063,0.4299154,-2.11893,-0.18701404,1.2883738,1.3804337,0.03999871,0.04,-7.117735,-1.7593377828598022,6.517291,0.0046061906,-0.0029731676913797855,0.0016034606
659.3333333330623,-0.35256872,-1.3369204,0.42992672,-2.1189237,-0.18701898,1.2883663,1.3804506,0.03999871,0.04,-7.117709,-1.7592469453811646,6.517369,0.004483576,-0.0028777567204087973,0.0016625797
659.349999999729,-0.35257733,-1.336934,0.42993715,-2.118918,-0.1870235,1.2883595,1.380464,0.03999871,0.04,-7.117838,-1.7592623233795166,6.5173187,0.004367039,-0.002795830136165023,0.0017196614
659.3666666663956,-0.35258535,-1.3369468,0.42994675,-2.1189127,-0.18702762,1.2883534,1.3804771,0.03999871,0.04,-7.117806,-1.7591853141784668,6.517393,0.0042688656,-0.002718099858611822,0.001771595
659.3833333330623,-0.35259256,-1.3369584,0.42995554,-2.1189084,-0.18703146,1.2883477,1.3804902,0.03999871,0.04,-7.1177764,-1.759115219116211,6.517445,0.004173696,-0.002644676947966218,0.0018183808
659.399999999729,-0.35259932,-1.3369687,0.4299636,-2.1189048,-0.187035,1.2883425,1.3805015,0.03999871,0.04,-7.022222,-1.6670453548431396,6.457188,0.0,-0.0,0.0
659.4166666663956,-0.35259932,-1.3369687,0.4299636,-2.1189048,-0.187035,1.2883425,1.3805015,0.03999871,0.04,-7.1190114,-1.7591910362243652,6.516213,0.0,-0.0,0.0
659.4333333330623,-0.35259932,-1.3369687,0.4299636,-2.1189048,-0.187035,1.2883425,1.3805015,0.03999871,0.04,-7.1190114,-1.7591910362243652,6.516213,0.0,-0.0,0.0
659.4499999997289,-0.35259932,-1.3369687,0.4299636,-2.1189048,-0.187035,1.2883425,1.3805015,0.03999871,0.04,-7.1190114,-1.7591910362243652,6.516213,0.0,-0.0,0.0
659.4666666663956,-0.35259932,-1.3369687,0.4299636,-2.1189048,-0.187035,1.2883425,1.3805015,0.03999871,0.04,-7.1190114,-1.7591910362243652,6.516213,0.0,-0.0,0.0
659.4833333330622,-0.35259932,-1.3369687,0.4299636,-2.1189048,-0.187035,1.2883425,1.3805015,0.03999871,0.04,-7.1190114,-1.7591910362243652,6.516213,0.0,-0.0,0.0
659.4999999997289,-0.35259932,-1.3369687,0.4299636,-2.1189048,-0.187035,1.2883425,1.3805015,0.03999871,0.04,-7.1190114,-1.7591910362243652,6.516213,0.0,-0.0,0.0
659.5166666663955,-0.35259932,-1.3369687,0.4299636,-2.1189048,-0.187035,1.2883425,1.3805015,0.03999871,0.04,-7.1190114,-1.7591910362243652,6.516213,0.0,-0.0,0.0
659.5333333330622,-0.35259932,-1.3369687,0.4299636,-2.1189048,-0.187035,1.2883425,1.3805015,0.03999871,0.04,-7.1190114,-1.7591910362243652,6.516213,0.0,-0.0,0.0
659.5499999997288,-0.35259932,-1.3369687,0.4299636,-2.1189048,-0.187035,1.2883425,1.3805015,0.03999871,0.04,-7.1190114,-1.7591910362243652,6.516213,0.0,-0.0,0.0
659.5666666663955,-0.35259932,-1.3369687,0.4299636,-2.1189048,-0.187035,1.2883425,1.3805015,0.03999871,0.04,-7.1190114,-1.7591910362243652,6.516213,0.0,-0.0,0.0
659.5833333330621,-0.35259932,-1.3369687,0.4299636,-2.1189048,-0.187035,1.2883425,1.3805015,0.03999871,0.04,-7.1190114,-1.7591910362243652,6.516213,0.0,-0.0,0.0
659.5999999997288,-0.35259932,-1.3369687,0.4299636,-2.1189048,-0.187035,1.2883425,1.3805015,0.03999871,0.04,-7.1190114,-1.7591910362243652,6.516213,0.0,-0.0,0.0
659.6166666663954,-0.35259932,-1.3369687,0.4299636,-2.1189048,-0.187035,1.2883425,1.3805015,0.03999871,0.04,-7.1190114,-1.7591910362243652,6.516213,0.0,-0.0,0.0
659.6333333330621,-0.35259932,-1.3369687,0.4299636,-2.1189048,-0.187035,1.2883425,1.3805015,0.03999871,0.04,-7.1190114,-1.7591910362243652,6.516213,0.0,-0.0,0.0
659.6499999997287,-0.35259932,-1.3369687,0.4299636,-2.1189048,-0.187035,1.2883425,1.3805015,0.03999871,0.04,-7.1190114,-1.7591910362243652,6.516213,0.0,-0.0,0.0
659.6666666663954,-0.35259932,-1.3369687,0.4299636,-2.1189048,-0.187035,1.2883425,1.3805015,0.03999871,0.04,-7.1190114,-1.7591910362243652,6.516213,0.0,-0.0,0.0
659.683333333062,-0.35259932,-1.3369687,0.4299636,-2.1189048,-0.187035,1.2883425,1.3805015,0.03999871,0.04,-7.1190114,-1.7591910362243652,6.516213,0.0,-0.0,0.0
659.6999999997287,-0.35259932,-1.3369687,0.4299636,-2.1189048,-0.187035,1.2883425,1.3805015,0.03999871,0.04,-7.1190114,-1.7591910362243652,6.516213,0.0,-0.0,0.0
659.7166666663953,-0.35259932,-1.3369687,0.4299636,-2.1189048,-0.187035,1.2883425,1.3805015,0.03999871,0.04,-7.1190114,-1.7591910362243652,6.516213,0.0,-0.0,0.0
659.733333333062,-0.35259932,-1.3369687,0.4299636,-2.1189048,-0.187035,1.2883425,1.3805015,0.03999871,0.04,-7.1190114,-1.7591910362243652,6.516213,0.0,-0.0,0.0
659.7499999997286,-0.35259932,-1.3369687,0.4299636,-2.1189048,-0.187035,1.2883425,1.3805015,0.03999871,0.04,-7.1190114,-1.7591910362243652,6.516213,0.0,-0.0,0.0
659.7666666663953,-0.35259932,-1.3369687,0.4299636,-2.1189048,-0.187035,1.2883425,1.3805015,0.03999871,0.04,-7.1190114,-1.7591910362243652,6.516213,0.0,-0.0,0.0
659.7833333330619,-0.35259932,-1.3369687,0.4299636,-2.1189048,-0.187035,1.2883425,1.3805015,0.03999871,0.04,-7.1190114,-1.7591910362243652,6.516213,0.0,-0.0,0.0
659.7999999997286,-0.35259932,-1.3369687,0.4299636,-2.1189048,-0.187035,1.2883425,1.3805015,0.03999871,0.04,-7.1190114,-1.7591910362243652,6.516213,0.0,-0.0,0.0
659.8166666663952,-0.35259932,-1.3369687,0.4299636,-2.1189048,-0.187035,1.2883425,1.3805015,0.03999871,0.04,-7.1190114,-1.7591910362243652,6.516213,0.0,-0.0,0.0
659.8333333330619,-0.35259932,-1.3369687,0.4299636,-2.1189048,-0.187035,1.2883425,1.3805015,0.03999871,0.04,-7.1190114,-1.7591910362243652,6.516213,0.0,-0.0,0.0
659.8499999997285,-0.35259932,-1.3369687,0.4299636,-2.1189048,-0.187035,1.2883425,1.3805015,0.03999871,0.04,-7.1190114,-1.7591910362243652,6.516213,0.0,-0.0,0.0
659.8666666663952,-0.35259932,-1.3369687,0.4299636,-2.1189048,-0.187035,1.2883425,1.3805015,0.03999871,0.04,-7.1190114,-1.7591910362243652,6.516213,0.0,-0.0,0.0
659.8833333330618,-0.35259932,-1.3369687,0.4299636,-2.1189048,-0.187035,1.2883425,1.3805015,0.03999871,0.04,-7.1190114,-1.7591910362243652,6.516213,0.0,-0.0,0.0
659.8999999997285,-0.35259932,-1.3369687,0.4299636,-2.1189048,-0.187035,1.2883425,1.3805015,0.03999871,0.04,-7.1190114,-1.7591910362243652,6.516213,0.0,-0.0,0.0
659.9166666663951,-0.35259932,-1.3369687,0.4299636,-2.1189048,-0.187035,1.2883425,1.3805015,0.03999871,0.04,-7.1190114,-1.7591910362243652,6.516213,0.0,-0.0,0.0
659.9333333330618,-0.35259932,-1.3369687,0.4299636,-2.1189048,-0.187035,1.2883425,1.3805015,0.03999871,0.04,-7.1190114,-1.7591910362243652,6.516213,0.0,-0.0,0.0
659.9499999997284,-0.35259932,-1.3369687,0.4299636,-2.1189048,-0.187035,1.2883425,1.3805015,0.03999871,0.04,-7.1190114,-1.7591910362243652,6.516213,0.0,-0.0,0.0
659.9666666663951,-0.35259932,-1.3369687,0.4299636,-2.1189048,-0.187035,1.2883425,1.3805015,0.03999871,0.04,-7.1190114,-1.7591910362243652,6.516213,0.0,-0.0,0.0
659.9833333330618,-0.35259932,-1.3369687,0.4299636,-2.1189048,-0.187035,1.2883425,1.3805015,0.03999871,0.04,-7.1190114,-1.7591910362243652,6.516213,0.0,-0.0,0.0
659.9999999997284,-0.35259932,-1.3369687,0.4299636,-2.1189048,-0.187035,1.2883425,1.3805015,0.03999871,0.04,-7.1190114,-1.7591910362243652,6.516213,0.0,-0.0,0.0
660.016666666395,-0.35259932,-1.3369687,0.4299636,-2.1189048,-0.187035,1.2883425,1.3805015,0.03999871,0.04,-7.1190114,-1.7591910362243652,6.516213,0.0,-0.0,0.0
660.0333333330617,-0.35259932,-1.3369687,0.4299636,-2.1189048,-0.187035,1.2883425,1.3805015,0.03999871,0.04,-7.1190114,-1.7591910362243652,6.516213,0.0,-0.0,0.0
660.0499999997284,-0.35259932,-1.3369687,0.4299636,-2.1189048,-0.187035,1.2883425,1.3805015,0.03999871,0.04,-7.1190114,-1.7591910362243652,6.516213,0.0,-0.0,0.0
660.066666666395,-0.35259932,-1.3369687,0.4299636,-2.1189048,-0.187035,1.2883425,1.3805015,0.03999871,0.04,-7.1190114,-1.7591910362243652,6.516213,0.0,-0.0,0.0
660.0833333330617,-0.35259932,-1.3369687,0.4299636,-2.1189048,-0.187035,1.2883425,1.3805015,0.03999871,0.04,-7.1190114,-1.7591910362243652,6.516213,0.0,-0.0,0.0
660.0999999997283,-0.35259932,-1.3369687,0.4299636,-2.1189048,-0.187035,1.2883425,1.3805015,0.03999871,0.04,-7.1190114,-1.7591910362243652,6.516213,0.0,-0.0,0.0
660.116666666395,-0.35259932,-1.3369687,0.4299636,-2.1189048,-0.187035,1.2883425,1.3805015,0.03999871,0.04,-7.1190114,-1.7591910362243652,6.516213,0.0,-0.0,0.0
660.1333333330616,-0.35259932,-1.3369687,0.4299636,-2.1189048,-0.187035,1.2883425,1.3805015,0.03999871,0.04,-7.1190114,-1.7591910362243652,6.516213,0.0,-0.0,0.0
660.1499999997283,-0.35259932,-1.3369687,0.4299636,-2.1189048,-0.187035,1.2883425,1.3805015,0.03999871,0.04,-7.1190114,-1.7591910362243652,6.516213,0.0,-0.0,0.0
660.1666666663949,-0.35259932,-1.3369687,0.4299636,-2.1189048,-0.187035,1.2883425,1.3805015,0.03999871,0.04,-7.1190114,-1.7591910362243652,6.516213,0.0,-0.0,0.0
660.1833333330616,-0.35259932,-1.3369687,0.4299636,-2.1189048,-0.187035,1.2883425,1.3805015,0.03999871,0.04,-7.1190114,-1.7591910362243652,6.516213,0.0,-0.0,0.0
660.1999999997282,-0.35259932,-1.3369687,0.4299636,-2.1189048,-0.187035,1.2883425,1.3805015,0.03999871,0.04,-7.1190114,-1.7591910362243652,6.516213,0.0,-0.0,0.0
660.2166666663949,-0.35259932,-1.3369687,0.4299636,-2.1189048,-0.187035,1.2883425,1.3805015,0.03999871,0.04,-7.1190114,-1.7591910362243652,6.516213,0.0,-0.0,0.0
660.2333333330615,-0.35259932,-1.3369687,0.4299636,-2.1189048,-0.187035,1.2883425,1.3805015,0.03999871,0.04,-7.1190114,-1.7591910362243652,6.516213,0.0,-0.0,0.0
660.2499999997282,-0.35259932,-1.3369687,0.4299636,-2.1189048,-0.187035,1.2883425,1.3805015,0.03999871,0.04,-7.1190114,-1.7591910362243652,6.516213,0.0,-0.0,0.0
660.2666666663948,-0.35259932,-1.3369687,0.4299636,-2.1189048,-0.187035,1.2883425,1.3805015,0.03999871,0.04,-7.1190114,-1.7591910362243652,6.516213,0.0,-0.0,0.0
660.2833333330615,-0.35259932,-1.3369687,0.4299636,-2.1189048,-0.187035,1.2883425,1.3805015,0.03999871,0.04,-7.1190114,-1.7591910362243652,6.516213,0.0,-0.0,0.0
660.2999999997281,-0.35259932,-1.3369687,0.4299636,-2.1189048,-0.187035,1.2883425,1.3805015,0.03999871,0.04,-7.1190114,-1.7591910362243652,6.516213,0.0,-0.0,0.0
660.3166666663948,-0.35259932,-1.3369687,0.4299636,-2.1189048,-0.187035,1.2883425,1.3805015,0.03999871,0.04,-7.1190114,-1.7591910362243652,6.516213,0.0,-0.0,0.0
660.3333333330614,-0.35259932,-1.3369687,0.4299636,-2.1189048,-0.187035,1.2883425,1.3805015,0.03999871,0.04,-7.1190114,-1.7591910362243652,6.516213,0.0,-0.0,0.0
660.3499999997281,-0.35259932,-1.3369687,0.4299636,-2.1189048,-0.187035,1.2883425,1.3805015,0.03999871,0.04,-7.1190114,-1.7591910362243652,6.516213,0.0,-0.0,0.0
660.3666666663947,-0.35259932,-1.3369687,0.4299636,-2.1189048,-0.187035,1.2883425,1.3805015,0.03999871,0.04,-7.1190114,-1.7591910362243652,6.516213,0.0,-0.0,0.0
660.3833333330614,-0.35259932,-1.3369687,0.4299636,-2.1189048,-0.187035,1.2883425,1.3805015,0.03999871,0.04,-7.1190114,-1.7591910362243652,6.516213,0.0,-0.0,0.0
660.399999999728,-0.35259932,-1.3369687,0.4299636,-2.1189048,-0.187035,1.2883425,1.3805015,0.03999871,0.04,-7.1190114,-1.7591910362243652,6.516213,0.0,-0.0,0.0
660.4166666663947,-0.35259932,-1.3369687,0.4299636,-2.1189048,-0.187035,1.2883425,1.3805015,0.03999871,0.04,-7.1190114,-1.7591910362243652,6.516213,0.0,-0.0,0.0
660.4333333330613,-0.35259932,-1.3369687,0.4299636,-2.1189048,-0.187035,1.2883425,1.3805015,0.03999871,0.04,-7.1190114,-1.7591910362243652,6.516213,0.0,-0.0,0.0
660.449999999728,-0.35259932,-1.3369687,0.4299636,-2.1189048,-0.187035,1.2883425,1.3805015,0.03999871,0.04,-7.1190114,-1.7591910362243652,6.516213,0.0,-0.0,0.0
660.4666666663946,-0.35259932,-1.3369687,0.4299636,-2.1189048,-0.187035,1.2883425,1.3805015,0.03999871,0.04,-7.1190114,-1.7591910362243652,6.516213,0.0,-0.0,0.0
660.4833333330613,-0.35259932,-1.3369687,0.4299636,-2.1189048,-0.187035,1.2883425,1.3805015,0.03999871,0.04,-7.1190114,-1.7591910362243652,6.516213,0.0,-0.0,0.0
660.499999999728,-0.35259932,-1.3369687,0.4299636,-2.1189048,-0.187035,1.2883425,1.3805015,0.03999871,0.04,-7.1190114,-1.7591910362243652,6.516213,0.0,-0.0,0.0
660.5166666663946,-0.35259932,-1.3369687,0.4299636,-2.1189048,-0.187035,1.2883425,1.3805015,0.03999871,0.04,-7.1190114,-1.7591910362243652,6.516213,0.0,-0.0,0.0
660.5333333330613,-0.35259932,-1.3369687,0.4299636,-2.1189048,-0.187035,1.2883425,1.3805015,0.03999871,0.04,-7.1190114,-1.7591910362243652,6.516213,0.0,-0.0,0.0
660.5499999997279,-0.35259932,-1.3369687,0.4299636,-2.1189048,-0.187035,1.2883425,1.3805015,0.03999871,0.04,-7.1190114,-1.7591910362243652,6.516213,0.0,-0.0,0.0
660.5666666663946,-0.35259932,-1.3369687,0.4299636,-2.1189048,-0.187035,1.2883425,1.3805015,0.03999871,0.04,-7.1190114,-1.7591910362243652,6.516213,0.0,-0.0,0.0
660.5833333330612,-0.35259932,-1.3369687,0.4299636,-2.1189048,-0.187035,1.2883425,1.3805015,0.03999871,0.04,-7.1190114,-1.7591910362243652,6.516213,0.0,-0.0,0.0
660.5999999997279,-0.35259932,-1.3369687,0.4299636,-2.1189048,-0.187035,1.2883425,1.3805015,0.03999871,0.04,-7.1190114,-1.7591910362243652,6.516213,0.0,-0.0,0.0
660.6166666663945,-0.35259932,-1.3369687,0.4299636,-2.1189048,-0.187035,1.2883425,1.3805015,0.03999871,0.04,-7.1190114,-1.7591910362243652,6.516213,0.0,-0.0,0.0
660.6333333330612,-0.35259932,-1.3369687,0.4299636,-2.1189048,-0.187035,1.2883425,1.3805015,0.03999871,0.04,-7.1190114,-1.7591910362243652,6.516213,0.0,-0.0,0.0
660.6499999997278,-0.35259932,-1.3369687,0.4299636,-2.1189048,-0.187035,1.2883425,1.3805015,0.03999871,0.04,-7.1190114,-1.7591910362243652,6.516213,0.0,-0.0,0.0
660.6666666663945,-0.35259932,-1.3369687,0.4299636,-2.1189048,-0.187035,1.2883425,1.3805015,0.03999871,0.04,-7.1190114,-1.7591910362243652,6.516213,0.0,-0.0,0.0
660.6833333330611,-0.35259932,-1.3369687,0.4299636,-2.1189048,-0.187035,1.2883425,1.3805015,0.03999871,0.04,-7.1190114,-1.7591910362243652,6.516213,0.0,-0.0,0.0
660.6999999997278,-0.35259932,-1.3369687,0.4299636,-2.1189048,-0.187035,1.2883425,1.3805015,0.03999871,0.04,-7.1190114,-1.7591910362243652,6.516213,0.0,-0.0,0.0
660.7166666663944,-0.35259932,-1.3369687,0.4299636,-2.1189048,-0.187035,1.2883425,1.3805015,0.03999871,0.04,-7.1190114,-1.7591910362243652,6.516213,0.0,-0.0,0.0
660.7333333330611,-0.35259932,-1.3369687,0.4299636,-2.1189048,-0.187035,1.2883425,1.3805015,0.03999871,0.04,-7.1190114,-1.7591910362243652,6.516213,0.0,-0.0,0.0
660.7499999997277,-0.35259932,-1.3369687,0.4299636,-2.1189048,-0.187035,1.2883425,1.3805015,0.03999871,0.04,-7.1190114,-1.7591910362243652,6.516213,0.0,-0.0,0.0
660.7666666663944,-0.35259932,-1.3369687,0.4299636,-2.1189048,-0.187035,1.2883425,1.3805015,0.03999871,0.04,-7.1190114,-1.7591910362243652,6.516213,0.0,-0.0,0.0
660.783333333061,-0.35259932,-1.3369687,0.4299636,-2.1189048,-0.187035,1.2883425,1.3805015,0.03999871,0.04,-7.1190114,-1.7591910362243652,6.516213,0.0,-0.0,0.0
660.7999999997277,-0.35259932,-1.3369687,0.4299636,-2.1189048,-0.187035,1.2883425,1.3805015,0.03999871,0.04,-7.1190114,-1.7591910362243652,6.516213,0.0,-0.0,0.0
660.8166666663943,-0.35259932,-1.3369687,0.4299636,-2.1189048,-0.187035,1.2883425,1.3805015,0.03999871,0.04,-7.1190114,-1.7591910362243652,6.516213,0.0,-0.0,0.0
660.833333333061,-0.35259932,-1.3369687,0.4299636,-2.1189048,-0.187035,1.2883425,1.3805015,0.03999871,0.04,-7.1190114,-1.7591910362243652,6.516213,0.0,-0.0,0.0
660.8499999997276,-0.35259932,-1.3369687,0.4299636,-2.1189048,-0.187035,1.2883425,1.3805015,0.03999871,0.04,-7.1190114,-1.7591910362243652,6.516213,0.0,-0.0,0.0
660.8666666663943,-0.35259932,-1.3369687,0.4299636,-2.1189048,-0.187035,1.2883425,1.3805015,0.03999871,0.04,-7.1190114,-1.7591910362243652,6.516213,0.0,-0.0,0.0
660.8833333330609,-0.35259932,-1.3369687,0.4299636,-2.1189048,-0.187035,1.2883425,1.3805015,0.03999871,0.04,-7.1190114,-1.7591910362243652,6.516213,0.0,-0.0,0.0
660.8999999997276,-0.35259932,-1.3369687,0.4299636,-2.1189048,-0.187035,1.2883425,1.3805015,0.03999871,0.04,-7.1190114,-1.7591910362243652,6.516213,0.0,-0.0,0.0
660.9166666663942,-0.35259932,-1.3369687,0.4299636,-2.1189048,-0.187035,1.2883425,1.3805015,0.03999871,0.04,-7.1190114,-1.7591910362243652,6.516213,0.0,-0.0,0.0
660.9333333330609,-0.35259932,-1.3369687,0.4299636,-2.1189048,-0.187035,1.2883425,1.3805015,0.03999871,0.04,-7.1190114,-1.7591910362243652,6.516213,0.0,-0.0,0.0
660.9499999997275,-0.35259932,-1.3369687,0.4299636,-2.1189048,-0.187035,1.2883425,1.3805015,0.03999871,0.04,-7.1190114,-1.7591910362243652,6.516213,0.0,-0.0,0.0
660.9666666663942,-0.35259932,-1.3369687,0.4299636,-2.1189048,-0.187035,1.2883425,1.3805015,0.03999871,0.04,-7.1190114,-1.7591910362243652,6.516213,0.0,-0.0,0.0
660.9833333330608,-0.35259932,-1.3369687,0.4299636,-2.1189048,-0.187035,1.2883425,1.3805015,0.03999871,0.04,-7.1190114,-1.7591910362243652,6.516213,0.0,-0.0,0.0
660.9999999997275,-0.35259932,-1.3369687,0.4299636,-2.1189048,-0.187035,1.2883425,1.3805015,0.03999871,0.04,-7.1190114,-1.7591910362243652,6.516213,0.0,-0.0,0.0
