rsonawane2002/My_IMU/logs_2/traj_370/imu_400hz_370.csv
time,j1,j2,j3,j4,j5,j6,j7,gripper1,gripper2,imu_ax,imu_ay,imu_az,imu_gx,imu_gy,imu_gz
0.0,0.00016700293,-0.785875,4.0107683e-05,-2.3551247,9.29385e-05,1.570997,0.786,0.04,0.04,-9.543219,0.012426795437932,0.094079845,1.9075816e-07,-0.0011641273740679,7.0832465e-07
0.0025,0.0001670034325,-0.785857774,4.0108572050000003e-05,-2.35513919,9.2944215e-05,1.570996565,0.786,0.04,0.04,-9.58691655000004,0.010659375600515168,0.0813265722999884,2.3296392850003838e-07,-0.0013255208497868318,7.792274225000645e-07
0.005,0.000167003935,-0.785840548,4.0109461100000004e-05,-2.3551536800000004,9.294993000000002e-05,1.57099613,0.786,0.04,0.04,-9.63061410000008,0.008891955763098335,0.0685732995999768,2.7516969700007677e-07,-0.0014869143255057636,8.50130195000129e-07
0.0075,0.0001670044375,-0.7858233219999999,4.0110350150000005e-05,-2.3551681700000002,9.295564500000002e-05,1.570995695,0.786,0.04,0.04,-9.674311650000119,0.007124535925681503,0.055820026899965194,3.1737546550011516e-07,-0.0016483078012246952,9.210329675001935e-07
0.01,0.00016700494,-0.785806096,4.0111239200000006e-05,-2.35518266,9.296136000000002e-05,1.5709952600000001,0.786,0.04,0.04,-9.718009200000159,0.00535711608826467,0.043066754199953594,3.5958123400015355e-07,-0.001809701276943627,9.91935740000258e-07
0.0125,0.0001670054425,-0.78578887,4.011212825000001e-05,-2.3551971500000004,9.296707500000003e-05,1.570994825,0.786,0.04,0.04,-9.761706750000199,0.003589696250847837,0.030313481499941994,4.01787002500192e-07,-0.0019710947526625586,1.0628385125003224e-06
0.015,0.000167005945,-0.785771644,4.011301730000001e-05,-2.3552116400000003,9.297279000000003e-05,1.57099439,0.786,0.04,0.04,-9.805404300000239,0.0018222764134310059,0.017560208799930394,4.4399277100023033e-07,-0.0021324882283814905,1.1337412850003869e-06
0.0175,0.00016700660800000002,-0.7857548669999999,4.0113539e-05,-2.3552257350000003,9.297924025000009e-05,1.57099396,0.786,0.04,0.04,-9.834435224999996,0.0006435092160244641,0.00898593946999764,6.533830025059349e-07,-0.0022900013835184946,1.2676939800028383e-06
0.02,0.00016700759200000002,-0.7857389879999996,4.0113326e-05,-2.3552390400000003,9.29871610000002e-05,1.5709935400000001,0.786,0.04,0.04,-9.834132899999991,0.0006420472986063828,0.008769676879994493,1.1971421600138473e-06,-0.0024397538974918536,1.5277465200066225e-06
0.0225,0.00016700857600000004,-0.7857231089999994,4.011311299999999e-05,-2.3552523450000007,9.299508175000032e-05,1.57099312,0.786,0.04,0.04,-9.833830574999988,0.0006405853811883015,0.008553414289991346,1.7409013175217597e-06,-0.0025895064114652127,1.7877990600104067e-06
0.025,0.00016700956000000004,-0.7857072299999992,4.0112899999999987e-05,-2.3552656500000007,9.300300250000043e-05,1.5709927,0.786,0.04,0.04,-9.833528249999983,0.0006391234637702203,0.008337151699988199,2.284660475029673e-06,-0.0027392589254385718,2.0478516000141913e-06
0.0275,0.00016701054400000006,-0.785691350999999,4.0112686999999984e-05,-2.355278955000001,9.301092325000054e-05,1.57099228,0.786,0.04,0.04,-9.83322592499998,0.000637661546352139,0.008120889109985052,2.8284196325375855e-06,-0.002889011439411931,2.3079041400179755e-06
0.03,0.0001670115280000001,-0.7856754719999987,4.011247399999998e-05,-2.355292260000001,9.301884400000066e-05,1.57099186,0.786,0.04,0.04,-9.832923599999974,0.0006361996289340577,0.007904626519981904,3.372178790045498e-06,-0.0030387639533852903,2.5679566800217596e-06
0.0325,0.0001670125120000001,-0.7856595929999984,4.011226099999998e-05,-2.355305565000001,9.302676475000078e-05,1.57099144,0.786,0.04,0.04,-9.832621274999969,0.0006347377115159764,0.007688363929978757,3.915937947553411e-06,-0.0031885164673586494,2.828009220025544e-06
0.035,0.00016701435200000022,-0.7856445729999987,4.011019399999971e-05,-2.3553181000000007,9.303903750000137e-05,1.57099101,0.786,0.04,0.04,-9.83238724999998,0.0006341501080895658,0.007477699509980338,5.107041900143281e-06,-0.0033322402741892392,3.2972200200542742e-06
0.0375,0.00016701662000000018,-0.7856299824999988,4.010719999999975e-05,-2.3553302500000006,9.305348625000118e-05,1.570990575,0.786,0.04,0.04,-9.832187374999982,0.0006339996616587877,0.007269834174982986,6.62181825012399e-06,-0.0034729497274498425,3.871009950046967e-06
0.04,0.00016701888800000014,-0.785615391999999,4.010420599999979e-05,-2.3553424000000005,9.3067935000001e-05,1.57099014,0.786,0.04,0.04,-9.831987499999986,0.0006338492152280096,0.007061968839985632,8.136594600104703e-06,-0.003613659180710446,4.444799880039661e-06
0.0425,0.00016702115600000013,-0.7856008014999992,4.010121199999983e-05,-2.3553545500000004,9.308238375000081e-05,1.570989705,0.786,0.04,0.04,-9.831787624999988,0.0006336987687972315,0.006854103504988279,9.651370950085417e-06,-0.0037543686339710494,5.018589810032356e-06
0.045,0.0001670234240000001,-0.7855862109999994,4.009821799999987e-05,-2.3553667000000003,9.309683250000064e-05,1.57098927,0.786,0.04,0.04,-9.83158774999999,0.0006335483223664535,0.006646238169990926,1.1166147300066128e-05,-0.0038950780872316526,5.592379740025049e-06
0.0475,0.00016702569200000006,-0.7855716204999995,4.0095223999999906e-05,-2.35537885,9.311128125000044e-05,1.570988835,0.786,0.04,0.04,-9.831387874999994,0.0006333978759356754,0.006438372834993572,1.2680923650046842e-05,-0.004035787540492256,6.166169670017743e-06
0.05,0.00016702796000000008,-0.7855570299999998,4.009222999999985e-05,-2.355391,9.312573000000049e-05,1.5709884,0.786,0.04,0.04,-9.831187999999996,0.0006332474295049026,0.006230507499996878,1.419570000005364e-05,-0.004176496993752719,6.739959600018648e-06
0.0525,0.0001670326445000001,-0.7855436154999997,4.008405094999984e-05,-2.355402025,9.315292200000052e-05,1.57098798,0.786,0.04,0.04,-9.830963149999995,0.0006333917641312928,0.006058848774996722,1.7144391000056318e-05,-0.00430949474685144,7.76507878501958e-06
0.055,0.0001670373290000001,-0.7855302009999997,4.0075871899999836e-05,-2.35541305,9.318011400000055e-05,1.57098756,0.786,0.04,0.04,-9.830738299999995,0.0006335360987576829,0.0058871900499965655,2.0093082000059e-05,-0.004442492499950161,8.790197970020511e-06
0.0575,0.00016704201350000009,-0.7855167864999998,4.0067692849999827e-05,-2.355424075,9.320730600000057e-05,1.57098714,0.786,0.04,0.04,-9.830513449999994,0.0006336804333840731,0.005715531324996409,2.3041773000061684e-05,-0.004575490253048882,9.815317155021445e-06
0.06,0.0001670466980000001,-0.7855033719999998,4.005951379999982e-05,-2.3554351000000002,9.32344980000006e-05,1.57098672,0.786,0.04,0.04,-9.830288599999994,0.0006338247680104632,0.005543872599996253,2.599046400006436e-05,-0.0047084880061476035,1.0840436340022375e-05
0.0625,0.0001670513825000001,-0.7854899574999997,4.0051334749999814e-05,-2.3554461250000003,9.326169000000062e-05,1.5709863,0.786,0.04,0.04,-9.830063749999995,0.0006339691026368533,0.005372213874996097,2.8939155000067044e-05,-0.004841485759246324,1.1865555525023309e-05
0.065,0.00016705606700000012,-0.7854765429999997,4.0043155699999805e-05,-2.3554571500000003,9.328888200000064e-05,1.57098588,0.786,0.04,0.04,-9.829838899999995,0.0006341134372632435,0.005200555149995941,3.188784600006973e-05,-0.004974483512345045,1.2890674710024242e-05
0.0675,0.0001670620375000002,-0.7854634999999998,4.0032221649999596e-05,-2.3554678350000002,9.332294480000117e-05,1.57098563,0.786000095,0.04,0.04,-9.829641174999997,0.0006345262692775284,0.0050301495199958765,3.545460250011795e-05,-0.005105577455836601,1.410777502503932e-05
0.07,0.00016707058000000021,-0.7854511999999997,4.0015777599999584e-05,-2.3554778400000003,9.337074920000121e-05,1.57098572,0.78600038,0.04,0.04,-9.829497699999996,0.0006354760960675443,0.004862250079995724,4.025749000012232e-05,-0.005232863780114242,1.5708837600040778e-05
0.0725,0.00016707912250000023,-0.7854388999999997,3.9999333549999565e-05,-2.3554878450000003,9.341855360000126e-05,1.57098581,0.786000665,0.04,0.04,-9.829354224999996,0.00063642592285756,0.004694350639995572,4.506037750012667e-05,-0.0053601501043918824,1.7309900175042227e-05
0.075,0.00016708766500000022,-0.7854265999999996,3.9982889499999554e-05,-2.3554978500000003,9.34663580000013e-05,1.5709859000000002,0.78600095,0.04,0.04,-9.829210749999996,0.0006373757496475759,0.0045264511999954194,4.9863265000131045e-05,-0.005487436428669523,1.8910962750043682e-05
0.0775,0.00016709620750000024,-0.7854142999999997,3.9966445449999535e-05,-2.3555078550000004,9.351416240000134e-05,1.57098599,0.7860012350000001,0.04,0.04,-9.829067274999996,0.0006383255764375918,0.004358551759995266,5.466615250013541e-05,-0.005614722752947164,2.051202532504514e-05
0.08,0.00016710475000000023,-0.7854019999999997,3.9950001399999523e-05,-2.3555178600000004,9.356196680000139e-05,1.5709860800000002,0.78600152,0.04,0.04,-9.828923799999995,0.0006392754032276077,0.004190652319995113,5.9469040000139786e-05,-0.005742009077224805,2.21130879000466e-05
0.0825,0.00016711329250000025,-0.7853896999999996,3.993355734999951e-05,-2.3555278650000004,9.360977120000143e-05,1.57098617,0.786001805,0.04,0.04,-9.828780324999995,0.0006402252300176235,0.004022752879994961,6.427192750014416e-05,-0.005869295401502446,2.3714150475048055e-05
0.085,0.00016712555600000042,-0.7853780899999997,3.9909185099999124e-05,-2.35553711,9.367743940000239e-05,1.57098628,0.78600209,0.04,0.04,-9.828625449999995,0.0006401658174580825,0.003866998679995371,6.976869000018072e-05,-0.005992426769811634,2.5688372800066823e-05
0.08750000000000001,0.00016713968000000044,-0.7853668249999997,3.98808487499991e-05,-2.3555459750000005,9.375503950000247e-05,1.5709864,0.786002375,0.04,0.04,-9.828464874999995,0.000639601785223832,0.0037173170999952347,7.561239000018604e-05,-0.006113480660136879,2.784917500006879e-05
0.09,0.00016715380400000044,-0.7853555599999996,3.985251239999907e-05,-2.3555548400000004,9.383263960000254e-05,1.57098652,0.7860026600000001,0.04,0.04,-9.828304299999994,0.0006390377529895815,0.0035676355199950995,8.145609000019133e-05,-0.006234534550462124,3.0009977200070743e-05
0.0925,0.00016716792800000046,-0.7853442949999997,3.9824176049999045e-05,-2.3555637050000002,9.39102397000026e-05,1.57098664,0.786002945,0.04,0.04,-9.828143724999995,0.000638473720755331,0.0034179539399949634,8.729979000019665e-05,-0.006355588440787369,3.217077940007271e-05
0.095,0.00016718205200000048,-0.7853330299999997,3.979583969999902e-05,-2.35557257,9.398783980000268e-05,1.57098676,0.78600323,0.04,0.04,-9.827983149999994,0.0006379096885210805,0.003268272359994827,9.314349000020197e-05,-0.006476642331112614,3.433158160007468e-05
0.0975,0.00016719617600000048,-0.7853217649999996,3.976750334999899e-05,-2.3555814350000004,9.406543990000275e-05,1.57098688,0.786003515,0.04,0.04,-9.827822574999994,0.00063734565628683,0.0031185907799946904,9.898719000020729e-05,-0.0065976962214378595,3.649238380007665e-05
0.1,0.00016721030000000077,-0.7853104999999997,3.973916699999838e-05,-2.3555903000000002,9.414304000000438e-05,1.570987,0.7860038,0.04,0.04,-9.827661999999997,0.0006367816240527353,0.0029689091999953177,0.00010483089000031354,-0.0067187501117629955,3.8653186000120705e-05
0.10250000000000001,0.0001672319330000008,-0.7853001949999996,3.969472154999834e-05,-2.3555986100000004,9.426330190000448e-05,1.570987135,0.786004091,0.04,0.03999999925,-9.827563299999996,0.0006405003165128336,0.0028402059149952004,0.00011344896600032139,-0.006836818996821258,4.1970984550123726e-05
0.105,0.00016725356600000082,-0.7852898899999996,3.96502760999983e-05,-2.35560692,9.438356380000459e-05,1.57098727,0.786004382,0.04,0.0399999985,-9.827464599999997,0.000644219008972932,0.002711502629995084,0.0001220670420003292,-0.00695488788187952,4.528878310012673e-05
0.1075,0.00016727519900000084,-0.7852795849999996,3.960583064999826e-05,-2.35561523,9.45038257000047e-05,1.570987405,0.786004673,0.04,0.03999999775,-9.827365899999997,0.0006479377014330304,0.002582799344994967,0.00013068511800033703,-0.007072956766937782,4.860658165012975e-05
0.11,0.00016729683200000087,-0.7852692799999996,3.9561385199998224e-05,-2.3556235400000003,9.462408760000481e-05,1.57098754,0.7860049640000001,0.04,0.039999997,-9.827267199999996,0.0006516563938931287,0.0024540960599948496,0.00013930319400034489,-0.007191025651996045,5.192438020013277e-05
0.1125,0.00016731846500000087,-0.7852589749999995,3.951693974999818e-05,-2.3556318500000004,9.474434950000492e-05,1.570987675,0.7860052550000001,0.04,0.03999999625,-9.827168499999996,0.0006553750863532271,0.0023253927749947324,0.00014792127000035272,-0.007309094537054308,5.524217875013579e-05
0.115,0.0001673400980000009,-0.7852486699999995,3.947249429999814e-05,-2.3556401600000005,9.486461140000502e-05,1.57098781,0.786005546,0.04,0.0399999955,-9.827069799999997,0.0006590937788133255,0.0021966894899946156,0.00015653934600036055,-0.00742716342211257,5.855997730013881e-05
0.11750000000000001,0.00016736496550000132,-0.7852386669999996,3.9421138199997217e-05,-2.3556481900000006,9.500188370000732e-05,1.570988125,0.7860059305,0.04,0.03999999525,-9.826991349999998,0.0006614342186366072,0.0020761057799955395,0.00016622183950050493,-0.007545605115597505,6.204932235016383e-05
0.12,0.00016739630200000136,-0.7852292679999996,3.935596079999716e-05,-2.3556556600000005,9.517317680000747e-05,1.5709888,0.786006502,0.04,0.039999996,-9.826953399999999,0.0006610181531867818,0.0019717612199954453,0.0001780331680005156,-0.007664792425935643,6.58817604001673e-05
0.1225,0.0001674276385000014,-0.7852198689999996,3.92907833999971e-05,-2.3556631300000004,9.534446990000763e-05,1.570989475,0.7860070735,0.04,0.03999999675,-9.826915449999998,0.0006606020877369564,0.00186741665999535,0.00018984449650052634,-0.007783979736273781,6.971419845017078e-05
0.125,0.00016745897500000144,-0.7852104699999995,3.922560599999704e-05,-2.3556706000000003,9.551576300000779e-05,1.57099015,0.786007645,0.04,0.0399999975,-9.826877499999998,0.000660186022287131,0.0017630720999952552,0.0002016558250005371,-0.00790316704661192,7.354663650017428e-05
0.1275,0.00016749031150000145,-0.7852010709999996,3.9160428599996976e-05,-2.35567807,9.568705610000795e-05,1.570990825,0.7860082165,0.04,0.03999999825,-9.826839549999999,0.0006597699568373057,0.0016587275399951602,0.00021346715350054787,-0.008022354356950059,7.737907455017778e-05
0.13,0.0001675216480000015,-0.7851916719999995,3.909525119999692e-05,-2.3556855400000005,9.58583492000081e-05,1.5709915,0.786008788,0.04,0.039999999,-9.826801599999998,0.0006593538913874803,0.0015543829799950651,0.00022527848200055861,-0.008141541667288197,8.121151260018126e-05
0.1325,0.00016755298450000153,-0.7851822729999995,3.903007379999686e-05,-2.3556930100000004,9.602964230000825e-05,1.570992175,0.7860093595,0.04,0.03999999975,-9.826763649999998,0.0006589378259376549,0.00145003841999497,0.00023708981050056936,-0.008260728977626336,8.504395065018474e-05
0.135,0.00016759233400000215,-0.7851734419999996,3.894768619999553e-05,-2.35569979,9.624567800001171e-05,1.57099287,0.786010125,0.04,0.0399999995,-9.8267353,0.0006610081996769527,0.0013430930899946834,0.0002504308710006928,-0.008379258401697705,8.967179750024685e-05
0.1375,0.0001676356900000022,-0.7851648949999995,3.885669349999545e-05,-2.355706225,9.648408500001193e-05,1.570993575,0.7860109875,0.04,0.03999999875,-9.82671175,0.0006643217930105407,0.0012348473749945847,0.00026453679750070567,-0.008497458882635762,9.469734875025142e-05
0.14,0.0001676790460000022,-0.7851563479999996,3.8765700799995365e-05,-2.3557126600000005,9.672249200001214e-05,1.57099428,0.78601185,0.04,0.039999998,-9.8266882,0.0006676353863441289,0.0011266016599944862,0.0002786427240007185,-0.00861565936357382,9.9722900000256e-05
0.14250000000000002,0.00016772240200000225,-0.7851478009999996,3.867470809999528e-05,-2.3557190950000004,9.696089900001237e-05,1.570994985,0.7860127125,0.04,0.03999999725,-9.826664649999998,0.0006709489796777169,0.0010183559449943877,0.00029274865050073136,-0.008733859844511877,0.00010474845125026057
0.145,0.0001677657580000023,-0.7851392539999995,3.85837153999952e-05,-2.3557255300000004,9.719930600001258e-05,1.57099569,0.786013575,0.04,0.0399999965,-9.826641099999998,0.0006742625730113048,0.0009101102299942904,0.000306854577000744,-0.008852060325449934,0.00010977400250026509
0.1475,0.00016780911400000233,-0.7851307069999995,3.8492722699995114e-05,-2.3557319650000004,9.743771300001279e-05,1.570996395,0.7860144375,0.04,0.03999999575,-9.826617549999998,0.0006775761663448929,0.0008018645149941918,0.00032096050350075684,-0.008970260806387992,0.00011479955375026966
0.15,0.00016785247000000318,-0.7851221599999996,3.840172999999333e-05,-2.3557384000000003,9.767612000001727e-05,1.5709971,0.7860153000000001,0.04,0.039999995,-9.826593999999996,0.0006808897596784149,0.0006936187999959823,0.00033506643000091754,-0.009088461287326132,0.00011982510500031762
0.1525,0.00016791042250000323,-0.7851144409999996,3.827948779999322e-05,-2.35574383,9.799259300001756e-05,1.570998375,0.78601644,0.04,0.03999999575,-9.826541799999998,0.0006829946651123818,0.0006199918459959153,0.00035188147500093286,-0.009208198729909092,0.00012564579875032293
0.155,0.00016796837500000327,-0.7851067219999995,3.81572455999931e-05,-2.35574926,9.830906600001785e-05,1.57099965,0.78601758,0.04,0.0399999965,-9.826489599999997,0.0006850995705463487,0.0005463648919958483,0.0003686965200009482,-0.009327936172492052,0.00013146649250032823
0.1575,0.00016802632750000332,-0.7850990029999996,3.803500339999299e-05,-2.3557546900000004,9.862553900001813e-05,1.571000925,0.7860187200000001,0.04,0.03999999725,-9.826437399999996,0.0006872044759803156,0.0004727379379957813,0.00038551156500096344,-0.00944767361507501,0.00013728718625033353
0.16,0.00016808428000000337,-0.7850912839999996,3.791276119999288e-05,-2.3557601200000002,9.894201200001843e-05,1.5710022000000001,0.78601986,0.04,0.039999998,-9.826385199999997,0.0006893093814142825,0.0003991109839957143,0.00040232661000097876,-0.00956741105765797,0.00014310788000033883
0.1625,0.00016814223250000344,-0.7850835649999995,3.779051899999277e-05,-2.3557655500000005,9.925848500001872e-05,1.571003475,0.7860210000000001,0.04,0.03999999875,-9.826332999999996,0.0006914142868482495,0.00032548402999564726,0.0004191416550009941,-0.009687148500240928,0.00014892857375034413
0.165,0.00016820018500000348,-0.7850758459999996,3.766827679999266e-05,-2.3557709800000004,9.9574958000019e-05,1.57100475,0.78602214,0.04,0.0399999995,-9.826280799999996,0.0006935191922822164,0.00025185707599558024,0.0004359567000010094,-0.009806885942823888,0.00015474926750034943
0.1675,0.00016826387300000457,-0.7850683969999996,3.7533680899990296e-05,-2.3557761300000006,9.992339750002514e-05,1.5710061,0.786023377,0.04,0.03999999975,-9.8262442,0.0006968344183409195,0.00017884122149562488,0.0004538276015012177,-0.009926793677739644,0.00016101214900043556
0.17,0.00016833903200000466,-0.7850614879999996,3.7374377599990147e-05,-2.3557807200000003,0.00010033577000002551,1.5710076,0.7860248080000001,0.04,0.039999999,-9.826238799999999,0.0007025702856484347,0.00010704756599555951,0.0004738102160012359,-0.010047041997320897,0.00016815940600044206
0.17250000000000001,0.00016841419100000472,-0.7850545789999996,3.7215074299990004e-05,-2.3557853100000004,0.00010074814250002589,1.5710091,0.7860262390000001,0.04,0.03999999825,-9.8262334,0.00070830615295595,3.525391049549414e-05,0.0004937928305012541,-0.010167290316902153,0.0001753066630004486
0.17500000000000002,0.0001684893500000048,-0.7850476699999996,3.7055770999989855e-05,-2.3557899000000004,0.00010116051500002625,1.5710106,0.7860276700000001,0.04,0.0399999975,-9.826227999999999,0.0007140420202634652,-3.65397450045712e-05,0.0005137754450012723,-0.010287538636483406,0.0001824539200004551
0.1775,0.00016856450900000486,-0.7850407609999996,3.689646769998971e-05,-2.35579449,0.00010157288750002663,1.5710121000000001,0.7860291010000001,0.04,0.03999999675,-9.8262226,0.0007197778875709804,-0.00010833340050463578,0.0005337580595012902,-0.01040778695606466,0.0001896011770004615
0.18,0.00016863966800000492,-0.7850338519999996,3.6737164399989564e-05,-2.35579908,0.00010198526000002701,1.5710136000000001,0.7860305320000002,0.04,0.039999996,-9.826217199999999,0.0007255137548784955,-0.00018012705600470115,0.0005537406740013085,-0.010528035275645914,0.000196748434000468
0.1825,0.000168714827000005,-0.7850269429999996,3.657786109998942e-05,-2.3558036700000002,0.00010239763250002737,1.5710151,0.7860319630000001,0.04,0.03999999525,-9.8262118,0.0007312496221860108,-0.00025192071150476655,0.0005737232885013267,-0.01064828359522717,0.0002038956910004745
0.185,0.00016880336100000642,-0.7850205359999997,3.6389842799986376e-05,-2.35580787,0.00010288211000003504,1.5710168400000002,0.7860336920000002,0.04,0.0399999955,-9.826210699999999,0.000735657825134862,-0.0003004296970024812,0.0005960391140015803,-0.010771016590305493,0.00021165210900054253
0.1875,0.0001688985825000065,-0.7850143799999996,3.618746699998619e-05,-2.355811875,0.00010340264000003551,1.5710187000000002,0.7860355700000001,0.04,0.03999999625,-9.82621175,0.0007394021959045804,-0.0003372963475025148,0.0006195215450016017,-0.010894991923131982,0.00021971310750054987
0.19,0.00016899380400000659,-0.7850082239999996,3.598509119998601e-05,-2.35581588,0.00010392317000003598,1.5710205600000002,0.7860374480000002,0.04,0.039999997,-9.8262128,0.0007431465666742988,-0.0003741629980025483,0.0006430039760016231,-0.011018967255958469,0.00022777410600055721
0.1925,0.00016908902550000668,-0.7850020679999996,3.578271539998583e-05,-2.3558198850000003,0.00010444370000003645,1.5710224200000003,0.7860393260000001,0.04,0.03999999775,-9.82621385,0.0007468909374440172,-0.00041102964850258186,0.0006664864070016445,-0.011142942588784958,0.00023583510450056455
0.195,0.00016918424700000675,-0.7849959119999996,3.5580339599985646e-05,-2.3558238900000004,0.00010496423000003693,1.5710242800000003,0.7860412040000002,0.04,0.0399999985,-9.8262149,0.0007506353082137356,-0.00044789629900261546,0.0006899688380016659,-0.011266917921611445,0.0002438961030005719
0.1975,0.00016927946850000685,-0.7849897559999995,3.537796379998546e-05,-2.3558278950000004,0.00010548476000003741,1.5710261400000003,0.7860430820000002,0.04,0.03999999925,-9.82621595,0.0007543796789834541,-0.000484762949502649,0.0007134512690016873,-0.011390893254437933,0.00025195710150057924
0.2,0.0001693746900000086,-0.7849835999999996,3.517558799998168e-05,-2.3558319,0.00010600529000004717,1.5710280000000003,0.7860449600000001,0.04,0.04,-9.826217000000007,0.000758124049753545,-0.0005216296000022387,0.0007369337000019395,-0.011514868587264852,0.0002600181000006909
0.2025,0.0001694928405000087,-0.7849781699999996,3.492376799998145e-05,-2.3558347650000004,0.00010665349910004776,1.5710304300000002,0.7860472460000002,0.04,0.03999999925,-9.826316750000007,0.0007669881044427381,-0.0005523957055022666,0.0007635893345019638,-0.011644768947744926,0.0002695124700006995
0.20500000000000002,0.00016961099100000883,-0.7849727399999996,3.4671947999981223e-05,-2.3558376300000003,0.00010730170820004835,1.5710328600000003,0.7860495320000002,0.04,0.0399999985,-9.826416500000008,0.0007758521591319312,-0.0005831618110022946,0.0007902449690019881,-0.011774669308224999,0.00027900684000070814
0.20750000000000002,0.00016972914150000892,-0.7849673099999995,3.442012799998099e-05,-2.3558404950000003,0.00010794991730004894,1.5710352900000002,0.7860518180000001,0.04,0.03999999775,-9.826516250000006,0.0007847162138211242,-0.0006139279165023227,0.0008169006035020123,-0.011904569668705072,0.00028850121000071683
0.21,0.00016984729200000904,-0.7849618799999996,3.416830799998077e-05,-2.35584336,0.00010859812640004953,1.5710377200000003,0.7860541040000002,0.04,0.039999997,-9.826616000000007,0.0007935802685103172,-0.0006446940220023504,0.0008435562380020363,-0.012034470029185144,0.00029799558000072535
0.2125,0.00016996544250000913,-0.7849564499999996,3.391648799998053e-05,-2.355846225,0.00010924633550005011,1.5710401500000002,0.7860563900000002,0.04,0.03999999625,-9.826715750000007,0.0008024443231995103,-0.0006754601275023784,0.0008702118725020606,-0.012164370389665217,0.000307489950000734
0.215,0.00017008359300000925,-0.7849510199999995,3.3664667999980304e-05,-2.35584909,0.0001098945446000507,1.5710425800000003,0.7860586760000001,0.04,0.0399999955,-9.826815500000007,0.0008113083778887034,-0.0007062262330024063,0.0008968675070020849,-0.012294270750145291,0.0003169843200007426
0.2175,0.00017021040500001143,-0.7849458299999996,3.339420809997565e-05,-2.355851595,0.00011058982730006248,1.5710452150000003,0.7860611550000002,0.04,0.03999999525,-9.826882,0.0008193924877564513,-0.0007307043980009418,0.0009247743185024062,-0.012425286136578083,0.00032681345500083076
0.22,0.00017035454000001156,-0.7849411199999996,3.308646839997537e-05,-2.35585338,0.00011137925720006319,1.5710482600000002,0.7860640200000002,0.04,0.039999996,-9.826882,0.0008259167079818623,-0.0007426066820009526,0.0009551834840024338,-0.012558531574915524,0.0003373121200008403
0.2225,0.0001704986750000117,-0.7849364099999996,3.2778728699975093e-05,-2.355855165,0.00011216868710006391,1.5710513050000003,0.7860668850000002,0.04,0.03999999675,-9.826882,0.0008324409282072731,-0.0007545089660009634,0.0009855926495024616,-0.012691777013252966,0.00034781078500084985
0.225,0.00017064281000001182,-0.7849316999999996,3.247098899997481e-05,-2.35585695,0.00011295811700006462,1.5710543500000003,0.7860697500000002,0.04,0.0399999975,-9.826882,0.0008389651484326841,-0.0007664112500009743,0.0010160018150024892,-0.012825022451590408,0.0003583094500008594
0.2275,0.00017078694500001195,-0.7849269899999995,3.216324929997453e-05,-2.355858735,0.00011374754690006535,1.5710573950000004,0.7860726150000003,0.04,0.03999999825,-9.826882,0.000845489368658095,-0.0007783135340009851,0.0010464109805025169,-0.01295826788992785,0.00036880811500086895
0.23,0.00017093108000001207,-0.7849222799999995,3.185550959997425e-05,-2.3558605200000002,0.00011453697680006606,1.5710604400000003,0.7860754800000003,0.04,0.039999999,-9.826882,0.000852013588883506,-0.0007902158180009959,0.0010768201460025445,-0.01309151332826529,0.0003793067800008785
0.2325,0.0001710752150000122,-0.7849175699999995,3.154776989997397e-05,-2.355862305,0.00011532640670006679,1.5710634850000003,0.7860783450000003,0.04,0.03999999975,-9.826882,0.000858537809108917,-0.0008021181020010067,0.0011072293115025722,-0.013224758766602732,0.00038980544500088804
0.23500000000000001,0.00017123873700001483,-0.7849133299999996,3.119826509996833e-05,-2.3558633700000002,0.00011622240640008116,1.5710671200000004,0.7860815700000003,0.04,0.04,-9.826910200000004,0.0008679809106988622,-0.0008006986909993091,0.0011398399400028823,-0.0133610188961146,0.00040123707500101726
0.23750000000000002,0.00017141195250001498,-0.7849093249999997,3.082787774996799e-05,-2.355864075,0.00011717169100008203,1.5710710500000005,0.7860849750000003,0.04,0.04,-9.826952500000003,0.0008788834529705171,-0.0007926184324993017,0.001173551300002913,-0.013498786371213104,0.00041313518750102807
0.24,0.00017158516800001514,-0.7849053199999996,3.0457490399967664e-05,-2.35586478,0.00011812097560008288,1.5710749800000003,0.7860883800000003,0.04,0.04,-9.826994800000003,0.0008897859952421719,-0.0007845381739992945,0.0012072626600029433,-0.013636553846311609,0.0004250333000010388
0.2425,0.0001717583835000153,-0.7849013149999996,3.0087103049967328e-05,-2.355865485,0.00011907026020008375,1.5710789100000004,0.7860917850000003,0.04,0.04,-9.827037100000004,0.0009006885375138268,-0.0007764579154992872,0.001240974020002974,-0.013774321321410113,0.00043693141250104964
0.245,0.00017193159900001545,-0.7848973099999996,2.9716715699966988e-05,-2.35586619,0.0001200195448000846,1.5710828400000003,0.7860951900000003,0.04,0.04,-9.827079400000004,0.0009115910797854817,-0.0007683776569992798,0.0012746853800030048,-0.013912088796508619,0.00044882952500106046
0.2475,0.0001721048145000156,-0.7848933049999997,2.9346328349966652e-05,-2.355866895,0.00012096882940008547,1.5710867700000004,0.7860985950000002,0.04,0.04,-9.827121700000003,0.0009224936220571366,-0.0007602973984992725,0.0013083967400030355,-0.014049856271607125,0.00046072763750107127
0.25,0.00017227803000001868,-0.7848892999999997,2.897594099995999e-05,-2.3558676,0.00012191811400010248,1.5710907000000005,0.7861020000000003,0.04,0.04,-9.827164000000007,0.0009333961643289114,-0.0007522171399976867,0.001342108100003419,-0.014187623746706011,0.0004726257500012011
0.2525,0.00017248347750001888,-0.7848859804999997,2.853603404995959e-05,-2.355867315,0.00012304492540010352,1.5710954250000004,0.7861060590000003,0.04,0.04,-9.827234050000007,0.0009456158266413375,-0.0007267825684976636,0.0013796999300034532,-0.014329595863832126,0.00048583196750121314
0.255,0.00017268892500001907,-0.7848826609999997,2.809612709995919e-05,-2.3558670299999998,0.00012417173680010453,1.5711001500000006,0.7861101180000004,0.04,0.04,-9.827304100000006,0.0009578354889537636,-0.0007013479969976404,0.0014172917600034874,-0.014471567980958241,0.0004990381850012251
0.2575,0.00017289437250001924,-0.7848793414999997,2.765622014995879e-05,-2.3558667449999997,0.00012529854820010557,1.5711048750000005,0.7861141770000004,0.04,0.04,-9.827374150000006,0.0009700551512661897,-0.0006759134254976173,0.0014548835900035216,-0.014613540098084354,0.0005122444025012371
0.26,0.00017309982000001943,-0.7848760219999996,2.721631319995839e-05,-2.3558664599999997,0.0001264253596001066,1.5711096000000004,0.7861182360000004,0.04,0.04,-9.827444200000008,0.000982274813578616,-0.0006504788539975941,0.0014924754200035559,-0.01475551221521047,0.0005254506200012491
0.2625,0.00017330526750001962,-0.7848727024999996,2.677640624995799e-05,-2.3558661749999996,0.00012755217100010762,1.5711143250000006,0.7861222950000004,0.04,0.04,-9.827514250000007,0.0009944944758910421,-0.000625044282497571,0.00153006725000359,-0.014897484332336584,0.0005386568375012613
0.265,0.00017351071500001981,-0.7848693829999996,2.633649929995759e-05,-2.35586589,0.00012867898240010865,1.5711190500000005,0.7861263540000004,0.04,0.04,-9.827584300000007,0.0010067141382034681,-0.0005996097109975478,0.0015676590800036243,-0.015039456449462698,0.0005518630550012733
0.2675,0.00017372798500002345,-0.7848662844999997,2.5871081399949742e-05,-2.35586527,0.0001298709515001287,1.5711239800000005,0.7861306370000005,0.04,0.04,-9.827653800000007,0.0010198344418327072,-0.0005641083574945855,0.00160648957500402,-0.015183502016603413,0.0005655150915014154
0.27,0.00017396890000002366,-0.7848636279999996,2.535464159994927e-05,-2.3558639799999996,0.0001311932360001299,1.5711293200000005,0.7861353680000005,0.04,0.04,-9.827722200000007,0.0010347560280947858,-0.0005084734399945349,0.0016477974000040578,-0.015331694483771518,0.0005800587660014287
0.2725,0.0001742098150000239,-0.7848609714999997,2.48382017999488e-05,-2.35586269,0.0001325155205001311,1.5711346600000005,0.7861400990000005,0.04,0.04,-9.827790600000007,0.0010496776143568644,-0.0004528385224944842,0.0016891052250040954,-0.015479886950939624,0.0005946024405014419
0.275,0.0001744507300000241,-0.7848583149999997,2.432176199994833e-05,-2.3558613999999998,0.0001338378050001323,1.5711400000000004,0.7861448300000005,0.04,0.04,-9.827859000000007,0.001064599200618943,-0.00039720360499443356,0.001730413050004133,-0.01562807941810773,0.0006091461150014552
0.2775,0.00017469164500002432,-0.7848556584999997,2.380532219994786e-05,-2.35586011,0.00013516008950013351,1.5711453400000006,0.7861495610000004,0.04,0.04,-9.827927400000007,0.0010795207868810215,-0.0003415686874943829,0.0017717208750041705,-0.015776271885275833,0.0006236897895014684
0.28,0.00017493256000002453,-0.7848530019999997,2.328888239994739e-05,-2.35585882,0.0001364823740001347,1.5711506800000006,0.7861542920000005,0.04,0.04,-9.827995800000007,0.0010944423731431001,-0.0002859337699943323,0.0018130287000042082,-0.015924464352443938,0.0006382334640014816
0.28250000000000003,0.00017517347500002476,-0.7848503454999998,2.277244259994692e-05,-2.35585753,0.00013780465850013593,1.5711560200000005,0.7861590230000005,0.04,0.04,-9.828064200000007,0.0011093639594051787,-0.00023029885249428158,0.0018543365250042459,-0.016072656819612043,0.0006527771385014949
0.28500000000000003,0.000175440213000029,-0.7848481369999998,2.2200234499937773e-05,-2.35585551,0.00013927037400015941,1.5711620700000006,0.7861642800000006,0.04,0.0399999995,-9.828166200000013,0.0011261361418309652,-0.00015921018599182723,0.0018982880000046945,-0.01622594762595116,0.000668303732001661
0.28750000000000003,0.00017571986250002926,-0.7848461524999998,2.160014224993723e-05,-2.355853125,0.00014080780500016083,1.5711684750000006,0.7861698000000006,0.04,0.03999999875,-9.828285000000012,0.0011438336223381761,-8.039464499175547e-05,0.0019435613000047358,-0.016381787601874604,0.0006843217850016755
0.29,0.0001759995120000295,-0.7848441679999998,2.1000049999936695e-05,-2.3558507399999997,0.0001423452360001622,1.5711748800000007,0.7861753200000006,0.04,0.039999998,-9.828403800000013,0.0011615311028453869,-1.5791039916854678e-06,0.001988834600004776,-0.01653762757779804,0.0007003398380016898
0.2925,0.00017627916150002976,-0.7848421834999998,2.0399957749936148e-05,-2.355848355,0.00014388266700016359,1.5711812850000006,0.7861808400000007,0.04,0.03999999725,-9.828522600000014,0.001179228583352598,7.723643700838627e-05,0.0020341079000048175,-0.016693467553721482,0.0007163578910017044
0.295,0.00017655881100003002,-0.7848401989999998,1.97998654999356e-05,-2.35584597,0.000145420098000165,1.5711876900000006,0.7861863600000006,0.04,0.0399999965,-9.828641400000013,0.0011969260638598092,0.00015605197800845803,0.0020793812000048585,-0.016849307529644926,0.000732375944001719
0.2975,0.00017683846050003027,-0.7848382144999998,1.9199773249935053e-05,-2.3558435849999997,0.0001469575290001664,1.5711940950000007,0.7861918800000006,0.04,0.03999999575,-9.828760200000014,0.0012146235443670202,0.0002348675190085298,0.0021246545000048996,-0.017005147505568367,0.0007483939970017335
0.3,0.0001771181100000351,-0.7848362299999999,1.8599680999924596e-05,-2.3558411999999995,0.0001484949600001931,1.5712005000000009,0.7861974000000007,0.04,0.039999995,-9.82887900000001,0.0012323210248743471,0.0003136830600106885,0.0021699278000053513,-0.017160987481492508,0.0007644120500018859
0.3025,0.00017743982100003542,-0.7848349354999998,1.7908755199923967e-05,-2.3558376149999996,0.0001502643435001947,1.5712078500000008,0.7862037450000008,0.04,0.039999995,-9.828955650000008,0.0012510799861067442,0.0004116215760107777,0.002218961330005396,-0.017323235701787374,0.0007816922825019016
0.305,0.0001777615320000357,-0.7848336409999999,1.7217829399923336e-05,-2.3558340299999996,0.00015203372700019633,1.5712152000000008,0.7862100900000007,0.04,0.039999995,-9.829032300000009,0.0012698389473391415,0.0005095600920108669,0.0022679948600054407,-0.017485483922082243,0.0007989725150019173
0.3075,0.000178083243000036,-0.7848323464999999,1.6526903599922707e-05,-2.3558304449999996,0.00015380311050019793,1.5712225500000008,0.7862164350000007,0.04,0.039999995,-9.829108950000009,0.0012885979085715386,0.000607498608010956,0.0023170283900054854,-0.01764773214237711,0.0008162527475019331
0.31,0.00017840495400003628,-0.7848310519999998,1.583597779992208e-05,-2.3558268599999996,0.00015557249400019953,1.5712299000000007,0.7862227800000007,0.04,0.039999995,-9.82918560000001,0.0013073568698039357,0.0007054371240110452,0.00236606192000553,-0.01780998036267198,0.0008335329800019488
0.3125,0.00017872666500003657,-0.7848297574999998,1.5145051999921452e-05,-2.3558232749999997,0.00015734187750020116,1.571237250000001,0.7862291250000008,0.04,0.039999995,-9.829262250000008,0.0013261158310363327,0.0008033756400111344,0.0024150954500055744,-0.017972228582966848,0.0008508132125019646
0.315,0.0001790483760000369,-0.7848284629999999,1.4454126199920821e-05,-2.3558196899999997,0.00015911126100020276,1.5712446000000009,0.7862354700000007,0.04,0.039999995,-9.829338900000009,0.0013448747922687298,0.0009013141560112235,0.002464128980005619,-0.018134476803261714,0.0008680934450019803
0.3175,0.00017938523300004076,-0.7848273899999999,1.3730515849912456e-05,-2.3558157149999994,0.00016096337800022387,1.571252300000001,0.7862421070000007,0.04,0.03999999525,-9.829429850000013,0.0013645503087923866,0.001009390670014242,0.0025144981600058853,-0.018299109116215392,0.0008857600550020461
0.32,0.00017975238200003608,-0.7848267599999998,1.29415363999225e-05,-2.3558109599999995,0.00016298096200019819,1.5712607000000007,0.7862493280000007,0.04,0.039999996,-9.829549400000012,0.0013860589358976128,0.0011377431800126078,0.00256753864000521,-0.01846850961448422,0.0009041994200018113
0.3225,0.0001801195310000314,-0.7848261299999999,1.2152556949932545e-05,-2.3558062049999995,0.00016499854600017248,1.5712691000000008,0.7862565490000006,0.04,0.03999999675,-9.829668950000011,0.001407567563002839,0.0012660956900109738,0.002620579120004535,-0.01863791011275305,0.0009226387850015765
0.325,0.0001804866800000267,-0.7848255,1.136357749994259e-05,-2.3558014499999995,0.0001670161300001468,1.5712775000000005,0.7862637700000005,0.04,0.0399999975,-9.829788500000008,0.0014290761901080652,0.0013944482000093396,0.0026736196000038594,-0.018807310611021876,0.0009410781500013417
0.3275,0.00018085382900002203,-0.7848248699999999,1.0574598049952636e-05,-2.3557966949999996,0.00016903371400012112,1.5712859000000006,0.7862709910000004,0.04,0.03999999825,-9.829908050000007,0.0014505848172132912,0.0015228007100077053,0.0027266600800031843,-0.018976711109290705,0.0009595175150011069
0.33,0.00018122097800001735,-0.78482424,9.785618599962682e-06,-2.3557919399999996,0.00017105129800009544,1.5712943000000004,0.7862782120000003,0.04,0.039999999,-9.830027600000006,0.0014720934443185174,0.0016511532200060711,0.002779700560002509,-0.019146111607559534,0.0009779568800008722
0.3325,0.0001815881270000127,-0.7848236099999999,8.996639149972726e-06,-2.3557871849999996,0.00017306888200006976,1.5713027000000004,0.7862854330000002,0.04,0.03999999975,-9.830147150000004,0.0014936020714237436,0.001779505730004437,0.0028327410400018336,-0.01931551210582836,0.0009963962450006373
0.335,0.00018198777300001663,-0.784823414,8.137392949964202e-06,-2.3557815699999995,0.00017526604200009154,1.5713118700000004,0.7862933060000002,0.0399999995,0.04,-9.830249500000004,0.001518610725180301,0.0019254962400061964,0.002888454080002284,-0.019490085728473543,0.0010159435700008046
0.3375,0.00018240366750002268,-0.784823435,7.243013374951186e-06,-2.355775525,0.00017755299000012483,1.5713214250000005,0.7863015050000004,0.03999999875,0.04,-9.830343250000006,0.0015453693922622854,0.002080305750008449,0.002945503400003114,-0.019667245913306545,0.001036044875001097
0.34,0.00018281956200002873,-0.7848234559999999,6.34863379993817e-06,-2.3557694799999997,0.0001798399380001581,1.5713309800000006,0.7863097040000006,0.039999998,0.04,-9.830437000000007,0.0015721280593442698,0.0022351152600107024,0.003002552720003944,-0.019844406098139547,0.0010561461800013897
0.3425,0.00018323545650003478,-0.784823477,5.454254224925154e-06,-2.3557634349999996,0.00018212688600019138,1.5713405350000007,0.7863179030000007,0.03999999725,0.04,-9.830530750000008,0.0015988867264262543,0.002389924770012955,0.0030596020400047745,-0.020021566282972553,0.0010762474850016823
0.34500000000000003,0.00018365135100004086,-0.784823498,4.5598746499121384e-06,-2.3557573899999995,0.00018441383400022467,1.5713500900000008,0.7863261020000009,0.0399999965,0.04,-9.83062450000001,0.0016256453935082388,0.002544734280015208,0.0031166513600056046,-0.020198726467805555,0.0010963487900019747
0.34750000000000003,0.0001840672455000469,-0.784823519,3.6654950748991234e-06,-2.3557513449999994,0.00018670078200025796,1.571359645000001,0.786334301000001,0.03999999575,0.04,-9.830718250000011,0.0016524040605902233,0.002699543790017461,0.0031737006800064346,-0.020375886652638557,0.0011164500950022673
0.35000000000000003,0.0001844831400000596,-0.7848235400000001,2.7711154998717536e-06,-2.3557452999999993,0.0001889877300003279,1.5713692000000012,0.7863425000000013,0.039999995,0.04,-9.830812000000018,0.0016791627276725365,0.002854353300022831,0.0032307500000077647,-0.02055304683747255,0.001136551400002741
0.3525,0.00018495118950006002,-0.7848242630000001,1.7640193248708591e-06,-2.355737964999999,0.0001915626570003302,1.5713799400000013,0.7863517175000012,0.039999994250000004,0.03999999925,-9.830950000000017,0.0017085032130162825,0.00303363880502299,0.003291724490007819,-0.020737982634478604,0.00115807497500276
0.355,0.00018541923900006045,-0.7848249860000001,7.569231498699421e-07,-2.355730629999999,0.00019413758400033254,1.5713906800000013,0.7863609350000013,0.039999993500000004,0.0399999985,-9.831088000000017,0.001737843698360029,0.0032129243100231532,0.003352698980007874,-0.020922918431484663,0.0011795985500027797
0.3575,0.00018588728850006087,-0.784825709,-2.501730251309746e-07,-2.355723294999999,0.00019671251100033488,1.5714014200000013,0.7863701525000012,0.039999992750000005,0.03999999775,-9.831226000000019,0.001767184183703776,0.0033922098150233164,0.00341367347000793,-0.02110785422849072,0.0012011221250027993
0.36,0.0001863553380000613,-0.7848264320000001,-1.2572692001318918e-06,-2.355715959999999,0.00019928743800033723,1.5714121600000013,0.7863793700000012,0.039999992,0.039999997,-9.831364000000018,0.0017965246690475225,0.003571495320023479,0.0034746479600079854,-0.02129279002549678,0.0012226457000028188
0.3625,0.0001868233875000617,-0.7848271550000001,-2.2643653751328086e-06,-2.355708624999999,0.00020186236500033958,1.5714229000000013,0.7863885875000012,0.03999999125,0.03999999625,-9.831502000000018,0.0018258651543912692,0.0037507808250236427,0.003535622450008041,-0.021477725822502836,0.0012441692750028385
0.365,0.00018729143700006213,-0.7848278780000001,-3.2714615501337253e-06,-2.355701289999999,0.00020443729200034192,1.5714336400000013,0.7863978050000012,0.0399999905,0.0399999955,-9.83164000000002,0.001855205639735016,0.0039300663300238054,0.003596596940008096,-0.021662661619508895,0.0012656928500028581
0.3675,0.00018777799450007,-0.7848288320000002,-4.318571400150691e-06,-2.3556935049999987,0.00020711446550038528,1.5714448050000016,0.7864073895000013,0.0399999899,0.039999994750000004,-9.831763550000014,0.00188573580817758,0.004121495850028839,0.003658893435008682,-0.021850263234253604,0.001287693755003069
0.37,0.00018830156800007047,-0.7848302480000002,-5.445708600151716e-06,-2.3556848199999987,0.0002099961320003879,1.5714568200000016,0.7864177080000013,0.0399999896,0.039999994000000004,-9.831858200000013,0.0019186453428163498,0.004337213400029036,0.003723833940008741,-0.022043196484472408,0.0013106493200030899
0.3725,0.00018882514150007093,-0.7848316640000002,-6.572845800152743e-06,-2.3556761349999986,0.00021287779850039053,1.5714688350000017,0.7864280265000013,0.0399999893,0.039999993250000004,-9.831952850000013,0.0019515548774551197,0.0045529309500292325,0.0037887744450088006,-0.022236129734691214,0.001333604885003111
0.375,0.00018934871500007143,-0.7848330800000002,-7.69998300015377e-06,-2.3556674499999986,0.00021575946500039314,1.5714808500000017,0.7864383450000014,0.039999989,0.0399999925,-9.832047500000014,0.00198446441209389,0.004768648500029429,0.0038537149500088596,-0.02242906298491002,0.0013565604500031317
0.3775,0.0001898722885000719,-0.7848344960000002,-8.827120200154795e-06,-2.355658764999999,0.00021864113150039575,1.5714928650000017,0.7864486635000014,0.0399999887,0.03999999175,-9.832142150000013,0.0020173739467326595,0.004984366050029625,0.003918655455008919,-0.022621996235128828,0.0013795160150031527
0.38,0.00019039586200007236,-0.7848359120000002,-9.954257400155821e-06,-2.355650079999999,0.00022152279800039838,1.5715048800000018,0.7864589820000014,0.0399999884,0.039999991,-9.832236800000015,0.0020502834813714297,0.005200083600029821,0.003983595960008978,-0.022814929485347635,0.0014024715800031735
0.3825,0.00019091943550007286,-0.7848373280000003,-1.1081394600156847e-05,-2.355641394999999,0.000224404464500401,1.5715168950000018,0.7864693005000014,0.0399999881,0.03999999025,-9.832331450000014,0.0020831930160102,0.0054158011500300175,0.0040485364650090375,-0.023007862735566438,0.0014254271450031945
0.385,0.00019148228700008159,-0.7848391930000003,-1.2293482300175721e-05,-2.3556317499999984,0.00022750315300044922,1.571529830000002,0.7864804060000016,0.0399999876,0.039999989799999996,-9.832464100000022,0.0021184381097605503,0.005650285300034157,0.004116149070009657,-0.023206308670370074,0.0014493432800034172
0.3875,0.00019206477750008212,-0.7848412825000003,-1.3548045250176862e-05,-2.3556216249999986,0.00023071035250045213,1.571543225000002,0.7864919050000017,0.039999987,0.0399999895,-9.832615750000022,0.0021548509830659583,0.005894152750034379,0.00418509772500972,-0.02340751094746439,0.0014737397000034395
0.39,0.00019264726800008263,-0.7848433720000003,-1.4802608200178005e-05,-2.3556114999999984,0.00023391755200045505,1.571556620000002,0.7865034040000016,0.0399999864,0.0399999892,-9.832767400000021,0.0021912638563713668,0.006138020200034601,0.004254046380009783,-0.02360871322455871,0.0014981361200034616
0.3925,0.00019322975850008317,-0.7848454615000003,-1.6057171150179148e-05,-2.3556013749999987,0.000237124751500458,1.571570015000002,0.7865149030000016,0.0399999858,0.0399999889,-9.832919050000022,0.0022276767296767748,0.006381887650034823,0.004322995035009845,-0.023809915501653026,0.0015225325400034838
0.395,0.0001938122490000837,-0.7848475510000003,-1.731173410018029e-05,-2.3555912499999985,0.0002403319510004609,1.571583410000002,0.7865264020000016,0.039999985200000004,0.0399999886,-9.833070700000022,0.002264089602982183,0.006625755100035045,0.004391943690009908,-0.024011117778747343,0.001546928960003506
0.3975,0.00019439473950008424,-0.7848496405000003,-1.856629705018143e-05,-2.3555811249999983,0.00024353915050046382,1.571596805000002,0.7865379010000016,0.0399999846,0.0399999883,-9.833222350000021,0.0023005024762875912,0.006869622550035268,0.004460892345009971,-0.02421232005584166,0.0015713253800035281
0.4,0.00019497723000009383,-0.7848517300000004,-1.982086000020218e-05,-2.355570999999998,0.00024674635000051685,1.5716102000000023,0.7865494000000018,0.039999984,0.039999988,-9.833374000000013,0.0023369153495937274,0.0071134900000401355,0.004529841000010599,-0.02441352233293721,0.0015957218000037605
0.4025,0.00019562199900009442,-0.7848545455000004,-2.1210148150203445e-05,-2.3555594199999983,0.0002502977935005201,1.5716250200000021,0.7865621200000018,0.0399999834,0.0399999874,-9.833477350000015,0.0023783327080369103,0.007389278950040386,0.0046026720000106654,-0.024623170495063934,0.0016215620300037842
0.405,0.000196266768000095,-0.7848573610000004,-2.259943630020471e-05,-2.355547839999998,0.0002538492370005233,1.5716398400000022,0.7865748400000018,0.0399999828,0.0399999868,-9.833580700000015,0.0024197500664800927,0.007665067900040637,0.004675503000010731,-0.024832818657190663,0.0016474022600038076
0.40750000000000003,0.0001969115370000956,-0.7848601765000004,-2.3988724450205975e-05,-2.3555362599999983,0.00025740068050052656,1.5716546600000023,0.7865875600000019,0.0399999822,0.039999986200000004,-9.833684050000015,0.0024611674249232756,0.007940856850040888,0.004748334000010798,-0.025042466819317388,0.001673242490003831
0.41000000000000003,0.00019755630600009618,-0.7848629920000004,-2.537801260020724e-05,-2.3555246799999985,0.0002609521240005298,1.5716694800000022,0.7866002800000018,0.0399999816,0.0399999856,-9.833787400000015,0.002502584783366458,0.008216645800041139,0.004821165000010864,-0.025252114981444113,0.0016990827200038547
0.41250000000000003,0.00019820107500009677,-0.7848658075000005,-2.6767300750208506e-05,-2.3555130999999982,0.00026450356750053303,1.5716843000000023,0.7866130000000019,0.039999981,0.039999985,-9.833890750000016,0.002544002141809641,0.00849243475004139,0.004893996000010931,-0.02546176314357084,0.0017249229500038781
0.41500000000000004,0.00019884584400009736,-0.7848686230000005,-2.8156588900209772e-05,-2.3555015199999985,0.00026805501100053626,1.5716991200000023,0.7866257200000019,0.039999980399999996,0.0399999844,-9.833994100000016,0.0025854195002528234,0.008768223700041641,0.0049668270000109965,-0.025671411305697566,0.0017507631800039018
0.4175,0.0001995124955001079,-0.7848716700000006,-2.9593225450232575e-05,-2.3554894249999982,0.00027172742550059454,1.5717144550000024,0.7866388735000021,0.03999998,0.039999984,-9.834114550000024,0.002628190873663257,0.009056659000047648,0.00504099333501167,-0.025883830525014064,0.001777086950004145
0.42,0.00020022291200010855,-0.7848751800000006,-3.112455880023397e-05,-2.355476299999998,0.0002756417820005981,1.5717308200000024,0.786652894000002,0.03999998,0.039999984,-9.834269200000024,0.002673670277006349,0.009370387000047935,0.00511783034001174,-0.02610179185870634,0.00180437780000417
0.4225,0.0002009333285001092,-0.7848786900000005,-3.2655892150235366e-05,-2.355463174999998,0.00027955613850060164,1.5717471850000024,0.7866669145000021,0.03999998,0.039999984,-9.834423850000023,0.00271914968034944,0.00968411500004822,0.00519466734501181,-0.026319753192398623,0.0018316686500041946
0.425,0.00020164374500010986,-0.7848822000000005,-3.418722550023676e-05,-2.3554500499999977,0.0002834704950006052,1.5717635500000025,0.7866809350000021,0.03999998,0.039999984,-9.834578500000024,0.0027646290836925314,0.009997843000048506,0.0052715043500118795,-0.0265377145260909,0.0018589595000042195
0.4275,0.0002023541615001105,-0.7848857100000006,-3.571855885023815e-05,-2.355436924999998,0.0002873848515006088,1.5717799150000025,0.7866949555000021,0.03999998,0.039999984,-9.834733150000025,0.0028101084870356227,0.010311571000048791,0.00534834135501195,-0.02675567585978318,0.0018862503500042442
0.43,0.00020306457800011113,-0.7848892200000006,-3.7249892200239546e-05,-2.355423799999998,0.00029129920800061236,1.5717962800000025,0.7867089760000022,0.03999998,0.039999984,-9.834887800000024,0.0028555878903787145,0.010625299000049077,0.0054251783600120194,-0.026973637193475456,0.0019135412000042692
0.4325,0.00020377499450011178,-0.7848927300000006,-3.878122555024094e-05,-2.3554106749999977,0.0002952135645006159,1.5718126450000025,0.7867229965000022,0.03999998,0.039999984,-9.835042450000024,0.002901067293721806,0.010939027000049364,0.00550201536501209,-0.027191598527167734,0.0019408320500042939
0.435,0.00020453141000012335,-0.7848967160000007,-4.0412093600265964e-05,-2.3553964499999975,0.0002993822400006798,1.5718300700000027,0.7867379330000024,0.0399999797,0.039999983600000004,-9.835166500000017,0.0029494900023642858,0.011273010200054457,0.005581440860012774,-0.02741532512012727,0.0019690897700045482
0.4375,0.00020531082500012407,-0.7849009400000007,-4.209272900026749e-05,-2.3553816749999976,0.00030367807500068377,1.5718480250000029,0.7867533275000025,0.03999997925,0.039999983,-9.835275250000016,0.0029993843636554164,0.01161712100005477,0.005662160600012848,-0.027641934342718392,0.0019978309250045746
0.44,0.00020609024000012478,-0.7849051640000007,-4.377336440026902e-05,-2.3553668999999973,0.00030797391000068767,1.5718659800000028,0.7867687220000025,0.039999978799999995,0.0399999824,-9.835384000000017,0.0030492787249465467,0.011961231800055084,0.005742880340012921,-0.027868543565309514,0.0020265720800046005
0.4425,0.00020686965500012547,-0.7849093880000007,-4.5453999800270555e-05,-2.3553521249999974,0.00031226974500069156,1.571883935000003,0.7867841165000025,0.03999997835,0.0399999818,-9.835492750000018,0.0030991730862376774,0.012305342600055396,0.0058236000800129945,-0.028095152787900632,0.002055313235004627
0.445,0.00020764907000012618,-0.7849136120000006,-4.713463520027209e-05,-2.3553373499999974,0.00031656558000069546,1.5719018900000028,0.7867995110000024,0.0399999779,0.0399999812,-9.835601500000019,0.0031490674475288076,0.012649453400055709,0.005904319820013068,-0.028321762010491754,0.002084054390004653
0.4475,0.0002084284850001269,-0.7849178360000006,-4.881527060027361e-05,-2.3553225749999975,0.00032086141500069936,1.571919845000003,0.7868149055000024,0.03999997745,0.0399999806,-9.835710250000018,0.0031989618088199383,0.012993564200056023,0.005985039560013141,-0.028548371233082875,0.002112795545004679
0.45,0.00020920790000013943,-0.7849220600000008,-5.0495906000300766e-05,-2.355307799999997,0.00032515725000076875,1.571937800000003,0.7868303000000028,0.039999977,0.03999998,-9.835819000000026,0.003248856170112036,0.013337675000063064,0.00606575930001385,-0.02877498045567536,0.0021415367000049436
0.4525,0.0002100596300001286,-0.7849270220000008,-5.233306460027738e-05,-2.3552914649999974,0.000329853022500709,1.5719574500000029,0.7868471150000025,0.0399999764,0.039999979549999995,-9.835975000000024,0.0033046595985153603,0.01372288550005816,0.006150358550012773,-0.02900990927595459,0.002171732300004559
0.455,0.00021091136000011776,-0.7849319840000006,-5.4170223200253986e-05,-2.3552751299999977,0.0003345487950006492,1.5719771000000027,0.7868639300000023,0.0399999758,0.0399999791,-9.836131000000023,0.003360463026918685,0.014108096000053255,0.006234957800011696,-0.029244838096233818,0.0022019279000041747
0.4575,0.0002117630900001069,-0.7849369460000006,-5.600738180023059e-05,-2.355258794999998,0.00033924456750058943,1.5719967500000025,0.7868807450000022,0.0399999752,0.03999997865,-9.83628700000002,0.0034162664553220095,0.014493306500048351,0.006319557050010619,-0.029479766916513047,0.00223212350000379
0.46,0.00021261482000009606,-0.7849419080000005,-5.7844540400207205e-05,-2.355242459999998,0.0003439403400005296,1.5720164000000023,0.7868975600000019,0.0399999746,0.0399999782,-9.836443000000019,0.0034720698837253337,0.014878517000043445,0.006404156300009542,-0.029714695736792276,0.0022623191000034058
0.4625,0.0002134665500000852,-0.7849468700000005,-5.968169900018381e-05,-2.3552261249999984,0.0003486361125004698,1.572036050000002,0.7869143750000017,0.039999974,0.03999997775,-9.836599000000016,0.0035278733121286584,0.015263727500038541,0.006488755550008465,-0.029949624557071505,0.002292514700003021
0.465,0.00021431828000007436,-0.7849518320000004,-6.151885760016042e-05,-2.3552097899999986,0.00035333188500041006,1.5720557000000017,0.7869311900000016,0.0399999734,0.039999977299999996,-9.836755000000014,0.003583676740531983,0.015648938000033637,0.006573354800007388,-0.030184553377350733,0.002322710300002637
0.4675,0.00021519521150008183,-0.7849570430000005,-6.341058150017653e-05,-2.3551928549999985,0.0003581670730004512,1.572075940000002,0.7869485050000017,0.03999997265,0.03999997665,-9.836899300000011,0.0036407710867986157,0.016046684250037305,0.006659261720007811,-0.03042252389716267,0.0023533910900027924
0.47000000000000003,0.00021612254600010796,-0.7849627520000007,-6.541143600023295e-05,-2.3551747199999977,0.0003632810920005954,1.5720973600000026,0.7869668200000022,0.0399999716,0.0399999756,-9.837020200000014,0.003700447268790948,0.016469502000049225,0.006747783980010307,-0.030666577816037856,0.002385042260003685
0.47250000000000003,0.00021704988050013412,-0.7849684610000008,-6.741229050028936e-05,-2.3551565849999974,0.0003683951110007396,1.5721187800000032,0.7869851350000027,0.03999997055,0.03999997455,-9.837141100000018,0.0037601234507832807,0.016892319750061148,0.0068363062400128025,-0.03091063173491304,0.0024166934300045772
0.47500000000000003,0.00021797721500016026,-0.7849741700000009,-6.941314500034578e-05,-2.3551384499999966,0.0003735091300008838,1.5721402000000038,0.7870034500000032,0.039999969499999996,0.0399999735,-9.83726200000002,0.003819799632775613,0.01731513750007307,0.006924828500015298,-0.03115468565378823,0.0024483446000054697
0.47750000000000004,0.00021890454950018642,-0.7849798790000011,-7.141399950040219e-05,-2.355120314999996,0.00037862314900102796,1.5721616200000044,0.7870217650000036,0.03999996845,0.039999972450000004,-9.837382900000025,0.003879475814767946,0.01773795525008499,0.007013350760017794,-0.03139873957266341,0.002479995770006362
0.48,0.00021983188400021253,-0.7849855880000013,-7.341485400045856e-05,-2.355102179999996,0.00038373716800117204,1.572183040000005,0.7870400800000041,0.039999967399999996,0.0399999714,-9.837503800000027,0.003939151996760277,0.018160773000096903,0.007101873020020288,-0.0316427934915386,0.0025116469400072537
0.4825,0.0002207592185002387,-0.7849912970000014,-7.541570850051498e-05,-2.355084044999995,0.00038885118700131624,1.5722044600000054,0.7870583950000046,0.03999996635,0.039999970350000004,-9.837624700000031,0.00399882817875261,0.018583590750108826,0.007190395280022784,-0.03188684741041378,0.002543298110008146
0.485,0.0002217391440002599,-0.7849975200000017,-7.753042050056091e-05,-2.3550647699999945,0.0003942561340014336,1.572227080000006,0.7870777500000051,0.0399999654,0.039999969600000004,-9.837747900000032,0.004062382550926967,0.01903312300011956,0.007281476230023856,-0.03213634155697178,0.0025759185200085505
0.4875,0.0002227453650002471,-0.7850040000000016,-7.970206125053327e-05,-2.355044924999995,0.00039980654500136294,1.5722503000000057,0.7870976250000048,0.0399999645,0.039999969,-9.83787225000003,0.004127876018190008,0.019496012500113666,0.00737383652502268,-0.03238855581736791,0.002609023550008129
0.49,0.00022375158600023426,-0.7850104800000015,-8.187370200050561e-05,-2.3550250799999954,0.0004053569560012923,1.5722735200000053,0.7871175000000046,0.0399999636,0.0399999684,-9.837996600000029,0.004193369485453049,0.019958902000107772,0.007466196820021504,-0.032640770077764045,0.0026421285800077078
0.4925,0.00022475780700022147,-0.7850169600000014,-8.404534275047797e-05,-2.3550052349999957,0.00041090736700122164,1.572296740000005,0.7871373750000044,0.0399999627,0.0399999678,-9.838120950000027,0.00425886295271609,0.020421791500101878,0.007558557115020329,-0.03289298433816018,0.0026752336100072864
0.495,0.00022576402800020867,-0.7850234400000013,-8.621698350045031e-05,-2.354985389999996,0.000416457778001151,1.5723199600000048,0.7871572500000041,0.0399999618,0.0399999672,-9.838245300000025,0.004324356419979131,0.020884681000095988,0.0076509174100191524,-0.03314519859855631,0.002708338640006865
0.4975,0.00022677024900019584,-0.7850299200000013,-8.838862425042267e-05,-2.354965544999996,0.0004220081890010803,1.5723431800000045,0.7871771250000039,0.0399999609,0.0399999666,-9.838369650000026,0.004389849887242172,0.021347570500090094,0.007743277705017977,-0.033397412858952445,0.002741443670006443
0.5,0.00022777647000019798,-0.7850364000000013,-9.056026500042736e-05,-2.354945699999996,0.0004275586000010923,1.5723664000000046,0.7871970000000039,0.03999996,0.039999966,-9.838494000000033,0.00445534335450638,0.021810460000092766,0.007835638000017492,-0.03364962711935019,0.002774548700006287
0.5025000000000001,0.00022886480100019899,-0.7850436600000013,-9.290971275042955e-05,-2.354923919999996,0.0004335633670010979,1.5723914950000046,0.787218495000004,0.039999959700000004,0.0399999651,-9.838667100000032,0.0045272482792046214,0.02232044020009324,0.007931792350017581,-0.03391068652276992,0.0028091090450063187
0.505,0.00022995313200019994,-0.7850509200000013,-9.525916050043165e-05,-2.354902139999996,0.0004395681340011032,1.5724165900000044,0.787239990000004,0.0399999594,0.0399999642,-9.838840200000032,0.00459915320390286,0.022830420400093695,0.008027946700017666,-0.03417174592618964,0.0028436693900063498
0.5075000000000001,0.00023104146300020095,-0.7850581800000014,-9.760860825043383e-05,-2.354880359999996,0.0004455729010011088,1.5724416850000045,0.787261485000004,0.0399999591,0.0399999633,-9.839013300000033,0.0046710581286011025,0.02334040060009417,0.008124101050017755,-0.03443280532960937,0.0028782297350063817
0.51,0.00023212979400020193,-0.7850654400000013,-9.995805600043592e-05,-2.354858579999996,0.0004515776680011141,1.5724667800000045,0.787282980000004,0.0399999588,0.0399999624,-9.839186400000033,0.004742963053299341,0.023850380800094623,0.008220255400017841,-0.034693864733029094,0.0029127900800064123
0.5125,0.00023321812500020289,-0.7850727000000014,-0.000102307503750438,-2.354836799999996,0.00045758243500111943,1.5724918750000045,0.787304475000004,0.0399999585,0.0399999615,-9.839359500000032,0.00481486797799758,0.024360361000095074,0.008316409750017927,-0.034954924136448816,0.0029473504250064433
0.515,0.0002343064560002039,-0.7850799600000014,-0.0001046569515004402,-2.354815019999996,0.00046358720200112503,1.5725169700000046,0.787325970000004,0.039999958200000005,0.0399999606,-9.839532600000032,0.004886772902695822,0.024870341200095552,0.008412564100018016,-0.03521598353986855,0.002981910770006475
0.5175,0.00023542322700022093,-0.7850874785000015,-0.00010706798750047707,-2.354792654999996,0.00046974933850121923,1.572542725000005,0.7873480270000044,0.039999957600000004,0.039999959700000004,-9.839680300000019,0.004960527736708131,0.025393228600103294,0.008509983200018816,-0.035479858331432926,0.003016954555006779
0.52,0.00023659687800022203,-0.7850955140000015,-0.00010960220000047943,-2.354769119999996,0.0004762262140012253,1.572569800000005,0.7873712080000044,0.0399999564,0.0399999588,-9.839777200000018,0.005037982389345453,0.025941930400103806,0.008609931800018908,-0.035749363899281864,0.0030529652200068126
0.5225,0.00023777052900022307,-0.7851035495000015,-0.00011213641250048167,-2.3547455849999954,0.00048270308950123104,1.5725968750000052,0.7873943890000044,0.0399999552,0.0399999579,-9.839874100000019,0.005115437041982772,0.02649063220010429,0.008709880400018997,-0.03601886946713079,0.0030889758850068446
0.525,0.00023894418000022417,-0.7851115850000016,-0.00011467062500048404,-2.3547220499999955,0.0004891799650012371,1.5726239500000052,0.7874175700000045,0.039999954,0.039999956999999996,-9.839971000000018,0.005192891694620094,0.027039334000104803,0.00880982900001909,-0.036288375034979725,0.003124986550006878
0.5275,0.0002401178310002252,-0.7851196205000015,-0.00011720483750048629,-2.3546985149999955,0.0004956568405012428,1.5726510250000052,0.7874407510000044,0.0399999528,0.0399999561,-9.840067900000019,0.005270346347257413,0.02758803580010529,0.008909777600019179,-0.03655788060282865,0.00316099721500691
0.53,0.0002412914820002263,-0.7851276560000016,-0.00011973905000048865,-2.3546749799999955,0.0005021337160012488,1.5726781000000052,0.7874639320000045,0.0399999516,0.0399999552,-9.84016480000002,0.005347800999894735,0.0281367376001058,0.009009726200019273,-0.03682738617067759,0.0031970078800069436
0.5325,0.00024246513300022734,-0.7851356915000015,-0.0001222732625004909,-2.3546514449999956,0.0005086105915012546,1.5727051750000054,0.7874871130000045,0.0399999504,0.039999954299999994,-9.840261700000019,0.005425255652532054,0.02868543940010629,0.009109674800019361,-0.03709689173852651,0.0032330185450069756
0.535,0.00024369777500024567,-0.7851442890000017,-0.00012493522500053056,-2.354626599999995,0.0005154139250013559,1.5727336400000058,0.7875114760000049,0.0399999493,0.039999953299999995,-9.840420200000038,0.0055067613721056195,0.029264774600115746,0.009212070400020169,-0.03737259656196293,0.003270001590007293
0.5375,0.0002449599125002468,-0.7851531675000017,-0.00012766106250053298,-2.354601099999995,0.0005223804875013621,1.5727628000000058,0.7875364300000048,0.03999994825,0.03999995225,-9.840609500000037,0.005590292625145534,0.029859426500116273,0.00931568950002026,-0.037651401013190366,0.003307470825007326
0.54,0.00024622205000024796,-0.7851620460000017,-0.00013038690000053552,-2.354575599999995,0.0005293470500013686,1.5727919600000058,0.7875613840000049,0.039999947200000004,0.0399999512,-9.840798800000037,0.005673823878185451,0.030454078400116828,0.009419308600020358,-0.03793020546441782,0.0033449400600073613
0.5425,0.00024748418750024907,-0.7851709245000017,-0.00013311273750053794,-2.354550099999995,0.0005363136125013749,1.5728211200000057,0.7875863380000049,0.03999994615,0.03999995015,-9.840988100000038,0.005757355131225365,0.031048730300117355,0.009522927700020448,-0.038209009915645256,0.0033824092950073947
0.545,0.00024874632500025023,-0.7851798030000017,-0.0001358385750005405,-2.354524599999995,0.0005432801750013814,1.572850280000006,0.7876112920000049,0.0399999451,0.0399999491,-9.841177400000038,0.005840886384265284,0.03164338220011791,0.009626546800020546,-0.03848781436687271,0.0034198785300074293
0.5475,0.0002500084625002514,-0.7851886815000018,-0.00013856441250054293,-2.354499099999995,0.0005502467375013875,1.572879440000006,0.7876362460000049,0.03999994405,0.03999994805,-9.841366700000039,0.005924417637305198,0.03223803410011844,0.009730165900020637,-0.038766618818100146,0.0034573477650074627
0.55,0.0002512706000002709,-0.785197560000002,-0.00014129025000058517,-2.3544735999999946,0.0005572133000014955,1.5729086000000063,0.7876612000000053,0.039999943,0.039999947,-9.84155600000002,0.006007948890346473,0.03283268600012829,0.00983378500002146,-0.039045423269329235,0.003494817000007788
0.5525,0.0002526243245002721,-0.7852072785000019,-0.00014421449550058776,-2.3544459849999946,0.0005646868550015021,1.5729398750000063,0.7876879600000053,0.03999994195,0.03999994595,-9.84165410000002,0.006098262779432798,0.03347381510012886,0.009941029900021554,-0.03933242633944553,0.0035337375450078226
0.555,0.0002539780490002733,-0.7852169970000019,-0.00014713874100059048,-2.3544183699999945,0.0005721604100015091,1.5729711500000063,0.7877147200000053,0.0399999409,0.0399999449,-9.84175220000002,0.006188576668519127,0.03411494420012946,0.010048274800021656,-0.039619429409561834,0.003572658090007859
0.5575,0.00025533177350027455,-0.785226715500002,-0.0001500629865005931,-2.3543907549999945,0.0005796339650015157,1.5730024250000063,0.7877414800000054,0.03999993985,0.03999994385,-9.84185030000002,0.006278890557605452,0.03475607330013003,0.01015551970002175,-0.03990643247967813,0.0036115786350078938
0.56,0.0002566854980002758,-0.785236434000002,-0.0001529872320005958,-2.3543631399999945,0.0005871075200015228,1.5730337000000063,0.7877682400000054,0.0399999388,0.0399999428,-9.84194840000002,0.0063692044466917815,0.03539720240013063,0.01026276460002185,-0.04019343554979444,0.0036504991800079298
0.5625,0.000258039222500277,-0.785246152500002,-0.00015591147750059842,-2.3543355249999944,0.0005945810750015294,1.5730649750000063,0.7877950000000055,0.03999993775,0.03999994175,-9.84204650000002,0.006459518335778107,0.0360383315001312,0.010370009500021947,-0.040480438619910734,0.0036894197250079645
0.5650000000000001,0.00025939294700027827,-0.7852558710000019,-0.00015883572300060114,-2.3543079099999944,0.0006020546300015364,1.5730962500000063,0.7878217600000055,0.0399999367,0.0399999407,-9.84214460000002,0.0065498322248644355,0.036679460600131795,0.010477254400022047,-0.040767441690027044,0.003728340270008001
0.5675,0.000260778223500299,-0.7852658695000022,-0.00016182832800064608,-2.354279624999994,0.0006097028520016512,1.5731282450000068,0.7878491425000059,0.03999993545,0.0399999395,-9.842263150000033,0.006642463174668646,0.03733790590014309,0.010585694400022883,-0.041057133115888884,0.003767744015008335
0.5700000000000001,0.00026222660400030036,-0.7852764280000022,-0.000164957652000649,-2.354249999999994,0.0006177004080016586,1.5731616800000068,0.7878777700000059,0.0399999338,0.039999938,-9.842422600000033,0.006739728245904332,0.03803098360014374,0.010696524600022985,-0.04135220125323685,0.0038081141600083725
0.5725,0.00026367498450030163,-0.7852869865000022,-0.00016808697600065176,-2.354220374999994,0.0006256979640016657,1.573195115000007,0.787906397500006,0.03999993215,0.0399999365,-9.842582050000033,0.0068369933171400134,0.03872406130014435,0.010807354800023084,-0.041647269390584815,0.0038484843050084084
0.5750000000000001,0.000265123365000303,-0.7852975450000022,-0.00017121630000065468,-2.354190749999994,0.0006336955200016732,1.573228550000007,0.787935025000006,0.039999930499999996,0.039999935,-9.842741500000033,0.006934258388375699,0.039417139000145,0.010918185000023187,-0.041942337527932784,0.003888854450008446
0.5775,0.0002665717455003043,-0.7853081035000022,-0.00017434562400065747,-2.354161124999994,0.0006416930760016802,1.573261985000007,0.787963652500006,0.03999992885,0.0399999335,-9.842900950000033,0.007031523459611381,0.04011021670014561,0.011029015200023286,-0.04223740566528074,0.003929224595008482
0.58,0.00026802012600030557,-0.7853186620000022,-0.00017747494800066026,-2.354131499999994,0.0006496906320016874,1.573295420000007,0.7879922800000061,0.0399999272,0.039999932,-9.843060400000034,0.007128788530847062,0.04080329440014623,0.011139845400023385,-0.0425324738026287,0.003969594740008518
0.5825,0.00026946850650030695,-0.7853292205000022,-0.00018060427200066316,-2.354101874999994,0.0006576881880016949,1.573328855000007,0.7880209075000061,0.039999925549999996,0.0399999305,-9.843219850000034,0.007226053602082748,0.041496372100146874,0.011250675600023487,-0.04282754193997667,0.0040099648850085556
0.585,0.00027098202400032903,-0.7853403510000024,-0.00018387469900071099,-2.3540707999999935,0.0006660463360018171,1.5733638500000076,0.7880508280000066,0.0399999242,0.039999929000000004,-9.84333810000002,0.007328059850282793,0.042219251200157,0.011363921500024358,-0.0431283123791863,0.004051303840008901
0.5875,0.0002725281100003304,-0.7853517675000025,-0.0001872156775007141,-2.354038999999993,0.000674584780001825,1.5733996250000075,0.7880813950000066,0.039999923,0.039999927500000004,-9.84343575000002,0.00743243668696276,0.04295703100015769,0.011478375250024464,-0.04343193396932407,0.004093127200008939
0.59,0.0002740741960003318,-0.7853631840000025,-0.00019055665600071708,-2.354007199999993,0.0006831232240018326,1.5734354000000077,0.7881119620000065,0.0399999218,0.039999926000000005,-9.843533400000021,0.007536813523642722,0.04369481080015835,0.011592829000024564,-0.043735555559461826,0.004134950560008977
0.5925,0.00027562028200033326,-0.7853746005000025,-0.0001938976345007202,-2.3539753999999933,0.0006916616680018406,1.5734711750000077,0.7881425290000066,0.0399999206,0.0399999245,-9.84363105000002,0.007641190360322689,0.044432590600159035,0.011707282750024672,-0.044039177149599595,0.004176773920009016
0.595,0.00027716636800033465,-0.7853860170000025,-0.00019723861300072315,-2.3539435999999934,0.0007002001120018481,1.5735069500000076,0.7881730960000066,0.0399999194,0.039999923,-9.843728700000021,0.007745567197002652,0.04517037040015969,0.011821736500024773,-0.04434279873973735,0.0042185972800090525
0.5975,0.0002787124540003361,-0.7853974335000026,-0.00020057959150072627,-2.3539117999999934,0.0007087385560018561,1.5735427250000078,0.7882036630000067,0.039999918200000005,0.0399999215,-9.84382635000002,0.007849944033682619,0.04590815020016038,0.01193619025002488,-0.04464642032987512,0.004260420640009092
0.6,0.0002802585400003594,-0.7854088500000027,-0.00020392057000077687,-2.3538799999999926,0.0007172770000019854,1.5735785000000082,0.7882342300000071,0.039999917,0.03999992,-9.843924000000037,0.007954320870364164,0.04664593000017256,0.012050644000025736,-0.04495004192001462,0.004302244000009445
0.6025,0.00028190529400038344,-0.7854211620000029,-0.00020747969650082874,-2.3538460099999923,0.0007263728575021179,1.5736165850000088,0.7882667905000076,0.03999991595,0.03999991895,-9.84409635000004,0.00806594225580603,0.04743649750018408,0.012168556300027455,-0.04526169672615626,0.004345515400010076
0.605,0.00028355204800040737,-0.7854334740000031,-0.00021103882300088045,-2.3538120199999915,0.0007354687150022501,1.5736546700000094,0.788299351000008,0.0399999149,0.0399999179,-9.844268700000042,0.008177563641247892,0.048227065000195565,0.012286468600029169,-0.04557335153229788,0.004388786800010705
0.6075,0.00028519880200043136,-0.7854457860000033,-0.00021459794950093233,-2.353778029999991,0.0007445645725023827,1.57369275500001,0.7883319115000086,0.03999991385,0.03999991685,-9.844441050000045,0.008289185026689759,0.04901763250020709,0.012404380900030886,-0.04588500633843951,0.004432058200011336
0.61,0.0002868455560004553,-0.7854580980000034,-0.00021815707600098404,-2.3537440399999907,0.0007536604300025149,1.5737308400000105,0.788364472000009,0.0399999128,0.0399999158,-9.844613400000046,0.00840080641213162,0.04980820000021858,0.0125222932000326,-0.04619666114458113,0.004475329600011964
0.6125,0.0002884923100004793,-0.7854704100000036,-0.0002217162025010359,-2.35371004999999,0.0007627562875026474,1.573768925000011,0.7883970325000095,0.03999991175,0.03999991475,-9.84478575000005,0.008512427797573488,0.050598767500230096,0.01264020550003432,-0.04650831595072276,0.004518601000012595
0.615,0.0002901390640005032,-0.7854827220000038,-0.00022527532900108762,-2.3536760599999895,0.0007718521450027796,1.5738070100000117,0.7884295930000099,0.0399999107,0.0399999137,-9.844958100000053,0.00862404918301535,0.051389335000241586,0.012758117800036032,-0.04681997075686438,0.004561872400013224
0.6175,0.00029182034800054443,-0.7854953235000042,-0.00022890928800117696,-2.3536413299999883,0.0007811392275030079,1.5738458900000125,0.7884628370000107,0.0399999098,0.03999991285,-9.845104000000028,0.008738037338517276,0.05219744570026229,0.012877182500037753,-0.04713440202186521,0.004605628165013913
0.62,0.00029357069200052215,-0.7855085040000039,-0.0002326929120011287,-2.353605119999989,0.0007908087600028846,1.573886360000012,0.7884974480000103,0.0399999092,0.0399999124,-9.845197000000027,0.008856759034132595,0.05304064280025154,0.012998552000036205,-0.04745438620457654,0.0046503526600133425
0.6225,0.00029532103600049986,-0.7855216845000038,-0.0002364765360010806,-2.3535689099999897,0.0008004782925027617,1.5739268300000115,0.7885320590000099,0.0399999086,0.03999991195,-9.845290000000027,0.008975480729747921,0.053883839900240815,0.013119921500034663,-0.04777437038728788,0.004695077155012773
0.625,0.0002970713800004776,-0.7855348650000036,-0.00024026016000103234,-2.35353269999999,0.0008101478250026384,1.573967300000011,0.7885666700000095,0.039999908,0.0399999115,-9.845383000000025,0.009094202425363242,0.054727037000230065,0.013241291000033115,-0.048094354569999206,0.004739801650012203
0.6275000000000001,0.0002988217240004553,-0.7855480455000035,-0.00024404378400098424,-2.3534964899999906,0.0008198173575025155,1.5740077700000106,0.7886012810000089,0.0399999074,0.039999911049999996,-9.845476000000025,0.009212924120978568,0.05557023410021935,0.013362660500031572,-0.04841433875271055,0.0047845261450116345
0.63,0.000300572068000433,-0.7855612260000033,-0.000247827408000936,-2.353460279999991,0.000829486890002392,1.57404824000001,0.7886358920000085,0.0399999068,0.0399999106,-9.845569000000024,0.00933164581659389,0.05641343120020859,0.013484030000030024,-0.04873432293542188,0.004829250640011064
0.6325000000000001,0.0003023224120004107,-0.7855744065000031,-0.0002516110320008879,-2.3534240699999915,0.0008391564225022691,1.5740887100000096,0.7886705030000081,0.039999906200000004,0.03999991015,-9.845662000000022,0.009450367512209215,0.05725662830019788,0.013605399500028481,-0.049054307118133224,0.004873975135010496
0.635,0.00030414374700042895,-0.7855882100000032,-0.00025554850300092734,-2.353386309999991,0.00084921908000237,1.5741308300000099,0.7887065500000084,0.0399999064,0.0399999103,-9.84580610000004,0.009574922360509228,0.0581359146002073,0.013729016400028816,-0.049379786104039605,0.004919665420010666
0.6375000000000001,0.0003060005775004307,-0.7856023250000033,-0.0002595628975009311,-2.353347774999991,0.0008594783000023796,1.57417377500001,0.7887433150000085,0.039999907,0.03999991075,-9.84597575000004,0.009702393785148566,0.05903324550020814,0.013853757000028933,-0.04970801249154068,0.00496583860001071
0.64,0.00030785740800043235,-0.7856164400000033,-0.0002635772920009347,-2.353309239999991,0.0008697375200023887,1.57421672000001,0.7887800800000085,0.0399999076,0.0399999112,-9.84614540000004,0.009829865209787899,0.059930576400208935,0.013978497600029043,-0.050036238879041746,0.005012011780010751
0.6425,0.00030971423850043397,-0.7856305550000033,-0.00026759168650093826,-2.353270704999991,0.0008799967400023978,1.57425966500001,0.7888168450000086,0.0399999082,0.03999991165,-9.84631505000004,0.009957336634427234,0.06082790730020973,0.014103238200029154,-0.050364465266542806,0.005058184960010792
0.645,0.0003115710690004357,-0.7856446700000034,-0.000271606081000942,-2.3532321699999907,0.0008902559600024074,1.5743026100000101,0.7888536100000086,0.0399999088,0.0399999121,-9.84648470000004,0.010084808059066572,0.061725238200210565,0.01422797880002927,-0.05069269165404388,0.005104358140010834
0.6475,0.00031342789950043737,-0.7856587850000033,-0.00027562047550094555,-2.353193634999991,0.0009005151800024165,1.57434555500001,0.7888903750000086,0.0399999094,0.039999912549999996,-9.84665435000004,0.010212279483705905,0.06262256910021137,0.014352719400029381,-0.051020918041544946,0.005150531320010875
0.65,0.00031528473000046496,-0.7856729000000036,-0.00027963487000100533,-2.35315509999999,0.0009107744000025692,1.5743885000000106,0.7889271400000092,0.03999991,0.039999913,-9.84682400000002,0.010339750908346832,0.06351990000022525,0.014477460000030237,-0.05134914442904787,0.005196704500011262
0.6525,0.0003172508850004667,-0.7856879450000036,-0.0002838861670010091,-2.35311426999999,0.0009216389900025788,1.5744339500000109,0.7889660290000092,0.0399999094,0.039999912549999996,-9.84690845000002,0.010473936097728197,0.0644724225002261,0.01460532870003035,-0.05168519616134988,0.005244329635011304
0.655,0.00031921704000046854,-0.7857029900000035,-0.00028813746400101306,-2.3530734399999904,0.000932503580002589,1.5744794000000109,0.7890049180000093,0.0399999088,0.0399999121,-9.84699290000002,0.010608121287109567,0.06542494500022698,0.01473319740003047,-0.0520212478936519,0.005291954770011349
0.6575,0.00032118319500047026,-0.7857180350000036,-0.00029238876100101685,-2.3530326099999903,0.0009433681700025987,1.5745248500000109,0.7890438070000093,0.0399999082,0.03999991165,-9.84707735000002,0.01074230647649093,0.06637746750022783,0.014861066100030584,-0.05235729962595391,0.005339579905011391
0.66,0.00032314935000047213,-0.7857330800000036,-0.00029664005800102085,-2.35299177999999,0.0009542327600026088,1.5745703000000109,0.7890826960000094,0.0399999076,0.0399999112,-9.84716180000002,0.0108764916658723,0.06732999000022873,0.014988934800030704,-0.05269335135825593,0.005387205040011435
0.6625,0.00032511550500047385,-0.7857481250000036,-0.00030089135500102463,-2.35295094999999,0.0009650973500026184,1.5746157500000109,0.7891215850000093,0.039999907,0.03999991075,-9.847246250000019,0.011010676855253664,0.06828251250022957,0.015116803500030817,-0.053029403090557946,0.005434830175011477
0.665,0.0003270816600004757,-0.7857631700000036,-0.0003051426520010286,-2.35291011999999,0.0009759619400026286,1.5746612000000109,0.7891604740000093,0.0399999064,0.0399999103,-9.84733070000002,0.011144862044635034,0.06923503500023045,0.015244672200030937,-0.05336545482285997,0.005482455310011522
0.6675,0.00032908517350050466,-0.7857785300000039,-0.00030947492450109136,-2.3528684599999896,0.000987033495002789,1.5747075250000115,0.7892001050000099,0.039999906200000004,0.03999991015,-9.84744270000004,0.011282455734943587,0.07020702470024548,0.015373676600031878,-0.05370416287341123,0.005530565410011918
0.67,0.0003311634040005066,-0.7857945200000038,-0.0003139691480010955,-2.3528251399999895,0.0009985189800027997,1.5747556000000116,0.78924122000001,0.0399999068,0.0399999106,-9.84760980000004,0.01142686642709908,0.07121794880024643,0.015504952400032,-0.054048183560455224,0.005579645440011964
0.6725,0.00033324163450050847,-0.7858105100000039,-0.0003184633715010995,-2.3527818199999895,0.0010100044650028098,1.5748036750000118,0.78928233500001,0.0399999074,0.039999911049999996,-9.84777690000004,0.01157127711925457,0.07222887290024732,0.015636228200032114,-0.054392204247499194,0.005628725470012007
0.675,0.0003353198650005104,-0.7858265000000039,-0.00032295759500110374,-2.3527384999999894,0.0010214899500028205,1.5748517500000119,0.78932345000001,0.039999908,0.0399999115,-9.84794400000004,0.011715687811410065,0.07323979700024827,0.015767504000032236,-0.054736224934543186,0.005677805500012053
0.6775,0.0003373980955005122,-0.785842490000004,-0.0003274518185011077,-2.3526951799999893,0.0010329754350028308,1.574899825000012,0.7893645650000102,0.0399999086,0.03999991195,-9.848111100000041,0.011860098503565553,0.07425072110024916,0.015898779800032355,-0.055080245621587164,0.005726885530012097
0.68,0.00033947632600051414,-0.7858584800000039,-0.0003319460420011119,-2.3526518599999893,0.0010444609200028416,1.574947900000012,0.7894056800000102,0.0399999092,0.0399999124,-9.848278200000042,0.012004509195721047,0.07526164520025011,0.016030055600032476,-0.055424266308631155,0.005775965560012143
0.6825,0.000341554556500516,-0.785874470000004,-0.0003364402655011159,-2.352608539999989,0.0010559464050028517,1.574995975000012,0.7894467950000102,0.0399999098,0.03999991285,-9.848445300000042,0.012148919887876536,0.076272569300251,0.01616133140003259,-0.055768286995675126,0.005825045590012186
0.685,0.00034370932300054654,-0.7858911100000042,-0.0003411003810011821,-2.3525636099999887,0.0010678557900030208,1.5750458000000127,0.7894894240000108,0.03999991,0.039999913,-9.848554600000021,0.012298523169048742,0.07731908660026525,0.016294772400033526,-0.05611749999233905,0.005875093590012594
0.6875,0.0003459023575005485,-0.7859080750000043,-0.00034584344250118633,-2.3525178749999887,0.0010799771250030316,1.5750965000000128,0.7895328100000109,0.03999991,0.039999913,-9.848635000000021,0.012450722744726393,0.0783834005002662,0.016429296000033643,-0.056469309143810015,0.0059256255750126385
0.6900000000000001,0.00034809539200055054,-0.7859250400000043,-0.0003505865040011907,-2.3524721399999886,0.001092098460003043,1.5751472000000128,0.7895761960000109,0.03999991,0.039999913,-9.848715400000021,0.01260292232040405,0.0794477144002672,0.01656381960003377,-0.056821118295281,0.005976157560012686
0.6925,0.0003502884265005525,-0.7859420050000043,-0.00035532956550119496,-2.3524264049999886,0.0011042197950030537,1.575197900000013,0.7896195820000109,0.03999991,0.039999913,-9.84879580000002,0.0127551218960817,0.08051202830026814,0.01669834320003389,-0.05717292744675197,0.006026689545012731
0.6950000000000001,0.00035248146100055455,-0.7859589700000043,-0.00036007262700119935,-2.3523806699999885,0.001116341130003065,1.5752486000000128,0.789662968000011,0.03999991,0.039999913,-9.84887620000002,0.012907321471759357,0.08157634220026913,0.016832866800034017,-0.05752473659822295,0.006077221530012778
0.6975,0.0003546744955005565,-0.7859759350000043,-0.0003648156885012036,-2.3523349349999885,0.0011284624650030758,1.5752993000000128,0.789706354000011,0.03999991,0.039999913,-9.84895660000002,0.013059521047437007,0.08264065610027008,0.016967390400034137,-0.05787654574969392,0.006127753515012823
0.7000000000000001,0.00035686753000058847,-0.7859929000000045,-0.00036955875000127287,-2.3522891999999875,0.0011405838000032528,1.5753500000000136,0.7897497400000116,0.03999991,0.039999913,-9.84903700000004,0.013211720623117075,0.08370497000028834,0.017101914000035044,-0.058228354901166804,0.00617828550001324
0.7025,0.0003591780235005905,-0.7860108655000045,-0.0003745564275012773,-2.3522410949999877,0.0011533558650032641,1.5754034300000137,0.7897954450000116,0.0399999094,0.039999912549999996,-9.84919525000004,0.013373393844854375,0.08483709950028935,0.017239515450035166,-0.05858764518061516,0.006230272920013286
0.705,0.00036148851700059254,-0.7860288310000046,-0.00037955410500128175,-2.352192989999988,0.0011661279300032754,1.5754568600000136,0.7898411500000118,0.0399999088,0.0399999121,-9.84935350000004,0.013535067066591673,0.08596922900029035,0.017377116900035287,-0.05894693546006352,0.006282260340013333
0.7075,0.0003637990105005947,-0.7860467965000046,-0.0003845517825012864,-2.3521448849999875,0.0011788999950032874,1.5755102900000137,0.7898868550000118,0.0399999082,0.03999991165,-9.84951175000004,0.013696740288328978,0.08710135850029141,0.017514718350035416,-0.0593062257395119,0.0063342477600133815
0.71,0.0003661095040005968,-0.7860647620000046,-0.00038954946000129085,-2.3520967799999877,0.0011916720600032987,1.5755637200000139,0.7899325600000118,0.0399999076,0.0399999112,-9.84967000000004,0.013858413510066277,0.0882334880002924,0.01765231980003554,-0.05966551601896026,0.006386235180013427
0.7125,0.0003684199975005989,-0.7860827275000046,-0.0003945471375012955,-2.3520486749999874,0.0012044441250033107,1.5756171500000138,0.7899782650000119,0.039999907,0.03999991075,-9.84982825000004,0.014020086731803582,0.08936561750029347,0.01778992125003567,-0.06002480629840863,0.006438222600013476
0.715,0.00037073049100060096,-0.7861006930000046,-0.00039954481500129995,-2.3520005699999875,0.001217216190003322,1.575670580000014,0.7900239700000119,0.0399999064,0.0399999103,-9.84998650000004,0.01418175995354088,0.09049774700029448,0.01792752270003579,-0.06038409657785699,0.006490210020013522
0.7175,0.00037308101700063445,-0.7861189915000049,-0.00040462925350137255,-2.351951574999987,0.0012302099500035076,1.5757249300000147,0.7900704730000125,0.0399999058,0.0399999098,-9.850124650000026,0.014346369169696956,0.09164723575030911,0.01806615005003672,-0.060746211186147356,0.006542684455013952
0.72,0.00037551160800063663,-0.7861379560000049,-0.0004098872140013772,-2.351900799999987,0.0012436471000035196,1.5757811200000147,0.7901185720000126,0.0399999052,0.0399999092,-9.850222600000025,0.014516850374683673,0.09283144300031017,0.018206829200036845,-0.06111397445211504,0.006596132920013999
0.7225,0.00037794219900063886,-0.786156920500005,-0.0004151451745013821,-2.3518500249999867,0.001257084250003532,1.5758373100000147,0.7901666710000127,0.0399999046,0.0399999086,-9.850320550000026,0.014687331579670396,0.09401565025031128,0.018347508350036977,-0.061481737718082755,0.006649581385014049
0.725,0.00038037279000064105,-0.786175885000005,-0.00042040313500138677,-2.3517992499999867,0.0012705214000035441,1.5758935000000147,0.7902147700000127,0.039999903999999996,0.039999908,-9.850418500000027,0.014857812784657113,0.09519985750031233,0.0184881875000371,-0.06184950098405045,0.0067030298500140965
0.7275,0.0003828033810006433,-0.786194849500005,-0.0004256610955013917,-2.3517484749999866,0.0012839585500035566,1.5759496900000147,0.7902628690000127,0.0399999034,0.0399999074,-9.850516450000026,0.015028293989643837,0.09638406475031343,0.018628866650037233,-0.06221726425001815,0.0067564783150141465
0.73,0.00038523397200064546,-0.786213814000005,-0.0004309190560013964,-2.3516976999999866,0.0012973957000035686,1.576005880000015,0.7903109680000128,0.0399999028,0.0399999068,-9.850614400000026,0.015198775194630552,0.09756827200031448,0.018769545800037358,-0.06258502751598584,0.006809926780014194
0.7325,0.00038766456300064775,-0.7862327785000051,-0.00043617701650140126,-2.3516469249999865,0.001310832850003581,1.576062070000015,0.7903590670000128,0.0399999022,0.039999906200000004,-9.850712350000025,0.015369256399617278,0.09875247925031559,0.01891022495003749,-0.06295279078195355,0.006863375245014244
0.735,0.00039017688600068265,-0.7862524260000053,-0.000441612198001477,-2.351594349999986,0.0013247229100037746,1.5761201900000157,0.7904087900000135,0.039999901799999994,0.0399999056,-9.850807700000026,0.01554703293373066,0.09998009750033404,0.019052869500038403,-0.06332507580528733,0.006917802760014684
0.7375,0.00039273007500068507,-0.7862724150000053,-0.00044713599000148214,-2.3515408749999858,0.001338839425003788,1.5761792750000159,0.7904593250000136,0.0399999015,0.039999905,-9.850901750000025,0.015728457132403003,0.10122942125033521,0.01919649675003854,-0.06369962170730147,0.0069727198000147355
0.74,0.0003952832640006873,-0.7862924040000053,-0.00045265978200148706,-2.3514873999999857,0.0013529559400038004,1.5762383600000158,0.7905098600000136,0.0399999012,0.0399999044,-9.850995800000025,0.01590988133107534,0.10247874500033632,0.019340124000038664,-0.06407416760931559,0.007027636840014784
0.7425,0.00039783645300068974,-0.7863123930000053,-0.0004581835740014922,-2.3514339249999856,0.0013670724550038135,1.5762974450000158,0.7905603950000136,0.039999900899999996,0.0399999038,-9.851089850000026,0.016091305529747683,0.1037280687503375,0.0194837512500388,-0.06444871351132972,0.007082553880014835
0.745,0.000400389642000692,-0.7863323820000054,-0.00046370736600149706,-2.3513804499999855,0.001381188970003826,1.576356530000016,0.7906109300000137,0.0399999006,0.0399999032,-9.851183900000025,0.016272729728420022,0.10497739250033859,0.019627378500038928,-0.06482325941334384,0.007137470920014884
0.7475,0.00040294283100069436,-0.7863523710000054,-0.00046923115800150226,-2.3513269749999854,0.001395305485003839,1.576415615000016,0.7906614650000137,0.039999900299999995,0.0399999026,-9.851277950000025,0.016454153927092364,0.10622671625033976,0.01977100575003906,-0.06519780531535797,0.007192387960014935
0.75,0.00040549602000073076,-0.7863723600000058,-0.0004747549500015811,-2.351273499999985,0.0014094220000040408,1.5764747000000168,0.7907120000000144,0.0399999,0.039999902,-9.851372000000039,0.016635578125767176,0.10747604000035875,0.019914633000039983,-0.06557235121737388,0.007247305000015382
0.7525000000000001,0.00040817433000073325,-0.7863933960000058,-0.00048054996300158655,-2.3512175799999846,0.0014242317250040546,1.5765366950000168,0.7907649950000145,0.03999989925,0.0399999017,-9.85151660000004,0.01682607615371788,0.10879089350035998,0.02006117370004012,-0.06595346182595195,0.007303679650015434
0.755,0.00041085264000073564,-0.7864144320000058,-0.0004863449760015917,-2.3511616599999847,0.001439041450004068,1.576598690000017,0.7908179900000145,0.0399998985,0.039999901399999996,-9.85166120000004,0.017016574181668572,0.11010574700036115,0.020207714400040253,-0.06633457243453,0.007360054300015484
0.7575000000000001,0.00041353095000073813,-0.7864354680000057,-0.0004921399890015971,-2.3511057399999844,0.0014538511750040817,1.576660685000017,0.7908709850000146,0.03999989775,0.0399999011,-9.85180580000004,0.017207072209619277,0.11142060050036237,0.020354255100040387,-0.06671568304310808,0.007416428950015537
0.76,0.0004162092600007405,-0.7864565040000058,-0.0004979350020016022,-2.3510498199999845,0.0014686609000040948,1.5767226800000171,0.7909239800000146,0.039999897,0.039999900799999995,-9.851950400000039,0.01739757023756997,0.11273545400036354,0.02050079580004052,-0.06709679365168614,0.007472803600015587
0.7625000000000001,0.000418887570000743,-0.7864775400000058,-0.0005037300150016077,-2.3509938999999846,0.0014834706250041086,1.5767846750000172,0.7909769750000146,0.03999989625,0.0399999005,-9.85209500000004,0.017588068265520673,0.11405030750036477,0.020647336500040653,-0.0674779042602642,0.007529178250015639
0.765,0.0004215658800007454,-0.7864985760000058,-0.0005095250280016128,-2.3509379799999843,0.0014982803500041219,1.5768466700000172,0.7910299700000147,0.0399998955,0.0399999002,-9.85223960000004,0.017778566293471368,0.11536516100036594,0.020793877200040785,-0.06785901486884226,0.007585552900015689
0.7675000000000001,0.0004242867050007707,-0.7865199650000061,-0.0005154122115016678,-2.350881064999984,0.0015133256250042624,1.5769096350000178,0.7910838030000152,0.03999989475,0.03999989975,-9.852363650000022,0.017972526885624222,0.11669960850037733,0.020941400300041064,-0.06824275925766178,0.007642421600015893
0.77,0.000427092560000735,-0.7865420600000058,-0.0005214837360015904,-2.3508221599999843,0.0015288420000040645,1.576974540000017,0.7911393120000145,0.039999894,0.039999899,-9.852446600000022,0.018173412606172678,0.11807324400035982,0.021090888200039157,-0.0686317712069576,0.007700278400015155
0.7725,0.0004298984150006992,-0.7865641550000055,-0.0005275552605015129,-2.3507632549999853,0.0015443583750038665,1.5770394450000162,0.7911948210000138,0.03999989325,0.03999989825,-9.85252955000002,0.018374298326721137,0.11944687950034229,0.02124037610003725,-0.06902078315625342,0.0077581352000144176
0.775,0.0004327042700006635,-0.7865862500000053,-0.0005336267850014358,-2.3507043499999862,0.0015598747500036694,1.5771043500000155,0.7912503300000131,0.0399998925,0.0399998975,-9.852612500000019,0.018575184047269603,0.12082051500032483,0.02138986400003535,-0.06940979510554925,0.007815992000013683
0.7775,0.00043551012500062775,-0.7866083450000049,-0.0005396983095013584,-2.3506454449999867,0.0015753911250034715,1.5771692550000145,0.7913058390000124,0.03999989175,0.03999989675,-9.852695450000018,0.018776069767818062,0.12219415050030731,0.021539351900033442,-0.06979880705484505,0.007873848800012944
0.78,0.00043831598000059206,-0.7866304400000046,-0.0005457698340012812,-2.3505865399999877,0.0015909075000032742,1.5772341600000137,0.7913613480000118,0.039999891,0.039999896,-9.852778400000016,0.018976955488366528,0.12356778600028985,0.021688839800031542,-0.07018781900414088,0.007931705600012209
0.7825,0.00044112183500055627,-0.7866525350000043,-0.0005518413585012037,-2.350527634999988,0.0016064238750030763,1.577299065000013,0.7914168570000111,0.03999989025,0.03999989525,-9.852861350000016,0.019177841208914987,0.12494142150027232,0.021838327700029636,-0.0705768309534367,0.00798956240001147
0.785,0.0004440142860005981,-0.7866753300000047,-0.0005581006800012944,-2.3504670099999876,0.0016224201800033081,1.5773659900000139,0.7914741090000119,0.0399998905,0.0399998955,-9.852963800000023,0.019385814853055634,0.1263635620002947,0.021989673600031023,-0.07096967250116759,0.008048395600012087
0.7875,0.0004469500350006408,-0.786698475000005,-0.0005644539000013867,-2.3504055249999865,0.001638656450003544,1.577433925000015,0.7915322325000127,0.03999989125,0.03999989625,-9.853076000000025,0.01959733245898927,0.1278099550003157,0.022141948500033235,-0.07136442884811431,0.008107717000012948
0.79,0.00044988578400068357,-0.7867216200000053,-0.0005708071200014793,-2.3503440399999858,0.0016548927200037806,1.577501860000016,0.7915903560000136,0.039999892,0.039999897,-9.853188200000027,0.01980885006492291,0.12925634800033678,0.022294223400035455,-0.07175918519506105,0.008167038400013813
0.7925,0.00045282153300072624,-0.7867447650000057,-0.0005771603400015717,-2.3502825549999846,0.0016711289900040165,1.5775697950000167,0.7916484795000144,0.03999989275,0.03999989775,-9.853300400000029,0.020020367670856545,0.1307027410003578,0.022446498300037667,-0.07215394154200779,0.008226359800014675
0.795,0.00045575728200076903,-0.7867679100000061,-0.0005835135600016642,-2.350221069999984,0.001687365260004253,1.5776377300000177,0.7917066030000152,0.0399998935,0.0399998985,-9.85341260000003,0.020231885276790186,0.1321491340003789,0.022598773200039887,-0.07254869788895453,0.008285681200015538
0.7975,0.00045869303100081165,-0.7867910550000065,-0.0005898667800017565,-2.350159584999983,0.001703601530004489,1.5777056650000187,0.7917647265000161,0.03999989425,0.03999989925,-9.85352480000003,0.02044340288272382,0.1335955270003999,0.0227510481000421,-0.07294345423590125,0.0083450026000164
0.8,0.00046162878000089293,-0.7868142000000071,-0.0005962200000019325,-2.350098099999981,0.001719837800004939,1.5777736000000206,0.7918228500000176,0.039999895,0.0399999,-9.853637000000024,0.02065492048866074,0.13504192000043838,0.022903323000045068,-0.07333821058285027,0.0084043240000177
0.8025,0.00046469677800089565,-0.7868384250000071,-0.0006028599195019384,-2.350033629999981,0.001736806820004954,1.5778446100000207,0.7918835850000177,0.03999989425,0.03999989925,-9.853715450000024,0.020877694431757344,0.13654807300043972,0.023058168900045205,-0.07374077886354749,0.008465140300017755
0.805,0.00046776477600089854,-0.7868626500000071,-0.0006094998390019446,-2.349969159999981,0.0017537758400049698,1.5779156200000208,0.7919443200000178,0.0399998935,0.0399998985,-9.853793900000024,0.021100468374853954,0.13805422600044112,0.02321301480004535,-0.07414334714424473,0.008525956600017811
0.8075,0.00047083277400090126,-0.7868868750000071,-0.0006161397585019505,-2.3499046899999807,0.0017707448600049849,1.577986630000021,0.7920050550000178,0.03999989275,0.03999989775,-9.853872350000024,0.021323242317950557,0.13956037900044246,0.023367860700045488,-0.07454591542494195,0.008586772900017865
0.81,0.0004739007720009041,-0.7869111000000071,-0.0006227796780019567,-2.349840219999981,0.0017877138800050007,1.5780576400000208,0.7920657900000179,0.039999892,0.039999897,-9.853950800000023,0.02154601626104717,0.14106653200044386,0.023522706600045632,-0.0749484837056392,0.008647589200017923
0.8125,0.0004769687700009068,-0.7869353250000071,-0.0006294195975019627,-2.349775749999981,0.0018046829000050158,1.578128650000021,0.7921265250000179,0.03999989125,0.03999989625,-9.854029250000023,0.021768790204143774,0.1425726850004452,0.02367755250004577,-0.07535105198633642,0.008708405500017976
0.8150000000000001,0.0004800367680009097,-0.7869595500000072,-0.0006360595170019689,-2.3497112799999806,0.0018216519200050317,1.578199660000021,0.792187260000018,0.0399998905,0.0399998955,-9.854107700000023,0.021991564147240388,0.1440788380004466,0.023832398400045914,-0.07575362026703365,0.008769221800018033
0.8175,0.0004831495865009524,-0.7869841450000075,-0.0006427966365020615,-2.34964592499998,0.0018388693500052684,1.578271720000022,0.7922488825000189,0.039999889850000005,0.03999989475,-9.854197150000033,0.022218061890522653,0.1456095050004698,0.023988145000046857,-0.07615801356744972,0.00883053360001853
0.8200000000000001,0.0004863520460009554,-0.7870094800000075,-0.000649728156002068,-2.3495787999999798,0.0018565836000052848,1.578345880000022,0.792312280000019,0.0399998894,0.039999894,-9.854308600000033,0.022452007234166294,0.14718920000047128,0.024145693000047003,-0.07656605690729863,0.008892836400018587
0.8225,0.0004895545055009583,-0.7870348150000075,-0.0006566596755020742,-2.3495116749999796,0.0018742978500053005,1.5784200400000221,0.7923756775000189,0.03999988895,0.03999989325,-9.854420050000034,0.022685952577809927,0.1487688950004727,0.024303241000047143,-0.07697410024714751,0.008955139200018643
0.8250000000000001,0.0004927569650009612,-0.7870601500000075,-0.0006635911950020806,-2.34944454999998,0.0018920121000053172,1.5784942000000222,0.792439075000019,0.0399998885,0.0399998925,-9.854531500000034,0.02291989792145357,0.15034859000047415,0.02446078900004729,-0.07738214358699642,0.0090174420000187
0.8275,0.000495959424500964,-0.7870854850000076,-0.0006705227145020867,-2.3493774249999797,0.001909726350005333,1.5785683600000222,0.792502472500019,0.03999988805,0.03999989175,-9.854642950000034,0.0231538432650972,0.15192828500047556,0.02461833700004743,-0.0777901869268453,0.009079744800018755
0.8300000000000001,0.0004991618840009671,-0.7871108200000076,-0.0006774542340020932,-2.3493102999999795,0.0019274406000053493,1.5786425200000223,0.7925658700000191,0.0399998876,0.039999891,-9.854754400000035,0.023387788608740846,0.15350798000047702,0.024775885000047577,-0.07819823026669422,0.009142047600018813
0.8325,0.0005023643435009699,-0.7871361550000077,-0.0006843857535020994,-2.3492431749999794,0.001945154850005365,1.5787166800000225,0.7926292675000192,0.039999887149999996,0.03999989025,-9.854865850000033,0.02362173395238448,0.15508767500047843,0.024933433000047717,-0.0786062736065431,0.009204350400018869
0.835,0.0005056579240010142,-0.7871622500000081,-0.0006915148340021955,-2.3491740199999787,0.001963374080005611,1.5787929300000234,0.7926944840000201,0.0399998867,0.0399998897,-9.85494400000002,0.023863215185776304,0.1567096710004991,0.025092695100048638,-0.07901900932205407,0.009267651000019379
0.8375,0.0005089970650010173,-0.787188725000008,-0.0006987426950022023,-2.3491038499999783,0.001981845800005628,1.5788702250000235,0.7927606100000201,0.03999988625,0.039999889250000004,-9.855005500000019,0.0241084643640371,0.15835281750050065,0.025252814250048786,-0.0794340912253929,0.009331450500019439
0.84,0.0005123362060010203,-0.7872152000000081,-0.0007059705560022087,-2.3490336799999785,0.0020003175200056446,1.5789475200000236,0.7928267360000202,0.039999885799999996,0.0399998888,-9.85506700000002,0.024353713542297883,0.15999596400050212,0.02541293340004893,-0.0798491731287317,0.009395250000019496
0.8425,0.0005156753470010235,-0.7872416750000081,-0.0007131984170022154,-2.348963509999978,0.002018789240005662,1.5790248150000237,0.7928928620000203,0.03999988535,0.03999988835,-9.855128500000019,0.024598962720558677,0.16163911050050364,0.025573052550049078,-0.08026425503207052,0.009459049500019556
