rsonawane2002/My_IMU/logs_2/traj_370/imu_370.csv
time,j1,j2,j3,j4,j5,j6,j7,gripper1,gripper2,imu_ax,imu_ay,imu_az,imu_gx,imu_gy,imu_gz
1315.9833333324652,0.00016700293,-0.785875,4.0107683e-05,-2.3551247,9.29385e-05,1.570997,0.786,0.04,0.04,-9.543219,0.012426795437932014,0.094079845,1.9075816e-07,-0.0011641273740679026,7.0832465e-07
1315.999999999132,0.00016700628,-0.78576016,4.011361e-05,-2.3552213,9.29766e-05,1.5709941,0.786,0.04,0.04,-9.834536,0.0006439965218305588,0.009058027,4.7212995e-07,-0.0022400838788598776,1.1810098e-06
1316.0166666657985,0.00016701284,-0.7856543,4.011219e-05,-2.35531,9.3029405e-05,1.5709913,0.786,0.04,0.04,-9.8325205,0.0006342504057101905,0.0076162764,4.097191e-06,-0.0032384339720010757,2.9146934e-06
1316.0333333324652,0.00016702796,-0.78555703,4.009223e-05,-2.355391,9.312573e-05,1.5709884,0.786,0.04,0.04,-9.831188,0.0006332474295049906,0.0062305075,1.41957e-05,-0.004176496993750334,6.7399596e-06
1316.0499999991318,0.00016705919,-0.7854676,4.0037703e-05,-2.3554645,9.330701e-05,1.5709856,0.786,0.04,0.04,-9.829689,0.0006342096603475511,0.005086116,3.385364e-05,-0.005063148681074381,1.35740875e-05
1316.0666666657985,0.00016711614,-0.7853856,3.9928076e-05,-2.3555312,9.3625706e-05,1.5709862,0.7860019,0.04,0.04,-9.8287325,0.0006405418389476836,0.0039667864,6.587289e-05,-0.005911724176257849,2.4247838e-05
1316.0833333324651,0.0001672103,-0.7853105,3.9739167e-05,-2.3555903,9.414304e-05,1.570987,0.7860038,0.04,0.04,-9.827662,0.0006367816240526736,0.0029689092,0.00010483089,-0.006718750111758709,3.8653186e-05
1316.0999999991318,0.00016735452,-0.7852418,3.9442864e-05,-2.3556457,9.4944786e-05,1.5709879,0.78600574,0.04,0.039999995,-9.827004,0.0006615729071199894,0.0021108873,0.00016228473,-0.007505876012146473,6.0771843e-05
1316.1166666657984,0.00016756343,-0.78517914,3.9008348e-05,-2.3556955,9.608674e-05,1.5709924,0.78600955,0.04,0.04,-9.826751,0.0006587991374544799,0.0014152569,0.00024102692,-0.008300458081066608,8.632143e-05
1316.133333332465,0.00016785247,-0.78512216,3.840173e-05,-2.3557384,9.767612e-05,1.5709971,0.7860153,0.04,0.039999995,-9.826594,0.0006808897596783936,0.0006936188,0.00033506643,-0.00908846128731966,0.000119825105
1316.1499999991318,0.00016823882,-0.7850707,3.7586782e-05,-2.3557746,9.978594e-05,1.5710056,0.7860229,0.04,0.04,-9.826246,0.0006949224625714123,0.00020277244,0.00044716673,-0.009886710904538631,0.00015862973
1316.1666666657984,0.00016873988,-0.78502464,3.652476e-05,-2.3558052,0.00010253509,1.5710156,0.78603244,0.04,0.039999995,-9.82621,0.0007331615779548883,-0.00027585193,0.00058038416,-0.010688366368412971,0.00020627811
1316.183333332465,0.00016937469,-0.7849836,3.5175588e-05,-2.3558319,0.00010600529,1.571028,0.78604496,0.04,0.04,-9.826217,0.0007581240497529507,-0.0005216296,0.0007369337,-0.011514868587255478,0.0002600181
1316.1999999991317,0.00017016236,-0.7849474,3.3496788e-05,-2.355851,0.000110326684,1.5710442,0.7860602,0.04,0.039999995,-9.826882,0.0008172177476808429,-0.00072673697,0.00091463793,-0.01238087099045515,0.0003233139
1316.2166666657984,0.00017112326,-0.784916,3.144519e-05,-2.3558629,0.00011558955,1.5710645,0.7860793,0.04,0.04,-9.826882,0.0008607125491835177,-0.00080608553,0.0011173657,-0.013269173912703991,0.000393305
1316.233333332465,0.00017227803,-0.7848893,2.8975941e-05,-2.3558676,0.000121918114,1.5710907,0.786102,0.04,0.04,-9.827164,0.0009333961643278599,-0.00075221714,0.0013421081,-0.014187623746693134,0.00047262575
1316.2499999991317,0.00017364768,-0.78486717,2.6043228e-05,-2.3558657,0.00012943019,1.5711222,0.78612906,0.04,0.04,-9.827631,0.0010148605797439814,-0.00058265333,0.0015927203,-0.015134104527533054,0.0005606672
1316.2666666657983,0.00017525378,-0.78484946,2.2600296e-05,-2.3558571,0.00013824542,1.5711578,0.7861606,0.04,0.04,-9.828087,0.0011143378214910626,-0.00021175388,0.0018681058,-0.016122054308652878,0.00065762503
1316.283333332465,0.00017711811,-0.78483623,1.8599681e-05,-2.3558412,0.00014849496,1.5712005,0.7861974,0.04,0.039999995,-9.828879,0.0012323210248723626,0.00031368306,0.0021699278,-0.017160987481474876,0.00076441205
1316.2999999991316,0.00017926285,-0.7848276,1.3993509e-05,-2.3558173,0.00016029085,1.5712495,0.7862397,0.04,0.039999995,-9.82939,0.0013573807664215565,0.0009666065,0.002496818,-0.018242642283439636,0.0008796136
1316.3166666657983,0.00018171051,-0.7848234,8.733646e-06,-2.3557856,0.00017374141,1.5713055,0.78628784,0.04,0.04,-9.830187,0.001500771613791585,0.0018222899,0.0028504212,-0.01937197893857956,0.0010025427
1316.333333332465,0.00018448314,-0.78482354,2.7711155e-06,-2.3557453,0.00018898773,1.5713692,0.7863425,0.039999995,0.04,-9.830812,0.0016791627276688814,0.0028543533,0.00323075,-0.020553046837449074,0.0011365514
1316.3499999991316,0.00018760347,-0.78482836,-3.942859e-06,-2.3556964,0.00020615391,1.5714408,0.78640395,0.03999999,0.039999995,-9.831732,0.001874765963293612,0.00404959,0.0036372466,-0.021785952150821686,0.0012800419
1316.3666666657982,0.00019109396,-0.7848378,-1.1457107e-05,-2.3556385,0.00022536502,1.5715209,0.78647274,0.039999988,0.03999999,-9.832363,0.0020941628608852625,0.005487707,0.0040701833,-0.023072173818945885,0.001433079
1316.3833333324649,0.00019497723,-0.78485173,-1.982086e-05,-2.355571,0.00024674635,1.5716102,0.7865494,0.039999984,0.039999988,-9.833374,0.002336915349587798,0.00711349,0.004529841,-0.024413522332906723,0.0015957218
1316.3999999991315,0.00019927569,-0.7848705,-2.9082781e-05,-2.3554938,0.00027042264,1.571709,0.7866342,0.03999998,0.039999984,-9.834063,0.0026130310725420713,0.008952083,0.005015381,-0.025811176747083664,0.00176799
1316.4166666657982,0.0002040118,-0.7848939,-3.929167e-05,-2.3554063,0.00029651835,1.5718181,0.78672767,0.03999998,0.039999984,-9.835094,0.0029162270948290825,0.011043603,0.0055276277,-0.027264252305030823,0.001949929
1316.4333333324648,0.0002092079,-0.78492206,-5.0495906e-05,-2.3553078,0.00032515725,1.5719378,0.7868303,0.039999977,0.03999998,-9.835819,0.003248856170102954,0.013337675,0.0060657593,-0.028774980455636978,0.0021415367
1316.4499999991315,0.0002148861,-0.78495514,-6.274363e-05,-2.3551989,0.0003564624,1.5720688,0.7869424,0.039999973,0.039999977,-9.836859,0.003620879026129842,0.015905745,0.0066297543,-0.030341172590851784,0.0023428407
1316.4666666657981,0.00022106833,-0.7849932,-7.608266e-05,-2.355078,0.00039055586,1.5722116,0.7870645,0.039999966,0.03999997,-9.837665,0.004018720239400864,0.01872453,0.0072199027,-0.03196819871664047,0.0025538485
1316.4833333324648,0.00022777647,-0.7850364,-9.0560265e-05,-2.3549457,0.0004275586,1.5723664,0.787197,0.03999996,0.039999966,-9.838494,0.00445534335449338,0.02181046,0.007835638,-0.03364962711930275,0.0027745487
1316.4999999991314,0.00023503201,-0.7850848,-0.00010622325,-2.3548005,0.00046759038,1.5725337,0.7873403,0.039999958,0.03999996,-9.839648,0.004934709519147873,0.025210328,0.008476667,-0.03539002314209938,0.003004951
1316.516666665798,0.00024285635,-0.78513837,-0.000123118,-2.3546436,0.00051076955,1.5727142,0.78749484,0.03999995,0.039999954,-9.840294,0.005451073870062828,0.02886834,0.009142991,-0.03718672692775726,0.0032450221
1316.5333333324647,0.0002512706,-0.78519756,-0.00014129025,-2.3544736,0.0005572133,1.5729086,0.7876612,0.039999943,0.039999947,-9.841556,0.006007948890328407,0.032832686,0.009833785,-0.03904542326927185,0.003494817
1316.5499999991314,0.00026029543,-0.78526235,-0.00016078522,-2.3542895,0.000607037,1.5731171,0.7878396,0.039999936,0.03999994,-9.84221,0.006610041484236717,0.03710688,0.010548751,-0.04095877707004547,0.0037542873
1316.566666665798,0.0002699513,-0.78533274,-0.00018164738,-2.354092,0.00066035404,1.57334,0.78803045,0.039999925,0.03999993,-9.843273,0.0072584752924740314,0.041727398,0.011287619,-0.04292589798569679,0.0040234216
1316.5833333324647,0.00028025854,-0.78540885,-0.00020392057,-2.35388,0.000717277,1.5735785,0.78823423,0.039999917,0.03999992,-9.843924,0.00795432087033987,0.04664593,0.012050644,-0.04495004191994667,0.004302244
1316.5999999991313,0.0002912369,-0.78549093,-0.00022764808,-2.3536534,0.00077791605,1.5738324,0.7884513,0.03999991,0.039999913,-9.845073,0.008698463439941406,0.05191638,0.012836726,-0.04702774062752724,0.00459072
1316.616666665798,0.00030290586,-0.7855788,-0.00025287224,-2.353412,0.0008423796,1.5741022,0.78868204,0.039999906,0.03999991,-9.845693,0.009489941410720348,0.057537694,0.013645856,-0.04916096851229668,0.0048888833
1316.6333333324646,0.00031528473,-0.7856729,-0.00027963487,-2.3531551,0.0009107744,1.5743885,0.78892714,0.03999991,0.039999913,-9.846824,0.010339750908315182,0.0635199,0.01447746,-0.05134914442896843,0.0051967045
1316.6499999991313,0.00032839243,-0.7857732,-0.00030797685,-2.3528829,0.000983205,1.5746915,0.7891864,0.039999906,0.03999991,-9.847387,0.01123431883752346,0.06987005,0.015329918,-0.05358948931097984,0.0055142054
1316.666666665798,0.0003422473,-0.7858798,-0.00033793834,-2.3525941,0.0010597749,1.575012,0.7894605,0.03999991,0.039999913,-9.848501,0.012197056785225868,0.076609544,0.01620509,-0.05588296055793762,0.0058414056
1316.6833333324646,0.00035686753,-0.7859929,-0.00036955875,-2.3522892,0.0011405838,1.57535,0.78974974,0.03999991,0.039999913,-9.849037,0.013211720623075962,0.08370497,0.017101914,-0.05822835490107536,0.0061782855
1316.6999999991313,0.00037227082,-0.78611267,-0.0004028766,-2.3519685,0.0012257309,1.5757062,0.79005444,0.039999906,0.03999991,-9.850092,0.014289542101323605,0.0912525,0.018019257,-0.06062362343072891,0.0065248683
1316.716666665798,0.00038847476,-0.7862391,-0.00043792967,-2.35163,0.0013153119,1.5760808,0.7903751,0.039999902,0.039999906,-9.850745,0.015426083467900753,0.099147215,0.018957118,-0.06307537853717804,0.0068811914
1316.7333333324646,0.00040549602,-0.78637236,-0.00047475495,-2.3512735,0.001409422,1.5764747,0.790712,0.0399999,0.039999902,-9.851372,0.016635578125715256,0.10747604,0.019914633,-0.0655723512172699,0.007247305
1316.7499999991312,0.00042335142,-0.7865126,-0.00051338837,-2.3509007,0.0015081535,1.576888,0.7910653,0.039999895,0.0399999,-9.852336,0.017905564978718758,0.11624173,0.020891571,-0.06811308860778809,0.007623136
1316.7666666657979,0.00044205712,-0.7866599,-0.0005538652,-2.350508,0.001611596,1.5773207,0.79143536,0.03999989,0.039999895,-9.852889,0.019244803115725517,0.1253993,0.021888157,-0.07070650160312653,0.008008848
1316.7833333324645,0.00046162878,-0.7868142,-0.00059622,-2.3500981,0.0017198378,1.5777736,0.79182285,0.039999895,0.0399999,-9.853637,0.020654920488595963,0.13504192,0.022903323,-0.07333821058273315,0.008404324
1316.7999999991312,0.0004820821,-0.7869757,-0.00064048613,-2.3496683,0.0018329646,1.578247,0.79222775,0.03999989,0.039999895,-9.85416,0.022140080109238625,0.14508294,0.023935629,-0.07602199912071228,0.008809766
1316.8166666657978,0.00050343183,-0.7871446,-0.00068669626,-2.3492208,0.0019510596,1.5787414,0.7926504,0.039999887,0.03999989,-9.854903,0.023699715733528137,0.15561424,0.024985949,-0.07874228805303574,0.009225118
1316.8333333324645,0.00052569277,-0.7873211,-0.000734882,-2.348753,0.0020742044,1.5792567,0.79309124,0.039999884,0.039999887,-9.855313,0.025334710255265236,0.16656855,0.02605341,-0.08150950074195862,0.009650448
1316.8499999991311,0.00054887915,-0.7875051,-0.0007850748,-2.3482664,0.002202478,1.5797935,0.7935504,0.03999988,0.039999884,-9.856063,0.027056314051151276,0.17805669,0.027136924,-0.08431536704301834,0.010085846
1316.8666666657978,0.00057300477,-0.7876967,-0.0008373041,-2.3477592,0.0023359573,1.5803521,0.79402804,0.039999872,0.039999876,-9.856327,0.02885724976658821,0.18994755,0.028236995,-0.0871647447347641,0.01053136
1316.8833333324644,0.000598083,-0.7878962,-0.0008915992,-2.3472316,0.0024747162,1.5809327,0.79452467,0.039999865,0.03999987,-9.857066,0.03073958121240139,0.20237154,0.029353134,-0.0900508314371109,0.010987029
1316.899999999131,0.00062412693,-0.7881036,-0.0009479884,-2.3466833,0.0026188283,1.5815358,0.79504037,0.039999854,0.039999858,-9.857041,0.03270755335688591,0.21524689,0.030484188,-0.09297207742929459,0.011452925
1316.9166666657977,0.0006511491,-0.788319,-0.0010064994,-2.346115,0.0027683626,1.5821614,0.7955754,0.039999846,0.03999985,-9.857741,0.03477424755692482,0.22866462,0.031630423,-0.09592849016189575,0.011929104
1316.9333333324644,0.0006791617,-0.7885422,-0.0010671583,-2.345526,0.0029233878,1.5828099,0.79613006,0.039999835,0.03999984,-9.857835,0.036929573863744736,0.24254647,0.03279126,-0.09892582148313522,0.0124157
1316.949999999131,0.00070817675,-0.7887739,-0.0011299909,-2.3449152,0.0030839695,1.5834818,0.79670477,0.039999824,0.039999828,-9.858476,0.039175961166620255,0.25695556,0.033965677,-0.10195790976285934,0.012912802
1316.9666666657977,0.00073820545,-0.7890136,-0.0011950219,-2.3442824,0.003250171,1.5841771,0.7972995,0.03999981,0.039999813,-9.858204,0.04152026027441025,0.2718423,0.03515303,-0.10501817613840103,0.01342043
1316.9833333324643,0.0007692589,-0.7892617,-0.0012622755,-2.3436286,0.003422053,1.5848963,0.7979145,0.039999798,0.0399998,-9.858352,0.04397087171673775,0.28725728,0.036353596,-0.1081099808216095,0.01393867
1316.999999999131,0.00080134737,-0.789518,-0.0013317749,-2.3429527,0.0035996754,1.5856392,0.79855007,0.03999979,0.039999794,-9.858904,0.046523064374923706,0.3032531,0.037566617,-0.11123453825712204,0.0144676715
1317.0166666657976,0.00083448156,-0.78978276,-0.0014035415,-2.3422546,0.0037830945,1.5864066,0.79920626,0.039999776,0.03999978,-9.858547,0.04917795956134796,0.31968442,0.03879172,-0.11438888311386108,0.015007529
1317.0333333324643,0.0008686709,-0.79005605,-0.0014775973,-2.3415344,0.003972365,1.5871983,0.79988354,0.039999764,0.03999977,-9.858919,0.0519452802836895,0.33672488,0.040028654,-0.11757095158100128,0.015558278
1317.049999999131,0.0009039249,-0.7903379,-0.0015539625,-2.3407915,0.0041675395,1.5880148,0.8005817,0.03999975,0.039999753,-9.858429,0.054821550846099854,0.35423836,0.0412758,-0.12078014016151428,0.016120141
1317.0666666657976,0.0009402526,-0.7906286,-0.0016326564,-2.3400261,0.0043686656,1.5888565,0.8013017,0.03999973,0.039999735,-9.858682,0.05781983211636543,0.37235615,0.042534754,-0.12401428818702698,0.016693044
1317.0833333324642,0.0009776629,-0.79092807,-0.0017136979,-2.3392382,0.004575793,1.5897229,0.8020427,0.039999705,0.03999971,-9.858042,0.060927338898181915,0.3909592,0.043801103,-0.12727205455303192,0.017277265
1317.099999999131,0.0010161636,-0.7912362,-0.0017971051,-2.338427,0.0047889706,1.5906144,0.8028053,0.03999968,0.039999682,-9.858219,0.06416353583335876,0.41018614,0.0450793,-0.13055655360221863,0.017872818
1317.1166666657975,0.0010557625,-0.7915533,-0.0018828947,-2.3375926,0.0050082398,1.5915318,0.8035897,0.039999656,0.03999966,-9.857374,0.06751411408185959,0.42987728,0.046367075,-0.1338626593351364,0.018479867
1317.1333333324642,0.0010964674,-0.79187924,-0.0019710825,-2.3367345,0.0052336412,1.5924746,0.80439603,0.039999627,0.039999634,-9.857344,0.07099521160125732,0.45020667,0.047663372,-0.1371886283159256,0.019097539
1317.1499999991308,0.0011382854,-0.7922141,-0.0020616848,-2.3358529,0.005465214,1.5934432,0.8052245,0.039999586,0.039999597,-9.856321,0.07460848242044449,0.47100854,0.048967887,-0.14053349196910858,0.019726887
1317.1666666657975,0.0011812227,-0.792558,-0.002154716,-2.3349473,0.0057029994,1.594438,0.8060751,0.03999955,0.039999556,-9.8561,0.07837605476379395,0.4924555,0.050280046,-0.14389722049236298,0.020369826
1317.1833333324641,0.0012252864,-0.792911,-0.0022501915,-2.3340185,0.005947028,1.5954586,0.80694807,0.03999951,0.03999952,-9.854888,0.0822533369064331,0.51439226,0.051599894,-0.1472751647233963,0.021023676
1317.1999999991308,0.0012704817,-0.79327315,-0.0023481203,-2.333066,0.0061973333,1.5965054,0.80784345,0.039999474,0.039999485,-9.854568,0.08628024160861969,0.5369877,0.05292657,-0.15067334473133087,0.021688791
1317.2166666657974,0.0013168146,-0.79364437,-0.0024485167,-2.3320894,0.0064539495,1.5975789,0.8087615,0.03999943,0.03999944,-9.853228,0.0904497280716896,0.5600636,0.05426006,-0.1540883630514145,0.022366958
1317.233333332464,0.0013642899,-0.79402477,-0.0025513908,-2.3310885,0.0067169024,1.598679,0.8097021,0.039999377,0.03999939,-9.852146,0.0947786271572113,0.58372766,0.05559895,-0.15751446783542633,0.023057383
1317.2499999991308,0.0014129126,-0.7944145,-0.0026567536,-2.330063,0.0069862204,1.5998054,0.8106655,0.039999325,0.03999934,-9.851421,0.09925048798322678,0.60802424,0.056944136,-0.1609524041414261,0.023759196
1317.2666666657974,0.001462687,-0.7948135,-0.002764616,-2.3290143,0.007261929,1.6009583,0.8116517,0.03999927,0.039999284,-9.849642,0.10388069599866867,0.63282573,0.058294255,-0.1644006073474884,0.024474392
1317.283333332464,0.0015136176,-0.7952218,-0.0028749858,-2.3279405,0.0075440514,1.6021386,0.8126608,0.03999921,0.039999224,-9.848839,0.1086772084236145,0.6582764,0.059649467,-0.16786497831344604,0.02520228
1317.2999999991307,0.0015657078,-0.79563946,-0.002987872,-2.3268416,0.007832605,1.6033455,0.8136928,0.039999153,0.03999917,-9.846797,0.1136222705245018,0.6841907,0.06100932,-0.17133380472660065,0.025942758
1317.3166666657974,0.0016189606,-0.79606634,-0.00310328,-2.3257184,0.008127612,1.6045791,0.8147479,0.039999094,0.03999911,-9.845513,0.11875181645154953,0.7107999,0.06237346,-0.1748088300228119,0.026695909
1317.333333332464,0.0016733798,-0.79650277,-0.0032212173,-2.3245711,0.008429089,1.60584,0.8158261,0.03999904,0.039999057,-9.843317,0.12403876334428787,0.7378901,0.063740835,-0.1782933473587036,0.027462052
1317.3499999991307,0.0017289672,-0.79694843,-0.00334169,-2.3233995,0.008737047,1.6071279,0.8169276,0.039998982,0.039998997,-9.841922,0.12951244413852692,0.7656625,0.06511191,-0.18178457021713257,0.028240385
1317.3666666657973,0.0017857257,-0.7974036,-0.0034647032,-2.3222022,0.009051504,1.6084429,0.81805235,0.039998915,0.03999893,-9.839426,0.13515031337738037,0.7938841,0.0664849,-0.18528228998184204,0.02903287
1317.383333332464,0.0018436569,-0.7978681,-0.0035902609,-2.320981,0.009372471,1.6097853,0.8192002,0.03999885,0.03999887,-9.837529,0.14099226891994476,0.8227956,0.06786024,-0.18877893686294556,0.029838342
1317.3999999991306,0.001902763,-0.79834217,-0.0037183657,-2.3197348,0.009699956,1.6111547,0.8203713,0.03999879,0.039998807,-9.834828,0.14699676632881165,0.8521799,0.06923819,-0.19228173792362213,0.030656433
1317.4166666657973,0.0019630452,-0.7988257,-0.0038490216,-2.3184636,0.010033961,1.6125512,0.82156575,0.039998733,0.03999875,-9.8327265,0.15322168171405792,0.88225716,0.070617706,-0.1957859843969345,0.031488676
1317.433333332464,0.0020245037,-0.7993186,-0.0039822306,-2.3171675,0.0103745,1.6139754,0.82278347,0.03999867,0.039998688,-9.829506,0.15961748361587524,0.91278726,0.071998514,-0.1992892473936081,0.032334413
1317.4499999991306,0.0020871395,-0.79982096,-0.0041179927,-2.3158462,0.010721573,1.6154271,0.82402456,0.0399986,0.03999862,-9.827127,0.1662360578775406,0.9439952,0.07338033,-0.20279115438461304,0.033193618
1317.4666666657972,0.0021509528,-0.80033284,-0.004256308,-2.3145006,0.011075181,1.616906,0.8252891,0.039998528,0.03999855,-9.823499,0.17303438484668732,0.97566056,0.07476258,-0.2062864601612091,0.034066323
1317.4833333324639,0.0022159438,-0.80085415,-0.0043971785,-2.3131294,0.011435325,1.6184118,0.8265769,0.039998457,0.03999848,-9.82035,0.18005917966365814,1.0079814,0.07614441,-0.20978258550167084,0.03495286
1317.4999999991305,0.002282111,-0.80138487,-0.0045406027,-2.3117342,0.011802004,1.6199448,0.82788813,0.039998394,0.03999842,-9.817314,0.18730512261390686,1.0409111,0.07752587,-0.21327383816242218,0.035853222
1317.5166666657972,0.0023494551,-0.80192494,-0.004686578,-2.3103137,0.01217521,1.6215056,0.8292226,0.03999832,0.039998345,-9.813341,0.1947418600320816,1.0742849,0.07890632,-0.21676447987556458,0.036766708
1317.5333333324638,0.0024179737,-0.8024747,-0.0048351036,-2.308869,0.01255494,1.6230934,0.83058035,0.03999825,0.039998274,-9.809889,0.20242798328399658,1.1083195,0.08028589,-0.22024419903755188,0.037694734
1317.5499999991305,0.0024876662,-0.8030339,-0.0049861735,-2.307399,0.012941187,1.624708,0.8319614,0.039998174,0.0399982,-9.805444,0.21032316982746124,1.142837,0.08166439,-0.2237197309732437,0.038636908
1317.5666666657971,0.0025585317,-0.8036024,-0.005139787,-2.3059044,0.013333944,1.6263502,0.8333656,0.039998095,0.039998125,-9.8015785,0.21846239268779755,1.1780108,0.08304094,-0.22718535363674164,0.03959203
1317.5833333324638,0.0026305674,-0.8041802,-0.0052959393,-2.304385,0.013733195,1.6280193,0.83479303,0.03999802,0.03999805,-9.796684,0.2268221527338028,1.2135912,0.08441538,-0.23064270615577698,0.040562186
1317.5999999991304,0.002703771,-0.80476755,-0.005454625,-2.302841,0.014138932,1.6297154,0.83624333,0.03999795,0.03999798,-9.792405,0.23544801771640778,1.2498672,0.08578746,-0.2340889573097229,0.04154622
1317.616666665797,0.00277814,-0.80536443,-0.0056158374,-2.301272,0.014551138,1.6314386,0.8377171,0.03999788,0.03999791,-9.787009,0.24428148567676544,1.2865614,0.08715777,-0.2375243455171585,0.042544473
1317.6333333324637,0.0028536716,-0.8059707,-0.0057795737,-2.2996793,0.014969798,1.6331888,0.83921355,0.03999781,0.039997842,-9.782219,0.2534010410308838,1.3239458,0.088522986,-0.24094527959823608,0.043555833
1317.6499999991304,0.002930362,-0.8065861,-0.0059458227,-2.2980618,0.015394895,1.634966,0.84073323,0.039997738,0.03999777,-9.776417,0.2627442181110382,1.3617061,0.08988668,-0.2443552017211914,0.04458222
1317.666666665797,0.003008208,-0.80721056,-0.006114581,-2.29642,0.015826413,1.6367695,0.8422759,0.03999766,0.039997693,-9.77118,0.2723768651485443,1.40013,0.091244996,-0.24775096774101257,0.045622863
1317.6833333324637,0.0030872058,-0.80784434,-0.006285836,-2.2947533,0.016264325,1.6386,0.84384125,0.039997585,0.039997622,-9.764828,0.28223469853401184,1.4389315,0.09259862,-0.2511357367038727,0.046676874
1317.6999999991303,0.0031673517,-0.80848753,-0.006459581,-2.293063,0.016708612,1.640457,0.8454295,0.039997514,0.03999755,-9.758921,0.29239127039909363,1.4784116,0.09394847,-0.2544979751110077,0.04774552
1317.716666665797,0.0032486413,-0.8091399,-0.006635806,-2.2913485,0.01715925,1.6423407,0.84704036,0.03999744,0.039997477,-9.752032,0.30279213190078735,1.5182827,0.09529285,-0.25784558057785034,0.048828434
1317.7333333324636,0.0033310691,-0.8098014,-0.0068145,-2.28961,0.01761621,1.6442509,0.84867376,0.039997377,0.039997414,-9.745287,0.31348907947540283,1.5587112,0.096631706,-0.26117584109306335,0.04992539
1317.7499999991303,0.003414631,-0.8104719,-0.0069956523,-2.287847,0.01807947,1.6461872,0.8503297,0.039997306,0.039997347,-9.738629,0.3244720697402954,1.5997239,0.097965285,-0.2644849121570587,0.051035266
1317.766666665797,0.0034993219,-0.81115144,-0.0071792547,-2.2860603,0.018549003,1.6481497,0.85200787,0.039997227,0.03999727,-9.730779,0.33571434020996094,1.6410745,0.09929295,-0.2677738070487976,0.052160103
1317.7833333324636,0.0035851356,-0.8118402,-0.007365293,-2.2842505,0.019024773,1.6501381,0.8537084,0.03999716,0.0399972,-9.72357,0.3472832441329956,1.6830941,0.10061489,-0.27104201912879944,0.053298764
1317.7999999991303,0.0036720657,-0.8125377,-0.0075537544,-2.282417,0.01950675,1.6521524,0.8554309,0.03999709,0.039997134,-9.7151985,0.35909900069236755,1.725438,0.10192976,-0.2742913067340851,0.054450568
1317.816666665797,0.0037601078,-0.8132443,-0.0077446257,-2.2805595,0.019994903,1.6541923,0.8571756,0.03999701,0.039997056,-9.707359,0.37126287817955017,1.7684051,0.10323837,-0.2775179445743561,0.055617016
1317.8333333324636,0.0038492556,-0.81395996,-0.007937894,-2.2786784,0.020489195,1.656258,0.8589421,0.03999694,0.039996985,-9.698216,0.3836768865585327,1.8116804,0.10453919,-0.2807199954986572,0.056797087
1317.8499999991302,0.0039395015,-0.81468433,-0.0081335455,-2.2767746,0.020989593,1.6583492,0.8607303,0.039996862,0.03999691,-9.689628,0.39644554257392883,1.8556142,0.10583298,-0.283893346786499,0.057989474
1317.8666666657969,0.0040308405,-0.8154174,-0.008331564,-2.274848,0.02149606,1.6604656,0.8625402,0.039996795,0.039996844,-9.6799755,0.40948590636253357,1.8998072,0.10711935,-0.2870450019836426,0.059196495
1317.8833333324635,0.004123262,-0.81615925,-0.008531933,-2.2728987,0.022008551,1.662607,0.86437166,0.039996725,0.039996773,-9.670787,0.4228895604610443,1.9446269,0.108397245,-0.2901707589626312,0.060416788
1317.8999999991302,0.004216762,-0.8169096,-0.008734638,-2.2709262,0.02252703,1.6647733,0.86622447,0.039996643,0.03999669,-9.660413,0.4365512728691101,1.9897193,0.1096665,-0.29327309131622314,0.061650783
1317.9166666657968,0.0043113315,-0.81766874,-0.008939665,-2.2689314,0.023051456,1.6669647,0.86809844,0.03999656,0.039996613,-9.650438,0.4505907893180847,2.0353956,0.11092723,-0.2963450849056244,0.062896736
1317.9333333324635,0.004406963,-0.81843626,-0.009146995,-2.266914,0.023581779,1.6691803,0.86999345,0.039996482,0.039996535,-9.639273,0.4649028480052948,2.0813415,0.11217907,-0.29938778281211853,0.06415643
1317.9499999991301,0.004503647,-0.81921244,-0.0093566105,-2.2648747,0.024117962,1.6714203,0.8719094,0.039996408,0.03999646,-9.62861,0.4796058237552643,2.1278658,0.11342182,-0.30240175127983093,0.06542908
1317.9666666657968,0.0046013766,-0.8199969,-0.009568491,-2.262813,0.024659965,1.6736848,0.87384593,0.039996322,0.039996378,-9.616771,0.4945806860923767,2.174634,0.114654645,-0.30538851022720337,0.06671364
1317.9833333324634,0.0047001448,-0.82078964,-0.009782623,-2.2607296,0.025207723,1.6759735,0.87580305,0.039996244,0.0399963,-9.604848,0.5099207162857056,2.2218482,0.11587827,-0.3083413541316986,0.06801136
1317.99999999913,0.00479994,-0.82159066,-0.009998984,-2.2586243,0.025761202,1.678286,0.87778056,0.03999616,0.039996214,-9.593023,0.5256387591362,2.2695627,0.117091805,-0.3112618029117584,0.069321215
1318.0166666657967,0.0049007563,-0.8223998,-0.010217553,-2.256498,0.026320353,1.680622,0.8797783,0.03999608,0.03999614,-9.579951,0.5416238307952881,2.3174813,0.11829507,-0.31415119767189026,0.070642546
1318.0333333324634,0.005002582,-0.8232172,-0.01043831,-2.2543507,0.026885113,1.6829811,0.88179606,0.039996002,0.03999606,-9.56738,0.5580447912216187,2.3659375,0.1194874,-0.3170096278190613,0.07197678
1318.04999999913,0.005105407,-0.8240428,-0.010661236,-2.2521815,0.027455436,1.6853638,0.8838335,0.039995916,0.03999598,-9.5534725,0.5747393369674683,2.4145675,0.120668784,-0.31983429193496704,0.073322
1318.0666666657967,0.005209224,-0.8248764,-0.010886311,-2.2499917,0.02803127,1.6877692,0.8858906,0.039995838,0.0399959,-9.539909,0.5918511748313904,2.4637442,0.12184,-0.32262077927589417,0.0746789
1318.0833333324633,0.0053140223,-0.82571787,-0.011113514,-2.2477808,0.02861256,1.6901973,0.88796717,0.039995756,0.03999582,-9.525155,0.6092537045478821,2.5130377,0.12299963,-0.3253716826438904,0.07604722
1318.09999999913,0.0054197903,-0.82656705,-0.011342824,-2.24555,0.029199252,1.6926479,0.89006305,0.03999567,0.039995737,-9.510832,0.6270849108695984,2.5628743,0.1241478,-0.3280876576900482,0.07742554
1318.1166666657966,0.0055265194,-0.82742375,-0.011574215,-2.2432988,0.02979129,1.695121,0.8921779,0.039995585,0.03999565,-9.495234,0.6452139019966125,2.6128044,0.12528326,-0.3307677209377289,0.0788155
1318.1333333324633,0.005634198,-0.82828826,-0.011807668,-2.2410274,0.030388614,1.6976161,0.89431167,0.03999551,0.03999558,-9.480056,0.663783848285675,2.6632314,0.1264074,-0.33341100811958313,0.08021622
1318.14999999913,0.0057428186,-0.82916033,-0.012043154,-2.238736,0.03099117,1.7001327,0.89646417,0.039995436,0.039995506,-9.463485,0.6826213598251343,2.7137697,0.1275186,-0.33601468801498413,0.08162583
1318.1666666657966,0.0058523673,-0.83003986,-0.012280654,-2.2364252,0.031598877,1.7026709,0.8986346,0.039995357,0.03999543,-9.44732,0.7019352316856384,2.7647889,0.12861647,-0.33857935667037964,0.08304606
1318.1833333324632,0.0059628338,-0.8309269,-0.012520142,-2.2340946,0.032211695,1.7052304,0.9008236,0.039995283,0.039995357,-9.429935,0.7215240597724915,2.8158522,0.12970395,-0.3411059081554413,0.0844753
1318.19999999913,0.006074204,-0.8318209,-0.012761595,-2.2317455,0.032829553,1.7078106,0.90303016,0.0399952,0.039995275,-9.412769,0.7415786981582642,2.8674054,0.13077661,-0.34358933568000793,0.085914284
1318.2166666657965,0.0061864695,-0.8327223,-0.013004984,-2.229377,0.033452384,1.7104115,0.9052545,0.03999513,0.03999521,-9.394531,0.7619186639785767,2.9189618,0.13183738,-0.34603753685951233,0.087361716
1318.2333333324632,0.0062996177,-0.83363074,-0.01325029,-2.226991,0.03408013,1.7130333,0.9074961,0.039995052,0.039995134,-9.37601,0.7826737761497498,2.9708714,0.13288508,-0.34844154119491577,0.08881734
1318.2499999991298,0.0064136363,-0.8345463,-0.013497481,-2.2245855,0.03471272,1.715675,0.90975505,0.03999498,0.039995063,-9.357619,0.8038724064826965,3.0231175,0.13391942,-0.3508073389530182,0.09028253
1318.2666666657965,0.006528515,-0.8354687,-0.013746532,-2.2221622,0.035350095,1.7183365,0.91203135,0.03999491,0.039994992,-9.337652,0.8253453969955444,3.0753195,0.1349398,-0.35312575101852417,0.091755144
1318.2833333324631,0.006644241,-0.83639807,-0.013997417,-2.219721,0.035992198,1.7210176,0.9143243,0.03999485,0.039994936,-9.318197,0.8472904562950134,3.1279726,0.13594456,-0.355404257774353,0.09323476
1318.2999999991298,0.0067608017,-0.837334,-0.014250112,-2.2172623,0.036638938,1.723718,0.9166337,0.039994776,0.039994866,-9.297342,0.8695242404937744,3.18056,0.13693559,-0.3576367199420929,0.09472106
1318.3166666657964,0.0068781837,-0.83827657,-0.014504585,-2.2147863,0.03729025,1.7264374,0.9189593,0.03999471,0.0399948,-9.276866,0.892254114151001,3.233546,0.13791221,-0.3598277270793915,0.0962155
1318.333333332463,0.0069963736,-0.83922565,-0.014760811,-2.212293,0.037946064,1.7291756,0.921301,0.039994642,0.039994735,-9.255061,0.9152449369430542,3.286456,0.13887466,-0.36197373270988464,0.097715095
1318.3499999991297,0.00711536,-0.84018123,-0.015018766,-2.2097828,0.038606305,1.7319322,0.9236584,0.03999458,0.039994672,-9.233456,0.9387381076812744,3.3397417,0.13982187,-0.36407384276390076,0.099221684
1318.3666666657964,0.0072351294,-0.8411431,-0.015278415,-2.2072563,0.03927091,1.7347068,0.92603135,0.03999452,0.039994616,-9.210637,0.9624998569488525,3.3929136,0.14075448,-0.3661276400089264,0.10073278
1318.383333332463,0.0073556686,-0.8421112,-0.015539726,-2.2047138,0.0399398,1.7374994,0.9284196,0.039994452,0.03999455,-9.188025,0.9867721796035767,3.4464488,0.14167108,-0.3681361973285675,0.10224998
1318.3999999991297,0.0074769645,-0.84308535,-0.01580268,-2.2021556,0.040612895,1.7403095,0.9308228,0.039994393,0.039994493,-9.164219,1.011303424835205,3.4998448,0.1425722,-0.37009942531585693,0.10377116
1318.4166666657964,0.007599002,-0.84406555,-0.016067237,-2.1995816,0.041290134,1.7431368,0.93324065,0.03999433,0.03999443,-9.140593,1.0363388061523438,3.5535603,0.14345758,-0.3720167875289917,0.10529771
1318.433333332463,0.0077217687,-0.8450516,-0.016333375,-2.196992,0.041971423,1.745981,0.9356728,0.039994262,0.039994366,-9.115623,1.0616270303726196,3.6070974,0.14432761,-0.3738845884799957,0.10682675
1318.4499999991297,0.007845251,-0.8460431,-0.016601063,-2.1943872,0.0426567,1.7488416,0.9381192,0.039994203,0.039994307,-9.090862,1.0874300003051758,3.6609502,0.14518219,-0.3757043480873108,0.10836003
1318.4666666657963,0.007969434,-0.8470404,-0.016870268,-2.1917677,0.04334589,1.7517188,0.9405794,0.039994143,0.03999425,-9.064949,1.1134856939315796,3.7145796,0.14602047,-0.3774779438972473,0.109896645
1318.483333332463,0.008094305,-0.8480434,-0.017140966,-2.189134,0.044038888,1.7546116,0.9430532,0.039994087,0.039994195,-9.038752,1.139988899230957,3.7683764,0.14684202,-0.37920066714286804,0.111435145
1318.4999999991296,0.008219847,-0.84905165,-0.017413115,-2.1864858,0.044735655,1.7575197,0.9455402,0.03999404,0.039994147,-9.01236,1.1669325828552246,3.822354,0.1476477,-0.3808746337890625,0.11297554
1318.5166666657963,0.00834605,-0.8500653,-0.017686691,-2.183824,0.045436073,1.760443,0.9480403,0.039993998,0.039994106,-8.984819,1.1941235065460205,3.8760338,0.14843719,-0.38250187039375305,0.11451783
1318.533333332463,0.008472896,-0.85108423,-0.017961657,-2.1811478,0.04614008,1.7633811,0.95055324,0.039993953,0.03999406,-8.957389,1.2218234539031982,3.9299989,0.14920904,-0.3840811848640442,0.11606148
1318.5499999991296,0.008600372,-0.852108,-0.018237986,-2.1784582,0.046847597,1.7663342,0.9530786,0.03999391,0.039994016,-8.928554,1.2497397661209106,3.9836257,0.1499643,-0.3856041729450226,0.11760346
1318.5666666657962,0.0087284595,-0.85313696,-0.01851565,-2.1757567,0.047558542,1.7693024,0.955616,0.039993864,0.039993975,-8.899987,1.278184175491333,4.037505,0.15070193,-0.3870769143104553,0.11914544
1318.5833333324629,0.008857151,-0.8541707,-0.018794606,-2.1730418,0.04827282,1.7722824,0.9581652,0.039993823,0.039993938,-8.870345,1.3068662881851196,4.091098,0.15142317,-0.38849908113479614,0.12068644
1318.5999999991295,0.008986425,-0.85520923,-0.019074831,-2.1703146,0.04899034,1.7752775,0.96072614,0.03999379,0.039993905,-8.8405905,1.3360422849655151,4.144885,0.15212713,-0.3898759186267853,0.12222844
1318.6166666657962,0.009116268,-0.85625213,-0.019356282,-2.1675751,0.049711037,1.7782848,0.9632982,0.03999376,0.03999388,-8.809666,1.3654289245605469,4.198259,0.15281318,-0.39119213819503784,0.12376624
1318.6333333324628,0.009246664,-0.8572996,-0.019638924,-2.1648242,0.050434846,1.7813051,0.9658813,0.039993733,0.039993856,-8.778905,1.3953360319137573,4.2518744,0.15348183,-0.39246299862861633,0.12530297
1318.6499999991295,0.0093776,-0.85835147,-0.01992274,-2.162062,0.051161647,1.7843379,0.96847504,0.039993707,0.03999383,-8.746982,1.425445318222046,4.305097,0.1541324,-0.3936821520328522,0.12683769
1318.6666666657961,0.009509059,-0.85940766,-0.020207686,-2.159289,0.05189135,1.7873836,0.971079,0.039993685,0.03999381,-8.715022,1.4560582637786865,4.3584595,0.15476483,-0.3948477804660797,0.12836799
1318.6833333324628,0.009641027,-0.8604678,-0.020493729,-2.1565053,0.052623894,1.7904403,0.973693,0.039993662,0.03999379,-8.682004,1.486878514289856,4.4114075,0.1553802,-0.39595863223075867,0.12989496
1318.6999999991294,0.009773484,-0.8615319,-0.020780843,-2.1537106,0.053359166,1.7935082,0.97631675,0.039993647,0.039993778,-8.64904,1.5181818008422852,4.464498,0.15597697,-0.3970223069190979,0.13141742
1318.716666665796,0.009906422,-0.8626,-0.021068975,-2.1509066,0.054097097,1.796587,0.97894996,0.039993625,0.03999376,-8.614781,1.5496641397476196,4.517111,0.15655585,-0.3980298936367035,0.13293423
1318.7333333324627,0.010039819,-0.8636718,-0.021358108,-2.1480935,0.054837603,1.7996768,0.9815923,0.039993614,0.03999375,-8.580478,1.5815703868865967,4.5697355,0.15711556,-0.3989880681037903,0.13444608
1318.7499999991294,0.010173658,-0.86474705,-0.02164819,-2.1452694,0.055580586,1.8027769,0.9842434,0.039993595,0.039993733,-8.545858,1.6139060258865356,4.622279,0.1576562,-0.3998951017856598,0.13595319
1318.766666665796,0.010307929,-0.8658259,-0.021939207,-2.142436,0.056325942,1.8058867,0.98690295,0.039993584,0.039993726,-8.509887,1.6463557481765747,4.6742883,0.15817942,-0.400741308927536,0.13745193
1318.7833333324627,0.01044261,-0.8669081,-0.022231108,-2.139594,0.05707359,1.8090062,0.9895705,0.03999357,0.039993715,-8.4740305,1.679322600364685,4.7264123,0.15868355,-0.40153348445892334,0.13894236
1318.7999999991293,0.010577688,-0.86799335,-0.022523865,-2.136744,0.057823457,1.812135,0.992246,0.039993566,0.03999371,-8.437207,1.7124292850494385,4.778029,0.15917012,-0.40227216482162476,0.14042461
1318.816666665796,0.010713145,-0.86908174,-0.022817446,-2.133886,0.058575436,1.8152723,0.99492884,0.03999356,0.03999371,-8.40033,1.746029019355774,4.829671,0.15963672,-0.40295836329460144,0.14189963
1318.8333333324626,0.010848964,-0.87017316,-0.023111809,-2.1310205,0.05932942,1.818418,0.99761903,0.039993554,0.039993707,-8.362495,1.779750943183899,4.8807874,0.1600848,-0.40359339118003845,0.1433648
1318.8499999991293,0.0109851295,-0.8712673,-0.02340692,-2.1281474,0.060085345,1.8215715,1.000316,0.039993543,0.0399937,-8.324438,1.8139472007751465,4.931905,0.16051318,-0.404173344373703,0.14482042
1318.866666665796,0.01112163,-0.8723643,-0.02370274,-2.1252668,0.06084311,1.8247327,1.0030193,0.03999354,0.039993696,-8.285521,1.8482533693313599,4.9824476,0.16092265,-0.40470102429389954,0.14626575
1318.8833333324626,0.011258443,-0.87346375,-0.02399924,-2.1223795,0.061602622,1.8279014,1.0057288,0.039993536,0.039993696,-8.2463255,1.8830190896987915,5.032976,0.16131395,-0.4051704704761505,0.14770003
1318.8999999991292,0.011395554,-0.87456554,-0.024296379,-2.119488,0.0623638,1.8310767,1.0084447,0.039993536,0.0399937,-8.206381,1.9178872108459473,5.0829134,0.16168557,-0.4055860936641693,0.14912176
1318.916666665796,0.0115329465,-0.87566966,-0.02459412,-2.1165907,0.06312654,1.8342586,1.0111655,0.03999353,0.039993696,-8.166494,1.9532413482666016,5.132863,0.1620355,-0.4059576690196991,0.15053406
1318.9333333324626,0.0116706025,-0.87677574,-0.024892438,-2.113686,0.06389074,1.8374466,1.0138916,0.03999352,0.039993692,-8.125565,1.9886499643325806,5.182141,0.16236782,-0.40627720952033997,0.15193373
1318.9499999991292,0.011808505,-0.877884,-0.025191283,-2.110776,0.06465634,1.8406401,1.0166227,0.039993517,0.03999369,-8.084134,2.0244665145874023,5.2312884,0.16268119,-0.40653374791145325,0.15331918
1318.9666666657959,0.011946639,-0.8789944,-0.025490621,-2.1078632,0.0654232,1.843839,1.0193583,0.03999352,0.039993696,-8.0421,2.0603713989257812,5.2798805,0.16297454,-0.4067363142967224,0.15468943
1318.9833333324625,0.012084985,-0.8801062,-0.025790418,-2.1049435,0.06619125,1.8470428,1.0220978,0.039993532,0.03999371,-7.999994,2.0966546535491943,5.3283014,0.16324762,-0.4068923592567444,0.15604682
1318.9999999991292,0.012223529,-0.88121974,-0.026090635,-2.1020226,0.06696039,1.8502514,1.0248413,0.039993554,0.039993737,-7.9570646,2.133183240890503,5.3763075,0.16350232,-0.40698716044425964,0.15738729
1319.0166666657958,0.012362256,-0.88233495,-0.026391234,-2.0990949,0.06773054,1.853464,1.0275886,0.039993573,0.039993756,-7.9139633,2.1698567867279053,5.423839,0.16373648,-0.40703919529914856,0.15871608
1319.0333333324625,0.01250114,-0.8834513,-0.026692187,-2.0961661,0.06850158,1.8566803,1.0303391,0.03999359,0.039993778,-7.8698373,2.206818103790283,5.4710503,0.16395043,-0.40702372789382935,0.1600239
1319.049999999129,0.012640172,-0.8845689,-0.026993444,-2.0932317,0.06927344,1.8599,1.0330925,0.039993614,0.039993804,-7.8258185,2.2439117431640625,5.5177517,0.16414368,-0.4069683253765106,0.1613184
1319.0666666657958,0.012779335,-0.88568753,-0.027294978,-2.0902958,0.07004599,1.8631223,1.0358481,0.03999364,0.03999383,-7.7807717,2.2812976837158203,5.564122,0.16431779,-0.4068449139595032,0.16259211
1319.0833333324624,0.012918609,-0.8868069,-0.02759675,-2.087359,0.07081917,1.8663473,1.0386058,0.039993674,0.039993867,-7.735652,2.318763017654419,5.6099505,0.16447228,-0.4066775143146515,0.16384941
1319.099999999129,0.013057975,-0.88792706,-0.027898723,-2.0844183,0.07159285,1.8695744,1.0413656,0.039993696,0.039993893,-7.690269,2.356593370437622,5.6555367,0.1646071,-0.40646299719810486,0.16508964
1319.1166666657957,0.01319742,-0.88904804,-0.02820086,-2.0814755,0.07236696,1.8728033,1.044127,0.03999373,0.03999393,-7.643837,2.3943698406219482,5.70036,0.16472106,-0.40618839859962463,0.16630861
1319.1333333324624,0.013336926,-0.8901696,-0.02850312,-2.0785315,0.07314141,1.8760335,1.0468891,0.039993763,0.039993968,-7.597228,2.4325108528137207,5.744998,0.16481511,-0.4058573544025421,0.16750662
1319.149999999129,0.013476476,-0.89129156,-0.02880547,-2.075587,0.0739161,1.879265,1.0496522,0.0399938,0.039994005,-7.55017,2.4706552028656006,5.7889695,0.16489093,-0.40547505021095276,0.16868527
1319.1666666657957,0.01361605,-0.89241385,-0.02910787,-2.072642,0.07469091,1.882497,1.0524161,0.03999384,0.03999405,-7.5028396,2.509122371673584,5.8326626,0.16494513,-0.40504127740859985,0.16984227
1319.1833333324623,0.013755636,-0.89353615,-0.029410286,-2.0696971,0.07546574,1.8857291,1.0551801,0.039993882,0.039994095,-7.454918,2.547539234161377,5.875645,0.1649782,-0.4045545756816864,0.1709775
1319.199999999129,0.013895215,-0.89465827,-0.029712677,-2.0667524,0.076240525,1.8889608,1.0579438,0.039993923,0.03999414,-7.406747,2.5862927436828613,5.918357,0.16499121,-0.4040181040763855,0.17209148
1319.2166666657956,0.014034767,-0.8957802,-0.030015009,-2.0638082,0.07701518,1.892192,1.060707,0.039993964,0.039994184,-7.358084,2.624962091445923,5.9603176,0.1649844,-0.4034315347671509,0.17318283
1319.2333333324623,0.014174277,-0.89690185,-0.030317243,-2.0608642,0.077789575,1.895422,1.0634692,0.039994013,0.039994236,-7.3090405,2.663849115371704,6.0018845,0.16495763,-0.40279388427734375,0.17425129
1319.249999999129,0.014313728,-0.8980232,-0.030619344,-2.0579212,0.07856363,1.8986509,1.0662302,0.039994065,0.03999429,-7.2595325,2.7029130458831787,6.0430207,0.1649108,-0.40210309624671936,0.17529604
1319.2666666657956,0.014453104,-0.899144,-0.030921271,-2.054982,0.079337254,1.9018779,1.0689898,0.039994113,0.039994337,-7.2096233,2.741896390914917,6.083421,0.16484426,-0.4013574421405792,0.1763154
1319.2833333324622,0.014592382,-0.900264,-0.03122299,-2.0520437,0.08011033,1.9051026,1.0717473,0.03999417,0.039994396,-7.1597686,2.781198024749756,6.123591,0.16475594,-0.4005725681781769,0.17731214
1319.2999999991289,0.014731552,-0.9013831,-0.03152446,-2.0491066,0.080882765,1.9083246,1.0745026,0.03999422,0.039994445,-7.1090965,2.8203182220458984,6.16287,0.16464813,-0.39973184466362,0.17828412
1319.3166666657955,0.0148705905,-0.90250117,-0.031825658,-2.046174,0.08165449,1.9115437,1.0772556,0.039994277,0.039994504,-7.0580683,2.85968279838562,6.201828,0.16452083,-0.3988384008407593,0.17922689
1319.3333333324622,0.01500949,-0.9036181,-0.032126524,-2.0432436,0.08242541,1.9147592,1.0800054,0.039994344,0.03999457,-7.00713,2.8989906311035156,6.240125,0.16437177,-0.3979030251502991,0.18014602
1319.3499999991288,0.015148227,-0.9047337,-0.032427043,-2.040315,0.0831954,1.9179709,1.082752,0.03999442,0.03999465,-6.9554634,2.938469886779785,6.2779584,0.16420342,-0.3969162404537201,0.1810371
1319.3666666657955,0.015286783,-0.9058481,-0.03272716,-2.0373917,0.083964355,1.9211786,1.0854949,0.039994493,0.039994724,-6.903389,2.9777743816375732,6.315015,0.16401613,-0.3958720564842224,0.18189925
1319.3833333324621,0.015425142,-0.90696084,-0.03302684,-2.0344722,0.0847322,1.9243817,1.0882337,0.039994568,0.039994802,-6.8514085,3.0173707008361816,6.3518143,0.1638087,-0.39478617906570435,0.1827346
1319.3999999991288,0.01556329,-0.9080719,-0.033326067,-2.0315573,0.08549884,1.9275795,1.0909686,0.039994642,0.03999488,-6.7989697,3.056748151779175,6.3877735,0.16358142,-0.39365047216415405,0.18354203
1319.4166666657954,0.015701208,-0.9091812,-0.033624776,-2.0286486,0.08626416,1.9307724,1.0936989,0.039994717,0.039994955,-6.7462263,3.096341848373413,6.4233465,0.16333283,-0.392470121383667,0.18432194
1319.433333332462,0.01583888,-0.91028863,-0.033922948,-2.0257423,0.08702809,1.9339595,1.0964242,0.0399948,0.03999504,-6.6934433,3.135742664337158,6.4582076,0.16306402,-0.3912459909915924,0.18507268
1319.4499999991287,0.015976287,-0.9113939,-0.03422054,-2.0228426,0.087790556,1.9371405,1.0991441,0.03999488,0.039995123,-6.639735,3.1752476692199707,6.4925103,0.16277607,-0.3899632692337036,0.1857906
1319.4666666657954,0.016113417,-0.9124969,-0.034517527,-2.0199497,0.08855143,1.9403147,1.1018587,0.03999496,0.039995205,-6.586453,3.2146148681640625,6.526201,0.16246879,-0.38863861560821533,0.18647864
1319.483333332462,0.016250245,-0.91359764,-0.034813862,-2.0170636,0.08931063,1.9434819,1.1045675,0.03999504,0.03999529,-6.5328255,3.2540438175201416,6.5593657,0.16213946,-0.3872727155685425,0.18713771
1319.4999999991287,0.016386764,-0.9146958,-0.03510952,-2.0141845,0.09006808,1.946642,1.1072698,0.039995123,0.039995372,-6.478855,3.293538808822632,6.5920024,0.16179024,-0.3858643174171448,0.18776836
1319.5166666657954,0.01652295,-0.91579133,-0.035404447,-2.0113127,0.09082365,1.9497945,1.1099658,0.039995205,0.039995458,-6.4248323,3.3327527046203613,6.6238694,0.16142192,-0.38441193103790283,0.18836665
1319.533333332462,0.016658794,-0.9168842,-0.03569861,-2.008447,0.091577284,1.952939,1.1126548,0.039995287,0.039995544,-6.370417,3.3721132278442383,6.655289,0.16103216,-0.3829164206981659,0.18893407
1319.5499999991287,0.016794274,-0.9179742,-0.035991985,-2.0055888,0.092328854,1.9560751,1.1153365,0.039995365,0.039995622,-6.3157716,3.4111685752868652,6.685914,0.16062403,-0.38137057423591614,0.18946792
1319.5666666657953,0.016929382,-0.919061,-0.036284532,-2.002739,0.093078285,1.9592022,1.1180106,0.039995443,0.0399957,-6.2608743,3.450357675552368,6.7161174,0.16019621,-0.37978029251098633,0.18996917
1319.583333332462,0.017064087,-0.92014474,-0.036576223,-1.9998975,0.093825504,1.96232,1.1206768,0.039995518,0.03999578,-6.2061915,3.4892892837524414,6.745604,0.15974924,-0.37815049290657043,0.19043773
1319.5999999991286,0.017198378,-0.92122513,-0.03686701,-1.9970638,0.09457039,1.9654284,1.123335,0.039995596,0.03999586,-6.150977,3.52828049659729,6.7746005,0.15928309,-0.3764779269695282,0.19087288
1319.6166666657953,0.017332245,-0.92230225,-0.037156854,-1.9942387,0.09531286,1.9685266,1.1259845,0.03999568,0.03999595,-6.095809,3.5669753551483154,6.8028293,0.15879643,-0.37475907802581787,0.19127306
1319.633333332462,0.01746567,-0.9233757,-0.03744573,-1.9914234,0.09605284,1.9716142,1.1286253,0.039995767,0.039996035,-6.040241,3.6057307720184326,6.8306117,0.15829155,-0.37299707531929016,0.19163974
1319.6499999991286,0.017598629,-0.9244455,-0.037733614,-1.9886174,0.09679021,1.9746912,1.1312568,0.039995853,0.03999612,-5.985042,3.6442160606384277,6.8577085,0.15776736,-0.37119752168655396,0.19197369
1319.6666666657952,0.01773111,-0.9255117,-0.03802047,-1.9858214,0.09752489,1.9777572,1.1338788,0.039995942,0.039996214,-5.9292717,3.6827006340026855,6.8842664,0.15722361,-0.3693564236164093,0.19227178
1319.6833333324619,0.017863097,-0.9265739,-0.038306244,-1.9830357,0.0982568,1.9808116,1.1364911,0.039996024,0.0399963,-5.8737636,3.720895528793335,6.9101477,0.15666175,-0.3674732446670532,0.19253422
1319.6999999991285,0.017994579,-0.9276321,-0.03859091,-1.980261,0.09898584,1.983854,1.139093,0.039996106,0.03999638,-5.817861,3.7590982913970947,6.935511,0.1560807,-0.3655512034893036,0.19276327
1319.7166666657952,0.018125543,-0.92868584,-0.03887443,-1.9774975,0.099711984,1.986885,1.1416848,0.039996196,0.039996475,-5.7623053,3.7969744205474854,6.9602246,0.15548156,-0.3635918200016022,0.1929563
1319.7333333324618,0.018255966,-0.92973554,-0.03915678,-1.974745,0.10043506,1.9899038,1.144266,0.039996296,0.039996576,-5.706506,3.834766387939453,6.9843473,0.15486248,-0.361593633890152,0.19311498
1319.7499999991285,0.018385831,-0.9307808,-0.03943793,-1.9720042,0.101155035,1.9929093,1.1468363,0.03999639,0.039996672,-5.650359,3.8724327087402344,7.00791,0.15422435,-0.35955455899238586,0.19323567
1319.7666666657951,0.01851513,-0.9318214,-0.039717827,-1.9692757,0.10187181,1.9959016,1.1493952,0.039996482,0.039996766,-5.594636,3.909780979156494,7.0308332,0.15356705,-0.3574784994125366,0.19332169
1319.7833333324618,0.018643847,-0.93285733,-0.03999646,-1.9665594,0.10258529,1.9988811,1.1519427,0.039996587,0.03999687,-5.5385876,3.9470889568328857,7.053233,0.1528913,-0.3553689122200012,0.19337282
1319.7999999991284,0.018771961,-0.9338886,-0.04027378,-1.9638555,0.103295386,2.0018451,1.1544782,0.039996684,0.039996967,-5.482836,3.984020948410034,7.074949,0.15219696,-0.3532177805900574,0.19338569
1319.816666665795,0.018899461,-0.934915,-0.04054977,-1.9611648,0.104002036,2.0047967,1.1570013,0.03999678,0.039997064,-5.4266734,4.020906925201416,7.0962095,0.15148467,-0.35103699564933777,0.19336432
1319.8333333324617,0.019026333,-0.9359364,-0.040824383,-1.9584876,0.10470513,2.0077333,1.1595117,0.039996874,0.039997157,-5.3710237,4.057426452636719,7.116791,0.1507551,-0.3488154411315918,0.1933039
1319.8499999991284,0.01915256,-0.93695253,-0.041097607,-1.9558235,0.105404645,2.0106547,1.1620097,0.039996974,0.03999726,-5.314949,4.093858242034912,7.1368666,0.1500078,-0.34656181931495667,0.19320674
1319.866666665795,0.019278128,-0.93796337,-0.04136939,-1.9531735,0.10610045,2.0135608,1.164494,0.03999707,0.039997354,-5.25936,4.129919052124023,7.1563077,0.1492412,-0.3442729115486145,0.1930743
1319.8833333324617,0.019403022,-0.93896884,-0.04163972,-1.9505376,0.10679245,2.0164506,1.1669655,0.039997164,0.03999745,-5.203406,4.165858268737793,7.175252,0.14845963,-0.3419541120529175,0.19290358
1319.8999999991283,0.019527221,-0.93996876,-0.041908555,-1.9479163,0.1074806,2.019325,1.1694231,0.03999726,0.039997548,-5.147982,4.201451301574707,7.1936007,0.14765877,-0.3396032154560089,0.1926976
1319.916666665795,0.01965073,-0.94096315,-0.04217585,-1.94531,0.10816481,2.0221834,1.171867,0.039997354,0.03999764,-5.0921574,4.236893653869629,7.211388,0.14684056,-0.3372199535369873,0.19245432
1319.9333333324616,0.019773526,-0.9419516,-0.042441595,-1.9427185,0.108844995,2.0250244,1.1742965,0.03999746,0.039997745,-5.0369744,4.27196741104126,7.2286425,0.14600411,-0.3348042964935303,0.19217351
1319.9499999991283,0.01989559,-0.9429344,-0.042705756,-1.9401426,0.109521076,2.0278482,1.1767113,0.039997548,0.039997835,-4.9813643,4.306868553161621,7.2453375,0.14515153,-0.3323623836040497,0.1918572
1319.966666665795,0.020016905,-0.943911,-0.0429683,-1.9375824,0.110192984,2.0306551,1.1791115,0.039997637,0.039997928,-4.9264035,4.341405391693115,7.2615266,0.14428297,-0.32989075779914856,0.1915027
1319.9833333324616,0.020137465,-0.9448819,-0.043229185,-1.935038,0.110860646,2.0334446,1.1814967,0.03999773,0.03999802,-4.8713617,4.375703811645508,7.2771397,0.14339748,-0.3273896276950836,0.19111216
1319.9999999991282,0.020257259,-0.9458463,-0.043488406,-1.93251,0.11152397,2.0362155,1.1838667,0.039997824,0.039998114,-4.816018,4.409757137298584,7.292224,0.14249463,-0.3248569667339325,0.19068335
1320.016666665795,0.020376265,-0.94680476,-0.04374592,-1.9299983,0.1121829,2.0389693,1.1862209,0.039997917,0.039998207,-4.7616706,4.443455219268799,7.3068404,0.14157481,-0.32230186462402344,0.19021992
1320.0333333324616,0.020494469,-0.94775665,-0.044001706,-1.927504,0.11283735,2.041704,1.1885594,0.039998017,0.03999831,-4.706612,4.476894378662109,7.320851,0.14064018,-0.31971216201782227,0.18971503
1320.0499999991282,0.020611865,-0.94870204,-0.04425573,-1.9250263,0.113487266,2.0444198,1.1908821,0.03999811,0.0399984,-4.652653,4.510019302368164,7.3344755,0.13968854,-0.3171010911464691,0.18917803
1320.0666666657949,0.020728445,-0.94964087,-0.04450797,-1.922566,0.114132546,2.0471165,1.1931885,0.03999821,0.0399985,-4.5980573,4.54286003112793,7.3474855,0.13871966,-0.31446346640586853,0.18860282
1320.0833333324615,0.020844182,-0.950573,-0.044758394,-1.9201235,0.11477316,2.0497942,1.195478,0.0399983,0.039998587,-4.5443835,4.575340747833252,7.3600836,0.13773486,-0.311800092458725,0.18799198
1320.0999999991282,0.020959066,-0.9514984,-0.045006968,-1.917699,0.11540901,2.0524518,1.197751,0.039998394,0.03999868,-4.4902463,4.607546329498291,7.3721247,0.13673654,-0.3091110289096832,0.1873425
1320.1166666657948,0.021073094,-0.95241684,-0.045253683,-1.9152927,0.11604003,2.0550895,1.2000068,0.039998468,0.039998755,-4.4371004,4.639412879943848,7.3837857,0.13572024,-0.3064001202583313,0.18665789
1320.1333333324615,0.021186251,-0.9533282,-0.045498516,-1.9129047,0.11666616,2.0577078,1.2022452,0.03999855,0.039998837,-4.3834367,4.670985698699951,7.3948727,0.13469045,-0.30366620421409607,0.18593828
1320.149999999128,0.021298528,-0.95423234,-0.045741424,-1.9105352,0.117287345,2.0603049,1.2044663,0.039998636,0.039998922,-4.3307247,4.702167510986328,7.40556,0.13364558,-0.30090615153312683,0.18517998
1320.1666666657948,0.021409906,-0.9551294,-0.045982383,-1.9081844,0.11790353,2.0628812,1.2066696,0.03999872,0.039999012,-4.2775874,4.733058452606201,7.4157233,0.13258472,-0.2981272339820862,0.18438578
1320.1833333324614,0.021520372,-0.9560193,-0.046221353,-1.9058528,0.11851462,2.0654364,1.2088548,0.039998803,0.039999086,-4.225436,4.763607025146484,7.425526,0.13151021,-0.2953241765499115,0.18355924
1320.199999999128,0.02162992,-0.9569017,-0.046458345,-1.903541,0.119120546,2.06797,1.2110218,0.039998874,0.039999157,-4.172815,4.7938032150268555,7.4348106,0.1304215,-0.2925017476081848,0.18269378
1320.2166666657947,0.021738539,-0.95777684,-0.04669332,-1.9012489,0.11972124,2.0704827,1.2131699,0.039998952,0.03999923,-4.1213765,4.823684215545654,7.443777,0.12931786,-0.28966131806373596,0.18179564
1320.2333333324614,0.021846212,-0.95864433,-0.046926238,-1.8989762,0.120316684,2.072974,1.2152994,0.03999903,0.039999302,-4.0697865,4.853211879730225,7.4522552,0.1282024,-0.2868000268936157,0.18086296
1320.249999999128,0.021952936,-0.95950407,-0.047157094,-1.896724,0.12090677,2.075443,1.21741,0.039999105,0.039999373,-4.018009,4.8823370933532715,7.460188,0.12707447,-0.2839152216911316,0.1798918
1320.2666666657947,0.022058692,-0.96035606,-0.04738585,-1.8944917,0.12149151,2.0778894,1.2195019,0.039999183,0.03999944,-3.9675684,4.911187171936035,7.467952,0.12593222,-0.28101611137390137,0.1788903
1320.2833333324613,0.02216348,-0.9612004,-0.047612514,-1.89228,0.122070774,2.0803132,1.2215744,0.039999273,0.03999953,-3.9165008,4.939618110656738,7.4751053,0.124775045,-0.2780993580818176,0.17785108
1320.299999999128,0.022267282,-0.96203697,-0.047837034,-1.8900889,0.122644566,2.0827143,1.2236276,0.039999355,0.0399996,-3.8666606,4.967745304107666,7.4820476,0.12360492,-0.27516478300094604,0.17678069
1320.3166666657946,0.022370087,-0.9628654,-0.048059393,-1.8879191,0.12321277,2.0850923,1.2256612,0.03999942,0.039999668,-3.8163152,4.99546480178833,7.488446,0.12242214,-0.2722140848636627,0.17567275
1320.3333333324613,0.022471888,-0.96368587,-0.048279587,-1.8857703,0.12377539,2.0874467,1.2276746,0.03999951,0.03999975,-3.767287,5.022874355316162,7.494647,0.121226355,-0.26924991607666016,0.17453279
1320.349999999128,0.022572685,-0.964498,-0.04849758,-1.8836433,0.124332376,2.0897775,1.2296681,0.039999597,0.039999828,-3.717725,5.049887180328369,7.500307,0.12001921,-0.26627275347709656,0.17335907
1320.3666666657946,0.022672458,-0.96530205,-0.048713353,-1.8815377,0.124883614,2.092085,1.2316417,0.039999675,0.039999913,-3.6695082,5.076564311981201,7.5058036,0.11879952,-0.2632850110530853,0.17215084
1320.3833333324612,0.022771196,-0.96609783,-0.0489269,-1.8794538,0.12542908,2.0943682,1.2335941,0.039999746,0.04,-3.6206863,5.102809906005859,7.510752,0.117567204,-0.26028385758399963,0.1709029
1320.3999999991279,0.022868894,-0.96688515,-0.04913818,-1.8773918,0.12596875,2.0966277,1.2355263,0.03999982,0.04,-3.573209,5.128746509552002,7.5155563,0.11632641,-0.25727182626724243,0.16962042
1320.4166666657945,0.022965543,-0.96766424,-0.049347196,-1.8753518,0.12650253,2.098863,1.2374376,0.03999991,0.04,-3.5252368,5.154189586639404,7.519849,0.11507223,-0.2542533874511719,0.16828524
1320.4333333324612,0.02306114,-0.9684348,-0.04955392,-1.873334,0.12703043,2.101073,1.2393283,0.039999984,0.04,-3.4785697,5.179385185241699,7.524001,0.11380843,-0.2512247562408447,0.16690883
1320.4499999991278,0.023155661,-0.9691966,-0.049758334,-1.871339,0.12755243,2.103259,1.2411976,0.039999988,0.04,-3.4314842,5.204144477844238,7.5276785,0.11253175,-0.24819310009479523,0.16548944
1320.4666666657945,0.023249114,-0.9699499,-0.04996042,-1.8693669,0.12806845,2.10542,1.2430457,0.03999998,0.04,-3.3858116,5.228850841522217,7.531192,0.11124632,-0.24513287842273712,0.16409825
1320.4833333324611,0.023341488,-0.9706946,-0.050160166,-1.8674173,0.12857847,2.107556,1.2448723,0.039999988,0.04,-3.3401206,5.252961158752441,7.5343714,0.10995066,-0.24206478893756866,0.16267961
1320.4999999991278,0.023432773,-0.9714305,-0.050357543,-1.8654907,0.12908241,2.109667,1.2466773,0.03999999,0.04,-3.294315,5.27662467956543,7.5371203,0.10864545,-0.2389879673719406,0.16122925
1320.5166666657944,0.023522954,-0.9721574,-0.05055255,-1.8635871,0.12958027,2.1117527,1.2484608,0.039999995,0.04,-3.2499669,5.300029754638672,7.5398383,0.107331604,-0.23590020835399628,0.15975673
1320.533333332461,0.023612043,-0.9728754,-0.05074517,-1.8617069,0.13007204,2.113813,1.2502224,0.04,0.04,-3.205171,5.322984218597412,7.542031,0.10600747,-0.23280344903469086,0.15826178
1320.5499999991277,0.023700021,-0.9735847,-0.050935388,-1.85985,0.1305577,2.1158473,1.2519621,0.04,0.04,-3.1618042,5.3456339836120605,7.5442443,0.104674295,-0.22970210015773773,0.1567347
1320.5666666657944,0.023786884,-0.9742853,-0.051123194,-1.8580167,0.13103716,2.1178558,1.2536796,0.03999999,0.04,-3.117935,5.367824554443359,7.5459647,0.10333314,-0.22659656405448914,0.15517777
1320.583333332461,0.023872621,-0.9749768,-0.05130857,-1.8562071,0.13151039,2.1198378,1.2553748,0.039999995,0.04,-3.0754821,5.389711856842041,7.5476947,0.10198367,-0.22348789870738983,0.15358283
1320.5999999991277,0.023957234,-0.97565913,-0.0514915,-1.8544214,0.13197742,2.1217942,1.2570479,0.039999995,0.04,-3.0326793,5.411230087280273,7.548933,0.10062697,-0.22037315368652344,0.15197982
1320.6166666657944,0.024040716,-0.9763323,-0.051671978,-1.8526597,0.13243812,2.1237245,1.2586982,0.039999988,0.04,-2.991304,5.432446479797363,7.5501904,0.09926148,-0.21725280582904816,0.15034962
1320.633333332461,0.024123063,-0.9769962,-0.051850002,-1.8509216,0.13289249,2.1256287,1.260326,0.039999984,0.04,-2.9494915,5.453187465667725,7.5509877,0.09789001,-0.21412748098373413,0.14870228
1320.6499999991277,0.02420426,-0.97765076,-0.052025553,-1.849208,0.13334051,2.1275063,1.2619314,0.039999977,0.04,-2.9091277,5.473626613616943,7.5518203,0.09651253,-0.21100008487701416,0.14702325
1320.6666666657943,0.024284314,-0.9782962,-0.0521986,-1.8475183,0.13378216,2.1293573,1.2635139,0.039999966,0.04,-2.8683932,5.493628025054932,7.5522313,0.09512651,-0.20787379145622253,0.14532064
1320.683333332461,0.024363214,-0.97893244,-0.05236916,-1.8458532,0.1342174,2.1311812,1.2650735,0.039999954,0.04,-2.8290715,5.513392448425293,7.5526924,0.09373576,-0.20474302768707275,0.14359877
1320.6999999991276,0.024440952,-0.97955936,-0.05253721,-1.8442124,0.13464624,2.1329792,1.2666101,0.039999947,0.04,-2.7893858,5.532662391662598,7.552746,0.092339456,-0.20161700248718262,0.14185317
1320.7166666657943,0.02451753,-0.980177,-0.052702747,-1.842596,0.13506849,2.1347494,1.2681242,0.039999943,0.04,-2.751166,5.5516886711120605,7.5528545,0.09093814,-0.19848807156085968,0.1400803
1320.733333332461,0.024592953,-0.98078513,-0.05286578,-1.8410041,0.13548432,2.1364932,1.2696159,0.039999932,0.04,-2.713035,5.570339679718018,7.55269,0.08952965,-0.19536109268665314,0.13829325
1320.7499999991276,0.024667207,-0.981384,-0.053026274,-1.8394374,0.13589372,2.1382103,1.2710843,0.039999913,0.04,-2.67493,5.588539123535156,7.552191,0.088113934,-0.19223423302173615,0.13648716
1320.7666666657942,0.024740292,-0.98197347,-0.053184245,-1.8378948,0.13629662,2.1398997,1.2725294,0.039999906,0.04,-2.6384432,5.606560230255127,7.5518756,0.08669428,-0.18911023437976837,0.13466154
1320.7833333324609,0.0248122,-0.9825536,-0.053339664,-1.8363774,0.13669293,2.1415625,1.2739514,0.039999895,0.04,-2.601413,5.624033451080322,7.5510907,0.08527163,-0.18598923087120056,0.13281538
1320.7999999991275,0.024882933,-0.98312414,-0.05349254,-1.8348844,0.13708276,2.1431973,1.2753491,0.03999988,0.04,-2.5660436,5.641387462615967,7.550499,0.08384485,-0.1828693151473999,0.13095926
1320.8166666657942,0.024952484,-0.9836852,-0.05364288,-1.8334167,0.13746598,2.1448047,1.2767235,0.039999872,0.04,-2.530184,5.658137798309326,7.549475,0.082419425,-0.17975863814353943,0.12908064
1320.8333333324608,0.025020862,-0.9842367,-0.053790666,-1.8319732,0.13784267,2.1463854,1.2780749,0.03999987,0.04,-2.4959872,5.67478609085083,7.5486636,0.08099138,-0.1766544133424759,0.12718762
1320.8499999991275,0.025088059,-0.9847788,-0.053935897,-1.8305557,0.13821283,2.1479385,1.2794029,0.039999865,0.04,-2.461206,5.690860271453857,7.5473604,0.0795595,-0.17355075478553772,0.12527916
1320.8666666657941,0.025154075,-0.9853115,-0.054078553,-1.8291619,0.13857648,2.149464,1.2807075,0.039999854,0.04,-2.4282346,5.706873893737793,7.5463753,0.07812577,-0.1704588681459427,0.1233611
1320.8833333324608,0.025218911,-0.9858347,-0.05421867,-1.8277937,0.13893357,2.1509616,1.2819889,0.039999843,0.04,-2.394522,5.7222394943237305,7.5448565,0.07669019,-0.16736936569213867,0.12142552
1320.8999999991274,0.025282558,-0.98634815,-0.054356225,-1.8264506,0.1392841,2.1524327,1.2832466,0.039999835,0.04,-2.3626845,5.7375617027282715,7.5436745,0.07525292,-0.16429229080677032,0.119477846
1320.916666665794,0.025345022,-0.9868521,-0.054491214,-1.8251319,0.13962808,2.1538763,1.2844815,0.039999824,0.04,-2.3303533,5.752355575561523,7.542025,0.07381543,-0.16122086346149445,0.11752586
1320.9333333324607,0.025406305,-0.98734665,-0.054623645,-1.8238384,0.13996546,2.1552927,1.2856925,0.039999817,0.04,-2.29951,5.766939640045166,7.5406156,0.07237533,-0.15815839171409607,0.115553245
1320.9499999991274,0.025466405,-0.9878316,-0.054753512,-1.8225702,0.14029631,2.156682,1.28688,0.039999813,0.04,-2.2682953,5.781068801879883,7.5388403,0.07093805,-0.155103862285614,0.113574475
1320.966666665794,0.02552533,-0.9883071,-0.054880835,-1.8213266,0.14062059,2.158044,1.2880443,0.039999805,0.04,-2.2387729,5.795076370239258,7.537346,0.06950044,-0.15206216275691986,0.11158353
1320.9833333324607,0.025583073,-0.98877287,-0.055005603,-1.8201079,0.14093834,2.1593783,1.2891854,0.03999981,0.04,-2.2092,5.808633327484131,7.535589,0.06806422,-0.1490289568901062,0.10958399
1320.9999999991273,0.025639633,-0.9892293,-0.055127822,-1.8189142,0.14124957,2.160686,1.2903031,0.039999794,0.04,-2.1798449,5.821813106536865,7.5336466,0.066628315,-0.14601068198680878,0.10758244
1321.016666665794,0.025695018,-0.9896764,-0.055247486,-1.8177452,0.14155428,2.161966,1.2913977,0.03999978,0.04,-2.1519701,5.834855556488037,7.5319653,0.06519432,-0.14300067722797394,0.105569825
1321.0333333324606,0.025749223,-0.99011415,-0.055364612,-1.816601,0.14185253,2.1632187,1.2924688,0.039999772,0.04,-2.1237557,5.847404956817627,7.5299525,0.06376216,-0.14000655710697174,0.10355541
1321.0499999991273,0.025802262,-0.9905423,-0.05547919,-1.8154818,0.14214426,2.164445,1.2935168,0.03999976,0.04,-2.0970824,5.859847068786621,7.5282083,0.062333457,-0.13702523708343506,0.10153447
1321.066666665794,0.025854133,-0.9909608,-0.055591263,-1.8143871,0.14242952,2.1656437,1.2945415,0.039999753,0.04,-2.0700865,5.871778964996338,7.526107,0.060908265,-0.13405831158161163,0.09951111
1321.0833333324606,0.025904842,-0.99137,-0.055700824,-1.8133168,0.14270836,2.1668153,1.2955437,0.03999975,0.04,-2.0447094,5.883633613586426,7.524332,0.059486352,-0.13110946118831635,0.09748411
1321.0999999991272,0.025954388,-0.9917701,-0.055807855,-1.8122711,0.1429808,2.1679602,1.2965225,0.03999974,0.04,-2.0187933,5.8949503898620605,7.5221753,0.058066543,-0.12817607820034027,0.095454715
1321.116666665794,0.026002778,-0.99216056,-0.055912383,-1.81125,0.14324678,2.169078,1.2974784,0.03999974,0.04,-1.9945229,5.906224250793457,7.520364,0.05665317,-0.12525831162929535,0.09342476
1321.1333333324606,0.026050013,-0.9925419,-0.056014426,-1.8102531,0.1435065,2.1701696,1.2984115,0.039999735,0.04,-1.9699446,5.9169816970825195,7.518218,0.055244528,-0.1223616972565651,0.091395974
1321.1499999991272,0.0260961,-0.9929139,-0.056113984,-1.8092805,0.14375986,2.1712344,1.2993222,0.039999727,0.04,-1.9468291,5.927680015563965,7.516381,0.05384156,-0.1194809153676033,0.08936642
1321.1666666657939,0.026141047,-0.9932768,-0.05621107,-1.8083321,0.14400685,2.1722727,1.3002102,0.039999723,0.04,-1.9233615,5.937851428985596,7.514207,0.052442383,-0.1166200116276741,0.08733805
1321.1833333324605,0.026184851,-0.99363047,-0.056305703,-1.8074074,0.14424759,2.1732843,1.3010757,0.03999972,0.04,-1.9014968,5.948015213012695,7.5124016,0.051051058,-0.11377942562103271,0.085316725
1321.1999999991272,0.02622753,-0.9939749,-0.056397885,-1.8065069,0.14448206,2.1742704,1.3019189,0.039999716,0.04,-1.8791865,5.957635402679443,7.5102396,0.04966629,-0.11095961928367615,0.08329801
1321.2166666657938,0.02626908,-0.99431026,-0.056487635,-1.8056301,0.14471033,2.1752303,1.3027397,0.03999971,0.04,-1.8584857,5.967228412628174,7.5084395,0.048288696,-0.10816100239753723,0.08128193
1321.2333333324605,0.026309516,-0.99463665,-0.056574967,-1.804777,0.14493243,2.1761644,1.3035383,0.0399997,0.04,-1.837899,5.976471900939941,7.5064855,0.046919324,-0.10538303852081299,0.07927917
1321.249999999127,0.026348842,-0.99495405,-0.056659892,-1.8039473,0.14514837,2.1770725,1.304315,0.039999697,0.04,-1.8173573,5.985274314880371,7.5043945,0.04555839,-0.10263048857450485,0.07727531
1321.2666666657938,0.02638706,-0.99526274,-0.056742426,-1.8031406,0.14535828,2.1779554,1.3050698,0.039999694,0.04,-1.7983986,5.9941020011901855,7.502664,0.044207074,-0.09990232437849045,0.07528432
1321.2833333324604,0.026424186,-0.9955626,-0.05682259,-1.8023576,0.14556211,2.1788132,1.305803,0.039999694,0.04,-1.778937,6.002374649047852,7.5005894,0.042864945,-0.09719627350568771,0.07329574
1321.299999999127,0.02646023,-0.9958535,-0.05690043,-1.8015976,0.14575997,2.1796458,1.3065144,0.039999694,0.04,-1.7611506,6.010706424713135,7.4989367,0.041532256,-0.09451621025800705,0.07131884
1321.3166666657937,0.026495188,-0.99613565,-0.05697592,-1.8008603,0.14595187,2.180453,1.3072045,0.039999697,0.04,-1.743006,6.018535137176514,7.4969535,0.04021113,-0.09186325967311859,0.06935592
1321.3333333324604,0.026529083,-0.9964094,-0.057049107,-1.8001454,0.14613791,2.1812356,1.3078738,0.039999686,0.04,-1.7262639,6.026342868804932,7.4953423,0.03890111,-0.0892379954457283,0.067405276
1321.349999999127,0.026561923,-0.9966745,-0.057120003,-1.7994527,0.14631803,2.1819937,1.3085219,0.039999686,0.04,-1.7091662,6.033658027648926,7.4934406,0.037600767,-0.08664151281118393,0.06546444
1321.3666666657937,0.026593711,-0.996931,-0.057188626,-1.7987818,0.14649242,2.1827278,1.3091495,0.039999686,0.04,-1.6935327,6.040981769561768,7.4918795,0.03631449,-0.08407013863325119,0.06354035
1321.3833333324603,0.026624458,-0.9971794,-0.057255007,-1.7981333,0.14666112,2.1834378,1.3097565,0.03999968,0.04,-1.6775315,6.0478105545043945,7.490046,0.035038766,-0.08152744174003601,0.061627064
1321.399999999127,0.026654178,-0.99741924,-0.057319164,-1.7975062,0.14682412,2.184124,1.3103433,0.03999968,0.04,-1.6630563,6.054712772369385,7.4886265,0.033776484,-0.07901688665151596,0.059731975
1321.4166666657936,0.026682884,-0.9976511,-0.057381127,-1.7969006,0.14698152,2.1847868,1.3109097,0.039999675,0.04,-1.6481932,6.061106204986572,7.4868875,0.032527674,-0.07653721421957016,0.057853866
1321.4333333324603,0.02671058,-0.9978748,-0.05744092,-1.7963163,0.14713335,2.1854267,1.3114562,0.039999668,0.04,-1.6347089,6.0675201416015625,7.4855323,0.031293422,-0.0740884318947792,0.055992987
1321.449999999127,0.026737286,-0.9980903,-0.057498574,-1.795753,0.14727972,2.1860433,1.3119835,0.039999664,0.04,-1.6209276,6.073480606079102,7.4839077,0.030075325,-0.07167162746191025,0.054149907
1321.4666666657936,0.026763018,-0.998298,-0.057554096,-1.7952105,0.14742069,2.186637,1.3124915,0.039999664,0.04,-1.6085645,6.079482078552246,7.48267,0.028870102,-0.0692901462316513,0.05232901
1321.4833333324602,0.026787778,-0.9984979,-0.057607535,-1.7946883,0.14755638,2.1872084,1.3129802,0.039999664,0.04,-1.5962847,6.085163593292236,7.4813128,0.02767949,-0.06694284081459045,0.050532617
1321.4999999991269,0.026811577,-0.99869,-0.057658903,-1.7941861,0.14768681,2.1877582,1.3134499,0.039999664,0.04,-1.584067,6.090499401092529,7.479861,0.026506748,-0.06463110446929932,0.04875805
1321.5166666657935,0.026834447,-0.9988746,-0.05770824,-1.7937038,0.14781205,2.1882858,1.3139011,0.039999656,0.04,-1.5731902,6.095846652984619,7.478753,0.02535158,-0.06235497072339058,0.04700287
1321.5333333324602,0.026856383,-0.99905175,-0.057755586,-1.7932415,0.14793222,2.1887922,1.314334,0.039999656,0.04,-1.5620013,6.100789546966553,7.4774246,0.024213469,-0.06011700630187988,0.04527244
1321.5499999991268,0.026877422,-0.9992215,-0.057800956,-1.7927985,0.14804737,2.1892772,1.3147491,0.03999966,0.04,-1.5521938,6.1057963371276855,7.4764667,0.02309257,-0.05791868641972542,0.04356852
1321.5666666657935,0.026897557,-0.99938405,-0.057844393,-1.792374,0.1481576,2.1897411,1.3151463,0.03999966,0.04,-1.5420318,6.1103644371032715,7.475274,0.021989897,-0.055761829018592834,0.04189218
1321.5833333324601,0.026916817,-0.9995395,-0.05788593,-1.7919681,0.14826304,2.190186,1.3155259,0.039999656,0.04,-1.5330715,6.1149492263793945,7.474394,0.020907873,-0.05364532768726349,0.04024328
1321.5999999991268,0.026935216,-0.9996881,-0.0579256,-1.7915803,0.1483637,2.19061,1.3158889,0.039999653,0.04,-1.5238138,6.119114398956299,7.4732733,0.019846275,-0.05156465992331505,0.038616095
1321.6166666657934,0.026952771,-0.9998297,-0.05796344,-1.7912105,0.14845966,2.191014,1.3162347,0.039999653,0.04,-1.5158212,6.123373031616211,7.472545,0.018803168,-0.04952990636229515,0.03702304
1321.63333333246,0.026969494,-0.9999647,-0.057999488,-1.790858,0.14855109,2.1913998,1.3165643,0.039999653,0.04,-1.507595,6.127234935760498,7.471593,0.017783463,-0.04753904417157173,0.0354625
1321.6499999991267,0.026985407,-1.0000932,-0.05803378,-1.7905228,0.14863807,2.1917665,1.3168778,0.039999656,0.04,-1.5004228,6.131099224090576,7.4709272,0.016783876,-0.0455881804227829,0.033929862
1321.6666666657934,0.027000524,-1.0002153,-0.058066357,-1.790204,0.14872071,2.1921148,1.3171756,0.039999656,0.04,-1.4930345,6.1346330642700195,7.4701004,0.015806759,-0.04368237033486366,0.03243209
1321.68333333246,0.02701487,-1.000331,-0.058097262,-1.7899019,0.14879903,2.1924448,1.3174582,0.039999656,0.04,-1.4867629,6.138181686401367,7.469572,0.014853218,-0.041822586208581924,0.03096675
1321.6999999991267,0.027028462,-1.0004408,-0.058126528,-1.7896155,0.14887328,2.1927576,1.3177257,0.03999966,0.04,-1.4803394,6.141420841217041,7.4688835,0.013922021,-0.0400131531059742,0.029538708
1321.7166666657934,0.02704132,-1.0005443,-0.05815421,-1.7893448,0.14894348,2.193054,1.317979,0.039999656,0.04,-1.4748191,6.1446533203125,7.468477,0.013015643,-0.038249969482421875,0.028143568
1321.73333333246,0.02705346,-1.0006421,-0.058180343,-1.7890892,0.14900972,2.1933336,1.318218,0.03999966,0.04,-1.4695233,6.147676467895508,7.4679894,0.012132146,-0.0365351177752018,0.026786452
1321.7499999991267,0.02706491,-1.0007344,-0.05820498,-1.7888483,0.14907216,2.193597,1.3184432,0.039999664,0.04,-1.4642637,6.150459289550781,7.467463,0.011274114,-0.03487062826752663,0.025467511
1321.7666666657933,0.027075686,-1.0008211,-0.05822815,-1.7886217,0.14913087,2.1938448,1.318655,0.039999668,0.04,-1.4598988,6.15327262878418,7.467223,0.010442786,-0.033256277441978455,0.024185365
1321.78333333246,0.0270858,-1.0009025,-0.058249913,-1.7884091,0.149186,2.1940775,1.3188539,0.039999668,0.04,-1.4554732,6.155797958374023,7.466834,0.0096374415,-0.03169657662510872,0.02294502
1321.7999999991266,0.027095286,-1.0009791,-0.05827031,-1.7882094,0.1492377,2.1942956,1.3190402,0.039999664,0.04,-1.4519324,6.158376216888428,7.4667044,0.00886023,-0.030189884826540947,0.021747937
1321.8166666657933,0.02710416,-1.0010504,-0.05828939,-1.7880231,0.14928603,2.1944995,1.3192146,0.039999668,0.04,-1.4480878,6.160623550415039,7.466404,0.008110482,-0.028736870735883713,0.020589843
1321.83333333246,0.027112454,-1.0011168,-0.0583072,-1.787849,0.14933117,2.19469,1.3193777,0.03999967,0.04,-1.4453089,6.162968158721924,7.4663973,0.0073882565,-0.027342787012457848,0.01947639
1321.8499999991266,0.027120186,-1.001179,-0.058323808,-1.7876865,0.14937319,2.1948678,1.3195295,0.039999668,0.04,-1.4422414,6.165012359619141,7.466209,0.006694102,-0.026004867628216743,0.018409126
1321.8666666657932,0.02712738,-1.001237,-0.058339246,-1.7875355,0.14941226,2.1950326,1.3196706,0.039999668,0.04,-1.4398472,6.167073726654053,7.46625,0.0060304133,-0.024720657616853714,0.017383346
1321.8833333324599,0.02713406,-1.001291,-0.058353588,-1.7873955,0.1494485,2.195186,1.3198013,0.039999668,0.04,-1.4374028,6.168936252593994,7.466217,0.005398131,-0.0234982892870903,0.016405517
1321.8999999991265,0.027140258,-1.0013411,-0.058366857,-1.7872657,0.14948209,2.1953275,1.3199226,0.039999675,0.04,-1.4357115,6.170819282531738,7.466362,0.004797116,-0.02233412116765976,0.015475288
1321.9166666657932,0.027145993,-1.0013874,-0.05837913,-1.7871457,0.14951319,2.1954587,1.3200347,0.039999675,0.04,-1.4338534,6.172482490539551,7.4664164,0.004227185,-0.021233180537819862,0.014594396
1321.9333333324598,0.027151292,-1.00143,-0.058390457,-1.7870347,0.14954191,2.19558,1.3201382,0.039999675,0.04,-1.4326904,6.1741790771484375,7.4666452,0.0036890376,-0.020194318145513535,0.01376164
1321.9499999991265,0.027156183,-1.0014695,-0.058400903,-1.7869331,0.14956835,2.1956918,1.3202338,0.03999968,0.04,-1.4313481,6.175670623779297,7.466765,0.0031842168,-0.019217532128095627,0.0129794795
1321.9666666657931,0.027160686,-1.0015054,-0.05841053,-1.7868392,0.14959271,2.1957948,1.3203219,0.039999675,0.04,-1.43072,6.177242279052734,7.46711,0.0027118947,-0.018307996913790703,0.012250896
1321.9833333324598,0.02716484,-1.0015377,-0.05841938,-1.7867529,0.14961512,2.1958895,1.3204029,0.03999968,0.04,-1.4300979,6.178647994995117,7.4673758,0.0022732757,-0.017464952543377876,0.0115743885
1321.9999999991264,0.02716867,-1.0015681,-0.058427535,-1.7866738,0.14963575,2.1959767,1.3204771,0.03999968,0.04,-1.4296422,6.179971218109131,7.467634,0.0018693665,-0.016691723838448524,0.010954582
1322.016666665793,0.027172199,-1.0015962,-0.058435015,-1.7866001,0.14965469,2.1960573,1.3205457,0.039999682,0.04,-1.4292679,6.18124532699585,7.468,0.0014988013,-0.015978895127773285,0.010380745
1322.0333333324597,0.02717545,-1.0016215,-0.058441922,-1.7865331,0.14967209,2.196132,1.3206085,0.039999682,0.04,-1.4286225,6.182302951812744,7.46818,0.001157601,-0.015317458659410477,0.009851083
1322.0499999991264,0.027178442,-1.0016456,-0.05844827,-1.7864708,0.14968814,2.1961997,1.3206664,0.039999682,0.04,-1.4285955,6.183443546295166,7.468502,0.0008440113,-0.014712585136294365,0.00936573
1322.066666665793,0.027181203,-1.0016664,-0.05845411,-1.7864138,0.14970295,2.1962605,1.3207197,0.039999682,0.04,-1.4279442,6.184338092803955,7.4686966,0.0005555811,-0.014154269360005856,0.008916894
1322.0833333324597,0.02718375,-1.0016867,-0.058459476,-1.7863616,0.14971657,2.1963196,1.3207688,0.039999686,0.04,-1.4281052,6.185328483581543,7.468989,0.0002893536,-0.01365248579531908,0.0085129775
1322.0999999991263,0.02718609,-1.001705,-0.05846443,-1.7863134,0.14972909,2.196372,1.320814,0.039999686,0.04,-1.4274713,6.186064720153809,7.4690914,4.4453525e-05,-0.013175280764698982,0.008130285
1322.116666665793,0.027188245,-1.0017219,-0.058468964,-1.7862691,0.14974062,2.1964204,1.3208555,0.039999682,0.04,-1.4274082,6.186878681182861,7.4693456,-0.00018095934,-0.012744754552841187,0.007783462
1322.1333333324596,0.027190236,-1.0017377,-0.058473144,-1.7862283,0.14975123,2.1964648,1.3208936,0.03999969,0.04,-1.4271148,6.187540054321289,7.469481,-0.0003879193,-0.012348176911473274,0.007463993
1322.1499999991263,0.027192073,-1.0017518,-0.058476985,-1.7861911,0.14976098,2.1965067,1.3209288,0.039999682,0.04,-1.426908,6.188200950622559,7.4696665,-0.0005780886,-0.011982761323451996,0.0071693156
1322.166666665793,0.027193764,-1.0017648,-0.058480535,-1.7861563,0.14976995,2.196544,1.3209611,0.039999682,0.04,-1.426762,6.188780307769775,7.469767,-0.0007537461,-0.011645155027508736,0.006897974
1322.1833333324596,0.027195316,-1.0017772,-0.058483798,-1.7861241,0.14977819,2.1965802,1.3209908,0.039999682,0.04,-1.4265937,6.189328670501709,7.469921,-0.00091485877,-0.011337676085531712,0.006649843
1322.1999999991262,0.027196746,-1.0017885,-0.058486797,-1.7860949,0.1497858,2.1966105,1.321018,0.039999686,0.04,-1.4262124,6.189763069152832,7.4699717,-0.0010625581,-0.011044598184525967,0.0064151683
1322.216666665793,0.027198063,-1.001798,-0.058489554,-1.786068,0.1497928,2.1966393,1.3210435,0.039999686,0.04,-1.4262749,6.190306663513184,7.470199,-0.0011982113,-0.010788950137794018,0.006207555
1322.2333333324596,0.027199287,-1.0018072,-0.0584921,-1.7860429,0.14979923,2.1966677,1.3210665,0.03999969,0.04,-1.4262772,6.190725326538086,7.4702573,-0.0013256725,-0.01055280864238739,0.006016681
1322.2499999991262,0.027200408,-1.001816,-0.05849445,-1.7860202,0.14980517,2.1966906,1.3210877,0.039999682,0.04,-1.4259377,6.1910552978515625,7.4702754,-0.0014404589,-0.010325471870601177,0.005835779
1322.2666666657929,0.027201448,-1.0018241,-0.058496594,-1.785999,0.14981061,2.1967125,1.3211073,0.039999686,0.04,-1.425924,6.191477298736572,7.4704804,-0.0015464181,-0.010129143483936787,0.005675657
1322.2833333324595,0.027202398,-1.0018318,-0.058498576,-1.7859795,0.14981562,2.1967335,1.3211255,0.039999686,0.04,-1.4257319,6.191763401031494,7.470505,-0.0016437222,-0.009944026358425617,0.005525566
1322.2999999991262,0.027203273,-1.0018384,-0.0585004,-1.7859619,0.14982021,2.196754,1.3211426,0.03999969,0.04,-1.4256252,6.1920671463012695,7.470573,-0.0017344316,-0.009770181961357594,0.0053853886
1322.3166666657928,0.027204085,-1.0018438,-0.058502078,-1.7859452,0.14982447,2.196774,1.3211575,0.039999694,0.04,-1.4255658,6.192344665527344,7.4706054,-0.0018193565,-0.009607653133571148,0.0052552875
1322.3333333324595,0.027204836,-1.0018492,-0.05850362,-1.7859302,0.1498284,2.1967883,1.3211715,0.039999682,0.04,-1.4255518,6.192578315734863,7.470626,-0.0018940966,-0.009454418905079365,0.0051346403
1322.349999999126,0.027205525,-1.0018544,-0.058505043,-1.7859164,0.14983197,2.1968024,1.321185,0.03999969,0.04,-1.4255241,6.192875862121582,7.4707994,-0.0019644971,-0.00933036394417286,0.0050301966
1322.3666666657928,0.027206158,-1.0018594,-0.058506347,-1.7859035,0.14983533,2.196816,1.3211967,0.039999686,0.04,-1.4254237,6.193097114562988,7.470836,-0.0020315114,-0.009210607968270779,0.004935173
1322.3833333324594,0.02720674,-1.0018641,-0.05850755,-1.7858918,0.14983837,2.1968293,1.3212074,0.039999694,0.04,-1.4252315,6.19324254989624,7.4708433,-0.0020897852,-0.009096807800233364,0.0048416466
1322.399999999126,0.027207278,-1.0018684,-0.05850867,-1.7858815,0.14984123,2.196842,1.3212174,0.039999686,0.04,-1.1210566,6.101465702056885,7.419937,0.0,-0.0,0.0
1322.4166666657927,0.027207278,-1.0018684,-0.05850867,-1.7858815,0.14984123,2.196842,1.3212174,0.039999686,0.04,-1.4278058,6.1942338943481445,7.471877,0.0,-0.0,0.0
1322.4333333324594,0.027207278,-1.0018684,-0.05850867,-1.7858815,0.14984123,2.196842,1.3212174,0.039999686,0.04,-1.4278058,6.1942338943481445,7.471877,0.0,-0.0,0.0
1322.449999999126,0.027207278,-1.0018684,-0.05850867,-1.7858815,0.14984123,2.196842,1.3212174,0.039999686,0.04,-1.4278058,6.1942338943481445,7.471877,0.0,-0.0,0.0
1322.4666666657927,0.027207278,-1.0018684,-0.05850867,-1.7858815,0.14984123,2.196842,1.3212174,0.039999686,0.04,-1.4278058,6.1942338943481445,7.471877,0.0,-0.0,0.0
1322.4833333324593,0.027207278,-1.0018684,-0.05850867,-1.7858815,0.14984123,2.196842,1.3212174,0.039999686,0.04,-1.4278058,6.1942338943481445,7.471877,0.0,-0.0,0.0
1322.499999999126,0.027207278,-1.0018684,-0.05850867,-1.7858815,0.14984123,2.196842,1.3212174,0.039999686,0.04,-1.4278058,6.1942338943481445,7.471877,0.0,-0.0,0.0
1322.5166666657926,0.027207278,-1.0018684,-0.05850867,-1.7858815,0.14984123,2.196842,1.3212174,0.039999686,0.04,-1.4278058,6.1942338943481445,7.471877,0.0,-0.0,0.0
1322.5333333324593,0.027207278,-1.0018684,-0.05850867,-1.7858815,0.14984123,2.196842,1.3212174,0.039999686,0.04,-1.4278058,6.1942338943481445,7.471877,0.0,-0.0,0.0
1322.549999999126,0.027207278,-1.0018684,-0.05850867,-1.7858815,0.14984123,2.196842,1.3212174,0.039999686,0.04,-1.4278058,6.1942338943481445,7.471877,0.0,-0.0,0.0
1322.5666666657926,0.027207278,-1.0018684,-0.05850867,-1.7858815,0.14984123,2.196842,1.3212174,0.039999686,0.04,-1.4278058,6.1942338943481445,7.471877,0.0,-0.0,0.0
1322.5833333324592,0.027207278,-1.0018684,-0.05850867,-1.7858815,0.14984123,2.196842,1.3212174,0.039999686,0.04,-1.4278058,6.1942338943481445,7.471877,0.0,-0.0,0.0
1322.5999999991259,0.027207278,-1.0018684,-0.05850867,-1.7858815,0.14984123,2.196842,1.3212174,0.039999686,0.04,-1.4278058,6.1942338943481445,7.471877,0.0,-0.0,0.0
1322.6166666657925,0.027207278,-1.0018684,-0.05850867,-1.7858815,0.14984123,2.196842,1.3212174,0.039999686,0.04,-1.4278058,6.1942338943481445,7.471877,0.0,-0.0,0.0
1322.6333333324592,0.027207278,-1.0018684,-0.05850867,-1.7858815,0.14984123,2.196842,1.3212174,0.039999686,0.04,-1.4278058,6.1942338943481445,7.471877,0.0,-0.0,0.0
1322.6499999991258,0.027207278,-1.0018684,-0.05850867,-1.7858815,0.14984123,2.196842,1.3212174,0.039999686,0.04,-1.4278058,6.1942338943481445,7.471877,0.0,-0.0,0.0
1322.6666666657925,0.027207278,-1.0018684,-0.05850867,-1.7858815,0.14984123,2.196842,1.3212174,0.039999686,0.04,-1.4278058,6.1942338943481445,7.471877,0.0,-0.0,0.0
1322.6833333324591,0.027207278,-1.0018684,-0.05850867,-1.7858815,0.14984123,2.196842,1.3212174,0.039999686,0.04,-1.4278058,6.1942338943481445,7.471877,0.0,-0.0,0.0
1322.6999999991258,0.027207278,-1.0018684,-0.05850867,-1.7858815,0.14984123,2.196842,1.3212174,0.039999686,0.04,-1.4278058,6.1942338943481445,7.471877,0.0,-0.0,0.0
1322.7166666657924,0.027207278,-1.0018684,-0.05850867,-1.7858815,0.14984123,2.196842,1.3212174,0.039999686,0.04,-1.4278058,6.1942338943481445,7.471877,0.0,-0.0,0.0
1322.733333332459,0.027207278,-1.0018684,-0.05850867,-1.7858815,0.14984123,2.196842,1.3212174,0.039999686,0.04,-1.4278058,6.1942338943481445,7.471877,0.0,-0.0,0.0
1322.7499999991257,0.027207278,-1.0018684,-0.05850867,-1.7858815,0.14984123,2.196842,1.3212174,0.039999686,0.04,-1.4278058,6.1942338943481445,7.471877,0.0,-0.0,0.0
1322.7666666657924,0.027207278,-1.0018684,-0.05850867,-1.7858815,0.14984123,2.196842,1.3212174,0.039999686,0.04,-1.4278058,6.1942338943481445,7.471877,0.0,-0.0,0.0
1322.783333332459,0.027207278,-1.0018684,-0.05850867,-1.7858815,0.14984123,2.196842,1.3212174,0.039999686,0.04,-1.4278058,6.1942338943481445,7.471877,0.0,-0.0,0.0
1322.7999999991257,0.027207278,-1.0018684,-0.05850867,-1.7858815,0.14984123,2.196842,1.3212174,0.039999686,0.04,-1.4278058,6.1942338943481445,7.471877,0.0,-0.0,0.0
1322.8166666657924,0.027207278,-1.0018684,-0.05850867,-1.7858815,0.14984123,2.196842,1.3212174,0.039999686,0.04,-1.4278058,6.1942338943481445,7.471877,0.0,-0.0,0.0
1322.833333332459,0.027207278,-1.0018684,-0.05850867,-1.7858815,0.14984123,2.196842,1.3212174,0.039999686,0.04,-1.4278058,6.1942338943481445,7.471877,0.0,-0.0,0.0
1322.8499999991257,0.027207278,-1.0018684,-0.05850867,-1.7858815,0.14984123,2.196842,1.3212174,0.039999686,0.04,-1.4278058,6.1942338943481445,7.471877,0.0,-0.0,0.0
1322.8666666657923,0.027207278,-1.0018684,-0.05850867,-1.7858815,0.14984123,2.196842,1.3212174,0.039999686,0.04,-1.4278058,6.1942338943481445,7.471877,0.0,-0.0,0.0
1322.883333332459,0.027207278,-1.0018684,-0.05850867,-1.7858815,0.14984123,2.196842,1.3212174,0.039999686,0.04,-1.4278058,6.1942338943481445,7.471877,0.0,-0.0,0.0
1322.8999999991256,0.027207278,-1.0018684,-0.05850867,-1.7858815,0.14984123,2.196842,1.3212174,0.039999686,0.04,-1.4278058,6.1942338943481445,7.471877,0.0,-0.0,0.0
1322.9166666657923,0.027207278,-1.0018684,-0.05850867,-1.7858815,0.14984123,2.196842,1.3212174,0.039999686,0.04,-1.4278058,6.1942338943481445,7.471877,0.0,-0.0,0.0
1322.933333332459,0.027207278,-1.0018684,-0.05850867,-1.7858815,0.14984123,2.196842,1.3212174,0.039999686,0.04,-1.4278058,6.1942338943481445,7.471877,0.0,-0.0,0.0
1322.9499999991256,0.027207278,-1.0018684,-0.05850867,-1.7858815,0.14984123,2.196842,1.3212174,0.039999686,0.04,-1.4278058,6.1942338943481445,7.471877,0.0,-0.0,0.0
1322.9666666657922,0.027207278,-1.0018684,-0.05850867,-1.7858815,0.14984123,2.196842,1.3212174,0.039999686,0.04,-1.4278058,6.1942338943481445,7.471877,0.0,-0.0,0.0
1322.9833333324589,0.027207278,-1.0018684,-0.05850867,-1.7858815,0.14984123,2.196842,1.3212174,0.039999686,0.04,-1.4278058,6.1942338943481445,7.471877,0.0,-0.0,0.0
1322.9999999991255,0.027207278,-1.0018684,-0.05850867,-1.7858815,0.14984123,2.196842,1.3212174,0.039999686,0.04,-1.4278058,6.1942338943481445,7.471877,0.0,-0.0,0.0
1323.0166666657922,0.027207278,-1.0018684,-0.05850867,-1.7858815,0.14984123,2.196842,1.3212174,0.039999686,0.04,-1.4278058,6.1942338943481445,7.471877,0.0,-0.0,0.0
1323.0333333324588,0.027207278,-1.0018684,-0.05850867,-1.7858815,0.14984123,2.196842,1.3212174,0.039999686,0.04,-1.4278058,6.1942338943481445,7.471877,0.0,-0.0,0.0
1323.0499999991255,0.027207278,-1.0018684,-0.05850867,-1.7858815,0.14984123,2.196842,1.3212174,0.039999686,0.04,-1.4278058,6.1942338943481445,7.471877,0.0,-0.0,0.0
1323.0666666657921,0.027207278,-1.0018684,-0.05850867,-1.7858815,0.14984123,2.196842,1.3212174,0.039999686,0.04,-1.4278058,6.1942338943481445,7.471877,0.0,-0.0,0.0
1323.0833333324588,0.027207278,-1.0018684,-0.05850867,-1.7858815,0.14984123,2.196842,1.3212174,0.039999686,0.04,-1.4278058,6.1942338943481445,7.471877,0.0,-0.0,0.0
1323.0999999991254,0.027207278,-1.0018684,-0.05850867,-1.7858815,0.14984123,2.196842,1.3212174,0.039999686,0.04,-1.4278058,6.1942338943481445,7.471877,0.0,-0.0,0.0
1323.116666665792,0.027207278,-1.0018684,-0.05850867,-1.7858815,0.14984123,2.196842,1.3212174,0.039999686,0.04,-1.4278058,6.1942338943481445,7.471877,0.0,-0.0,0.0
1323.1333333324587,0.027207278,-1.0018684,-0.05850867,-1.7858815,0.14984123,2.196842,1.3212174,0.039999686,0.04,-1.4278058,6.1942338943481445,7.471877,0.0,-0.0,0.0
1323.1499999991254,0.027207278,-1.0018684,-0.05850867,-1.7858815,0.14984123,2.196842,1.3212174,0.039999686,0.04,-1.4278058,6.1942338943481445,7.471877,0.0,-0.0,0.0
1323.166666665792,0.027207278,-1.0018684,-0.05850867,-1.7858815,0.14984123,2.196842,1.3212174,0.039999686,0.04,-1.4278058,6.1942338943481445,7.471877,0.0,-0.0,0.0
1323.1833333324587,0.027207278,-1.0018684,-0.05850867,-1.7858815,0.14984123,2.196842,1.3212174,0.039999686,0.04,-1.4278058,6.1942338943481445,7.471877,0.0,-0.0,0.0
1323.1999999991253,0.027207278,-1.0018684,-0.05850867,-1.7858815,0.14984123,2.196842,1.3212174,0.039999686,0.04,-1.4278058,6.1942338943481445,7.471877,0.0,-0.0,0.0
1323.216666665792,0.027207278,-1.0018684,-0.05850867,-1.7858815,0.14984123,2.196842,1.3212174,0.039999686,0.04,-1.4278058,6.1942338943481445,7.471877,0.0,-0.0,0.0
1323.2333333324586,0.027207278,-1.0018684,-0.05850867,-1.7858815,0.14984123,2.196842,1.3212174,0.039999686,0.04,-1.4278058,6.1942338943481445,7.471877,0.0,-0.0,0.0
1323.2499999991253,0.027207278,-1.0018684,-0.05850867,-1.7858815,0.14984123,2.196842,1.3212174,0.039999686,0.04,-1.4278058,6.1942338943481445,7.471877,0.0,-0.0,0.0
1323.266666665792,0.027207278,-1.0018684,-0.05850867,-1.7858815,0.14984123,2.196842,1.3212174,0.039999686,0.04,-1.4278058,6.1942338943481445,7.471877,0.0,-0.0,0.0
1323.2833333324586,0.027207278,-1.0018684,-0.05850867,-1.7858815,0.14984123,2.196842,1.3212174,0.039999686,0.04,-1.4278058,6.1942338943481445,7.471877,0.0,-0.0,0.0
1323.2999999991252,0.027207278,-1.0018684,-0.05850867,-1.7858815,0.14984123,2.196842,1.3212174,0.039999686,0.04,-1.4278058,6.1942338943481445,7.471877,0.0,-0.0,0.0
1323.316666665792,0.027207278,-1.0018684,-0.05850867,-1.7858815,0.14984123,2.196842,1.3212174,0.039999686,0.04,-1.4278058,6.1942338943481445,7.471877,0.0,-0.0,0.0
1323.3333333324586,0.027207278,-1.0018684,-0.05850867,-1.7858815,0.14984123,2.196842,1.3212174,0.039999686,0.04,-1.4278058,6.1942338943481445,7.471877,0.0,-0.0,0.0
1323.3499999991252,0.027207278,-1.0018684,-0.05850867,-1.7858815,0.14984123,2.196842,1.3212174,0.039999686,0.04,-1.4278058,6.1942338943481445,7.471877,0.0,-0.0,0.0
1323.3666666657919,0.027207278,-1.0018684,-0.05850867,-1.7858815,0.14984123,2.196842,1.3212174,0.039999686,0.04,-1.4278058,6.1942338943481445,7.471877,0.0,-0.0,0.0
1323.3833333324585,0.027207278,-1.0018684,-0.05850867,-1.7858815,0.14984123,2.196842,1.3212174,0.039999686,0.04,-1.4278058,6.1942338943481445,7.471877,0.0,-0.0,0.0
1323.3999999991252,0.027207278,-1.0018684,-0.05850867,-1.7858815,0.14984123,2.196842,1.3212174,0.039999686,0.04,-1.4278058,6.1942338943481445,7.471877,0.0,-0.0,0.0
1323.4166666657918,0.027207278,-1.0018684,-0.05850867,-1.7858815,0.14984123,2.196842,1.3212174,0.039999686,0.04,-1.4278058,6.1942338943481445,7.471877,0.0,-0.0,0.0
1323.4333333324585,0.027207278,-1.0018684,-0.05850867,-1.7858815,0.14984123,2.196842,1.3212174,0.039999686,0.04,-1.4278058,6.1942338943481445,7.471877,0.0,-0.0,0.0
1323.449999999125,0.027207278,-1.0018684,-0.05850867,-1.7858815,0.14984123,2.196842,1.3212174,0.039999686,0.04,-1.4278058,6.1942338943481445,7.471877,0.0,-0.0,0.0
1323.4666666657918,0.027207278,-1.0018684,-0.05850867,-1.7858815,0.14984123,2.196842,1.3212174,0.039999686,0.04,-1.4278058,6.1942338943481445,7.471877,0.0,-0.0,0.0
1323.4833333324584,0.027207278,-1.0018684,-0.05850867,-1.7858815,0.14984123,2.196842,1.3212174,0.039999686,0.04,-1.4278058,6.1942338943481445,7.471877,0.0,-0.0,0.0
1323.499999999125,0.027207278,-1.0018684,-0.05850867,-1.7858815,0.14984123,2.196842,1.3212174,0.039999686,0.04,-1.4278058,6.1942338943481445,7.471877,0.0,-0.0,0.0
1323.5166666657917,0.027207278,-1.0018684,-0.05850867,-1.7858815,0.14984123,2.196842,1.3212174,0.039999686,0.04,-1.4278058,6.1942338943481445,7.471877,0.0,-0.0,0.0
1323.5333333324584,0.027207278,-1.0018684,-0.05850867,-1.7858815,0.14984123,2.196842,1.3212174,0.039999686,0.04,-1.4278058,6.1942338943481445,7.471877,0.0,-0.0,0.0
1323.549999999125,0.027207278,-1.0018684,-0.05850867,-1.7858815,0.14984123,2.196842,1.3212174,0.039999686,0.04,-1.4278058,6.1942338943481445,7.471877,0.0,-0.0,0.0
1323.5666666657917,0.027207278,-1.0018684,-0.05850867,-1.7858815,0.14984123,2.196842,1.3212174,0.039999686,0.04,-1.4278058,6.1942338943481445,7.471877,0.0,-0.0,0.0
1323.5833333324583,0.027207278,-1.0018684,-0.05850867,-1.7858815,0.14984123,2.196842,1.3212174,0.039999686,0.04,-1.4278058,6.1942338943481445,7.471877,0.0,-0.0,0.0
1323.599999999125,0.027207278,-1.0018684,-0.05850867,-1.7858815,0.14984123,2.196842,1.3212174,0.039999686,0.04,-1.4278058,6.1942338943481445,7.471877,0.0,-0.0,0.0
1323.6166666657916,0.027207278,-1.0018684,-0.05850867,-1.7858815,0.14984123,2.196842,1.3212174,0.039999686,0.04,-1.4278058,6.1942338943481445,7.471877,0.0,-0.0,0.0
1323.6333333324583,0.027207278,-1.0018684,-0.05850867,-1.7858815,0.14984123,2.196842,1.3212174,0.039999686,0.04,-1.4278058,6.1942338943481445,7.471877,0.0,-0.0,0.0
1323.649999999125,0.027207278,-1.0018684,-0.05850867,-1.7858815,0.14984123,2.196842,1.3212174,0.039999686,0.04,-1.4278058,6.1942338943481445,7.471877,0.0,-0.0,0.0
1323.6666666657916,0.027207278,-1.0018684,-0.05850867,-1.7858815,0.14984123,2.196842,1.3212174,0.039999686,0.04,-1.4278058,6.1942338943481445,7.471877,0.0,-0.0,0.0
1323.6833333324582,0.027207278,-1.0018684,-0.05850867,-1.7858815,0.14984123,2.196842,1.3212174,0.039999686,0.04,-1.4278058,6.1942338943481445,7.471877,0.0,-0.0,0.0
1323.6999999991249,0.027207278,-1.0018684,-0.05850867,-1.7858815,0.14984123,2.196842,1.3212174,0.039999686,0.04,-1.4278058,6.1942338943481445,7.471877,0.0,-0.0,0.0
1323.7166666657915,0.027207278,-1.0018684,-0.05850867,-1.7858815,0.14984123,2.196842,1.3212174,0.039999686,0.04,-1.4278058,6.1942338943481445,7.471877,0.0,-0.0,0.0
1323.7333333324582,0.027207278,-1.0018684,-0.05850867,-1.7858815,0.14984123,2.196842,1.3212174,0.039999686,0.04,-1.4278058,6.1942338943481445,7.471877,0.0,-0.0,0.0
1323.7499999991248,0.027207278,-1.0018684,-0.05850867,-1.7858815,0.14984123,2.196842,1.3212174,0.039999686,0.04,-1.4278058,6.1942338943481445,7.471877,0.0,-0.0,0.0
1323.7666666657915,0.027207278,-1.0018684,-0.05850867,-1.7858815,0.14984123,2.196842,1.3212174,0.039999686,0.04,-1.4278058,6.1942338943481445,7.471877,0.0,-0.0,0.0
1323.7833333324581,0.027207278,-1.0018684,-0.05850867,-1.7858815,0.14984123,2.196842,1.3212174,0.039999686,0.04,-1.4278058,6.1942338943481445,7.471877,0.0,-0.0,0.0
1323.7999999991248,0.027207278,-1.0018684,-0.05850867,-1.7858815,0.14984123,2.196842,1.3212174,0.039999686,0.04,-1.4278058,6.1942338943481445,7.471877,0.0,-0.0,0.0
1323.8166666657914,0.027207278,-1.0018684,-0.05850867,-1.7858815,0.14984123,2.196842,1.3212174,0.039999686,0.04,-1.4278058,6.1942338943481445,7.471877,0.0,-0.0,0.0
1323.833333332458,0.027207278,-1.0018684,-0.05850867,-1.7858815,0.14984123,2.196842,1.3212174,0.039999686,0.04,-1.4278058,6.1942338943481445,7.471877,0.0,-0.0,0.0
1323.8499999991247,0.027207278,-1.0018684,-0.05850867,-1.7858815,0.14984123,2.196842,1.3212174,0.039999686,0.04,-1.4278058,6.1942338943481445,7.471877,0.0,-0.0,0.0
1323.8666666657914,0.027207278,-1.0018684,-0.05850867,-1.7858815,0.14984123,2.196842,1.3212174,0.039999686,0.04,-1.4278058,6.1942338943481445,7.471877,0.0,-0.0,0.0
1323.883333332458,0.027207278,-1.0018684,-0.05850867,-1.7858815,0.14984123,2.196842,1.3212174,0.039999686,0.04,-1.4278058,6.1942338943481445,7.471877,0.0,-0.0,0.0
1323.8999999991247,0.027207278,-1.0018684,-0.05850867,-1.7858815,0.14984123,2.196842,1.3212174,0.039999686,0.04,-1.4278058,6.1942338943481445,7.471877,0.0,-0.0,0.0
1323.9166666657914,0.027207278,-1.0018684,-0.05850867,-1.7858815,0.14984123,2.196842,1.3212174,0.039999686,0.04,-1.4278058,6.1942338943481445,7.471877,0.0,-0.0,0.0
1323.933333332458,0.027207278,-1.0018684,-0.05850867,-1.7858815,0.14984123,2.196842,1.3212174,0.039999686,0.04,-1.4278058,6.1942338943481445,7.471877,0.0,-0.0,0.0
1323.9499999991247,0.027207278,-1.0018684,-0.05850867,-1.7858815,0.14984123,2.196842,1.3212174,0.039999686,0.04,-1.4278058,6.1942338943481445,7.471877,0.0,-0.0,0.0
1323.9666666657913,0.027207278,-1.0018684,-0.05850867,-1.7858815,0.14984123,2.196842,1.3212174,0.039999686,0.04,-1.4278058,6.1942338943481445,7.471877,0.0,-0.0,0.0
1323.983333332458,0.027207278,-1.0018684,-0.05850867,-1.7858815,0.14984123,2.196842,1.3212174,0.039999686,0.04,-1.4278058,6.1942338943481445,7.471877,0.0,-0.0,0.0
1323.9999999991246,0.027207278,-1.0018684,-0.05850867,-1.7858815,0.14984123,2.196842,1.3212174,0.039999686,0.04,-1.4278058,6.1942338943481445,7.471877,0.0,-0.0,0.0
