rsonawane2002/My_IMU/logs_2/traj_319/clean_319.csv
time,j1,j2,j3,j4,j5,j6,j7,gripper1,gripper2,imu_ax,imu_ay,imu_az,imu_gx,imu_gy,imu_gz,quat_x,quat_y,quat_z,quat_w
752.4333333329777,0.00016700293,-0.785875,4.0107683e-05,-2.3551247,9.29385e-05,1.570997,0.786,0.04,0.04,0.0,-0.0,0.0,2.875329272945135e-08,-0.0011641195053377316,4.421952117202833e-08,0.9999995971961153,0.00020320632366974898,0.0008736418299892524,3.263050917662294e-05
752.4499999996443,0.00016700511,-0.78576016,4.0104253e-05,-2.3552213,9.298225e-05,1.5709941,0.786,0.04,0.04,-0.29199845877336816,-2.8435477108943114e-05,0.020128410262354457,8.339178824426807e-07,-0.002239722165553403,9.842375330303783e-07,0.9999996850577151,0.00020321118865869914,0.0007665025159224563,3.2612522911629875e-05
752.466666666311,0.00016700222,-0.78565425,4.002883e-05,-2.35531,9.3079965e-05,1.5709913,0.786,0.04,0.04,0.023262858728934077,5.036677647910588e-05,-0.0016365619875280402,5.71049773663253e-06,-0.003234305832590357,7.216877026130828e-06,0.9999997558562922,0.0002032436612452788,0.0006677674262229839,3.265018263997433e-05
752.4833333329776,0.00016698311,-0.7855569,3.976346e-05,-2.355391,9.3334194e-05,1.5709884,0.786,0.04,0.039999995,0.02246076779965911,0.00012576171167668184,-0.0015248875310458487,1.876101511534804e-05,-0.004161275302564618,2.436584622013343e-05,0.9999998122406218,0.00020335102900436605,0.0005771385061734062,3.2836331067492846e-05
752.4999999996443,0.00016693042,-0.7854672,3.9139475e-05,-2.3554647,9.3867246e-05,1.5709856,0.786,0.04,0.039999995,0.02100008941501308,0.00025321667826874554,-0.001076770649044434,4.382556287603456e-05,-0.005028226676362715,5.524749480290266e-05,0.9999998566912931,0.00020360166266094633,0.0004940196674406983,3.329150397821023e-05
752.5166666663109,0.00016682071,-0.7853846,3.7941714e-05,-2.3555315,9.4836745e-05,1.5709858,0.786,0.04,0.04,0.020579309182755523,0.00041566099690630576,0.0013346959477633646,8.394678138801533e-05,-0.00584346945574397,0.00010385462510251702,0.9999998906203332,0.00020408346726525536,0.0004194539363829149,3.417096978048822e-05
752.5333333329776,0.00016662497,-0.78530854,3.5913512e-05,-2.3555918,9.645086e-05,1.5709864,0.786,0.04,0.04,0.018303920989892752,0.000596385191977604,-0.000606781824985525,0.00014248588938447555,-0.006603010625733996,0.00017471280182129365,0.9999999165729868,0.00020490174356926964,0.00035156369768551,3.566877092319576e-05
752.5499999996442,0.00016630947,-0.78523844,3.2761254e-05,-2.355649,9.8948265e-05,1.5709872,0.7860019,0.04,0.04,0.011933649673445679,0.0008032456274533015,-0.0018430037857841697,0.00022259968270134617,-0.00732995525361594,0.0002719194837016141,0.9999999362612105,0.00020713104422904582,0.00028832227873771795,3.800748375125015e-05
752.5666666663109,0.0001658364,-0.78517395,2.815815e-05,-2.3556995,0.00010257976,1.5709882,0.7860038,0.04,0.04,0.017578035452614493,0.001043899380380475,-0.0001228362637606395,0.000317654085921646,-0.00804512555577279,0.0003965345912996063,0.9999999503568289,0.00020995215120371574,0.00023127934716492474,4.14282223656898e-05
752.5833333329775,0.00016516403,-0.7851146,2.17479e-05,-2.3557434,0.00010762318,1.5709926,0.78600574,0.039999995,0.039999995,0.018108572270092438,0.0013037255600776144,0.002641019491100849,0.0004394851567499291,-0.008740539920953246,0.000551668796677647,0.9999999596017327,0.00021351213181037044,0.00018186532315109006,4.61963923669337e-05
752.5999999996442,0.00016424734,-0.7850597,1.3148372e-05,-2.355783,0.000114368064,1.5709974,0.78600955,0.03999999,0.03999999,0.012348377500726038,0.001589956090973754,-0.00035903607686904593,0.0005901708687984456,-0.009405390399235334,0.0007395859489677663,0.9999999652676532,0.00021892247689977588,0.00013701042650689107,5.259072666927533e-05
752.6166666663108,0.00016303848,-0.78500926,1.9541235e-06,-2.3558178,0.0001231395,1.5710056,0.78601336,0.039999988,0.039999988,0.014140783303107085,0.0018794908051119957,0.002168016281300922,0.0007631398770593539,-0.010074460710662512,0.0009622034446258541,0.9999999678912169,0.0002253970502501676,9.850273815110961e-05,6.0917529922473835e-05
752.6333333329775,0.00016148665,-0.7849626,-1.2260419e-05,-2.3558455,0.0001342692,1.5710142,0.7860187,0.039999984,0.039999984,0.016418759657454984,0.002191694086156143,0.00133620247146915,0.0009692318454383624,-0.010732212881013024,0.0012212373860851452,0.9999999679394569,0.00023388668252168513,6.562685657336688e-05,7.149280120085901e-05
752.6499999996441,0.0001595392,-0.7849195,-2.9938328e-05,-2.355869,0.00014810354,1.5710266,0.78602445,0.03999998,0.039999977,0.012049334236774456,0.0025157133022370454,0.002627665975407645,0.0012029878558921276,-0.011390209583927686,0.0015190364834683752,0.9999999659146295,0.00024397879876409846,3.847212878312912e-05,8.464621140743332e-05
752.6666666663108,0.00015714143,-0.78487957,-5.153793e-05,-2.3558881,0.00016499909,1.5710427,0.7860321,0.039999973,0.03999997,0.012360320692961224,0.0028526362762139844,0.00299142295834276,0.0014717185270609707,-0.012053850901292757,0.0018551715209660703,0.9999999618517741,0.00025663799129061355,1.7008596473520404e-05,0.00010071792019088065
752.6833333329774,0.00015423688,-0.78484267,-7.753053e-05,-2.3559005,0.00018532394,1.5710615,0.78604156,0.039999966,0.03999996,0.015572564055266191,0.0031986668669225582,0.003312916361641882,0.001770014708786042,-0.012725375241860293,0.002231599129657265,0.9999999557913432,0.0002720296070494205,1.7726012765823326e-06,0.00012005857932984498
752.6999999996441,0.00015076774,-0.78480834,-0.00010839862,-2.355908,0.0002094549,1.5710837,0.7860522,0.039999966,0.039999958,0.012398433558824529,0.0035531304168453658,0.0032805087400555877,0.00209977960534772,-0.013403278134148466,0.002650103252354008,0.9999999476821062,0.0002900258571831422,-8.010761993612757e-06,0.00014302662188645288
752.7166666663107,0.00014667507,-0.78477645,-0.00014463348,-2.3559105,0.00023777391,1.57111,0.7860647,0.039999966,0.039999958,0.012126218854446869,0.003915778454755708,0.0038642383043407946,0.002465023431707932,-0.014097695875050857,0.003109733796027458,0.9999999370785748,0.00031112850310696953,-1.2103174144225118e-05,0.00016998651084168832
752.7333333329774,0.00014189906,-0.7847467,-0.0001867343,-2.3559067,0.0002706708,1.5711409,0.7860792,0.039999966,0.039999958,0.01474664712282081,0.004283751814100825,0.005049287181968509,0.0028647322540825138,-0.014811933207180958,0.003611973142279244,0.9999999233456702,0.0003356935573485304,-9.640443827613564e-06,0.00020130958976418586
752.749999999644,0.00013637892,-0.7847189,-0.00023520575,-2.355896,0.00030853917,1.5711762,0.78609604,0.03999996,0.039999954,0.015256565118249021,0.004657101850722273,0.0053100927788873875,0.0032981008634914676,-0.015541163219567278,0.0041573083828364684,0.9999999055721622,0.00036401993546827986,-5.63018116072605e-07,0.00023737067314499383
752.7666666663107,0.0001300535,-0.7846927,-0.0002905574,-2.3558795,0.00035177663,1.5712157,0.7861151,0.03999996,0.03999995,0.012930795570897935,0.005033792578893722,0.004821525036824426,0.003766173654378575,-0.016288350102129916,0.00474695992320124,0.9999998825680311,0.0003963192024393165,1.4354236211754448e-05,0.00027854796673767594
752.7833333329773,0.00012286118,-0.7846682,-0.00035330147,-2.3558574,0.00040078184,1.5712616,0.7861366,0.039999958,0.039999947,0.013574545726480203,0.0054149128642587705,0.006331436690132364,0.004269391359915951,-0.017063027523548022,0.005379461137686512,0.9999998527643813,0.0004328938641071422,3.612460385248612e-05,0.000325221664696954
752.799999999644,0.00011474007,-0.7846451,-0.0004239528,-2.3558285,0.0004559565,1.571313,0.7861609,0.03999996,0.03999995,0.014603496062415289,0.005797972897623074,0.006305526967764763,0.00480813288598898,-0.01785899623090607,0.006055826072794424,0.9999998141643754,0.00047410687949168485,6.465869254220677e-05,0.0003777739204729811
752.8166666663107,0.00010562814,-0.78462315,-0.0005030268,-2.3557935,0.0005177028,1.5713707,0.7861881,0.039999966,0.03999995,0.013862574047873721,0.006182476889746711,0.006813421711227008,0.005381915116048772,-0.018681376602562756,0.006776961604476484,0.9999997643391827,0.0005202921452886025,0.00010004595927340002,0.0004365872979335867
752.8333333329773,9.546343e-05,-0.78460234,-0.0005910389,-2.3557513,0.0005864216,1.5714352,0.7862183,0.039999966,0.03999995,0.015571847202489053,0.0065698562465915725,0.0076286226118105205,0.0059904661133353895,-0.019533261651042962,0.007541118680454627,0.9999997003724679,0.0005716345594127831,0.0001429720133475159,0.0005020437314024206
752.849999999644,8.4184045e-05,-0.7845825,-0.0006885035,-2.3557014,0.000662514,1.5715069,0.7862518,0.03999997,0.039999954,0.016301967211140855,0.006957351329912095,0.008207856090391985,0.006634856282829511,-0.02041030674346231,0.008349048104220809,0.9999996186460557,0.0006285573449866755,0.00019376477588148777,0.0005745246894205815
752.8666666663106,7.172834e-05,-0.78456336,-0.00079593295,-2.3556445,0.00074638025,1.571586,0.78628886,0.039999973,0.039999954,0.015346077704392336,0.007343471607107184,0.008392461566097964,0.007313923809741453,-0.021311037098117266,0.009201420402741125,0.9999995150469868,0.0006913937602324172,0.00025224560115911506,0.0006544101285787641
752.8833333329773,5.8034937e-05,-0.78454494,-0.00091383734,-2.3555799,0.00083841686,1.5716728,0.7863295,0.039999977,0.039999958,0.016199871936106724,0.0077317550530242975,0.008691538082450379,0.008027019784134887,-0.022242957430076,0.010096261553518953,0.9999993848000818,0.0007603570021743687,0.000318712810668304,0.0007420773756911072
752.8999999996439,4.3042837e-05,-0.7845271,-0.0010427235,-2.3555071,0.0009390196,1.5717677,0.7863739,0.039999977,0.039999954,0.017036232132805473,0.00811886032783329,0.009323749083400834,0.008774842191886137,-0.023204703210786926,0.011034980165414258,0.9999992222676144,0.0008357487914113556,0.0003935839496158229,0.0008379020220546599
752.9166666663106,2.669178e-05,-0.7845097,-0.0011830938,-2.3554263,0.0010485795,1.5718707,0.7864222,0.039999977,0.039999954,0.016845786002139818,0.008504243196203062,0.009419958714063092,0.009557224944210164,-0.024194288592943255,0.012015484499815833,0.9999990212077645,0.0009178392130929974,0.00047677001653270544,0.0009422552962228492
752.9333333329772,8.921703e-06,-0.7844926,-0.0013354465,-2.3553364,0.0011674843,1.5719827,0.78647465,0.039999977,0.039999954,0.018646282555190297,0.008892482323406972,0.010619267893829942,0.010373998423850561,-0.025216940654697338,0.013038209193991549,0.9999987739671757,0.0010069870606844759,0.0005691654749397016,0.001055505503152287
752.9499999996439,-1.0326621e-05,-0.784476,-0.0015002753,-2.3552377,0.00129612,1.572104,0.78653145,0.039999977,0.03999995,0.018486480301960206,0.009275288117110213,0.010492775369974616,0.011224396694977793,-0.026267521230438573,0.014103553100848439,0.9999984723046355,0.001103489309108293,0.0006708006378854036,0.001178017930394104
752.9666666663105,-3.1111787e-05,-0.7844595,-0.0016780674,-2.3551302,0.0014348653,1.572235,0.7865926,0.03999998,0.039999954,0.018290961814360074,0.009658497302649756,0.011131650211604338,0.012107937759109266,-0.027346522913658224,0.015209282444877082,0.9999981070569417,0.0012075518560509682,0.0007817954200826761,0.0013101515062924059
752.9833333329772,-5.3491818e-05,-0.7844431,-0.001869305,-2.3550136,0.0015840969,1.5723755,0.7866584,0.039999977,0.039999947,0.01863252601608245,0.010039121841660973,0.011052083854901085,0.013025204421447315,-0.02845558527039957,0.016356581471744798,0.9999976679501621,0.0013195273964501579,0.0009021504434286552,0.0014522624642015305
752.9999999996438,-7.7523626e-05,-0.78442675,-0.002074463,-2.3548884,0.0017441837,1.5725266,0.7867291,0.039999977,0.039999947,0.018072232572441393,0.01041833155222805,0.01157316362623284,0.013975121392883927,-0.029599356032338917,0.017543106370839827,0.9999971434541707,0.0014397368960014116,0.0010320750481240728,0.001604700054301345
753.0166666663105,-0.000103263694,-0.78441036,-0.0022940107,-2.354753,0.0019154918,1.5726883,0.7868047,0.039999984,0.03999995,0.02086914964618547,0.010801412967525485,0.012553741273113594,0.014957158810740584,-0.030775698465739573,0.018769975907752236,0.9999965201743543,0.0015683799365198221,0.001172464311095446,0.0017678096605853123
753.0333333329771,-0.00013076737,-0.7843938,-0.0025284095,-2.3546073,0.0020983804,1.5728612,0.7868854,0.039999988,0.039999954,0.02086773548479748,0.011178491201647295,0.01287513725933831,0.015971014179048802,-0.031981657149998885,0.020034823080710633,0.9999957838696854,0.0017057727425236725,0.0013234383728908438,0.0019419302452937809
753.0499999996438,-0.0001600893,-0.78437686,-0.0027781134,-2.3544521,0.0022932042,1.5730451,0.7869714,0.039999988,0.03999995,0.019470972567070532,0.011548875896822764,0.012644002886696981,0.017016683101904018,-0.03321412977163597,0.021338707413435395,0.9999949198141029,0.0018521991205614388,0.001484551275225163,0.002127395570882593
753.0666666663104,-0.00019128305,-0.7843598,-0.00304357,-2.3542857,0.0025003105,1.5732408,0.7870627,0.039999988,0.03999995,0.022783877282428477,0.011931432945881462,0.013682196345099484,0.018093036384182658,-0.034483625479271834,0.02267924981112502,0.9999939096040594,0.002007851246533921,0.0016570561002870261,0.002324532908029736
753.0833333329771,-0.00022440136,-0.78434247,-0.003325219,-2.3541083,0.0027200428,1.5734481,0.78715974,0.039999988,0.039999947,0.022201993393555775,0.01230121448389152,0.013660724908670652,0.01920063470898783,-0.035779611356884636,0.024057246696276794,0.9999927348334009,0.0021731271077940163,0.0018407452717064848,0.002533664506898074
753.0999999996437,-0.0002594959,-0.7843248,-0.00362349,-2.3539205,0.0029527354,1.5736681,0.78726244,0.03999999,0.039999947,0.0217568308509275,0.012671394066300374,0.014228637945068456,0.020337460952621587,-0.03710418220950573,0.02547130923625157,0.9999913751973508,0.002348184203663311,0.002035918514592346,0.0027551039288296556
753.1166666663104,-0.00029661728,-0.7843066,-0.0039388067,-2.353721,0.0031987187,1.5739006,0.78737104,0.03999999,0.039999947,0.023366331896967907,0.013044860776380094,0.014643842324746359,0.021504343265789046,-0.03845924387740792,0.026919762549970513,0.9999898083620408,0.0025333255688974815,0.002242845528593924,0.0029891600067414145
753.133333332977,-0.00033581562,-0.78428817,-0.0042715836,-2.3535101,0.0034583155,1.574146,0.78748566,0.03999999,0.039999943,0.023235656525244508,0.01341147062411346,0.014615823661956462,0.02270011781970314,-0.039843249329965816,0.028403519271772922,0.9999880102696537,0.0027287921850115103,0.0024617962898211745,0.0032361349133431154
753.1499999996437,-0.00037713908,-0.7842692,-0.0046222256,-2.3532877,0.0037318429,1.5744046,0.7876065,0.039999995,0.039999943,0.023718592183907816,0.013777868669007601,0.015097562395860464,0.023924747108344087,-0.041255001381263076,0.0299209555239804,0.9999859552539831,0.002934851577661534,0.002692891806396689,0.0034963230278514893
753.1666666663103,-0.00042063565,-0.78424954,-0.0049911314,-2.353053,0.0040196073,1.5746766,0.78773344,0.04,0.039999947,0.024478523087312354,0.014151295783366036,0.01565258213023224,0.025177072426995756,-0.042696030005797095,0.031470356130100116,0.9999836155194455,0.0031516507578498902,0.0029364622679519093,0.003770010544741495
753.183333332977,-0.00046635166,-0.78422946,-0.005378689,-2.3528073,0.0043219132,1.574962,0.7878669,0.04,0.039999947,0.02318059138239903,0.014503958936862831,0.014944385084825207,0.026457890660769392,-0.04416474198320383,0.03305221681625222,0.9999809627784585,0.003379540066925008,0.003192122017150671,0.00405748033033112
753.1999999996436,-0.0005143329,-0.7842088,-0.0057852804,-2.352548,0.0046390584,1.5752615,0.78800684,0.04,0.039999947,0.027309004641851153,0.01489021576889472,0.01660620601149354,0.027765477048863285,-0.04566575330090769,0.03466559373478269,0.9999779614113041,0.0036186911487397643,0.0034613339275190932,0.004359006022547453
753.2166666663103,-0.0005646232,-0.7841874,-0.0062112724,-2.3522756,0.0049713287,1.5755756,0.7881535,0.04,0.039999943,0.02618987253926175,0.01524822954302443,0.016768559059099353,0.02909976117843807,-0.047188890783739536,0.036308874818317155,0.9999745777718247,0.0038693901210851743,0.0037439810184619004,0.004674851471968655
753.2333333329769,-0.0006172666,-0.7841653,-0.0066570304,-2.3519924,0.005319008,1.5759044,0.788307,0.039999995,0.039999932,0.023047275287635394,0.01559294831009403,0.015858930653500636,0.03046018512106606,-0.04873549721960366,0.03798224409355014,0.9999707798081611,0.004131832425097572,0.004039142190163543,0.005005279316576443
753.2499999996436,-0.0006723049,-0.7841426,-0.007122908,-2.351695,0.0056823706,1.5762478,0.78846747,0.04,0.039999932,0.028372644371543743,0.01598463947308339,0.01719343102430937,0.03184638395221159,-0.050316824169360674,0.039684694499922256,0.9999665235434602,0.004406268031724896,0.004348369786422019,0.0053505396587378695
753.2666666663102,-0.0007297793,-0.78411907,-0.007609243,-2.3513837,0.006061683,1.5766063,0.7886349,0.04,0.03999994,0.028336936856598882,0.016343869544198104,0.017522394766356086,0.03325720813170516,-0.05191891796852256,0.04141343089620686,0.9999617681328292,0.00469285458001285,0.004671756465432852,0.00571087384594156
753.2833333329769,-0.0007897298,-0.78409487,-0.0081163775,-2.3510592,0.0064572077,1.5769799,0.78880954,0.04,0.039999932,0.026997881529178258,0.01670070093217008,0.017047369680489588,0.03469314469962179,-0.053542786993586715,0.04317062130393396,0.9999564718645471,0.0049918688795310435,0.0050089771794961085,0.006086523548966943
753.2999999996435,-0.00085219566,-0.78406984,-0.00864463,-2.3507214,0.0068691983,1.5773692,0.78899133,0.04,0.039999932,0.027450442778853557,0.017060846745591777,0.01765522230312566,0.0361528459059752,-0.055193952489096906,0.04495311332319407,0.9999505884325727,0.005303433665582562,0.005360363541593368,0.0064777146748168585
753.3166666663102,-0.0009172143,-0.78404397,-0.009194322,-2.3503706,0.0072979005,1.5777744,0.78918064,0.04,0.039999932,0.0267299977034563,0.017420022097619416,0.017490029710920396,0.03763674366365479,-0.05686851549027461,0.046761175087198084,0.9999440705245215,0.005627879404755763,0.005725739393876374,0.006884671716918013
753.3333333329768,-0.0009848224,-0.7840173,-0.0097657535,-2.3500054,0.007743551,1.5781958,0.78937733,0.04,0.039999925,0.02981760606783901,0.017801236125308817,0.01840514889595024,0.03914293659932499,-0.05857128782707875,0.04859304114066461,0.9999368625731061,0.005965291729901551,0.006106152128245807,0.007307603452353438
753.3499999996435,-0.0010550556,-0.78398985,-0.010359228,-2.3496253,0.008206382,1.5786332,0.7895816,0.04,0.039999925,0.030141847892029006,0.01817010870182236,0.018314987287570972,0.040672346272683985,-0.0602927474395692,0.05044918835273929,0.9999289110763308,0.00631590505584554,0.006501575478637968,0.007746718874754375
753.3666666663102,-0.0011279488,-0.7839614,-0.010975035,-2.3492308,0.00868662,1.5790871,0.7897936,0.04,0.03999992,0.02986035187773073,0.018538086347346435,0.0186667420816633,0.042223940447941304,-0.06203412845575909,0.052327312189832255,0.9999201589513906,0.006679953444419759,0.0069121322613878945,0.008202217517660646
753.3833333329768,-0.0012035349,-0.7839322,-0.01161345,-2.3488216,0.009184484,1.5795578,0.7900134,0.04,0.039999917,0.030165505326240627,0.018893873699270952,0.018594354547696312,0.04379677798045688,-0.06379685015055607,0.05422797087915626,0.9999105467194535,0.007057573300224895,0.007337975938383944,0.008674291178152533
753.3999999996435,-0.0012818457,-0.78390193,-0.012274746,-2.3483975,0.00970018,1.580045,0.790241,0.04,0.039999917,0.030677992761529715,0.01927212317853408,0.018826162622231912,0.04539088800113247,-0.06557952760270612,0.05614846943862311,0.9999000125909044,0.007448961013361796,0.007779140464798522,0.009163120328770917
753.4166666663101,-0.0013629133,-0.7838708,-0.012959183,-2.3479586,0.010233911,1.5805494,0.7904767,0.04,0.039999917,0.030804640808779205,0.01964028092207356,0.01896191461328023,0.04700566819870166,-0.06738226691434412,0.05808913598744177,0.9998884895539188,0.00785434075759353,0.008235927819416495,0.009668882138060619
753.4333333329768,-0.0014467675,-0.7838386,-0.013667013,-2.3475046,0.010785878,1.5810713,0.7907205,0.04,0.039999906,0.031139460516937945,0.020010901290615397,0.019401990416878512,0.04864024728032638,-0.06920404790086489,0.060049234868770195,0.9998759085397315,0.008273904574381055,0.008708521138126183,0.010191745901820076
753.4499999996434,-0.001533437,-0.7838056,-0.014398475,-2.3470356,0.011356264,1.5816104,0.79097223,0.04,0.039999913,0.031405840456044665,0.020376662547862655,0.0190169288826203,0.050293736858531154,-0.07104425611089263,0.06202747238332347,0.9998622008765157,0.00870762789133099,0.009196927065430913,0.01073186877619216
753.4666666663101,-0.0016229498,-0.78377146,-0.015153802,-2.3465514,0.011945256,1.5821671,0.7912322,0.04,0.039999906,0.03164056631119738,0.02074840388335813,0.019396970885887654,0.05196756337043787,-0.07290351693087349,0.06402263014246101,0.9998472912460685,0.00915584565334762,0.00970123817889346,0.011289404593149838
753.4833333329767,-0.0017153326,-0.7837364,-0.015933223,-2.346052,0.012553026,1.5827415,0.79150045,0.04,0.0399999,0.032030767990964826,0.02112791788400105,0.019269197563165363,0.053660043024750886,-0.07478122535367063,0.06603461503504705,0.9998311023755773,0.009618651281197665,0.010221639020660436,0.011864500229674103
753.4999999996434,-0.0018106108,-0.7837003,-0.016736945,-2.345537,0.013179741,1.5833337,0.7917771,0.04,0.039999902,0.032405182770745,0.02149958663083488,0.019572236052867176,0.05537064111877792,-0.07667710627363913,0.068061735874476,0.9998135531074459,0.010096252416332224,0.01075828311108931,0.01245728920399503
753.51666666631,-0.0019088092,-0.78366315,-0.017565187,-2.3450058,0.01382556,1.5839442,0.7920622,0.04,0.0399999,0.0339063916645399,0.021915896862649206,0.020022913694073274,0.05709925579888659,-0.07859040162022127,0.070103940133566,0.9997945544145704,0.010588831436825605,0.011311741560506235,0.013067903988074815
753.5333333329767,-0.0020099515,-0.78362495,-0.018418133,-2.3444588,0.01449064,1.584573,0.79235566,0.04,0.039999895,0.03315742977363367,0.022265442424686428,0.019852686317878288,0.058844197675693495,-0.08051623977109806,0.0721598618830922,0.9997740243569503,0.01109637994748893,0.011881813134487867,0.013696462674951573
753.5499999996433,-0.0021140599,-0.78358567,-0.019295983,-2.3438945,0.015175123,1.5852202,0.79265773,0.04,0.039999884,0.03611492625554824,0.022709661364585937,0.020470344723100276,0.0606071001769963,-0.08245693830871392,0.0742291697766547,0.9997518622732382,0.0116191910441911,0.012469335829361666,0.014343080026448778
753.56666666631,-0.002221157,-0.7835453,-0.02019891,-2.3433146,0.015879156,1.5858858,0.7929685,0.04,0.039999887,0.03294666064768137,0.023024690244562163,0.01956029230667511,0.062385952059995115,-0.08440560715559273,0.07631029194765766,0.9997279873320348,0.012157402382488573,0.01307336159848992,0.01500786889815968
753.5833333329766,-0.0023312618,-0.783504,-0.021127086,-2.3427188,0.016602864,1.5865698,0.79328793,0.04,0.039999887,0.034039651937156634,0.02343023126108977,0.01968062905683965,0.06418037727853454,-0.08637094481161547,0.07840239335291,0.999702300922385,0.01271108981538333,0.013694254547309841,0.015690924720618008
753.5999999996433,-0.0024443932,-0.78346145,-0.022080675,-2.342107,0.017346373,1.5872726,0.7936162,0.04,0.039999887,0.03393028641152096,0.02382450562309242,0.02001623171770106,0.0659903934351071,-0.08835028107516582,0.08050530371819084,0.9996747037111242,0.013280451216858965,0.014332049292779333,0.01639233780221669
753.6166666663099,-0.0025605694,-0.7834178,-0.02305982,-2.3414786,0.018109802,1.5879941,0.7939531,0.04,0.039999887,0.03538657980179938,0.024219437562356463,0.01992783400395215,0.06781470305520208,-0.0903440254095357,0.08261774622188484,0.9996450908685462,0.013865521074384043,0.01498708085437038,0.01711218966749295
753.6333333329766,-0.0026798078,-0.7833731,-0.024064675,-2.340834,0.018893268,1.5887347,0.79429895,0.04,0.039999876,0.034881039945822145,0.02461430595334449,0.020051256736386414,0.06965429119373857,-0.09234939095210654,0.08473894266757329,0.9996133556214567,0.014466494543893732,0.015659413677358586,0.017850561954849686
753.6499999996432,-0.0028021254,-0.7833272,-0.025095372,-2.340172,0.019696878,1.5894946,0.7946538,0.04,0.03999988,0.036500007993045536,0.02504166365069338,0.02040313314559672,0.07150770365961306,-0.09436652856104696,0.08686817612926256,0.999579382612883,0.015083527281118782,0.016349470215190454,0.01860752223402614
753.6666666663099,-0.0029275361,-0.7832802,-0.02615204,-2.3394938,0.02052073,1.5902731,0.7950173,0.04,0.039999876,0.035292622631155623,0.025402262597780043,0.019594525592681045,0.07337407474265353,-0.09639114739515164,0.08900440222175682,0.999543072156045,0.015716559293862044,0.01705669353998954,0.019383133758523918
753.6833333329765,-0.0030560547,-0.7832321,-0.027234806,-2.3387992,0.021364903,1.5910711,0.79539025,0.04,0.039999872,0.03531183877223398,0.025824720706647125,0.019857693454783387,0.07525456802357507,-0.09842747477436602,0.09114691894228501,0.9995043003991374,0.016366046390270568,0.017781351272026097,0.020177451675647842
753.6999999996432,-0.0031876944,-0.78318304,-0.028343765,-2.3380876,0.022229496,1.5918885,0.7957719,0.04,0.039999872,0.03720977238050871,0.026242782034755982,0.02004956477981157,0.07714585274177022,-0.10047496282685976,0.09329417966831821,0.9994629460893364,0.017031713054340186,0.01852399318651032,0.02099051741346706
753.7166666663098,-0.0033224672,-0.7831325,-0.029479014,-2.3373585,0.023114596,1.5927249,0.7961625,0.04,0.03999987,0.03697600246868049,0.0266328614330541,0.01998238839755473,0.07905097243504398,-0.10252745617457579,0.0954465297351178,0.9994188936696681,0.017713761529602638,0.019284236294515453,0.021822370611512314
753.7333333329765,-0.0034603837,-0.783081,-0.030640658,-2.336613,0.02402026,1.593581,0.7965622,0.04,0.03999987,0.03631232367276027,0.02704378073780586,0.01964655604582699,0.08096828537161765,-0.10458895576295614,0.09760330172535919,0.999372014958317,0.01841237046983422,0.020062233950141627,0.022673047893145847
753.7499999996431,-0.003601454,-0.7830283,-0.031828783,-2.3358502,0.02494656,1.5944566,0.7969711,0.04,0.039999858,0.037363067406381845,0.027482498265887084,0.019849479951705717,0.08289673437259631,-0.10665903112893735,0.0997624337285212,0.9993221787582715,0.019127650618834327,0.020858170626128627,0.02354257296381369
753.7666666663098,-0.0037456886,-0.78297454,-0.03304346,-2.3350704,0.025893552,1.5953516,0.79738915,0.04,0.039999854,0.03758849706092526,0.027884277972607327,0.01953622797774557,0.08483591110266608,-0.10873421850016682,0.10192417417917046,0.99926925478019,0.01985967434210849,0.021672052551243843,0.024430962410130635
753.7833333329764,-0.0038930944,-0.7829196,-0.03428476,-2.334273,0.02686129,1.5962662,0.79781634,0.04,0.03999985,0.038039597165795414,0.02832577807263953,0.019633139684005485,0.08678537402671177,-0.11081555115396517,0.10408734521682814,0.9992131075100209,0.02060849039268785,0.02250400584881598,0.02533822457589529
753.7999999996431,-0.004043679,-0.7828633,-0.035552748,-2.3334594,0.027849823,1.5972005,0.7982527,0.04,0.039999854,0.03647719983868036,0.028703891773879456,0.01932968691908954,0.08874508443406715,-0.11290105140304453,0.10625137273361215,0.9991536091398988,0.021374207418154448,0.02335361886839389,0.02626436912834316
753.8166666663097,-0.0041974476,-0.78280616,-0.03684748,-2.3326283,0.028859187,1.5981544,0.7986982,0.04,0.039999854,0.03864999349527665,0.029173353080393094,0.019117906834420495,0.09071435142578804,-0.11499430598169645,0.10841423072898765,0.9990906082409311,0.022156855969824325,0.024221464459711205,0.02720939024906283
753.8333333329764,-0.0043544075,-0.7827475,-0.038168985,-2.33178,0.029889425,1.5991282,0.799153,0.04,0.03999985,0.03782667765737102,0.029578854366945143,0.019472279457466435,0.09269327665539037,-0.11709030634797062,0.1105772123887995,0.9990239657776095,0.022956601237100985,0.025107307900331274,0.0281732737113795
753.849999999643,-0.0045145587,-0.782688,-0.039517302,-2.3309143,0.03094056,1.6001221,0.799617,0.04,0.039999865,0.03916771158967158,0.030024634053300164,0.01907036521617833,0.09468083559293212,-0.11919107900806704,0.11273991564937302,0.9989535240263966,0.02377346792889123,0.02601166186619507,0.029156002895393284
753.8666666663097,-0.0046779085,-0.78262717,-0.040892463,-2.330032,0.03201262,1.6011354,0.8000902,0.04,0.039999858,0.036838967182761806,0.03037869645506619,0.018401340315099546,0.09667642950308969,-0.12129117503373378,0.11489898818957289,0.9988791619169147,0.024607491621773923,0.026933490503220425,0.03015755848140368
753.8833333329763,-0.004844459,-0.78256506,-0.0422945,-2.3291323,0.033105604,1.6021686,0.80057275,0.04,0.039999887,0.03934761058936864,0.030924314694205646,0.018956961544724926,0.09868029973758993,-0.12339938372584461,0.11705621310184378,0.9988007028316239,0.025458827205918813,0.027873690096763857,0.03117790148074291
753.899999999643,-0.005014209,-0.78250194,-0.043723416,-2.3282146,0.034219533,1.6032214,0.8010644,0.04,0.039999887,0.040094087096376185,0.03135195463261631,0.018529454426019498,0.10069140847116959,-0.12550846833008986,0.11920757902137977,0.9987179923284651,0.026327371056566302,0.028832389559219497,0.03221699310852855
753.9166666663097,-0.005187163,-0.78243744,-0.04517921,-2.3272803,0.035354424,1.6042941,0.80156523,0.04,0.039999895,0.03781006880267945,0.031698242224586365,0.01816556814071557,0.10271034620308285,-0.1276148410918584,0.1213554223553326,0.9986308910616115,0.02721327282783451,0.029808876424816014,0.033274796555047996
753.9333333329763,-0.005363318,-0.78237194,-0.046661902,-2.3263283,0.036510263,1.6053866,0.80207545,0.04,0.039999887,0.04005980845884771,0.032240688202378465,0.018191721884885936,0.1047360480536125,-0.12972587298313337,0.12349880190849553,0.9985392165330338,0.02811664377266971,0.030803868115170094,0.03435126049650668
753.949999999643,-0.0055426736,-0.78230506,-0.048171464,-2.325359,0.03768704,1.6064987,0.80259484,0.04,0.039999887,0.03884300094130211,0.032612487723648886,0.01775435501756295,0.10676727901700127,-0.13183270668976582,0.12563469411157546,0.9984428268306431,0.029037437320922493,0.03181677651519502,0.03544631879970061
753.9666666663096,-0.0057252264,-0.7822373,-0.049707882,-2.324373,0.038884755,1.607631,0.80312353,0.04,0.03999988,0.03933903511743608,0.03306236502910731,0.017572229885387536,0.10880479923516756,-0.1339429355652128,0.12776542564225643,0.9983415416538481,0.02997576039217898,0.03284802036495922,0.03655991733075383
753.9833333329763,-0.005910976,-0.78216803,-0.051271137,-2.3233693,0.040103372,1.6087828,0.80366147,0.04,0.03999988,0.039829531406621044,0.033553338576837455,0.017562672846827,0.11084741558374644,-0.13605009217009822,0.12988807942499134,0.9982352018887056,0.030931628049789196,0.03389736668590476,0.037691970340721755
753.9999999996429,-0.006099917,-0.7820979,-0.052861203,-2.3223488,0.04134288,1.6099541,0.8042085,0.04,0.03999989,0.03900488971488869,0.033919100824864046,0.01658721765460669,0.11289500301019607,-0.13815519779226604,0.1320019512022055,0.9981236448733114,0.031905011537442976,0.0349646424074642,0.03884241965853162
754.0166666663096,-0.006292044,-0.7820265,-0.054478027,-2.321311,0.04260324,1.6111454,0.8047648,0.04,0.039999884,0.04018549010873507,0.0344370894232407,0.017064762868579386,0.11494793503566413,-0.140261146348169,0.13410747289618324,0.9980066832182218,0.03289601267283463,0.03605023549867009,0.04001116247352923
754.0333333329762,-0.0064873546,-0.7819538,-0.056121577,-2.3202558,0.043884423,1.6123562,0.8053303,0.04,0.039999895,0.039998242740724166,0.034881187488756266,0.01667212613105651,0.11700467717560697,-0.14236160668917824,0.13620454225857867,0.997884151501945,0.03390463810192409,0.037153882266282724,0.041198115599675206
754.0499999996429,-0.006685837,-0.78188014,-0.05779179,-2.3191836,0.045186367,1.6135864,0.8059049,0.04,0.03999988,0.0397515020472472,0.035285562997196956,0.015886534082643067,0.11906510605303497,-0.14445943402148181,0.13829137519658005,0.9977558764087021,0.034930903305277275,0.0382754953235668,0.04240317846477776
754.0666666663095,-0.0068874895,-0.781805,-0.05948862,-2.3180945,0.046509054,1.6148366,0.80648875,0.04,0.039999872,0.039458788740853734,0.03576644030954812,0.016313055925887276,0.12112917334537238,-0.14655468979112085,0.1403675145210842,0.9976216784510584,0.035974862761221846,0.03941504724962034,0.043626253381589694
754.0833333329762,-0.0070923,-0.781729,-0.061211973,-2.3169882,0.04785242,1.616106,0.8070817,0.04,0.03999987,0.040557419908493486,0.0361760525037301,0.01528661030638645,0.12319557423500388,-0.14864604785403002,0.14243204402322285,0.9974813723846756,0.03703647439607083,0.04057268931010467,0.04486722848626708
754.0999999996428,-0.007300263,-0.7816516,-0.0629618,-2.315865,0.049216416,1.617395,0.8076837,0.04,0.03999987,0.039757474293944384,0.03665750069408863,0.015439947102446894,0.125264968762418,-0.15073039166192265,0.14448567733667922,0.997334784936737,0.03811575864383425,0.04174815644031425,0.04612599193548489
754.1166666663095,-0.0075113657,-0.78157324,-0.06473802,-2.3147254,0.05060096,1.6187038,0.8082947,0.04,0.039999865,0.03957284312838816,0.037086673648950574,0.014924832052432002,0.12733649156368282,-0.15281079300147993,0.14652598634086705,0.9971817295890758,0.039212699885834444,0.042941509609526335,0.04740241654027396
754.1333333329761,-0.0077256,-0.7814938,-0.06654054,-2.3135686,0.052006003,1.620032,0.80891484,0.04,0.03999987,0.040720670730154396,0.03756760921747662,0.014596536422151196,0.129409772026842,-0.15488487459459943,0.14855272346216536,0.9970220124582907,0.040327362831241984,0.04415283581632558,0.04869638148850607
754.1499999996428,-0.007942954,-0.78141314,-0.06836927,-2.3123944,0.05343146,1.6213791,0.809544,0.04,0.039999865,0.041052974250055385,0.03804520722460042,0.01429310443921139,0.1314839099520611,-0.15695154748121806,0.15056677494081916,0.996855447555947,0.04145972815117341,0.045382076515572245,0.050007746907833835
754.1666666663094,-0.008163416,-0.78133136,-0.07022408,-2.3112035,0.054877263,1.6227456,0.81018215,0.04,0.03999987,0.0401062133000174,0.038396890577452325,0.013866700162723511,0.1335582813931563,-0.15900924140268896,0.1525670586761832,0.9966818555971824,0.04260973958840806,0.046629024904820855,0.05133636968067531
754.1833333329761,-0.008386974,-0.7812482,-0.072104916,-2.3099961,0.056343306,1.6241311,0.8108293,0.04,0.039999858,0.039410648035831386,0.03889983028815547,0.013375423598693814,0.13563363346939245,-0.16105914351840447,0.15455207992247272,0.9965010610134223,0.043777455167596985,0.04789326182974313,0.052682115461325174
754.1999999996427,-0.008613614,-0.7811641,-0.07401163,-2.3087723,0.057829536,1.6255357,0.81148523,0.04,0.039999858,0.04012930734349496,0.039287922087427596,0.012960763924696472,0.13770863239161132,-0.16310382151958677,0.1565217701972806,0.9963128589488812,0.04496276787758908,0.04917511664851957,0.054044837870949484
754.2166666663094,-0.008843319,-0.78107876,-0.0759441,-2.307532,0.05933583,1.6269594,0.8121501,0.04,0.039999858,0.0398707170143453,0.03975280073876403,0.012752479010380569,0.13978328474903606,-0.165138333082552,0.15847512149075688,0.9961170622271618,0.04616574092698316,0.05047437505690397,0.055424364382518625
754.233333332976,-0.009076074,-0.78099245,-0.07790223,-2.3062754,0.06086211,1.6284019,0.8128238,0.04,0.039999854,0.04021498262436474,0.04019300672508941,0.011973968861234141,0.14185680003238604,-0.1671651057700716,0.16041271702050836,0.9959134788055596,0.047386273530515506,0.05179100901404528,0.05682055261616742
754.2499999996427,-0.009311865,-0.7809049,-0.079885855,-2.3050025,0.06240826,1.6298627,0.8135062,0.04,0.039999858,0.039440169758497845,0.040568520671140085,0.011506528146099093,0.14392911896474947,-0.16918182383257796,0.16233284188093966,0.9957019352236112,0.048624352395089325,0.05312456866350288,0.058233227202608
754.2666666663093,-0.009550674,-0.7808162,-0.08189487,-2.3037133,0.06397418,1.6313417,0.8141975,0.04,0.039999854,0.039658679016785214,0.04102699327865611,0.011004322865337812,0.14599988478460268,-0.17119087096039348,0.16423500786925305,0.9954822303212628,0.0498800260042209,0.05447504582523892,0.05966222844279646
754.283333332976,-0.00979249,-0.7807265,-0.083929084,-2.302408,0.065559775,1.6328398,0.8148971,0.04,0.039999843,0.04025465872876666,0.04149931068857665,0.011165826619707886,0.14806809112626557,-0.173192437013781,0.16611953987615474,0.9952541516946086,0.051153025697643816,0.055842926374892986,0.061107356926226555
754.2999999996426,-0.010037284,-0.7806357,-0.08598841,-2.3010862,0.067164905,1.634357,0.81560564,0.04,0.039999846,0.04072711511478033,0.04205745933496541,0.010924503937270735,0.15013493092979593,-0.17517910265088016,0.16798583303462783,0.9950174776387277,0.052443618918335225,0.057228277001858355,0.06256844523888254
754.3166666663093,-0.010285046,-0.78054374,-0.08807263,-2.2997487,0.06878941,1.6358924,0.8163225,0.04,0.03999985,0.03911925319477483,0.04229245818032357,0.00982179490938151,0.1521971418901657,-0.17714958995918384,0.16983207742657697,0.994772071085731,0.05375148204979155,0.058630274687608494,0.06404526255166706
754.3333333329759,-0.010535753,-0.7804507,-0.090181634,-2.2983956,0.07043325,1.637446,0.81704813,0.04,0.039999843,0.03896100088112142,0.042703322890752515,0.009299881536062315,0.15425661650274203,-0.17910984645373468,0.17165993836780935,0.9945177177164103,0.05507681765880951,0.06004884021829565,0.06553769978537614
754.3499999996426,-0.010789385,-0.78035665,-0.09231524,-2.2970269,0.07209624,1.6390183,0.8177816,0.04,0.03999985,0.03970287552004237,0.043229679181817915,0.009211710271772588,0.15631122907686834,-0.1810589144803021,0.17346740863083565,0.9942542228511644,0.05641915631991143,0.061484320417866424,0.06704548818175508
754.3666666663092,-0.011045921,-0.7802615,-0.09447328,-2.2956426,0.07377826,1.6406082,0.8185245,0.04,0.03999984,0.03894153030756797,0.04352938615801716,0.008131992913651409,0.15836358622700536,-0.18299311608848243,0.17525493350744886,0.993981380284792,0.05777918242886005,0.06293603297676202,0.06856848750074795
754.3833333329759,-0.01130534,-0.78016543,-0.096655525,-2.2942421,0.07547918,1.642216,0.8192751,0.04,0.039999846,0.040552448383701645,0.04401019127377587,0.00806009123783813,0.16040707131081583,-0.184916482352793,0.17702084199172247,0.9936990004892702,0.05915604744129863,0.06440455680406033,0.07010643009468433
754.3999999996425,-0.01156762,-0.78006816,-0.098861836,-2.292826,0.077198796,1.6438414,0.82003397,0.04,0.039999843,0.0394259876218328,0.04445697966447282,0.007504958779636084,0.1624474462092521,-0.186820949865117,0.17876575049131904,0.9934068952755203,0.060549999210915924,0.06588938761506924,0.07165910001054192
754.4166666663092,-0.011832736,-0.7799698,-0.101092,-2.2913945,0.078937024,1.6454842,0.820801,0.04,0.039999843,0.038732289773468764,0.044708719278527265,0.006713436734728795,0.16448198362304065,-0.18871062509077074,0.18048980566641087,0.993104883358842,0.06196092010684606,0.0673902213419611,0.07322631423071638
754.4333333329758,-0.012100671,-0.77987045,-0.10334587,-2.2899475,0.08069368,1.6471447,0.82157636,0.04,0.039999843,0.0394100959062893,0.045273198930698144,0.006498611619432104,0.16651051767686553,-0.19058600498233583,0.18219136768391392,0.9927927392649887,0.06338884788591095,0.06890730832236873,0.07480784508447817
754.4499999996425,-0.012371394,-0.77977014,-0.10562319,-2.2884855,0.08246864,1.6488222,0.82236,0.04,0.039999843,0.03848902709306934,0.04544875209245569,0.00549269799723362,0.16853176121853988,-0.19244456635260282,0.18386932661082023,0.992470295594288,0.06483369321175508,0.07044012994950788,0.0764034860474772
754.4666666663092,-0.012644886,-0.7796688,-0.1079238,-2.2870083,0.0842617,1.650517,0.8231515,0.04,0.039999843,0.03901687213994087,0.04600767986503301,0.005346429509911488,0.17054436280726976,-0.19428629761209254,0.1855253511404905,0.992137346386965,0.06629525393400515,0.07198889329621128,0.07801297617732471
754.4833333329758,-0.012921118,-0.7795665,-0.11024745,-2.2855172,0.08607272,1.6522287,0.82395077,0.04,0.03999983,0.03648479934570403,0.04607964859051211,0.0042136731689845774,0.1725499080859369,-0.1961102160348443,0.18715809454318635,0.9917937601916383,0.06777333565271758,0.07355273125330579,0.07963609699510703
754.4999999996425,-0.013200065,-0.7794631,-0.112593934,-2.2840116,0.08790154,1.6539572,0.82475793,0.04,0.03999983,0.03756494150222167,0.04657590997399902,0.004048969314229822,0.17454870870717265,-0.19792192782796847,0.18876691144274238,0.9914393147394598,0.06926800161422228,0.07513182764015702,0.08127261295647067
754.5166666663091,-0.0134817,-0.7793586,-0.11496304,-2.2824912,0.08974797,1.6557022,0.8255731,0.04,0.039999843,0.037977541366895906,0.046973994489800386,0.0033971046925485027,0.17653879097255265,-0.19971689321625316,0.19035160127464287,0.9910738115921571,0.07077920395266347,0.07672613359701726,0.08292228100621393
754.5333333329758,-0.013765995,-0.7792533,-0.117354535,-2.280956,0.09161184,1.6574639,0.8263958,0.04,0.039999843,0.03842757629661797,0.04738382636175209,0.0029444094958197553,0.178518778732862,-0.20149466090128096,0.19191154756478518,0.9906970475969104,0.07230666806141177,0.07833588493899862,0.08458483769237635
754.5499999996424,-0.0140529275,-0.77914697,-0.119768195,-2.2794073,0.09349298,1.6592417,0.82722616,0.04,0.03999983,0.03590254682990235,0.04747464700083637,0.0018851698939892358,0.18048963647979308,-0.20325102309612525,0.1934481602986799,0.9903088973627231,0.07385034847985032,0.0799600824255184,0.08626006638147428
754.5666666663091,-0.014342465,-0.77903974,-0.12220377,-2.2778442,0.09539121,1.6610357,0.828064,0.04,0.039999846,0.03742309253205178,0.047950311234387644,0.0016349442311991425,0.18245079918658896,-0.2049918559451725,0.19495916038767014,0.9899091333948516,0.07541010166641031,0.0815991861500016,0.08794769472688328
754.5833333329757,-0.014634579,-0.7789314,-0.124661036,-2.2762668,0.09730633,1.6628458,0.8289094,0.04,0.039999854,0.03718397246350591,0.04835277096268131,0.0013475463249257302,0.1844019848599668,-0.20671265471474318,0.19644241002749896,0.9894975679092232,0.07698587097110164,0.08325305748575532,0.0896474605988747
754.5999999996424,-0.014929237,-0.7788223,-0.12713972,-2.2746751,0.099238165,1.6646715,0.82976216,0.04,0.03999985,0.037427577975668314,0.04854635195356838,9.769977586948642e-05,0.1863412890794776,-0.20841246053545182,0.19790140954425564,0.9890740270625169,0.07857745172610225,0.08492153146548728,0.09135910772399236
754.616666666309,-0.015226419,-0.7787119,-0.12963963,-2.2730708,0.10118649,1.6665128,0.8306221,0.04,0.03999986,0.033810294800673546,0.04870657488853791,-0.00030079708683850015,0.18826944513404412,-0.210089154318563,0.19933472789296466,0.9886384125385198,0.0801847138557152,0.08660353059045794,0.09308237967768261
754.6333333329757,-0.0155260805,-0.7786011,-0.13216048,-2.271453,0.103151135,1.6683694,0.83148926,0.04,0.039999854,0.03647001606670308,0.04909112400189042,-0.0014087844455001886,0.19018662188360097,-0.21175271061357642,0.20074217399564748,0.9881904705036544,0.08180755008560801,0.08829976581145504,0.09481703492727007
754.6499999996423,-0.0158282,-0.77848923,-0.13470198,-2.2698216,0.10513186,1.6702417,0.8323633,0.04,0.039999865,0.03548340076604539,0.04941245034202624,-0.0011402174950214672,0.19209146975213262,-0.21339293636977757,0.20212197219794176,0.9877300498553161,0.08344570100003036,0.09001002513958165,0.0965627204038926
754.666666666309,-0.016132742,-0.77837634,-0.1372639,-2.268177,0.1071285,1.6721289,0.83324444,0.04,0.039999872,0.03521730111972765,0.049614984384088734,-0.0022198093241554417,0.19398440200108177,-0.21500922723587604,0.2034732510929344,0.9872569859109694,0.08509916296247905,0.0917338892784214,0.0983192239133709
754.6833333329756,-0.016439678,-0.77826273,-0.139846,-2.2665195,0.109140836,1.6740309,0.83413255,0.04,0.039999872,0.034677622013123965,0.04987820542740051,-0.0031319111170491354,0.1958633607966655,-0.2166059545497683,0.2048009169913402,0.9867711107506065,0.0867677786757526,0.09347118909201503,0.10008628468184208
754.6999999996423,-0.016748974,-0.778148,-0.14244792,-2.2648492,0.11116863,1.6759475,0.8350276,0.04,0.03999986,0.03413076074485488,0.05002698190733623,-0.0033708440177138144,0.1977285312094746,-0.2181795073763967,0.20609943025247024,0.9862722777442827,0.08845139250783941,0.09522163383581558,0.10186356446819533
754.7166666663089,-0.0170606,-0.7780329,-0.14506944,-2.2631667,0.1132117,1.6778785,0.83592933,0.04,0.03999986,0.03363107142932975,0.05014384396696547,-0.004860321193511652,0.19957947002460258,-0.21973137279483335,0.20736981577376962,0.9857603247113219,0.09014977925611332,0.09698505553281801,0.10365084914461253
754.7333333329756,-0.017374514,-0.7779165,-0.14771026,-2.2614713,0.11526982,1.6798236,0.83683777,0.04,0.03999987,0.033694881326296056,0.05054289039476689,-0.004529794494700923,0.20141616670269438,-0.2212608259101682,0.20861076319234,0.9852350970218197,0.09186283254317784,0.0987612538609362,0.10544779907312161
754.7499999996422,-0.01769069,-0.7777996,-0.15037017,-2.2597644,0.11734276,1.6817825,0.8377525,0.04,0.03999986,0.03191167516076732,0.05047297106129389,-0.006315934947043189,0.20323745426573944,-0.22276802543716054,0.20982570173658444,0.9846964861032252,0.09359022690988406,0.1005496837371241,0.10725418771908904
754.7666666663089,-0.018009089,-0.7776819,-0.15304881,-2.258045,0.11943031,1.6837555,0.83867395,0.04,0.039999858,0.033813220952394474,0.05100057304939232,-0.005944980637373476,0.20504437123653563,-0.22425604249909378,0.21101313399363325,0.984144242998912,0.09533203697944638,0.1023509466860135,0.10906968144229973
754.7833333329755,-0.018329676,-0.777563,-0.15574588,-2.2563145,0.12153223,1.685742,0.8396016,0.04,0.03999985,0.030033291373854354,0.0506916663365331,-0.007003898863477964,0.20683405916382436,-0.22571521415003054,0.2121711195369808,0.9835783621411123,0.0970878901997984,0.10416367712293191,0.11089398303149087
754.7999999996422,-0.018652413,-0.7774437,-0.15846114,-2.2545717,0.12364828,1.6877418,0.84053546,0.04,0.039999846,0.03347650204723607,0.0512832234813021,-0.007999096903854586,0.20860864746896982,-0.22715710557268265,0.21329851622652524,0.9829985729389636,0.09885764670332099,0.10598884450659052,0.11272682080321467
754.8166666663088,-0.018977277,-0.77732354,-0.16119426,-2.2528172,0.12577823,1.689755,0.8414756,0.04,0.03999985,0.0316070444221328,0.05135135578340222,-0.008090186215148343,0.21036607632415277,-0.22857036185334956,0.21439818601502697,0.9824047628105991,0.10064122194651234,0.10782591360437989,0.11456787860279177
754.8333333329755,-0.019304223,-0.7772024,-0.16394496,-2.251052,0.12792186,1.6917809,0.84242177,0.04,0.039999843,0.02944881922277709,0.051168872264806264,-0.009205902815656586,0.21210480369701118,-0.22995730472755688,0.2154691379705174,0.9817968767414342,0.10243833800798674,0.10967400758296612,0.11641688789697974
754.8499999996421,-0.019633213,-0.7770811,-0.16671291,-2.249275,0.13007896,1.6938194,0.8433739,0.04,0.03999983,0.031886955312998566,0.05149550473585174,-0.010230088730134312,0.21382536362104596,-0.2313237377282427,0.21651258151068323,0.9811746897689293,0.1042487622927103,0.11153380275198108,0.11827355816481296
754.8666666663088,-0.019964207,-0.77695847,-0.16949782,-2.2474875,0.13224924,1.6958705,0.84433174,0.04,0.039999846,0.02848087844644631,0.05144472276659706,-0.010102410788914717,0.21552812892105538,-0.23266012705658703,0.21752374737153235,0.9805381742261668,0.10607231953199416,0.11340424537645402,0.12013754219607926
754.8833333329754,-0.020297173,-0.77683526,-0.17229933,-2.2456896,0.13443245,1.697934,0.8452953,0.04,0.039999843,0.02911469244533116,0.05148302924855852,-0.011274582648290732,0.21721334219956812,-0.23397391426053732,0.2185035197598631,0.9798871658448132,0.1079088005748478,0.11528550334886312,0.12200854760514322
754.8999999996421,-0.020632075,-0.77671164,-0.17511709,-2.2438807,0.13662839,1.7000093,0.8462645,0.04,0.039999843,0.029862234759381323,0.051548295669751054,-0.012208778623268302,0.218877979427116,-0.23526363695287794,0.21945800403332347,0.9792215271134779,0.10975794067884977,0.11717757747324958,0.12388628105237043
754.9166666663087,-0.020968871,-0.77658707,-0.1779509,-2.2420623,0.13883676,1.7020966,0.8472392,0.04,0.039999835,0.02656903809321598,0.051528514429804995,-0.012495102890364151,0.22052366662664313,-0.2365237604395513,0.22038016916958372,0.978541218036725,0.11161965660354232,0.1190795188897704,0.12577044582846517
754.9333333329754,-0.021307526,-0.7764618,-0.18080041,-2.2402334,0.14105734,1.7041951,0.84821916,0.04,0.039999835,0.02823825944835434,0.05166741171387934,-0.013382859821531312,0.22214899192861834,-0.23776069462317692,0.2212729028092853,0.9778460913287214,0.11349357862558579,0.12099160486977602,0.1276607254990192
754.949999999642,-0.021647993,-0.776336,-0.18366523,-2.238394,0.14328983,1.706305,0.8492045,0.04,0.039999843,0.028438005440900582,0.05171578630406293,-0.01408741484545395,0.22375411393727074,-0.23897066570764453,0.22213454619216053,0.9771360025972436,0.11537957023681504,0.1229139026025766,0.1295567819423269
754.9666666663087,-0.02199024,-0.7762096,-0.18654507,-2.236546,0.14553407,1.7084259,0.8501951,0.04,0.03999983,0.024510317993620134,0.05120037426281643,-0.014995578862042613,0.22533783328511775,-0.24014927856783763,0.22296584102739175,0.9764109628747166,0.11727746654333912,0.12484516804985225,0.13145840191425187
754.9833333329753,-0.022334222,-0.77608234,-0.18943962,-2.2346885,0.1477897,1.7105576,0.85119045,0.04,0.03999983,0.025837362346425863,0.05155708942772286,-0.015265546066434155,0.2268999896307804,-0.24130693712774276,0.22376631111826317,0.9756708539737556,0.11918681432061576,0.12678572468006505,0.1333651679246729
754.999999999642,-0.022679903,-0.7759546,-0.19234851,-2.2328207,0.1500565,1.7126999,0.8521909,0.04,0.03999983,0.027367648517007126,0.051664936014958474,-0.01609418107724192,0.22844069279700913,-0.24243874358975137,0.22453967370688263,0.9749154859402582,0.12110759036191207,0.1287359153182218,0.13527679378881372
755.0166666663087,-0.023027243,-0.7758266,-0.19527133,-2.2309446,0.15233421,1.7148527,0.8531962,0.04,0.03999983,0.023971419093316015,0.05102698379525761,-0.01711116834004489,0.22995830924271932,-0.2435344597609876,0.22527859093147745,0.9741448776366388,0.12303945513688823,0.13069479988010999,0.13719299959623893
755.0333333329753,-0.023376202,-0.7756974,-0.19820789,-2.22906,0.15462261,1.7170155,0.8542061,0.04,0.039999828,0.02300367876384435,0.05119377726147123,-0.01717992495764431,0.23145313162794973,-0.24460524221940033,0.22598880275969463,0.9733589928380498,0.1249822026847715,0.13266183074088483,0.13911347432163676
755.049999999642,-0.023726732,-0.77556807,-0.20115775,-2.2271664,0.15692134,1.7191877,0.8552206,0.04,0.03999983,0.02420704442456234,0.05100237075512659,-0.018794049972692406,0.2329244830599101,-0.2456521520409677,0.22667110550981112,0.9725577070223096,0.12693553830542662,0.13463724826302656,0.14103789209563222
755.0666666663086,-0.0240788,-0.77543825,-0.20412058,-2.2252653,0.15923019,1.7213696,0.85623956,0.04,0.039999828,0.02165893642076533,0.050665327997947984,-0.01905100889902922,0.23437257269108075,-0.24666857855812607,0.22731928993255085,0.9717410091199732,0.1288992225649743,0.13662040734567651,0.14296596068065623
755.0833333329753,-0.024432357,-0.7753078,-0.20709604,-2.223356,0.16154884,1.7235606,0.8572628,0.04,0.039999824,0.021866667559455877,0.050652839322654075,-0.01968049368612501,0.2357972217496113,-0.24765935069946782,0.2279370379879128,0.9709088417027112,0.13087298779371923,0.13861112780286627,0.144897334063336
755.0999999996419,-0.02478736,-0.7751765,-0.21008378,-2.2214386,0.16387706,1.7257608,0.8582901,0.04,0.039999817,0.021695062043658453,0.05060738738991155,-0.019909412138519045,0.23719800258025756,-0.24862242285041355,0.22852334469460173,0.9700611217052013,0.1328565539787071,0.14060944033779108,0.14683167747064224
755.1166666663086,-0.025143782,-0.775045,-0.21308343,-2.2195137,0.16621457,1.72797,0.8593219,0.04,0.03999982,0.021107342276804886,0.05026612068556591,-0.021072456393822492,0.23857403010686762,-0.249555208823131,0.22907915525157374,0.9691977597836836,0.134849909892422,0.1426150855433326,0.1487687521214141
755.1333333329752,-0.025501562,-0.77491325,-0.2160947,-2.217581,0.16856107,1.7301874,0.8603575,0.04,0.03999982,0.020739575274353328,0.0500864498622966,-0.02209291668349156,0.23992191482511144,-0.2504584516663226,0.22960455464111457,0.9683187682431992,0.1368524793349255,0.14462777663800486,0.1507082220471221
755.1499999996419,-0.025860665,-0.77478063,-0.2191172,-2.215641,0.1709163,1.7324134,0.8613969,0.04,0.03999982,0.019432613949188493,0.049920636065503565,-0.021746432942593152,0.24124503003343117,-0.25133077885793303,0.23009823431689835,0.967424119884987,0.1388641073476642,0.14664718046660472,0.15264971803606386
755.1666666663085,-0.026221042,-0.7746475,-0.22215052,-2.2136943,0.17327994,1.7346476,0.86244017,0.04,0.039999813,0.018232261437400865,0.049440414243945296,-0.022805585504248604,0.2425417392538689,-0.252174256351136,0.2305621257246728,0.9665137983772155,0.1408845995815076,0.14867288412357058,0.15459295156502054
755.1833333329752,-0.02658266,-0.7745141,-0.2251943,-2.2117407,0.17565177,1.7368895,0.8634869,0.04,0.039999813,0.01860074782280563,0.04913265411821133,-0.02384002515638528,0.2438111371448739,-0.25298850498121683,0.23099447763402142,0.965587776407953,0.14291348616740152,0.1507048452822579,0.15653763487249864
755.1999999996418,-0.026945477,-0.7743804,-0.2282482,-2.2097805,0.17803149,1.7391381,0.8645371,0.04,0.039999805,0.017500523535529666,0.04867986208369479,-0.024754840646146192,0.24505389058405985,-0.25377109344120513,0.23139608522145705,0.9646460853052918,0.14495054418387157,0.15274245765097477,0.15848347382839453
755.2166666663085,-0.02730944,-0.7742465,-0.23131189,-2.207813,0.18041879,1.741394,0.8655907,0.04,0.0399998,0.018565397042102916,0.048851447633813105,-0.02499862808078568,0.24626936692071238,-0.2545251549170555,0.23176740765823645,0.9636886012229479,0.14699552077236655,0.15478621144196514,0.16043012651388805
755.2333333329751,-0.027674507,-0.7741116,-0.23438494,-2.2058403,0.18281338,1.7436575,0.86664754,0.04,0.0399998,0.013970571860166814,0.048001697482019656,-0.0247048614891332,0.2474568664286388,-0.2552441818146528,0.23210794293487805,0.9627154720107545,0.14904826576931574,0.15683483148328597,0.16237724611496243
755.2499999996418,-0.028040634,-0.7739765,-0.237467,-2.2038624,0.18521504,1.7459273,0.86770743,0.04,0.039999798,0.01424568992449693,0.047425014564350665,-0.026425817436281918,0.24861521907927503,-0.2559374050752716,0.23241777466911118,0.961726701741232,0.1511083233354394,0.15888814318631744,0.1643246291080193
755.2666666663084,-0.028407777,-0.7738412,-0.24055777,-2.2018783,0.18762341,1.7482032,0.86877036,0.04,0.039999805,0.015611274253712892,0.047472532433839865,-0.027118945199466893,0.2497461892444626,-0.2566024212332736,0.23269544593974376,0.960722226877378,0.15317544777800934,0.16094636372715337,0.16627192482432207
755.2833333329751,-0.028775891,-0.7737057,-0.2436568,-2.1998882,0.19003819,1.7504851,0.8698361,0.04,0.039999805,0.015052775620771897,0.047041888182380864,-0.02747207017612663,0.25084728732823824,-0.2572348174080546,0.23294246307592026,0.9597020550171785,0.15524929298310014,0.16300940162890404,0.16821877898926374
755.2999999996417,-0.029144935,-0.77357,-0.24676372,-2.1978936,0.1924591,1.7527729,0.87090456,0.04,0.0399998,0.012103692725284887,0.046245593594962386,-0.027981370665108862,0.25191986070618,-0.2578325672115015,0.23315650709504276,0.9586662883963342,0.15732964102277613,0.16507642075523646,0.17016494015713435
755.3166666663084,-0.029514862,-0.7734338,-0.24987812,-2.1958942,0.19488585,1.7550663,0.87197554,0.04,0.0399998,0.011802600595256507,0.045811964203418265,-0.028394886417348886,0.2529604983455747,-0.25840280782136693,0.23334641509882242,0.9576149836440059,0.1594161226128642,0.16714716168214874,0.17211004994820098
755.333333332975,-0.029885624,-0.773297,-0.25299972,-2.193891,0.19731818,1.7573651,0.87304896,0.04,0.039999805,0.009694734536758176,0.04525338803639811,-0.02871923422556044,0.25397427398019956,-0.2589417573295629,0.233498478500677,0.9565482063975141,0.16150855336775494,0.16922105505323898,0.17405387256083232
755.3499999996417,-0.030257175,-0.7731601,-0.25612804,-2.191883,0.19975574,1.7596688,0.87412477,0.04,0.03999979,0.011548808015104939,0.044909534949344465,-0.029796189238728843,0.25495509850124115,-0.25945594824735296,0.23362671201754248,0.955465920606477,0.16360653834820485,0.1712984632984518,0.1759960557538819
755.3666666663083,-0.03062947,-0.77302307,-0.25926274,-2.1898699,0.20219834,1.7619771,0.8752027,0.04,0.039999798,0.012057354527605924,0.04458065511492859,-0.030343991577019835,0.2559071167012679,-0.2599332923915327,0.23371679913391236,0.9543681311855119,0.1657097153034881,0.17337942091842032,0.1779363280319775
755.383333332975,-0.03100247,-0.772886,-0.2624034,-2.187854,0.20464554,1.76429,0.8762827,0.04,0.039999794,0.007142131622117631,0.043337477831312254,-0.030782709807564146,0.2568263345443661,-0.26037672003059886,0.233781226689934,0.953255066282777,0.16781784354906745,0.1754626809005032,0.17987439396414168
755.3999999996416,-0.03137612,-0.77274865,-0.26554972,-2.1858337,0.20709714,1.766607,0.8773647,0.04,0.039999787,0.009972506458622021,0.043504106021957645,-0.031163634828490494,0.25771323523833245,-0.2607946359860009,0.23381928171958882,0.9521266340342919,0.1699306671025727,0.17754881729418764,0.18180995192243898
755.4166666663083,-0.03175039,-0.77261126,-0.26870134,-2.183811,0.20955282,1.7689278,0.8784485,0.04,0.039999776,0.005792639432922186,0.04221191128654378,-0.03197675492734309,0.2585698980248277,-0.26117404383006665,0.23381941730681935,0.9509830786730356,0.17204784588771288,0.17963660345549504,0.18374279170058969
755.4333333329749,-0.032125212,-0.77247345,-0.27185777,-2.1817846,0.21201229,1.7712522,0.87953377,0.04,0.03999978,0.007277669215666194,0.04193109551275942,-0.031950824807491784,0.2593935475552815,-0.2615277922841138,0.2337923983512524,0.9498244201535421,0.17416895197365798,0.18172637086253304,0.18567248902709965
755.4499999996416,-0.032500558,-0.7723351,-0.27501866,-2.1797554,0.21447521,1.7735796,0.8806208,0.04,0.039999776,0.005332066866436946,0.04116496761268906,-0.03242072189213463,0.26018587108644436,-0.26184878178355536,0.23373552760091948,0.9486507860386107,0.17629388275278154,0.18381741157960532,0.1875988066391911
755.4666666663082,-0.03287637,-0.7721967,-0.27818364,-2.1777241,0.21694127,1.7759103,0.8817091,0.04,0.03999977,0.00446325775698142,0.04042848090247131,-0.03309357470340224,0.26094491523050367,-0.26214138829433986,0.2336472586415993,0.9474622662107897,0.17842218215379024,0.18590964698882617,0.1895214557212041
755.4833333329749,-0.033252615,-0.77205825,-0.28135234,-2.1756902,0.2194102,1.7782434,0.88279873,0.04,0.03999977,0.004764251258704277,0.039883446321953286,-0.03375275073116413,0.26167083613376263,-0.2624036216175498,0.2335306210309376,0.9462589326772253,0.1805535654416144,0.188002921113315,0.19144018383751066
755.4999999996415,-0.033629227,-0.7719199,-0.28452426,-2.1736538,0.22188167,1.780579,0.8838895,0.04,0.03999976,0.004296053026919822,0.03900715273625899,-0.0342110278336305,0.2623616789776505,-0.2626364349847533,0.233388699993274,0.9450408939989161,0.182687630267632,0.19009710740172805,0.19335466938872217
755.5166666663082,-0.034006175,-0.77178156,-0.28769916,-2.1716158,0.22435538,1.7829168,0.8849813,0.04,0.039999753,0.002513205808263308,0.0384112299092243,-0.03444305240218881,0.2630204747553665,-0.26283363614460387,0.23321258265659395,0.9438082867722096,0.18482416959454018,0.19219170713126615,0.19526467131502437
755.5333333329748,-0.03438342,-0.77164304,-0.29087657,-2.1695762,0.22683108,1.7852564,0.8860739,0.04,0.03999974,0.001854169895221247,0.03751937642131331,-0.03471761068469803,0.2636451872284426,-0.2629992148457936,0.23300781534097006,0.9425612687491263,0.18696280812716562,0.19428637629169465,0.19716989379386482
755.5499999996415,-0.03476088,-0.7715047,-0.29405615,-2.1675348,0.22930841,1.7875975,0.8871672,0.04,0.03999974,0.0019500241917214112,0.03690715299765612,-0.035417910814183884,0.26423775569887553,-0.2631296698580917,0.23276638153334056,0.9412999168611149,0.18910320336397382,0.19638113038517543,0.19907007967894713
755.5666666663082,-0.03513856,-0.7713662,-0.2972375,-2.1654925,0.23178706,1.7899401,0.88826114,0.04,0.03999974,-0.00010482161538760693,0.036022189562873175,-0.035318273033957404,0.2647926096992509,-0.2632328183425011,0.23250663708440092,0.9400244348334424,0.1912451150165483,0.19847535990046222,0.20096492084629203
755.5833333329748,-0.035516374,-0.7712276,-0.30042017,-2.1634488,0.23426679,1.7922835,0.88935554,0.04,0.039999727,0.00043308557899912614,0.03523032580036167,-0.03591424846116631,0.26531514201508094,-0.26329987236460467,0.2322091276466098,0.9387349308856322,0.19338814623769524,0.20056903284305755,0.20285417790692803
755.5999999996415,-0.035894286,-0.7710891,-0.3036037,-2.1614044,0.23674724,1.7946278,0.8904504,0.04,0.039999735,-0.000942828340200208,0.034210494035674666,-0.0361578629785253,0.26579952639054605,-0.2633391597502852,0.23189192890144888,0.937431570340667,0.19553203059304972,0.20266180560376623,0.20473756003774912
755.6166666663081,-0.036272243,-0.77095056,-0.30678785,-2.1593597,0.23922814,1.7969724,0.8915453,0.04,0.039999735,-0.002373347778705792,0.033347470042405236,-0.03649290185137044,0.26624880294940134,-0.2633435675640916,0.23154361452965241,0.9361145794842188,0.1976763270349251,0.20475319439459366,0.2066148426233586
755.6333333329748,-0.03665023,-0.7708122,-0.3099722,-2.157315,0.24170917,1.7993172,0.89264023,0.04,0.03999974,-0.002865990309075528,0.032587631354535906,-0.03687049964899991,0.2666668945756904,-0.2633136999487785,0.23115874509352122,0.9347840777847122,0.19982081727997156,0.20684306084420068,0.20848577189427497
755.6499999996414,-0.037028167,-0.7706739,-0.31315634,-2.1552703,0.24419002,1.8016617,0.8937352,0.04,0.039999727,-0.0036068785274512294,0.031586655788101714,-0.0370825930236629,0.2670443271384514,-0.26325735862576316,0.23075664351875733,0.933440275714901,0.20196517309516207,0.20893099443742066,0.21035008935895777
755.6666666663081,-0.03740602,-0.7705354,-0.31633988,-2.153226,0.24667038,1.8040059,0.8948297,0.04,0.039999723,-0.004408261067379016,0.03080224519951824,-0.03705310518049565,0.2673882108952067,-0.26316728229257136,0.23032111792568438,0.9320833685620281,0.2041089858769963,0.21101682288358534,0.2122074843035567
755.6833333329747,-0.037783735,-0.77039695,-0.3195224,-2.1511827,0.24915001,1.8063489,0.89592403,0.04,0.039999727,-0.0065685132473181085,0.02932159023388281,-0.03750597683547241,0.2676970928574681,-0.2630467856379065,0.2298574017781847,0.9307136160688408,0.20625205977447744,0.2130997291519829,0.21405783830123834
755.6999999996414,-0.038161263,-0.7702584,-0.32270354,-2.1491406,0.25162855,1.8086911,0.8970178,0.04,0.039999723,-0.006734774040850766,0.028694969494036382,-0.03739298945022451,0.26797029440019793,-0.26289698022295904,0.22936531125586948,0.929331178291871,0.20839399269719502,0.21517979861635486,0.21590080854362045
755.716666666308,-0.03853856,-0.77012014,-0.32588288,-2.1470995,0.25410566,1.8110323,0.8981109,0.04,0.03999972,-0.006241881588797682,0.027955150390857053,-0.03789133276264067,0.26820800712317233,-0.2627187540511559,0.2288438445016306,0.9279361713390071,0.210534487383434,0.21725713092338222,0.21773614905623728
755.7333333329747,-0.038915586,-0.7699821,-0.32906005,-2.1450596,0.25658107,1.8133714,0.8992033,0.04,0.039999727,-0.007368150848652277,0.026699298998877907,-0.03835535847329652,0.26841047429054216,-0.26250280071106524,0.22829035641764567,0.9265288890710152,0.2126731412801653,0.2193311375946068,0.21956366907189578
755.7499999996413,-0.039292295,-0.76984435,-0.3322347,-2.1430213,0.2590545,1.8157089,0.9002949,0.04,0.039999723,-0.008177364643424667,0.02592967935955981,-0.03823259368596066,0.26857499993757017,-0.26225959387381403,0.22771542397391886,0.9251094633950928,0.21480978330865755,0.22140174411043115,0.22138316430250493
755.766666666308,-0.039668635,-0.76970685,-0.33540645,-2.1409845,0.26152557,1.8180441,0.90138537,0.04,0.039999716,-0.00833985612449517,0.02499961557227426,-0.0384803690999469,0.2687010185545912,-0.2619836124074028,0.2271135853505864,0.9236781613880753,0.21694394024202407,0.2234687522337676,0.22319430490514885
755.7833333329746,-0.040044557,-0.76956946,-0.33857483,-2.13895,0.26399398,1.820377,0.9024745,0.04,0.03999972,-0.01041070360159324,0.023667443810920785,-0.0381986485510577,0.2687912934564278,-0.2616755171958257,0.22648455970624123,0.9222352756459158,0.21907531057805385,0.22553162256070805,0.22499687081060776
755.7999999996413,-0.040420037,-0.76943237,-0.34173948,-2.1369183,0.26645952,1.822707,0.9035627,0.04,0.039999712,-0.011092512931787368,0.022506753964435244,-0.0385924503246482,0.2688409675370129,-0.2613395775827409,0.22583713419943194,0.9207809945015893,0.22120377357809934,0.22758996815077107,0.22679077828828081
755.8166666663079,-0.040795013,-0.76929545,-0.34490004,-2.134889,0.26892185,1.8250341,0.90464944,0.04,0.039999712,-0.011065000920318369,0.021777963176017323,-0.038504200488809204,0.26885972621559096,-0.2609673070224764,0.22514720479144817,0.9193155569058153,0.22332884947319298,0.2296438138368479,0.22857569991229948
755.8333333329746,-0.041169446,-0.76915884,-0.34805608,-2.1328623,0.27138063,1.8273576,0.9057346,0.04,0.03999971,-0.012267208500205129,0.020385806962008868,-0.038741005368514436,0.26883410955815445,-0.2605713153986364,0.22444631093086823,0.9178392711538789,0.2254501970005481,0.2316926723308151,0.23035144147223383
755.8499999996412,-0.041543268,-0.7690224,-0.3512071,-2.1308384,0.27383563,1.8296776,0.906818,0.04,0.039999712,-0.012093792556200356,0.01940780500558903,-0.03850077351710279,0.2687746834443913,-0.26014158181227276,0.22371289449196433,0.9163523466925958,0.2275674345288145,0.23373659373693084,0.2321177377995984
755.8666666663079,-0.04191645,-0.7688862,-0.3543529,-2.1288188,0.27628648,1.8319938,0.9078996,0.04,0.03999971,-0.01538470969180139,0.01804834263231525,-0.038318340525789196,0.2686783753415174,-0.25967776057501046,0.22295371902638528,0.9148551269646291,0.22968046047220683,0.2357747009770796,0.23387448155576104
755.8833333329745,-0.042288944,-0.7687503,-0.3574931,-2.126802,0.27873284,1.834306,0.90897924,0.04,0.039999705,-0.01303652975290781,0.01774369138148879,-0.03865632378636796,0.2685453442556091,-0.25918805435995823,0.22216651045779215,0.9133477311072438,0.231788845174901,0.23780754898653786,0.23562135509913137
755.8999999996412,-0.04266071,-0.7686147,-0.36062732,-2.1247897,0.2811745,1.8366137,0.9100569,0.04,0.039999705,-0.016477396861747096,0.015791585784019624,-0.03841199665863826,0.26837341720899466,-0.25866403768769247,0.22135651018521327,0.9118305777149444,0.23389237924873718,0.23983406822977965,0.23735832024546588
755.9166666663078,-0.04303168,-0.76847935,-0.36375517,-2.122781,0.2836112,1.8389167,0.9111324,0.04,0.039999705,-0.014989512013618977,0.015210495902107102,-0.0383729516252318,0.2681679917974791,-0.2581074343715367,0.2205113250053699,0.910303818590544,0.23599070897758623,0.24185462534045488,0.23908509643463394
755.9333333329745,-0.04340184,-0.7683442,-0.36687607,-2.1207767,0.28604254,1.8412144,0.91220534,0.04,0.0399997,-0.016735430837933052,0.01348665466435195,-0.038264335815485495,0.2679197057933852,-0.2575242097688697,0.21964950976476721,0.9087679087760021,0.2380833198842412,0.24386861283512157,0.24080141288136955
755.9499999996411,-0.043771148,-0.76820946,-0.36998978,-2.1187773,0.28846833,1.843507,0.9132761,0.04,0.039999697,-0.017972681202493845,0.012459520489238596,-0.03803917665357037,0.2676317119552923,-0.2569175627384366,0.21877291277668237,0.9072230271898809,0.24017023250327965,0.24587572890332318,0.24250724585465266
755.9666666663078,-0.044139527,-0.76807505,-0.37309602,-2.116782,0.29088822,1.8457941,0.9143441,0.04,0.039999686,-0.016628114275496486,0.01186019287680029,-0.03821692065688609,0.26731335357714575,-0.25626984038756373,0.21785296515564623,0.9056694183758096,0.24225092007866705,0.24787624578401318,0.24420229957124734
755.9833333329744,-0.044506952,-0.7679409,-0.37619424,-2.114792,0.29330197,1.8480754,0.91540927,0.04,0.039999686,-0.01953716814009354,0.009953759919401062,-0.037546333245686014,0.26694833231347365,-0.25560231677750855,0.2169275403821764,0.9041075161721116,0.2443251326050052,0.24986934290574242,0.24588643771972032
755.9999999996411,-0.044873364,-0.7678071,-0.3792843,-2.112808,0.29570904,1.8503507,0.9164717,0.04,0.039999682,-0.02013500952529057,0.009260174314351666,-0.037636796899453984,0.26655551956935686,-0.2548942010835737,0.2159588952487503,0.9025375754549403,0.24639273026096215,0.2518548389112488,0.24755946252053393
756.0166666663077,-0.045238726,-0.7676737,-0.3823655,-2.1108289,0.29810947,1.8526193,0.91753113,0.04,0.03999968,-0.019304002782272178,0.007561687074497669,-0.037530373115668425,0.26611932895278423,-0.25416423808773003,0.21497568675747925,0.9009599317141074,0.24845313776186467,0.2538326543410974,0.24922123379067798
756.0333333329744,-0.045603003,-0.76754117,-0.3854377,-2.1088557,0.3005028,1.8548812,0.9185875,0.04,0.039999686,-0.02037359783479964,0.006649456700558165,-0.03782577285194044,0.2656469781445692,-0.2534043280890297,0.21397004440452122,0.8993748112046048,0.25050620168946225,0.25580266034538485,0.25087166210240586
756.049999999641,-0.045966145,-0.7674093,-0.38850054,-2.1068888,0.3028888,1.8571359,0.9196405,0.04,0.039999686,-0.021530626014065746,0.00534361987358789,-0.0372984105429186,0.265136275325756,-0.25261421209132806,0.21294037044873032,0.8977826228313258,0.252551548141043,0.2577644084238438,0.2525105689343988
756.0666666663077,-0.04632811,-0.76727796,-0.39155355,-2.1049283,0.3052672,1.859384,0.9206901,0.04,0.039999682,-0.021978647407649987,0.004288941672014879,-0.03646281742561985,0.26458930202466363,-0.2517954617066542,0.2118871950388375,0.8961836013521174,0.2545890374222925,0.2597178930170431,0.2541377396978411
756.0833333329743,-0.046688847,-0.767147,-0.39459628,-2.1029742,0.30763757,1.8616244,0.92173636,0.04,0.039999682,-0.022664771139879747,0.0028030618222540937,-0.03638680973407915,0.26400348815571645,-0.2509465792148152,0.21081214210558497,0.8945781881978232,0.2566183099017676,0.26166262824499803,0.2557529612805695
756.099999999641,-0.047048323,-0.76701635,-0.3976286,-2.1010268,0.30999976,1.863857,0.922779,0.04,0.039999694,-0.02341750854228941,0.0019914198216453016,-0.03594663825261524,0.26338050659635837,-0.2500699684333913,0.20971522497767214,0.8929666505723471,0.2586391962030039,0.26359840447826227,0.25735618956920814
756.1166666663077,-0.047406495,-0.7668861,-0.40065002,-2.099086,0.31235346,1.8660816,0.92381793,0.04,0.039999686,-0.02347448396946561,0.0006019096757015063,-0.03576146642294553,0.26272030449574396,-0.24916547985796889,0.20859428349591919,0.891349340173621,0.26065130423364297,0.2655251137439948,0.25894722501813
756.1333333329743,-0.047763325,-0.7667561,-0.40366015,-2.0971527,0.31469834,1.8682978,0.92485285,0.04,0.039999686,-0.02521045643564257,-0.0008468642383352432,-0.035042550792319105,0.2620220993654258,-0.24823198915359704,0.2074523413787892,0.8897267007129548,0.26265434939601984,0.267442236097904,0.26052589340168564
756.149999999641,-0.048118744,-0.7666273,-0.4066586,-2.0952268,0.31703424,1.8705055,0.9258839,0.04,0.039999675,-0.024087983117748735,-0.0021671775121467896,-0.03573570130190884,0.2612873353462646,-0.247273918446712,0.20628979889939908,0.8880988869766687,0.2646480077590222,0.26935006141614937,0.26209224207347165
756.1666666663076,-0.048472732,-0.7664992,-0.40964514,-2.0933087,0.3193608,1.8727043,0.92691064,0.04,0.039999675,-0.025838588084337033,-0.00314600744495408,-0.03479586736423457,0.26051622226917637,-0.24628303807389484,0.20510474727849173,0.8864663580339758,0.26663203201074603,0.27124807981079874,0.26364604070373254
756.1833333329743,-0.048825253,-0.7663714,-0.41261935,-2.0913985,0.32167768,1.8748938,0.92793316,0.04,0.039999668,-0.026631438799418206,-0.004502657415517142,-0.033974709692174976,0.25970872180744065,-0.24526687109972553,0.2038992093072199,0.8848295253767822,0.26860622910042237,0.2731358647932837,0.26518711143940366
756.1999999996409,-0.04917624,-0.7662442,-0.41558093,-2.0894964,0.32398462,1.8770741,0.92895126,0.04,0.039999664,-0.026742477807006892,-0.005507171039798031,-0.03366233964554599,0.2588652477604669,-0.24422320945717219,0.20267173174170955,0.883188663547253,0.2705703357166668,0.27501347393859077,0.2667153298256692
756.2166666663076,-0.049525667,-0.7661174,-0.41852945,-2.0876021,0.32628152,1.8792447,0.929965,0.04,0.039999653,-0.026617542079643286,-0.006871337037761549,-0.033322114004485925,0.2579845681809956,-0.24315272727575776,0.20142501308004626,0.8815440977926491,0.272524104489228,0.27688071197330816,0.26823066091788017
756.2333333329742,-0.049873497,-0.7659911,-0.42146462,-2.0857167,0.32856804,1.8814055,0.93097407,0.04,0.03999964,-0.02841808991527195,-0.008215539931555327,-0.03255235667340983,0.25706709950636053,-0.24205458312544814,0.20015730945990862,0.879896268074444,0.27446725940896644,0.2787371609627971,0.26973297173240995
756.2499999996409,-0.05021968,-0.7658659,-0.42438608,-2.0838397,0.33084387,1.8835564,0.9319784,0.04,0.039999638,-0.026759238917906103,-0.00909855163551132,-0.03296334767943776,0.25611370421178953,-0.2409317356618102,0.19886957546698125,0.87824534516076,0.27639948882023124,0.28058327811105443,0.27122216046596764
756.2666666663075,-0.05056419,-0.76574135,-0.42729357,-2.0819721,0.33310875,1.8856969,0.93297774,0.04,0.03999964,-0.029916589692735585,-0.010746064896727248,-0.03162264210727628,0.2551234677981288,-0.23977628278444246,0.1975635881983427,0.8765919226850231,0.2783205965827175,0.2824180741845038,0.2726981444292036
756.2833333329742,-0.05090697,-0.76561755,-0.4301867,-2.080114,0.33536234,1.8878268,0.9339725,0.04,0.03999964,-0.029361467688771015,-0.011818442048106004,-0.031393334330309663,0.2540988102293234,-0.23859753218682092,0.1962368020418482,0.8749362416417622,0.2802305102811403,0.2842415695559716,0.2741608365644472
756.2999999996408,-0.051247995,-0.7654941,-0.43306494,-2.0782647,0.33760443,1.8899459,0.93496203,0.04,0.039999645,-0.029464902129783255,-0.013114637426236975,-0.030377792015268135,0.25303643085416316,-0.23739427628699464,0.19489119036301722,0.8732787666068033,0.2821287556933757,0.2860536629572428,0.27560998333397163
756.3166666663075,-0.051587205,-0.7653711,-0.4359283,-2.0764248,0.33983475,1.8920538,0.93594635,0.04,0.03999965,-0.030041165462035835,-0.013842798345198304,-0.029995489993628333,0.25193909833487016,-0.23616326149580102,0.19352722794677163,0.8716198002294865,0.2840152352387559,0.2878541690150641,0.2770455691413074
756.3333333329741,-0.05192458,-0.7652493,-0.43877614,-2.0745952,0.34205303,1.8941506,0.9369254,0.04,0.03999965,-0.030638499043833534,-0.015839733771416675,-0.02997320489006583,0.25080584807866046,-0.23490771290590962,0.19214560186656443,0.8699597102784552,0.2858895959007108,0.28964294451086287,0.27846760339944715
756.3499999996408,-0.052260086,-0.76512825,-0.44160837,-2.0727758,0.34425905,1.8962356,0.9378991,0.04,0.039999638,-0.031662808605803505,-0.016755282511937697,-0.028997376096695504,0.2496378587572617,-0.23362575769840105,0.19074640841868307,0.868298929740566,0.28775172598377996,0.2914195065899409,0.27987601537755724
756.3666666663074,-0.052593667,-0.7650079,-0.44442445,-2.0709662,0.3464525,1.8983089,0.9388672,0.04,0.039999634,-0.030588167831835378,-0.017814468235566316,-0.028360711861163956,0.2484351035912265,-0.23231981478578778,0.18932761068755688,0.8666377710367886,0.28960126468781044,0.2931841641291571,0.2812705587285927
756.3833333329741,-0.052925292,-0.76488805,-0.4472242,-2.069168,0.34863338,1.9003701,0.9398297,0.04,0.039999623,-0.03406660910805215,-0.019627871803074015,-0.026988858889742673,0.24719788497549416,-0.23098769435656297,0.1878936700152982,0.8649767606633916,0.29143819281276384,0.29493586911429404,0.2826514043695738
756.3999999996407,-0.05325492,-0.76476884,-0.45000732,-2.06738,0.35080108,1.902419,0.94078654,0.04,0.039999627,-0.03143808770231793,-0.019923226991780396,-0.027195992567952132,0.2459278365519011,-0.22963484463620237,0.18643937781404873,0.8633161182467367,0.2932622141375193,0.29667522617568576,0.2840182457310656
756.4166666663074,-0.05358252,-0.764651,-0.45277348,-2.0656033,0.35295573,1.9044552,0.9417375,0.04,0.039999627,-0.03306355787877635,-0.021942818946651954,-0.026881389599875405,0.24462230724940676,-0.22825693097992028,0.18497028074136623,0.8616562405651302,0.2950730057908996,0.29840181046274333,0.28537134379829965
756.433333332974,-0.05390806,-0.7645339,-0.4555224,-2.0638375,0.3550968,1.906479,0.94268245,0.04,0.039999623,-0.03291060534613699,-0.022341158412264583,-0.025544939115995646,0.24328473094362035,-0.2268543113418635,0.18348252496913087,0.8599974733688648,0.2968705207968334,0.3001156781011089,0.28671034065568174
756.4499999996407,-0.054231502,-0.76441723,-0.4582536,-2.062083,0.3572241,1.9084897,0.94362134,0.04,0.039999638,-0.033843209123141094,-0.024069261929149377,-0.024573098908886593,0.24191241999063046,-0.22542625773776043,0.1819796399271473,0.8583403390275883,0.2986544734149847,0.301816315816071,0.28803520516498793
756.4666666663073,-0.05455281,-0.7643013,-0.4609668,-2.0603395,0.35933736,1.9104872,0.9445541,0.04,0.039999627,-0.03308290565815497,-0.024930262658262592,-0.02428309752218194,0.24050719534121767,-0.22397809856014778,0.18046100416416438,0.8566851205645861,0.3004246485917523,0.30350390509824277,0.2893458385943707
756.483333332974,-0.05487193,-0.7641868,-0.46366203,-2.058608,0.3614365,1.912471,0.9454806,0.04,0.039999627,-0.03452396101439881,-0.02621017363466649,-0.024226812527716746,0.2390696699332776,-0.22250532106714738,0.17892767806406992,0.8550321516494365,0.302180900708536,0.3051780677804904,0.2906425120977308
756.4999999996406,-0.05518886,-0.76407284,-0.46633863,-2.0568876,0.3635212,1.9144413,0.9464006,0.04,0.039999638,-0.033205216593534814,-0.027073579113279234,-0.0226746990411808,0.23759908149893125,-0.2210083837234657,0.17737799362206533,0.8533818349824488,0.3039229425494667,0.3068390238508793,0.2919248227819991
756.5166666663073,-0.05550354,-0.7639596,-0.46899632,-2.05518,0.36559126,1.9163977,0.9473144,0.04,0.039999627,-0.03654221454150175,-0.029178019683384626,-0.02146578938539978,0.23609652435905043,-0.2194879125040251,0.17581543700184954,0.8517347099384794,0.30565079726580346,0.3084857534812718,0.2931929636193286
756.5333333329739,-0.055815943,-0.7638473,-0.47163504,-2.053485,0.36764646,1.9183402,0.9482215,0.04,0.03999963,-0.035273932519697127,-0.029347149770519998,-0.02130088419209919,0.23456282123860522,-0.21794936276215335,0.17423659229632613,0.8500909827749106,0.3073642065042507,0.31011872978979393,0.29444683560596047
756.5499999996406,-0.05612603,-0.76373607,-0.4742543,-2.051802,0.3696865,1.9202683,0.9491219,0.04,0.039999627,-0.034769951938828925,-0.03084531679525826,-0.020809455802717203,0.23299774819963626,-0.216388315619169,0.17264223436960918,0.8484510812438171,0.3090628354395245,0.31173787122762686,0.2956863644619867
756.5666666663072,-0.056433775,-0.7636256,-0.476854,-2.0501316,0.37171122,1.9221824,0.95001537,0.04,0.039999638,-0.03568913802487472,-0.031405272397944106,-0.019438144124106493,0.23140166504356452,-0.21480264697780088,0.17103549204881688,0.846815318207319,0.3107466977716912,0.3133430823532487,0.29691146730092993
756.5833333329739,-0.05673915,-0.7635158,-0.47943366,-2.048474,0.37372047,1.9240817,0.9509023,0.04,0.039999638,-0.03659191615672519,-0.03325167903442949,-0.01846587715377268,0.2297742147905097,-0.21319655354166828,0.16941559506350024,0.845184190086755,0.31241569438982114,0.3149337158543119,0.2981222456384584
756.5999999996405,-0.05704212,-0.76340735,-0.48199314,-2.0468292,0.3757139,1.925966,0.95178217,0.04,0.039999627,-0.03502139598561271,-0.033815843251172595,-0.01889352746553552,0.22811668781468375,-0.21157083994929507,0.16778091697128597,0.8435579128457663,0.3140694249127314,0.3165103321741932,0.2993186489967884
756.6166666663072,-0.05734264,-0.7632998,-0.4845322,-2.045198,0.37769136,1.9278353,0.9526548,0.04,0.039999638,-0.03736719610376582,-0.035127957760616724,-0.017058771754574487,0.22642919533032985,-0.2099226133887855,0.1661347074684555,0.8419370446377318,0.3157078238417281,0.31807225223483726,0.30050062427565855
756.6333333329738,-0.057640687,-0.76319283,-0.4870505,-2.04358,0.37965256,1.9296892,0.95352054,0.04,0.03999963,-0.037425483589803576,-0.03625619730120988,-0.015960896544031655,0.22471342145879988,-0.2082555438805092,0.16447611148726837,0.8403219582299776,0.3173309195273149,0.3196191816633286,0.30166815002805436
756.6499999996405,-0.05793624,-0.763087,-0.4895478,-2.0419755,0.38159758,1.9315276,0.954379,0.04,0.03999963,-0.03632788837868439,-0.0371320714014578,-0.015850351308466237,0.22296794491987515,-0.20657065728348076,0.16280406244598705,0.8387128569982016,0.31893837323092245,0.32115152428452115,0.3028213269181276
756.6666666663072,-0.058229256,-0.7629822,-0.4920239,-2.0403843,0.383526,1.9333502,0.9552301,0.04,0.039999645,-0.0365879692703075,-0.038012708299561826,-0.01513920745805919,0.22119486859677587,-0.20486540695844063,0.16111916884375338,0.8371101772714301,0.3205300279109507,0.32266907892784413,0.30396005957996647
756.6833333329738,-0.05851973,-0.7628783,-0.49447846,-2.0388064,0.38543764,1.9351571,0.95607376,0.04,0.03999965,-0.036510503076447876,-0.038867164139244625,-0.014028885844608041,0.21939328522105478,-0.20313958089938428,0.1594236367725092,0.8355142424784647,0.3221057946486886,0.324171857708343,0.30508427415928185
756.6999999996405,-0.0588076,-0.7627751,-0.49691132,-2.0372431,0.3873323,1.936948,0.95690995,0.04,0.039999656,-0.038881198740226,-0.040339608782657965,-0.012488016890577214,0.21756337975535706,-0.20139215745445743,0.15771865985387473,0.8339255762874862,0.323665666188306,0.32565913846816286,0.3061940484017251
756.7166666663071,-0.05909286,-0.76267344,-0.4993222,-2.0356941,0.3892098,1.9387227,0.9577386,0.04,0.039999656,-0.037303514936226634,-0.04112882921776251,-0.01278058200990806,0.21570662772917748,-0.1996313307808455,0.15600170408815028,0.8323443542902305,0.32520936973664616,0.327131359998182,0.3072894645483514
756.7333333329738,-0.059375476,-0.7625725,-0.5017109,-2.034159,0.39107004,1.940481,0.95855945,0.04,0.039999668,-0.037361703762783804,-0.04191103938759877,-0.011353156906790396,0.21382369944955348,-0.19785022147588616,0.15427290242538108,0.8307710292297041,0.32673678304109705,0.3285882887448072,0.30837040730318543
756.7499999996404,-0.059655417,-0.7624724,-0.5040768,-2.032638,0.3929128,1.9422227,0.9593728,0.04,0.039999675,-0.03777104525268804,-0.04349071541128735,-0.010025705443239552,0.21191429790488858,-0.1960506182608247,0.15253501008703257,0.8292059786673053,0.3282478290924122,0.33002973777736033,0.3094368753415175
756.7666666663071,-0.05993265,-0.76237375,-0.50642043,-2.0311317,0.39473772,1.9439479,0.9601784,0.039999995,0.03999968,-0.03763377316978733,-0.043001508650886144,-0.010545733809808056,0.2099796690755555,-0.19423475384024635,0.1507877283127374,0.8276493366743239,0.32974252584423264,0.3314559260470873,0.31048898730983165
756.7833333329737,-0.060207166,-0.76227576,-0.50874096,-2.0296397,0.39654493,1.945656,0.960976,0.04,0.03999969,-0.03787640246084578,-0.04519169240514431,-0.008416398434185624,0.20801668468266243,-0.19239941528285753,0.14903088457839309,0.8261017169947503,0.33122053620512276,0.3328664019353807,0.31152667307456977
756.7999999996404,-0.060478915,-0.7621787,-0.51103836,-2.0281627,0.39833418,1.9473472,0.9617657,0.04,0.03999972,-0.03854323736973697,-0.04569449764728617,-0.00765925117769406,0.20603193384224802,-0.19054759553962988,0.14726387550858838,0.8245633565125776,0.3326819203064567,0.33426113825323356,0.312549999922529
756.816666666307,-0.0607479,-0.76208305,-0.5133128,-2.0267007,0.40010515,1.9490211,0.9625475,0.04,0.039999735,-0.0382954853832107,-0.045926090438530576,-0.007751227189101151,0.2040226917467958,-0.18868015004371175,0.14548825862447728,0.8230344887226048,0.3341266689179982,0.33564014139827086,0.3135590773252017
756.8333333329737,-0.0610141,-0.76198834,-0.5155634,-2.0252542,0.40185776,1.9506779,0.96332103,0.04,0.039999742,-0.03901100715424377,-0.0479917135154162,-0.005646485685018021,0.20198770502725194,-0.18679579549571065,0.14370317357728082,0.8215156974249257,0.3355544425307683,0.3370031340762248,0.31455375153557696
756.8499999996403,-0.06127746,-0.7618944,-0.5177903,-2.023823,0.4035919,1.9523171,0.9640865,0.04,0.039999753,-0.038901826465354006,-0.048232540146553315,-0.004932255861334056,0.1999308245047136,-0.18489785815114618,0.1419108656007353,0.8200072281893822,0.33696532823000874,0.33835001287257693,0.31553412189038427
756.866666666307,-0.06153797,-0.76180196,-0.51999325,-2.0224075,0.40530732,1.9539385,0.9648439,0.04,0.039999772,-0.03883672315780906,-0.04941554544377613,-0.004841254712317777,0.19785164283342493,-0.18298716730191905,0.14011053770250206,0.8185093773469372,0.3383591873231857,0.3396807131869848,0.3165003517184522
756.8833333329736,-0.06179562,-0.7617104,-0.5221721,-2.0210073,0.40700403,1.9555426,0.9655928,0.04,0.03999981,-0.038131374570671284,-0.04935085683480667,-0.003385251781695686,0.1957533811388279,-0.1810591552790033,0.1382982922844311,0.8170223835095408,0.3397359093159401,0.3409956021805653,0.3174522579210514
756.8999999996403,-0.06205038,-0.7616197,-0.52432656,-2.0196228,0.40868184,1.9571288,0.9663335,0.039999995,0.039999813,-0.03910290304194319,-0.05074695506113169,-0.002265442071536228,0.1936288591236757,-0.17911810778545145,0.1364842576040426,0.8155466674842007,0.3410955469968518,0.3422941385862362,0.3183899867518442
756.9166666663069,-0.062302236,-0.7615304,-0.52645653,-2.018254,0.41034052,1.9586966,0.96706593,0.039999995,0.039999835,-0.038430247966303455,-0.0515374293116877,-0.0023528233917158303,0.1914853630064155,-0.17716454329232184,0.1346613048727054,0.8140825138563578,0.3424378851757062,0.3435764183353034,0.31931363922261025
756.9333333329736,-0.062551156,-0.761442,-0.528562,-2.0169013,0.41197997,1.9602462,0.9677894,0.039999988,0.039999854,-0.03930341891904554,-0.05186133007789584,-0.0007722438039037272,0.1893219861324008,-0.17519729038644993,0.1328307964676761,0.8126303420944563,0.3437628136769672,0.34484230052180403,0.32022311411135096
756.9499999996402,-0.06279714,-0.76135474,-0.5306425,-2.0155637,0.41359997,1.9617772,0.96850485,0.04,0.039999906,-0.037504387435260966,-0.05280233356422803,-0.000517206081163124,0.18714154093595536,-0.17321450698307617,0.13099337752662296,0.8111902808368204,0.34507042127704096,0.3460919541917601,0.3211185013033264
756.9666666663069,-0.063040115,-0.7612687,-0.532698,-2.0142422,0.41520056,1.9632909,0.9692113,0.04,0.039999943,-0.0377802845064501,-0.05289894911818527,0.0008327279322095649,0.18497418007390118,-0.1711620422446836,0.12910615914809181,0.8097625221777361,0.34636051743222945,0.34732582189481015,0.3219997252879639
756.9833333329735,-0.06328014,-0.76118356,-0.53472835,-2.0129366,0.4167816,1.9647859,0.96990925,0.04,0.03999996,-0.03864372804152083,-0.05399758103272756,0.0015717022755268317,0.18274866069567838,-0.16915620880110932,0.1272658069598983,0.8083475147626032,0.3476332285520722,0.3485431520914214,0.3228670080911984
756.9999999996402,-0.063517146,-0.76109964,-0.53673345,-2.011648,0.418343,1.9662617,0.97059834,0.03999999,0.03999998,-0.04006242552221373,-0.05543160180685458,0.0025826277108897955,0.18050967147080005,-0.1671311899691319,0.1254136120376257,0.8069457767594791,0.34888829584250947,0.34974348963616936,0.32372049958454135
757.0166666663068,-0.06375114,-0.761017,-0.5387132,-2.010376,0.41988444,1.9677185,0.9712788,0.03999999,0.04,-0.03929098273256493,-0.05549573445464695,0.003015313864995761,0.17825268145832718,-0.1651047517620386,0.12355994750675553,0.8055574450835021,0.350125835196035,0.35092704749296333,0.32456017860589564
757.0333333329735,-0.06398207,-0.7609351,-0.54066736,-2.00912,0.42140603,1.9691565,0.9719503,0.04,0.04,-0.03810178359380245,-0.05578863032580372,0.004449169981834977,0.17598788784215064,-0.16305646138936059,0.12169104310729738,0.8041827385184849,0.35134573088653737,0.35209415203235944,0.325385937866603
757.0499999996401,-0.06420995,-0.76085484,-0.5425957,-2.0078804,0.42290753,1.9705757,0.97261316,0.039999988,0.04,-0.03769695362105807,-0.05664431563521255,0.004283022519846469,0.17370055654559946,-0.1610072592447651,0.11982704954462584,0.8028218105530809,0.3525479554005587,0.3532448890611761,0.326197988950447
757.0666666663068,-0.06443478,-0.7607753,-0.54449826,-2.006657,0.424389,1.9719759,0.9732671,0.039999988,0.04,-0.0377137663422733,-0.05659016419088392,0.005769273745537262,0.17139382390520286,-0.1589525990956166,0.11796480072497119,0.801474959785187,0.353732555531044,0.3543791817487527,0.3269962745015522
757.0833333329734,-0.06465651,-0.7606971,-0.5463748,-2.00545,0.42585006,1.973357,0.973912,0.03999999,0.04,-0.03824091830715304,-0.05781790618875071,0.006308114417219457,0.16907538730093782,-0.1568774086459999,0.11609351743552214,0.8001425838226471,0.3548993568393553,0.3554968487888551,0.3277808453369778
757.0999999996401,-0.064875156,-0.76061994,-0.5482254,-2.0042613,0.42729077,1.9747189,0.974548,0.04,0.04,-0.04098573365016733,-0.05846549749213281,0.008135720605007002,0.16674735056922543,-0.1547895921689746,0.11421632438157027,0.7988250261703256,0.35604865349469095,0.35659719331670864,0.32855193748818784
757.1166666663067,-0.06509066,-0.76054376,-0.5500496,-2.0030887,0.42871124,1.9760618,0.975175,0.039999988,0.04,-0.03695252068256494,-0.05871756944484385,0.00814978677543543,0.1644036940857301,-0.15270258982556678,0.11233797388903616,0.7975222956285487,0.3571801450416184,0.3576811374864758,0.3293094833888011
757.1333333329734,-0.06530308,-0.76046896,-0.55184776,-2.0019329,0.43011117,1.9773854,0.97579294,0.039999995,0.04,-0.03760880408578693,-0.05852830339401205,0.008215921186982555,0.16204269526806783,-0.15061286100151366,0.11046443808715953,0.7962346010170027,0.3582939324991612,0.35874858666660114,0.3300535860164183
757.14999999964,-0.06551239,-0.76039517,-0.55361944,-2.000794,0.4314906,1.9786897,0.97640187,0.039999984,0.04,-0.03800945387393284,-0.05963288392625277,0.009842346909083588,0.15967278682517735,-0.1485058839153412,0.10858380566755203,0.7949622845120642,0.35939001037865,0.35979929760819934,0.3307842984242754
757.1666666663067,-0.065718524,-0.7603226,-0.55536467,-1.9996728,0.43284932,1.979974,0.97700155,0.04,0.04,-0.039481835207189064,-0.06062712502490353,0.010697619066779573,0.157284927442105,-0.14640301119615978,0.10670967419239735,0.7937058134295564,0.36046827069859966,0.3608327711911674,0.3315017628643778
757.1833333329733,-0.06592153,-0.7602512,-0.55708337,-1.9985683,0.43418735,1.9812388,0.97759223,0.039999988,0.04,-0.03699348141137371,-0.060157993973897206,0.010706723913656013,0.1548937541158818,-0.144289979546388,0.10482814991520997,0.7924650702731367,0.3615288126877505,0.36184969603324313,0.33220600156262553
757.19999999964,-0.06612135,-0.76018083,-0.5587753,-1.9974805,0.43550473,1.9824842,0.97817373,0.039999995,0.04,-0.0369243458085311,-0.06076427466394918,0.012006703246636441,0.15248097036430508,-0.14218869481152263,0.10296003863086686,0.7912403352568883,0.3625715646810161,0.3628500626768933,0.33289701765365987
757.2166666663067,-0.06631798,-0.7601118,-0.5604407,-1.99641,0.4368013,1.98371,0.978746,0.039999988,0.04,-0.03754079290829715,-0.06087307146931398,0.01221579374015569,0.15006000864400465,-0.1400793354999228,0.10109123856467468,0.7900317788637784,0.3635966130088033,0.3638337676577098,0.3335750004209789
757.2333333329733,-0.066511475,-0.7600439,-0.5620792,-1.9953569,0.43807715,1.984916,0.97930914,0.039999988,0.04,-0.03774473031086245,-0.06203505282345034,0.013481745305932158,0.147628534727001,-0.13796535641141042,0.09922384517640828,0.7888397525658737,0.36460390654484187,0.36480053346990066,0.33424004380703276
757.24999999964,-0.06670177,-0.759977,-0.5636907,-1.9943205,0.43933216,1.9861021,0.9798631,0.04,0.04,-0.03641303677581753,-0.06180162709210624,0.013976909227997325,0.14519119347557224,-0.13584837478249917,0.09735629849022082,0.7876643475314601,0.36559345199126586,0.3657507129539745,0.3348921012245716
757.2666666663066,-0.06688889,-0.75991154,-0.56527567,-1.9933016,0.44056627,1.9872686,0.98040783,0.03999999,0.04,-0.03723727833562229,-0.06167873633053933,0.01408532658568884,0.14274744041103282,-0.1337244866327516,0.0954901425571,0.7865056392538621,0.36656541300670664,0.36668424606916666,0.33553143085824816
757.2833333329733,-0.06707283,-0.75984675,-0.56683373,-1.9923003,0.44177938,1.9884154,0.98094326,0.039999988,0.04,-0.03791290919528123,-0.06226552750918657,0.01604640398475965,0.1402969837691705,-0.13159817143292768,0.0936239186625272,0.7853640267926826,0.36751984935431314,0.36760083919828596,0.33615789262083584
757.2999999996399,-0.06725356,-0.75978357,-0.568365,-1.991316,0.4429716,1.9895421,0.98146933,0.039999984,0.04,-0.03583526259172132,-0.06246869806576516,0.015014899436383011,0.1378462624947783,-0.12946193141200954,0.09175397674599754,0.7842394741964372,0.36845654497134145,0.3685010001450538,0.33677178396055135
757.3166666663066,-0.06743111,-0.7597213,-0.5698692,-1.990349,0.4441429,1.9906489,0.9819861,0.03999997,0.04,-0.037041882320654196,-0.06301865410027752,0.01690773426026304,0.13537583396331804,-0.12734786725977504,0.08990339943246566,0.7831323248121695,0.36937566944500333,0.3693843084218574,0.33737310110328605
757.3333333329732,-0.06760545,-0.7596603,-0.5713464,-1.9893993,0.4452932,1.991736,0.9824937,0.039999954,0.04,-0.03566357325177627,-0.0628746546115444,0.016879985390461094,0.13291196177111209,-0.12521776869257384,0.08804470565552149,0.7820425331937245,0.37027726185345716,0.37025125587215957,0.3379618812164134
757.3499999996399,-0.06777661,-0.7596005,-0.5727967,-1.9884671,0.44642237,1.9928033,0.98299193,0.039999936,0.04,-0.036571340240154626,-0.06303693862936832,0.017628051805673728,0.13044340483740768,-0.12308511914992357,0.08619019548607507,0.7809703756793062,0.37116138788002445,0.37110155362021285,0.33853823027682073
757.3666666663065,-0.067944594,-0.7595417,-0.5742198,-1.9875524,0.4475305,1.9938507,0.983481,0.03999992,0.04,-0.03644871271641925,-0.06370461156910423,0.018758238380600645,0.1279724699168951,-0.12095269324625026,0.08433949678564387,0.7799160575375947,0.3720280890775747,0.37193511346109753,0.3391022198496847
757.3833333329732,-0.068109356,-0.7594841,-0.57561624,-1.9866546,0.4486177,1.9948784,0.9839606,0.0399999,0.04,-0.03493435079695573,-0.06265014866631002,0.018235807244448843,0.1254985483512281,-0.11882718586726804,0.08249527279670461,0.7788794277484763,0.37287742848652444,0.3727525136719774,0.33965397672735315
757.3999999996398,-0.06827092,-0.75942755,-0.57698554,-1.9857744,0.44968385,1.9958861,0.9844311,0.03999988,0.04,-0.03607037723347695,-0.063953404395245,0.01973123672349697,0.12302024366093905,-0.11670187198409247,0.08065778657710027,0.7778608937697616,0.37370943439678866,0.3735532269174948,0.3401935849572512
757.4166666663065,-0.068429306,-0.75937235,-0.578328,-1.9849113,0.45072898,1.9968739,0.9848923,0.03999987,0.04,-0.03489924853465887,-0.06332220413838296,0.019319247479976376,0.12054633484736879,-0.11457605685101234,0.07882194589116101,0.7768603632543538,0.37452418015157285,0.37433766788135353,0.34072118350823904
757.4333333329731,-0.06858447,-0.75931823,-0.5796436,-1.9840655,0.45175317,1.997842,0.98534423,0.039999858,0.04,-0.035101731591780094,-0.06349182529150621,0.02044180041138599,0.11807086115270903,-0.11245305603190964,0.07699311765226421,0.7758779953791195,0.375321744493499,0.37510580374166314,0.34123680984934274
757.4499999996398,-0.06873646,-0.7592653,-0.5809323,-1.9832374,0.4527564,1.9987903,0.9857869,0.03999984,0.04,-0.03547692255727597,-0.06382046051114365,0.02097020541633743,0.115597057084675,-0.11033412763611922,0.07517032925849298,0.7749139457292828,0.37610220292932967,0.3758575001133554,0.34174061695168506
757.4666666663064,-0.06888527,-0.7592136,-0.58219427,-1.9824262,0.45373878,1.9997189,0.98622036,0.039999828,0.04,-0.033894285809621394,-0.06331829689925073,0.020854023377347986,0.1131255669056631,-0.10821888530882841,0.0733537104038254,0.7739681379264106,0.3768655995250149,0.3765932028794981,0.34223267072904795
757.4833333329731,-0.069030896,-0.7591627,-0.5834294,-1.981632,0.4547003,2.0006278,0.9866447,0.03999981,0.04,-0.034527767481540295,-0.0636218229827179,0.02211987029463458,0.11065580743578549,-0.10610621831321856,0.07154416229097235,0.7730408049836419,0.377612080877909,0.377312630026681,0.34271301321608344
757.4999999996397,-0.06917338,-0.75911313,-0.58463776,-1.9808553,0.455641,2.001517,0.9870599,0.039999783,0.04,-0.034454183086563006,-0.06372748789194027,0.02211471044828439,0.1081887765569838,-0.10400229846153287,0.06974386042493567,0.7721319434405151,0.37834169796048195,0.3780159181125236,0.343181857266229
757.5166666663064,-0.0693127,-0.75906473,-0.58581966,-1.9800957,0.4565609,2.0023866,0.9874659,0.039999772,0.04,-0.03386537638516707,-0.06321848213359793,0.022202561845641178,0.10572598894339315,-0.10190591937367584,0.0679510425663448,0.7712415996211882,0.3790545374504883,0.37870318514437806,0.3436392733862791
757.533333332973,-0.06944887,-0.75901735,-0.5869749,-1.9793532,0.4574601,2.0032368,0.98786277,0.03999976,0.04,-0.03351468396406432,-0.06331692528562805,0.023081844150607544,0.10326894318622948,-0.09981475607421658,0.06616603091990009,0.7703698283783296,0.37975067180192856,0.3793745956286013,0.3440852670225248
757.5499999996397,-0.0695819,-0.75897133,-0.58810365,-1.9786277,0.45833874,2.0040672,0.9882505,0.039999746,0.04,-0.03317052529250297,-0.06357184514245162,0.022913659934453712,0.10081768911497209,-0.09772946768899535,0.06439028967520384,0.7695166989482768,0.3804300810171422,0.3800301214619035,0.34452011592748655
757.5666666663063,-0.06971181,-0.75892615,-0.58920616,-1.977919,0.45919684,2.0048783,0.98862934,0.039999735,0.04,-0.03315503346108528,-0.06264064347507592,0.023719546581468798,0.09837577908526214,-0.09565036364991053,0.06262251323061932,0.7686821290113509,0.3810931687190143,0.38066985705458406,0.34494382328767725
757.583333332973,-0.06983862,-0.75888234,-0.59028226,-1.9772273,0.4600345,2.0056698,0.988999,0.039999723,0.04,-0.032747412559652744,-0.06335782251623012,0.0236674044818308,0.0959394306074879,-0.09358178791874774,0.060864752548102544,0.7678662871572638,0.3817396832995958,0.38129389277781833,0.34535654991903697
757.5999999996396,-0.069962285,-0.75883925,-0.59133214,-1.976552,0.46085173,2.0064425,0.98935956,0.03999971,0.04,-0.03181983268953914,-0.06231317909586309,0.02448246213080374,0.09351386998893854,-0.0915201657600035,0.05911684886240462,0.7670690624067034,0.382369900188435,0.38190261086052874,0.34575816511877044
757.6166666663063,-0.07008289,-0.7587976,-0.5923561,-1.9758937,0.46164858,2.007196,0.98971117,0.0399997,0.04,-0.03252347486806251,-0.062485184977600916,0.02400083305258427,0.09109577251090895,-0.08946976369977269,0.05738276814432636,0.7662904909650139,0.38298393901137984,0.3824957843134564,0.3461490443412485
757.6333333329729,-0.070200436,-0.7587569,-0.593354,-1.9752524,0.4624253,2.0079298,0.99005383,0.039999682,0.04,-0.03267754082925123,-0.06288084029490992,0.025075088468207163,0.08868753248793418,-0.0874305192440875,0.055659677328100746,0.7655307625674308,0.3835818321432104,0.3830732157829437,0.34652927865088107
757.6499999996396,-0.07031492,-0.75871724,-0.59432614,-1.9746274,0.46318194,2.0086453,0.9903878,0.03999968,0.04,-0.030858090742258426,-0.06142520838030574,0.02476207592452262,0.08629340899632662,-0.08540413416034441,0.05394736873415579,0.764789444553309,0.38416390774161213,0.38363571219214937,0.34689888702525074
