rsonawane2002/My_IMU/logs_2/traj_2000/clean_2000.csv
time,j1,j2,j3,j4,j5,j6,j7,gripper1,gripper2,imu_ax,imu_ay,imu_az,imu_gx,imu_gy,imu_gz,quat_x,quat_y,quat_z,quat_w
1.0333333333333345,0.00016703313,-0.78463066,4.018289e-05,-2.3561552,9.3351664e-05,1.5709763,0.7860001,1.2118691e-05,1.21186895e-05,0.0,-0.0,0.0,2.972376988594288e-08,-0.012697867464917412,3.1608473627626904e-07,0.9999999412467147,0.00020324559723577538,-0.00027413488670171,3.237064284739225e-05
1.0500000000000012,0.0001666533,-0.7846152,3.9606668e-05,-2.3561676,0.00016117678,1.5709764,0.7859992,0.0031457979,0.0031474049,-0.03808566676752889,-0.049438379824193544,0.003237224715091358,-2.9092383034333282e-06,-0.012836724496967373,-0.0007129011030680335,0.9999999356693087,0.00020320879949279347,-0.0002880065042769865,6.648169685323578e-05
1.0666666666666678,0.00016671553,-0.7846009,3.9745795e-05,-2.3561795,0.00015014771,1.5709763,0.7859992,0.006093799,0.00609527,0.0019805362733826826,0.05742369309802884,-0.0005937956598423,-5.5170237651594815e-06,-0.01296488273623743,-0.0006288679037305107,0.999999932160775,0.0002031268565857361,-0.00030117692212628067,6.09129477508551e-05
1.0833333333333344,0.00016677009,-0.784588,3.99724e-05,-2.356191,0.00014056901,1.5709761,0.7859992,0.008805982,0.008807335,0.0023258432887640623,-0.0011755655675879271,-0.000562021515526645,-1.7262476890487978e-05,-0.01308696981569102,-0.0005503492085625513,0.9999999287044544,0.00020301795994933532,-0.00031342374585736134,5.6038821795886516e-05
1.100000000000001,0.00016682052,-0.78457654,4.037643e-05,-2.3562024,0.0001323823,1.5709739,0.7859992,0.011301215,0.01130246,0.0009686998879043784,-0.001241944103485816,-0.0024430687415089025,-4.112336966050767e-05,-0.013199462381258022,-0.00047813950572307863,0.9999999249471714,0.00020284850323320106,-0.00032599865106235754,5.17978353736504e-05
1.1166666666666676,0.00016687084,-0.7845667,4.1071937e-05,-2.3562136,0.00012557763,1.570971,0.7859992,0.01359685,0.013597996,0.0019957867346764857,-0.0013739194095209223,-0.0012480227741251682,-8.012079445837966e-05,-0.01331514783242842,-0.0004114279751312964,0.9999999212180531,0.00020257621038766486,-0.00033794794832954224,4.814509979431981e-05
1.1333333333333342,0.0001669263,-0.7845584,4.2194413e-05,-2.3562243,0.0001201811,1.5709682,0.7859973,0.015708858,0.015709912,0.0025234599749790476,-0.0015593675312455368,-0.000662707988685618,-0.0001379926882290365,-0.013426229762941486,-0.0003481437458279716,0.9999999178852417,0.00020119689720134745,-0.0003488841538855727,4.504626134613574e-05
1.1500000000000008,0.00016699296,-0.78455204,4.3898806e-05,-2.3562346,0.00011624956,1.5709653,0.78599536,0.017651927,0.017652897,0.002918724822031926,-0.0017914753437557628,-0.0008647400311811992,-0.00020866390005626595,-0.013527553382758266,-0.00028823949475871287,0.9999999148693826,0.00019960643025428463,-0.0003586284949729009,4.2474737710295697e-05
1.1666666666666674,0.00016707773,-0.7845478,4.6357247e-05,-2.3562455,0.00011386996,1.5709624,0.78599155,0.019439561,0.019440453,0.001156941173663384,-0.002067071430623984,-0.001535444790912166,-0.0003047102430595609,-0.01361732899784363,-0.00022999978511062695,0.9999999122347215,0.0001967868871604292,-0.000367657766457392,4.0413327321007925e-05
1.183333333333334,0.00016718818,-0.784546,4.975737e-05,-2.356257,0.00011315334,1.5709596,0.7859872,0.021084204,0.021085026,0.0018913831275169102,-0.0023798723400697314,-0.001596660800773364,-0.00042018674173283424,-0.013699639808969636,-0.0001736275296721231,0.9999999099758199,0.00019335359934052128,-0.00037570377897293533,3.885110103591332e-05
1.2000000000000006,0.00016733246,-0.7845468,5.4300264e-05,-2.3562684,0.00011423555,1.5709566,0.7859815,0.02259729,0.022598047,0.002795490540252743,-0.0027276892240073614,-0.0015384285949160414,-0.0005639031681173775,-0.013774679713328053,-0.0001167145333186389,0.9999999082968662,0.0001888141716610492,-0.0003825281032080146,3.7785153399599214e-05
1.2166666666666672,0.00016751944,-0.7845507,6.01992e-05,-2.35628,0.00011727088,1.5709534,0.7859738,0.023989348,0.023990044,0.0030114984408191603,-0.0031042901100283428,-0.002071367735934082,-0.0007350188786010658,-0.013837342244521888,-5.996700513657719e-05,0.9999999073247214,0.00018279077396445077,-0.0003880115286584543,3.721740587500752e-05
1.2333333333333338,0.00016775851,-0.784558,6.7677924e-05,-2.3562925,0.00012243316,1.5709467,0.78596324,0.025270052,0.025270693,0.0013811403460906035,-0.0035079442481112497,-0.004786228979147822,-0.0009334369573934041,-0.01388844941206326,-2.009711371185564e-06,0.9999999064570291,0.00017475255795202328,-0.00039391238975181514,3.715515751371364e-05
1.2500000000000004,0.00016805936,-0.784569,7.6969205e-05,-2.3563068,0.00012991173,1.5709399,0.7859499,0.026448315,0.026448904,0.0008724363987244743,-0.003934775519065671,-0.003070055094145374,-0.0011576236632385138,-0.013942621302426062,5.761506990860116e-05,0.9999999061589072,0.00016464234306797632,-0.00039894920568164446,3.76112615306019e-05
1.266666666666667,0.00016843206,-0.7845841,8.831394e-05,-2.3563242,0.00013990952,1.5709329,0.78593415,0.027532324,0.027532868,-0.0008613122151501784,-0.004381248662154819,-0.003863611235943587,-0.001410410366512529,-0.013989309478505858,0.00011849074123360175,0.9999999061567857,0.00015257864912574754,-0.0004036286455234349,3.860171342848688e-05
1.2833333333333337,0.0001688869,-0.7846037,0.00010195962,-2.3563435,0.00015264227,1.5709224,0.7859151,0.028529625,0.028530126,0.0006729241314173962,-0.004845150841605771,-0.00599644745598038,-0.0016958694442692377,-0.014032788021119754,0.0001825732900323395,0.999999906144928,0.00013799195035166958,-0.00040872557841603824,4.014671118563912e-05
1.3000000000000003,0.00016943457,-0.78462845,0.000118159754,-2.356364,0.00016833638,1.5709116,0.7858924,0.029447153,0.029447615,0.0035641211342252177,-0.005325410715447093,-0.003612401845254354,-0.0020121057158360624,-0.014079911115053108,0.000249006854524006,0.9999999069644688,0.0001206681435098911,-0.00041197505573130913,4.227063025907224e-05
1.3166666666666669,0.00017008602,-0.78465873,0.00013717232,-2.3563895,0.00018722664,1.5708977,0.78586596,0.030291287,0.030291714,-0.0033983026326955823,-0.005815197148907169,-0.007785740651788942,-0.0023601139182023224,-0.014109627852300438,0.00031800645340791,0.9999999071847306,0.00010039162417149332,-0.00041656595928367667,4.499837072791582e-05
1.3333333333333335,0.00017085206,-0.78469485,0.0001592593,-2.3564172,0.0002095571,1.570883,0.78583497,0.031067895,0.031068288,0.0025823247446377096,-0.006318927002034166,-0.004801455310143865,-0.002740884980233455,-0.014151827122129257,0.0003911142896964535,0.9999999078284367,7.670672657649036e-05,-0.0004196670990933582,4.836033438216623e-05
1.35,0.00017174402,-0.7847371,0.00018468572,-2.356448,0.00023557746,1.5708649,0.78579956,0.031782385,0.031782746,0.0004236601957252617,-0.006828976431210148,-0.007443044727550863,-0.003153154929137927,-0.014180821984008883,0.00046854054047835015,0.9999999079441421,4.957384139560782e-05,-0.0004229772643876159,5.238678897826255e-05
1.3666666666666667,0.00017277311,-0.78478634,0.00021371903,-2.3564832,0.00026554207,1.5708457,0.78575903,0.03243972,0.03244006,-0.00033177090794644926,-0.0073455992351573905,-0.006780983259302431,-0.0035998135125531417,-0.014210903615146169,0.0005478148042588054,0.9999999076286965,1.8535528031569567e-05,-0.0004256024317648504,5.711044381340354e-05
1.3833333333333333,0.0001739506,-0.7848428,0.00024662813,-2.3565226,0.00029971168,1.5708234,0.78571314,0.033044472,0.03304478,9.950659856095001e-05,-0.007868341385542602,-0.008212422745845771,-0.004078913812697634,-0.01423587780595957,0.000633319272674809,0.999999906227596,-1.6627979244766626e-05,-0.00042819832055767494,6.256602666281739e-05
1.4,0.00017528787,-0.7849069,0.0002836832,-2.3565655,0.00033834908,1.5707976,0.7856615,0.033600852,0.03360114,0.0012838748008725531,-0.008394369993720733,-0.00862345962138189,-0.004591392936768114,-0.01425958188673357,0.0007219638071444294,0.999999903378431,-5.6196565886295493e-05,-0.000430526589105944,6.878903060127551e-05
1.4166666666666665,0.00017679631,-0.7849792,0.00032515463,-2.356615,0.00038172017,1.5707694,0.7856038,0.034112744,0.03411301,-0.003042261639207844,-0.00892105758705174,-0.009309677916569115,-0.005137763557665252,-0.01428113704176847,0.000815253913792679,0.999999898231163,-0.00010044954554457543,-0.0004332429785257814,7.581605390764376e-05
1.4333333333333331,0.00017848724,-0.7850601,0.00037131293,-2.3566675,0.00043009236,1.5707384,0.78553945,0.03458368,0.03458393,0.003708065805407834,-0.009451982930035971,-0.008275216924702455,-0.005717504202530614,-0.014305819595797714,0.0009118308730418697,0.9999998908723976,-0.0001497864802977154,-0.0004345296424615876,8.368508309386932e-05
1.4499999999999997,0.00018037204,-0.7851501,0.00042242784,-2.356726,0.00048373567,1.570704,0.7854682,0.035016943,0.03501717,-0.0011562013280785877,-0.009979592473548802,-0.010417127045769803,-0.006329986101641488,-0.01431706900230628,0.0010140790952198222,0.9999998798055957,-0.00020439698189566905,-0.0004359662305418279,9.243437570261418e-05
1.4666666666666663,0.00018246203,-0.78524965,0.00047876837,-2.3567917,0.0005429186,1.5706658,0.7853896,0.035415538,0.035415754,-0.003204418734159553,-0.010505287365280268,-0.011474524067711656,-0.006975712268093324,-0.014330190756269854,0.0011204056239358935,0.999999863767676,-0.00026464923948773687,-0.00043817872082648737,0.00010210199818153735
1.483333333333333,0.00018476842,-0.7853595,0.0005406024,-2.3568645,0.0006079117,1.5706239,0.7853035,0.03578225,0.03578245,-0.0015804104367189709,-0.011031634653826039,-0.011787707111010626,-0.007653523824263275,-0.014350902951462406,0.0012316744933423551,0.9999998418995011,-0.00033070264713199626,-0.0004406010387408595,0.0001127273553173796
1.4999999999999996,0.00018730237,-0.7854797,0.0006081954,-2.35694,0.00067898305,1.570578,0.7852093,0.036119636,0.036119822,0.005328028216622371,-0.011556604924601492,-0.010089840199545286,-0.008364974093138251,-0.014372480864930613,0.001347926870407181,0.9999998137492884,-0.00040292523339885666,-0.00044123659947675937,0.00012434994281924322
1.5166666666666662,0.00019007492,-0.785611,0.0006818111,-2.3570228,0.00075640046,1.570528,0.7851067,0.03643004,0.03643021,-0.0012814918246562002,-0.012071115417471414,-0.012479493749184556,-0.009108562242661655,-0.014378378193747548,0.0014688591275227965,0.9999997769827563,-0.00048159294050201213,-0.00044196315112783564,0.00013700821230942675
1.5333333333333328,0.00019309699,-0.78575367,0.0007617114,-2.3571126,0.0008404299,1.5704738,0.7849955,0.0367156,0.03671577,-0.0009025460518952144,-0.012584443848000955,-0.012894420540510154,-0.009884246181412294,-0.014384001521443885,0.001592319325381098,0.9999997299503147,-0.0005669221398534588,-0.00044269152361345765,0.0001507408364127058
1.5499999999999994,0.00019637942,-0.78590816,0.00084815436,-2.35721,0.0009313374,1.570415,0.7848751,0.03697833,0.036978483,-0.000995282562565869,-0.013092532930756087,-0.013382996275579373,-0.0106923328781033,-0.014390169902382264,0.0017230259411355766,0.9999996706294545,-0.0006592767656658559,-0.0004434815649479152,0.0001655875308726079
1.566666666666666,0.00019993288,-0.7860752,0.00094139617,-2.357315,0.0010293839,1.5703515,0.7847453,0.037220046,0.037220195,-0.0010992438955081951,-0.013592859994854493,-0.014180852271450384,-0.011531125802078662,-0.014396721896695674,0.0018560890428243309,0.999999596854673,-0.0007588707275573084,-0.000444333569831597,0.00018158576202349124
1.5833333333333326,0.00020376804,-0.78625506,0.0010416895,-2.357428,0.0011348303,1.5702832,0.7846057,0.037442423,0.03744256,-0.0007136906226001827,-0.014089218129201666,-0.014384929520350198,-0.012401232911165891,-0.014404611956626845,0.001995494670602691,0.9999995062435512,-0.0008659763557694137,-0.0004450690431054506,0.0001987741226292914
1.5999999999999992,0.00020789524,-0.786448,0.001149284,-2.3575492,0.0012479316,1.5702099,0.7844559,0.03764701,0.037647143,-0.0010068385629224963,-0.014575390131680178,-0.014773043856020074,-0.013301965025458424,-0.01441006674824661,0.0021378045594452662,0.9999993959520455,-0.000980894253671218,-0.0004458373425346393,0.00021718902229618121
1.6166666666666658,0.0002123246,-0.7866548,0.0012644252,-2.3576784,0.0013689434,1.5701314,0.7842956,0.037835233,0.03783536,-0.0002008839636635784,-0.015056873820274699,-0.015302205023903781,-0.014232858568976702,-0.014416763212590458,0.002285508021862368,0.9999992630918298,-0.0011038640501148827,-0.00044631103696732077,0.00023686792615282287
1.6333333333333324,0.00021706636,-0.7868756,0.0013873552,-2.357816,0.0014981149,1.5700479,0.7841246,0.038008396,0.038008515,-0.00035536306857153477,-0.015527866399094557,-0.01554676475896688,-0.015193197795625168,-0.01441927480785385,0.002437653113482213,0.9999991043518155,-0.0012350939048585041,-0.00044649056865118985,0.0002578464371748265
1.649999999999999,0.00022213042,-0.7871109,0.0015183123,-2.3579648,0.0016356934,1.5699586,0.78394246,0.03816771,0.038167823,-0.004956935639355287,-0.015984988462120694,-0.017513312565964334,-0.01618333368681396,-0.014419363699565299,0.002594072651754208,0.9999989153040377,-0.0013748781951015135,-0.00044789631769492195,0.0002801599280695922
1.6666666666666656,0.00022752653,-0.7873612,0.0016575312,-2.3581228,0.0017819211,1.569864,0.7837487,0.03831428,0.038314387,-0.0010555862542060979,-0.016443729282264192,-0.0165743290022613,-0.01720200338806311,-0.014431673755432913,0.0027531906200757633,0.9999986924039267,-0.001523542281660166,-0.000449098267382706,0.000303842227203605
1.6833333333333322,0.00023326425,-0.7876268,0.0018052422,-2.3582895,0.0019370373,1.5697632,0.78354317,0.038449142,0.038449254,0.00019792644843086293,-0.01689008172456147,-0.017259012362069726,-0.01824814959605574,-0.014441100443434796,0.002916342649125241,0.9999984313406752,-0.0016812305218536052,-0.0004500970092074032,0.00032892674498428547
1.6999999999999988,0.00023935299,-0.7879082,0.0019616715,-2.3584647,0.0021012777,1.569657,0.7833255,0.0385732,0.03857331,0.0010069327238015902,-0.01732866663286389,-0.016821601422800647,-0.019322131064825616,-0.014448916101752644,0.0030843301127285146,0.9999981275126106,-0.0018482341309540664,-0.00045017788492218534,0.0003554458351919549
1.7166666666666655,0.00024580193,-0.78820556,0.0021270404,-2.3586507,0.0022748727,1.5695443,0.78309536,0.038687337,0.038687438,-0.002799105667250501,-0.01774649178567858,-0.0186883790652681,-0.02042311658815885,-0.014446902218622005,0.003257051713614163,0.9999977749810455,-0.0020247807980550343,-0.0004508614757830592,0.0003834313598041614
1.733333333333332,0.00025262023,-0.7885196,0.0023015668,-2.358848,0.0024580478,1.5694257,0.78285265,0.038792346,0.038792446,-0.0030963185099874835,-0.018159817926357777,-0.019061268079734184,-0.021550150022457935,-0.014451339352358284,0.003431802133088988,0.9999973683581442,-0.0022110081953204373,-0.000451910118864183,0.00041291257030104736
1.7499999999999987,0.0002598166,-0.78885055,0.0024854636,-2.3590548,0.0026510253,1.5693007,0.7825967,0.038888954,0.038889054,0.0005714689967240005,-0.018572629558969572,-0.018561275658268706,-0.022704081284436205,-0.014458954247662994,0.0036101601332734455,0.9999969015279162,-0.0024073230923619686,-0.00045240064813446796,0.0004439186295612075
1.7666666666666653,0.00026739956,-0.78919894,0.0026789387,-2.359273,0.0028540238,1.569169,0.7823275,0.038977847,0.038977943,-0.0024790025818122174,-0.018959509859454472,-0.019952584647486837,-0.023881906003351723,-0.014461176091766541,0.0037928319022655504,0.999996367749104,-0.00261382772965684,-0.00045316840696765857,0.0004764783239352371
1.7833333333333319,0.0002753777,-0.78956527,0.0028821966,-2.3595016,0.0030672543,1.5690308,0.7820447,0.03905962,0.039059717,-0.0003989146367233687,-0.01934699904627135,-0.019889086723567928,-0.0250848374205877,-0.014464869759553401,0.00397803001774074,0.9999957602928563,-0.0028307157195804596,-0.00045355865846976673,0.0005106166571728032
1.7999999999999985,0.0002837593,-0.7899494,0.0030954364,-2.3597414,0.0032909245,1.5688856,0.78174806,0.03913486,0.039134953,-0.0018483516921019572,-0.019716633923510564,-0.020325247089791887,-0.026311993285846325,-0.014465471206214447,0.004167006860924751,0.9999950712226225,-0.0030582359062265346,-0.000454108788321268,0.0005463595996360915
1.816666666666665,0.00029255231,-0.790352,0.0033188518,-2.3599925,0.0035252385,1.5687336,0.7814372,0.039204076,0.03920417,-0.001185403539527563,-0.020078632376207065,-0.020578916343194642,-0.02756242688316584,-0.014468143985436152,0.004357539386175918,0.9999942925390075,-0.0032966059834287687,-0.00045446219105492095,0.0005837315449626198
1.8333333333333317,0.00030176455,-0.79077315,0.0035526329,-2.3602552,0.0037703952,1.5685747,0.781112,0.03926776,0.039267853,-0.0018684672065560903,-0.020427431438359723,-0.020988198371663103,-0.02883549417261755,-0.014466644477356858,0.0045525356468429715,0.9999934156387228,-0.0035459816011119976,-0.0004548286077065539,0.0006227556687364049
1.8499999999999983,0.0003114037,-0.79121333,0.0037969653,-2.3605297,0.004026586,1.5684086,0.7807721,0.039326355,0.03932645,-0.001519669550598124,-0.020765983159663857,-0.021408122981747546,-0.03013107834916617,-0.01446594495017086,0.004748517329836917,0.9999924311923951,-0.0038066068025523108,-0.00045511977754858404,0.0006634520040857234
1.866666666666665,0.00032147713,-0.79167295,0.004052029,-2.360816,0.004294001,1.5682353,0.7804172,0.039380264,0.03938036,-0.0015405438816618044,-0.021092307265431487,-0.021846009068937633,-0.031448051166804575,-0.014465040535384194,0.004947890883195288,0.9999913294582716,-0.0040786630315911,-0.0004553071483316909,0.0007058410259067753
1.8833333333333315,0.0003319921,-0.7921522,0.0043179994,-2.3611147,0.0045728227,1.5680543,0.7800472,0.039429862,0.039429963,-0.002240307728729185,-0.021404517995196083,-0.02246725277001982,-0.03278563528502009,-0.014461922227638138,0.005148857598151948,0.999990100089047,-0.004362299673571946,-0.0004556900918711655,0.0007499413281699564
1.8999999999999981,0.00034295575,-0.79265136,0.0045950483,-2.3614254,0.004863228,1.567866,0.7796617,0.03947547,0.039475575,-0.0011999675803009424,-0.02171288959889675,-0.022185481996905843,-0.03414354984843571,-0.014460211454199089,0.005351850578769163,0.9999887322218671,-0.004657725527117581,-0.0004558229643831327,0.0007957685858618685
1.9166666666666647,0.00035437473,-0.793171,0.004883338,-2.3617494,0.005165393,1.5676699,0.7792607,0.03951746,0.03951756,-0.0030663647001549776,-0.021991911791970596,-0.023467654288045203,-0.0355212655743546,-0.014456064583352128,0.005558702433620314,0.999987214339281,-0.004965052768521321,-0.0004562735349540943,0.0008433406381778232
1.9333333333333313,0.00036625576,-0.7937111,0.0051830322,-2.362086,0.0054794867,1.5674659,0.77884394,0.039556082,0.039556183,-0.0019354139910721102,-0.022280257704545593,-0.023245850615016828,-0.03691801015685883,-0.014453972371615692,0.005766572614880941,0.9999855345707832,-0.005284427144293658,-0.0004567453880617882,0.0008926716037916731
1.949999999999998,0.00037860504,-0.79427207,0.005494286,-2.3624353,0.0058056707,1.5672543,0.778411,0.039591614,0.03959172,-0.0015817193057321433,-0.022547350507125252,-0.023245032502239305,-0.03833387202616705,-0.014452121749252715,0.005975240856456121,0.999983679593627,-0.005616138832746116,-0.0004569718559422455,0.0009437731319109809
1.9666666666666646,0.00039142894,-0.79485416,0.0058172494,-2.3627975,0.006144103,1.5670347,0.77796185,0.039624304,0.039624408,-0.0017587781916850176,-0.022800147149352502,-0.02382863055312434,-0.03976655531357851,-0.014447192735447114,0.006186274073989357,0.9999816366745111,-0.005960207485685751,-0.00045707402640246325,0.0009966563239115168
1.9833333333333312,0.00040473355,-0.7954577,0.00615207,-2.363173,0.0064949375,1.566807,0.7774963,0.039654385,0.03965449,-0.0023333153791105232,-0.02304130502794252,-0.024306929212003503,-0.04121696212103233,-0.014440366609151132,0.006398635771564598,0.9999793914573372,-0.006316829082916427,-0.0004572027205863503,0.0010513308818744084
1.9999999999999978,0.00041852458,-0.796083,0.0064988914,-2.3635623,0.006858323,1.5665714,0.77701396,0.039682057,0.03968217,-0.002900409330308662,-0.023271699253560492,-0.024573692878360198,-0.042684344514240045,-0.014434204172848498,0.006610552097324449,0.999976928884289,-0.006686197360376149,-0.0004574194360307249,0.0011078047948009572
2.0166666666666644,0.00043280772,-0.79672986,0.0068578473,-2.3639655,0.0072344015,1.5663272,0.7765147,0.039707523,0.039707635,-0.003174503459302258,-0.02348638624339299,-0.024904947250292686,-0.04416693840343548,-0.014427788938800317,0.006825036885168964,0.999974233458348,-0.007068444160891044,-0.0004579944277239551,0.0011660864623761797
2.033333333333331,0.00044758822,-0.797399,0.007229071,-2.364382,0.007623313,1.5660748,0.77599835,0.039730955,0.039731067,-0.0016999904823844503,-0.023702003240713698,-0.024861925042696242,-0.045664368934760606,-0.014423810205369083,0.0070403807918008425,0.9999712893994427,-0.007463701931162009,-0.00045827419721476584,0.0012261790484046986
2.0499999999999976,0.00046287128,-0.79809034,0.0076126894,-2.3648121,0.008025186,1.5658141,0.77546483,0.039752506,0.03975262,-0.002206422108219641,-0.02389171747715132,-0.025067063627415287,-0.04717628142463694,-0.0144169133824203,0.007255480070087042,0.9999680803295325,-0.007872038626493716,-0.0004584398741374734,0.0012880849407206692
2.066666666666664,0.00047866194,-0.79880446,0.0080088265,-2.365256,0.008440155,1.5655448,0.7749139,0.039772347,0.039772462,-0.0021684640930885735,-0.02407844462454095,-0.025663702058276172,-0.04870215940322868,-0.014407914113904232,0.0074718840557153506,0.999964588598354,-0.008293610639063668,-0.0004584639707262018,0.0013518071902759697
2.083333333333331,0.00049496494,-0.7995413,0.008417595,-2.3657148,0.0088683395,1.565267,0.7743455,0.039790597,0.03979072,-0.003921673640827628,-0.024230512340844487,-0.026062540189397687,-0.05024150697943104,-0.014397141506893522,0.0076869618857737035,0.999960796363091,-0.008728477013809017,-0.00045885562708299364,0.0014173487311811975
2.0999999999999974,0.0005117851,-0.80030113,0.008839111,-2.3661878,0.009309857,1.5649805,0.77375937,0.03980739,0.039807513,-0.002860290168915647,-0.024397027757540324,-0.026030192907544603,-0.0517937380500496,-0.014388236191155077,0.007903678146409385,0.9999566844119263,-0.00917682174392518,-0.0004592299033314121,0.0014847055207987303
2.116666666666664,0.0005291263,-0.8010842,0.0092734825,-2.366675,0.009764823,1.5646853,0.7731553,0.039822835,0.039822962,-0.0023095173032006144,-0.024549117698578413,-0.026159327969188517,-0.053357847563708594,-0.014378725261347345,0.008119517884670684,0.9999522331656161,-0.00963876555063674,-0.00045941064388268024,0.001553875032793994
2.1333333333333306,0.0005469933,-0.8018906,0.009720812,-2.3671768,0.010233346,1.5643812,0.77253324,0.039837062,0.03983719,-0.0036121476619799253,-0.02467167056604512,-0.026697566339062284,-0.05493297161817483,-0.014367458529757578,0.008335104760262096,0.9999474229423649,-0.01011433316883847,-0.000459847761698858,0.0016248555348217857
2.1499999999999972,0.00056538964,-0.8027207,0.010181196,-2.3676934,0.010715528,1.5640684,0.77189296,0.039850146,0.03985028,-0.003164944497480171,-0.024791928137399277,-0.026765924115701445,-0.05651915757494208,-0.014357630824968767,0.008550255743354614,0.9999422322299272,-0.01060369869324675,-0.0004602162130696857,0.001697638975310515
2.166666666666664,0.0005843194,-0.80357444,0.010654735,-2.3682249,0.011211466,1.5637466,0.7712345,0.03986218,0.039862316,-0.0034917600213235644,-0.024906078763247894,-0.0269766287550377,-0.058114816546011805,-0.014345573193070574,0.008764780254294814,0.9999366403222019,-0.011106857845669742,-0.0004607576180174538,0.0017722167928326917
2.1833333333333305,0.00060378626,-0.804452,0.0111415135,-2.368771,0.011721256,1.5634158,0.7705576,0.039873254,0.039873395,-0.0032825035299888228,-0.025000888689548362,-0.027033449653424135,-0.05972072977943806,-0.014334759097900954,0.008978598267609897,0.9999306241235474,-0.011623978951539285,-0.0004612961311232016,0.0018485829996481434
2.199999999999997,0.0006237933,-0.8053536,0.011641618,-2.3693323,0.012244988,1.5630758,0.76986194,0.03988345,0.03988359,-0.0036588684006577665,-0.02508508780011652,-0.027428178864541408,-0.06133496551959778,-0.014321619140468166,0.009192141660580976,0.9999241598262187,-0.012155200124770095,-0.0004619839080835904,0.0019267269204578008
2.2166666666666637,0.0006443443,-0.80627954,0.012155122,-2.3699086,0.01278274,1.5627267,0.76914763,0.039892826,0.03989297,-0.003327593490953795,-0.025148379516859096,-0.027551933491487546,-0.06295648524779723,-0.014309887611980213,0.009403767531860462,0.9999172248582006,-0.012700506463503413,-0.00046258605140785884,0.0020066343938347246
2.2333333333333303,0.0006654416,-0.8072295,0.012682105,-2.3704998,0.0133346,1.5623686,0.76841426,0.039901465,0.03990161,-0.003810531327075317,-0.025220376181635945,-0.027362069281733348,-0.0645856709960261,-0.01429657794266697,0.009614073467338488,0.9999097927093606,-0.01326012158369233,-0.00046328453889823035,0.002088297618936054
2.249999999999997,0.0006870884,-0.80820405,0.013222641,-2.3711066,0.013900635,1.5620013,0.76766294,0.039909407,0.03990956,-0.004176672542421933,-0.025258065839099675,-0.027973073205589394,-0.06622003117534801,-0.014282682821399436,0.009822842388538824,0.9999018466220231,-0.01383349051638544,-0.0004641141275259178,0.002171695208333585
2.2666666666666635,0.0007092873,-0.809203,0.013776797,-2.3717284,0.014480917,1.5616244,0.76689255,0.03991671,0.039916866,-0.0037496810980197637,-0.025305681533843022,-0.02806389111977836,-0.06786532146021675,-0.014269417761232642,0.010029973585198842,0.9998933541324994,-0.014421192789955224,-0.00046513712746246627,0.0022568136006209456
2.28333333333333,0.0007320409,-0.8102267,0.014344629,-2.3723655,0.015075513,1.5612386,0.76610285,0.039923444,0.039923605,-0.0037384696216724578,-0.025328254721446522,-0.027691447769018218,-0.06951550067669221,-0.014255599130812681,0.010235321761326938,0.9998842878927127,-0.015023351736872392,-0.0004659399686973822,0.0023436355985165898
2.2999999999999967,0.0007553512,-0.8112751,0.014926202,-2.3730178,0.01568448,1.5608432,0.7652943,0.039929643,0.039929803,-0.003982613964614856,-0.025341836731531883,-0.02839169518007445,-0.07116929625732504,-0.014238885268113434,0.010439414513364154,0.9998746248003061,-0.01563973789845388,-0.0004668849839162589,0.002432138426662592
2.3166666666666633,0.00077922025,-0.8123484,0.015521561,-2.3736851,0.016307872,1.5604388,0.76446646,0.039935343,0.039935507,-0.0034373437584278577,-0.02534560634059116,-0.02788785956324702,-0.07282920697847015,-0.014223502526945174,0.010640518970392022,0.9998643344266087,-0.01627059162375412,-0.00046752878925867056,0.002522301861204178
2.33333333333333,0.0008036505,-0.81344664,0.016130762,-2.3743677,0.016945748,1.5600246,0.76361936,0.03994059,0.03994076,-0.004080723318256041,-0.02534246181621902,-0.028480723398871532,-0.07449213875023547,-0.014202031443440843,0.010838368939880622,0.9998533892309486,-0.016915886587587692,-0.000468263259635357,0.0026141067042198215
2.3499999999999965,0.00082864315,-0.81456995,0.016753845,-2.3750663,0.017598154,1.5596013,0.76275307,0.039945424,0.039945595,-0.005068275519670706,-0.02530117017878475,-0.02854661911175782,-0.07615842065368912,-0.01418119400410639,0.011035435912810775,0.9998417614941665,-0.017575584555307777,-0.00046912270825257436,0.002707530916910322
2.366666666666663,0.0008541999,-0.8157184,0.01739085,-2.37578,0.018265124,1.5591685,0.7618674,0.03994987,0.03995005,-0.004025682987163215,-0.025278591451340787,-0.02854560271579043,-0.07782820636058405,-0.01415997494527817,0.011228093533368639,0.9998294207294853,-0.01824977755794379,-0.00046990297016698756,0.0028025442058702238
2.3833333333333298,0.00088032236,-0.8168921,0.018041816,-2.3765097,0.018946698,1.5587258,0.7609623,0.039953977,0.039954156,-0.004969518248709726,-0.02522839449118977,-0.02897322399837421,-0.07950008474458402,-0.01413684892725791,0.011419702365508256,0.9998163366107099,-0.01893848893978228,-0.00047093654177037637,0.002899120865223729
2.3999999999999964,0.00090701156,-0.818091,0.018706769,-2.377255,0.019642914,1.558274,0.7600378,0.03995775,0.039957933,-0.0049075424402245105,-0.025174493089672595,-0.028537391442329252,-0.08117317621863929,-0.014113695452290794,0.011607478172387595,0.999802479073376,-0.01964170784826886,-0.00047193020878989,0.002997237630341062
2.416666666666663,0.00093426835,-0.81931525,0.019385742,-2.3780167,0.020353794,1.5578125,0.7590937,0.039961215,0.039961405,-0.006246961632383474,-0.02508414054573846,-0.029398991073970038,-0.0828476931480974,-0.014088120719002235,0.011791238473127588,0.9997878158925212,-0.02035948121110196,-0.0004734550555815543,0.0030968626038701693
2.4333333333333296,0.0009620938,-0.8205647,0.020078754,-2.3787944,0.021079365,1.5573416,0.7581302,0.039964415,0.039964605,-0.0056744767780614325,-0.025020441291835616,-0.028710328939651752,-0.0845221433412998,-0.014067623098836843,0.011973513729470711,0.9997723169699355,-0.021091738806846342,-0.0004751587430214964,0.0031979679234484465
2.449999999999996,0.0009904887,-0.8218395,0.02078583,-2.3795877,0.02181965,1.556861,0.7571471,0.039967354,0.039967548,-0.004860763089231668,-0.024953688344522135,-0.028912574754746956,-0.08619723599821064,-0.014045695240556166,0.01215157999285272,0.9997559483755375,-0.021838563707709435,-0.0004768675520854685,0.0033005181792595613
2.466666666666663,0.0010194532,-0.82313997,0.02150698,-2.3803964,0.022574658,1.5563709,0.75614434,0.039970074,0.039970275,-0.004745884129886413,-0.02484329774240651,-0.029053013622282187,-0.08787131070065596,-0.014022473927114629,0.012325292594174118,0.9997386775558333,-0.022599937901702123,-0.00047846764008247747,0.0034044785900733234
2.4833333333333294,0.0010489877,-0.8244656,0.022242207,-2.3812208,0.023344416,1.555871,0.755122,0.039972562,0.039972767,-0.005797302411725269,-0.02473166262192128,-0.028893817779973574,-0.089543882437035,-0.013996063158823485,0.012496032909669545,0.9997204712024302,-0.023375838810780102,-0.0004803219698588271,0.003509830407381028
2.499999999999996,0.0010790924,-0.82581663,0.022991529,-2.3820608,0.024128918,1.5553619,0.75408006,0.039974872,0.039975077,-0.005107996899256229,-0.024623535222568355,-0.028697580392833544,-0.09121442709982198,-0.013970331624689698,0.012663750602902327,0.9997012957511395,-0.02416625180843475,-0.00048198935412220676,0.003616522264045642
2.5166666666666626,0.0011097674,-0.82719314,0.023754949,-2.3829165,0.02492817,1.5548428,0.7530186,0.03997699,0.039977204,-0.0058470290946965875,-0.024483205080848974,-0.02924851834209541,-0.0928826579238844,-0.01394080048526989,0.012824886780452523,0.9996811182708986,-0.024971094322212704,-0.00048389298018272555,0.0037245225976590304
2.533333333333329,0.0011410125,-0.82859516,0.024532465,-2.3837879,0.025742158,1.5543146,0.7519377,0.03997895,0.039979167,-0.005707541759214507,-0.02433975012380435,-0.028751834777018814,-0.0945486640167118,-0.013912125941542005,0.012984440030411576,0.9996599044529242,-0.025790340549611185,-0.00048565139622731797,0.003833784843573224
2.549999999999996,0.0011728274,-0.8300224,0.025324065,-2.3846753,0.0265709,1.5537766,0.750837,0.039980773,0.03998099,-0.006765676880338134,-0.024178418205354768,-0.02913290648700606,-0.09621166043825317,-0.01387909919640386,0.013139957020124243,0.9996376158550317,-0.026624078526916565,-0.00048783616392957354,0.0039442903211912095
2.5666666666666624,0.0012052117,-0.831475,0.026129747,-2.3855789,0.027414376,1.553229,0.7497169,0.039982446,0.03998267,-0.007097178688941774,-0.024009451654884856,-0.029246461113308087,-0.09786984336552786,-0.013847942818622713,0.013289391542789304,0.9996142200038527,-0.027472160146422158,-0.0004904241680478067,0.00405599150810212
2.583333333333329,0.0012381648,-0.83295316,0.026949497,-2.3864982,0.028272571,1.5526717,0.7485771,0.039983984,0.03998421,-0.006321498480676979,-0.023852479393158404,-0.02911004824630581,-0.09952438598826979,-0.013819369810270002,0.013435154061377179,0.9995896792665595,-0.02833461990817575,-0.0004931235143197261,0.00416884248150732
2.5999999999999956,0.0012716852,-0.8344565,0.027783297,-2.3874338,0.029145468,1.552105,0.7474178,0.039985415,0.039985646,-0.007525990797763171,-0.02365004291501535,-0.028966104766969814,-0.10117320508120431,-0.013788162543555083,0.013576499268665616,0.9995639580242316,-0.029211387420789273,-0.0004962087654618675,0.004282807577475235
2.6166666666666623,0.0013057725,-0.83598506,0.02863113,-2.3883846,0.030033052,1.5515288,0.74623907,0.03998673,0.03998696,-0.006073069478707005,-0.023507938097845626,-0.02856031209350629,-0.10281663138412198,-0.013759476635940467,0.013713890656718838,0.999537021023689,-0.030102381680122664,-0.000499210016768918,0.004397841474304418
2.633333333333329,0.0013404257,-0.837539,0.029492965,-2.389351,0.030935293,1.5509431,0.74504083,0.039987948,0.039988186,-0.006491040780676194,-0.023283607276657764,-0.02884706172714413,-0.10445459763999616,-0.013726892245968653,0.0138447408762669,0.9995088302515662,-0.031007591494410063,-0.0005022230984820771,0.004513899735356073
2.6499999999999955,0.0013756433,-0.8391181,0.03036878,-2.3903327,0.03185216,1.550348,0.7438231,0.039989058,0.0399893,-0.006869874029247214,-0.023080372907723773,-0.028620767358500387,-0.10608576795722555,-0.013691835231624025,0.013971484344260578,0.9994793479787817,-0.03192697997295513,-0.0005053143988762909,0.004630936306450876
2.666666666666662,0.0014114239,-0.84072244,0.03125854,-2.3913302,0.032783613,1.5497434,0.74258596,0.03999007,0.03999032,-0.007417050431235417,-0.022833498727531376,-0.028836905998685936,-0.1077096536302261,-0.013655574838464718,0.014092348879955849,0.9994485372413041,-0.032860471443009034,-0.0005086397951249106,0.0047489060129100825
2.6833333333333287,0.001447766,-0.84235173,0.032162204,-2.392343,0.03372964,1.5491292,0.7413295,0.039991032,0.03999128,-0.00702945846691172,-0.022646186121418055,-0.02849661880126586,-0.1093258993542194,-0.013617539648912186,0.014210758140598072,0.9994163615055929,-0.03380797082759281,-0.0005120872520377466,0.004867774654710007
2.6999999999999953,0.001484668,-0.8440062,0.03307974,-2.393372,0.034690186,1.5485058,0.7400537,0.039991897,0.039992154,-0.008553967403002183,-0.022352921822110794,-0.028808931632062773,-0.11093412160302892,-0.013578808292485992,0.014320522998922634,0.9993827826277277,-0.034769419651369225,-0.0005159319190754727,0.0049874902127206066
2.716666666666662,0.0015221271,-0.8456854,0.034011107,-2.3944163,0.03566519,1.5478729,0.73875874,0.03999273,0.039992984,-0.007525102196970224,-0.022140510236252908,-0.028287874373522648,-0.11253374910760262,-0.0135413811034623,0.014428360248618058,0.9993477636016309,-0.03574472602893866,-0.0005199431216066168,0.005107994193926133
2.7333333333333285,0.0015601423,-0.84738964,0.034956258,-2.3954759,0.03665463,1.5472307,0.73744464,0.039993472,0.039993733,-0.007478334681709775,-0.021900063489677102,-0.0282876810425714,-0.11412446852768351,-0.013502824696327777,0.014528381457810685,0.9993112665602086,-0.03673381224286014,-0.0005239791759985821,0.005229245620649194
2.749999999999995,0.0015987116,-0.8491186,0.035915148,-2.396551,0.03765845,1.546579,0.7361114,0.039994184,0.039994445,-0.008382425994124532,-0.02162494285529032,-0.028418304029598218,-0.11570602019728994,-0.013460848853769039,0.014624629632986351,0.9992732521576739,-0.037736626172121965,-0.0005284049664546444,0.005351201319570523
2.7666666666666617,0.0016378319,-0.85087216,0.03688773,-2.3976417,0.038676582,1.545918,0.7347592,0.03999482,0.039995093,-0.009013495799337079,-0.021335438010693097,-0.02825704663635964,-0.117277263078516,-0.013420300198748708,0.014712906421484068,0.999233684513442,-0.0387530234330709,-0.0005332881222642492,0.005473802359026436
2.7833333333333283,0.0016775008,-0.85265034,0.037873928,-2.3987477,0.039708983,1.5452478,0.7333882,0.039995424,0.039995696,-0.008349808348540044,-0.021062259650585224,-0.027951813575333162,-0.1188386991771723,-0.01337914715134416,0.014798178620611876,0.999192526677746,-0.03978288948401682,-0.000538338148220301,0.005597010602317474
2.799999999999995,0.0017177161,-0.85445297,0.038873687,-2.399869,0.04075559,1.5445685,0.731998,0.03999597,0.03999624,-0.008679948215584155,-0.020784491883148182,-0.027744764690496027,-0.12038971076100694,-0.013338166127994953,0.01487770112816568,0.9991497329350463,-0.04082632054761597,-0.0005435917355429929,0.005720772185131047
2.8166666666666615,0.0017584749,-0.8562801,0.039886966,-2.401005,0.04181632,1.5438799,0.7305892,0.039996475,0.039996754,-0.008112074609845088,-0.020517581063264623,-0.027827956017523192,-0.12192789765926576,-0.01329531211304235,0.014949922284433342,0.99910527256393,-0.04188303616918631,-0.0005489690751705704,0.0058450191753523836
2.833333333333328,0.0017997748,-0.85813135,0.04091366,-2.402156,0.04289112,1.5431821,0.7291618,0.03999696,0.039997242,-0.008952554075669639,-0.020168573541781698,-0.027436553125226304,-0.1234551263565606,-0.013249957325947012,0.01501724137267603,0.9990591077034602,-0.04295292925609122,-0.0005545964350288738,0.005969724104305529
2.8499999999999948,0.0018416125,-0.86000663,0.04195373,-2.4033225,0.04397991,1.5424751,0.7277157,0.039997417,0.0399977,-0.009740830547166901,-0.01986591118003367,-0.02762231245714286,-0.12497062433892628,-0.013204156852367123,0.015079511047159926,0.9990111956003044,-0.04403600439621498,-0.0005607797175675569,0.006094826344962113
2.8666666666666614,0.0018839848,-0.8619059,0.043007102,-2.4045036,0.04508262,1.5417589,0.7262508,0.03999781,0.039998103,-0.009146105457391585,-0.01957270671431449,-0.027277950974213816,-0.1264726888139403,-0.013160321967700755,0.015133605127520537,0.9989614959825928,-0.04513220530385793,-0.0005672586144936688,0.006220273811918853
2.883333333333328,0.0019268886,-0.8638291,0.04407368,-2.4056993,0.04619917,1.5410343,0.7247682,0.03999819,0.039998483,-0.008668663482436223,-0.019251448784181335,-0.02652923252417505,-0.12796083836742952,-0.013114920195578098,0.015184169871117044,0.9989099911031641,-0.046240987820580406,-0.0005735075194312939,0.00634600730998401
2.8999999999999946,0.0019703195,-0.86577606,0.04515339,-2.4069097,0.04732947,1.5403007,0.7232667,0.03999855,0.039998844,-0.009670219044921602,-0.018892344051194,-0.02702979461135513,-0.12943807808370367,-0.013064650153173783,0.015228668428185523,0.9988566150036977,-0.04736285068576989,-0.0005800970597741624,0.00647198004274058
2.916666666666661,0.0020142752,-0.86774665,0.046246167,-2.408135,0.048473448,1.5395577,0.7217474,0.039998896,0.039999194,-0.01015643690549517,-0.018557932316165537,-0.027164502645882216,-0.13089878398598873,-0.013013218588575216,0.015266470243125399,0.9988013524519739,-0.04849719499157819,-0.0005873069901239669,0.0065981428111114475
2.933333333333328,0.002058752,-0.8697405,0.04735191,-2.4093745,0.04963101,1.5388064,0.7202101,0.039999213,0.039999515,-0.009527777929618786,-0.018252103075196147,-0.025848750308599122,-0.13234664500474608,-0.012963770669759983,0.015298366419700914,0.9987441602357396,-0.04964404179242298,-0.000594489128580648,0.006724439916859491
2.9499999999999944,0.0021037466,-0.8717578,0.048470546,-2.4106286,0.050802045,1.5380459,0.7186549,0.039999485,0.039999798,-0.010221424062151208,-0.01784617384795184,-0.02683936283940369,-0.13377993628147394,-0.012910982745137078,0.015322393872329428,0.9986850015598743,-0.05080326272731391,-0.0006021888137771078,0.006850804642227235
2.966666666666661,0.0021492539,-0.8737981,0.049601965,-2.411897,0.05198649,1.5372772,0.7170818,0.039999746,0.04,-0.010175113741772712,-0.017536179563472365,-0.025517764378735208,-0.1351982379111326,-0.012858255341404064,0.01534315791831091,0.9986238374710814,-0.051974780247584874,-0.0006099665442826982,0.006977205283033507
2.9833333333333276,0.0021952689,-0.8758613,0.05074609,-2.41318,0.053184412,1.5364995,0.71549106,0.039999906,0.04,-0.011472189181427339,-0.017246100091279637,-0.0263824537310553,-0.13660071917522737,-0.012801791056360569,0.01536770578965193,0.9985606339349015,-0.05315840073337738,-0.0006185451634393016,0.007103674322352442
2.9999999999999942,0.0022417873,-0.87794703,0.051902812,-2.4144773,0.05439571,1.5357133,0.71388274,0.039999984,0.04,-0.010687484917659695,-0.016918178781973048,-0.025375034888508452,-0.13798742501328615,-0.01274924098712421,0.015383750316274765,0.9984953534620196,-0.05435402630338217,-0.0006274858543016893,0.007230159117922995
3.016666666666661,0.002288807,-0.88005555,0.053072024,-2.4157887,0.055620164,1.5349188,0.7122571,0.04,0.04,-0.010605235718208483,-0.01644959623067488,-0.025367899315176246,-0.13935792389607704,-0.012696177082732983,0.015388050378158838,0.9984279644901092,-0.055561459044192185,-0.0006366198594143335,0.007356541862350269
3.0333333333333274,0.0023363235,-0.8821861,0.054253653,-2.4171135,0.056857623,1.5341158,0.7106142,0.04,0.04,-0.010748731713694504,-0.016093078229641178,-0.02482383091464424,-0.14071146540332957,-0.012640184962568163,0.015383938531015037,0.9983584310857774,-0.05678057832459463,-0.0006461355117363811,0.007482747755340598
3.049999999999994,0.002384332,-0.8843391,0.055447564,-2.4184525,0.05810793,1.5333043,0.7089543,0.04,0.04,-0.011387208519120229,-0.015590705320593645,-0.02515525618207448,-0.14204836127885065,-0.01258372621464006,0.015373040267073555,0.9982867215843644,-0.05801119437709906,-0.0006561010336207556,0.007608703353241703
3.0666666666666607,0.002432828,-0.886514,0.056653667,-2.4198046,0.059370957,1.5324845,0.70727736,0.04,0.04,-0.010411610257343717,-0.015282627913870694,-0.02437303932938395,-0.1433680965576331,-0.012527760920419573,0.015354096232628983,0.9982127987886676,-0.05925322340628337,-0.0006662278612112215,0.007734338426592688
3.0833333333333273,0.0024818073,-0.8887108,0.057871845,-2.4211705,0.06064659,1.5316567,0.7055835,0.04,0.04,-0.011754764479188218,-0.014817404685567304,-0.024298824006896425,-0.14466995979779868,-0.012469045160938129,0.015330787000488205,0.9981366280965361,-0.06050653069981208,-0.0006767323172502498,0.007859607376996432
3.099999999999994,0.0025312642,-0.8909291,0.05910199,-2.42255,0.061934743,1.5308207,0.7038731,0.04,0.04,-0.011974060907005146,-0.014454340412758948,-0.024127277269081482,-0.14595303497733114,-0.01240811954897756,0.015301611640458401,0.9980581824988816,-0.061770862109095485,-0.0006878025912337091,0.00798447674702681
3.1166666666666605,0.0025811936,-0.8931687,0.06034399,-2.4239426,0.06323527,1.5299766,0.7021462,0.04,0.04,-0.01155929056533278,-0.014060335864359008,-0.023657520728814774,-0.14721842875434937,-0.012349573116427703,0.015266732606889245,0.9979774270411361,-0.06304611192842041,-0.0006992687067528157,0.008108878488330935
3.133333333333327,0.0026315919,-0.8954296,0.06159771,-2.4253485,0.064548045,1.5291244,0.70040303,0.04,0.04,-0.012091985165763042,-0.013613169362769462,-0.023718392085969597,-0.14846459316192417,-0.012288754303204204,0.01522600557648579,0.9978943354952949,-0.0643320367755516,-0.0007112290529187606,0.008232762838015441
3.1499999999999937,0.0026824533,-0.8977114,0.06286303,-2.4267669,0.06587297,1.5282644,0.69864374,0.04,0.04,-0.011031580611198244,-0.013302373323115235,-0.022753039136791386,-0.14969251371539333,-0.012226959437690109,0.01518020860220927,0.997808873093447,-0.06562854192773206,-0.000723275010158517,0.008356083633191836
3.1666666666666603,0.0027337726,-0.9000139,0.06413981,-2.4281988,0.06720989,1.5273967,0.69686854,0.04,0.04,-0.013341225966967407,-0.012731806770260867,-0.02307867945170461,-0.15090079091438824,-0.01216403392938107,0.015127332609134833,0.997721014603555,-0.06693538026171507,-0.000736069766695291,0.008478802331171742
3.183333333333327,0.0027855448,-0.902337,0.06542798,-2.4296432,0.06855866,1.5265211,0.6950775,0.04,0.04,-0.01174000093659977,-0.012443872106224219,-0.022538418356643497,-0.152089905891003,-0.012100520703902044,0.015068613193694597,0.997630725014377,-0.0682524801428695,-0.000749177114230882,0.008600825267798632
3.1999999999999935,0.002837764,-0.9046805,0.066727355,-2.4311,0.06991921,1.5256379,0.69327074,0.04,0.04,-0.012020452523953118,-0.012013251800460645,-0.022187345260249458,-0.15325844825420792,-0.012036657600258148,0.015005981098708918,0.9975379769566821,-0.06957964536639398,-0.0007625736778920277,0.008722153475064196
3.21666666666666,0.0028904257,-0.90704376,0.06803782,-2.4325695,0.07129136,1.5247471,0.6914487,0.04,0.04,-0.01354968855196148,-0.011508910372889924,-0.021877606906084424,-0.15440696808261828,-0.01196910651905373,0.014936749859446347,0.9974427501225982,-0.07091659267215648,-0.0007767456130832378,0.008842724574019597
3.2333333333333267,0.002943522,-0.90942687,0.06935928,-2.4340513,0.07267498,1.5238492,0.6896114,0.04,0.04,-0.012361510138303444,-0.011198296718842315,-0.021292556370267057,-0.1555353627535718,-0.011904041789551761,0.01486201608050873,0.997345012585879,-0.07226322770686759,-0.0007911361599471739,0.008962471480262232
3.2499999999999933,0.0029970491,-0.91182965,0.07069155,-2.435545,0.07406993,1.5229437,0.687759,0.04,0.04,-0.012462126319889855,-0.010708804940881556,-0.021373614040642863,-0.15664284711380866,-0.011836688648788299,0.014781827049948917,0.997244738628285,-0.07361936321546529,-0.0008059613365209639,0.00908135806347413
3.26666666666666,0.0030510006,-0.9142515,0.072034515,-2.4370506,0.075476065,1.5220311,0.6858918,0.04,0.04,-0.013067630321828005,-0.010301936685144786,-0.020610998281300752,-0.15772931676752663,-0.011767914152810081,0.014696069541046658,0.9971419074990827,-0.07498475839121616,-0.0008212897793191087,0.009199336997862337
3.2833333333333266,0.00310537,-0.9166925,0.07338801,-2.4385676,0.07689325,1.5211114,0.68401,0.04,0.04,-0.012345901477139876,-0.009883552955333719,-0.020285255891638876,-0.15879472056590582,-0.011697795105976863,0.014604949817567547,0.997036495084373,-0.07635923392121544,-0.00083680155054666,0.009316363453584069
3.299999999999993,0.0031601526,-0.9191522,0.07475191,-2.4400969,0.07832132,1.5201844,0.6821136,0.04,0.04,-0.01419960685873356,-0.009355481302453228,-0.020416609794793317,-0.15983872353887202,-0.01162483549990942,0.014508441304287467,0.9969284697169752,-0.07774270487312983,-0.0008531884185898018,0.009432400346785543
3.3166666666666598,0.0032153423,-0.92163044,0.07612607,-2.441638,0.07976012,1.5192504,0.68020284,0.04,0.04,-0.014066387716615836,-0.008901223865562247,-0.019955602576193776,-0.16086021304011433,-0.011554877591512462,0.014406886615615663,0.996817815898556,-0.07913489617105483,-0.0008703101568640563,0.009547391028961467
3.3333333333333264,0.0032709315,-0.9241271,0.07751034,-2.4431903,0.0812095,1.5183095,0.67827815,0.04,0.04,-0.013114507230582717,-0.00855323197618274,-0.019439973197199478,-0.16185981747183076,-0.011485410439545735,0.0142996434722336,0.9967045175953524,-0.08053555755633261,-0.0008878189250930807,0.009661281057021095
3.349999999999993,0.0033269143,-0.9266415,0.07890457,-2.444754,0.08266931,1.5173616,0.67633957,0.04,0.04,-0.013903519796065744,-0.008068757154397477,-0.01898534810682584,-0.16283750931012853,-0.011414895471970249,0.014188789596513027,0.9965885497479501,-0.08194455196571564,-0.0009060483858400482,0.00977404679435542
3.3666666666666596,0.0033832858,-0.9291737,0.08030861,-2.4463277,0.0841394,1.5164075,0.6743873,0.04,0.04,-0.012282713625388908,-0.007766745499188099,-0.018090479929067094,-0.1637928300499678,-0.011344266622674057,0.014071456349290357,0.9964698906359054,-0.08336172608380507,-0.0009242330341923091,0.009885619540212236
3.383333333333326,0.0034400388,-0.93172324,0.08172233,-2.447913,0.08561959,1.5154468,0.6724215,0.04,0.04,-0.014916004663012572,-0.007144729923341808,-0.018381109765064352,-0.1647247721958353,-0.011268192077371834,0.013949053404074888,0.9963485263022894,-0.08478682015642584,-0.0009433028111074625,0.009995971329719766
3.399999999999993,0.0034971668,-0.93429,0.08314555,-2.4495087,0.08710974,1.5144795,0.6704427,0.04,0.04,-0.013587437631223942,-0.006789350276356632,-0.017858694617323145,-0.1656340110217826,-0.011194823085239045,0.013823555816553118,0.9962244471757575,-0.08621955469692907,-0.0009628495836968409,0.010105056056198413
3.4166666666666594,0.0035546636,-0.9368737,0.0845781,-2.4511158,0.08860966,1.5135058,0.6684507,0.04,0.04,-0.015581502013639614,-0.006155521566314492,-0.01784545595535647,-0.1665208564925985,-0.0111210732301995,0.013692097078994464,0.9960976272735484,-0.0876598387809479,-0.0009834421629346867,0.010212856917505357
3.433333333333326,0.003612522,-0.9394739,0.086019844,-2.452732,0.09011922,1.5125262,0.66644603,0.04,0.04,-0.011930688875838591,-0.006082116166855611,-0.016323457309841416,-0.1673840414313354,-0.011050103930335536,0.013556813330297818,0.9959680566731896,-0.08910743265723012,-0.0010038420334773865,0.01031929421227737
3.4499999999999926,0.0036707362,-0.9420906,0.08747062,-2.4543588,0.09163827,1.5115402,0.6644287,0.04,0.04,-0.014756402772908572,-0.005404289916727256,-0.01690263150124771,-0.16822346296544888,-0.010971691407096792,0.0134173556346745,0.9958357191194034,-0.09056214645969923,-0.0010250352562503778,0.010424368435358346
3.4666666666666592,0.0037292992,-0.9447232,0.08893027,-2.455995,0.09316654,1.5105476,0.6623991,0.04,0.04,-0.013772902712716473,-0.004988823739740522,-0.01639314921968449,-0.16903937997355134,-0.01089547437997554,0.013272144675944772,0.9957006064451689,-0.09202373478649088,-0.0010468829101899166,0.010527991111355337
3.483333333333326,0.0037882032,-0.9473714,0.09039862,-2.4576418,0.094703935,1.50955,0.66035736,0.04,0.04,-0.015390670007842111,-0.004477848785716665,-0.015363364584919381,-0.16983141931904647,-0.010818670773357714,0.013123629312423293,0.9955627077554511,-0.09349198314752619,-0.0010693274250236275,0.0106301718064722
3.4999999999999925,0.0038474419,-0.95003504,0.09187548,-2.4592974,0.096250266,1.5085459,0.65830374,0.04,0.04,-0.01337030172616771,-0.004161643042152607,-0.015493542638456148,-0.17059954791690496,-0.010741916488055128,0.01296894059084304,0.9954220107820203,-0.0949667093632598,-0.0010923183245310228,0.01073086222405226
3.516666666666659,0.003907008,-0.9527139,0.09336074,-2.460963,0.09780536,1.5075365,0.65623844,0.04,0.04,-0.015243041623325126,-0.003612003366454397,-0.014851010584893132,-0.17134344870054544,-0.010664047661077578,0.012807758975074551,0.9952785093810016,-0.09644767681539854,-0.0011159205204235515,0.01083001027867308
3.5333333333333257,0.0039668963,-0.9554075,0.094854176,-2.4626374,0.09936904,1.5065215,0.6541618,0.04,0.04,-0.01401950393875584,-0.003253310474540805,-0.014368639748019163,-0.17206289543131698,-0.010585845573561951,0.012647381327867774,0.9951321992331637,-0.09793464035464483,-0.0011400505740742173,0.01092760507440006
3.5499999999999923,0.0040270966,-0.9581155,0.09635562,-2.464321,0.10094116,1.505501,0.6520739,0.04,0.04,-0.014705797393022024,-0.0027659064958635016,-0.01390334163577922,-0.17275859117209708,-0.010506604238565379,0.012482993215699886,0.9949830678122286,-0.09942744859181116,-0.0011648007801532657,0.011023632460833868
3.566666666666659,0.0040876046,-0.96083784,0.09786495,-2.4660137,0.10252148,1.504475,0.6499752,0.04,0.04,-0.015422609065640636,-0.002265326572700732,-0.013977164419065602,-0.1734288103816392,-0.010427570404222389,0.012314204727558037,0.994831119487018,-0.10092579534623823,-0.001190478050858981,0.01111801672720429
3.5833333333333255,0.004148411,-0.9635741,0.09938193,-2.467715,0.10410982,1.5034441,0.64786583,0.04,0.04,-0.014441281259625072,-0.0018698659015409236,-0.012866756796614531,-0.17407539176058134,-0.010350018834063966,0.01214159865612971,0.9946763516199094,-0.10242946310792855,-0.0012165494792654222,0.011210736946891675
3.599999999999992,0.004209512,-0.9663238,0.1009064,-2.4694247,0.10570604,1.5024078,0.64574593,0.04,0.04,-0.014797130112809143,-0.00145516764980258,-0.012727626335662379,-0.17469769082907666,-0.010271657712084048,0.011966872551329555,0.9945187510525035,-0.10393833333161101,-0.001243405437672129,0.011301796854172165
3.6166666666666587,0.0042708963,-0.96908677,0.10243821,-2.4711423,0.10730995,1.5013666,0.64361596,0.04,0.04,-0.014076570597154614,-0.0011036087558813357,-0.012015002659093721,-0.17529430049192218,-0.010191951390429027,0.011788880904927551,0.9943583280087614,-0.10545208893590431,-0.0012706370491055055,0.011391134279071914
3.6333333333333253,0.004332557,-0.9718626,0.10397718,-2.472868,0.10892135,1.5003207,0.6414759,0.04,0.04,-0.014921739602336004,-0.0005892328299283989,-0.011653985512616316,-0.17586678732602656,-0.010111828371534404,0.011607516006196639,0.9941950720443511,-0.10697060976116173,-0.0012985141641994186,0.01147872950365597
3.649999999999992,0.004394488,-0.974651,0.10552312,-2.4746015,0.110540055,1.4992696,0.63932616,0.04,0.04,-0.015058829698011422,-0.00013757676717851552,-0.011513570043764076,-0.1764134350703646,-0.010030626971566509,0.011423361804675222,0.9940289900476689,-0.10849362114370957,-0.0013272787018516264,0.011564577259205419
3.6666666666666585,0.0044566817,-0.9774516,0.10707584,-2.476343,0.11216588,1.498214,0.63716704,0.04,0.04,-0.015184447533145295,0.00030067044161918854,-0.01080676655172974,-0.17693509663817902,-0.009951596151223166,0.011237112865703294,0.9938600927768174,-0.11002083556731392,-0.0013567558453213208,0.0116486454277827
3.683333333333325,0.0045191306,-0.98026437,0.10863517,-2.4780917,0.11379865,1.4971541,0.6349987,0.04,0.04,-0.014570955793935525,0.0006694666871864818,-0.010234567563038866,-0.1774319482983227,-0.009873051931593685,0.011046639064758404,0.9936883765904542,-0.11155211085393146,-0.0013866812086349252,0.011730895459661153
3.6999999999999917,0.004581827,-0.98308855,0.11020093,-2.479848,0.11543809,1.49609,0.63282114,0.04,0.04,-0.015206646748411323,0.0011827565795013983,-0.009657687220743227,-0.17790338772482736,-0.009792048507549111,0.010854346690769012,0.9935138378656924,-0.1130873046858403,-0.0014173244606725925,0.011811294579674317
3.7166666666666583,0.004644763,-0.985924,0.11177289,-2.4816103,0.117084116,1.4950216,0.63063544,0.04,0.04,-0.013534045383600812,0.0013969212340370074,-0.009203721294992473,-0.17834882106494843,-0.009712393144107795,0.010660420527221937,0.9933365212854985,-0.11462586565709376,-0.0014483051912601462,0.011889861851979591
3.733333333333325,0.004707932,-0.98877037,0.11335093,-2.4833796,0.11873647,1.493949,0.62844086,0.04,0.04,-0.015019786125236578,0.0019587887277683347,-0.0088530113247276,-0.17877068940075885,-0.00962838340903982,0.010462859090494964,0.993156383950553,-0.11616801889228523,-0.0014799788806614234,0.011966539492115319
3.7499999999999916,0.004771325,-0.9916276,0.114934795,-2.4851553,0.12039496,1.4928724,0.62623847,0.04,0.04,-0.014383043241217308,0.002392324482564101,-0.008601702202215566,-0.17916550110059698,-0.009546298474466405,0.010262727846495012,0.992973482856106,-0.11771313481725705,-0.0015122015478244684,0.012041323954926488
3.766666666666658,0.0048349337,-0.9944949,0.116524346,-2.4869378,0.12205939,1.4917918,0.6240282,0.04,0.04,-0.015372357434784156,0.002833938631013888,-0.007902490020161856,-0.17953597170220453,-0.009462355812382639,0.010061883680568331,0.9927878123602313,-0.11926113285443325,-0.001545270671703859,0.01211420479497085
3.7833333333333248,0.0048987516,-0.99737227,0.118119374,-2.4887266,0.12372958,1.4907075,0.62181026,0.04,0.04,-0.015142314141969315,0.00324791961021087,-0.007615057478893572,-0.1798817046286194,-0.009380261999769143,0.009859447192155993,0.9925993803946508,-0.12081182861364229,-0.0015791267001451373,0.012185174026179087
3.7999999999999914,0.0049627707,-1.0002586,0.11971969,-2.4905214,0.1254053,1.4896196,0.6195848,0.04,0.04,-0.015266467086094693,0.00361683704293847,-0.006578138310164849,-0.1802017281691895,-0.009299311672564106,0.009653273391455636,0.9924081941515188,-0.12236504855163759,-0.0016139481823284215,0.012254233763951197
3.816666666666658,0.0050269812,-1.0031536,0.12132509,-2.4923215,0.12708637,1.4885281,0.6173519,0.04,0.04,-0.014332801495853253,0.003921983576504751,-0.00607824120455458,-0.18049571256114627,-0.009221048221694325,0.009448394927542847,0.992214253102014,-0.12392069545732996,-0.0016494965584358603,0.012321377345397235
3.8333333333333246,0.0050913775,-1.0060592,0.122935385,-2.4941273,0.1287726,1.4874336,0.6151128,0.04,0.04,-0.013390015563330415,0.00443001131992804,-0.0067164274321185324,-0.18076243137865733,-0.009143187599989486,0.009238849479759448,0.99201764109321,-0.12547803221704582,-0.0016848303551603172,0.01238646589933963
3.849999999999991,0.0051559517,-1.0089735,0.12455042,-2.495938,0.13046376,1.4863358,0.61286706,0.04,0.04,-0.013940060818873334,0.004716894147022144,-0.005445021382777249,-0.18100691982596903,-0.00905734766497604,0.009030585162861593,0.9918183286771888,-0.12703720410462013,-0.0017205998258159932,0.012449546558338874
3.866666666666658,0.005220696,-1.0118955,0.12616998,-2.497754,0.1321597,1.485235,0.6106147,0.04,0.04,-0.015112941652928313,0.00516973722365921,-0.004708030498956628,-0.1812255771275164,-0.008969876551375183,0.008819846856953917,0.9916163202776017,-0.1285980877046434,-0.0017572738125345604,0.012510682897649741
3.8833333333333244,0.005285602,-1.0148246,0.12779386,-2.4995747,0.13386017,1.4841311,0.60835636,0.04,0.04,-0.014601901694577535,0.005492632928583152,-0.004054411297194083,-0.18141757649310564,-0.008884316872727546,0.00860814204839147,0.9914116536351921,-0.13016032223461896,-0.0017949131639934234,0.012569878235194778
3.899999999999991,0.0053506596,-1.017761,0.12942185,-2.5014,0.13556494,1.4830244,0.6060923,0.04,0.04,-0.014741394206119196,0.006023114085809689,-0.003922459700245184,-0.18158396913716185,-0.008802943673732022,0.008393432286453811,0.9912043577120053,-0.13172363699164782,-0.0018333973202994396,0.012627088527822666
3.9166666666666576,0.0054158634,-1.0207047,0.13105376,-2.5032306,0.13727382,1.481915,0.60382307,0.04,0.04,-0.015385232117504088,0.006487719519010504,-0.0038122971372733794,-0.18172523509853383,-0.008721840480520576,0.00818106750971015,0.9909944815966852,-0.13328761937063727,-0.0018727860850280143,0.012682296310410771
3.9333333333333242,0.0054812026,-1.0236552,0.13268936,-2.5050642,0.13898669,1.4808034,0.60154855,0.04,0.04,-0.012332293865702226,0.006426069132164924,-0.0023613265416999596,-0.18184325270417467,-0.008644659002741195,0.007968872530983773,0.9907820078977098,-0.13485237400546246,-0.0019121827526098639,0.012735525446318034
3.949999999999991,0.005546672,-1.0266119,0.13432851,-2.5069025,0.14070319,1.4796891,0.59926885,0.04,0.04,-0.015143234330894373,0.007220077844094508,-0.0027452629602575662,-0.18193535288284723,-0.008560790496964218,0.007752549491809924,0.9905669617043665,-0.13641767236737423,-0.0019526572011008012,0.01278671871523713
3.9666666666666575,0.0056122616,-1.0295748,0.135971,-2.508744,0.14242324,1.4785727,0.59698474,0.04,0.04,-0.01321978031603166,0.00727610364114617,-0.0017585484088922243,-0.1820014419549383,-0.008481669805101691,0.007538709335371679,0.9903493973847398,-0.13798310135104577,-0.001993493948776327,0.012835919254412994
3.983333333333324,0.005677964,-1.0325435,0.13761659,-2.5105894,0.14414653,1.4774541,0.59469634,0.04,0.04,-0.014149840913768585,0.007895782102690374,-0.0017783826535389125,-0.18204292753155324,-0.00839998165919377,0.007323499426076491,0.9901293396093352,-0.1395484704305579,-0.002035046183830431,0.01288308318311854
3.9999999999999907,0.005743771,-1.0355175,0.13926512,-2.512438,0.14587292,1.4763335,0.59240395,0.04,0.04,-0.013942908172226431,0.008101095740631337,-0.0008063121037849008,-0.18206030062631892,-0.008319553748177139,0.007109373304136676,0.9899068164213993,-0.14111357034941766,-0.00207730899683636,0.012928257926783692
4.016666666666658,0.0058096745,-1.0384966,0.14091639,-2.5142891,0.14760217,1.475211,0.5901077,0.04,0.04,-0.012265196494842812,0.00830618409867756,-0.00043289089552978055,-0.18205307974621765,-0.008239606784936418,0.006894337857084182,0.9896818421093507,-0.14267831466568548,-0.002119748186445118,0.01297137582632891
4.033333333333324,0.005875668,-1.0414802,0.14257017,-2.5161436,0.14933404,1.4740869,0.58780783,0.04,0.04,-0.014432131489883204,0.00895264632267967,2.566323793473657e-05,-0.18202040969163585,-0.008157020090002881,0.006677579139271389,0.9894544606676288,-0.14424238543169163,-0.0021631241264806356,0.013012509516640482
4.049999999999991,0.00594174,-1.0444678,0.14422628,-2.5180008,0.1510684,1.472961,0.58550453,0.04,0.04,-0.013960864998452394,0.00915911784206136,0.00039402750192651936,-0.18196323520539387,-0.00807652613059276,0.006463534204592447,0.9892246893723553,-0.14580567445495432,-0.0022074321813302313,0.013051684798056212
4.0666666666666575,0.006007884,-1.0474594,0.1458845,-2.5198605,0.15280502,1.4718338,0.5831985,0.04,0.04,-0.01305397543800435,0.009452044443086782,0.001187446356143429,-0.181880240513346,-0.007999386745249151,0.00624992063343166,0.9889925950058828,-0.1473677579539076,-0.002252194385640446,0.013088871594515111
4.083333333333324,0.006074093,-1.0504541,0.14754467,-2.5217223,0.15454356,1.4707052,0.5808897,0.04,0.04,-0.013337410869529442,0.00983348032471687,0.0014890430712455327,-0.18177426362750454,-0.007921370050471735,0.006036631439397935,0.9887581910252516,-0.14892857084951103,-0.002297824597873235,0.013124041576882088
4.099999999999991,0.006140355,-1.0534521,0.14920656,-2.5235856,0.15628394,1.4695753,0.5785785,0.04,0.04,-0.012006166896072479,0.009957058040427347,0.0020984897052045426,-0.18164342630279323,-0.007846310526724937,0.005825426784912463,0.9885215113581454,-0.1504879262036535,-0.002343781207354517,0.013157216224717534
4.116666666666657,0.0062066647,-1.0564531,0.15086998,-2.5254505,0.15802594,1.4684445,0.5762651,0.04,0.04,-0.012477581210057487,0.010380816135791004,0.0024622407921559564,-0.18148790997997066,-0.007768789838955875,0.005613498990958379,0.9882825998038857,-0.1520455719997198,-0.002390175013853757,0.013188404890429018
4.133333333333324,0.0062730154,-1.0594562,0.15253466,-2.527317,0.15976931,1.4673127,0.5739498,0.04,0.04,-0.013091726786051971,0.010795291436721532,0.0030183249376869448,-0.18130778848163737,-0.00769008062247728,0.005403288851145882,0.9880414949979579,-0.15360128950075452,-0.0024374089051587807,0.013217679967943456
4.149999999999991,0.006339396,-1.0624613,0.15420046,-2.5291855,0.16151385,1.4661802,0.5716332,0.04,0.04,-0.013558252137002569,0.01116916789511424,0.003375529326354876,-0.18110385465987078,-0.0076141729993385865,0.005193998952675652,0.9877982650832449,-0.15515469217671257,-0.0024855982472192324,0.013245029083938407
4.166666666666657,0.006405798,-1.0654682,0.15586711,-2.5310545,0.16325939,1.4650474,0.5693153,0.04,0.04,-0.011024659860425778,0.011167855282745442,0.00418967044367724,-0.18087749554347068,-0.007542376705181111,0.004987662030582332,0.9875529207075854,-0.15670578761612253,-0.00253384385933936,0.01327043951136535
4.183333333333324,0.0064722155,-1.0684762,0.15753448,-2.5329247,0.16500561,1.4639137,0.5669964,0.04,0.04,-0.012967063352675723,0.011743127168223344,0.00416905962332681,-0.18062701972056122,-0.0074661681506179856,0.004779363783142171,0.9873055113984608,-0.15825430755479739,-0.002583149110236501,0.013293932572784757
4.19999999999999,0.006538638,-1.0714852,0.15920234,-2.534795,0.1667524,1.4627799,0.5646767,0.04,0.04,-0.011198802699174948,0.011749600640781344,0.005154353506309217,-0.18035293522166815,-0.007395676917073629,0.004574558678300533,0.9870560710189703,-0.15980012026991555,-0.0026327332352291386,0.013315515086771696
4.216666666666657,0.006605057,-1.0744947,0.16087046,-2.5366654,0.16849943,1.461646,0.56235677,0.04,0.04,-0.011016549418307875,0.012129789037645944,0.005532228462834521,-0.18005506512329797,-0.007323376268739232,0.004370324252512131,0.9868046658920154,-0.1613428906865419,-0.0026826509912108087,0.013335155879019405
4.233333333333324,0.006671466,-1.0775044,0.1625387,-2.5385363,0.17024657,1.4605119,0.5600368,0.04,0.04,-0.01210598384357997,0.012468318354924568,0.005741301706052582,-0.17973455743168926,-0.007248981432691398,0.004168378672709,0.9865513369274953,-0.16288243453090243,-0.002733364333481799,0.013352934032587013
4.24999999999999,0.0067378567,-1.0805141,0.16420674,-2.5404072,0.17199363,1.459378,0.55771685,0.04,0.04,-0.011232159594820601,0.012754667424130783,0.006248401219233202,-0.17939151130350672,-0.007177520791796357,0.003969312078460685,0.9862961192092448,-0.1644186248804086,-0.0027845588454990726,0.013368891399612445
4.266666666666657,0.0068042194,-1.0835228,0.16587448,-2.5422773,0.17374034,1.4582441,0.55539733,0.04,0.04,-0.010779656763815204,0.012836696997114982,0.0069251297595385175,-0.17902548762849047,-0.0071072260260477,0.0037718420414175335,0.9860390560303255,-0.16595128730398997,-0.00283641321233003,0.013383011061123117
4.2833333333333234,0.006870547,-1.0865304,0.16754167,-2.544147,0.17548648,1.4571105,0.55307865,0.04,0.04,-0.011045293643308085,0.013249831762512931,0.007307717106541656,-0.17863629063262448,-0.00703777794370157,0.0035743770716913648,0.9857802147671608,-0.1674801120290536,-0.0028889133066054163,0.01339531366758239
4.29999999999999,0.006936829,-1.0895375,0.16920812,-2.546016,0.17723185,1.4559777,0.55076087,0.04,0.04,-0.010085963634876016,0.013430963893606984,0.00752055000404761,-0.17822500270980915,-0.006970822023934162,0.003381185799849862,0.9855196264400511,-0.16900502727470407,-0.002941517074601292,0.01340575005878096
4.316666666666657,0.007003062,-1.0925422,0.17087366,-2.5478837,0.17897627,1.4548455,0.54844457,0.04,0.04,-0.010581664556785775,0.013576909519191771,0.008614056822642269,-0.1777913970421232,-0.0069016116957888035,0.0031904070016002817,0.9852573611154799,-0.17052570355500804,-0.002994863927471117,0.013414454326816027
4.333333333333323,0.0070692347,-1.0955449,0.17253803,-2.54975,0.18071952,1.453714,0.5461297,0.04,0.04,-0.00974606234296349,0.013847109294296,0.008473442264345099,-0.17733616939814562,-0.0068342889458959805,0.0030015925865849863,0.9849934420047172,-0.17204211939216188,-0.0030486448021147,0.013421405575549836
4.34999999999999,0.0071353386,-1.0985456,0.17420109,-2.5516148,0.18246134,1.4525832,0.54381675,0.04,0.04,-0.009406896726771308,0.01407904468948562,0.008844454216705433,-0.17685828300635034,-0.00676860900985779,0.00281255468590777,0.9847279364398471,-0.17355400148625272,-0.003102797293522505,0.013426556222114642
4.3666666666666565,0.007201366,-1.1015434,0.17586254,-2.5534778,0.18420155,1.4514536,0.54150605,0.04,0.04,-0.009571918454054362,0.014354415637179985,0.009593646316563564,-0.17635868299378632,-0.006702147807149977,0.002628929422641771,0.9844609090101137,-0.17506108734591627,-0.00315735686883264,0.013430019577385507
4.383333333333323,0.007267309,-1.1045378,0.17752223,-2.555339,0.18593991,1.4503255,0.53919774,0.04,0.04,-0.009893647918923776,0.01461175731574671,0.010297228511069179,-0.17583819365550424,-0.006636255416557518,0.0024463911135533395,0.9841924009910489,-0.17656325913250548,-0.0032124904986828872,0.013431800355058691
4.39999999999999,0.0073331585,-1.1075289,0.17917998,-2.557198,0.18767624,1.4491984,0.536892,0.04,0.04,-0.00870196092923603,0.014675511181183598,0.010073362177398515,-0.17529668349020144,-0.006571659035128519,0.0022684601032086082,0.9839224475382994,-0.17806044201167825,-0.003268072885679418,0.013431899361678492
4.416666666666656,0.007398907,-1.110516,0.18083553,-2.5590546,0.1894103,1.4480728,0.5345894,0.04,0.04,-0.008907798072765871,0.014969938978026676,0.010958359878521229,-0.1747330008436453,-0.006508192901978349,0.0020927549124139383,0.9836511375215047,-0.17955226140465666,-0.0033241443392699544,0.013430381287797749
4.433333333333323,0.007464549,-1.1134987,0.18248874,-2.5609083,0.19114187,1.4469489,0.53228986,0.04,0.04,-0.008155393929176746,0.015043326819730307,0.01136217284778418,-0.1741496299128018,-0.0064471917467212175,0.001917870276501657,0.9833784846837204,-0.1810387744246218,-0.003380519274121454,0.013427215102838595
4.4499999999999895,0.007530072,-1.1164765,0.18413936,-2.5627594,0.19287084,1.4458268,0.529994,0.04,0.04,-0.00879476015394065,0.01533145301013672,0.011756502097737265,-0.17354407002029829,-0.0063864933695921555,0.0017481255313275962,0.9831045849601976,-0.1825195713006426,-0.0034375303017087208,0.013422537312001648
4.466666666666656,0.0075954706,-1.1194496,0.18578717,-2.5646074,0.19459689,1.4447067,0.5277021,0.04,0.04,-0.007713926516350611,0.015509537368196824,0.012092209167680057,-0.17291906771572646,-0.006327893264427703,0.0015802629457168649,0.9828294907180476,-0.18399451770677122,-0.0034947553776595486,0.013416270480516522
4.483333333333323,0.007660737,-1.1224173,0.18743204,-2.5664523,0.19631977,1.4435885,0.5254142,0.04,0.04,-0.00805884898074094,0.0157481690784389,0.012358190783612333,-0.17227458178488406,-0.006269269854004528,0.0014153836801909514,0.9825532451171783,-0.18546351005869344,-0.0035525376962264764,0.013408445932625794
4.499999999999989,0.007725862,-1.1253793,0.18907373,-2.568293,0.19803938,1.4424722,0.5231306,0.04,0.04,-0.0066150210433324474,0.015649591769723026,0.012831721107264826,-0.17160974625385716,-0.006213141607577424,0.0012542019599215831,0.9822758844188024,-0.1869264945487594,-0.003610566461770681,0.013399116940947177
4.516666666666656,0.0077908398,-1.1283351,0.19071208,-2.5701308,0.19975546,1.4413583,0.5208521,0.04,0.04,-0.00821890734090669,0.01614070924326194,0.013244672791212775,-0.1709242086056011,-0.006157012825943775,0.001095976436103055,0.9819975418488635,-0.18838289919810333,-0.0036692995141554053,0.013388328259436215
4.533333333333323,0.007855662,-1.1312845,0.19234681,-2.5719638,0.20146781,1.4402468,0.51857823,0.04,0.04,-0.005505003211681014,0.015910953818476514,0.013840689700039821,-0.17022188340935174,-0.006106614778046332,0.0009415401508558324,0.9817181862722681,-0.18983304559335887,-0.003728010567276802,0.013376078657375223
4.549999999999989,0.007920319,-1.1342272,0.19397776,-2.5737927,0.20317623,1.439138,0.51630986,0.04,0.04,-0.006575188917734565,0.016297859688169103,0.014104043056561988,-0.16949850747179174,-0.006052851760767308,0.0007896448097679948,0.9814379432658037,-0.19127641874880258,-0.0037869802472751354,0.013362407321611963
4.566666666666656,0.007984802,-1.1371636,0.19560473,-2.5756176,0.20488042,1.4380322,0.514047,0.04,0.04,-0.006034729841442044,0.016576441066384895,0.014049976577568124,-0.16875725846682416,-0.005998518937861699,0.0006408398840594132,0.9811568587351576,-0.19271294449646714,-0.003845902178046345,0.01334723255572277
4.583333333333322,0.008049103,-1.1400917,0.19722754,-2.5774372,0.20658031,1.4369289,0.51179004,0.04,0.04,-0.005644360243595159,0.01629804598799467,0.015228916364362632,-0.16799826365839549,-0.00594400498151576,0.0004960812465339692,0.9808749713180054,-0.19414254679897508,-0.003905406762963517,0.013330790011315428
4.599999999999989,0.008113219,-1.1430111,0.19884601,-2.5792522,0.20827568,1.4358284,0.5095391,0.04,0.04,-0.006639268848696034,0.01671693404148855,0.015341178628747176,-0.1672203748776032,-0.005892670036984418,0.00035472070706570047,0.9805923528603583,-0.19556500525561457,-0.003965769802440839,0.013313110118678282
4.616666666666656,0.008177138,-1.1459229,0.20045991,-2.581062,0.20996623,1.4347312,0.50729424,0.04,0.04,-0.004504747300382306,0.016758458866117376,0.015409745285499543,-0.16642489606366292,-0.0058477672474157305,0.00021675686743617695,0.9803090299422239,-0.19698036853637196,-0.004025977013002639,0.013294048822749071
4.633333333333322,0.008240854,-1.1488268,0.20206903,-2.5828667,0.21165177,1.4336371,0.5050561,0.04,0.04,-0.004534318521254299,0.016958247680859406,0.015478460486129109,-0.16560993351339323,-0.0058009802004891226,8.098225843669593e-05,0.9800251095540374,-0.1983882499273714,-0.004086190647941183,0.013273657383727338
4.649999999999989,0.008304363,-1.1517209,0.2036732,-2.584666,0.21333219,1.4325465,0.5028249,0.04,0.04,-0.005683479585361084,0.017021647646486837,0.01668444607562103,-0.16477825188159023,-0.005752601630156118,-4.8226527548142495e-05,0.9797406482213548,-0.19978849613881103,-0.0041472101238913105,0.013252157619809003
4.666666666666655,0.008367651,-1.1546065,0.20527223,-2.5864587,0.21500722,1.4314593,0.5006008,0.04,0.04,-0.0021837765553867072,0.01679627057098454,0.01641708580220058,-0.1639299909839112,-0.005712051353020331,-0.00017604125998044173,0.979455676440807,-0.2011811594331339,-0.004207621926481711,0.013229319511791796
4.683333333333322,0.008430713,-1.1574817,0.20686594,-2.5882454,0.2166767,1.4303758,0.49838397,0.04,0.04,-0.004421303308266289,0.01712292808127569,0.017306982618037203,-0.16306372248382273,-0.005662708771519739,-0.0002966998136954696,0.9791702546732616,-0.20256606158123014,-0.004268573725397315,0.013205390449372398
4.699999999999989,0.008493542,-1.1603473,0.20845407,-2.5900266,0.21834037,1.4292961,0.49617484,0.04,0.04,-0.004359551949040252,0.017538450200088596,0.01696516563292061,-0.16217973146356773,-0.005618695507400212,-0.0004144981513087842,0.9788844837287644,-0.20394288262306043,-0.004329810758797327,0.013180321743420195
4.716666666666655,0.008556127,-1.1632032,0.21003653,-2.591801,0.21999806,1.4282203,0.49397373,0.04,0.04,-0.0020591156883575934,0.017142454536078766,0.017405662294167623,-0.16128009663741752,-0.0055765337888189215,-0.0005297544914952962,0.9785984038063679,-0.20531160794883652,-0.004390743980884527,0.013154051709899696
4.733333333333322,0.008618466,-1.166048,0.21161309,-2.5935693,0.22164963,1.4271483,0.49178082,0.04,0.04,-0.004261748578437974,0.017584846212420624,0.01788274220814179,-0.16036439840527894,-0.00553264900835268,-0.0006424718812501479,0.978312086654722,-0.20667202039742968,-0.004452398184272841,0.013126813799887121
4.7499999999999885,0.0086805485,-1.168882,0.21318354,-2.595331,0.22329481,1.4260805,0.48959637,0.04,0.04,-0.002706453634404582,0.01755961353547275,0.01805437540649546,-0.15943302431042758,-0.0054945309668195386,-0.0007519186602246292,0.9780255895582202,-0.2080240283128125,-0.004514233416327898,0.013098530851552015
4.766666666666655,0.008742368,-1.1717044,0.2147477,-2.5970852,0.22493345,1.4250169,0.4874206,0.04,0.04,-0.0017793437593338624,0.01739634359010922,0.018708105039022538,-0.15848618883891236,-0.005458964032533806,-0.0008563426979425609,0.9777389579770431,-0.20936758031192387,-0.004576115369571826,0.013069259214670162
4.783333333333322,0.008803914,-1.1745149,0.21630539,-2.5988324,0.22656533,1.4239577,0.48525387,0.04,0.04,-0.0021706472615345973,0.01761173919760939,0.01891101074515955,-0.15752381088461173,-0.005424035657426066,-0.0009578817773438913,0.9774522757462573,-0.2107024403015321,-0.004638260766257131,0.013039050061493432
4.799999999999988,0.008865183,-1.1773138,0.21785645,-2.600572,0.22819024,1.4229032,0.48309642,0.04,0.04,-0.0012750469921885,0.017652481352609106,0.018991000032653194,-0.15654643137993945,-0.005390761859199095,-0.0010552419250327294,0.9771656009548468,-0.21202851743368004,-0.004700246007363788,0.01300783582687795
4.816666666666655,0.008926171,-1.1801003,0.21940067,-2.6023037,0.22980805,1.4218532,0.48094845,0.04,0.04,-0.0005223161235523577,0.01750708711446003,0.019413044585558925,-0.15555450824967018,-0.005358575843863081,-0.0011498450264541688,0.9768789776901874,-0.2133457647975903,-0.0047621698339455655,0.012975720726744702
4.8333333333333215,0.008986863,-1.1828744,0.22093792,-2.6040277,0.23141846,1.420808,0.47881025,0.04,0.04,-0.001024261624316125,0.01781926229836306,0.019493769982226183,-0.1545476996917229,-0.005325937920280133,-0.001239883785361398,0.9765924880280171,-0.2146539710139416,-0.004824136860030358,0.012942672009636048
4.849999999999988,0.0090472605,-1.1856353,0.22246802,-2.6057436,0.23302135,1.4197677,0.476682,0.04,0.04,-0.0005431083179185947,0.017696342654099917,0.020114997168718673,-0.15352681955905442,-0.0052938453070364155,-0.0013267842448509842,0.9763061778054315,-0.21595308697343787,-0.00488618576158352,0.012908779736878801
4.866666666666655,0.009107353,-1.1883831,0.22399065,-2.6074507,0.23461649,1.4187325,0.474564,0.04,0.04,0.0009296150233595313,0.017667848484526072,0.020221760562244562,-0.15249152342359756,-0.005263206355935884,-0.0014095470691012912,0.976020106063198,-0.21724302036654133,-0.004947883430482579,0.01287404800226876
4.883333333333321,0.009167134,-1.1911169,0.22550572,-2.6091495,0.23620376,1.4177022,0.47245643,0.04,0.04,-0.00024424755378227303,0.017838941534403796,0.02035739579049345,-0.15144271221229286,-0.005231437028022146,-0.0014886993691527045,0.9757343400112546,-0.21852361107349932,-0.005009916689897418,0.012838608217397452
4.899999999999988,0.009226595,-1.1938369,0.22701308,-2.6108398,0.23778297,1.4166772,0.47035968,0.04,0.04,0.0001905527126089268,0.017898101908853103,0.02064392159567552,-0.15037994262968127,-0.005203197078524485,-0.0015642221745074264,0.9754489597648224,-0.2197946761412928,-0.0050719749117399395,0.012802433525115012
4.9166666666666545,0.00928573,-1.196543,0.22851256,-2.612521,0.23935392,1.4156576,0.46827385,0.04,0.04,0.0018400229028436854,0.017648379417717353,0.02086408678955154,-0.14930494599647873,-0.005177096996762207,-0.001635018253754436,0.9751639932600226,-0.22105626981829785,-0.005133638755004325,0.012765483787144353
4.933333333333321,0.009344531,-1.1992344,0.23000398,-2.6141937,0.24091643,1.4146438,0.46619928,0.04,0.04,0.0001643303942922003,0.018054401715350554,0.021217340691681574,-0.1482164963217053,-0.005150341927262284,-0.0017044059047657545,0.9748795387061331,-0.22230810259272507,-0.005195525990690763,0.012727884483278558
4.949999999999988,0.009402994,-1.2019107,0.23148713,-2.6158574,0.24247034,1.4136353,0.4641362,0.04,0.04,0.0011963183609742245,0.017925751113478938,0.02121867034676761,-0.14711602720899608,-0.005125296507314567,-0.0017673419807136687,0.9745956446785308,-0.22355012439479402,-0.005257618116986046,0.012689708761314561
4.966666666666654,0.0094611095,-1.204572,0.2329619,-2.6175106,0.24401544,1.4126325,0.46208486,0.04,0.04,0.003693288945871842,0.017417698809701898,0.02177137884044056,-0.14600434298665355,-0.005105978187189442,-0.001828735725420097,0.9743123405627049,-0.22478239888595514,-0.005319097385834122,0.012650825320868232
4.983333333333321,0.009518875,-1.2072178,0.2344281,-2.6191552,0.24555159,1.411636,0.46004534,0.04,0.04,0.0009068181165972078,0.018133506047884884,0.021906711195862627,-0.1448791440806529,-0.00508189801594959,-0.001885544625559385,0.9740297216308433,-0.22600465107412276,-0.00538068287795673,0.012611396606753662
4.999999999999988,0.009576278,-1.2098477,0.23588553,-2.6207895,0.24707852,1.4106449,0.45801803,0.04,0.04,0.0031034573850785563,0.01774729689287824,0.021737825967060864,-0.14374324381626713,-0.005060952741096525,-0.0019392645811595194,0.9737478296261362,-0.2272168677261671,-0.0054423199763123705,0.012571414891499712
5.016666666666654,0.0096333185,-1.2124617,0.23733409,-2.622414,0.24859618,1.4096601,0.4560031,0.04,0.04,0.002917454082917992,0.01779332969165104,0.02224382333636532,-0.1425959269381042,-0.005043855995553542,-0.001988833798903855,0.9734667297683275,-0.2284189398384565,-0.0055036888066500944,0.012530896486415677
5.033333333333321,0.009689988,-1.2150594,0.23877352,-2.6240282,0.2501043,1.4086815,0.45400077,0.04,0.04,0.003945629915191873,0.0176903761147873,0.022455023587153455,-0.14143741311008118,-0.0050266013886358235,-0.002035732919970612,0.9731864726608473,-0.22961081537524805,-0.005564715706264529,0.012489869165055288
5.049999999999987,0.0097462805,-1.2176404,0.24020375,-2.6256316,0.2516028,1.4077091,0.4520113,0.04,0.04,0.0042851575641877915,0.017565341459208073,0.022576899230630776,-0.14026783812848537,-0.005008105253928266,-0.0020776865651266074,0.972907111971551,-0.23079242630230332,-0.005625449272409261,0.012448363633639643
5.066666666666654,0.009802191,-1.2202042,0.2416246,-2.6272256,0.2530914,1.406743,0.4500349,0.04,0.04,0.001968731955259706,0.018227487616412352,0.022552486753391054,-0.13908735951344714,-0.004990118237014521,-0.0021170907534393407,0.9726287477316465,-0.23196348567144182,-0.005686737143333041,0.012406507235574715
5.083333333333321,0.009857709,-1.2227511,0.24303591,-2.6288078,0.25457004,1.4057837,0.4480717,0.04,0.04,0.0065963773565380635,0.01713942877858421,0.023130466870657784,-0.13789841924126484,-0.0049807643078993435,-0.0021529968906590785,0.9723513672460842,-0.23312425604255313,-0.005747003780598208,0.012364133888901124
5.099999999999987,0.009912833,-1.2252803,0.24443752,-2.6303787,0.25603867,1.4048307,0.44612202,0.04,0.04,0.005084721761039468,0.017406333826247566,0.023086322216825383,-0.13669761243286932,-0.004963552080954864,-0.002185208245310516,0.9720750560247868,-0.23427450614114673,-0.005807094308195408,0.012321480528944852
5.116666666666654,0.009967555,-1.2277919,0.24582924,-2.631939,0.25749677,1.4038844,0.44418606,0.04,0.04,0.0047657254398814075,0.01788004245701913,0.02305360113867838,-0.13548714600183884,-0.004949034100565096,-0.002215742801035661,0.9717998929449381,-0.23541407650836665,-0.00586700378147588,0.012278392425234997
5.13333333333332,0.010021869,-1.2302854,0.24721095,-2.6334887,0.25894445,1.4029449,0.44226402,0.04,0.04,0.004261275532835285,0.017788533069251766,0.02324460087470559,-0.13426771180635533,-0.004937110370450311,-0.0022406369937025272,0.9715259366637369,-0.23654286574751934,-0.005927050834390335,0.012235077523515735
5.149999999999987,0.010075771,-1.2327608,0.24858251,-2.6350272,0.26038143,1.4020121,0.44035614,0.04,0.04,0.0055619183934485505,0.01762279827651203,0.02322063927969742,-0.13304010667673002,-0.004928051946920774,-0.002262801824898686,0.97125323423397,-0.23766085110643087,-0.005986943247652358,0.012191445852286605
5.166666666666654,0.010129255,-1.2352173,0.24994376,-2.636554,0.26180774,1.4010864,0.43846238,0.04,0.04,0.0062325923775974346,0.017273726556432667,0.02385003045267675,-0.13180390653113092,-0.004922315758225666,-0.0022811326173436397,0.9709818010136286,-0.23876812287837346,-0.006046535104064948,0.012147633954947171
5.18333333333332,0.0101823155,-1.2376553,0.25129455,-2.6380687,0.26322308,1.400168,0.43658328,0.04,0.04,0.007343194803421937,0.017215105487283777,0.023773420587025473,-0.13055837724481023,-0.004916829447765142,-0.0022957469360139066,0.97071172716942,-0.23986448383063977,-0.006105476109059657,0.012103524028309798
5.199999999999987,0.010234946,-1.2400737,0.25263476,-2.639572,0.26462737,1.3992566,0.4347188,0.04,0.04,0.00582378618549928,0.017445739512811365,0.02393472020528753,-0.12930458090547634,-0.004909030733408447,-0.0023081451984296036,0.9704430526220099,-0.24094989701211586,-0.0061645561261196346,0.012059311559690743
5.2166666666666535,0.010287146,-1.242473,0.2539643,-2.6410627,0.26602033,1.3983525,0.43286937,0.04,0.04,0.007849480823329813,0.017124598191825546,0.02391801529733062,-0.1280430803055523,-0.004908320190987178,-0.0023187706724156765,0.9701758463719646,-0.24202426679347053,-0.00622302632887121,0.012014796828714156
5.23333333333332,0.010338904,-1.2448527,0.255283,-2.6425412,0.26740196,1.3974558,0.431035,0.04,0.04,0.007738861010819775,0.017024410571175874,0.024142276354954806,-0.1267740933392984,-0.0049045638077737375,-0.002324932086471887,0.9699101347707508,-0.24308762612313453,-0.006281089605005608,0.011970146539504789
5.249999999999987,0.010390219,-1.2472123,0.2565907,-2.6440074,0.26877207,1.3965665,0.42921606,0.04,0.04,0.007353070914550841,0.017174017106585948,0.02415763406176108,-0.12549700310007905,-0.004900620806797276,-0.0023264738800167495,0.9696460006659141,-0.24413978545725662,-0.006339022905799306,0.011925407250172102
5.266666666666653,0.010441083,-1.2495521,0.25788715,-2.6454618,0.27013063,1.3956848,0.42741254,0.039999995,0.04,0.007441997050006144,0.017195363056643487,0.024109616074974305,-0.12421365110836509,-0.004899351194283474,-0.0023208764665967746,0.9693834886080609,-0.24518071675766506,-0.00639667114853321,0.011880687794934773
5.28333333333332,0.010491489,-1.2518716,0.25917244,-2.6469028,0.27147728,1.3948108,0.42562464,0.03999999,0.04,0.009456834692134208,0.016688321747504453,0.024483121811014197,-0.12292408953017647,-0.004901611840775762,-0.002319427119875775,0.9691226119425502,-0.2462105363480377,-0.006453661920269996,0.011835753490149984
5.2999999999999865,0.010541439,-1.2541705,0.26044628,-2.6483314,0.27281204,1.3939446,0.42385262,0.039999988,0.04,0.008211257524526339,0.01698525863103595,0.024448324722503578,-0.12162663347267214,-0.004901270262545804,-0.002314035219549454,0.9688634610364856,-0.24722901403874287,-0.006510352713828093,0.011790835143243578
5.316666666666653,0.010590926,-1.2564485,0.26170865,-2.649747,0.27413476,1.3930863,0.42209655,0.039999988,0.04,0.009210289494077095,0.016631457807897432,0.02463579344345046,-0.12032387076004641,-0.004904100029799838,-0.002305946089475347,0.9686060502652483,-0.24823624367925357,-0.006566631601589512,0.011745895580099976
5.33333333333332,0.010639942,-1.2587059,0.26295936,-2.6511493,0.27544516,1.392236,0.42035672,0.039999988,0.04,0.00967772756192975,0.01673871951101691,0.024506555385495066,-0.11901444030630091,-0.004907276949225006,-0.0022951416148483117,0.9683504542247722,-0.2492320876661216,-0.006622255196243996,0.011700855369585157
5.349999999999986,0.0106884865,-1.2609421,0.26419827,-2.6525385,0.27674335,1.3913937,0.41863325,0.039999988,0.04,0.009597650718973227,0.01655485096677678,0.02456186264166993,-0.11769949810860286,-0.004908716118104568,-0.0022814638365188655,0.9680967108950924,-0.2502165267548741,-0.006677426791954287,0.011655902550605711
5.366666666666653,0.010736553,-1.2631565,0.26542526,-2.653914,0.27802905,1.3905594,0.4169263,0.039999988,0.04,0.010515387207976623,0.01632391861638438,0.024939972232307372,-0.11637955377734213,-0.004912123241084934,-0.0022651218039756588,0.9678448499323007,-0.2511895898659121,-0.006732089097426664,0.011611002493398586
5.3833333333333195,0.010784136,-1.2653489,0.26664025,-2.6552763,0.2793022,1.3897333,0.41523603,0.03999998,0.04,0.009438503825109912,0.01652650575025283,0.024797184391456284,-0.11505359609882412,-0.004914485535027685,-0.002246721358332454,0.9675949396655181,-0.25215113526915944,-0.006786686157891458,0.011566270235068605
5.399999999999986,0.010831233,-1.2675197,0.2678432,-2.656626,0.28056276,1.3889154,0.4135627,0.03999998,0.04,0.009178310370128173,0.016592053782255034,0.024506427578230294,-0.11372297751671404,-0.00492152514575394,-0.0022252259176341466,0.9673470503305346,-0.25310103465792444,-0.006841149081795199,0.011521681784481689
5.416666666666653,0.010877838,-1.2696685,0.2690339,-2.6579614,0.28181043,1.3881059,0.4119063,0.039999988,0.04,0.011748134613132066,0.01598968859427563,0.024940065144585244,-0.11238938591384134,-0.00493317007637066,-0.0022014961639382075,0.967101170606702,-0.2540394901173951,-0.00689484420725778,0.011477124875086463
5.433333333333319,0.010923951,-1.271795,0.2702123,-2.6592827,0.2830452,1.3873045,0.41026708,0.03999998,0.04,0.011458004469822036,0.015994781062023122,0.024733224116679775,-0.11105061610815166,-0.004943368183232134,-0.0021746919060275788,0.9668573574875985,-0.25496640803462256,-0.00694798537932356,0.0114326963219201
5.449999999999986,0.010969564,-1.2738991,0.2713781,-2.6605902,0.28426695,1.3865117,0.40864524,0.039999977,0.04,0.011177174051701932,0.016102127480077666,0.024907262960116583,-0.10970752892656736,-0.004953112346102025,-0.0021468375040037124,0.9666156761262221,-0.2558816648760108,-0.0070007151863393695,0.011388513257105647
5.466666666666653,0.011014673,-1.2759806,0.27253145,-2.6618834,0.28547558,1.3857276,0.40704075,0.03999998,0.04,0.012131374859070121,0.015681412242629644,0.025097056403178275,-0.10836156596319158,-0.004965200104030357,-0.0021167654939888148,0.9663761291344047,-0.2567853989227364,-0.007052643223882954,0.011344433121668574
5.483333333333319,0.01105928,-1.2780393,0.27367213,-2.6631622,0.28667092,1.3849517,0.40545383,0.03999998,0.04,0.011988640168802966,0.015807997626904324,0.024550015976321227,-0.10701095235780926,-0.004974150140768324,-0.0020845513620437045,0.966138772516665,-0.2576775112484096,-0.007104222151056949,0.011300551510693787
5.499999999999986,0.011103379,-1.2800752,0.27480027,-2.6644278,0.28785297,1.3841848,0.40388465,0.03999998,0.04,0.010822620536155014,0.015879152744802116,0.025009003589437917,-0.10565724408907415,-0.004986763534272069,-0.0020490162969757364,0.9659036750453974,-0.25855787045524237,-0.00715549887689712,0.011256864362153585
5.516666666666652,0.011146963,-1.2820879,0.27591547,-2.6656787,0.28902158,1.3834264,0.4023333,0.03999998,0.04,0.012637588513064735,0.01555675412739932,0.024743483455658133,-0.10430124624529646,-0.005000655134004259,-0.0020103012531156664,0.9656708438180617,-0.2594265777966786,-0.007206276860666236,0.011213460938718837
5.533333333333319,0.0111900335,-1.284077,0.2770177,-2.6669154,0.29017663,1.3826772,0.40079993,0.039999973,0.04,0.01235418848561931,0.015507169574285884,0.025283649209684178,-0.10294252055350292,-0.005017624172919316,-0.001972138155216706,0.9654403335473558,-0.2602835535899614,-0.0072565448458909824,0.011170346791914415
5.549999999999986,0.011232586,-1.2860429,0.27810702,-2.668137,0.2913181,1.3819361,0.39928454,0.039999966,0.04,0.013474530896262493,0.015128645635292814,0.024310648295045034,-0.10158185815996298,-0.005034081225032648,-0.0019303382695171623,0.9652121317028892,-0.2611289679351647,-0.007306323906936474,0.011127468249648874
5.566666666666652,0.011274614,-1.2879854,0.2791832,-2.6693442,0.29244584,1.3812045,0.39778754,0.03999997,0.04,0.013296001174056826,0.015196076617490784,0.025239212911642994,-0.10021785546926626,-0.0050521137445899075,-0.0018870957304471594,0.9649863417767904,-0.26196257019154245,-0.007355171431214853,0.01108482999897601
5.583333333333319,0.011316119,-1.289904,0.28024626,-2.6705363,0.29355976,1.3804817,0.39630893,0.039999966,0.04,0.013616117521886295,0.014981233429950391,0.024857388325394414,-0.09885299917829893,-0.005068670302810024,-0.0018423688198263427,0.9647629641624645,-0.26278446446585485,-0.007403504628991399,0.011042478664573906
5.599999999999985,0.011357094,-1.2917987,0.28129598,-2.6717134,0.29465994,1.3797679,0.39484856,0.03999996,0.04,0.01391978446987352,0.01480983716417028,0.024766056506286827,-0.09748631880956801,-0.005084830481754413,-0.0017949407991768515,0.9645420003403191,-0.26359476070578386,-0.007451174578385936,0.011000532048888895
5.616666666666652,0.011397538,-1.2936692,0.28233245,-2.6728754,0.29574585,1.379063,0.3934068,0.039999958,0.04,0.013812726525763708,0.01501974335929579,0.024800467138630378,-0.09611722357611269,-0.005101994936690724,-0.001749098580236537,0.9643235299150873,-0.2643932854770893,-0.0074983931013288775,0.010958756664614792
5.633333333333319,0.011437449,-1.2955158,0.28335547,-2.6740224,0.2968179,1.3783673,0.3919837,0.039999954,0.04,0.014222218821435817,0.014580961373800161,0.02471835013693191,-0.09474755021229615,-0.005120133407042017,-0.0016975536399823701,0.9641075646697661,-0.26518010642190337,-0.007544875315348921,0.010917406334685922
5.649999999999985,0.011476822,-1.2973381,0.28436494,-2.6751542,0.29787582,1.377681,0.39057922,0.039999958,0.04,0.014692236848135032,0.01454387078854702,0.0249104242848186,-0.09337716975675478,-0.005138588319458563,-0.0016467366534613365,0.963894128643324,-0.2659552531534494,-0.007590504208704909,0.010876411764424507
5.666666666666652,0.011515663,-1.2991358,0.28536096,-2.6762712,0.2989195,1.3770038,0.38919362,0.039999958,0.04,0.013650788968200267,0.014648752171575463,0.024601583926830983,-0.09200537884020193,-0.00515364693617313,-0.0015930340119725342,0.963683275712523,-0.2667186199092178,-0.007635933043372306,0.010835794030001617
5.6833333333333185,0.011553963,-1.3009089,0.2863433,-2.6773727,0.299949,1.3763359,0.38782698,0.039999954,0.04,0.015110305411902836,0.01420644659146375,0.024706742948321647,-0.09063406822660891,-0.0051737594098195325,-0.0015380909994708175,0.9634750176036151,-0.26747028510871357,-0.007680612190564011,0.010795611791614817
5.699999999999985,0.01159172,-1.3026576,0.28731203,-2.6784587,0.30096415,1.3756771,0.3864793,0.039999954,0.04,0.01523588118528263,0.01413473038808788,0.02444043002400864,-0.08926263940330846,-0.005194169031586107,-0.0014824466325953634,0.9632693710414456,-0.2682102971692434,-0.007724557227107561,0.010755766892651649
5.716666666666652,0.011628934,-1.3043813,0.28826714,-2.679529,0.30196494,1.3750278,0.3851508,0.039999958,0.04,0.0154550497421857,0.013854639201094088,0.02471512735988668,-0.08789088062477912,-0.0052129005348774335,-0.0014253393139140036,0.9630663742057065,-0.26893861900581584,-0.007767826184706458,0.010716294036786892
5.733333333333318,0.011665602,-1.3060802,0.28920838,-2.680584,0.30295128,1.3743877,0.38384137,0.039999954,0.04,0.015087865141660828,0.01410323117659873,0.024332213581901296,-0.08651966446279243,-0.0052315481058308536,-0.0013662240557417507,0.96286605156516,-0.26965525879221786,-0.00781050280347929,0.010677274698037347
5.749999999999985,0.011701724,-1.307754,0.29013583,-2.681624,0.30392322,1.3737572,0.3825512,0.039999954,0.04,0.014615632633963038,0.013945967926376479,0.024489455148868355,-0.08514905846775458,-0.005250714818006728,-0.0013058131256155209,0.9626684448935717,-0.27036015747087283,-0.007852813524540737,0.010638786503456978
5.7666666666666515,0.0117372945,-1.3094028,0.29104936,-2.6826482,0.30488065,1.373136,0.38128024,0.039999954,0.04,0.01586948015896983,0.013634837463782912,0.024245787644094907,-0.08378045635788223,-0.005274563191221722,-0.0012448426200520682,0.9624735457270216,-0.27105345359457583,-0.007894472119719703,0.010600772616143898
5.783333333333318,0.011772314,-1.3110267,0.29194903,-2.6836572,0.3058234,1.3725244,0.38002864,0.03999995,0.04,0.015356631856744407,0.01378032601269119,0.024195609150934327,-0.08241246968970596,-0.005297410214925677,-0.0011825280316784328,0.9622814047378696,-0.271735064604502,-0.007935544921403774,0.010563138117992574
5.799999999999985,0.011806782,-1.3126253,0.29283476,-2.6846502,0.30675164,1.3719221,0.3787964,0.039999954,0.04,0.016366515170118667,0.013183369108082932,0.024163610571148464,-0.08104634669112237,-0.005320247488874129,-0.0011185617672971604,0.9620920081382994,-0.27240513155470114,-0.007975900574809323,0.010526024373013872
5.816666666666651,0.011840698,-1.3141987,0.29370648,-2.6856272,0.30766517,1.3713293,0.37758365,0.039999954,0.04,0.016556106513143654,0.013241806091884856,0.024016128885484544,-0.07968164870516645,-0.00534440301856369,-0.0010546846100039226,0.9619053935354928,-0.27306361838980475,-0.008015488404407406,0.010489334813744065
5.833333333333318,0.011874061,-1.3157473,0.29456425,-2.686589,0.30856404,1.3707461,0.37639037,0.039999954,0.04,0.01573957817839755,0.013319772877412595,0.023875004430862212,-0.07831892274256111,-0.005367290614996988,-0.0009891166971735948,0.9617215924138924,-0.27371050013916937,-0.008054413429470816,0.01045309632403806
5.8499999999999845,0.011906869,-1.3172702,0.29540798,-2.6875353,0.30944827,1.3701724,0.3752166,0.039999947,0.04,0.015771995460456267,0.013100512037028667,0.02384130485503233,-0.07695885895160459,-0.005389990112861329,-0.0009219402379036234,0.9615406139717129,-0.2743458170998468,-0.00809301210381786,0.01041746023781208
5.866666666666651,0.01193912,-1.3187677,0.2962376,-2.6884658,0.31031764,1.3696083,0.3740625,0.03999995,0.04,0.01647297233420275,0.013047177631236861,0.023868149029415697,-0.07560151599829422,-0.0054167786930529455,-0.0008554945586554466,0.9613624939112242,-0.2749695458037879,-0.008130942684155151,0.010382290321363024
5.883333333333318,0.011970816,-1.3202392,0.29705316,-2.6893802,0.3111723,1.3690537,0.37292802,0.039999958,0.04,0.016905098447894673,0.012504358432896545,0.02387152482505872,-0.07424776120692836,-0.00544270111609526,-0.0007869822328825521,0.9611872064012608,-0.27558185388907297,-0.008168326153943403,0.010347681162691979
5.899999999999984,0.012001954,-1.3216865,0.29785475,-2.6902785,0.31201223,1.3685088,0.37181306,0.039999954,0.04,0.017630574909399677,0.012487066877309161,0.02319899788312263,-0.07289665032700147,-0.0054683855634197545,-0.000712178559932379,0.9610147665023889,-0.27618280465419526,-0.00820436334802703,0.010313360255277066
5.916666666666651,0.012032541,-1.3231074,0.29864207,-2.6911612,0.31283745,1.3679734,0.3707176,0.03999996,0.04,0.016185996980322415,0.012545617917525398,0.023735136142610802,-0.07154833443592197,-0.005489900417535665,-0.0006428058980979326,0.9608451886081429,-0.2767723730457804,-0.008240273845826067,0.010279831425424341
5.933333333333318,0.012062572,-1.3245028,0.29941556,-2.6920285,0.31364784,1.3674476,0.36964193,0.039999954,0.04,0.01596152632246106,0.012550633311125825,0.023164394177821457,-0.07020340739777273,-0.005517659448855801,-0.0005737508138545511,0.9606785297090322,-0.27735046038494865,-0.00827583194323965,0.010246720743554134
5.949999999999984,0.012092041,-1.3258731,0.30017474,-2.69288,0.31444338,1.3669312,0.3685859,0.03999995,0.04,0.017424723358594463,0.012313425097154607,0.023003287040290754,-0.0688633530200996,-0.005548396819090813,-0.0005019858015525638,0.9605147760801432,-0.27791719976274804,-0.008310583308918807,0.010214167259781842
5.966666666666651,0.012120957,-1.3272179,0.3009197,-2.693715,0.31522414,1.3664247,0.3675495,0.039999954,0.04,0.01778934375347152,0.011922528024144174,0.023359562655700383,-0.06752775363605586,-0.005576370304521114,-0.0004301921525034294,0.9603539156622202,-0.2784727132662867,-0.008344359181610708,0.010182156363072748
5.983333333333317,0.012149314,-1.3285371,0.3016506,-2.6945343,0.31599,1.3659276,0.3665328,0.039999958,0.04,0.017237828306160274,0.01198043975850216,0.022893923087696777,-0.06619590950771892,-0.005602831036059686,-0.0003592780458529718,0.9601959752320188,-0.27901697026871214,-0.008377592362055677,0.01015063527648131
5.999999999999984,0.012177123,-1.3298309,0.30236742,-2.695338,0.31674117,1.3654402,0.3655357,0.039999958,0.04,0.016840778657201128,0.011886409662392738,0.022881842054023327,-0.06486917802098467,-0.005630704869966287,-0.0002863535432140879,0.9600409647982588,-0.2795500061229111,-0.008410195231046741,0.010119713537661602
6.016666666666651,0.0122043695,-1.3310993,0.30307007,-2.696126,0.31747743,1.3649623,0.36455828,0.039999954,0.04,0.017197010809377744,0.01188276319566417,0.02255907492429987,-0.06354749916620492,-0.005659180548790305,-0.00021474005335592183,0.9598889002642437,-0.2800718359356324,-0.00844223940822193,0.010089324007055006
6.033333333333317,0.012231066,-1.332342,0.3037586,-2.6968982,0.318199,1.3644942,0.3636004,0.039999958,0.04,0.01724384062440354,0.01153802880627941,0.022754892622656175,-0.06223179567478374,-0.0056881161797871505,-0.00014107872021714568,0.9597397652896468,-0.2805825819120181,-0.008473651494615956,0.010059566576510219
6.049999999999984,0.012257208,-1.3335595,0.3044331,-2.6976538,0.31890592,1.3640356,0.36266208,0.039999958,0.04,0.01885334340765432,0.010914696032682247,0.02243478970028745,-0.060921499288426315,-0.005718111159640479,-6.768205141936129e-05,0.9595935284470754,-0.2810824372778716,-0.00850394502860691,0.01003028092198138
6.06666666666665,0.012282799,-1.334752,0.30509353,-2.698394,0.31959808,1.3635865,0.36174336,0.039999958,0.04,0.01689879947315287,0.011587711154414926,0.022106284076384153,-0.05961572118058843,-0.005743148317715694,5.248462013836275e-06,0.9594502648460841,-0.2815711887133831,-0.008533668541550648,0.010001573602900745
6.083333333333317,0.012307842,-1.3359189,0.30573994,-2.6991189,0.32027555,1.3631471,0.3608441,0.039999954,0.04,0.017078452241214848,0.011257158196908978,0.02224991753191352,-0.05831723681995196,-0.0057720667737386384,7.605070219011967e-05,0.9593099459338559,-0.2820489930657333,-0.008562887972324981,0.009973469434545754
6.099999999999984,0.012332337,-1.3370605,0.30637246,-2.6998281,0.32093838,1.362717,0.3599643,0.039999958,0.04,0.017058128642810644,0.011085040399844148,0.021818549293284306,-0.057025055052920465,-0.005799346297996992,0.00015015094619583863,0.9591725721699401,-0.28251590555993633,-0.008591734650207326,0.009945953863291297
6.11666666666665,0.012356283,-1.3381767,0.30699095,-2.7005215,0.3215865,1.3622966,0.35910386,0.03999996,0.04,0.018082505115857295,0.010846015302229395,0.022015665444585775,-0.05573976462005457,-0.005829705841185955,0.00022506323079203583,0.959038125197235,-0.2829720632355619,-0.008619737367086591,0.009918970415539451
