rsonawane2002/My_IMU/logs_2/traj_2000/imu_2000.csv
time,j1,j2,j3,j4,j5,j6,j7,gripper1,gripper2,imu_ax,imu_ay,imu_az,imu_gx,imu_gy,imu_gz
1.0333333333333345,0.00016703313,-0.78463066,4.018289e-05,-2.3561552,9.3351664e-05,1.5709763,0.7860001,1.2118691e-05,1.21186895e-05,-9.809999465942383,0.000632327632047236,-0.005088716745376587,0.0,-0.0,0.0
1.0500000000000012,0.0001666533,-0.7846152,3.9606668e-05,-2.3561676,0.00016117678,1.5709764,0.7859992,0.0031457979,0.0031474049,-10.101781845092773,-0.0037363898009061813,-0.1032666563987732,-3.362107690918492e-06,-0.012837057001888752,-0.0007076795445755124
1.0666666666666678,0.00016671553,-0.7846009,3.9745795e-05,-2.3561795,0.00015014771,1.5709763,0.7859992,0.006093799,0.00609527,-10.16865660693545,-0.30270572114802524,0.33293192559775914,0.00042758329925073746,-0.013575111172109243,0.0033669075352691846
1.0833333333333344,0.00016677009,-0.784588,3.99724e-05,-2.356191,0.00014056901,1.5709761,0.7859992,0.008805982,0.008807335,-9.838288632036402,-0.3435295702461139,0.20613277391084597,-0.00035373206324681457,-0.016994269820601895,0.0028457145457695472
1.100000000000001,0.00016682052,-0.78457654,4.037643e-05,-2.3562024,0.0001323823,1.5709739,0.7859992,0.011301215,0.01130246,-9.937294353013552,-0.3591181016164501,-0.38738593719476017,-0.002666016271344248,-0.009564282411195626,-0.004447176256638542
1.1166666666666676,0.00016687084,-0.7845667,4.1071937e-05,-2.3562136,0.00012557763,1.570971,0.7859992,0.01359685,0.013597996,-9.817218669082674,0.3544247193196477,0.20730282792718263,-0.007555766499528375,-0.012441690739943338,-0.012050509704969164
1.1333333333333342,0.0001669263,-0.7845584,4.2194413e-05,-2.3562243,0.0001201811,1.5709682,0.7859973,0.015708858,0.015709912,-9.733815541077359,0.10632117880630053,-0.08735507536738049,-0.0017031526312090007,-0.008692251941445213,0.0024235054853317963
1.1500000000000008,0.00016699296,-0.78455204,4.3898806e-05,-2.3562346,0.00011624956,1.5709653,0.78599536,0.017651927,0.017652897,-9.818373005528167,0.1091878718682812,-0.11022909524598294,-0.0007430882158187888,-0.012908311859008096,0.0031599809272781845
1.1666666666666674,0.00016707773,-0.7845478,4.6357247e-05,-2.3562455,0.00011386996,1.5709624,0.78599155,0.019439561,0.019440453,-9.807793004010392,0.08244642069163188,-0.05679959969763417,-6.128233252317126e-05,-0.015507408930376455,-0.0027336592994280768
1.183333333333334,0.00016718818,-0.784546,4.975737e-05,-2.356257,0.00011315334,1.5709596,0.7859872,0.021084204,0.021085026,-9.807700475385651,-0.17446011314071638,0.14177207098847827,-0.001623633098571015,-0.008311097006826244,-0.003632486111187808
1.2000000000000006,0.00016733246,-0.7845468,5.4300264e-05,-2.3562684,0.00011423555,1.5709566,0.7859815,0.02259729,0.022598047,-9.87318707838127,-0.007048528580572682,-0.16736228123126667,-0.0031857568851552426,-0.01319075801046747,0.0031142028011329347
1.2166666666666672,0.00016751944,-0.7845507,6.01992e-05,-2.35628,0.00011727088,1.5709534,0.7859738,0.023989348,0.023990044,-9.835825502392332,-0.05649624915208405,-0.12585215171799713,0.00669244500333705,-0.015555982091034396,0.006445984960826216
1.2333333333333338,0.00016775851,-0.784558,6.7677924e-05,-2.3562925,0.00012243316,1.5709467,0.78596324,0.025270052,0.025270693,-9.893268845096149,-0.10974182752018696,0.13510881845784495,-0.0004116563297821719,-0.008140165965561772,-0.00032684719945345826
1.2500000000000004,0.00016805936,-0.784569,7.6969205e-05,-2.3563068,0.00012991173,1.5709399,0.7859499,0.026448315,0.026448904,-9.960837250940475,0.012308726529704411,0.3539251017737209,-0.010600444656579763,-0.01216014910246512,0.00010443785897237683
1.266666666666667,0.00016843206,-0.7845841,8.831394e-05,-2.3563242,0.00013990952,1.5709329,0.78593415,0.027532324,0.027532868,-10.567586879689056,0.2562332253101159,-0.2930248751325275,-0.005541870205657641,-0.012300439978264079,0.00021356571110849737
1.2833333333333337,0.0001688869,-0.7846037,0.00010195962,-2.3563435,0.00015264227,1.5709224,0.7859151,0.028529625,0.028530126,-10.002558993264255,0.14276871191590781,-0.12058271019565515,0.003679998561380457,-0.020992620128850545,0.002561258300218941
1.3000000000000003,0.00016943457,-0.78462845,0.000118159754,-2.356364,0.00016833638,1.5709116,0.7858924,0.029447153,0.029447615,-9.825531018006922,0.05312386554513997,-0.264478503760317,-0.0033905351800492412,-0.006914467115577611,0.004869245235360306
1.3166666666666669,0.00017008602,-0.78465873,0.00013717232,-2.3563895,0.00018722664,1.5708977,0.78586596,0.030291287,0.030291714,-9.330240814587814,-0.17272918452738445,0.3158768563368504,-0.006094005495439898,-0.014542362801591092,-0.0035928216005364677
1.3333333333333335,0.00017085206,-0.78469485,0.0001592593,-2.3564172,0.0002095571,1.570883,0.78583497,0.031067895,0.031068288,-9.998621645338318,0.02019830252982717,0.09089918730605677,0.0011137146727155575,-0.00969423735365699,0.003108921760322512
1.35,0.00017174402,-0.7847371,0.00018468572,-2.356448,0.00023557746,1.5708649,0.78579956,0.031782385,0.031782746,-9.998014938436,0.009308983134657558,0.20422581822976416,0.0048859017850294536,-0.013331230433904925,0.003794711403956004
1.3666666666666667,0.00017277311,-0.78478634,0.00021371903,-2.3564832,0.00026554207,1.5708457,0.78575903,0.03243972,0.03244006,-10.05976603643396,0.036998563241596866,-0.41433210084727057,4.588885592379299e-05,-0.012320038045404377,0.0010836601495710831
1.3833333333333333,0.0001739506,-0.7848428,0.00024662813,-2.3565226,0.00029971168,1.5708234,0.78571314,0.033044472,0.03304478,-10.076524678504509,0.16354072532551422,0.2546983011722101,-0.009175425229091197,-0.013737811560668525,0.000972810377061768
1.4,0.00017528787,-0.7849069,0.0002836832,-2.3565655,0.00033834908,1.5707976,0.7856615,0.033600852,0.03360114,-9.682415832326248,-0.11630813404864421,-0.1885795528856954,-0.002226101896763142,-0.014507274380873425,0.003914713489004034
1.4166666666666665,0.00017679631,-0.7849792,0.00032515463,-2.356615,0.00038172017,1.5707694,0.7856038,0.034112744,0.03411301,-9.930647177050098,-0.3694188163076921,-0.4204441617456816,0.0009923591299683795,-0.018823330857335542,0.004314353455281376
1.4333333333333331,0.00017848724,-0.7850601,0.00037131293,-2.3566675,0.00043009236,1.5707384,0.78553945,0.03458368,0.03458393,-9.783155844746158,-0.21371978570896322,-0.2914907072559887,-0.002518523520825104,-0.013798209552851437,-0.00288038287357818
1.4499999999999997,0.00018037204,-0.7851501,0.00042242784,-2.356726,0.00048373567,1.570704,0.7854682,0.035016943,0.03501717,-9.598865154328694,-0.02158035013342579,0.14950261845313165,-0.009557045549824353,-0.0133024246014454,0.0011793969607726356
1.4666666666666663,0.00018246203,-0.78524965,0.00047876837,-2.3567917,0.0005429186,1.5706658,0.7853896,0.035415538,0.035415754,-10.072586903712773,0.4035151760066206,0.13436314022811807,-0.0038881734526857855,-0.01650016439293627,-0.0012865672421026363
1.483333333333333,0.00018476842,-0.7853595,0.0005406024,-2.3568645,0.0006079117,1.5706239,0.7853035,0.03578225,0.03578245,-10.102223606241838,0.014624247310944265,-0.0018975220745397342,-0.005305175250587687,-0.01343719005904823,-0.0004936534268341848
1.4999999999999996,0.00018730237,-0.7854797,0.0006081954,-2.35694,0.00067898305,1.570578,0.7852093,0.036119636,0.036119822,-9.817080771162264,-0.0730861786782262,0.03259131162551197,-0.0023165350776358316,-0.013614669623206527,0.001570003799524106
1.5166666666666662,0.00019007492,-0.785611,0.0006818111,-2.3570228,0.00075640046,1.570528,0.7851067,0.03643004,0.03643021,-9.851192702247864,0.340147208547746,0.03554991508074845,-0.006055633481369349,-0.0091273996368228,0.0005560153049501345
1.5333333333333328,0.00019309699,-0.78575367,0.0007617114,-2.3571126,0.0008404299,1.5704738,0.7849955,0.0367156,0.03671577,-9.637912245678372,0.3602990178018459,-0.08568164291280378,-0.008949940258923327,-0.010458192822466957,-0.0025263665855263626
1.5499999999999994,0.00019637942,-0.78590816,0.00084815436,-2.35721,0.0009313374,1.570415,0.7848751,0.03697833,0.036978483,-9.782182237869943,-0.08656841622680361,0.1349311575063402,-0.00502005953387842,-0.011236489161266055,0.009022156554920486
1.566666666666666,0.00019993288,-0.7860752,0.00094139617,-2.357315,0.0010293839,1.5703515,0.7847453,0.037220046,0.037220195,-9.764098291954047,-0.22548792131147521,0.5750199772590961,-0.01026869714522773,-0.019764164850822556,0.003667688091937739
1.5833333333333326,0.00020376804,-0.78625506,0.0010416895,-2.357428,0.0011348303,1.5702832,0.7846057,0.037442423,0.03744256,-10.066934637137235,0.12807797221212944,-0.06696078182013623,-0.01797123408552258,-0.014811694571329545,0.0035794447311158057
1.5999999999999992,0.00020789524,-0.786448,0.001149284,-2.3575492,0.0012479316,1.5702099,0.7844559,0.03764701,0.037647143,-9.995387779321566,0.2305586110826156,-0.46958576967552346,-0.011832020329810016,-0.01905030266078531,0.0007085096645484321
1.6166666666666658,0.0002123246,-0.7866548,0.0012644252,-2.3576784,0.0013689434,1.5701314,0.7842956,0.037835233,0.03783536,-9.961512830743127,0.567473171050018,-0.09810486700329532,-0.014720936634044508,-0.009595386031855807,0.001574198504754525
1.6333333333333324,0.00021706636,-0.7868756,0.0013873552,-2.357816,0.0014981149,1.5700479,0.7841246,0.038008396,0.038008515,-9.930325880483236,-0.10100638414722087,0.07383357597152335,-0.014583378236941473,-0.014930871937501651,-0.001068617577872774
1.649999999999999,0.00022213042,-0.7871109,0.0015183123,-2.3579648,0.0016356934,1.5699586,0.78394246,0.03816771,0.038167823,-9.754143226831687,-0.06696857555002389,-0.23712029096661913,-0.017769597466864722,-0.010794742626130296,0.0020419283335904414
1.6666666666666656,0.00022752653,-0.7873612,0.0016575312,-2.3581228,0.0017819211,1.569864,0.7837487,0.03831428,0.038314387,-9.797497630413465,0.14866635590149513,0.21002581212338747,-0.016861362500680637,-0.015689212064125962,0.002684785278512505
1.6833333333333322,0.00023326425,-0.7876268,0.0018052422,-2.3582895,0.0019370373,1.5697632,0.78354317,0.038449142,0.038449254,-9.729929976906595,-0.006777433992152759,-0.05794033949587529,-0.016417673690698534,-0.014011216426246097,0.0036454443361958323
1.6999999999999988,0.00023935299,-0.7879082,0.0019616715,-2.3584647,0.0021012777,1.569657,0.7833255,0.0385732,0.03857331,-9.938816100399011,0.06267904485448253,-0.0794399175603032,-0.017975260720274864,-0.01742517916198539,0.002221737288535462
1.7166666666666655,0.00024580193,-0.78820556,0.0021270404,-2.3586507,0.0022748727,1.5695443,0.78309536,0.038687337,0.038687438,-9.480040664865019,0.14822164620283754,-0.31737125723422543,-0.02573643804817265,-0.010766338064519583,0.004717794472407977
1.733333333333332,0.00025262023,-0.7885196,0.0023015668,-2.358848,0.0024580478,1.5694257,0.78285265,0.038792346,0.038792446,-9.332208319032356,-0.03842325649127675,0.19059127863380868,-0.02089084242548419,-0.011429671390319066,0.004236264653140321
1.7499999999999987,0.0002598166,-0.78885055,0.0024854636,-2.3590548,0.0026510253,1.5693007,0.7825967,0.038888954,0.038889054,-9.68098642989809,-0.3256998456186755,0.20346960486933086,-0.020491089373695058,-0.019559893879628653,0.0021839135499165723
1.7666666666666653,0.00026739956,-0.78919894,0.0026789387,-2.359273,0.0028540238,1.569169,0.7823275,0.038977847,0.038977943,-9.724576146327204,0.17257449931249932,-0.1813727459267806,-0.030417605695519514,-0.015362604892987741,0.002514698222569871
1.7833333333333319,0.0002753777,-0.78956527,0.0028821966,-2.3595016,0.0030672543,1.5690308,0.7820447,0.03905962,0.039059717,-9.561737845399835,-0.14357135866728862,0.08197165370657052,-0.0329825121288765,-0.011244813003928003,-0.00040364597045868526
1.7999999999999985,0.0002837593,-0.7899494,0.0030954364,-2.3597414,0.0032909245,1.5688856,0.78174806,0.03913486,0.039134953,-9.680212245797307,0.21935347615770762,-0.12664462507569826,-0.028780856223001333,-0.014816400180453552,0.002178333143162131
1.816666666666665,0.00029255231,-0.790352,0.0033188518,-2.3599925,0.0035252385,1.5687336,0.7814372,0.039204076,0.03920417,-10.030357396039069,0.142407938369408,-0.08915462770098359,-0.02563271319530287,-0.017041189119017933,0.0027595898709087876
1.8333333333333317,0.00030176455,-0.79077315,0.0035526329,-2.3602552,0.0037703952,1.5685747,0.781112,0.03926776,0.039267853,-9.607093493461027,0.08400777152110195,-0.17073021145648423,-0.029037390123256564,-0.01756064089016,0.006347142630372851
1.8499999999999983,0.0003114037,-0.79121333,0.0037969653,-2.3605297,0.004026586,1.5684086,0.7807721,0.039326355,0.03932645,-9.561135531915603,-0.20701210269613501,-0.2191180364941463,-0.027590817120423633,-0.014638148317083455,0.007105040061248339
1.866666666666665,0.00032147713,-0.79167295,0.004052029,-2.360816,0.004294001,1.5682353,0.7804172,0.039380264,0.03938036,-9.26019057760762,-0.2610050099903652,0.16141255082883796,-0.03071951171544095,-0.015247470143387256,0.0068121963970392534
1.8833333333333315,0.0003319921,-0.7921522,0.0043179994,-2.3611147,0.0045728227,1.5680543,0.7800472,0.039429862,0.039429963,-9.847528787660677,-0.034847632147992046,0.21037185689144777,-0.031183024302772557,-0.01561025718818758,0.01339064805979016
1.8999999999999981,0.00034295575,-0.79265136,0.0045950483,-2.3614254,0.004863228,1.567866,0.7796617,0.03947547,0.039475575,-10.05601116820411,0.03059052960124038,0.17056245536285183,-0.029481077660629802,-0.01432506597331127,-0.00010127114674584445
1.9166666666666647,0.00035437473,-0.793171,0.004883338,-2.3617494,0.005165393,1.5676699,0.7792607,0.03951746,0.03951756,-10.050232088506421,0.2418658560337974,-0.35808227133581305,-0.03423429711649666,-0.011637787006943897,-0.0025247157472647664
1.9333333333333313,0.00036625576,-0.7937111,0.0051830322,-2.362086,0.0054794867,1.5674659,0.77884394,0.039556082,0.039556183,-9.658902579028386,-0.14426199036395873,-0.07705554698434569,-0.0363996133151539,-0.014098778615498037,0.005440527878614646
1.949999999999998,0.00037860504,-0.79427207,0.005494286,-2.3624353,0.0058056707,1.5672543,0.778411,0.039591614,0.03959172,-9.579571270150437,0.2395436975186706,0.4138211827446169,-0.039845335253738935,-0.019239469073957235,0.0024119913176432633
1.9666666666666646,0.00039142894,-0.79485416,0.0058172494,-2.3627975,0.006144103,1.5670347,0.77796185,0.039624304,0.039624408,-9.686898257347561,0.28595637153599984,0.09548181040669054,-0.044315616651504054,-0.013725963418056604,-0.0008728902140722412
1.9833333333333312,0.00040473355,-0.7954577,0.00615207,-2.363173,0.0064949375,1.566807,0.7774963,0.039654385,0.03965449,-9.831658249017293,0.5372536801422871,0.047589387045723325,-0.04356560235768678,-0.016023787125463127,0.006929365169629144
1.9999999999999978,0.00041852458,-0.796083,0.0064988914,-2.3635623,0.006858323,1.5665714,0.77701396,0.039682057,0.03968217,-9.776624606806022,-0.44813504320625286,0.24399491661470238,-0.04393310743027018,-0.016751627569821844,0.007823339991175246
2.0166666666666644,0.00043280772,-0.79672986,0.0068578473,-2.3639655,0.0072344015,1.5663272,0.7765147,0.039707523,0.039707635,-9.681255178614558,-0.17299376524727694,0.0924416310237608,-0.04197270249591959,-0.02032568205457556,0.009463576705088704
2.033333333333331,0.00044758822,-0.797399,0.007229071,-2.364382,0.007623313,1.5660748,0.77599835,0.039730955,0.039731067,-10.00004079508653,-0.057121937880124145,0.24594824981499747,-0.04548020417056017,-0.017879029779974496,0.010048968034119038
2.0499999999999976,0.00046287128,-0.79809034,0.0076126894,-2.3648121,0.008025186,1.5658141,0.77546483,0.039752506,0.03975262,-9.878192940313268,0.00871356697845415,-0.1647997832940402,-0.04590010449498824,-0.015181792074382179,0.008512661705071782
2.066666666666664,0.00047866194,-0.79880446,0.0080088265,-2.365256,0.008440155,1.5655448,0.7749139,0.039772347,0.039772462,-9.722476279371875,-0.20903538313228157,-0.09944364722946217,-0.04850861974658686,-0.012623171055765593,0.008882732000775892
2.083333333333331,0.00049496494,-0.7995413,0.008417595,-2.3657148,0.0088683395,1.565267,0.7743455,0.039790597,0.03979072,-9.736605116610948,0.1741665107833722,-0.024193583944873205,-0.048207255063441416,-0.01721490610046188,0.007043052807647775
2.0999999999999974,0.0005117851,-0.80030113,0.008839111,-2.3661878,0.009309857,1.5649805,0.77375937,0.03980739,0.039807513,-9.809332298178436,0.1454505288553095,0.24172476079515476,-0.050880157559629234,-0.013379483214666886,0.006727872438999808
2.116666666666664,0.0005291263,-0.8010842,0.0092734825,-2.366675,0.009764823,1.5646853,0.7731553,0.039822835,0.039822962,-9.470620312833473,-0.10961129062518177,0.10600624735594058,-0.05926627614037399,-0.01399296293271189,0.0047552665913015895
2.1333333333333306,0.0005469933,-0.8018906,0.009720812,-2.3671768,0.010233346,1.5643812,0.77253324,0.039837062,0.03983719,-9.83917903809731,-0.001811380744647012,0.0742359828973606,-0.05932765473275983,-0.01747079449387936,0.008209408627351998
2.1499999999999972,0.00056538964,-0.8027207,0.010181196,-2.3676934,0.010715528,1.5640684,0.77189296,0.039850146,0.03985028,-10.148577265180592,-0.2201517724288319,-0.15607078783242911,-0.05870565250892267,-0.012974423415868923,0.009799416887600212
2.166666666666664,0.0005843194,-0.80357444,0.010654735,-2.3682249,0.011211466,1.5637466,0.7712345,0.03986218,0.039862316,-9.679318994995144,0.21339036731265784,0.2644872427508845,-0.05877899605021726,-0.009262624651516232,0.012432325630780854
2.1833333333333305,0.00060378626,-0.804452,0.0111415135,-2.368771,0.011721256,1.5634158,0.7705576,0.039873254,0.039873395,-9.854979619965924,0.2846752671529499,-0.3633923679517114,-0.06217448486683216,-0.018533866566426957,0.013469395928252453
2.199999999999997,0.0006237933,-0.8053536,0.011641618,-2.3693323,0.012244988,1.5630758,0.76986194,0.03988345,0.03988359,-9.783408802968786,0.11981853898489006,0.10266446424713743,-0.05878774445404884,-0.018265125829150044,0.009205258360895356
2.2166666666666637,0.0006443443,-0.80627954,0.012155122,-2.3699086,0.01278274,1.5627267,0.76914763,0.039892826,0.03989297,-9.725620055603738,0.3816537518660658,0.055809503548244314,-0.0566901659545321,-0.014736561392851774,0.012663158979515796
2.2333333333333303,0.0006654416,-0.8072295,0.012682105,-2.3704998,0.0133346,1.5623686,0.76841426,0.039901465,0.03990161,-10.196539020604165,0.2524747930756726,0.18037917094348632,-0.06765635621777336,-0.013636542191418431,0.01225924649979282
2.249999999999997,0.0006870884,-0.80820405,0.013222641,-2.3711066,0.013900635,1.5620013,0.76766294,0.039909407,0.03990956,-9.68518426509969,-0.08581396743283241,0.16483638163748182,-0.06727918267631204,-0.013494796179145742,0.011458458686514432
2.2666666666666635,0.0007092873,-0.809203,0.013776797,-2.3717284,0.014480917,1.5616244,0.76689255,0.03991671,0.039916866,-9.587582968244236,0.09657886055382185,0.2628254455083967,-0.06639340235412423,-0.01304759009723314,0.007950178395527372
2.28333333333333,0.0007320409,-0.8102267,0.014344629,-2.3723655,0.015075513,1.5612386,0.76610285,0.039923444,0.039923605,-10.129223536340817,0.10826639711977903,-0.26986881017191955,-0.07184668436202503,-0.016277169040140177,0.010150937968811316
2.2999999999999967,0.0007553512,-0.8112751,0.014926202,-2.3730178,0.01568448,1.5608432,0.7652943,0.039929643,0.039929803,-9.950511292329068,-0.08128046097984214,-0.23263083256528938,-0.07297732424126038,-0.010914852639075686,0.007981527358580704
2.3166666666666633,0.00077922025,-0.8123484,0.015521561,-2.3736851,0.016307872,1.5604388,0.76446646,0.039935343,0.039935507,-9.667203595989644,-0.06681115958548921,-0.24959929504146558,-0.07906797733437898,-0.005405869951012116,0.010701445251255519
2.33333333333333,0.0008036505,-0.81344664,0.016130762,-2.3743677,0.016945748,1.5600246,0.76361936,0.03994059,0.03994076,-9.619735419037191,0.45209027172142796,0.28003448458177477,-0.0743574201934613,-0.00933052317168829,0.011424029392392208
2.3499999999999965,0.00082864315,-0.81456995,0.016753845,-2.3750663,0.017598154,1.5596013,0.76275307,0.039945424,0.039945595,-10.05422827215252,-0.10340564661582766,-0.21174351020670515,-0.07217096783081818,-0.01614081743487885,0.015042794997784608
2.366666666666663,0.0008541999,-0.8157184,0.01739085,-2.37578,0.018265124,1.5591685,0.7618674,0.03994987,0.03995005,-9.557962232012896,0.47544127446672035,0.257928225863622,-0.07505179073074177,-0.012433709535640408,0.017064073742765234
2.3833333333333298,0.00088032236,-0.8168921,0.018041816,-2.3765097,0.018946698,1.5587258,0.7609623,0.039953977,0.039954156,-9.641948328609997,0.19132067790906976,-0.13893808958460913,-0.07750708901646569,-0.017989836639001198,0.011417607899755931
2.3999999999999964,0.00090701156,-0.818091,0.018706769,-2.377255,0.019642914,1.558274,0.7600378,0.03995775,0.039957933,-9.913706593440143,0.12757077430332822,-0.3063322704691821,-0.08080049835938782,-0.017361161692115892,0.014349515828446133
2.416666666666663,0.00093426835,-0.81931525,0.019385742,-2.3780167,0.020353794,1.5578125,0.7590937,0.039961215,0.039961405,-9.452957773716019,0.026878053814147818,-0.13410557710096394,-0.07628812482544646,-0.01813136389669089,0.014698261377401862
2.4333333333333296,0.0009620938,-0.8205647,0.020078754,-2.3787944,0.021079365,1.5573416,0.7581302,0.039964415,0.039964605,-9.813938135757208,0.13496587293677914,0.043111575128921685,-0.08672375026512547,-0.016549454314439424,0.008432469474514967
2.449999999999996,0.0009904887,-0.8218395,0.02078583,-2.3795877,0.02181965,1.556861,0.7571471,0.039967354,0.039967548,-9.969616142582861,0.18086028912846525,-0.007237404767231316,-0.08717477760571073,-0.00953038447283282,0.0031895458321957483
2.466666666666663,0.0010194532,-0.82313997,0.02150698,-2.3803964,0.022574658,1.5563709,0.75614434,0.039970074,0.039970275,-9.815112869420743,0.2563643739031894,-0.1300609485560446,-0.09090226027206995,-0.011331793835622906,0.011690403882737425
2.4833333333333294,0.0010489877,-0.8244656,0.022242207,-2.3812208,0.023344416,1.555871,0.755122,0.039972562,0.039972767,-9.938151311847818,0.5583199969238386,-0.2987285119200837,-0.08881192117778779,-0.013812132180273887,0.01437997171957813
2.499999999999996,0.0010790924,-0.82581663,0.022991529,-2.3820608,0.024128918,1.5553619,0.75408006,0.039974872,0.039975077,-9.759830544834855,-0.10129029464723356,0.1935283895309702,-0.08916514089197435,-0.01442609553572922,0.016531179407536123
2.5166666666666626,0.0011097674,-0.82719314,0.023754949,-2.3829165,0.02492817,1.5548428,0.7530186,0.03997699,0.039977204,-9.665540366682018,0.19123950674593077,-0.17287167314074642,-0.09001335374335302,-0.017514781070431616,0.01087498966984238
2.533333333333329,0.0011410125,-0.82859516,0.024532465,-2.3837879,0.025742158,1.5543146,0.7519377,0.03997895,0.039979167,-9.687536674255512,0.16067380972961248,-0.28004109268587485,-0.08997090710940696,-0.010897453178091564,0.01587326286338181
2.549999999999996,0.0011728274,-0.8300224,0.025324065,-2.3846753,0.0265709,1.5537766,0.750837,0.039980773,0.03998099,-10.056308895654281,-0.0009452968226539987,-0.36643054711936,-0.0961388226122449,-0.015576098554983597,0.01526688673243078
2.5666666666666624,0.0012052117,-0.831475,0.026129747,-2.3855789,0.027414376,1.553229,0.7497169,0.039982446,0.03998267,-9.965973534583185,0.027790822707491378,0.07098459224623677,-0.09669452416964579,-0.010727300664898918,0.014019317845292964
2.583333333333329,0.0012381648,-0.83295316,0.026949497,-2.3864982,0.028272571,1.5526717,0.7485771,0.039983984,0.03998421,-9.72112914432432,-0.03916165884543847,0.3765634232171502,-0.10393165116563717,-0.011527910467901538,0.01078362932184497
2.5999999999999956,0.0012716852,-0.8344565,0.027783297,-2.3874338,0.029145468,1.552105,0.7474178,0.039985415,0.039985646,-9.933867662007613,-0.11173949968933143,-0.044337471658842165,-0.10383292031984805,-0.007381895545153841,0.011887956496216216
2.6166666666666623,0.0013057725,-0.83598506,0.02863113,-2.3883846,0.030033052,1.5515288,0.74623907,0.03998673,0.03998696,-10.17908510876977,-0.049227160201425355,-0.0032166750996391706,-0.10431134937121934,-0.01255267321497638,0.0151503233001175
2.633333333333329,0.0013404257,-0.837539,0.029492965,-2.389351,0.030935293,1.5509431,0.74504083,0.039987948,0.039988186,-9.70183496267311,0.7060832092859746,0.6385112605376471,-0.10709577712088261,-0.010112677994114064,0.011767380364968338
2.6499999999999955,0.0013756433,-0.8391181,0.03036878,-2.3903327,0.03185216,1.550348,0.7438231,0.039989058,0.0399893,-9.819084669749248,-0.2823969082509846,-0.12346458085805148,-0.10624066951741938,-0.011685180556321572,0.010375028690271805
2.666666666666662,0.0014114239,-0.84072244,0.03125854,-2.3913302,0.032783613,1.5497434,0.74258596,0.03999007,0.03999032,-10.056499562583955,0.2221287660992025,-0.0385840774667334,-0.10500983049227346,-0.01398887859171286,0.013958228282277598
2.6833333333333287,0.001447766,-0.84235173,0.032162204,-2.392343,0.03372964,1.5491292,0.7413295,0.039991032,0.03999128,-9.952926409523675,0.05811523436915851,-0.2660131623235664,-0.10468685377580324,-0.011736125806383049,0.018655580864730993
2.6999999999999953,0.001484668,-0.8440062,0.03307974,-2.393372,0.034690186,1.5485058,0.7400537,0.039991897,0.039992154,-10.11813711751385,-0.2773166141966078,0.19814427003199267,-0.1128510009128411,-0.01571436977771287,0.015196249898499326
2.716666666666662,0.0015221271,-0.8456854,0.034011107,-2.3944163,0.03566519,1.5478729,0.73875874,0.03999273,0.039992984,-9.730323985883208,-0.10453026729367487,-0.15678694953922817,-0.11369138916664333,-0.010928551637505751,0.010328761577789069
2.7333333333333285,0.0015601423,-0.84738964,0.034956258,-2.3954759,0.03665463,1.5472307,0.73744464,0.039993472,0.039993733,-9.844954604735456,0.12076721297546504,-0.1030862457928428,-0.11543893791040322,-0.004738324236658296,0.006097367422070543
2.749999999999995,0.0015987116,-0.8491186,0.035915148,-2.396551,0.03765845,1.546579,0.7361114,0.039994184,0.039994445,-9.670440400986614,0.2317676407677174,0.11181142159484152,-0.10985460658435206,-0.01566854682476345,0.01302480846593869
2.7666666666666617,0.0016378319,-0.85087216,0.03688773,-2.3976417,0.038676582,1.545918,0.7347592,0.03999482,0.039995093,-9.916271869276885,-0.17649533807497067,-0.16266392100801635,-0.11563118128124918,-0.012982219303762662,0.012219291774131035
2.7833333333333283,0.0016775008,-0.85265034,0.037873928,-2.3987477,0.039708983,1.5452478,0.7333882,0.039995424,0.039995696,-9.756932617150536,0.04602459497806896,0.38549536580965205,-0.12319386888308423,-0.01517981596831305,0.010484026627077047
2.799999999999995,0.0017177161,-0.85445297,0.038873687,-2.399869,0.04075559,1.5445685,0.731998,0.03999597,0.03999624,-9.820272625001357,-0.07801928455635906,-0.13268346270394704,-0.11547865443862892,-0.012668119527236395,0.00971123349348462
2.8166666666666615,0.0017584749,-0.8562801,0.039886966,-2.401005,0.04181632,1.5438799,0.7305892,0.039996475,0.039996754,-9.775741356098045,0.04621565417817297,0.013845265990192951,-0.12178932726539456,-0.01635177257632881,0.014043087583050515
2.833333333333328,0.0017997748,-0.85813135,0.04091366,-2.402156,0.04289112,1.5431821,0.7291618,0.03999696,0.039997242,-9.618546578544452,-0.06973061333344069,-0.11763585340112283,-0.12216576030745699,-0.01501332413802009,0.015908784044337283
2.8499999999999948,0.0018416125,-0.86000663,0.04195373,-2.4033225,0.04397991,1.5424751,0.7277157,0.039997417,0.0399977,-9.90596689539116,0.17342904357450567,-0.26888136196957163,-0.12812787433412898,-0.011196577806642632,0.01113885906630787
2.8666666666666614,0.0018839848,-0.8619059,0.043007102,-2.4045036,0.04508262,1.5417589,0.7262508,0.03999781,0.039998103,-9.918539338689653,-0.10976519165239265,0.007922187060336996,-0.126005705834307,-0.0167850143310126,0.013265662646200804
2.883333333333328,0.0019268886,-0.8638291,0.04407368,-2.4056993,0.04619917,1.5410343,0.7247682,0.03999819,0.039998483,-9.659603596463192,-0.09644997796815019,-0.035850208731361716,-0.12691781967071958,-0.011851148738588,0.014254297789042884
2.8999999999999946,0.0019703195,-0.86577606,0.04515339,-2.4069097,0.04732947,1.5403007,0.7232667,0.03999855,0.039998844,-9.470510762781393,-0.005650062885314749,-0.22651149110243712,-0.1313067990162244,-0.0140054713207847,0.013181290653312396
2.916666666666661,0.0020142752,-0.86774665,0.046246167,-2.408135,0.048473448,1.5395577,0.7217474,0.039998896,0.039999194,-9.981490237902824,-0.014823907538894704,0.02088082951019944,-0.13148451508051393,-0.013533960493208005,0.008870932395873691
2.933333333333328,0.002058752,-0.8697405,0.04735191,-2.4093745,0.04963101,1.5388064,0.7202101,0.039999213,0.039999515,-9.676877329700828,0.10472795470698915,-0.026704821629995025,-0.13662961960180206,-0.01124107146869724,0.012668912070060488
2.9499999999999944,0.0021037466,-0.8717578,0.048470546,-2.4106286,0.050802045,1.5380459,0.7186549,0.039999485,0.039999798,-9.756447208086657,0.24844575476407177,0.23051898638559076,-0.13084637415972267,-0.013550958773687326,0.01653822191866981
2.966666666666661,0.0021492539,-0.8737981,0.049601965,-2.411897,0.05198649,1.5372772,0.7170818,0.039999746,0.04,-9.56896887308324,0.00886823205406928,-0.01573777365029737,-0.1337096956605151,-0.011371287055428893,0.011642403946580985
2.9833333333333276,0.0021952689,-0.8758613,0.05074609,-2.41318,0.053184412,1.5364995,0.71549106,0.039999906,0.04,-10.076389170028719,0.3992473147299723,0.11359654697340882,-0.13947025920018108,-0.009376427780928101,0.011076138096158795
2.9999999999999942,0.0022417873,-0.87794703,0.051902812,-2.4144773,0.05439571,1.5357133,0.71388274,0.039999984,0.04,-9.501773477941612,0.08586222651802389,-0.3365875005829287,-0.13727216976723808,-0.008567232330816979,0.015790787631158498
3.016666666666661,0.002288807,-0.88005555,0.053072024,-2.4157887,0.055620164,1.5349188,0.7122571,0.04,0.04,-9.747581364464956,0.19386826071407343,-0.10031030499984475,-0.13952795767964427,-0.014046685470711265,0.015409690651413649
3.0333333333333274,0.0023363235,-0.8821861,0.054253653,-2.4171135,0.056857623,1.5341158,0.7106142,0.04,0.04,-9.59075892751393,0.25932584768864014,-0.02722600044159559,-0.13490076770565726,-0.010817327015099232,0.015026671089218391
3.049999999999994,0.002384332,-0.8843391,0.055447564,-2.4184525,0.05810793,1.5333043,0.7089543,0.04,0.04,-9.683352857552293,0.028649270873700533,-0.005763076522876803,-0.14565293788697503,-0.008431856941720522,0.010196105690901094
3.0666666666666607,0.002432828,-0.886514,0.056653667,-2.4198046,0.059370957,1.5324845,0.70727736,0.04,0.04,-9.893859358361835,0.24855507347973976,-0.07816404150353304,-0.14439964155172177,-0.010032550001730244,0.011601020335499196
3.0833333333333273,0.0024818073,-0.8887108,0.057871845,-2.4211705,0.06064659,1.5316567,0.7055835,0.04,0.04,-9.502370079867067,0.24176151613583308,0.17533331347805015,-0.1433602805822233,-0.014869771532468419,0.01392848053011112
3.099999999999994,0.0025312642,-0.8909291,0.05910199,-2.42255,0.061934743,1.5308207,0.7038731,0.04,0.04,-9.835545527705788,0.3508624093732706,0.0899756531380716,-0.14409316846698147,-0.011811481532794273,0.010388678506875372
3.1166666666666605,0.0025811936,-0.8931687,0.06034399,-2.4239426,0.06323527,1.5299766,0.7021462,0.04,0.04,-9.759591978803646,0.3827975177825142,-0.1472232239648078,-0.14986606701671196,-0.009831300605828937,0.00940819553789989
3.133333333333327,0.0026315919,-0.8954296,0.06159771,-2.4253485,0.064548045,1.5291244,0.70040303,0.04,0.04,-9.823230144021947,0.3673012965770488,0.10830164728510377,-0.15076802589593064,-0.009040312180417287,0.013855359715948505
3.1499999999999937,0.0026824533,-0.8977114,0.06286303,-2.4267669,0.06587297,1.5282644,0.69864374,0.04,0.04,-9.5986500446387,0.40384301039590464,-0.4602972927769549,-0.14042060898468717,-0.011582709167950983,0.01949963186905749
3.1666666666666603,0.0027337726,-0.9000139,0.06413981,-2.4281988,0.06720989,1.5273967,0.69686854,0.04,0.04,-9.936951308663007,0.14509080638130023,0.2841307867382497,-0.1487029439612729,-0.016937836725670022,0.014424521380758676
3.183333333333327,0.0027855448,-0.902337,0.06542798,-2.4296432,0.06855866,1.5265211,0.6950775,0.04,0.04,-9.573223318062555,0.2591039702017891,0.06716662172429207,-0.14998447295327685,-0.013082085160804382,0.013159691730439238
3.1999999999999935,0.002837764,-0.9046805,0.066727355,-2.4311,0.06991921,1.5256379,0.69327074,0.04,0.04,-9.652864958001995,0.12294433642014979,0.1208200856725767,-0.153602937732707,-0.012789305081387963,0.01662887742863633
3.21666666666666,0.0028904257,-0.90704376,0.06803782,-2.4325695,0.07129136,1.5247471,0.6914487,0.04,0.04,-9.651207728797246,0.14989532771413033,-0.14012937426827854,-0.1496916065243471,-0.011424741789214049,0.009539511303002561
3.2333333333333267,0.002943522,-0.90942687,0.06935928,-2.4340513,0.07267498,1.5238492,0.6896114,0.04,0.04,-9.85072103008526,0.11676487144481693,-0.14749336721156514,-0.1603450407499013,-0.008937834348541769,0.007242007100165947
3.2499999999999933,0.0029970491,-0.91182965,0.07069155,-2.435545,0.07406993,1.5229437,0.687759,0.04,0.04,-10.033189052594837,-0.07413751822650994,0.059288935627331854,-0.16221241518878443,-0.0058017642575842274,0.0010809092939771962
3.26666666666666,0.0030510006,-0.9142515,0.072034515,-2.4370506,0.075476065,1.5220311,0.6858918,0.04,0.04,-9.710895281320864,0.10473550852265012,0.16633545285685708,-0.15695240788300271,-0.010081974138634684,0.007464359395101416
3.2833333333333266,0.00310537,-0.9166925,0.07338801,-2.4385676,0.07689325,1.5211114,0.68401,0.04,0.04,-9.775303049342993,0.23921769101301843,-0.2008137610048878,-0.15857305422388054,-0.01196057972642932,0.010456472172608705
3.299999999999993,0.0031601526,-0.9191522,0.07475191,-2.4400969,0.07832132,1.5201844,0.6821136,0.04,0.04,-9.983093469744768,0.292286195939338,0.030287285025966844,-0.16064507905885536,-0.009629010005293525,0.011218135199588813
3.3166666666666598,0.0032153423,-0.92163044,0.07612607,-2.441638,0.07976012,1.5192504,0.68020284,0.04,0.04,-9.68795922012238,0.6231648572562564,-0.31328220027768683,-0.16119607717680715,-0.00658396419732058,0.008911732655596588
3.3333333333333264,0.0032709315,-0.9241271,0.07751034,-2.4431903,0.0812095,1.5183095,0.67827815,0.04,0.04,-9.879326042155526,-0.05778085469211383,-0.1881439791516642,-0.15464072795228392,-0.014856756480547264,0.013956221468777103
3.349999999999993,0.0033269143,-0.9266415,0.07890457,-2.444754,0.08266931,1.5173616,0.67633957,0.04,0.04,-9.587902536742794,0.45372405425675777,-0.0756936154745698,-0.15976402826134137,-0.00907060666491921,0.016817424400353415
3.3666666666666596,0.0033832858,-0.9291737,0.08030861,-2.4463277,0.0841394,1.5164075,0.6743873,0.04,0.04,-9.994182436909506,0.42453051882882364,0.07361024428500049,-0.16434692561132222,-0.009409185026606993,0.01248845974297985
3.383333333333326,0.0034400388,-0.93172324,0.08172233,-2.447913,0.08561959,1.5154468,0.6724215,0.04,0.04,-9.922862139383678,0.1695072101146345,-0.25496313351498023,-0.17155864243269403,-0.009739262402630223,0.010652422525893818
3.399999999999993,0.0034971668,-0.93429,0.08314555,-2.4495087,0.08710974,1.5144795,0.6704427,0.04,0.04,-9.891783928690554,0.046364564436683214,-0.1999472028360518,-0.16414823470802534,-0.009306110839223598,0.00794251271678085
3.4166666666666594,0.0035546636,-0.9368737,0.0845781,-2.4511158,0.08860966,1.5135058,0.6684507,0.04,0.04,-10.136142240513735,-0.13345071221876378,-0.27306906396728553,-0.16772439447450493,-0.010280418373452557,0.012629434935031552
3.433333333333326,0.003612522,-0.9394739,0.086019844,-2.452732,0.09011922,1.5125262,0.66644603,0.04,0.04,-9.95419026021132,0.07839959602643468,0.01597757591421671,-0.1676191256789841,-0.007496382563244408,0.011570128264184715
3.4499999999999926,0.0036707362,-0.9420906,0.08747062,-2.4543588,0.09163827,1.5115402,0.6644287,0.04,0.04,-9.715523768325571,-0.0385972033954142,-0.165365235220071,-0.1681023254272746,-0.007676118448565897,0.007835030385228323
3.4666666666666592,0.0037292992,-0.9447232,0.08893027,-2.455995,0.09316654,1.5105476,0.6623991,0.04,0.04,-9.87289490095887,0.21980304945359636,-0.15261504578064783,-0.1643191183236846,-0.011479363412404825,0.011431263380028773
3.483333333333326,0.0037882032,-0.9473714,0.09039862,-2.4576418,0.094703935,1.50955,0.66035736,0.04,0.04,-9.798368562289562,0.3959350861380807,-0.2543990133801666,-0.16520399859213666,-0.010006498448614258,0.01859839557882736
3.4999999999999925,0.0038474419,-0.95003504,0.09187548,-2.4592974,0.096250266,1.5085459,0.65830374,0.04,0.04,-9.575577136079374,0.1835493627224109,0.01668469540738656,-0.16834333443929123,-0.011963401181232116,0.007896190256930346
3.516666666666659,0.003907008,-0.9527139,0.09336074,-2.460963,0.09780536,1.5075365,0.65623844,0.04,0.04,-10.307332085584491,0.23703488364253358,0.0410467165263035,-0.17915116286701213,-0.009102046547689282,0.007229438953598732
3.5333333333333257,0.0039668963,-0.9554075,0.094854176,-2.4626374,0.09936904,1.5065215,0.6541618,0.04,0.04,-10.068081354659355,0.004243687692895237,0.4218843674727874,-0.1749765831309304,-0.006732560008994709,0.011225534406504633
3.5499999999999923,0.0040270966,-0.9581155,0.09635562,-2.464321,0.10094116,1.505501,0.6520739,0.04,0.04,-9.872127313157309,0.4933811429337588,-0.012621305630781657,-0.17472478815901082,-0.005746474362410669,0.005899265678401532
3.566666666666659,0.0040876046,-0.96083784,0.09786495,-2.4660137,0.10252148,1.504475,0.6499752,0.04,0.04,-9.929691853793699,0.5275986250021675,0.3136734468079018,-0.1762931078903474,-0.006333384765564083,0.01166625599853014
3.5833333333333255,0.004148411,-0.9635741,0.09938193,-2.467715,0.10410982,1.5034441,0.64786583,0.04,0.04,-9.545013122085813,0.3390234174836796,-0.15938767701884665,-0.17755126180728562,-0.005364473999419866,0.005365959347712798
3.599999999999992,0.004209512,-0.9663238,0.1009064,-2.4694247,0.10570604,1.5024078,0.64574593,0.04,0.04,-9.399899851603799,0.40477409896180544,-0.031900820728652406,-0.17413808755479984,-0.009525618635436715,0.0060057261016146155
3.6166666666666587,0.0042708963,-0.96908677,0.10243821,-2.4711423,0.10730995,1.5013666,0.64361596,0.04,0.04,-9.795737695270908,0.17020133206904303,0.232211065792845,-0.1736458843726181,-0.007864436949977243,0.017927611914957647
3.6333333333333253,0.004332557,-0.9718626,0.10397718,-2.472868,0.10892135,1.5003207,0.6414759,0.04,0.04,-9.732815725530038,0.5648058799909209,-0.10846296536977716,-0.1735069761490856,-0.0077099881583002645,0.010888526242443096
3.649999999999992,0.004394488,-0.974651,0.10552312,-2.4746015,0.110540055,1.4992696,0.63932616,0.04,0.04,-9.452256529414825,0.1632175126157176,0.06448041712554212,-0.17711159134530385,-0.009050903621914453,0.006385181695509371
3.6666666666666585,0.0044566817,-0.9774516,0.10707584,-2.476343,0.11216588,1.498214,0.63716704,0.04,0.04,-9.997632410026187,0.01810787153641158,0.035528266248662496,-0.17300150649043525,-0.01027902486040678,0.01295708661101523
3.683333333333325,0.0045191306,-0.98026437,0.10863517,-2.4780917,0.11379865,1.4971541,0.6349987,0.04,0.04,-9.724047230111301,0.22935552913428978,-0.13291438850093543,-0.17601181348799969,-0.006627035863358599,0.012165224452807525
3.6999999999999917,0.004581827,-0.98308855,0.11020093,-2.479848,0.11543809,1.49609,0.63282114,0.04,0.04,-9.66028194157845,0.002656963814088975,-0.40032130430420093,-0.17848560695425073,-0.007961492761189301,0.003819361844380177
3.7166666666666583,0.004644763,-0.985924,0.11177289,-2.4816103,0.117084116,1.4950216,0.63063544,0.04,0.04,-9.574127073946823,0.07965277152692574,-0.3755031990788235,-0.18226554983296606,-0.00044068074626825015,0.0051756095450805895
3.733333333333325,0.004707932,-0.98877037,0.11335093,-2.4833796,0.11873647,1.493949,0.62844086,0.04,0.04,-9.958746070506951,0.2277743287745369,0.2162356759164825,-0.1791571911063992,-0.008577924997553023,-0.0018271455461620727
3.7499999999999916,0.004771325,-0.9916276,0.114934795,-2.4851553,0.12039496,1.4928724,0.62623847,0.04,0.04,-9.603313911228646,0.2961105622631768,0.31475274866055125,-0.1780988097300206,-0.004180389116524916,0.003903535582963676
3.766666666666658,0.0048349337,-0.9944949,0.116524346,-2.4869378,0.12205939,1.4917918,0.6240282,0.04,0.04,-9.707508779649306,0.2318372934675521,0.15275073299974656,-0.1809892831119884,-0.0040967083473195855,0.007199058617824455
3.7833333333333248,0.0048987516,-0.99737227,0.118119374,-2.4887266,0.12372958,1.4907075,0.62181026,0.04,0.04,-9.634871163088638,0.25040768778368544,-0.25748906164612645,-0.1808847836756087,-0.01046861857436205,0.00533639673877749
3.7999999999999914,0.0049627707,-1.0002586,0.11971969,-2.4905214,0.1254053,1.4896196,0.6195848,0.04,0.04,-10.035084054646669,0.05667927532287781,0.1322451388386015,-0.17771319327378787,-0.010846133373234555,0.0020778063033267805
3.816666666666658,0.0050269812,-1.0031536,0.12132509,-2.4923215,0.12708637,1.4885281,0.6173519,0.04,0.04,-9.586907498087852,0.5144101096214272,0.11972480252635846,-0.17806555428048546,-0.007245706070293683,0.006391684703459289
3.8333333333333246,0.0050913775,-1.0060592,0.122935385,-2.4941273,0.1287726,1.4874336,0.6151128,0.04,0.04,-9.695001188341603,0.4855002759907854,-0.08940271684480282,-0.17671274207666118,-0.0055192434547588895,0.005727430278901306
3.849999999999991,0.0051559517,-1.0089735,0.12455042,-2.495938,0.13046376,1.4863358,0.61286706,0.04,0.04,-10.133092575282845,0.11428921921998061,-0.17580439584103721,-0.18790566029635344,-0.003532485359301734,0.0025777726881009177
3.866666666666658,0.005220696,-1.0118955,0.12616998,-2.497754,0.1321597,1.485235,0.6106147,0.04,0.04,-9.852598600926454,-0.14040445096386972,-0.009191343387589066,-0.18088603478466,-0.009521921222739675,0.005058639702305044
3.8833333333333244,0.005285602,-1.0148246,0.12779386,-2.4995747,0.13386017,1.4841311,0.60835636,0.04,0.04,-9.683254935376532,0.27523166098786844,0.09082049461561147,-0.17919483672533482,-0.00779113931670398,0.00783883320581039
3.899999999999991,0.0053506596,-1.017761,0.12942185,-2.5014,0.13556494,1.4830244,0.6060923,0.04,0.04,-9.676528379220615,0.04339875300187884,0.033329386536287246,-0.18050344846856753,-0.0017039529594257148,0.0066041208783675755
3.9166666666666576,0.0054158634,-1.0207047,0.13105376,-2.5032306,0.13727382,1.481915,0.60382307,0.04,0.04,-9.599549841928006,0.24150820518907526,0.06137445473825998,-0.17828063610358488,-0.0057269818658214275,0.006449635663777879
3.9333333333333242,0.0054812026,-1.0236552,0.13268936,-2.5050642,0.13898669,1.4808034,0.60154855,0.04,0.04,-9.829102654830905,0.3264000449114368,0.028406483751921424,-0.17995344266291619,-0.004733708403994858,0.0077147459314067714
3.949999999999991,0.005546672,-1.0266119,0.13432851,-2.5069025,0.14070319,1.4796891,0.59926885,0.04,0.04,-9.449720254280676,0.42299858456457795,0.0869608365754029,-0.180431380545894,-0.006184527481115972,0.011621922306237506
3.9666666666666575,0.0056122616,-1.0295748,0.135971,-2.508744,0.14242324,1.4785727,0.59698474,0.04,0.04,-9.691099357360809,0.4940958584030317,0.005328020806354542,-0.18363098636170117,-0.008039420253017045,-0.002069828908149717
3.983333333333324,0.005677964,-1.0325435,0.13761659,-2.5105894,0.14414653,1.4774541,0.59469634,0.04,0.04,-9.874843574129025,0.291419952694294,0.07377603688956239,-0.1811182676487481,-0.004098062161650009,0.0037632580763693776
3.9999999999999907,0.005743771,-1.0355175,0.13926512,-2.512438,0.14587292,1.4763335,0.59240395,0.04,0.04,-9.80040048499769,-0.09177466126073897,0.1697253736867233,-0.18080996746345565,-0.01050080805023935,0.007397719536526448
4.016666666666658,0.0058096745,-1.0384966,0.14091639,-2.5142891,0.14760217,1.475211,0.5901077,0.04,0.04,-9.484400194472459,-0.041187742012205375,-0.2798941932641146,-0.17771157675826518,-0.0053713583410779295,0.005263457768725738
4.033333333333324,0.005875668,-1.0414802,0.14257017,-2.5161436,0.14933404,1.4740869,0.58780783,0.04,0.04,-9.722456786296148,0.2883904057392749,-0.10956850555574542,-0.183875724061689,-0.0023899183860898953,0.001794291493883761
4.049999999999991,0.00594174,-1.0444678,0.14422628,-2.5180008,0.1510684,1.472961,0.58550453,0.04,0.04,-9.951258855991496,0.4271141276362649,0.25069344975637303,-0.1870534383679544,-0.003813052239242675,0.0010061844742948625
4.0666666666666575,0.006007884,-1.0474594,0.1458845,-2.5198605,0.15280502,1.4718338,0.5831985,0.04,0.04,-9.62539171577524,0.31445560929072436,0.10913564894750222,-0.18114862091905867,-0.004720984829205663,-0.0032631007877149086
4.083333333333324,0.006074093,-1.0504541,0.14754467,-2.5217223,0.15454356,1.4707052,0.5808897,0.04,0.04,-9.550336373660393,0.5385860276079428,0.25930411167922574,-0.18196941196435265,-0.0037677625138029074,0.0038254957413911476
4.099999999999991,0.006140355,-1.0534521,0.14920656,-2.5235856,0.15628394,1.4695753,0.5785785,0.04,0.04,-9.633180215204854,0.11664393941929427,-0.3004983616899392,-0.17887978340260016,-0.005575105849111478,0.0063167050081782096
4.116666666666657,0.0062066647,-1.0564531,0.15086998,-2.5254505,0.15802594,1.4684445,0.5762651,0.04,0.04,-9.701209088703859,0.2276919263192148,0.642151996623435,-0.18373609101217417,-0.004569784903113137,0.0027867091280088393
4.133333333333324,0.0062730154,-1.0594562,0.15253466,-2.527317,0.15976931,1.4673127,0.5739498,0.04,0.04,-9.920647612391361,0.4073155782715292,-0.10994828873167209,-0.17945567211139477,-0.0016095489421234371,0.006148937969515986
4.149999999999991,0.006339396,-1.0624613,0.15420046,-2.5291855,0.16151385,1.4661802,0.5716332,0.04,0.04,-9.628604682710948,0.3046404891108586,0.27172201530401136,-0.18053476494621118,-0.004292276316547718,0.00691939396533643
4.166666666666657,0.006405798,-1.0654682,0.15586711,-2.5310545,0.16325939,1.4650474,0.5693153,0.04,0.04,-10.105741828090164,0.4063019898629314,0.05396423076240836,-0.1839190531608227,-0.005596714650023154,0.0018760451212913724
4.183333333333324,0.0064722155,-1.0684762,0.15753448,-2.5329247,0.16500561,1.4639137,0.5669964,0.04,0.04,-9.610900065951698,0.22363119136268536,0.41280408505316507,-0.1818987763310287,-0.003986495436889964,0.0017746077781848084
4.19999999999999,0.006538638,-1.0714852,0.15920234,-2.534795,0.1667524,1.4627799,0.5646767,0.04,0.04,-9.93123554198542,0.6539095975792963,0.29357077288311173,-0.18805856626801912,-0.0025194823252725424,0.0025006545914425687
4.216666666666657,0.006605057,-1.0744947,0.16087046,-2.5366654,0.16849943,1.461646,0.56235677,0.04,0.04,-9.853310404905567,0.4505802458110816,0.32360004113240326,-0.17983764267837368,-0.002588519919673758,-0.0013188903427337588
4.233333333333324,0.006671466,-1.0775044,0.1625387,-2.5385363,0.17024657,1.4605119,0.5600368,0.04,0.04,-9.593219653515334,0.07525443543907362,0.3198458599477485,-0.18042835311197145,-0.0018908844301788498,-0.000713905406626483
4.24999999999999,0.0067378567,-1.0805141,0.16420674,-2.5404072,0.17199363,1.459378,0.55771685,0.04,0.04,-9.14634076493464,0.10439570563971923,0.1064693016665153,-0.18101468092810968,0.0020889500419941347,0.0027816082657023105
4.266666666666657,0.0068042194,-1.0835228,0.16587448,-2.5422773,0.17374034,1.4582441,0.55539733,0.04,0.04,-9.90653731358693,0.31505457874651255,-0.407378628712483,-0.17338053311418633,-0.0046465660206989595,0.0032512076006615855
4.2833333333333234,0.006870547,-1.0865304,0.16754167,-2.544147,0.17548648,1.4571105,0.55307865,0.04,0.04,-9.794659151774566,0.29870886587946754,0.11585374358568382,-0.17961313092206063,-0.007440252770954465,0.0002708714842508812
4.29999999999999,0.006936829,-1.0895375,0.16920812,-2.546016,0.17723185,1.4559777,0.55076087,0.04,0.04,-9.570725873856059,0.13020200292325,-0.18847313653947315,-0.17757877566185407,-0.008292392429620018,0.005377764893869748
4.316666666666657,0.007003062,-1.0925422,0.17087366,-2.5478837,0.17897627,1.4548455,0.54844457,0.04,0.04,-9.635635666091172,0.2118603258361487,-0.18615500506508176,-0.17820614623547662,-0.002662542248731416,-0.002932023395944878
4.333333333333323,0.0070692347,-1.0955449,0.17253803,-2.54975,0.18071952,1.453714,0.5461297,0.04,0.04,-9.710161321183243,0.6499016733752454,0.0034102053543284398,-0.17850528131956495,-0.005861960572545597,0.0030228104238622265
4.34999999999999,0.0071353386,-1.0985456,0.17420109,-2.5516148,0.18246134,1.4525832,0.54381675,0.04,0.04,-9.871752097032493,0.044734692149287436,-0.14583651829440708,-0.17275972353107907,-0.0029695015020966688,0.0040397283097089245
4.3666666666666565,0.007201366,-1.1015434,0.17586254,-2.5534778,0.18420155,1.4514536,0.54150605,0.04,0.04,-10.033452069830695,0.16257626395855063,-0.09297032906242562,-0.17556772054188133,-0.003059858795283154,0.0002196724474013314
4.383333333333323,0.007267309,-1.1045378,0.17752223,-2.555339,0.18593991,1.4503255,0.53919774,0.04,0.04,-9.865923003635846,0.5088195068069398,0.17351275491123708,-0.1732251567033567,0.000400027242061138,-0.007627370784871084
4.39999999999999,0.0073331585,-1.1075289,0.17917998,-2.557198,0.18767624,1.4491984,0.536892,0.04,0.04,-9.622855520474294,0.07028531337612337,-0.18979701007691135,-0.17183846392719893,-0.00534484222736576,-0.00011417140711412261
4.416666666666656,0.007398907,-1.110516,0.18083553,-2.5590546,0.1894103,1.4480728,0.5345894,0.04,0.04,-9.656876710365566,0.1788010362246586,-0.35158018772000316,-0.1694167186335935,-0.0002368866414016307,-0.0009197139644371525
4.433333333333323,0.007464549,-1.1134987,0.18248874,-2.5609083,0.19114187,1.4469489,0.53228986,0.04,0.04,-9.825005387246211,0.4754162020481426,-0.08210304758992483,-0.1766015240665428,0.0012110871784304163,-2.6279603179688814e-05
4.4499999999999895,0.007530072,-1.1164765,0.18413936,-2.5627594,0.19287084,1.4458268,0.529994,0.04,0.04,-9.934731237040971,0.1575406542373159,-0.05696495369459441,-0.1719803588912738,-0.001853014151461193,0.0010833378302402023
4.466666666666656,0.0075954706,-1.1194496,0.18578717,-2.5646074,0.19459689,1.4447067,0.5277021,0.04,0.04,-10.049797546213568,0.1807699611189217,0.27836561892726164,-0.17159523444633618,-0.00312528102892392,-0.00517414212034608
4.483333333333323,0.007660737,-1.1224173,0.18743204,-2.5664523,0.19631977,1.4435885,0.5254142,0.04,0.04,-9.747108174090158,0.24520047270346013,-0.09006947415780252,-0.16967346531771305,-0.007505542528170407,0.0010139819784704181
4.499999999999989,0.007725862,-1.1253793,0.18907373,-2.568293,0.19803938,1.4424722,0.5231306,0.04,0.04,-9.88943189858681,0.33945894536312327,0.17198975943684375,-0.17474517840980536,-0.00024549944411253835,-0.0026223932426718763
4.516666666666656,0.0077908398,-1.1283351,0.19071208,-2.5701308,0.19975546,1.4413583,0.5208521,0.04,0.04,-9.771457505143538,0.44865506215130957,-0.29634067544119513,-0.17716796598926612,-0.002987410068915765,-0.003238918839004273
4.533333333333323,0.007855662,-1.1312845,0.19234681,-2.5719638,0.20146781,1.4402468,0.51857823,0.04,0.04,-9.665222732090287,-0.2060168280908462,0.28039186706128466,-0.17131434432369733,-0.003947459336550599,-0.004609684932277852
4.549999999999989,0.007920319,-1.1342272,0.19397776,-2.5737927,0.20317623,1.439138,0.51630986,0.04,0.04,-9.46650714298679,-0.18225504842535983,-0.2060702111931017,-0.16974793146514125,-0.004006932936457495,-0.0012403958830487357
4.566666666666656,0.007984802,-1.1371636,0.19560473,-2.5756176,0.20488042,1.4380322,0.514047,0.04,0.04,-9.684189504754412,0.4049133459744931,-0.21043172466136487,-0.16970990509587264,0.0010260462658613257,-0.002171898923744287
4.583333333333322,0.008049103,-1.1400917,0.19722754,-2.5774372,0.20658031,1.4369289,0.51179004,0.04,0.04,-9.923550325628774,0.13086735834156948,0.12154384695761493,-0.16961958025236912,0.00016406543606400803,-0.005068332932139036
4.599999999999989,0.008113219,-1.1430111,0.19884601,-2.5792522,0.20827568,1.4358284,0.5095391,0.04,0.04,-9.498467973103757,0.152959169608041,-0.25254005113351014,-0.16941567459295392,-0.002584512725717034,-0.00033336896356554415
4.616666666666656,0.008177138,-1.1459229,0.20045991,-2.581062,0.20996623,1.4347312,0.50729424,0.04,0.04,-9.781042909675508,0.685977718350161,-0.01653548941251592,-0.16099765380538741,-0.0063788267201556675,-0.0029470341427335674
4.633333333333322,0.008240854,-1.1488268,0.20206903,-2.5828667,0.21165177,1.4336371,0.5050561,0.04,0.04,-9.711669151114029,0.14444759688096803,-0.25216585625736365,-0.1639609938476782,-0.006670010503278339,-0.0005829224796228956
4.649999999999989,0.008304363,-1.1517209,0.2036732,-2.584666,0.21333219,1.4325465,0.5028249,0.04,0.04,-9.899745819239719,0.09981133567678574,0.22243596973392502,-0.1703917468131641,0.00019961785676017994,-0.004693844773863589
4.666666666666655,0.008367651,-1.1546065,0.20527223,-2.5864587,0.21500722,1.4314593,0.5006008,0.04,0.04,-9.675818686473999,0.2129121112991104,0.10457951936699099,-0.1612161890699752,-0.004389368019622924,-0.0061380180851820345
4.683333333333322,0.008430713,-1.1574817,0.20686594,-2.5882454,0.2166767,1.4303758,0.49838397,0.04,0.04,-9.893247624418594,0.058322447326495885,-0.0013291927972363064,-0.15867385806091078,0.002251792860978701,-0.0031231513906702347
4.699999999999989,0.008493542,-1.1603473,0.20845407,-2.5900266,0.21834037,1.4292961,0.49617484,0.04,0.04,-9.714564182040027,0.21535143231839948,0.4861406284010392,-0.16578114607044295,0.0019058840428496243,-0.006597382515036571
4.716666666666655,0.008556127,-1.1632032,0.21003653,-2.591801,0.21999806,1.4282203,0.49397373,0.04,0.04,-9.935347041631681,0.4553457042718425,0.043155364510275455,-0.164567896424673,0.0009702513720147185,-0.007050583000472415
4.733333333333322,0.008618466,-1.166048,0.21161309,-2.5935693,0.22164963,1.4271483,0.49178082,0.04,0.04,-9.796774849277856,0.351360607847436,0.3219101683731768,-0.16116056189403855,-0.00024695438850656364,-0.0016730232235992741
4.7499999999999885,0.0086805485,-1.168882,0.21318354,-2.595331,0.22329481,1.4260805,0.48959637,0.04,0.04,-9.867311508593696,0.32044866792080073,-0.2131424591114179,-0.16152395392242597,0.0011234266887499148,-0.0024017775521086833
4.766666666666655,0.008742368,-1.1717044,0.2147477,-2.5970852,0.22493345,1.4250169,0.4874206,0.04,0.04,-10.179253955230738,0.04511978994122498,-0.19299274128169328,-0.15724759416828646,-0.0026086565650318815,-0.004268844678843218
4.783333333333322,0.008803914,-1.1745149,0.21630539,-2.5988324,0.22656533,1.4239577,0.48525387,0.04,0.04,-9.842541940900992,0.23172931404124794,-0.03858904599736092,-0.16391574736503514,0.002830259656035515,-0.0037619079146772724
4.799999999999988,0.008865183,-1.1773138,0.21785645,-2.600572,0.22819024,1.4229032,0.48309642,0.04,0.04,-10.03703089622773,0.26363025080251273,0.09857403573719922,-0.15796302243535082,-0.001447831959504887,-0.0013391609439865934
4.816666666666655,0.008926171,-1.1801003,0.21940067,-2.6023037,0.22980805,1.4218532,0.48094845,0.04,0.04,-10.152563330443314,0.34114281880899877,0.12798517266874476,-0.15578092544664862,-0.0036177574796645504,-0.00291776908351439
4.8333333333333215,0.008986863,-1.1828744,0.22093792,-2.6040277,0.23141846,1.420808,0.47881025,0.04,0.04,-9.933570326304269,0.1309242514033247,-0.13365370175989746,-0.1541735203757564,-0.003048706916746321,-0.00041237931054818525
4.849999999999988,0.0090472605,-1.1856353,0.22246802,-2.6057436,0.23302135,1.4197677,0.476682,0.04,0.04,-9.63290082036005,0.3997880482114926,0.15055132303638466,-0.14974249737404788,0.003928357064729705,-0.004671477386189489
4.866666666666655,0.009107353,-1.1883831,0.22399065,-2.6074507,0.23461649,1.4187325,0.474564,0.04,0.04,-9.70961086953784,0.20267346856094,-0.20009103529441385,-0.15311011058053078,0.0019231018470765773,-0.005256077585403285
4.883333333333321,0.009167134,-1.1911169,0.22550572,-2.6091495,0.23620376,1.4177022,0.47245643,0.04,0.04,-10.147292528664595,0.3728650632521237,0.16182272633985198,-0.14971348880109334,0.0027683500054974143,-6.588655671274564e-05
4.899999999999988,0.009226595,-1.1938369,0.22701308,-2.6108398,0.23778297,1.4166772,0.47035968,0.04,0.04,-9.84941019703393,0.11688146433571925,0.07963657117278025,-0.1533753189343748,0.005205454533508546,-0.004648372919239903
4.9166666666666545,0.00928573,-1.196543,0.22851256,-2.612521,0.23935392,1.4156576,0.46827385,0.04,0.04,-9.969170829563332,0.2838208888595305,0.036166511428992285,-0.15163519989204313,0.0047759260749456614,-0.012120726962929313
4.933333333333321,0.009344531,-1.1992344,0.23000398,-2.6141937,0.24091643,1.4146438,0.46619928,0.04,0.04,-10.288989531607248,0.15457711169447416,0.05140724399889765,-0.15101126942164364,0.0009579134101289099,-0.0041721833802796
4.949999999999988,0.009402994,-1.2019107,0.23148713,-2.6158574,0.24247034,1.4136353,0.4641362,0.04,0.04,-9.946216593081704,0.2954567866489729,0.24316284828032542,-0.15028358796323088,0.0009600534833541355,-0.007717793574126638
4.966666666666654,0.0094611095,-1.204572,0.2329619,-2.6175106,0.24401544,1.4126325,0.46208486,0.04,0.04,-9.936784986987277,0.16312614692173608,0.03293842221042153,-0.1472158549686236,0.0012120500642324626,-0.0032037275655721125
4.983333333333321,0.009518875,-1.2072178,0.2344281,-2.6191552,0.24555159,1.411636,0.46004534,0.04,0.04,-9.875627062886082,0.498785001956307,0.060971002381377544,-0.14670233077028366,9.3941032884604e-05,-0.0038572956543698853
4.999999999999988,0.009576278,-1.2098477,0.23588553,-2.6207895,0.24707852,1.4106449,0.45801803,0.04,0.04,-10.08675481362822,0.26262097946830615,-0.07920293686876903,-0.13960590674585646,-0.0027196498956197535,-0.005544978407512613
5.016666666666654,0.0096333185,-1.2124617,0.23733409,-2.622414,0.24859618,1.4096601,0.4560031,0.04,0.04,-9.99519032998754,0.4483915385534296,0.255572075188072,-0.1423018342981101,-0.0013448442733119273,-0.0033448695646468803
5.033333333333321,0.009689988,-1.2150594,0.23877352,-2.6240282,0.2501043,1.4086815,0.45400077,0.04,0.04,-9.808325793786803,0.23117433066228035,-0.5417239518452595,-0.13845476056167896,-0.0028263994527670208,-0.0020073900629927585
5.049999999999987,0.0097462805,-1.2176404,0.24020375,-2.6256316,0.2516028,1.4077091,0.4520113,0.04,0.04,-9.635568554550488,-0.06832307234545493,-0.1476538916577365,-0.14287011483475706,0.000511747666114981,-0.008327419857069505
5.066666666666654,0.009802191,-1.2202042,0.2416246,-2.6272256,0.2530914,1.406743,0.4500349,0.04,0.04,-9.801346699780353,0.1268548435623238,-0.07980367190747586,-0.13675692136741271,-0.002848450876578828,-0.0036404676007339393
5.083333333333321,0.009857709,-1.2227511,0.24303591,-2.6288078,0.25457004,1.4057837,0.4480717,0.04,0.04,-10.000493918826006,0.48075570364292003,0.28637835149527546,-0.13382913712689223,-0.0008426102647291454,-0.006003682521477862
5.099999999999987,0.009912833,-1.2252803,0.24443752,-2.6303787,0.25603867,1.4048307,0.44612202,0.04,0.04,-9.503593794412328,0.2286851973675914,-0.14505609235903832,-0.13186604826034573,0.000864287490066824,-0.0009205947083010716
5.116666666666654,0.009967555,-1.2277919,0.24582924,-2.631939,0.25749677,1.4038844,0.44418606,0.04,0.04,-9.547955420100767,0.027785892128658007,0.007587695209297245,-0.13678422438957233,-0.0026560062948800273,-0.00569793913325036
5.13333333333332,0.010021869,-1.2302854,0.24721095,-2.6334887,0.25894445,1.4029449,0.44226402,0.04,0.04,-9.611813728376237,0.12970947407707387,0.030638505381010026,-0.13425502003978051,-0.002648122602333599,-0.0072477902240766865
5.149999999999987,0.010075771,-1.2327608,0.24858251,-2.6350272,0.26038143,1.4020121,0.44035614,0.04,0.04,-10.091899919895639,0.4131914397167464,-0.0940341148571236,-0.13365726272676268,0.002333667701393608,-0.005544707268967512
5.166666666666654,0.010129255,-1.2352173,0.24994376,-2.636554,0.26180774,1.4010864,0.43846238,0.04,0.04,-9.609086748000973,0.41762437441959327,0.11543176896610914,-0.13134750310271218,0.000579221645398196,-0.004045012842169891
5.18333333333332,0.0101823155,-1.2376553,0.25129455,-2.6380687,0.26322308,1.400168,0.43658328,0.04,0.04,-9.68880511446896,0.4168287617203513,0.39238032894846187,-0.1316766784973935,0.0014853422499224928,-0.00466532007595119
5.199999999999987,0.010234946,-1.2400737,0.25263476,-2.639572,0.26462737,1.3992566,0.4347188,0.04,0.04,-10.076424546114417,0.3558852911742448,-0.23561755488250294,-0.13026340476786213,0.0007016532150729007,-0.0037831422219573104
5.2166666666666535,0.010287146,-1.242473,0.2539643,-2.6410627,0.26602033,1.3983525,0.43286937,0.04,0.04,-9.848898963266834,0.508958099863588,-0.3065628022566999,-0.12460386000237778,-0.0010109849207996752,-0.0020686278914737364
5.23333333333332,0.010338904,-1.2448527,0.255283,-2.6425412,0.26740196,1.3974558,0.431035,0.04,0.04,-9.954985759338621,0.39390792174046435,0.09685133107181551,-0.12697196435573446,-0.003935763712322442,-0.005965638525064873
5.249999999999987,0.010390219,-1.2472123,0.2565907,-2.6440074,0.26877207,1.3965665,0.42921606,0.04,0.04,-10.002211402506036,-0.17100842770482924,-0.2707279563402418,-0.12578312703616223,0.0017211558878880919,-0.011050394665885609
5.266666666666653,0.010441083,-1.2495521,0.25788715,-2.6454618,0.27013063,1.3956848,0.42741254,0.039999995,0.04,-9.828218721023552,0.03696726551255283,-0.02880239711356851,-0.1265149254114447,-0.0031965357382189807,-0.002979477239358177
5.28333333333332,0.010491489,-1.2518716,0.25917244,-2.6469028,0.27147728,1.3948108,0.42562464,0.03999999,0.04,-9.971786921078824,0.43271802080302885,-0.03712819742514085,-0.12302782007787735,0.00022970749780784508,-0.008524820944962723
5.2999999999999865,0.010541439,-1.2541705,0.26044628,-2.6483314,0.27281204,1.3939446,0.42385262,0.039999988,0.04,-9.71706187447972,0.3366747647433186,-0.00961066628637601,-0.11885858008362879,-0.001084301521117423,-0.004558752504587539
5.316666666666653,0.010590926,-1.2564485,0.26170865,-2.649747,0.27413476,1.3930863,0.42209655,0.039999988,0.04,-9.893340177631897,0.1926896165370455,0.14694812580457708,-0.12742449814750373,0.0020948090189901536,-0.008136401557259695
5.33333333333332,0.010639942,-1.2587059,0.26295936,-2.6511493,0.27544516,1.392236,0.42035672,0.039999988,0.04,-9.801371190367512,0.07845353926947876,-0.5012064888669148,-0.11559265910128932,-0.00157290623166128,-0.006648076773916926
5.349999999999986,0.0106884865,-1.2609421,0.26419827,-2.6525385,0.27674335,1.3913937,0.41863325,0.039999988,0.04,-9.982314343308053,0.11703903766898434,-0.130595437994274,-0.11825273114181725,0.00044206872829998125,-0.005677759391211047
5.366666666666653,0.010736553,-1.2631565,0.26542526,-2.653914,0.27802905,1.3905594,0.4169263,0.039999988,0.04,-9.377276384712275,0.5829842470167863,0.1433826297566356,-0.11561709727302426,-0.002121941930291678,-0.0039271793015013
5.3833333333333195,0.010784136,-1.2653489,0.26664025,-2.6552763,0.2793022,1.3897333,0.41523603,0.03999998,0.04,-9.925815038210388,0.35248230887423115,-0.631629530915987,-0.11325152947505326,0.00010078026859640893,-0.0016961050595445334
5.399999999999986,0.010831233,-1.2675197,0.2678432,-2.656626,0.28056276,1.3889154,0.4135627,0.03999998,0.04,-10.115928832830058,0.4671043165709752,0.08747198829466485,-0.11294477303327426,-0.002403207316578444,-0.004948127093122563
5.416666666666653,0.010877838,-1.2696685,0.2690339,-2.6579614,0.28181043,1.3881059,0.4119063,0.039999988,0.04,-9.670585495827977,0.29953547775605804,0.03630067307282636,-0.10863634264616275,-0.004866330737376954,-0.002545123492400899
5.433333333333319,0.010923951,-1.271795,0.2702123,-2.6592827,0.2830452,1.3873045,0.41026708,0.03999998,0.04,-9.869244639459541,0.12428585523901654,0.12066357469175489,-0.1113493910792352,0.00246692180124907,-0.006456346812347892
5.449999999999986,0.010969564,-1.2738991,0.2713781,-2.6605902,0.28426695,1.3865117,0.40864524,0.039999977,0.04,-9.697928689699724,0.02811467662380296,-0.03865663749282409,-0.11447263659975612,0.007153594467187494,-0.007764589983459067
5.466666666666653,0.011014673,-1.2759806,0.27253145,-2.6618834,0.28547558,1.3857276,0.40704075,0.03999998,0.04,-10.27336967455776,0.6134377747216571,-0.25921116250125364,-0.11283668472609888,0.000717162667822389,-0.003462626050052937
5.483333333333319,0.01105928,-1.2780393,0.27367213,-2.6631622,0.28667092,1.3849517,0.40545383,0.03999998,0.04,-9.752013374043512,0.29520915781457924,-0.3215683580921406,-0.10870964368507695,0.0027346225284222967,-0.004345154518017068
5.499999999999986,0.011103379,-1.2800752,0.27480027,-2.6644278,0.28785297,1.3841848,0.40388465,0.03999998,0.04,-9.702847514828633,0.3524939914095714,0.10374180904274899,-0.10493347904788003,-0.0022965186145871693,-0.0033491905953791272
5.516666666666652,0.011146963,-1.2820879,0.27591547,-2.6656787,0.28902158,1.3834264,0.4023333,0.03999998,0.04,-9.543673452168024,0.268120115298743,-0.04137318948624642,-0.10544073123469028,0.003591701446868537,-0.004602239791884584
5.533333333333319,0.0111900335,-1.284077,0.2770177,-2.6669154,0.29017663,1.3826772,0.40079993,0.039999973,0.04,-9.902973327989192,0.14459386557360376,0.1664310462488655,-0.09923016982303902,0.0015782205168208805,-0.00020494688497240483
5.549999999999986,0.011232586,-1.2860429,0.27810702,-2.668137,0.2913181,1.3819361,0.39928454,0.039999966,0.04,-9.846740696797243,0.09782354939938706,-0.33284981315627427,-0.09937344975818846,-0.0008265486718419058,-0.0031054388745302424
5.566666666666652,0.011274614,-1.2879854,0.2791832,-2.6693442,0.29244584,1.3812045,0.39778754,0.03999997,0.04,-9.932863720358483,0.20090334793098574,-0.12516211608076,-0.09730015177667543,0.00021959141013008703,-0.002828438990915708
5.583333333333319,0.011316119,-1.289904,0.28024626,-2.6705363,0.29355976,1.3804817,0.39630893,0.039999966,0.04,-9.797856585327573,-0.019400215758046985,-0.3108039749304247,-0.10015818922099376,-0.0014034648630339326,-0.007361010654923719
5.599999999999985,0.011357094,-1.2917987,0.28129598,-2.6717134,0.29465994,1.3797679,0.39484856,0.03999996,0.04,-9.7397482808002,0.0543100077211047,-0.5765526269701748,-0.09723126687670572,-0.002720795637313499,-0.003368840706601727
5.616666666666652,0.011397538,-1.2936692,0.28233245,-2.6728754,0.29574585,1.379063,0.3934068,0.039999958,0.04,-10.072494914419606,0.3426841986507857,-0.21660319970759478,-0.09961698649631505,-0.001491625780202747,-0.0031517731601196633
5.633333333333319,0.011437449,-1.2955158,0.28335547,-2.6740224,0.2968179,1.3783673,0.3919837,0.039999954,0.04,-9.814855342268789,0.19269750042733394,-0.13067300180420943,-0.09615031708461741,0.00014851903957436313,-0.0064675776427253456
5.649999999999985,0.011476822,-1.2973381,0.28436494,-2.6751542,0.29787582,1.377681,0.39057922,0.039999958,0.04,-10.103288106857239,0.017418744040719303,-0.32048684505473646,-0.09879217675918088,-0.0006107589772485331,-0.005795451709368484
5.666666666666652,0.011515663,-1.2991358,0.28536096,-2.6762712,0.2989195,1.3770038,0.38919362,0.039999958,0.04,-9.61997169400099,0.061230739172348614,-0.11684845780999228,-0.09103869159300568,0.0020554373729374203,-0.005456441698770417
5.6833333333333185,0.011553963,-1.3009089,0.2863433,-2.6773727,0.299949,1.3763359,0.38782698,0.039999954,0.04,-9.372143924529855,0.39695685591728813,-0.04316098577823109,-0.09170708109967846,0.00035982743615557515,-0.00663583431764602
5.699999999999985,0.01159172,-1.3026576,0.28731203,-2.6784587,0.30096415,1.3756771,0.3864793,0.039999954,0.04,-9.591472433606965,0.2798739784771988,-0.05385589616029403,-0.09285332967520116,-0.00021242149987987606,-0.0018522833994321706
5.716666666666652,0.011628934,-1.3043813,0.28826714,-2.679529,0.30196494,1.3750278,0.3851508,0.039999958,0.04,-9.992125368379064,0.5985716703468433,0.18076581228304017,-0.0839836533936385,-0.003826176910336321,-0.006675022827791924
5.733333333333318,0.011665602,-1.3060802,0.28920838,-2.680584,0.30295128,1.3743877,0.38384137,0.039999954,0.04,-9.773330630094538,0.4738093060785614,-0.14295967645874064,-0.08559173668733414,0.00013581022543451967,-0.0027960878461320256
5.749999999999985,0.011701724,-1.307754,0.29013583,-2.681624,0.30392322,1.3737572,0.3825512,0.039999954,0.04,-9.558626646769392,0.10165376861843578,0.28267577882471995,-0.08328785874436727,-0.00430164296687879,-0.00792243564440717
5.7666666666666515,0.0117372945,-1.3094028,0.29104936,-2.6826482,0.30488065,1.373136,0.38128024,0.039999954,0.04,-10.17393102055592,0.14151149025160958,-0.10820842278592367,-0.08805774385426879,-0.0012900016006172357,-0.006612080001421297
5.783333333333318,0.011772314,-1.3110267,0.29194903,-2.6836572,0.3058234,1.3725244,0.38002864,0.03999995,0.04,-9.839103130870688,0.12606252236193796,0.0022321092388736807,-0.08707242039347918,0.0003587805844420989,-0.008422211159250527
5.799999999999985,0.011806782,-1.3126253,0.29283476,-2.6846502,0.30675164,1.3719221,0.3787964,0.039999954,0.04,-10.32533303003605,-0.06345353311014681,-0.052331108378125046,-0.08783867895573787,-0.0014793280833932366,-0.009702933627049895
5.816666666666651,0.011840698,-1.3141987,0.29370648,-2.6856272,0.30766517,1.3713293,0.37758365,0.039999954,0.04,-9.932612617788996,0.34206841197738735,0.30484713521134577,-0.07747570313225893,-0.004798042729881714,0.0005496689938453887
5.833333333333318,0.011874061,-1.3157473,0.29456425,-2.686589,0.30856404,1.3707461,0.37639037,0.039999954,0.04,-9.62837004996528,0.005239349248526037,-0.37111048014176334,-0.07628237455819191,-0.001748088149219979,-0.0021439337730114944
5.8499999999999845,0.011906869,-1.3172702,0.29540798,-2.6875353,0.30944827,1.3701724,0.3752166,0.039999947,0.04,-9.8271370881978,0.011811122002080482,0.032736103064743685,-0.0770382397621962,-0.003183049714266657,-0.003373336666904522
5.866666666666651,0.01193912,-1.3187677,0.2962376,-2.6884658,0.31031764,1.3696083,0.3740625,0.03999995,0.04,-10.027470576379255,0.4382932106061764,-0.36247589118633333,-0.07450560150878921,-0.00047376468951873925,-0.001362956725943686
5.883333333333318,0.011970816,-1.3202392,0.29705316,-2.6893802,0.3111723,1.3690537,0.37292802,0.039999958,0.04,-9.623049224490908,0.205858278925285,0.22262860386214856,-0.07417433649796486,0.000614169956005279,0.0005727471462544761
5.899999999999984,0.012001954,-1.3216865,0.29785475,-2.6902785,0.31201223,1.3685088,0.37181306,0.039999954,0.04,-9.454779401324611,-0.026271732364433975,0.2789386615804095,-0.07722992360054985,-0.005460721478026146,-0.007133998418882513
5.916666666666651,0.012032541,-1.3231074,0.29864207,-2.6911612,0.31283745,1.3679734,0.3707176,0.03999996,0.04,-9.924694074821272,0.08970244668208535,0.23498657547995072,-0.0731579268515977,-0.0018833428217128825,-0.00641865355712576
5.933333333333318,0.012062572,-1.3245028,0.29941556,-2.6920285,0.31364784,1.3674476,0.36964193,0.039999954,0.04,-10.007816876099808,0.2884219223641933,0.22628846238168004,-0.06790806344308409,0.0012705894694240159,0.0008161167953217573
5.949999999999984,0.012092041,-1.3258731,0.30017474,-2.69288,0.31444338,1.3669312,0.3685859,0.03999995,0.04,-9.818962323727881,-0.0940594979218895,-0.10662426209329584,-0.06960523873804338,0.0032906145817311696,-0.0024040502012210624
5.966666666666651,0.012120957,-1.3272179,0.3009197,-2.693715,0.31522414,1.3664247,0.3675495,0.039999954,0.04,-9.88697404492471,0.39314619108067683,0.2591980434728046,-0.06704069121456392,3.065113408832237e-05,-0.004005674484336852
5.983333333333317,0.012149314,-1.3285371,0.3016506,-2.6945343,0.31599,1.3659276,0.3665328,0.039999958,0.04,-9.522650062507095,0.09111187951524,-0.19382521343650222,-0.06494248993952834,-0.0004533399078928361,-0.007294045121658032
5.999999999999984,0.012177123,-1.3298309,0.30236742,-2.695338,0.31674117,1.3654402,0.3655357,0.039999958,0.04,-9.723123696575485,0.07870177253652316,-0.07831995668854577,-0.06444722984413224,-0.0032993585454062467,-0.0010040160122651352
6.016666666666651,0.0122043695,-1.3310993,0.30307007,-2.696126,0.31747743,1.3649623,0.36455828,0.039999954,0.04,-9.830487013712704,0.015410502877070908,-0.015493640903067638,-0.06720401998001128,-0.005140140712208561,-0.008419920049956472
6.033333333333317,0.012231066,-1.332342,0.3037586,-2.6968982,0.318199,1.3644942,0.3636004,0.039999958,0.04,-9.815507780258214,0.33057266505850685,-0.05971680753619053,-0.06335514233574685,-0.004112255782590525,-0.0061193717765388005
6.049999999999984,0.012257208,-1.3335595,0.3044331,-2.6976538,0.31890592,1.3640356,0.36266208,0.039999958,0.04,-9.672560672512255,0.2702929743088812,-0.057126249051511965,-0.06018390303220908,-0.00360665828351674,-0.010193525179864837
6.06666666666665,0.012282799,-1.334752,0.30509353,-2.698394,0.31959808,1.3635865,0.36174336,0.039999958,0.04,-9.773940363498165,0.06598873054030488,-0.4041215963497833,-0.058650509175769194,-0.002499937095709633,-0.010201845001518177
6.083333333333317,0.012307842,-1.3359189,0.30573994,-2.6991189,0.32027555,1.3631471,0.3608441,0.039999954,0.04,-9.608855204850462,0.5053717266361368,-0.02934863055938451,-0.057539634235120346,-0.003802825649123891,-0.000735605048880003
6.099999999999984,0.012332337,-1.3370605,0.30637246,-2.6998281,0.32093838,1.362717,0.3599643,0.039999958,0.04,-10.167183573260978,-0.060634454638972435,-0.3446860750166173,-0.06258170397513942,-0.0028327680818651863,-0.001203412931437634
6.11666666666665,0.012356283,-1.3381767,0.30699095,-2.7005215,0.3215865,1.3622966,0.35910386,0.03999996,0.04,-9.585838863327972,0.2910470872805876,-0.1526487055129103,-0.05884112959515811,-0.00012649601566492303,-0.006436045670916634
6.133333333333317,0.012379684,-1.3392681,0.30759546,-2.7011995,0.32222015,1.3618852,0.35826275,0.03999996,0.04,-9.684345293280922,0.15586482362494758,-0.3379661746006162,-0.05604125318224896,-0.010275761630627576,-0.002607089702124875
6.1499999999999835,0.01240254,-1.3403344,0.30818617,-2.7018616,0.32283917,1.3614836,0.35744098,0.039999966,0.04,-9.801361275225844,0.09863556436983527,-0.13312484927570184,-0.048131316191537744,-0.007973394614464585,-0.0008834606182709235
6.16666666666665,0.012424857,-1.341376,0.30876306,-2.7025082,0.32344377,1.3610913,0.3566384,0.039999958,0.04,-9.918247140468578,0.3072755286414173,-0.1796545547292413,-0.053385279881951846,-0.0026672204848345272,0.0006084700122897461
6.183333333333317,0.012446634,-1.3423926,0.3093262,-2.7031395,0.32403392,1.3607085,0.355855,0.039999954,0.04,-10.173502915625814,-0.046528676139961256,-0.020144047401337156,-0.05314062017726292,-0.0014583471825694635,-0.0028975433111454734
6.199999999999983,0.012467873,-1.3433845,0.30987567,-2.7037559,0.32460973,1.3603349,0.35509053,0.03999995,0.04,-9.980922418633709,0.20215072066735823,-0.3296157125348732,-0.04716348786856207,-0.004071373470776343,0.0002574029571164093
6.21666666666665,0.012488578,-1.3443515,0.31041145,-2.704357,0.32517114,1.3599706,0.3543452,0.039999947,0.04,-9.872484945053246,0.2970529918582797,-0.10908849083336004,-0.04551434752005532,-0.001106950946095577,0.00027830730290679073
6.2333333333333165,0.012508753,-1.3452941,0.31093365,-2.7049425,0.32571837,1.3596153,0.35361865,0.039999947,0.04,-9.71004725240956,0.43728760385049975,-0.047528985541231236,-0.04909416175856618,-0.0048847645239685844,-0.0074813671224008916
6.249999999999983,0.012528398,-1.3462123,0.31144238,-2.7055128,0.3262515,1.3592695,0.352911,0.03999995,0.04,-9.759900922751912,0.23202682322263718,0.27734320479166263,-0.04632210726875956,-0.0003866248597945854,-0.0032209675739627414
6.26666666666665,0.01254752,-1.3471063,0.31193766,-2.7060683,0.3267706,1.3589326,0.352222,0.03999995,0.04,-9.962335111235491,0.35271844790916057,0.03747464924977463,-0.042051198389846965,-0.006758168206258414,-0.0024040924463087773
6.283333333333316,0.01256612,-1.3479763,0.3124197,-2.7066083,0.3272757,1.358605,0.35155153,0.03999995,0.04,-9.645624671721459,0.10713272384635493,-0.029385285290828206,-0.03602051053700217,-0.003665330213410043,-0.005052771619500256
6.299999999999983,0.012584202,-1.3488226,0.3128884,-2.707134,0.32776684,1.3582864,0.35089946,0.039999947,0.04,-9.587549018363205,0.5055103790823781,-0.09952499846595324,-0.04434827728985126,-0.006300485833061101,-0.0049861712542767665
6.3166666666666496,0.01260177,-1.3496448,0.31334397,-2.7076447,0.3282442,1.3579769,0.3502658,0.039999947,0.04,-10.036262235203369,0.4728657564348566,-0.021738808192245163,-0.04196166607037089,-0.006039003096621653,-0.003336106962218708
6.333333333333316,0.012618825,-1.3504436,0.31378648,-2.7081406,0.32870787,1.3576759,0.34965038,0.03999995,0.04,-9.68529607241024,-0.31807167672635117,-0.14499678929994597,-0.04281740773028882,-0.00035951582824248884,-0.0021277728398007116
6.349999999999983,0.012635377,-1.3512192,0.31421593,-2.7086222,0.329158,1.3573836,0.3490529,0.03999995,0.04,-9.881339491886548,0.4740524014911669,0.01630527042336788,-0.038731681074199775,-0.0025657010756489937,-0.004034725532371249
6.366666666666649,0.0126514295,-1.3519715,0.31463256,-2.709089,0.3295946,1.3571004,0.34847328,0.039999954,0.04,-9.848610305748945,0.11636174402864972,-0.17981187964704215,-0.037017470667754133,-0.004116969755964884,-0.00342781319980388
6.383333333333316,0.0126669835,-1.3527006,0.31503633,-2.7095416,0.33001783,1.3568257,0.34791136,0.039999954,0.04,-9.610702317251906,0.15729141171616243,-0.10161900674844843,-0.04151225472927956,-0.0055883252423338265,-0.01016607740713364
6.399999999999983,0.012682043,-1.3534074,0.31542766,-2.70998,0.33042786,1.3565595,0.3473671,0.039999958,0.04,-9.828869791948405,0.34604344877822957,0.054302440723682635,-0.039083052107516794,-0.009057443102701618,-0.004291024047074367
6.416666666666649,0.0126966145,-1.3540913,0.31580642,-2.7104042,0.3308248,1.3563023,0.3468403,0.039999966,0.04,-10.013457278360164,0.23517518174799515,-0.29733116102319307,-0.030018457526427587,-0.008335000057738982,-0.0011700664639127639
6.433333333333316,0.012710704,-1.3547528,0.31617275,-2.7108145,0.3312088,1.3560532,0.34633076,0.03999997,0.04,-9.856011313684995,0.17907198547308692,0.23675137213974892,-0.03622319406723041,-0.0050585395128899735,-0.002943364219088658
6.449999999999982,0.012724315,-1.355392,0.31652677,-2.7112114,0.33157992,1.3558123,0.34583825,0.03999997,0.04,-9.917312652032116,0.6312181005162796,-0.10905204770607721,-0.03594201165135736,-0.005778377317471384,-0.00606044675276433
6.466666666666649,0.012737453,-1.3560094,0.31686872,-2.711595,0.33193842,1.3555797,0.3453626,0.039999966,0.04,-9.8541275530437,0.309252740765299,-0.27916636906650044,-0.02943395920861804,-0.0012448877402785334,-0.004989868569715718
6.483333333333316,0.012750125,-1.3566048,0.31719866,-2.7119648,0.3322842,1.3553556,0.34490362,0.039999966,0.04,-9.792473127889217,0.058320407953529885,-0.12276579196523264,-0.029134916858145465,-0.006171139656739747,0.00045982124125342616
6.499999999999982,0.012762333,-1.3571793,0.31751686,-2.7123215,0.33261752,1.3551393,0.34446114,0.039999966,0.04,-10.024577193171137,0.08742435439291893,0.23860361741024452,-0.029922538949734175,-0.00782253381358593,-0.0036370624474706065
6.516666666666649,0.0127740875,-1.3577323,0.31782326,-2.712665,0.3329386,1.354931,0.34403497,0.03999996,0.04,-9.760573677196954,0.2282237588664289,-0.0211892713185291,-0.027065895255047705,-0.009175598748476562,-0.0016858171730177384
6.5333333333333155,0.012785394,-1.3582646,0.3181181,-2.7129955,0.33324766,1.3547304,0.34362483,0.039999966,0.04,-10.096665924160511,-0.07234501915884764,-0.33147888081527305,-0.02681307615742983,-0.006066364516282387,0.0016981751041837858
6.549999999999982,0.012796261,-1.3587766,0.31840155,-2.713313,0.3335447,1.3545376,0.34323055,0.039999966,0.04,-9.43117910085795,0.3886976733178273,-0.18631867588824125,-0.025287925966553212,-0.010065592349875712,0.004642814886205964
6.566666666666649,0.012806689,-1.3592681,0.31867382,-2.7136183,0.3338301,1.3543524,0.34285185,0.03999997,0.04,-9.585484682348957,0.09643161106057332,-0.3334222102883662,-0.026202506451519954,-0.007855808920307052,-0.002987678444903299
6.583333333333315,0.012816689,-1.3597397,0.31893504,-2.7139106,0.33410376,1.3541746,0.34248853,0.039999973,0.04,-9.887923629589887,0.24665095127741563,-0.04693673883709973,-0.024116181432157442,-0.0007370677974460442,0.00016713282431288844
6.599999999999982,0.012826265,-1.3601917,0.3191854,-2.7141914,0.33436608,1.3540043,0.34214023,0.03999997,0.04,-9.65551826257446,0.34890531706688976,-0.08125905841395781,-0.025166640483627642,-0.01107030988600089,0.00119637780892599
6.6166666666666485,0.012835426,-1.3606246,0.3194251,-2.71446,0.33461723,1.3538412,0.34180686,0.03999997,0.039999995,-9.78859883396068,0.2665500602451012,-0.054932489963835464,-0.018214665952985827,-0.0060573635025574744,-0.00214618696691631
6.633333333333315,0.012844182,-1.3610384,0.31965438,-2.714717,0.33485746,1.3536854,0.34148803,0.03999996,0.03999999,-10.02947100185477,-0.06004439369250211,-0.17345346751826518,-0.017468442552965573,-0.002842322585345558,-0.0041745970430025914
6.649999999999982,0.012852537,-1.3614337,0.3198733,-2.714962,0.33508676,1.3535365,0.34118345,0.039999958,0.04,-9.630255382498332,0.13388635541689448,-0.19154368047388787,-0.021837255590517853,-0.004743457960610512,-0.0052692940240041085
6.666666666666648,0.012860501,-1.3618108,0.3200821,-2.715196,0.33530557,1.3533947,0.34089294,0.03999996,0.04,-9.758623424028363,0.2642398563091293,-0.26290431195279346,-0.02230601603603356,-0.005669334613796776,-0.003110065669912136
6.683333333333315,0.01286808,-1.3621703,0.3202811,-2.715419,0.335514,1.3532599,0.34061626,0.039999966,0.04,-9.538449690846614,0.3338459968247758,0.2758425833442111,-0.017094655529820545,-0.0036120920651309873,-0.0014412233003680008
6.6999999999999815,0.012875282,-1.3625119,0.32047036,-2.715631,0.3357123,1.353131,0.34035307,0.039999966,0.04,-9.932487835428002,0.16604574103348638,0.4758998417732825,-0.01870511389498263,-0.0031972697628385657,0.00033846790046828507
6.716666666666648,0.012882118,-1.3628366,0.32065016,-2.7158325,0.33590066,1.3530089,0.340103,0.03999997,0.04,-9.82464581833918,-0.00586645622123641,-0.11411109467919436,-0.01955467097860661,-0.005081685006397777,-0.004003384638592693
6.733333333333315,0.012888595,-1.3631446,0.32082078,-2.7160237,0.33607936,1.352893,0.3398658,0.039999966,0.039999995,-10.054926311772459,0.32009666029658534,-0.07069039126311119,-0.011280951168735577,-0.0053560290950066414,-0.0022411699598681636
6.749999999999981,0.012894724,-1.3634363,0.32098228,-2.7162042,0.33624855,1.3527833,0.33964115,0.039999966,0.04,-9.844324840263994,-0.0030882188868009974,0.21438253242552902,-0.016002162365005578,-0.003822246551521974,-0.001970071188409086
6.766666666666648,0.012900509,-1.3637122,0.32113504,-2.7163749,0.3364085,1.3526795,0.33942872,0.03999997,0.04,-9.772615327040691,0.5503279502780941,-0.2488310596997786,-0.014881877565854896,-0.005058215271617272,-0.0011269753770115532
6.783333333333315,0.012905963,-1.3639728,0.32127926,-2.7165368,0.33655956,1.3525817,0.3392281,0.03999997,0.04,-10.101937532140878,0.39342676929950765,-0.09219314047353475,-0.019442804445808624,-0.004490306279795719,-0.003981474286834867
6.799999999999981,0.012911101,-1.3642184,0.32141516,-2.7166903,0.33670187,1.3524891,0.3390392,0.039999966,0.04,-9.881371637908396,0.3109969716653679,0.1702249604988485,-0.013798438326036448,-0.007381066905095332,-0.0005259776868188236
6.816666666666648,0.012915928,-1.3644491,0.321543,-2.7168334,0.33683583,1.3524026,0.3388614,0.03999996,0.04,-9.728241164560837,0.2686781636774663,-0.3410718888278064,-0.011341148627541403,-0.009361525802192183,0.002581818828568466
6.833333333333314,0.012920453,-1.3646661,0.32166308,-2.7169669,0.3369616,1.3523208,0.33869445,0.039999966,0.04,-9.270268226853013,0.15882835338600637,-0.07723577673062845,-0.007599853592309446,-0.006750225979521456,-0.0026391417671112875
6.849999999999981,0.012924685,-1.3648696,0.32177573,-2.7170913,0.33707947,1.3522441,0.33853796,0.03999996,0.039999995,-10.099450649289924,-0.21633000824126053,-0.05477005336156683,-0.011434939438039983,-0.005921024785021487,-0.002713152350642104
6.866666666666648,0.012928638,-1.3650597,0.32188103,-2.717208,0.33718973,1.3521729,0.33839154,0.039999966,0.03999999,-9.61872636467248,0.3961956375022617,0.5595981155625444,-0.010769609013721723,-0.002691161065614669,0.001333991208810254
6.883333333333314,0.012932319,-1.3652374,0.32197928,-2.7173166,0.33729267,1.352106,0.3382548,0.039999966,0.039999988,-10.013386000262688,0.2845155487561564,-0.17993982019197524,-0.005080882939242642,-0.010598277222795334,-0.000687486226101691
6.899999999999981,0.012935745,-1.3654029,0.32207087,-2.717418,0.3373886,1.3520437,0.33812743,0.039999966,0.039999995,-9.488551155720618,0.2753357816889973,-0.03772426438762236,-0.012249576926809414,-0.006322027776851732,0.003127266682984771
6.916666666666647,0.0129389195,-1.365557,0.32215598,-2.7175117,0.33747783,1.351986,0.33800906,0.03999997,0.039999988,-9.657715198123146,0.06896854301735175,-0.3345832966829266,-0.005825050966756176,-0.0052995092044586,-0.0017696723809945858
6.933333333333314,0.012941858,-1.3656999,0.32223508,-2.717603,0.3375606,1.3519324,0.33789915,0.03999997,0.039999995,-9.909516849766929,0.10100952345850661,-0.19670671272427862,-0.0018758284690187429,-0.012936934013376512,-0.0038510153675854366
6.949999999999981,0.012944571,-1.3658322,0.32230836,-2.717687,0.33763722,1.3518827,0.3377973,0.039999973,0.039999995,-9.746260340249288,0.19125947245053604,-0.052863900174231565,-0.005982893699175459,-0.0063588395865041185,0.002126819425613565
6.966666666666647,0.01294707,-1.3659545,0.32237613,-2.7177637,0.33770815,1.3518369,0.33770314,0.039999973,0.04,-9.940202099139825,0.33075463051534393,-0.016373627433207638,-0.004475331130412186,-0.0041044119599041055,-0.006811872705164696
6.983333333333314,0.012949369,-1.3660675,0.32243857,-2.7178335,0.3377736,1.3517947,0.33761615,0.039999977,0.04,-9.64783678612182,0.2536323679735873,-0.21246117629394445,-0.006124509067218247,-0.009994842625670899,-0.005962556205258925
6.9999999999999805,0.012951482,-1.3661717,0.3224962,-2.7178962,0.33783397,1.3517559,0.337536,0.039999973,0.04,-9.5557453469247,-0.006689246571445623,0.3267394314849794,-0.011026477956852259,-0.0057647753531633265,-5.122882526105309e-05
7.016666666666647,0.012953422,-1.3662673,0.3225493,-2.717957,0.3378895,1.3517195,0.3374623,0.039999973,0.04,-10.158328116423695,-0.008460667656488646,-0.028890843653161857,-0.0028333788093807062,-0.008950150854684905,0.0014469845852648213
7.033333333333314,0.012955195,-1.3663553,0.32259804,-2.7180111,0.33794072,1.3516856,0.33739442,0.03999998,0.04,-9.817444337564723,0.0428760025700573,0.09715792134768424,-0.0072523060809191195,-0.004731320734380652,-0.00026761740619983787
7.04999999999998,0.01295682,-1.3664365,0.3226427,-2.7180624,0.33798775,1.3516556,0.33733192,0.039999977,0.03999999,-9.826971847165503,-0.00722701479006671,-0.2843739670044968,-0.005035818564657407,-0.0030809949247453993,-0.00529626038085174
7.066666666666647,0.0129583115,-1.3665115,0.32268426,-2.7181084,0.33803105,1.3516275,0.33727443,0.039999977,0.04,-9.751888251615883,0.0865510022970011,-0.23438119249601114,-0.005600827261675186,-0.01262712995147584,0.00044032358871145394
7.0833333333333135,0.012959674,-1.36658,0.3227222,-2.7181516,0.33807087,1.3516012,0.33722153,0.03999998,0.04,-10.16760039941118,0.0031169886971168514,0.08305786056659067,0.0003395424986722363,-0.009305835994685511,-3.412052083407206e-05
7.09999999999998,0.012960923,-1.3666437,0.32275715,-2.71819,0.33810756,1.3515781,0.33717284,0.03999998,0.04,-9.467128810718012,0.11678852680626665,-0.3394041377376669,-0.004754118790209253,-0.00874784281879688,0.0022122424664100864
7.116666666666647,0.012962066,-1.3667016,0.32278928,-2.7182279,0.33814135,1.3515557,0.33712804,0.03999998,0.04,-9.555625461879806,0.3288387425925522,-0.09821151071582598,-0.009410349567224335,-0.011754080683586042,-0.0035854980541215682
7.133333333333313,0.012963109,-1.366755,0.32281896,-2.7182596,0.3381724,1.3515363,0.33708683,0.039999984,0.04,-9.994685162422217,0.1526082780844527,0.09044016087963408,-0.004565695773236638,-0.009837047687935349,-0.0016200644040111573
7.14999999999998,0.012964066,-1.3668044,0.3228462,-2.7182899,0.33820102,1.3515177,0.33704898,0.039999988,0.04,-9.811989299027093,0.4039962911293301,-0.06095506319730745,-0.001166880299974769,-0.0067554091678620745,-0.0010402248551961515
7.1666666666666465,0.012964941,-1.3668499,0.32287136,-2.7183194,0.33822736,1.3514996,0.33701408,0.039999988,0.04,-10.162818406085545,0.11929842530557822,0.23598249464722088,-0.00046609965298035103,-0.011853147928268384,-0.004378740692471035
7.183333333333313,0.0129657425,-1.3668917,0.32289442,-2.7183442,0.33825153,1.3514848,0.33698195,0.03999999,0.04,-10.24339317827124,0.7239495048088466,-0.3791283836702899,-0.007778584211810034,-0.008670765392170264,-0.0059992719658452116
7.19999999999998,0.012966478,-1.3669301,0.32291564,-2.718367,0.3382738,1.35147,0.33695245,0.03999999,0.04,-9.575276947573668,0.2661168332618946,-0.22218554287419123,-0.0010221918204357263,-0.009042978588760506,0.002079647769972868
7.216666666666646,0.0129671525,-1.3669652,0.3229352,-2.7183897,0.3382943,1.3514557,0.33692527,0.03999999,0.04,-9.79884327223766,0.3432181213676455,0.0006605659086149768,-0.0022415079880870573,-0.011762430390904117,0.0016043414008755006
7.233333333333313,0.012967768,-1.3669978,0.3229532,-2.7184105,0.3383131,1.3514445,0.33690035,0.039999995,0.04,-9.465050854602211,-0.028496468153739296,-0.06419154383818551,-0.0055943530662179285,-0.006595247481641294,-0.0034294847299535082
7.24999999999998,0.012968332,-1.367028,0.3229697,-2.7184284,0.3383305,1.3514335,0.3368774,0.039999995,0.04,-9.597049132008825,0.17846278689003872,0.0838089946968208,-0.0034726750901113808,-0.0060877970348512415,-0.0023630436635556627
7.266666666666646,0.012968847,-1.3670554,0.32298493,-2.7184439,0.33834642,1.3514228,0.33685628,0.039999995,0.04,-9.984427259335792,0.07816078271714083,-0.2207146070719842,0.0003140311769373798,-0.004706631115807122,-0.003390958119830266
7.283333333333313,0.01296932,-1.367081,0.32299897,-2.718459,0.33836114,1.3514123,0.3368367,0.039999995,0.04,-9.831467799819771,0.4496613675407957,0.007140231633714494,0.0005875812899212386,-0.011476830778683136,0.001202691573547045
7.299999999999979,0.012969753,-1.3671045,0.32301185,-2.718474,0.33837473,1.3514045,0.3368188,0.039999995,0.04,-10.064273787016841,0.07598327609268254,-0.4182684555011642,-0.009383955923394388,-0.004388094455327295,-0.0043266798922498
7.316666666666646,0.012970147,-1.3671261,0.32302374,-2.718489,0.33838722,1.3513974,0.33680236,0.039999995,0.04,-9.692325860591296,0.28713147738145606,-0.3204903062539287,-0.002885989796185468,-0.008430392142923198,-0.005310342906245096
7.333333333333313,0.012970507,-1.3671458,0.32303467,-2.7185018,0.3383987,1.3513902,0.33678722,0.039999995,0.04,-9.837854507727512,0.2284157737984368,0.11961120576924596,-0.0004335063627971554,-0.00861689571743793,0.0008685799045628946
7.349999999999979,0.012970836,-1.3671643,0.32304472,-2.7185128,0.33840927,1.3513833,0.33677325,0.039999995,0.04,-10.033683997137171,0.18808913338945754,-0.11885513030721045,-0.003874127379433445,-0.006884945641356751,5.076761857365743e-05
7.366666666666646,0.012971139,-1.3671802,0.32305393,-2.7185223,0.33841896,1.3513767,0.33676037,0.039999995,0.04,-9.989072608909886,0.10561984077090925,-0.06803888512636697,-0.004919068704926622,-0.004851110624277317,0.0023201783907004143
7.383333333333312,0.012971417,-1.3671961,0.32306233,-2.7185307,0.33842784,1.35137,0.33674863,0.039999995,0.04,-9.664626069798858,-0.14181917663527147,0.24101668858511827,-0.002665349089916476,-0.007830492200737182,-0.0010194336225697108
7.399999999999979,0.012971672,-1.3672106,0.3230702,-2.7185383,0.338436,1.3513635,0.3367378,0.039999995,0.04,-9.808389334945355,0.5124324535100507,-0.25778782400400746,0.0019097224610537765,-0.00995044462865588,-0.0023575366301291064
7.416666666666646,0.012971906,-1.3672231,0.3230774,-2.7185457,0.33844355,1.3513598,0.33672777,0.039999995,0.04,-9.755515773307382,0.28574272983791077,-0.1033727032603567,0.0025064394178960945,-0.010503104222926088,0.0026758180420797875
7.433333333333312,0.012972118,-1.3672352,0.323084,-2.718553,0.3384505,1.3513565,0.33671847,0.039999995,0.04,-9.886420578161818,0.09974187417500716,-0.35395334352401275,-0.0003276767710787764,-0.008703886327970532,0.0011527044188961463
7.449999999999979,0.012972313,-1.3672466,0.32309017,-2.7185605,0.33845693,1.3513532,0.33670986,0.039999995,0.04,-9.66983949001558,0.22170338316637334,-0.016986731611394634,0.0014899172789837284,0.0033612666284402173,-0.0030887649974268502
7.4666666666666455,0.012972313,-1.3672466,0.32309017,-2.7185605,0.33845693,1.3513532,0.33670986,0.039999995,0.04,-9.738706911035406,0.5058081161415477,-0.02648495876498423,0.0016661329853560186,0.0001014146458644223,-0.003028394241077106
7.483333333333312,0.012972313,-1.3672466,0.32309017,-2.7185605,0.33845693,1.3513532,0.33670986,0.039999995,0.04,-9.947627620565644,0.2036694845690584,0.03202273355846039,0.0013551266236674782,-0.0005284377948311046,0.0023809105122751303
7.499999999999979,0.012972313,-1.3672466,0.32309017,-2.7185605,0.33845693,1.3513532,0.33670986,0.039999995,0.04,-9.760030936087702,0.23924521873077234,-0.06893883882908125,0.0017115441556636618,-0.002933862866126742,0.0030464833034401975
7.516666666666645,0.012972313,-1.3672466,0.32309017,-2.7185605,0.33845693,1.3513532,0.33670986,0.039999995,0.04,-9.93773671383636,0.036087313344316724,0.16042909326535354,-0.004602061105176251,0.00167069142771189,-0.0056299890226741605
7.533333333333312,0.012972313,-1.3672466,0.32309017,-2.7185605,0.33845693,1.3513532,0.33670986,0.039999995,0.04,-9.8975105750896,0.2512011112151486,-0.008106497870492446,0.0016906068326944556,0.002498912875208921,-0.00520606503791795
7.5499999999999785,0.012972313,-1.3672466,0.32309017,-2.7185605,0.33845693,1.3513532,0.33670986,0.039999995,0.04,-10.280651930681591,-0.10820598425770578,-0.13285651957350478,0.004208886885872606,-0.00034485014605296335,0.0036851657207114014
7.566666666666645,0.012972313,-1.3672466,0.32309017,-2.7185605,0.33845693,1.3513532,0.33670986,0.039999995,0.04,-9.697180102842115,0.3603828921864653,-0.10379270137148977,-0.0038484946665845697,0.00048756520308171765,0.002493628159300157
7.583333333333312,0.012972313,-1.3672466,0.32309017,-2.7185605,0.33845693,1.3513532,0.33670986,0.039999995,0.04,-9.5044481232408,0.24969983502279075,0.004513226657620842,-0.003620440446474888,0.00010794610643877098,0.0010615322497635475
7.599999999999978,0.012972313,-1.3672466,0.32309017,-2.7185605,0.33845693,1.3513532,0.33670986,0.039999995,0.04,-9.634981404624376,0.46042324892748177,-0.30483789811451584,-0.0015473135642694125,-0.0022873759758376853,0.002105314600364056
7.616666666666645,0.012972313,-1.3672466,0.32309017,-2.7185605,0.33845693,1.3513532,0.33670986,0.039999995,0.04,-9.60092473128932,0.01821211698666733,-0.16849303915280978,0.0031742341849324653,-0.0017336052501030694,0.0031445504505690732
7.6333333333333115,0.012972313,-1.3672466,0.32309017,-2.7185605,0.33845693,1.3513532,0.33670986,0.039999995,0.04,-10.01007116623765,0.14084221126467159,0.10410347845718249,-0.0004090752431295799,0.00226051726133962,-0.0021740291923107832
7.649999999999978,0.012972313,-1.3672466,0.32309017,-2.7185605,0.33845693,1.3513532,0.33670986,0.039999995,0.04,-9.926302330965818,0.15304969027621076,-0.036294880070651,0.0019342715726897465,0.0008870675326036335,-0.002045945565078731
7.666666666666645,0.012972313,-1.3672466,0.32309017,-2.7185605,0.33845693,1.3513532,0.33670986,0.039999995,0.04,-9.809208182322882,0.2941476962469849,-0.20665341724189268,-0.002489377481750325,0.0035400431925584302,-0.002615531506277162
7.683333333333311,0.012972313,-1.3672466,0.32309017,-2.7185605,0.33845693,1.3513532,0.33670986,0.039999995,0.04,-9.977628671506853,0.12855854292284455,0.10446068664800455,-0.0016410617982112196,0.0028521457932876564,0.0046317911678585046
7.699999999999978,0.012972313,-1.3672466,0.32309017,-2.7185605,0.33845693,1.3513532,0.33670986,0.039999995,0.04,-9.898221453439106,0.4378570081868979,-0.026218488606289114,-0.001514677649778408,0.001382913211081276,-0.006446923850104041
7.716666666666645,0.012972313,-1.3672466,0.32309017,-2.7185605,0.33845693,1.3513532,0.33670986,0.039999995,0.04,-9.770061607545296,-0.16020802199120932,0.01588083058192609,-0.0033018569027755402,0.0006147631836951507,-0.0007972137367525179
7.733333333333311,0.012972313,-1.3672466,0.32309017,-2.7185605,0.33845693,1.3513532,0.33670986,0.039999995,0.04,-9.759769434538008,0.20187130260646005,-0.3276892571650055,0.0031187444633026685,0.0010016728346116759,0.0012843359385261693
7.749999999999978,0.012972313,-1.3672466,0.32309017,-2.7185605,0.33845693,1.3513532,0.33670986,0.039999995,0.04,-9.544869975289386,0.5549789938765071,-0.10295150507479209,-0.0014473736365507874,-0.0026028283579973633,0.0017187464495942515
7.766666666666644,0.012972313,-1.3672466,0.32309017,-2.7185605,0.33845693,1.3513532,0.33670986,0.039999995,0.04,-9.965107203699082,0.6452619980723344,-0.23182239204868407,0.004376773966049033,-0.0003714697384392213,0.0026487879655286654
7.783333333333311,0.012972313,-1.3672466,0.32309017,-2.7185605,0.33845693,1.3513532,0.33670986,0.039999995,0.04,-9.585692880497753,0.34154973071067785,0.010966530652762596,-0.0023860682937920682,0.0008172328164940469,-0.00029280092669548507
7.799999999999978,0.012972313,-1.3672466,0.32309017,-2.7185605,0.33845693,1.3513532,0.33670986,0.039999995,0.04,-9.96501391602872,0.1528579129402612,-0.007767009893928603,-0.0006251321549422017,-0.0015962190984720028,-0.0014004345558501453
7.816666666666644,0.012972313,-1.3672466,0.32309017,-2.7185605,0.33845693,1.3513532,0.33670986,0.039999995,0.04,-9.848872791991122,0.16367601740146703,-0.25046935099052187,0.0014271460024310074,-0.0025425916832499586,0.009199758409907152
7.833333333333311,0.012972313,-1.3672466,0.32309017,-2.7185605,0.33845693,1.3513532,0.33670986,0.039999995,0.04,-9.89186658301429,0.08961980547633597,-0.021700855201018512,0.003116060498553509,-0.0038476865763616094,-0.0007795976150692026
7.849999999999977,0.012972313,-1.3672466,0.32309017,-2.7185605,0.33845693,1.3513532,0.33670986,0.039999995,0.04,-9.713466834718865,0.12848266174217773,-0.12862173751659992,-0.0041161353168893584,0.0022316463207464137,-0.0009815606972095302
7.866666666666644,0.012972313,-1.3672466,0.32309017,-2.7185605,0.33845693,1.3513532,0.33670986,0.039999995,0.04,-9.886427883406423,0.18204504723399714,-0.08410855427069659,-0.0013096493907392196,-0.0009309429538069754,0.002828511638706152
7.883333333333311,0.012972313,-1.3672466,0.32309017,-2.7185605,0.33845693,1.3513532,0.33670986,0.039999995,0.04,-9.8727795457791,0.17970554396705762,0.02508569402336555,-5.3723656780146735e-05,-0.002648607231204953,0.004751642507465789
7.899999999999977,0.012972313,-1.3672466,0.32309017,-2.7185605,0.33845693,1.3513532,0.33670986,0.039999995,0.04,-10.049197439192813,0.3431695310440625,-0.2948593556873902,-0.0017255873827260874,-0.0012687077268101047,-0.00259703302949146
7.916666666666644,0.012972313,-1.3672466,0.32309017,-2.7185605,0.33845693,1.3513532,0.33670986,0.039999995,0.04,-9.867769331190598,0.6314603526376729,0.11175937878274461,-0.0013050361601074198,0.00015868768031176652,-0.002531859582864182
7.9333333333333105,0.012972313,-1.3672466,0.32309017,-2.7185605,0.33845693,1.3513532,0.33670986,0.039999995,0.04,-10.1056104924378,-0.20403841392562322,-0.13342020642631408,-0.0011344465352998352,0.0010301893851037709,-0.0017355818204937727
7.949999999999977,0.012972313,-1.3672466,0.32309017,-2.7185605,0.33845693,1.3513532,0.33670986,0.039999995,0.04,-9.601358347412,-0.001181892750305169,0.2625307706044726,0.0019545944755168594,-0.0046028039509086235,0.006175685895426399
7.966666666666644,0.012972313,-1.3672466,0.32309017,-2.7185605,0.33845693,1.3513532,0.33670986,0.039999995,0.04,-9.532392007263224,-0.09783280636244773,-0.34032603413813817,0.0010338362552249408,-0.00023133663460592072,0.0012134960352416832
7.98333333333331,0.012972313,-1.3672466,0.32309017,-2.7185605,0.33845693,1.3513532,0.33670986,0.039999995,0.04,-10.10950296956846,0.2563804419759619,-0.38834927388351104,-0.00018869802458010965,-0.0022490078432844686,-0.0019208114578229906
7.999999999999977,0.012972313,-1.3672466,0.32309017,-2.7185605,0.33845693,1.3513532,0.33670986,0.039999995,0.04,-9.752251054690937,0.4800019347229318,-0.1599504804671522,-0.0004124824593875352,0.001759671584149317,-0.0014916728775318214
8.016666666666644,0.012972313,-1.3672466,0.32309017,-2.7185605,0.33845693,1.3513532,0.33670986,0.039999995,0.04,-9.987104306092778,0.4811200644739994,-0.44489532376304447,0.001860319670062968,-0.0012464952927140698,0.00167727716031992
