rsonawane2002/My_IMU/log_temp/traj_305/clean_305.csv
time,j1,j2,j3,j4,j5,j6,j7,gripper1,gripper2,imu_ax,imu_ay,imu_az,imu_gx,imu_gy,imu_gz,quat_x,quat_y,quat_z,quat_w
597.7333333331184,0.00016700293,-0.785875,4.0107683e-05,-2.3551247,9.29385e-05,1.570997,0.786,0.04,0.04,0.0,-0.0,0.0,2.875329272945135e-08,-0.0011641195053377316,4.421952117202833e-08,0.9999995971961153,0.00020320632366974898,0.0008736418299892524,3.263050917662294e-05
597.749999999785,0.00016699979,-0.78576016,4.0104394e-05,-2.3552213,9.2983224e-05,1.5709941,0.786,0.04,0.04,-0.2919984587381963,-2.3443639856062393e-05,0.020128411685216285,1.4238036797757455e-06,-0.002239018602011515,1.0339026219658688e-06,0.99999968505717,0.00020321380119824866,0.0007665025158319445,3.2612958217204136e-05
597.7666666664517,0.00016695455,-0.7856543,4.0030078e-05,-2.35531,9.308852e-05,1.5709913,0.786,0.04,0.04,0.023328734116478955,8.522393284144249e-05,-0.0016704112912879765,1.0394236503647696e-05,-0.0032312611925490627,7.608607426753186e-06,0.9999997558315117,0.00020326705292894487,0.0006677972277586229,3.26540150270844e-05
597.7833333331183,0.00016679468,-0.78555703,3.9768318e-05,-2.355391,9.335681e-05,1.5709884,0.786,0.04,0.04,0.02246076993315249,0.00022674695250114512,-0.001524830206500738,3.412094841532366e-05,-0.004150818796207062,2.490353973088255e-05,0.9999998121870939,0.00020344352123429768,0.0005771981099725257,3.284588921123096e-05
597.799999999785,0.00016641415,-0.7854676,3.9152183e-05,-2.3554652,9.393723e-05,1.5709856,0.786,0.04,0.04,0.020453121534225183,0.0004302317618229488,-0.0014250618383337965,7.962591594753127e-05,-0.005004963054911011,5.7535735389658305e-05,0.999999856653333,0.0002038553012956916,0.0004939898613071972,3.3321861673686845e-05
597.8166666664516,0.00016567647,-0.7853856,3.7968803e-05,-2.3555324,9.501677e-05,1.5709858,0.7860019,0.04,0.04,0.020908776221006953,0.0006930082357405878,0.0011655573774138617,0.00015298003788539387,-0.005800979100427341,0.00010966571722064013,0.9999998902945118,0.0002055996742501116,0.0004194836930576551,3.425156589945633e-05
597.8333333331183,0.00016441791,-0.7853105,3.5964356e-05,-2.3555973,9.6820106e-05,1.5709864,0.7860038,0.04,0.04,0.011810716414473177,0.0010074749140198496,-0.0026223492851196184,0.00025111055604953977,-0.0065296865206415765,0.00018500826457616232,0.9999999165659501,0.00020789474053735388,0.000349805264866807,3.5834984605114626e-05
597.8499999997849,0.00016245045,-0.7852418,3.2848442e-05,-2.3556557,9.961442e-05,1.5709872,0.78600574,0.04,0.039999995,0.01806808724695852,0.0013589044580966355,-0.0005874080675871696,0.00038870536863181565,-0.007229691912243715,0.0002876794805714731,0.9999999359339244,0.00021093717336074147,0.00028665322797076064,3.830904367309679e-05
597.8666666664516,0.0001595645,-0.78517914,2.8297763e-05,-2.3557107,0.000103661056,1.5709882,0.78600955,0.04,0.04,0.0124326507057404,0.0017782691710309514,-0.0018872203929598541,0.0005708182350806652,-0.007888530814112902,0.00041830372938073156,0.9999999497616364,0.00021589995984193174,0.00022826912699964547,4.1918225602158415e-05
597.8833333331182,0.00015553075,-0.78512233,2.195965e-05,-2.3557613,0.00010929313,1.5709926,0.7860153,0.04,0.039999995,0.015253020866556888,0.0021997570929936845,0.001273871060836207,0.0007931656123090043,-0.008522888147472143,0.0005827043078834289,0.9999999583992135,0.00022302263189782022,0.00017679862690511602,4.695447086926814e-05
597.8999999997849,0.0001501034,-0.7850712,1.3456238e-05,-2.3558109,0.00011680917,1.5709974,0.78602195,0.039999995,0.04,0.00799432047779991,0.0026961995171757708,-0.002531097318736464,0.0010605254423609132,-0.009117414614988295,0.0007792099657423219,0.9999999633298867,0.0002320850803097569,0.00012881439227629052,5.369909949158375e-05
597.9166666664515,0.00014302079,-0.7850254,2.3861126e-06,-2.3558545,0.00012658026,1.5710056,0.7860309,0.03999999,0.03999999,0.01715552393883879,0.003182490877154924,0.0021942118364259855,0.0013812907779488328,-0.009705476042983552,0.00101488563006747,0.9999999643847717,0.00024401583417684542,8.822039479268527e-05,6.24811181528601e-05
597.9333333331182,0.00013400856,-0.78498477,-1.1671746e-05,-2.3558974,0.00013898137,1.5710142,0.78604233,0.039999988,0.039999984,0.006995687451327726,0.0037045278846498664,-0.0023269752598809035,0.0017534135150055995,-0.010252614773948194,0.0012889437047933655,0.9999999624048009,0.0002592204561687641,5.072499495463481e-05,7.363509187518821e-05
597.9499999997848,0.00012278085,-0.78494906,-2.9155903e-05,-2.3559394,0.00015439576,1.5710264,0.78605574,0.039999984,0.03999998,0.008260887138145101,0.004252828045310611,0.00037061649029723753,0.0021796900857315483,-0.010801343708203811,0.0016021084638582206,0.999999957441948,0.0002777290724001394,1.8026860615050107e-05,8.750826782041725e-05
597.9666666664515,0.00010904163,-0.78491825,-5.0519804e-05,-2.3559787,0.00017322302,1.571042,0.78607285,0.039999977,0.03999997,0.01087964932704466,0.004818214374500892,0.0007997642698098772,0.002665669957914648,-0.01133926719215866,0.001957457189766113,0.9999999492860281,0.0003007145226072863,-9.307910073489419e-06,0.00010446090158671312
597.9833333331181,9.248655e-05,-0.784892,-7.622988e-05,-2.356016,0.00019587186,1.5710593,0.7860932,0.03999997,0.03999996,0.009324477591654556,0.005401383894852998,-0.00022037413613951173,0.003206877854132823,-0.011860425747619592,0.002354425972413938,0.9999999378064806,0.0003282557453438995,-3.2322441635759165e-05,0.00012486176503580007
597.9999999997848,7.2803894e-05,-0.78487074,-0.000106763575,-2.3560522,0.00022276216,1.57108,0.78611726,0.03999997,0.03999996,0.008109651912402427,0.005997430695927557,2.1153884843805315e-05,0.003808560782312228,-0.01237999698754092,0.002794853997220002,0.9999999224558971,0.0003609460436640606,-5.077838294495971e-05,0.00014908960116328293
598.0166666664514,4.967611e-05,-0.78485405,-0.00014260731,-2.3560882,0.0002543214,1.5711051,0.78614545,0.039999966,0.039999954,0.006914526933421428,0.006604960775967944,0.0008808819709660298,0.004471149479857435,-0.012895113293436705,0.0032804084279859347,0.9999999024392988,0.00039929551701179186,-6.455655990552977e-05,0.00017753009119416741
598.0333333331181,2.2780892e-05,-0.78484213,-0.00018425465,-2.3561242,0.0002909822,1.571135,0.7861785,0.039999966,0.039999954,0.006782964769258548,0.007222534355053752,0.0008509727752459284,0.0051954995993436824,-0.013408379786688547,0.003810030740919489,0.9999998765428902,0.0004440277190897527,-7.356761346572662e-05,0.00021057396626235694
598.0499999997847,-8.208205e-06,-0.78483474,-0.00023220546,-2.3561604,0.00033318385,1.5711699,0.7862164,0.039999973,0.03999996,0.0061526634858921625,0.007847246081835159,0.0009679346993918259,0.005980693667537194,-0.013920424052315573,0.0043851051839965335,0.9999998433311634,0.000495423560216902,-7.799028810282307e-05,0.00024861749663822867
598.0666666664514,-4.3620385e-05,-0.7848318,-0.0002869637,-2.3561974,0.0003813692,1.571209,0.7862596,0.03999997,0.039999954,0.0050886151132800705,0.008476978261791118,0.00034317324522081805,0.006829832887398672,-0.014434325724660026,0.005006875399126972,0.9999998007510068,0.0005541243416941832,-7.839078188120896e-05,0.00029206000377178347
598.083333333118,-8.3786814e-05,-0.7848337,-0.00034903665,-2.3562365,0.00043598327,1.5712538,0.78630865,0.039999973,0.039999958,0.003507257411694553,0.0091113036339343,0.0005639305832305652,0.007741789655957388,-0.014958878909526796,0.005673898082146951,0.9999997463310348,0.0006207142322502272,-7.459018240233674e-05,0.00034130340238929755
598.0999999997847,-0.00012904019,-0.78484005,-0.0004189335,-2.3562784,0.00049747375,1.5713042,0.7863639,0.039999977,0.039999958,0.001794173165436952,0.00974727014659409,0.0003887033966698539,0.008717274787432576,-0.015493324375033247,0.006388039668132428,0.9999996770226424,0.0006957192243419946,-6.72141689980799e-05,0.00039675134167445374
598.1166666664514,-0.00017971368,-0.7848513,-0.0004971645,-2.3563209,0.00056628726,1.5713607,0.7864257,0.03999998,0.03999996,0.0065912491618691504,0.010388500036904478,0.0015098913319633311,0.009755806030934882,-0.0160447309325779,0.00714767573597178,0.9999995893195146,0.000779665791780336,-5.456377215707414e-05,0.0004588080753769178
598.133333333118,-0.00023614032,-0.7848674,-0.00058423943,-2.3563638,0.00064287306,1.5714239,0.78649455,0.039999984,0.03999996,0.006650389475515439,0.011026524740498072,0.0020196894956470146,0.010858196726803045,-0.016600516585595138,0.007954501308661648,0.9999994788227036,0.0008731401140889782,-3.640029047886049e-05,0.0005278784719502214
598.1499999997847,-0.00029865262,-0.7848884,-0.0006806676,-2.3564074,0.0007276768,1.5714934,0.7865707,0.039999984,0.03999996,0.0062004344051125315,0.011665662490815545,0.0016099564765337249,0.012023551538978022,-0.017159343573035342,0.008806700854614064,0.9999993403753844,0.0009766383961883653,-1.2991538234018086e-05,0.0006043653358532345
598.1666666664513,-0.0003675821,-0.7849145,-0.0007869559,-2.356456,0.0008211452,1.5715702,0.7866548,0.039999984,0.039999958,-0.0005240410213769309,0.012296019505441264,0.0002549423726128097,0.013252281706715484,-0.017724821535491528,0.009705791239769026,0.9999991678706693,0.0010907753840544408,1.4113193451445613e-05,0.0006886710739173087
598.183333333118,-0.0004432579,-0.78494537,-0.0009036091,-2.3565063,0.00092371984,1.5716544,0.78674704,0.039999988,0.03999996,0.00483176500010174,0.012933697663648994,0.0021304925889475967,0.014543662839902868,-0.0183151069668501,0.010649811571831903,0.9999989543660374,0.0012160741637309977,4.6523803976643935e-05,0.0007811952354273308
598.1999999997846,-0.0005260076,-0.7849816,-0.0010311289,-2.3565576,0.0010358422,1.5717467,0.78684783,0.03999999,0.03999996,0.006861461483786968,0.013564872308929731,0.0024656955599278163,0.015897139344772306,-0.018914781242612626,0.011640201759416952,0.9999986917765058,0.0013530262335526132,8.513507683969126e-05,0.0008823362778587554
598.2166666664513,-0.00061615586,-0.7850229,-0.001170013,-2.3566148,0.0011579474,1.5718476,0.7869576,0.03999999,0.03999996,-0.0017839408642306154,0.014182928493567271,0.0008240380218182963,0.017312998314781516,-0.019517716729357554,0.012674854290481978,0.9999983710247339,0.0015022105637444542,0.00012759339155314249,0.0009924873940740646
598.2333333331179,-0.00071402476,-0.7850697,-0.0013207537,-2.3566735,0.0012904693,1.5719571,0.78707683,0.039999995,0.03999996,0.006419192910622762,0.014809619681462657,0.0027059535328444184,0.018790054051606667,-0.02014855651408789,0.013755065897681754,0.9999979813823022,0.0016641722277831456,0.0001764328498310189,0.0011120402719309705
598.2499999997846,-0.00081993296,-0.7851219,-0.0014838395,-2.356736,0.0014338365,1.5720754,0.7872057,0.04,0.039999966,0.0023068435417883393,0.015419146461082478,0.0016618643067678462,0.020327652053852674,-0.02078454795365682,0.014879534916486865,0.9999975113019118,0.00183936453387391,0.00023043270095327495,0.0012413818368160123
598.2666666664512,-0.00093419536,-0.78517973,-0.0016597528,-2.3568017,0.0015884719,1.5722033,0.78734475,0.04,0.039999966,0.003623908811434262,0.016030083637026248,0.002477808148260152,0.02192595052474347,-0.021438212434268425,0.016046850373739263,0.9999969472193613,0.002028386306551095,0.000290398731827082,0.0013808944659287538
598.2833333331179,-0.0010571232,-0.7852433,-0.0018489707,-2.3568711,0.0017547945,1.5723408,0.78749424,0.04,0.039999966,0.0033577859151145972,0.01663051857090303,0.002294605553765372,0.023583393606562034,-0.02210414874772646,0.017258142891184755,0.9999962744087252,0.002231683317910586,0.0003562728036494967,0.0015309565400794824
598.2999999997845,-0.0011890236,-0.7853127,-0.0020519642,-2.356945,0.001933218,1.5724884,0.7876547,0.04,0.039999966,0.002055804904110836,0.017222157956245723,0.0020219089458706208,0.02529979308498555,-0.022782136544710303,0.018512110023977776,0.9999954762546002,0.002449846746541228,0.00042784772308311245,0.0016919419551053132
598.3166666664512,-0.0013301994,-0.78538823,-0.0022691959,-2.3570242,0.002124148,1.5726464,0.78782636,0.04,0.03999996,0.0011597439432797785,0.017805362743228068,0.001855285651308769,0.027073567222519714,-0.023479903553214977,0.01980808365223153,0.9999945347144853,0.0026833137788907463,0.0005050359057053702,0.0018642175457819143
598.3333333331178,-0.0014809491,-0.7854699,-0.0025011231,-2.3571062,0.0023279875,1.5728151,0.7880095,0.04,0.039999954,0.005402591505165866,0.018393385941024507,0.0031465864128277232,0.028904679748104935,-0.024195840254403543,0.02114539009386745,0.9999934290070589,0.0029325474187701446,0.0005892400532029268,0.0020481466013640764
598.3499999997845,-0.0016415656,-0.78555775,-0.0027481955,-2.3571947,0.0025451293,1.5729947,0.7882048,0.04,0.039999947,-0.0005256525946517598,0.018949140139410472,0.0016715147929780017,0.03079266492488495,-0.024920537799423773,0.022523439538140212,0.9999921375109029,0.003198155118601201,0.0006788229174506692,0.0022440854840295736
598.3666666664511,-0.0018123379,-0.7856518,-0.0030108565,-2.3572853,0.0027759613,1.5731857,0.7884124,0.04,0.039999947,0.006897226400215395,0.019534374171853598,0.0038499286404869437,0.032735002825674736,-0.025668632180325966,0.023941504893320177,0.9999906345352917,0.0034805607651848215,0.0007761115071066276,0.0024523844301008665
598.3833333331178,-0.0019935493,-0.7857524,-0.0032895391,-2.3573823,0.0030208658,1.5733883,0.7886326,0.04,0.039999943,0.00012169373089232494,0.020064185305628153,0.0019716406691294708,0.03473164504146932,-0.026421459341448076,0.025398695771273478,0.9999888949392256,0.003780183008217983,0.0008793203683786341,0.0026733892983643254
598.3999999997844,-0.0021854783,-0.7858596,-0.0035846706,-2.357486,0.0032802173,1.5736028,0.7888658,0.04,0.039999936,-0.00023256151004957815,0.020605083766904904,0.0019363904373959073,0.036781810264393096,-0.027195678315194587,0.026894715198627323,0.9999868898745925,0.004097555024152145,0.0009883925089060415,0.0029074390813916603
598.4166666664511,-0.0023883972,-0.7859736,-0.0038966693,-2.357592,0.0035543826,1.5738294,0.7891122,0.04,0.039999936,0.0075254953033176974,0.021167184153310543,0.0039409179747540435,0.038884269075861726,-0.027993038940682793,0.02842832602373427,0.9999845860419049,0.004433024251093731,0.001105804858822776,0.0031548645301679853
598.4333333331177,-0.0026025744,-0.78609425,-0.004225945,-2.3577049,0.0038437215,1.5740687,0.7893724,0.04,0.03999994,0.00013053832295106815,0.021668356618799456,0.0024846517177712357,0.0410389687717423,-0.02879267132919769,0.02999932940897651,0.9999819509382388,0.004787174740790659,0.0012295337384225834,0.0034159921751829307
598.4499999997844,-0.0028282716,-0.78622204,-0.0045729,-2.3578246,0.004148586,1.5743207,0.78964657,0.04,0.03999993,0.0003733124599447635,0.022179357581997034,0.002141351212747722,0.04324341472755429,-0.02961446076342513,0.03160662158027798,0.9999789481172217,0.005160403351592415,0.001359791402124733,0.003691141688768303
598.466666666451,-0.0030657453,-0.78635705,-0.0049379263,-2.3579483,0.004469323,1.5745862,0.789935,0.04,0.03999992,0.005554084645198465,0.022710765543940137,0.0038991589798920145,0.04549693762742839,-0.03045682896293337,0.033249433925143373,0.9999755359423029,0.005553102447425463,0.001498399723450399,0.0039806241195396155
598.4833333331177,-0.0033152455,-0.78649926,-0.0053214114,-2.3580775,0.0048062704,1.574865,0.790238,0.04,0.03999992,0.003103135087889619,0.023197236633269638,0.0031429968291973864,0.047798834467382,-0.03130392927374709,0.03492708059110241,0.9999716728345106,0.005965718857797679,0.001644587829230566,0.004284747125810231
598.4999999997843,-0.0035770193,-0.78664875,-0.0057237293,-2.358214,0.0051597552,1.5751575,0.7905559,0.04,0.039999917,0.00046469922450054213,0.023672045650434924,0.002599905493094745,0.05014826949332579,-0.03216448938412503,0.036638691206431,0.9999673147518652,0.006398635097134721,0.001797734369257605,0.004603807986397072
598.516666666451,-0.0038513043,-0.7868056,-0.006145246,-2.3583574,0.0055300985,1.575464,0.79088897,0.04,0.03999992,0.000695340189627025,0.024145336906234403,0.002680813444433383,0.05254382025839971,-0.0330458850286959,0.03838341065687785,0.999962413056149,0.00685228527292676,0.0019580226656100426,0.004938097680609844
598.5333333331176,-0.0041383347,-0.7869701,-0.0065863198,-2.3585079,0.0059176194,1.5757846,0.7912374,0.04,0.039999913,0.001361359583462729,0.02461019083009764,0.0027440778113785314,0.054984507624612974,-0.033945686784530686,0.0401606162235531,0.9999569162175589,0.00732700968475249,0.00212572616494442,0.005287903745453
598.5499999997843,-0.004438336,-0.7871422,-0.0070473026,-2.358663,0.006322621,1.5761195,0.7916017,0.04,0.039999913,0.005287328856540263,0.02509859128234891,0.0038699291085686482,0.057469934578697715,-0.03486306991056755,0.041968943755455325,0.9999507658332321,0.007823291294472243,0.002302160894671052,0.005653501399091956
598.5666666664509,-0.004751535,-0.7873225,-0.0075285304,-2.3588245,0.0067454022,1.5764693,0.79198176,0.04,0.039999906,0.0035225947369044164,0.02553245863548409,0.003189556961347151,0.05999748395000846,-0.03578779416542871,0.0438082667840707,0.999943905435546,0.008341310732510038,0.002487035511539681,0.006035161301549505
598.5833333331176,-0.0050781425,-0.7875106,-0.008030338,-2.3589926,0.0071862554,1.5768342,0.7923782,0.04,0.039999906,0.0023932947571747576,0.02596567622853447,0.0034400557916258734,0.06256811457356481,-0.03672153242453914,0.045677538651186664,0.999936272158162,0.008881630249256612,0.0026800865627646096,0.006433148729017507
598.5999999997842,-0.005418371,-0.7877066,-0.008553044,-2.359168,0.0076454603,1.5772142,0.79279107,0.04,0.039999902,0.0014700496598019086,0.026381326131363556,0.002945097759066151,0.06517903107364792,-0.03766918240638137,0.047575811975008216,0.9999278020986447,0.009444506930042522,0.0028810824298845863,0.006847718091036015
598.6166666664509,-0.005772423,-0.78791094,-0.009096961,-2.359351,0.008123292,1.5776097,0.79322064,0.04,0.039999902,0.0019089908741776185,0.02679655172685494,0.0029115026227932717,0.06783021724186959,-0.03863364943239814,0.049502172749220905,0.9999184256477044,0.01003028086887864,0.0030902979257821047,0.007279119083909419
598.6333333331175,-0.006140497,-0.7881234,-0.009662394,-2.3595414,0.008620019,1.5780206,0.79366726,0.04,0.0399999,0.001443331635009315,0.027200546574207042,0.002916385877793637,0.07052040561107573,-0.03961222852358136,0.05145691378842862,0.9999080698534195,0.010639348892242032,0.0033076203022034366,0.007727596333571698
598.6499999997842,-0.006522785,-0.78834426,-0.010249636,-2.3597393,0.009135898,1.5784471,0.7941311,0.04,0.039999887,0.002121821824840886,0.02759748490528003,0.0029633380289606492,0.07324780467616687,-0.04060803500115283,0.053437090845562904,0.9998966576249407,0.011272008651668983,0.00353332514190977,0.008193381772516134
598.6666666664509,-0.0069194715,-0.7885736,-0.010858979,-2.3599446,0.00967118,1.5788902,0.79461247,0.04,0.03999989,0.0026649495866060136,0.028005403447950786,0.003520748832674947,0.07601210836313418,-0.041617291087716196,0.05544327249121696,0.9998841058453699,0.011928618847824856,0.0037679858717712396,0.008676705172977115
598.6833333331175,-0.0073307385,-0.7888115,-0.011490692,-2.3601568,0.0102261035,1.5793493,0.79511136,0.04,0.03999989,0.0033262130605837825,0.028377246553067115,0.0032384032263799156,0.07881166194469974,-0.04263747978905011,0.05747429133053068,0.9998703313191907,0.012609373527222818,0.004011551683842491,0.00917778295617618
598.6999999997842,-0.00775676,-0.7890581,-0.012145045,-2.3603764,0.010800906,1.5798248,0.79562825,0.04,0.039999887,0.0029070948748266545,0.028743034593507223,0.0032233318796093258,0.08164620140756546,-0.04366963663675471,0.059529548922417685,0.9998552432053079,0.013314705910953456,0.004264118971407238,0.009696830964656676
598.7166666664508,-0.008197703,-0.7893134,-0.0128222965,-2.360603,0.011395815,1.5803171,0.79616314,0.04,0.039999887,0.0034733706471001824,0.029113230870585552,0.003537208674164738,0.08451337729511244,-0.044712375851475895,0.06160809065515764,0.9998387484858285,0.014044804462075266,0.004525995189198209,0.010234054009113307
598.7333333331175,-0.008653731,-0.78957736,-0.013522691,-2.3608375,0.012011048,1.5808262,0.7967163,0.04,0.039999925,0.002667485920149204,0.029442597334962753,0.0031756021270590296,0.08741330416430959,-0.04576275201332419,0.06371034294610978,0.9998207510478218,0.014799967633516225,0.0047968909808346295,0.010789651020053867
598.7499999997841,-0.009125,-0.78985035,-0.014246472,-2.3610795,0.01264682,1.5813521,0.79728794,0.04,0.03999994,0.00312244238385162,0.029786111741270452,0.003120502666265068,0.09034467456196837,-0.04682606018767506,0.06583313948185204,0.9998011473633032,0.015580520654610994,0.0050770831220427306,0.01136381688190052
598.7666666664508,-0.009611657,-0.7901324,-0.01499387,-2.361329,0.013303326,1.5818956,0.79787815,0.04,0.039999936,0.003431475425608177,0.0301283074032363,0.003462527433972795,0.09330615510085899,-0.047900152572955774,0.06797716348832572,0.999779831308718,0.016386633969841396,0.005366909865501536,0.011956730905453758
598.7833333331174,-0.010113848,-0.79042363,-0.015765106,-2.3615866,0.013980767,1.5824561,0.7984873,0.04,0.039999932,0.0030537553312059984,0.030428817632911775,0.002866192076278473,0.09629679110399963,-0.048980834596775644,0.07014092156595718,0.9997566921834072,0.01721867749433054,0.005666081575544985,0.012568575870692811
598.7999999997841,-0.010631711,-0.79072386,-0.016560392,-2.3618517,0.014679326,1.5830339,0.7991154,0.04,0.039999925,0.0033934987222261626,0.03074850811541699,0.003178349203025732,0.09931523660015396,-0.05007178490509709,0.07232464714880253,0.9997316159593691,0.018076809422875064,0.005974758306507522,0.013199518003935441
598.8166666664507,-0.011165381,-0.79103327,-0.017379932,-2.362125,0.015399181,1.5836295,0.79976267,0.04,0.03999993,0.0029879558673284734,0.031050298193781994,0.003143433866403811,0.10236080629622724,-0.051172789686503545,0.07452509002590556,0.9997044828061591,0.018961274981295656,0.00629303973946418,0.013849720545592772
598.8333333331174,-0.011714987,-0.79135185,-0.018223923,-2.362407,0.016140502,1.5842429,0.80042917,0.04,0.039999925,0.0018618895803124147,0.031327573141409076,0.0028362667732428903,0.1054323460314021,-0.052283657744941425,0.07674562963265388,0.9996751713726413,0.01987228312853287,0.006620638802630394,0.01451934041838321
598.849999999784,-0.01228065,-0.7916798,-0.019092552,-2.3626974,0.016903458,1.5848742,0.8011151,0.04,0.039999917,0.002894791162977306,0.03161525268424968,0.002777815145904583,0.10852949174666916,-0.053407942468583505,0.07898050407980267,0.9996435516966019,0.020810061830572317,0.006957834489753919,0.015208531067277646
598.8666666664507,-0.012862483,-0.7920173,-0.01998599,-2.362996,0.01768821,1.5855235,0.8018206,0.04,0.039999925,0.003271045339992007,0.03188099182517001,0.002857630123731525,0.11165018888139407,-0.05454121856402548,0.08123231200326939,0.9996094895691076,0.021774802330653285,0.007304906362391458,0.01591743352070176
598.8833333331173,-0.013460593,-0.7923644,-0.020904414,-2.3633034,0.01849489,1.5861908,0.8025463,0.04,0.039999913,0.003019152771988054,0.032148802987978786,0.002508733549100306,0.11479435251641368,-0.05568201120306536,0.08349937385218434,0.9995728419798063,0.022766991152748512,0.007661741865785735,0.01664618280103993
598.899999999784,-0.01407509,-0.792721,-0.021847984,-2.3636186,0.019323653,1.5868764,0.80329126,0.04,0.03999992,0.004121424410752361,0.03243461147606763,0.0030467094245478776,0.11795766260116625,-0.05683362606815903,0.08578100547262872,0.9995334774739772,0.023786220746659446,0.008028720251243734,0.017394906222702927
598.9166666664506,-0.014706069,-0.7930871,-0.022816837,-2.3639424,0.020174619,1.5875803,0.80405617,0.04,0.03999992,0.0032022874877801755,0.032646438137885064,0.0026234173413630657,0.12114505310287879,-0.057989610583615514,0.08807644442190068,0.999491244180997,0.024832989352954252,0.00840563954895861,0.018163718481960044
598.9333333331173,-0.015353624,-0.793463,-0.023811135,-2.3642743,0.021047918,1.5883027,0.8048413,0.04,0.039999913,0.0042585876445233595,0.032928052324936175,0.002757346767712221,0.12435210809815875,-0.059155271433235915,0.09038559123897727,0.9994459858501429,0.02590753498941559,0.008792868439404763,0.018952742899520595
598.9499999997839,-0.016017845,-0.79384845,-0.024831,-2.3646145,0.021943673,1.5890436,0.80564666,0.04,0.039999917,0.0037895364104700846,0.033131997752781916,0.0026196450496840384,0.1275774161691528,-0.06032595991721689,0.09270596157906752,0.9993975484540955,0.027009990958289484,0.009190240847765497,0.019762085050343606
598.9666666664506,-0.016698804,-0.79424363,-0.025876557,-2.3649635,0.02286199,1.5898036,0.8064723,0.04,0.039999917,0.003374483134721551,0.0333449737522494,0.0026785917546012783,0.13082006307814975,-0.06150379881297456,0.09503803610271785,0.9993457715998547,0.02814045729337514,0.009597889303527335,0.02059184231019286
598.9833333331172,-0.017396588,-0.7946487,-0.026947927,-2.3653214,0.02380297,1.590582,0.8073183,0.04,0.039999917,0.003450194045062638,0.033547008759086255,0.002030151900189736,0.13408004140598212,-0.0626886881287446,0.09738091464884786,0.9992904924881921,0.029299057336647675,0.010015618520406883,0.021442113877691214
598.9999999997839,-0.018111255,-0.7950637,-0.028045217,-2.3656876,0.024766713,1.5913795,0.80818474,0.04,0.039999913,0.004540677501996271,0.03377954243300868,0.0025704319139174814,0.13735581414904258,-0.06387991254714986,0.09973343916442295,0.9992315346401802,0.03048596759520399,0.01044397666462903,0.022312985274120116
599.0166666664505,-0.018842885,-0.7954885,-0.029168526,-2.3660624,0.025753295,1.5921956,0.80907184,0.04,0.039999932,0.003985588391319794,0.03396873408190587,0.002033123434808104,0.14064619690573035,-0.06507492766350217,0.10209583432020185,0.9991687267144451,0.03170133271485847,0.010882589062460618,0.023204532213213093
599.0333333331172,-0.019591533,-0.795923,-0.03031795,-2.3664458,0.026762813,1.5930307,0.8099795,0.04,0.039999966,0.0040519408550432345,0.03415608808348125,0.002248284812722545,0.14395021623799523,-0.0662768522019262,0.10446854496380348,0.9991018901449177,0.03294520325286683,0.011331589588703821,0.024116835797291365
599.0499999997838,-0.020357251,-0.7963675,-0.031493567,-2.3668377,0.027795337,1.5938851,0.8109077,0.04,0.039999973,0.004583537719371478,0.034347849883557824,0.0022220582713838866,0.14726730116330103,-0.06748397985116664,0.10684716097618827,0.9990308387405245,0.034217649520072245,0.011791320094266705,0.025049959623926584
599.0666666664505,-0.021140082,-0.796822,-0.03269546,-2.3672385,0.028850928,1.5947584,0.8118568,0.04,0.03999997,0.00407199388787749,0.034491567523259326,0.0017640959387277277,0.15059697829208774,-0.06869479536554568,0.10923294401873715,0.9989553840437512,0.03551888052758336,0.01226146319140147,0.026003967706385057
599.0833333331171,-0.021940079,-0.79728645,-0.03392369,-2.3676484,0.029929645,1.5956508,0.81282663,0.04,0.039999973,0.0037866882999226803,0.03464398775657532,0.0016206993503242728,0.15393703856332525,-0.0699103938520027,0.11162515760742643,0.9988753370992832,0.03684889955843631,0.012741974949006337,0.026978910476972807
599.0999999997838,-0.022757279,-0.797761,-0.035178315,-2.368067,0.031031553,1.5965625,0.8138174,0.04,0.039999973,0.004560707477274661,0.034817144548798806,0.0016687569776019373,0.15728754331676256,-0.07113255290405446,0.11402306226797972,0.998790493991116,0.038207850624753265,0.013233194825706708,0.0279748425969471
599.1166666664504,-0.023591718,-0.7982454,-0.036459398,-2.3684945,0.032156687,1.5974935,0.81482893,0.04,0.039999977,0.004250388469384525,0.03498699499862243,0.001737218303210497,0.16064632294721365,-0.07235583634611001,0.11642591446687822,0.9987006580956966,0.03959573102761157,0.013734959824930037,0.02899180025833149
599.1333333331171,-0.024443422,-0.79873997,-0.037766967,-2.3689308,0.033305082,1.5984435,0.81586134,0.04,0.039999977,0.004749071731668941,0.03508468347105248,0.0010666065988429452,0.1640141662572843,-0.07358547517590486,0.11883322013726208,0.9986056230701552,0.041012594535589475,0.014247342621068197,0.03002981668882055
599.1499999997837,-0.02531241,-0.7992445,-0.03910107,-2.3693762,0.034476776,1.599413,0.8169147,0.04,0.039999984,0.0042985468394762805,0.03524500920040752,0.0014289428918123903,0.1673892193156513,-0.07481868171723649,0.12124417884502645,0.9985051768950025,0.04245852373185784,0.014770386044908127,0.0310889236300537
599.1666666664504,-0.026198711,-0.79975915,-0.04046174,-2.3698301,0.035671797,1.6004019,0.81798905,0.04,0.039999977,0.005262722097909567,0.035395236121741475,0.0012487669564409387,0.17077057840597543,-0.07605446480911138,0.12365857466533625,0.9983991001359843,0.043933607103949855,0.015304280926761433,0.032169146706236065
599.183333333117,-0.027102329,-0.80028385,-0.041848976,-2.3702931,0.036890153,1.60141,0.81908417,0.04,0.039999973,0.004535140776518176,0.03545308236060293,0.0008945957161055063,0.1741568363562533,-0.07729147908340239,0.12607490763804396,0.9982871852958571,0.045437710358268886,0.015848807027869727,0.03327048943533143
599.1999999997837,-0.028023273,-0.80081856,-0.043262813,-2.3707652,0.038131855,1.6024373,0.82020044,0.04,0.03999999,0.004480866140332829,0.03557652336803746,0.0006018801011586916,0.1775486506011919,-0.07853188935970407,0.1284939798414015,0.9981692025079887,0.04697106677600776,0.016403822191540324,0.034392974108065646
599.2166666664504,-0.02896155,-0.80136347,-0.04470325,-2.3712454,0.03939693,1.6034836,0.8213379,0.04,0.04,0.006418013212883267,0.035728767635873765,0.0007593118991566783,0.18094314801518419,-0.0797758145188562,0.1309136097938713,0.9980449155448993,0.048533682725917834,0.016969905502356684,0.035536607931483444
599.233333333117,-0.029917158,-0.80191845,-0.046170287,-2.3717341,0.040685356,1.6045495,0.8224963,0.04,0.04,0.005762861982816503,0.03585174243099579,0.0008966508621588432,0.18433975746965375,-0.08102028159407684,0.13333367568105295,0.9979140967347403,0.050125490152410884,0.017547072543559247,0.036701376271456525
599.2499999997837,-0.03089009,-0.8024834,-0.047663905,-2.3722327,0.04199712,1.6056348,0.8236756,0.04,0.04,0.003550815648512007,0.03580486249016024,2.7615907161049336e-05,0.1877376155615102,-0.08226182338841921,0.13575307415656784,0.997776529007253,0.05174642568402544,0.01813450396162374,0.037887271704783634
599.2666666664503,-0.031880334,-0.8030584,-0.0491841,-2.3727398,0.043332223,1.6067392,0.8248759,0.04,0.04,0.005754373026478632,0.03596794788669755,0.00013515870462832424,0.1911371446450134,-0.08351031807201101,0.13817132902395168,0.9976319598707759,0.05339656829797429,0.018732745202246208,0.039094288528913515
599.283333333117,-0.03288788,-0.80364347,-0.05073084,-2.3732562,0.044690643,1.6078628,0.82609713,0.04,0.04,0.004700642668509225,0.03599658407772849,-0.0001667511356995277,0.19453632903773999,-0.08475884223173911,0.14058899318462148,0.9974801538758187,0.055075855338063896,0.01934157204968851,0.04032240535112634
599.2999999997836,-0.03391269,-0.8042385,-0.05230408,-2.3737812,0.04607235,1.6090059,0.82733923,0.04,0.04,0.005942046231255382,0.036105332333141726,0.000125303103493124,0.19793472962530922,-0.08600927570567234,0.1430033248266066,0.9973208606716281,0.05678422988650307,0.019961354305371864,0.04157158211681871
599.3166666664503,-0.03495476,-0.80484354,-0.0539038,-2.3743148,0.047477294,1.6101682,0.8286022,0.04,0.04,0.006025798465203458,0.036201756605121205,-0.00026157368910872947,0.20133141693250883,-0.08725861289839593,0.14541567194921373,0.9971538313126923,0.05852168057725213,0.020592014258964043,0.04284178508876225
599.3333333331169,-0.036014054,-0.8054591,-0.055529945,-2.3748574,0.048905455,1.6113496,0.8298861,0.04,0.04,0.005794258132896246,0.03616025134466766,-0.001001151249901966,0.20472544855154323,-0.08850772385834701,0.1478248480900035,0.996978811874385,0.06028819039951503,0.02123350124454916,0.04413299442355293
599.3499999997836,-0.037090536,-0.80608445,-0.057182476,-2.3754086,0.05035679,1.6125501,0.8311908,0.04,0.04,0.00602887352780801,0.036287868572240645,-0.0005193356958477224,0.20811538151980208,-0.0897550462713995,0.15023056637928428,0.9967955465592095,0.06208371523182249,0.02188579713314989,0.04544515977073435
599.3666666664502,-0.03818417,-0.80671984,-0.058861315,-2.3759687,0.05183124,1.6137699,0.83251625,0.04,0.04,0.005917421853718352,0.0362858885005965,-0.0009079241176879194,0.2115006882402203,-0.09100173446273054,0.15263325310680304,0.9966037819893276,0.06390811669285244,0.022548885425081544,0.04677822261937568
599.3833333331169,-0.039294913,-0.807365,-0.060566407,-2.3765376,0.053328734,1.6150087,0.8338625,0.04,0.04,0.005709741093529175,0.03634042187729836,-0.0010487690581983955,0.21488090808784202,-0.09224683738450312,0.15502896012441625,0.9964032547943465,0.06576141585595377,0.023222593756384222,0.048132121905009796
599.3999999997835,-0.040422708,-0.8080199,-0.062297683,-2.377115,0.05484922,1.6162665,0.83522946,0.04,0.04,0.0061162576017848025,0.03636652866897683,-0.0011906328651001274,0.21825459335291503,-0.09349133500483763,0.15741810404720752,0.996193699554695,0.06764352547760787,0.023906961454880197,0.04950680379993574
599.4166666664502,-0.041567508,-0.80868465,-0.06405505,-2.377701,0.056392636,1.6175432,0.8366168,0.04,0.04,0.006418477825032021,0.03636436927546283,-0.001486941477146786,0.22162066009942002,-0.0947350886571625,0.15980241770911446,0.9959748571343933,0.06955420272836861,0.024602094396533554,0.05090219828504441
599.4333333331168,-0.04272926,-0.80935913,-0.06583844,-2.3782961,0.05795891,1.6188389,0.83802485,0.04,0.04,0.005493101322606719,0.03636043917289444,-0.0017861734787238959,0.22498000048606853,-0.09597584050322741,0.1621806679563986,0.9957464515761895,0.07149354797236149,0.02530766474505926,0.05231824611837123
599.4499999997835,-0.043907903,-0.8100436,-0.06764776,-2.3788996,0.059547946,1.6201534,0.8394535,0.04,0.04,0.0070573502853665815,0.036436649937993115,-0.0019094013650189368,0.22832954008730005,-0.09721681478722538,0.16455091890229645,0.9955082002905337,0.07346144936182408,0.02602409683354886,0.05375486020780786
599.4666666664501,-0.045103367,-0.8107377,-0.06948288,-2.379512,0.06115966,1.6214865,0.8409021,0.04,0.04,0.005568422390189731,0.03628013850108247,-0.0024466475983198066,0.23166890692481984,-0.09845376628545004,0.16691320040136598,0.9952598691017673,0.07545746030641906,0.02675081944996592,0.0552119398173398
599.4833333331168,-0.046315588,-0.8114415,-0.07134374,-2.380133,0.06279396,1.6228384,0.84237105,0.04,0.04,0.006816181623725548,0.03645177450501691,-0.002204777944814218,0.23499965319002447,-0.09969011074370714,0.1692687869583535,0.995001148702297,0.07748176447938852,0.027488182823707453,0.05668941752497119
599.4999999997834,-0.047544487,-0.81215507,-0.0732302,-2.3807623,0.064450756,1.6242088,0.84386086,0.04,0.04,0.006727890936564229,0.03633467301558668,-0.002734164794171434,0.23831887006609404,-0.10092306301779817,0.17161516521069906,0.9947317416549643,0.07953448350460926,0.028236116332579005,0.05818719629084759
599.5166666664501,-0.04878999,-0.81287843,-0.07514213,-2.3813999,0.066129915,1.6255978,0.8453704,0.04,0.04,0.007587104201101091,0.036398636422969866,-0.0027174537634122586,0.24162280605936898,-0.10215252760791252,0.17395007069830712,0.9944514024138642,0.08161496025035929,0.028994863473015543,0.05970514544503083
599.5333333331167,-0.050052013,-0.8136112,-0.07707941,-2.3820462,0.06783137,1.6270055,0.84689987,0.04,0.04,0.006046447760277296,0.036260285387479385,-0.0030241847961853807,0.24491549699797738,-0.1033753780244753,0.17627648656317332,0.9941598514918877,0.08372319668502565,0.029763885989834638,0.061243180104011474
599.5499999997834,-0.05133048,-0.8143537,-0.07904196,-2.382701,0.069554985,1.6284312,0.8484491,0.04,0.04,0.00713309632820458,0.03631266199752847,-0.0035654160224218856,0.2481948419259583,-0.10459559367998898,0.17859269832485586,0.9938568008535644,0.08585902524576897,0.030543338414546137,0.06280120746816345
599.56666666645,-0.052625287,-0.81510574,-0.08102955,-2.383364,0.07130063,1.6298754,0.85001826,0.04,0.04,0.00715872087129199,0.03620607882406646,-0.003420432262823958,0.25146008994438385,-0.10581103953970344,0.18089783744813032,0.9935419580687903,0.08802236819778288,0.031333304813317406,0.06437906696406566
599.5833333331167,-0.053936362,-0.8158672,-0.08304211,-2.384035,0.073068194,1.6313382,0.851607,0.04,0.04,0.00757749842572597,0.036321795877805596,-0.003403394993628517,0.25470933037517557,-0.10702119620657348,0.1831922102648884,0.9932150356887023,0.09021300131165201,0.03213391405856325,0.06597665377624479
599.5999999997833,-0.055263586,-0.8166382,-0.08507945,-2.3847148,0.07485753,1.6328175,0.85321546,0.04,0.04,0.00620552624526205,0.03585324430761261,-0.005422678726851871,0.2579422611253729,-0.10822310823229667,0.1854765365390717,0.9928757866483038,0.09243073452333343,0.03294391252304357,0.06759386237420546
599.61666666645,-0.056606878,-0.8174183,-0.08714144,-2.3854024,0.07666853,1.6343157,0.85484326,0.04,0.04,0.007975495426482127,0.036284828102002564,-0.003336210701898601,0.26115866947632826,-0.1094275303788529,0.18774716367574568,0.9925238774321482,0.09467539965031242,0.03376470540490472,0.06923052864905507
599.6333333331166,-0.05796611,-0.8182074,-0.089227915,-2.3860981,0.078501046,1.6358316,0.8564906,0.04,0.04,0.007047333973586589,0.03598502485471222,-0.004531838985077918,0.2643569032130411,-0.11062148490239411,0.1900039023784481,0.9921590364108844,0.09694689737151269,0.03459544913943634,0.07088653226885404
599.6499999997833,-0.059341196,-0.8190058,-0.09133871,-2.386802,0.080354914,1.6373651,0.8581571,0.04,0.04,0.007468732272641887,0.03594723800204036,-0.004943068442364584,0.26753554532484475,-0.11181124734579187,0.19224929005447394,0.9917809833578008,0.09924487877619005,0.035436301767685655,0.07256172271633582
599.6666666664499,-0.060732022,-0.81981355,-0.09347364,-2.387514,0.08223002,1.638916,0.85984254,0.04,0.04,0.007124400740154968,0.035760473818197136,-0.0054770830437034235,0.270695108428208,-0.1129943711743059,0.1944792229178332,0.9913894389381029,0.10156909262311199,0.03628705518512775,0.07425597222919367
599.6833333331166,-0.06213846,-0.82063055,-0.09563255,-2.3882349,0.08412618,1.6404847,0.861547,0.04,0.04,0.006787557331788818,0.035704443609249625,-0.005491519767719666,0.2738350246215929,-0.11417289416423188,0.19669561226194615,0.9909841030500143,0.10391943065204937,0.037147698519082,0.07596912484587288
599.6999999997832,-0.0635604,-0.8214563,-0.097815245,-2.3889632,0.086043224,1.6420705,0.8632703,0.04,0.04,0.007782241970843984,0.03572075696091914,-0.0055002160594064264,0.2769536679277936,-0.11534437121230581,0.1988978340082135,0.9905646939586897,0.1062956330732937,0.03801817098130054,0.07770099193261056
599.7166666664499,-0.06499771,-0.8222912,-0.10002155,-2.389699,0.08798103,1.6436734,0.86501217,0.04,0.04,0.008644689670700423,0.035628287998432095,-0.005939039839319982,0.2800496916560694,-0.11651071286630953,0.20108634397980318,0.9901309168225964,0.10869740274649994,0.038898709914662065,0.07945144778532968
599.7333333331165,-0.06645026,-0.8231347,-0.10225123,-2.3904426,0.08993938,1.6452936,0.8667725,0.04,0.04,0.00743906922981985,0.035476311529422655,-0.005933380357436846,0.28312359258490694,-0.1176664873462917,0.2032585304892296,0.9896825016769464,0.11112448762025516,0.03978895225424056,0.08122027705017167
599.7499999997832,-0.06791791,-0.82398707,-0.10450413,-2.3911936,0.09191811,1.6469301,0.8685509,0.04,0.04,0.008202212349317506,0.03532663799857838,-0.006770456587168461,0.2861741025397724,-0.11881472725381635,0.20541526182541098,0.9892191772301864,0.11357652435806728,0.040688750025495025,0.08300733784513994
599.7666666664499,-0.06940056,-0.82484823,-0.106780045,-2.3919525,0.09391707,1.6485834,0.8703478,0.04,0.04,0.00762039791468716,0.03520998633759764,-0.006875404023309883,0.2892018723392128,-0.1199564412886509,0.20755491010078453,0.9887406236038924,0.1160535371781455,0.041598074258269516,0.08481247527239381
599.7833333331165,-0.07089807,-0.825718,-0.109078765,-2.392719,0.095936045,1.6502532,0.87216264,0.04,0.04,0.0077062538344607745,0.035129204281603155,-0.007153403716175788,0.29220363967905977,-0.12108980766384439,0.20967823599901342,0.9882465855785041,0.11855507218600514,0.04251675413734018,0.08663548100532686
599.7999999997832,-0.07241029,-0.8265963,-0.11140006,-2.3934932,0.097974874,1.6519397,0.8739952,0.04,0.04,0.007912994100367499,0.03499542702732894,-0.007149256759397815,0.295179577475995,-0.12221581813180891,0.21178496487313886,0.9877367763742317,0.12108081209122755,0.043444959855767774,0.08847617195776691
599.8166666664498,-0.07393708,-0.8274831,-0.11374371,-2.3942745,0.10003335,1.6536424,0.8758455,0.04,0.04,0.008415704602993124,0.03485315486937424,-0.007653438838484128,0.2981292142336024,-0.12333185898885927,0.2138753795262084,0.9872109118979245,0.123630554926543,0.04438249292419564,0.09033435470548788
599.8333333331165,-0.07547832,-0.82837826,-0.11610947,-2.3950634,0.10211129,1.6553613,0.87771326,0.04,0.04,0.007555978990692047,0.03465729417566066,-0.007946662304791907,0.3010520113348394,-0.12443883604718446,0.21594719709172736,0.98666872674877,0.1262039703541981,0.04532910977100032,0.09220983315333649
599.8499999997831,-0.07703379,-0.82928175,-0.11849717,-2.39586,0.10420845,1.657096,0.87959826,0.04,0.04,0.007475574365933824,0.034448528192185246,-0.008453368452832066,0.3039466199203327,-0.12553856823030152,0.21800025324624145,0.9861099592152187,0.12880068975426884,0.046284618326705905,0.09410241634376715
599.8666666664498,-0.07860342,-0.8301934,-0.12090652,-2.396664,0.10632468,1.6588465,0.8815004,0.04,0.04,0.0077162428968380326,0.0343198172476078,-0.008599372309237019,0.3068134644003464,-0.1266296896093306,0.22003515840741228,0.9855343243619182,0.1314204890651378,0.04724897344080554,0.09601190065386377
599.8833333331164,-0.080186985,-0.8311131,-0.1233373,-2.3974745,0.10845974,1.6606123,0.8834195,0.04,0.04,0.008753007614714647,0.034243139317027826,-0.008764424142837512,0.30965057146274755,-0.12771174470090907,0.22205149475237143,0.9849415534792906,0.13406298509834827,0.0482222785038395,0.09793806263256256
599.8999999997831,-0.08178435,-0.83204097,-0.12578928,-2.398292,0.11061345,1.6623936,0.88535535,0.04,0.04,0.008524734639192566,0.03403227988066637,-0.009188983096830583,0.3124580585235828,-0.1287845933920425,0.22404768352452314,0.9843313741829419,0.1367278658090379,0.0492044573812946,0.09988071828055307
599.9166666664497,-0.08339539,-0.8329769,-0.12826224,-2.3991168,0.11278553,1.6641902,0.88730764,0.04,0.04,0.008010697653615395,0.033902926756329554,-0.009488310642380426,0.31523502754459604,-0.12984640600156536,0.22602489843865547,0.9837035335946024,0.13941477365193453,0.05019531980757585,0.10183962269415525
599.9333333331164,-0.08501991,-0.8339205,-0.13075586,-2.3999481,0.11497583,1.6660018,0.8892762,0.04,0.04,0.00836832654431685,0.033652297331540626,-0.009593718569567145,0.31797985277607377,-0.13089689781183206,0.22798525062247166,0.9830577761497411,0.14212334614824318,0.05119472747980962,0.1038145611627778
599.949999999783,-0.08665775,-0.8348718,-0.1332699,-2.4007866,0.11718408,1.6678284,0.891261,0.04,0.04,0.007629934760400303,0.03341557968088438,-0.010081688996832483,0.3206937116972855,-0.1319363488854958,0.229920956208221,0.9823938408186409,0.1448533167339195,0.05220244410183934,0.10580530696792056
599.9666666664497,-0.08830874,-0.835831,-0.13580413,-2.4016316,0.11941007,1.6696696,0.89326155,0.04,0.04,0.008816291819191413,0.03328951160458116,-0.010441486917289744,0.32337425027517036,-0.1329663938577777,0.23183767333840993,0.9817114809824135,0.14760419542476083,0.053218609182498045,0.10781163776237744
599.9833333331163,-0.089972705,-0.8367975,-0.13835824,-2.4024837,0.12165354,1.6715256,0.89527804,0.04,0.04,0.007140379512660111,0.032966408550469395,-0.010529360458133574,0.3260221543869244,-0.13398495747775221,0.2337335122556381,0.98101044296935,0.15037581431940558,0.054242706295253115,0.10983330126433453
599.999999999783,-0.09164944,-0.8377715,-0.14093198,-2.4033422,0.12391431,1.6733953,0.89730996,0.04,0.04,0.008228851116709457,0.0326697093419176,-0.01136029102428715,0.32863493739644356,-0.13499346011887342,0.23560887005557501,0.9802905087397823,0.15316759814001166,0.055274638150099795,0.11187010204739388
600.0166666664496,-0.093338795,-0.8387527,-0.14352508,-2.4042072,0.12619208,1.6752791,0.89935714,0.04,0.04,0.008091620893924123,0.03262242990505204,-0.011136252955190606,0.33121398613337294,-0.13599242851623755,0.23745957738644446,0.9795514243544223,0.15597923645586545,0.05631446643588652,0.11392175257565684
600.0333333331163,-0.0950406,-0.83974123,-0.14613724,-2.4050784,0.12848662,1.6771772,0.90141946,0.04,0.04,0.008672545727361758,0.032449047826182964,-0.01138534317564055,0.3337578408166128,-0.13697889164115032,0.23928997938485091,0.9787929324969201,0.15881038772623618,0.057362337376983055,0.11598800927238723
600.0499999997829,-0.09675467,-0.840737,-0.14876825,-2.4059556,0.13079768,1.6790888,0.9034965,0.04,0.04,0.008744633971735638,0.032253803482540366,-0.011915234232273697,0.336264388624689,-0.13795372164069183,0.24110199932866613,0.9780148222284796,0.16166056661957467,0.05841800017271105,0.11806864934204418
600.0666666664496,-0.09848079,-0.8417398,-0.15141778,-2.4068394,0.13312507,1.6810137,0.90558827,0.04,0.04,0.007163940829357784,0.031633218642398986,-0.012553257380987226,0.33873522010669443,-0.13891326898009243,0.24288771168696133,0.9772168849900099,0.164529451910158,0.059480787975364796,0.1201634512087364
600.0833333331162,-0.10021878,-0.8427497,-0.15408558,-2.407729,0.13546851,1.682952,0.9076946,0.04,0.04,0.009082816998717824,0.03175430316758043,-0.0123952662673954,0.3411686420609936,-0.13986426132872182,0.24464876173042338,0.9763988496425001,0.16741667836622134,0.06055132069415964,0.12227215457256252
600.0999999997829,-0.10196846,-0.8437659,-0.15677126,-2.408625,0.13782766,1.6849034,0.9098149,0.04,0.04,0.0066156719950249965,0.03121714477683779,-0.01270952237932832,0.34356346536199134,-0.14079977052077974,0.24638895708708572,0.9755605947721496,0.1703216967618811,0.061628548211663504,0.12439440335194372
600.1166666664495,-0.10372965,-0.8447891,-0.1594746,-2.4095266,0.14020237,1.6868675,0.911949,0.04,0.04,0.008612761372495115,0.031090921104123814,-0.013298956009233365,0.3459207523279205,-0.14172635584229645,0.2481040143321766,0.9747018635636252,0.17324405762527953,0.06271303452978674,0.12653003186275885
600.1333333331162,-0.10550211,-0.84581876,-0.1621953,-2.4104338,0.14259234,1.6888442,0.9140971,0.04,0.04,0.008438871690641392,0.030878128256156545,-0.013276792090533007,0.34823919855111996,-0.14263984590432421,0.24979748652441314,0.9738224210478912,0.1761835720308101,0.0638045366527166,0.12867875626310812
600.1499999997828,-0.107285716,-0.84685487,-0.16493307,-2.4113462,0.14499725,1.690833,0.9162587,0.04,0.04,0.008543981455733096,0.030663693782628787,-0.013843512632827348,0.35051658804509045,-0.14353911081095325,0.25146513235817863,0.9729220978563096,0.17913970008593652,0.06490283233223373,0.13084029085588408
600.1666666664495,-0.109080195,-0.8478974,-0.16768754,-2.4122648,0.14741696,1.6928343,0.91843337,0.04,0.04,0.007053864149786371,0.029980610922253348,-0.014067481605795074,0.352753030447727,-0.14442496253772497,0.2531113426882151,0.9720007317714784,0.18211187871471626,0.06600765738665382,0.1330143985929095
600.1833333331161,-0.11088537,-0.8489463,-0.17045844,-2.413189,0.14985108,1.6948476,0.9206209,0.04,0.04,0.007957392661395168,0.029957283936435375,-0.014357356237493235,0.3549498152903034,-0.14529905985913022,0.2547297158742213,0.9710581294090868,0.18509969925392356,0.06711903229630489,0.13520076238039438
600.1999999997828,-0.11270108,-0.85000104,-0.17324542,-2.4141183,0.15229936,1.6968726,0.9228213,0.04,0.04,0.007752279634831716,0.029669734943643666,-0.014525109452412366,0.35710536360666867,-0.14615645015705547,0.25632418840731896,0.9700941068065068,0.18810282648743462,0.06823664577656863,0.13739909308247658
600.2166666664494,-0.11452708,-0.8510618,-0.1760483,-2.4150524,0.15476157,1.6989087,0.925034,0.04,0.04,0.008473567604982968,0.02942208981464023,-0.015090047828691944,0.3592180381368128,-0.14700255708743662,0.2578926125574801,0.9691085015287441,0.19112067119458437,0.06936047546898742,0.13960918934497085
600.2333333331161,-0.11636314,-0.8521286,-0.17886658,-2.4159923,0.15723732,1.7009561,0.92725927,0.04,0.04,0.006833351110757668,0.02873330705341348,-0.0154808882065538,0.3612890659958985,-0.14783416393050747,0.25943664447181014,0.9681011439462094,0.19415297851695051,0.07049008297370307,0.14183068858818187
600.2499999997827,-0.11820907,-0.85320115,-0.1817,-2.4169369,0.15972643,1.7030145,0.9294963,0.04,0.04,0.008025094592856163,0.028671773257654687,-0.015474517824931588,0.36331554529734034,-0.14865315286480357,0.26095452427051047,0.9670719070012576,0.19719902491292826,0.07162562267090723,0.1440633244075197
600.2666666664494,-0.120064676,-0.85427916,-0.18454824,-2.417886,0.16222857,1.7050838,0.93174505,0.04,0.04,0.00813214480894775,0.02847935273718738,-0.015512990738386634,0.3652991806435234,-0.14945657348173846,0.2624448338855828,0.9660206102022758,0.20025849097248272,0.07276703510605222,0.14630678746975948
600.283333333116,-0.12192971,-0.8553627,-0.18741097,-2.4188406,0.1647435,1.7071638,0.9340055,0.04,0.04,0.0063242636763494176,0.027678943603615114,-0.016320016780979607,0.3672383256221307,-0.15024464754353045,0.2639123057048745,0.9649471291871493,0.20333097787988766,0.0739136378612649,0.14856084762144164
600.2999999997827,-0.12380399,-0.85645175,-0.1902879,-2.4198003,0.16727085,1.7092539,0.9362766,0.04,0.04,0.006845014728229515,0.027504636960246076,-0.01670656058874176,0.3691325306747073,-0.1510210484566761,0.2653503757230877,0.9638514049388484,0.20641564784291472,0.07506541663309788,0.15082517279518468
600.3166666664494,-0.12568727,-0.8575461,-0.19317867,-2.420764,0.16981037,1.711354,0.9385589,0.04,0.04,0.008245412237384286,0.027372331125058436,-0.01659529039108598,0.37098337081699073,-0.15178274480348425,0.26676189724300603,0.9627332159340718,0.2095123508878961,0.07622259750934765,0.1530994624144548
600.333333333116,-0.12757935,-0.85864544,-0.19608286,-2.421732,0.17236175,1.713464,0.9408516,0.04,0.04,0.00738011773713243,0.02685858954842857,-0.016794421880983457,0.3727872815489276,-0.15252916224591412,0.2681463757562927,0.961592508171806,0.21262041655774727,0.07738483814594518,0.1553833759312468
600.3499999997827,-0.12948,-0.85974985,-0.19900025,-2.4227047,0.17492475,1.7155838,0.94315505,0.04,0.04,0.006488840145801866,0.026403356035792358,-0.017303693525239083,0.3745460491488137,-0.15325890826070965,0.2695060551099535,0.9604291162828196,0.21573961458700966,0.07855179291698274,0.15767671712582731
600.3666666664493,-0.131389,-0.8608591,-0.20193045,-2.423682,0.17749901,1.7177129,0.94546854,0.04,0.04,0.006374896185135093,0.025938137372749637,-0.017608371127186828,0.37625675671291936,-0.1539731159485962,0.2708344126707128,0.9592430044841034,0.2188692537888304,0.07972320210390958,0.15997912095186148
600.383333333116,-0.1333061,-0.86197305,-0.20487311,-2.4246626,0.18008421,1.7198509,0.94779193,0.04,0.04,0.008140046793614353,0.025900907307618848,-0.017627165312195103,0.37792035288975934,-0.15467352074313495,0.2721360612869663,0.9580340482544275,0.22200884586860234,0.08089936555032924,0.16229025662336757
600.3999999997826,-0.13523106,-0.86309165,-0.20782788,-2.4256477,0.18268009,1.7219976,0.95012486,0.04,0.04,0.005781990416053873,0.024958634987148898,-0.01830660242077009,0.37953591640496365,-0.15535777566570969,0.27341226120571144,0.9568022218635989,0.22515785218567763,0.08207949981593637,0.16460985859291316
600.4166666664493,-0.13716373,-0.86421454,-0.2107944,-2.4266367,0.18528628,1.724153,0.9524671,0.04,0.04,0.006556768452581352,0.0249617694485893,-0.01811844713621724,0.3811045419873544,-0.15602914995538553,0.27465899856880394,0.9555474210328941,0.22831584530891824,0.08326373619123943,0.16693756669406284
600.4333333331159,-0.13910386,-0.8653419,-0.21377231,-2.4276295,0.18790254,1.7263167,0.95481825,0.04,0.04,0.00649239170285032,0.02433444117845851,-0.018717402664392147,0.3826245180511041,-0.15668202320727934,0.2758740765135149,0.9542696034068612,0.23148222336690946,0.08445188256819118,0.16927310421184066
600.4499999997826,-0.14105116,-0.8664734,-0.21676132,-2.4286258,0.19052854,1.7284883,0.9571781,0.04,0.04,0.006313852629924455,0.023979210275665297,-0.018785785691433077,0.3840962063919382,-0.1573205306584395,0.27706223766725446,0.9529687147194497,0.23465650271124308,0.08564370533223442,0.1716161712609101
600.4666666664492,-0.14300546,-0.8676089,-0.21976103,-2.429626,0.19316398,1.7306677,0.95954657,0.04,0.04,0.005630314029403394,0.023416743306264864,-0.019170944914148613,0.38551848466969785,-0.15794350344936314,0.2782236519637266,0.9516447047135692,0.23783826105137423,0.08683887734109694,0.17396645352716705
600.4833333331159,-0.14496648,-0.8687486,-0.22277105,-2.4306293,0.19580851,1.7328546,0.96192306,0.04,0.04,0.006846037482910461,0.023103373086841295,-0.01935999221855944,0.3868911410742656,-0.15855243534752012,0.27935242382007447,0.9502975543520346,0.24102679352305553,0.08803765846269734,0.17632360502480043
600.4999999997825,-0.146934,-0.86989194,-0.22579108,-2.4316359,0.1984618,1.7350489,0.9643075,0.04,0.04,0.005636194537883554,0.022696072322475613,-0.019395128964871944,0.3882141280315887,-0.15914069803026812,0.2804535560773802,0.9489272346119699,0.24422173601418856,0.08923954192036979,0.17868730012996997
600.5166666664492,-0.1489078,-0.87103903,-0.22882074,-2.4326458,0.2011236,1.7372502,0.96669954,0.04,0.04,0.005538782501446349,0.022057880624987147,-0.01984772794096923,0.38948641426492625,-0.15971483764146308,0.28152519290298894,0.9475337334197694,0.24742252855919525,0.09044435870429952,0.18105726820963441
600.5333333331158,-0.15088767,-0.8721896,-0.23185964,-2.4336586,0.20379353,1.7394583,0.96909887,0.04,0.04,0.005829001389168198,0.02180306007207866,-0.019877278880264804,0.39070832499537267,-0.160272268054673,0.282565110029805,0.946117052914741,0.2506286357849533,0.09165203716672614,0.1834331300275043
600.5499999997825,-0.15287326,-0.8733436,-0.23490742,-2.4346747,0.20647134,1.7416728,0.9715053,0.04,0.04,0.004679438242893852,0.020814863070001133,-0.020411940247844207,0.39187896506737546,-0.16081334198008393,0.2835755607751047,0.9446772282757958,0.2538395088739921,0.09286203147284611,0.18581464211010565
600.5666666664491,-0.15486443,-0.8745009,-0.23796372,-2.4356933,0.20915665,1.7438936,0.9739184,0.04,0.04,0.006088881083732289,0.02096374216885022,-0.020185877789491435,0.39299866440637987,-0.16133806958667246,0.2845546665493598,0.9432142350245575,0.2570546254949238,0.09407474896265915,0.18820140266830077
600.5833333331158,-0.15686092,-0.8756614,-0.24102816,-2.4367146,0.21184914,1.7461206,0.97633797,0.04,0.04,0.004899377836631302,0.020127284084453523,-0.02063466323989349,0.3940661911149457,-0.16184567969875768,0.28550704426263385,0.94172811902765,0.26027349154684387,0.09528967979926677,0.19059311727974998
600.5999999997824,-0.15886247,-0.8768247,-0.2441004,-2.4377391,0.2145485,1.7483531,0.97876376,0.04,0.04,0.0036677493386427784,0.019434288469460936,-0.020878470300234042,0.3950815438659989,-0.162333849122623,0.2864264536327337,0.9402189524745883,0.26349559901805797,0.09650621322425605,0.19298948550327086
600.6166666664491,-0.16086888,-0.87799084,-0.24718003,-2.4387655,0.21725437,1.7505904,0.9811954,0.04,0.04,0.005396527573608978,0.019131525212895406,-0.021245523916935127,0.3960454437147761,-0.16280807388045998,0.28730973146057626,0.9386867934496352,0.2667202939573816,0.09772451474230924,0.19539014256842582
600.6333333331157,-0.16287985,-0.8791597,-0.25026673,-2.4397938,0.21996644,1.7528331,0.9836326,0.04,0.04,0.005289053240975505,0.01890386888425688,-0.020922288729718908,0.3969565597122503,-0.1632683238587249,0.28816879054494166,0.9371316390493197,0.26994714899616995,0.09894472052138312,0.19779476768236398
600.6499999997824,-0.16489515,-0.8803311,-0.25336006,-2.440825,0.22268434,1.755081,0.9860751,0.04,0.04,0.0032473469505411856,0.01789249778788582,-0.021267522337620193,0.3978155319911093,-0.16370544422943023,0.288990481398832,0.9355536190640316,0.27317561205175767,0.10016618639056128,0.20020301181628508
600.666666666449,-0.16691455,-0.8815049,-0.25645974,-2.4418583,0.2254078,1.7573334,0.9885224,0.04,0.04,0.003844772225791715,0.01750930913222981,-0.021615481087033928,0.3986209254506531,-0.1641299376169546,0.28978612038727036,0.9339528224912289,0.2764050867159869,0.10138873644759952,0.20261460342175236
600.6833333331157,-0.16893782,-0.882681,-0.2595652,-2.4428935,0.22813652,1.7595897,0.99097455,0.04,0.04,0.003896701911543232,0.01666036332118037,-0.02183587126154407,0.39937425082797945,-0.16453438444465548,0.29054428425744283,0.9323293387316852,0.2796350857942479,0.10261213736484613,0.20502919840452047
600.6999999997823,-0.17096467,-0.88385916,-0.26267627,-2.4439301,0.23087005,1.7618501,0.99343103,0.04,0.04,0.004289364247389571,0.01677611897624165,-0.021589607225380725,0.40007372486406173,-0.16492565100203488,0.2912718936291058,0.9306832376420234,0.2828651008392893,0.10383655569208987,0.20744641621715998
600.716666666449,-0.17299491,-0.8850393,-0.26579246,-2.4449687,0.23360822,1.7641144,0.9958916,0.04,0.04,0.0031908573507433147,0.015713108953785415,-0.021944879063928724,0.40071931204453926,-0.16529712549235898,0.2919684849454395,0.9290146538506305,0.28609457870236393,0.10506152835295704,0.20986600541309883
600.7333333331156,-0.17502825,-0.8862214,-0.26891348,-2.446009,0.2363505,1.7663822,0.99835587,0.04,0.04,0.0031657266144513585,0.015357531932008728,-0.022083832527264313,0.4013113477518718,-0.16565253991855056,0.2926346002531392,0.9273237167459114,0.28932299478188767,0.10628693629754578,0.2122875790607397
600.7499999997823,-0.17706443,-0.8874051,-0.27203885,-2.4470506,0.2390967,1.7686534,1.0008237,0.04,0.04,0.0030360979114796294,0.01468035618837904,-0.022004359348426483,0.401849399927316,-0.16599014885326052,0.29326752955603586,0.9256105490158113,0.2925498636202559,0.10751256755506533,0.2147108210224518
600.7666666664489,-0.17910326,-0.8885903,-0.27516824,-2.4480934,0.24184647,1.7709271,1.0032946,0.04,0.04,0.0028177521867789324,0.014012944354929724,-0.022443621728696073,0.4023331362845869,-0.16630989788445857,0.29386528818408775,0.9238753628750935,0.2957744990234409,0.10873805895565025,0.21713542809593397
600.7833333331156,-0.18114437,-0.8897769,-0.27830115,-2.4491374,0.24459937,1.7732036,1.0057684,0.04,0.04,0.0027110795524531994,0.013425181322834767,-0.02220705423590097,0.40276312036537365,-0.1666130936552268,0.29443061204214427,0.9221182792735528,0.29899648119982175,0.10996344950259748,0.21956097793823984
600.7999999997822,-0.18318762,-0.8909648,-0.28143737,-2.4501827,0.24735515,1.7754824,1.0082449,0.04,0.04,0.002161557445434781,0.012870332592873623,-0.022580265223814955,0.40314002186037823,-0.16689650710227513,0.29496201645823494,0.9203394514411702,0.3022153250933946,0.11118835677934862,0.2219872534997628
600.8166666664489,-0.18523271,-0.89215374,-0.28457645,-2.4512286,0.2501134,1.7777635,1.0107234,0.04,0.04,0.002492476237003771,0.01249636948479349,-0.022318313911373622,0.40346146946108186,-0.16716427873663622,0.2954596694932679,0.9185390982918498,0.30543037355906194,0.11241284364362303,0.2244138239964774
600.8333333331155,-0.18727942,-0.8933437,-0.28771797,-2.452275,0.25287387,1.7800463,1.0132039,0.04,0.04,0.002581928288769575,0.0117650115369905,-0.022536645556336943,0.4037296958540177,-0.16740903272808524,0.29592022457914935,0.9167173661415259,0.3086412026711551,0.11363671081834292,0.22684042096291998
600.8499999997822,-0.18932748,-0.89453435,-0.29086158,-2.4533222,0.2556361,1.7823306,1.0156859,0.04,0.04,0.0014466559666193035,0.011034915000013301,-0.022644434747909337,0.4039416173554473,-0.16764087351995272,0.29635556990970235,0.9148745248863916,0.3118472381674253,0.11485948587690085,0.2292666619143355
600.8666666664489,-0.19137669,-0.89572585,-0.2940069,-2.45437,0.2583999,1.7846161,1.0181696,0.04,0.04,0.0013522139492128105,0.010312744589341394,-0.022837970681988118,0.4041007453327624,-0.1678490878702121,0.29674866680874556,0.9130106841809269,0.31504816184184714,0.11608101594838052,0.23169234779755016
600.8833333331155,-0.19342674,-0.89691776,-0.29715344,-2.455418,0.26116487,1.7869027,1.020654,0.04,0.04,0.0014996097263964003,0.0097757297197687,-0.02249858840910335,0.4042033390286699,-0.16804385181175682,0.29711087085966087,0.9111262171927289,0.3182430810450517,0.117301304376377,0.2341169829436162
600.8999999997822,-0.19547738,-0.8981101,-0.30030102,-2.456467,0.2639307,1.7891902,1.023139,0.04,0.04,0.0003889617651964272,0.009104055948117029,-0.022692930534295996,0.4042535122555592,-0.16821871849675785,0.2974395990040332,0.9092212540868799,0.3214317582351915,0.1185199578125395,0.23654038875978173
600.9166666664488,-0.19752838,-0.89930266,-0.30344903,-2.4575157,0.266697,1.7914778,1.0256246,0.04,0.04,0.0009540247619899134,0.008342682968554005,-0.02282654714806931,0.4042482321281051,-0.16837613441050459,0.2977335113979517,0.9072960801945844,0.32461365150759663,0.11973676686943453,0.23896214507344374
600.9333333331155,-0.19957943,-0.9004953,-0.30659726,-2.4585648,0.2694634,1.7937655,1.0281104,0.04,0.04,0.0001159612522005915,0.007734540218895525,-0.02274286590253638,0.4041886021161952,-0.1685168871904531,0.29799223681520365,0.9053509521257933,0.3277882446486577,0.12095149301537601,0.24138197217775595
600.9499999997821,-0.20163034,-0.9016879,-0.3097452,-2.4596138,0.27222964,1.7960533,1.0305959,0.04,0.04,0.00028388205746132655,0.0070639795529015,-0.022633894876333827,0.4040741538584068,-0.16863912780129997,0.2982162787435887,0.903386132224334,0.330955000007559,0.12216412756457204,0.24379952832428092
600.9666666664488,-0.20368083,-0.9028804,-0.31289253,-2.4606626,0.27499524,1.7983406,1.033081,0.04,0.04,5.9528409401821136e-05,0.006539786876236242,-0.02273184825294372,0.4039057257035768,-0.16874341380549712,0.29840456054789,0.9014018893585014,0.33411350401436724,0.1233743973245876,0.24621445607632453
600.9833333331154,-0.20573068,-0.9040724,-0.31603885,-2.461711,0.27776012,1.8006266,1.0355655,0.04,0.04,-0.00016770038557822886,0.005579354784279733,-0.022778673059975496,0.4036826528339335,-0.1688301028966869,0.2985580514239479,0.8993985214263369,0.3372632112118425,0.12458193037314191,0.24862656463800584
600.9999999997821,-0.2077796,-0.90526396,-0.31918383,-2.4627583,0.28052372,1.8029121,1.0380492,0.04,0.04,0.0005945666543105688,0.005655369388990472,-0.02233934638513624,0.4034055306262575,-0.16889971594057634,0.2986747845397013,0.8973762005095552,0.34040384186155037,0.1257871237235743,0.25103541325932743
601.0166666664487,-0.2098274,-0.90645486,-0.3223269,-2.4638054,0.28328565,1.8051963,1.0405313,0.04,0.04,-0.0013641468774583387,0.004161928702073325,-0.02256133349143319,0.40307057423654924,-0.16894779149900768,0.29875711228981977,0.8953354662235886,0.34353456440853486,0.12698922983959082,0.253440607408472
601.0333333331154,-0.21187375,-0.9076451,-0.32546788,-2.4648519,0.28604585,1.8074788,1.0430113,0.04,0.04,-0.0007792127731054421,0.0036539625640208406,-0.02255363934771104,0.40268235882458314,-0.1689838709886629,0.2988096073274047,0.8932765580709162,0.3466548857492136,0.12818827939112343,0.2558420333211886
601.049999999782,-0.21391842,-0.9088343,-0.3286062,-2.465897,0.28880373,1.8097594,1.0454898,0.04,0.04,-0.0007353123106401682,0.0030873320954749595,-0.022199854769278105,0.4022431836959351,-0.1689915955448198,0.29881471108605573,0.8911997447914227,0.34976463872071223,0.12938403972594328,0.25823919657648436
601.0666666664487,-0.21596114,-0.91002226,-0.33174163,-2.4669416,0.29155904,1.8120376,1.0479659,0.04,0.04,-0.002112793814701419,0.0021416484203062858,-0.02234782320937878,0.4017481008580197,-0.16898662377129375,0.2987900874360196,0.8891054455774153,0.3528631774124972,0.13057602204099425,0.26063189969551326
601.0833333331153,-0.21800174,-0.911209,-0.33487374,-2.4679852,0.29431143,1.8143138,1.0504391,0.04,0.04,-0.0017844400233446578,0.001772617571127455,-0.02194825895849295,0.4011999950282664,-0.16896436715110447,0.2987282875089864,0.8869939840859902,0.3559500134403423,0.1317644708349301,0.2630197413744326
601.099999999782,-0.22003993,-0.9123944,-0.33800206,-2.469027,0.29706055,1.8165876,1.0529096,0.04,0.04,-0.0008913067979676725,0.0012832784376137774,-0.02181857879708371,0.40059704673618923,-0.16892912914137564,0.2986373355853506,0.8848656383654893,0.35902481331386354,0.13294944025475455,0.265402395996962
601.1166666664486,-0.22207542,-0.9135783,-0.34112635,-2.470068,0.29980603,1.8188579,1.0553769,0.04,0.04,-0.0031056230259451922,-0.00020146879844418208,-0.02213138868967235,0.39994103839407613,-0.1688620047774898,0.2984971945544229,0.882720915631207,0.36208701076828237,0.1341299304549069,0.2677796547466874
601.1333333331153,-0.22410803,-0.9147605,-0.3442461,-2.4711068,0.30254754,1.821125,1.0578406,0.04,0.04,-0.0011528682276829016,-0.0001127319413818384,-0.02160422736467993,0.3992325298419746,-0.1687851724247838,0.29832680415395246,0.8805601150834169,0.36513615057005033,0.1353065651515993,0.2701510849469998
601.1499999997819,-0.22613741,-0.9159408,-0.34736106,-2.472144,0.30528495,1.8233889,1.0603004,0.04,0.04,-0.002366099314476955,-0.0010262209071520978,-0.021332684746688813,0.39847002888612737,-0.16868692942202132,0.29812167696908287,0.8783835873486439,0.3681718324509608,0.1364789882290926,0.27251653351345934
601.1666666664486,-0.22816342,-0.91711926,-0.35047075,-2.4731798,0.30801773,1.825649,1.0627561,0.04,0.04,-0.0037516524682867924,-0.002254134700596655,-0.021441279577816275,0.39765341678078264,-0.1685756744624739,0.2978870326356906,0.8761917958132595,0.3711936689130506,0.1376465974555479,0.27487562881658756
601.1833333331152,-0.23018573,-0.91829556,-0.3535748,-2.4742131,0.3107455,1.827905,1.0652074,0.04,0.04,-0.0017488259940190432,-0.0021668849116029953,-0.021041970070356797,0.39678676050209716,-0.16843499598090994,0.2975997732479214,0.873985101708402,0.3742011654426559,0.1388098388019187,0.27722798997377124
601.1999999997819,-0.23220417,-0.9194697,-0.35667285,-2.4752448,0.31346804,1.8301562,1.067654,0.04,0.04,-0.003943461279520832,-0.003844443717970769,-0.02128582799600931,0.3958644400113529,-0.16828583287119153,0.2972918676848662,0.87176399306469,0.377193900316491,0.1399678159180197,0.27957344735700396
601.2166666664485,-0.23421842,-0.92064154,-0.35976458,-2.4762747,0.31618494,1.8324032,1.0700957,0.04,0.04,-0.004072172925262407,-0.004074962100852897,-0.02060296968291464,0.39489452123544544,-0.16810861935789967,0.29693031867205955,0.8695288093124274,0.38017154881683485,0.14112074916449122,0.28191164821832776
601.2333333331152,-0.2362283,-0.9218108,-0.36284944,-2.4773018,0.31889597,1.8346454,1.0725323,0.04,0.04,-0.00254945219135827,-0.004445291881793878,-0.020325627358208642,0.3938688109186331,-0.16792684079594533,0.29654770283420967,0.8672799130256444,0.38313376195516446,0.14226877096977497,0.2842422729276274
601.2499999997818,-0.23823357,-0.9229774,-0.3659273,-2.478327,0.32160076,1.836882,1.0749629,0.04,0.04,-0.004962393312668567,-0.005887623352451854,-0.02052320104721783,0.392792491902774,-0.1677094774200517,0.2961124120387536,0.8650179614882453,0.3860798268440163,0.14341104546025607,0.2865651158930743
601.2666666664485,-0.24023391,-0.92414117,-0.36899763,-2.4793496,0.32429892,1.8391132,1.0773875,0.04,0.04,-0.003885077593634989,-0.00617460662010183,-0.019929125374162915,0.39166669238722984,-0.16748243005726454,0.2956464101676006,0.86274329769062,0.38900949684150443,0.14454788480871608,0.2888797719715937
601.2833333331151,-0.2422291,-0.925302,-0.37206,-2.480369,0.32699016,1.8413389,1.0798056,0.04,0.04,-0.0033943017908377726,-0.006730867500559512,-0.019609292470201822,0.39048982727228343,-0.167237457009354,0.29514500228707885,0.8604563874994082,0.3919222864881258,0.1456793592787408,0.29118593861229497
601.2999999997818,-0.24421893,-0.9264599,-0.37511438,-2.4813862,0.3296741,1.8435584,1.0822175,0.04,0.04,-0.005194797421426145,-0.007666719879950712,-0.01969511572510463,0.38926284744089684,-0.16697105051393293,0.29460754007432977,0.858157598001345,0.39481809472156304,0.14680479005169422,0.2934834964540168
601.3166666664484,-0.24620315,-0.92761433,-0.37815988,-2.4824002,0.33235052,1.8457718,1.0846224,0.04,0.04,-0.004515653705761125,-0.008523809191673948,-0.018835667799077527,0.38798289880317327,-0.16669525728875684,0.2940408795077501,0.8558475282687495,0.3976963240992948,0.14792426923453453,0.29577196068189027
601.3333333331151,-0.24818154,-0.92876524,-0.3811965,-2.4834113,0.33501902,1.8479788,1.0870205,0.04,0.04,-0.00532704091638081,-0.008947978843576454,-0.018714782384399165,0.3866580181973286,-0.16638309320574526,0.2934190132710792,0.8535264965069267,0.40055690871421523,0.14903751971617885,0.29805117070525466
601.3499999997817,-0.25015384,-0.9299126,-0.38422382,-2.484419,0.3376793,1.8501787,1.0894113,0.04,0.04,-0.004933889337088715,-0.009850068229266817,-0.018681673055720438,0.38527980597755856,-0.16606351863531488,0.2927687313675741,0.8511950938129598,0.40339924486620504,0.1501444137759608,0.30032085595575153
601.3666666664484,-0.25211978,-0.93105656,-0.38724124,-2.4854238,0.340331,1.8523722,1.0917945,0.04,0.04,-0.005124778664633567,-0.0105796537169911,-0.017947718430044723,0.3838533803668438,-0.16572253468847317,0.29207907362051594,0.8488537475648682,0.40622306838669126,0.15124514102625375,0.302580635982426
601.383333333115,-0.2540792,-0.93219674,-0.3902486,-2.486425,0.34297395,1.8545583,1.0941696,0.04,0.04,-0.005061864080291301,-0.011151065248382608,-0.01781722223219706,0.382376754341228,-0.16536423932224192,0.29135569553273105,0.8465029758704425,0.40902793746123095,0.15233945932146473,0.30483035831809807
601.3999999997817,-0.2560318,-0.9333329,-0.39324558,-2.487423,0.3456077,1.8567367,1.0965364,0.04,0.04,-0.006645764571855395,-0.012337614208568493,-0.01759405437000705,0.3808515875705696,-0.1649846606019662,0.2905941886295761,0.8441433660625395,0.4118135387144885,0.15342671937604815,0.307069745571848
601.4166666664484,-0.2579774,-0.9344651,-0.3962318,-2.488417,0.34823194,1.8589071,1.0988947,0.04,0.04,-0.005055894819205875,-0.012416744985299655,-0.017166125278644806,0.37928016368023676,-0.16458975797487127,0.2897958849205928,0.8417753123139458,0.4145795891520161,0.15450735563103482,0.3092985045117574
601.433333333115,-0.25991568,-0.935593,-0.39920685,-2.4894073,0.35084635,1.861069,1.1012442,0.04,0.04,-0.006664501720088367,-0.013869798891297247,-0.016829546323737787,0.3776609991720431,-0.16417312972743925,0.28895881406749147,0.8393994634917679,0.41732570008819936,0.15558065963343193,0.3115163865411461
601.4499999997817,-0.26184654,-0.9367167,-0.40217048,-2.4903936,0.35345075,1.8632226,1.1035848,0.04,0.04,-0.005701640921396134,-0.01382393903518464,-0.016390614926908853,0.3759966662382296,-0.16374056920355265,0.2880848867727165,0.8370161231877705,0.4200517419740369,0.15664705043235733,0.31372319834391366
601.4666666664483,-0.26376963,-0.9378358,-0.40512228,-2.4913764,0.3560447,1.8653681,1.1059158,0.04,0.04,-0.00700964320268227,-0.014849310879616606,-0.01565892090673593,0.3742839563238013,-0.16328797214970495,0.28717315780330455,0.8346259356812071,0.4227573064870263,0.15770623222792413,0.3159185838417488
601.483333333115,-0.26568472,-0.9389503,-0.40806174,-2.4923544,0.35862783,1.8675048,1.1082375,0.04,0.04,-0.005413806359610973,-0.015197508736963794,-0.01540691407173611,0.3725256118084386,-0.1628159609246075,0.28622500026165065,0.8322293686163215,0.4254421873129973,0.15875832095223139,0.31810221438279784
601.4999999997816,-0.2675917,-0.94006014,-0.41098872,-2.493329,0.36120003,1.8696319,1.1105491,0.04,0.04,-0.008372883690377364,-0.017102327337115142,-0.015367039771874147,0.37071954820501796,-0.16232493030741152,0.28524065413663985,0.8298271117149237,0.4281059266145356,0.15980233852945552,0.32027409021164144
601.5166666664483,-0.2694903,-0.9411651,-0.41390285,-2.494299,0.36376083,1.87175,1.1128503,0.04,0.04,-0.005989865518385429,-0.016304998911731428,-0.014506404184477795,0.3688716592165313,-0.1618175411033972,0.2842166499576442,0.8274195529698661,0.43074832641964445,0.16083919238094233,0.322433740238314
601.5333333331149,-0.27138036,-0.9422651,-0.4168037,-2.4952648,0.36631006,1.8738583,1.1151415,0.04,0.04,-0.007689351126627386,-0.01800843777199912,-0.014285603371044786,0.3669780881026802,-0.1612892841357447,0.28315841648163353,0.825007194419201,0.4333693400692403,0.1618680374038121,0.3245810880374085
601.5499999997816,-0.27326137,-0.94336,-0.4196909,-2.4962256,0.36884734,1.8759569,1.1174217,0.04,0.04,-0.006323691900522732,-0.018227543182014472,-0.013565469272891484,0.36503942966500325,-0.16074467091519143,0.2820609738102857,0.8225907271752811,0.4359683122597664,0.16288932527931066,0.3267157694092284
601.5666666664482,-0.27513346,-0.94444966,-0.4225643,-2.4971817,0.37137225,1.8780451,1.1196911,0.04,0.04,-0.007226876398513937,-0.018806813022809177,-0.013575665144438531,0.36305900288769394,-0.16017765049632654,0.2809269220484433,0.8201705852376963,0.43854529728244546,0.16390264124935638,0.3288375853423559
601.5833333331149,-0.27699623,-0.94553405,-0.42542332,-2.4981337,0.37388468,1.8801234,1.1219493,0.04,0.04,-0.008437817114614887,-0.02013843473870347,-0.01253998984152016,0.36103386464806364,-0.159593993873919,0.2797578865402428,0.8177473588369414,0.4411000034316223,0.16490778945399007,0.33094631749760867
601.5999999997815,-0.27884942,-0.9466129,-0.42826784,-2.4990802,0.3763844,1.8821908,1.1241958,0.04,0.04,-0.006611842400383594,-0.02013883712512765,-0.01235687073404268,0.3589672770900396,-0.15899266900660147,0.27855095804338326,0.8153216029813367,0.4436320339551517,0.16590497603495338,0.33304180081125007
601.6166666664482,-0.28069296,-0.9476861,-0.4310975,-2.5000215,0.37887093,1.8842477,1.1264305,0.04,0.04,-0.007256601787863914,-0.020542486137142824,-0.011810601787165531,0.3568587188878869,-0.15837032190916836,0.27730848162272836,0.8128938112346111,0.44614135095958346,0.166894145415077,0.33512369484504867
601.6333333331148,-0.2825265,-0.9487536,-0.43391195,-2.500958,0.38134408,1.8862933,1.128653,0.04,0.04,-0.00835722754959356,-0.02212915044738084,-0.011333919804079606,0.35470791146738173,-0.15772812514294715,0.2760306152541266,0.8104646708580922,0.4486275792814316,0.16787479852991974,0.3371918807111259
601.6499999997815,-0.28434992,-0.9498151,-0.43671075,-2.5018895,0.38380355,1.8883276,1.1308637,0.04,0.04,-0.008441705907902275,-0.022553038443284823,-0.01066304076475788,0.3525180846418645,-0.15706876575950512,0.27471647258789733,0.8080346160886938,0.45109079424014104,0.16884678927635066,0.33924609991164806
601.6666666664481,-0.28616306,-0.95087063,-0.43949375,-2.502815,0.38624904,1.8903503,1.1330616,0.04,0.04,-0.00687106186467723,-0.022394764017319435,-0.010425844299888354,0.3502873667288249,-0.15639358302134426,0.27336410704629155,0.8056042005988494,0.4535306042112254,0.16981060972174838,0.3412861260690474
601.6833333331148,-0.28796563,-0.9519201,-0.44226053,-2.5037358,0.38868034,1.8923614,1.1352469,0.04,0.04,-0.009195752574608917,-0.024145165732192275,-0.009641424561723788,0.34801630731645883,-0.155696131999708,0.2719776364416608,0.8031740564489007,0.4559468772574325,0.1707655477159573,0.34331182309947167
601.6999999997814,-0.28975743,-0.95296335,-0.4450108,-2.5046508,0.391097,1.8943605,1.1374193,0.04,0.04,-0.007845911063242283,-0.024057522037090884,-0.009234081732056865,0.3457070944663755,-0.1549833164556983,0.27055455610503926,0.8007446609753103,0.45833951710222975,0.17171189186918945,0.34532289407558
601.7166666664481,-0.29153827,-0.9540001,-0.44774428,-2.50556,0.393499,1.8963473,1.1395782,0.04,0.04,-0.007909285769125418,-0.024780369865384788,-0.008625450177501826,0.34335830275369655,-0.154250088469551,0.26909511937928554,0.7983167001629141,0.4607081146329028,0.17264953805982083,0.347319185131087
601.7333333331147,-0.29330802,-0.9550305,-0.45046064,-2.5064633,0.39588588,1.898322,1.1417236,0.04,0.04,-0.008159561146348082,-0.025188838342926623,-0.008088404785944192,0.34097236576107237,-0.1534981267025283,0.26760233508232245,0.7958905882338263,0.46305273646426215,0.17357856144414882,0.34930046925355307
601.7499999997814,-0.29506636,-0.95605433,-0.4531596,-2.5073617,0.39825737,1.9002838,1.1438555,0.04,0.04,-0.010023790778612707,-0.0268946453365837,-0.00754491717862571,0.3385479557255382,-0.1527276201607652,0.2660749530551812,0.7934670419366526,0.46537319288352674,0.17449813457974422,0.35126663054420626
601.766666666448,-0.29681313,-0.9570714,-0.45584074,-2.5082538,0.40061334,1.9022328,1.1459733,0.04,0.04,-0.00804047355535964,-0.02666775884938577,-0.0069013252039118456,0.3360884772769406,-0.15194123740501211,0.2645102827532211,0.7910465492427233,0.46766927951171,0.17540882459432952,0.353217420559368
601.7833333331147,-0.29854813,-0.9580817,-0.4585038,-2.5091393,0.40295342,1.9041685,1.1480769,0.04,0.04,-0.007474612945390646,-0.026992834247385744,-0.00649835821713296,0.33359349765765683,-0.15113753568050262,0.2629109757801758,0.788629703227158,0.46994077878887147,0.17631072798700823,0.3551526190468613
601.7999999997813,-0.30027127,-0.95908505,-0.46114868,-2.5100186,0.4052774,1.9060911,1.1501659,0.04,0.04,-0.008531602393757609,-0.02753788849272354,-0.00585064451805728,0.3310626316898438,-0.15031170392019488,0.2612796428294701,0.7862169824333443,0.4721877203058842,0.177203640652075,0.3570720978533449
601.816666666448,-0.30198225,-0.96008146,-0.4637749,-2.5108917,0.4075851,1.908,1.1522402,0.04,0.04,-0.008625445835974688,-0.02878149090227433,-0.005311193550361359,0.32849680606011256,-0.1494694870722385,0.2596145478028677,0.7838090648906534,0.47440981868376836,0.17808733749633193,0.35897572892208324
601.8333333331146,-0.30368102,-0.9610707,-0.46638224,-2.5117586,0.4098762,1.9098954,1.1542996,0.04,0.04,-0.008891280358369613,-0.02885776405097129,-0.00464451496322571,0.32589829029171247,-0.14860641564737123,0.25791488189223166,0.7814063713135672,0.47660721402226147,0.1789618389783117,0.3608632796531155
601.8499999997813,-0.30536714,-0.9620527,-0.46897045,-2.51262,0.41215047,1.9117767,1.1563438,0.04,0.04,-0.010548650470720844,-0.030614245229876325,-0.003927291043970271,0.323265312979643,-0.14772629551440908,0.256180971377702,0.7790096868459037,0.4787795855522017,0.17982646259519006,0.3627346958993716
601.8666666664479,-0.30704075,-0.96302724,-0.47153917,-2.5134747,0.41440752,1.9136437,1.1583728,0.04,0.04,-0.008679814112655393,-0.029905971532684372,-0.0035595333604643287,0.32060326050504256,-0.1468320418947214,0.25441306606855796,0.77661940630846,0.4809270229244696,0.18068176735866162,0.36458962589499483
601.8833333331146,-0.30870143,-0.9639943,-0.47408828,-2.5143228,0.4166473,1.9154967,1.1603863,0.04,0.04,-0.0085999211104415,-0.030457911123016324,-0.0028043896808771507,0.3179082953065532,-0.14592023781525587,0.2526112793575864,0.7742359881739043,0.4830494499506833,0.18152779295431007,0.36642806102133796
601.8999999997812,-0.31034908,-0.96495396,-0.4766174,-2.5151637,0.41886944,1.9173353,1.1623838,0.04,0.04,-0.007877299293657103,-0.03082432224156273,-0.002390697995369173,0.31518061331199154,-0.1449917576152866,0.25077762155948014,0.7718601354654453,0.48514654292338405,0.18236476166435753,0.36824972080349977
601.9166666664479,-0.3119836,-0.9659059,-0.47912616,-2.5159984,0.4210738,1.919159,1.1643654,0.04,0.04,-0.009917268852932537,-0.03229893947528373,-0.0015675849294627398,0.31242270559216767,-0.14404207597352264,0.24891319250917318,0.7694923911057008,0.48721845572180444,0.18319191261909287,0.3700545359611877
601.9333333331145,-0.31360468,-0.96685016,-0.4816144,-2.5168257,0.42326003,1.9209682,1.1663312,0.04,0.04,-0.0078059034664068605,-0.03170548889710467,-0.0011205713389195182,0.3096359251641777,-0.14307641320789824,0.2470148119680451,0.7671331386115783,0.48926517378192047,0.18400987510349504,0.3718423096320429
601.9499999997812,-0.3152122,-0.96778643,-0.48408195,-2.517646,0.42542815,1.9227619,1.1682798,0.04,0.04,-0.009149944458508585,-0.0329872459985614,-0.0004151587671641366,0.3068173730582271,-0.1420908060874926,0.2450859343368869,0.7647832570319085,0.4912862174762436,0.18481822047044277,0.3736129650637002
601.9666666664478,-0.31680608,-0.96871483,-0.4865285,-2.5184596,0.42757776,1.9245403,1.1702123,0.04,0.04,-0.009039227811458161,-0.0333259916513895,1.8518270517020596e-05,0.3039744850060444,-0.1410881381201584,0.24312664366327164,0.762442962424862,0.4932820584950638,0.18561683707782317,0.37536639381928905
601.9833333331145,-0.3183861,-0.9696351,-0.48895377,-2.5192661,0.42970863,1.9263033,1.1721277,0.04,0.04,-0.00929172039509929,-0.033778120269933876,0.0008296220666448306,0.30110201992492347,-0.14006937729265406,0.24113553289064965,0.7601129793311336,0.49525240307652524,0.18640579895404982,0.377102365433548
601.9999999997812,-0.31995216,-0.9705474,-0.49135754,-2.5200658,0.43182054,1.9280506,1.1740266,0.04,0.04,-0.009258194003836095,-0.0343736453767618,0.001332866953807077,0.29820386405413635,-0.13903481521634414,0.23911430618524301,0.7577936818005993,0.497197450117295,0.18718496017640357,0.3788208311375055
602.0166666664478,-0.32150394,-0.9714514,-0.49373955,-2.520858,0.4339133,1.9297823,1.175908,0.04,0.04,-0.008615046066129395,-0.03459975493923517,0.002047817336303659,0.29527870487503954,-0.1379834324481242,0.23705996070045166,0.7554857900472063,0.49911684301100906,0.18795459516428195,0.3805215739167794
602.0333333331145,-0.32304144,-0.9723471,-0.49609965,-2.5216427,0.43598676,1.931498,1.177772,0.04,0.04,-0.00831165026644598,-0.03465898506443965,0.0025220963823402442,0.2923290257012186,-0.13691463192669528,0.23498018369240403,0.753189620271846,0.5010108118706245,0.18871472219897908,0.3822045472372774
602.0499999997811,-0.32456428,-0.97323424,-0.49843746,-2.52242,0.43804073,1.9331974,1.179619,0.04,0.04,-0.009052819128330114,-0.03601562516789558,0.0033996027471117074,0.289353974430424,-0.13582576825889256,0.23286802324585273,0.7509058185753733,0.5028793096532034,0.18946483332496344,0.3838696764339562
602.0666666664478,-0.32607272,-0.974113,-0.50075287,-2.5231898,0.440075,1.9348805,1.1814479,0.04,0.04,-0.008809648796059832,-0.0357443091011822,0.0036368565980771095,0.28635567928953176,-0.1347253429840326,0.23072676288271132,0.748634863069767,0.504722287684064,0.19020535047197215,0.3855167684593116
602.0833333331144,-0.32756636,-0.9749833,-0.503046,-2.523952,0.44208932,1.9365468,1.1832588,0.04,0.04,-0.008739992393014262,-0.036209014051302724,0.004071530249150079,0.2833394749042918,-0.13354886069585964,0.22851955211035269,0.7463772548229948,0.5065397223482487,0.19093607640817165,0.38714586126175016
602.0999999997811,-0.32904512,-0.9758447,-0.505316,-2.5247066,0.44408357,1.9381967,1.1850516,0.04,0.04,-0.008813296351117827,-0.036791827179361025,0.005326646477898933,0.2802893730325505,-0.13247654189671756,0.22636400748925894,0.74413355046544,0.5083316926751603,0.19165704994443525,0.38875663917199
602.1166666664477,-0.3305089,-0.9766976,-0.5075627,-2.5254533,0.44605747,1.9398302,1.1868261,0.04,0.04,-0.007818268949844054,-0.03700189871093107,0.005658362834282116,0.27723130811736785,-0.13125033178900392,0.22409093986967854,0.7419042141212774,0.510098150909821,0.19236867480010536,0.3903489547355322
602.1333333331144,-0.33195743,-0.97754174,-0.50978637,-2.5261922,0.44801086,1.941447,1.1885824,0.04,0.04,-0.008446116385085745,-0.03702323287696485,0.006149576768410547,0.27414234481161004,-0.1300961658469295,0.2218517642125543,0.7396895801763786,0.5118393092834607,0.193070652564853,0.39192291278886016
602.149999999781,-0.33339077,-0.97837704,-0.5119865,-2.5269234,0.44994378,1.9430461,1.1903204,0.04,0.04,-0.008961454477685038,-0.038561117463842276,0.006679271606402359,0.27103303726293443,-0.1289009823277564,0.21957150532217323,0.7374903160878198,0.5135550589960325,0.1937624794115534,0.393478508470992
602.1666666664477,-0.33480868,-0.9792032,-0.5141628,-2.527647,0.4518558,1.9446282,1.1920396,0.04,0.04,-0.00901028950370808,-0.03838433763846405,0.00775320225361309,0.267906238654237,-0.12770102030010488,0.217267266024819,0.7353069185392304,0.5152454966892686,0.19444447181022315,0.3950153934623482
602.1833333331143,-0.336211,-0.9800204,-0.51631546,-2.5283628,0.4537469,1.9461931,1.1937399,0.04,0.04,-0.008564719452053282,-0.038384845117622746,0.007930613408779763,0.2647618890872595,-0.1264810470268391,0.2149339217405406,0.733139737400729,0.516910641130437,0.1951167230638797,0.396533704634201
602.199999999781,-0.33759767,-0.98082846,-0.51844394,-2.5290709,0.45561683,1.94774,1.1954212,0.04,0.04,-0.009190865632557887,-0.03970438644143037,0.008671134942672687,0.261597737512818,-0.12526135187525517,0.2125851347058219,0.7309894620815293,0.5185504716960748,0.19577879444320306,0.3980332627757392
602.2166666664476,-0.33896858,-0.98162746,-0.52054834,-2.5297706,0.4574654,1.9492704,1.1970834,0.04,0.04,-0.00733323306878475,-0.0380197511205882,0.00921761316854397,0.25842109644382993,-0.12400688066634917,0.21019760760822476,0.728856143521048,0.5201652595393603,0.19643182879899054,0.3995139064596618
602.2333333331143,-0.34032354,-0.9824172,-0.5226283,-2.530462,0.45929262,1.9507822,1.1987264,0.04,0.04,-0.008055853620581033,-0.04005424713794392,0.009624237542116276,0.2552219225793436,-0.12275694756943067,0.20780287623101962,0.7267405625869182,0.5217548316996407,0.1970748101749747,0.40097577169129167
602.2499999997809,-0.34166247,-0.98319775,-0.52468365,-2.5311446,0.46109825,1.9522756,1.2003502,0.04,0.04,-0.007055732152938532,-0.0397324656103204,0.010113379458287497,0.25200995835862305,-0.12148210948334356,0.20537620502281737,0.7246431101179241,0.5233192425123739,0.19770816826065932,0.40241870430922105
602.2666666664476,-0.34298536,-0.98396885,-0.5267142,-2.5318193,0.46288207,1.9537522,1.2019541,0.04,0.04,-0.008402060855061677,-0.03961301476460566,0.011237355579662989,0.24878439983847866,-0.12019445668837828,0.2029287157232859,0.7225641186413588,0.5248587772939174,0.19833214165708785,0.4038424444449631
602.2833333331142,-0.3442921,-0.9847306,-0.5287201,-2.5324855,0.46464416,1.9552101,1.2035384,0.04,0.04,-0.007516171200228072,-0.04024235427431133,0.011125250421106792,0.24554232791953656,-0.11889473433767757,0.20046281423770712,0.720504028367639,0.5263733712458167,0.19894639719169438,0.4052472704334511
602.2999999997809,-0.34558254,-0.9854827,-0.5307008,-2.533144,0.46638417,1.9566499,1.205103,0.04,0.04,-0.009266123512885471,-0.04119217564256816,0.012403374250480326,0.24228716781458243,-0.11757705010758598,0.1979735640659009,0.7184633742238355,0.5278632572333912,0.19955057720812053,0.40663291639728494
602.3166666664475,-0.3468565,-0.9862251,-0.5326565,-2.5337937,0.46810216,1.9580715,1.2066479,0.04,0.04,-0.00709932414295622,-0.04035376507769417,0.0125638609034473,0.23902083232905547,-0.11626285130918161,0.19546940159650147,0.7164423775396943,0.5293284776064814,0.20014526953792403,0.40799945286932243
602.3333333331142,-0.34811413,-0.9869581,-0.5345869,-2.534435,0.46979785,1.9594753,1.2081726,0.04,0.04,-0.007497318757421212,-0.04049603806478563,0.013048392081826954,0.23574137163091596,-0.11493186114572886,0.19294345707739136,0.7144414366952073,0.5307691657533318,0.2007306896020189,0.40934669471036184
602.3499999997808,-0.34935513,-0.9876814,-0.5364917,-2.5350678,0.47147125,1.9608604,1.209677,0.04,0.04,-0.00735458598062344,-0.04159645743591067,0.013771443449206444,0.23244812473870424,-0.11359511857519135,0.1904050073752135,0.7124611897591436,0.5321851859682938,0.20130649135882567,0.4106746613314207
602.3666666664475,-0.3505794,-0.98839515,-0.5383711,-2.5356925,0.47312224,1.9622269,1.2111614,0.04,0.04,-0.008029111717489101,-0.04174372357759193,0.014152862468175265,0.22914718498093833,-0.11225339090058938,0.18785329632927578,0.7105018049527231,0.5335768613910002,0.2018725439225525,0.4119834877240701
602.3833333331141,-0.35178703,-0.98909885,-0.5402248,-2.536308,0.47475064,1.9635746,1.2126261,0.04,0.04,-0.0068621972120652686,-0.041109561449781395,0.014708338662616782,0.22583705804655513,-0.11089904234170023,0.18527977477269303,0.708563525795747,0.5349445370434817,0.20242903573077609,0.41327298204981067
602.3999999997808,-0.35297784,-0.98979306,-0.5420527,-2.5369153,0.4763564,1.9649037,1.2140708,0.04,0.04,-0.007293138521102804,-0.04209567685101723,0.015107106115475055,0.22251552164275612,-0.10952976460292478,0.18268646149302642,0.7066468201214242,0.5362881078351793,0.20297597798194808,0.41454322979529473
602.4166666664474,-0.35415176,-0.9904777,-0.5438548,-2.537514,0.47793952,1.966214,1.215494,0.04,0.04,-0.006909993159665007,-0.04203773876578776,0.015567429521667897,0.21918590922580422,-0.10815878841271745,0.18007989878372194,0.7047523351353931,0.5376072327212337,0.20351373020998462,0.415794145056235
602.4333333331141,-0.35530877,-0.99115264,-0.54563075,-2.5381043,0.47949982,1.9675053,1.2168968,0.04,0.04,-0.0072596326526230825,-0.0424741578789356,0.016209054265203804,0.2158531011427396,-0.10676795346975979,0.17745659039222372,0.702880220829006,0.5389024164014262,0.2040420163179675,0.41702570225463303
602.4499999997807,-0.3564488,-0.99181694,-0.54738086,-2.5386858,0.48103714,1.9687777,1.218279,0.04,0.04,-0.007690023117490341,-0.04178831414253237,0.01694544779036189,0.21251481415579104,-0.10536340765176418,0.1748167501170021,0.7010307199801827,0.5401740548900332,0.20456058589083462,0.41823783517004365
602.4666666664474,-0.35757178,-0.9924715,-0.5491048,-2.5392582,0.48255157,1.970031,1.2196406,0.04,0.04,-0.005859682715447789,-0.042097091076553905,0.01692761221554484,0.20917062574943246,-0.10394730624894793,0.17215748788005614,0.6992041284309423,0.5414220010273475,0.20507008901265225,0.4194306404889996
602.483333333114,-0.35867763,-0.99311644,-0.5508024,-2.5398226,0.48404294,1.9712651,1.2209816,0.04,0.04,-0.007466476953910117,-0.043390686485644814,0.01764151980119255,0.2058208553214445,-0.10252931304759241,0.16949123747830414,0.6974009308383669,0.5426463694305333,0.2055699746396952,0.4206041427949512
602.4999999997807,-0.3597664,-0.9937513,-0.55247384,-2.5403779,0.4855111,1.9724798,1.2223017,0.04,0.04,-0.006275014547174607,-0.04218228133510138,0.017799323692546665,0.20246905949362515,-0.10111228074096834,0.1668152105106288,0.695621312955066,0.5438473814488168,0.2060606614640159,0.4217582464528082
602.5166666664473,-0.360838,-0.99437606,-0.55411875,-2.5409245,0.48695615,1.9736757,1.223601,0.04,0.04,-0.006647999222320067,-0.04270610869808733,0.018720767686253303,0.19911399404770924,-0.09968426277505402,0.16412649303459795,0.6938655571784014,0.5450252157969737,0.206542167890644,0.42289293632076874
602.533333333114,-0.3618923,-0.9949908,-0.55573714,-2.541462,0.48837802,1.9748524,1.2248793,0.04,0.04,-0.0053494655585240025,-0.04243069478301331,0.018840462755109755,0.19575760158305547,-0.09824774865069347,0.1614256903357995,0.6921339759074173,0.5461798802649487,0.20701477940155555,0.4240082297523037
602.5499999997807,-0.36292937,-0.99559546,-0.55732906,-2.5419905,0.48977658,1.97601,1.226137,0.04,0.04,-0.006268786803653725,-0.04266616937034229,0.019334305282181496,0.19239954080525412,-0.09679374372939888,0.15871279557195594,0.690426684965345,0.5473118091219235,0.20747818161898038,0.42510419950352507
602.5666666664473,-0.36394918,-0.9961902,-0.5588948,-2.5425105,0.49115175,1.9771483,1.2273735,0.04,0.04,-0.006432151912294515,-0.0425731025697762,0.019401423962395192,0.1890394540172916,-0.09533808495117162,0.15599042512731442,0.6887440478248227,0.5484209224140635,0.20793259968110522,0.4261809034133781
602.583333333114,-0.3649516,-0.9967748,-0.5604337,-2.5430217,0.49250367,1.9782668,1.2285889,0.04,0.04,-0.00601635019203961,-0.04360324320357156,0.020326032033302077,0.18568021676134172,-0.09387394257538231,0.15325944805646752,0.6870865109253852,0.5495072921238596,0.2083777557693301,0.42723830973781046
602.5999999997806,-0.3659368,-0.9973494,-0.5619462,-2.543524,0.4938322,1.9793662,1.2297832,0.04,0.04,-0.0058283810757675525,-0.04246752472970572,0.020209844451346548,0.18232477988606127,-0.09241027530334586,0.15052378183179396,0.6854540416140922,0.5505712365285197,0.2088140956248582,0.42827648057152967
602.6166666664473,-0.36690447,-0.99791384,-0.56343186,-2.544017,0.49513736,1.9804462,1.2309566,0.04,0.04,-0.004829612635415259,-0.042860391548582566,0.02099643745607782,0.17897107397906856,-0.09093288755272666,0.14777697588597474,0.6838469699380924,0.5516128532425282,0.2092416846701245,0.4292953519903689
602.6333333331139,-0.36785486,-0.99846804,-0.5648909,-2.5445013,0.49641907,1.9815071,1.232109,0.04,0.04,-0.005787514440891428,-0.04260268698309533,0.021192831404981405,0.1756197024955538,-0.08945093378334797,0.14502722169318474,0.6822653928458783,0.552632487966953,0.2096604230258191,0.4302949848475453
602.6499999997806,-0.36878794,-0.99901223,-0.56632334,-2.5449767,0.49767745,1.9825487,1.2332402,0.04,0.04,-0.005310210051279185,-0.04274335973044607,0.021455785836010932,0.1722714015049037,-0.08796865447900325,0.1422728788567429,0.6807095225858043,0.5536301940206994,0.21007049123635466,0.4312754837007615
602.6666666664472,-0.36970362,-0.9995463,-0.5677293,-2.5454438,0.49891225,1.9835706,1.2343507,0.04,0.04,-0.006513046886214013,-0.04337531530002048,0.021835538562675616,0.16892675556934245,-0.08647946824805966,0.13951401934683003,0.6791796441130463,0.5546062069098016,0.21047134050587818,0.4322369501850307
602.6833333331139,-0.37060192,-1.0000702,-0.56910825,-2.5459023,0.5001237,1.984573,1.2354398,0.04,0.04,-0.005564150029124804,-0.04344240477649475,0.02249667086338114,0.1655909158963924,-0.08498756691469914,0.13674683428961065,0.6776761110452543,0.555560472731012,0.21086340931012398,0.4331792611282145
602.6999999997805,-0.37148288,-1.0005842,-0.5704607,-2.5463514,0.5013118,1.9855562,1.236508,0.04,0.04,-0.004009944433303048,-0.0421557056770272,0.022108137773879655,0.16226256616735907,-0.08349381350887035,0.13397948219650843,0.6761986787561437,0.5564933672031571,0.21124721142991787,0.4341026316096475
602.7166666664472,-0.37234655,-1.001088,-0.57178664,-2.5467916,0.5024764,1.9865203,1.2375553,0.04,0.04,-0.004807542166362921,-0.042087211509489464,0.022593526640779515,0.15894020540039983,-0.0819964989091923,0.13121084207573053,0.674747572140994,0.5574051528981235,0.2116225768262757,0.4350070049894148
602.7333333331138,-0.37319288,-1.0015815,-0.57308596,-2.5472224,0.5036178,1.987465,1.2385813,0.04,0.04,-0.004103537471022989,-0.0422318720412429,0.023016603445769057,0.1556238838127327,-0.08050024740434827,0.1284437440749063,0.67332303254043,0.5582958160708188,0.21198966887491122,0.4358924820396461
602.7499999997805,-0.37402186,-1.0020653,-0.5743587,-2.5476449,0.50473577,1.9883902,1.2395864,0.04,0.04,-0.005329376523688367,-0.0431920375457473,0.023207833375660236,0.152316305854176,-0.0789940146828665,0.12567495695975756,0.6719253134542607,0.559165523410363,0.21234812083888213,0.43675916263405834
602.7666666664471,-0.37483367,-1.0025387,-0.5756049,-2.5480587,0.5058304,1.9892963,1.2405704,0.04,0.04,-0.005277585564567033,-0.042261989046232795,0.023696602039802173,0.14902140301637656,-0.07748939481904354,0.1229070180686598,0.6705543586363515,0.5600147011496049,0.21269809984804053,0.4376070211172837
602.7833333331138,-0.37562817,-1.003002,-0.5768246,-2.5484633,0.5069018,1.990183,1.2415339,0.04,0.04,-0.0035837153101070385,-0.042096536642755034,0.02358015529815294,0.145736903489188,-0.07598781262239103,0.12014168563410438,0.6692102561511527,0.5608433928381328,0.21303989557663625,0.438436226451027
602.7999999997804,-0.3764056,-1.0034559,-0.5780179,-2.5488591,0.50795007,1.9910505,1.2424762,0.04,0.04,-0.003671304434060829,-0.0421055363403422,0.023494021424119715,0.1424631295492188,-0.07448863929726522,0.11738115764118076,0.6678931290773301,0.5616516354689077,0.2133737842143409,0.43924689721891713
602.8166666664471,-0.37716573,-1.0038995,-0.579185,-2.5492468,0.50897527,1.991899,1.2433981,0.04,0.04,-0.005619778999355063,-0.04229664137164191,0.02453235527981601,0.13920199177966303,-0.07298281698927025,0.11462403425240908,0.6666029325458305,0.5624400011318856,0.21369909723220085,0.4400391701771625
602.8333333331137,-0.37790877,-1.0043329,-0.5803258,-2.5496256,0.50997734,1.9927284,1.2442988,0.04,0.04,-0.004155856314680406,-0.041842107428458064,0.0243779456156612,0.1359563298598378,-0.07148033315984731,0.11186785357244354,0.665339993772066,0.5632083602023708,0.21401635319054887,0.44081292659422094
602.8499999997804,-0.3786348,-1.0047563,-0.58144057,-2.5499954,0.51095635,1.9935389,1.2451793,0.04,0.04,-0.0035008147828641256,-0.04089731975696065,0.024177326688690215,0.13272506710241008,-0.06998107188424696,0.10911925461713269,0.6641039485558146,0.5639572513201389,0.21432576229376163,0.4415683772794512
602.866666666447,-0.3793438,-1.0051703,-0.58252925,-2.5503569,0.51191247,1.9943303,1.246039,0.04,0.04,-0.003895855471425236,-0.04202752508698504,0.024449034202278508,0.12950598356571674,-0.06848349810069781,0.10637731054592231,0.6628951653614812,0.5646864630644747,0.21462726186767603,0.4423057049544941
602.8833333331137,-0.38003588,-1.0055745,-0.58359194,-2.55071,0.5128458,1.9951028,1.2468785,0.039999995,0.04,-0.004295038148738328,-0.041576817510324826,0.024846985783866238,0.1263060387379731,-0.06699157997541164,0.10364546765290508,0.6617135167492014,0.5653964819097003,0.21492067469204726,0.4430249920551364
602.8999999997803,-0.3807111,-1.0059687,-0.5846287,-2.551054,0.51375633,1.9958571,1.2476974,0.039999977,0.04,-0.00275521479751184,-0.04012882916299976,0.02477224156625102,0.12312277972246505,-0.06550129160943971,0.10091786846810374,0.6605589806520855,0.5660874512011077,0.21520684731325193,0.443726090670812
602.916666666447,-0.38136962,-1.006353,-0.58563983,-2.5513895,0.5146442,1.9965923,1.2484959,0.039999958,0.04,-0.003833959902355133,-0.0409393197781216,0.024785762265211453,0.11995620280537017,-0.06400997059202107,0.09820249117051763,0.6594316341672748,0.5667595729725068,0.21548508784344436,0.44440936446096896
602.9333333331136,-0.38201138,-1.0067275,-0.5866252,-2.5517166,0.5155095,1.9973087,1.2492741,0.03999993,0.04,-0.003935854224135227,-0.04091486088341201,0.025267120653760244,0.11680814203702056,-0.06252364511591169,0.09549723143906522,0.6583315881440587,0.5674129840344708,0.2157555456660083,0.44507479159707747
602.9499999997803,-0.38263667,-1.0070925,-0.58758515,-2.5520346,0.51635253,1.9980066,1.2500322,0.039999902,0.04,-0.0019682706600576694,-0.03980834463338523,0.02455486470813728,0.11368314761337053,-0.06104540449476363,0.09280439445575875,0.6572585286154823,0.5680478753230226,0.21601886787859326,0.4457226566191827
602.9666666664469,-0.3832453,-1.0074477,-0.5885197,-2.5523448,0.5171733,1.9986861,1.2507702,0.03999988,0.04,-0.004337705293355754,-0.040642943653479424,0.02557237245969235,0.11057683774514973,-0.059570861418565865,0.09012661221906308,0.656212622176864,0.5686645515371971,0.21627440103908238,0.4463530057879624
602.9833333331136,-0.3838376,-1.0077933,-0.58942914,-2.5526464,0.51797193,1.9993473,1.2514887,0.03999985,0.04,-0.0028696404220873717,-0.039329559890333154,0.0249553757860399,0.10749541944589698,-0.05810923235822132,0.08746155790485681,0.6551935044920824,0.5692633987019279,0.2165226081107599,0.4469660107285877
602.9999999997802,-0.3844136,-1.0081297,-0.59031355,-2.5529397,0.5187485,1.9999903,1.2521876,0.039999828,0.04,-0.002644436474996681,-0.0396037881600253,0.024933807224603033,0.10443369372527035,-0.05664961186459058,0.08480978669605771,0.654201257562715,0.5698444222679774,0.21676360107436912,0.4475618284245306
603.0166666664469,-0.3849734,-1.0084565,-0.59117305,-2.5532248,0.5195032,2.000615,1.2528664,0.039999813,0.04,-0.003580996108443202,-0.039608056656581514,0.025302945814198452,0.10139590250099478,-0.05519688415980192,0.08217364279672126,0.6532361054757692,0.5704076974570261,0.21699717325582918,0.4481404645684243
603.0333333331135,-0.38551712,-1.008774,-0.5920078,-2.5535018,0.5202361,2.0012224,1.2535256,0.039999794,0.04,-0.002527253587203404,-0.038398604899236854,0.025164390502374623,0.0983866818941199,-0.053754096711252496,0.07955480597815111,0.6522975453962169,0.5709536772450595,0.21722404556628955,0.4487020444997206
