rsonawane2002/My_IMU/logs_2/traj_272/imu_400hz_272.csv
time,j1,j2,j3,j4,j5,j6,j7,gripper1,gripper2,imu_ax,imu_ay,imu_az,imu_gx,imu_gy,imu_gz
0.0,0.00016700293,-0.785875,4.0107683e-05,-2.3551247,9.29385e-05,1.570997,0.786,0.04,0.04,-9.537924,-0.022593593224883,0.11164577,2.2446115e-07,-0.0011641273740679,7.880786e-07
0.0025,0.0001670031175,-0.785857774,4.010732255e-05,-2.35513919,9.29436345e-05,1.570996565,0.786,0.04,0.04,-9.582391349999964,-0.019110155169621963,0.09626344400001224,2.1356818450000866e-07,-0.0013251610565929218,8.644911499999392e-07
0.005,0.000167003305,-0.785840548,4.01069621e-05,-2.3551536800000004,9.2948769e-05,1.57099613,0.786,0.04,0.04,-9.626858699999929,-0.015626717114360925,0.08088111800002448,2.0267521900001734e-07,-0.0014861947391179436,9.409036999998784e-07
0.0075,0.0001670034925,-0.785823322,4.010660165e-05,-2.3551681700000002,9.295390349999998e-05,1.570995695,0.786,0.04,0.04,-9.671326049999895,-0.012143279059099886,0.06549879200003673,1.91782253500026e-07,-0.0016472284216429655,1.0173162499998175e-06
0.01,0.00016700367999999998,-0.7858060960000001,4.01062412e-05,-2.35518266,9.295903799999999e-05,1.5709952600000001,0.786,0.04,0.04,-9.715793399999859,-0.008659841003838849,0.05011646600004897,1.8088928800003466e-07,-0.0018082621041679873,1.0937287999997568e-06
0.0125,0.0001670038675,-0.7857888700000001,4.010588075e-05,-2.35519715,9.296417249999997e-05,1.570994825,0.786,0.04,0.04,-9.760260749999823,-0.00517640294857781,0.03473414000006121,1.6999632250004332e-07,-0.001969295786693009,1.170141349999696e-06
0.015,0.000167004055,-0.7857716440000001,4.010552030000001e-05,-2.3552116400000003,9.296930699999998e-05,1.57099439,0.786,0.04,0.04,-9.804728099999787,-0.001692964893316773,0.019351814000073464,1.59103357000052e-07,-0.002130329469218031,1.246553899999635e-06
0.0175,0.000167003678,-0.7857548620000001,4.0101915350000056e-05,-2.355225735,9.297385169999999e-05,1.57099396,0.786,0.04,0.04,-9.8342767,0.0006240481336135632,0.009023150200001233,2.3177376599866433e-07,-0.002287105412687224,1.4244788849978782e-06
0.02,0.000167002172,-0.7857389680000001,4.0091821400000066e-05,-2.35523904,9.297721679999998e-05,1.5709935400000001,0.786,0.04,0.04,-9.833987800000001,0.0006082111038268009,0.008801810800001409,4.715709239984734e-07,-0.002435365878044556,1.8054287399975747e-06
0.0225,0.000167000666,-0.7857230740000001,4.008172745000008e-05,-2.355252345,9.298058189999998e-05,1.57099312,0.786,0.04,0.04,-9.833698900000002,0.0005923740740400384,0.008580471400001585,7.113680819982826e-07,-0.002583626343401888,2.1863785949972716e-06
0.025,0.00016699916,-0.7857071800000002,4.007163350000008e-05,-2.3552656499999998,9.298394699999997e-05,1.5709927000000001,0.786,0.04,0.04,-9.833410000000002,0.0005765370442532761,0.00835913200000176,9.511652399980919e-07,-0.0027318868087592204,2.567328449996969e-06
0.0275,0.000166997654,-0.7856912860000002,4.006153955000009e-05,-2.3552789549999997,9.298731209999997e-05,1.57099228,0.786,0.04,0.04,-9.833121100000003,0.0005607000144665136,0.008137792600001937,1.190962397997901e-06,-0.0028801472741165524,2.9482783049966654e-06
0.03,0.00016699614800000002,-0.7856753920000001,4.00514456000001e-05,-2.3552922599999997,9.299067719999996e-05,1.57099186,0.786,0.04,0.04,-9.832832200000002,0.0005448629846797513,0.007916453200002112,1.43075955599771e-06,-0.0030284077394738844,3.329228159996362e-06
0.0325,0.00016699464200000002,-0.7856594980000001,4.0041351650000106e-05,-2.3553055649999997,9.299404229999997e-05,1.57099144,0.786,0.04,0.04,-9.832543300000003,0.0005290259548929889,0.007695113800002289,1.6705567139975193e-06,-0.0031766682048312163,3.7101780149960592e-06
0.035,0.00016698987900000008,-0.7856444400000001,4.00141477000004e-05,-2.3553181,9.29946166e-05,1.57099101,0.786,0.04,0.04,-9.832260300000003,0.0005058408860352693,0.007492276300002156,2.19213768999262e-06,-0.003316750982774695,4.432915369990045e-06
0.0375,0.00016698348750000008,-0.7856298000000002,3.997838875000043e-05,-2.3553302499999997,9.29937955e-05,1.570990575,0.786,0.04,0.04,-9.831980250000003,0.0004789817976418957,0.007298689750002311,2.8546105749920918e-06,-0.0034527449170110515,5.326546474989332e-06
0.04,0.0001669770960000001,-0.7856151600000002,3.994262980000046e-05,-2.3553423999999996,9.299297440000001e-05,1.57099014,0.786,0.04,0.04,-9.831700200000004,0.000452122709248522,0.007105103200002465,3.517083459991565e-06,-0.0035887388512474082,6.2201775799886215e-06
0.0425,0.0001669707045000001,-0.7856005200000002,3.9906870850000483e-05,-2.35535455,9.299215330000001e-05,1.5709897050000001,0.786,0.04,0.04,-9.831420150000003,0.0004252636208551484,0.006911516650002619,4.1795563449910385e-06,-0.0037247327854837654,7.113808684987912e-06
0.045,0.0001669643130000001,-0.7855858800000002,3.9871111900000515e-05,-2.3553667,9.29913322e-05,1.57098927,0.786,0.04,0.04,-9.831140100000004,0.00039840453246177475,0.006717930100002773,4.842029229990511e-06,-0.0038607267197201217,8.0074397899872e-06
0.0475,0.0001669579215000001,-0.7855712400000002,3.983535295000054e-05,-2.3553788499999997,9.299051110000001e-05,1.570988835,0.786,0.04,0.04,-9.830860050000004,0.0003715454440684011,0.006524343550002927,5.5045021149899835e-06,-0.003996720653956479,8.901070894986487e-06
0.05,0.0001669515300000001,-0.7855566000000003,3.979959400000057e-05,-2.355391,9.298969000000001e-05,1.5709884,0.786,0.04,0.04,-9.830580000000005,0.0003446863556750275,0.006330757000003081,6.166974999989457e-06,-0.004132714588192836,9.794701999985778e-06
0.0525,0.00016693540200000026,-0.7855431000000003,3.971532745000141e-05,-2.35540213,9.298311040000011e-05,1.57098798,0.786,0.04,0.03999999925,-9.830306550000005,0.0003067016878054903,0.006161755825002824,7.382542674979685e-06,-0.00425683904904656,1.1537589199970871e-05
0.055,0.00016691927400000028,-0.7855296000000003,3.963106090000147e-05,-2.3554132599999997,9.297653080000012e-05,1.57098756,0.786,0.04,0.0399999985,-9.830033100000005,0.000268717019935776,0.005992754650002959,8.598110349978719e-06,-0.004380963509900097,1.3280476399969487e-05
0.0575,0.0001669031460000003,-0.7855161000000003,3.9546794350001545e-05,-2.3554243899999996,9.296995120000012e-05,1.57098714,0.786,0.04,0.03999999775,-9.829759650000005,0.00023073235206606167,0.005823753475003093,9.813678024977752e-06,-0.004505087970753633,1.50233635999681e-05
0.06,0.0001668870180000003,-0.7855026000000003,3.946252780000161e-05,-2.35543552,9.296337160000013e-05,1.57098672,0.786,0.04,0.039999997,-9.829486200000005,0.00019274768419634748,0.005654752300003228,1.1029245699976782e-05,-0.004629212431607169,1.676625079996671e-05
0.0625,0.00016687089000000033,-0.7854891000000003,3.9378261250001675e-05,-2.3554466499999998,9.295679200000014e-05,1.5709863,0.786,0.04,0.03999999625,-9.829212750000005,0.00015476301632663314,0.005485751125003362,1.2244813374975816e-05,-0.0047533368924607055,1.8509137999965325e-05
0.065,0.00016685476200000031,-0.7854756000000003,3.929399470000174e-05,-2.3554577799999996,9.295021240000014e-05,1.57098588,0.786,0.04,0.0399999955,-9.828939300000005,0.00011677834845691884,0.005316749950003497,1.346038104997485e-05,-0.004877461353314242,2.0252025199963937e-05
0.0675,0.00016683329450000071,-0.7854624300000003,3.9183864500003567e-05,-2.3554685399999995,9.293918595000045e-05,1.570985455,0.786,0.04,0.03999999525,-9.828674250000004,7.486059912590435e-05,0.00515406500500331,1.4890857724958975e-05,-0.004997946321961674,2.2229272999946058e-05
0.07,0.0001668011480000008,-0.7854499200000004,3.902200700000397e-05,-2.3554785599999994,9.29192658000005e-05,1.57098502,0.786,0.04,0.039999996,-9.828426000000006,2.5076686871538313e-05,0.005004012520003685,1.6751152399954323e-05,-0.005111152306196201,2.467524199993994e-05
0.0725,0.00016676900150000088,-0.7854374100000003,3.886014950000438e-05,-2.35548858,9.289934565000054e-05,1.570984585,0.786,0.04,0.03999999675,-9.828177750000007,-2.4707225382827438e-05,0.0048539600350040605,1.861144707494966e-05,-0.005224358290430727,2.7121210999933813e-05
0.075,0.00016673685500000096,-0.7854249000000003,3.8698292000004784e-05,-2.3554985999999998,9.287942550000059e-05,1.5709841500000001,0.786,0.04,0.0399999975,-9.827929500000007,-7.449113763719346e-05,0.0047039075500044355,2.047174174994501e-05,-0.005337564274665254,2.9567179999927696e-05
0.0775,0.00016670470850000104,-0.7854123900000004,3.853643450000519e-05,-2.3555086199999997,9.285950535000064e-05,1.5709837150000001,0.786,0.04,0.03999999825,-9.827681250000008,-0.0001242750498915595,0.004553855065004811,2.2332036424940357e-05,-0.005450770258899781,3.201314899992158e-05
0.08,0.00016667256200000112,-0.7853998800000004,3.837457700000559e-05,-2.3555186399999997,9.283958520000069e-05,1.57098328,0.786,0.04,0.039999999,-9.827433000000008,-0.00017405896214592553,0.004403802580005186,2.4192331099935705e-05,-0.005563976243134308,3.4459117999915465e-05
0.0825,0.0001666404155000012,-0.7853873700000004,3.8212719500006e-05,-2.3555286599999996,9.281966505000074e-05,1.570982845,0.786,0.04,0.03999999975,-9.82718475000001,-0.00022384287440029157,0.004253750095005561,2.6052625774931053e-05,-0.005677182227368835,3.690508699990935e-05
0.085,0.0001665924800000021,-0.7853755000000003,3.7975989800010225e-05,-2.3555382999999996,9.278875090000136e-05,1.57098241,0.78599985,0.04,0.04,-9.826938300000009,-0.0002787912089821349,0.004112796120005086,2.84087855999029e-05,-0.0057832143269440205,4.017757199986257e-05
0.08750000000000001,0.00016653665000000204,-0.7853639500000004,3.770182400000997e-05,-2.35554775,9.275233975000132e-05,1.570981975,0.7859996250000001,0.04,0.04,-9.826692750000008,-0.00033632175472815724,0.0039763914000049624,3.101287799990527e-05,-0.005885659484188924,4.386331499986592e-05
0.09,0.00016648082000000197,-0.7853524000000004,3.7427658200009726e-05,-2.3555572,9.271592860000129e-05,1.57098154,0.7859994,0.04,0.04,-9.82644720000001,-0.00039385230047417927,0.0038399866800048386,3.361697039990763e-05,-0.005988104641433826,4.754905799986926e-05
0.0925,0.00016642499000000193,-0.7853408500000003,3.7153492400009474e-05,-2.3555666499999997,9.267951745000126e-05,1.570981105,0.785999175,0.04,0.04,-9.826201650000009,-0.00045138284622020167,0.0037035819600047147,3.622106279991e-05,-0.00609054979867873,5.1234800999872615e-05
0.095,0.0001663691600000019,-0.7853293000000003,3.687932660000923e-05,-2.3555761,9.264310630000123e-05,1.57098067,0.7859989500000001,0.04,0.04,-9.825956100000008,-0.0005089133919662241,0.0035671772400045904,3.882515519991237e-05,-0.006192994955923633,5.492054399987597e-05
0.0975,0.00016631333000000184,-0.7853177500000004,3.6605160800008975e-05,-2.35558555,9.26066951500012e-05,1.570980235,0.785998725,0.04,0.04,-9.825710550000007,-0.0005664439377122464,0.003430772520004466,4.1429247599914746e-05,-0.006295440113168536,5.860628699987932e-05
0.1,0.0001662575000000018,-0.7853062000000003,3.633099500000873e-05,-2.3555949999999997,9.257028400000117e-05,1.5709798,0.7859985,0.04,0.04,-9.825465000000007,-0.0006239744834582688,0.0032943678000043417,4.403333999991711e-05,-0.00639788527041344,6.229202999988268e-05
0.10250000000000001,0.00016616913350000275,-0.7852954150000003,3.590482475001318e-05,-2.355603745,9.251162890000181e-05,1.570979785,0.785998215,0.04,0.04,-9.825284550000005,-0.0006895927363054161,0.0031783320900035878,4.847503139986266e-05,-0.006491947057654002,6.725693639984648e-05
0.105,0.00016608076700000266,-0.7852846300000003,3.5478654500012795e-05,-2.35561249,9.245297380000176e-05,1.5709797699999999,0.7859979300000001,0.04,0.04,-9.825104100000004,-0.0007552109891528205,0.003062296380003483,5.291672279986668e-05,-0.006586008844894297,7.222184279985097e-05
0.1075,0.00016599240050000258,-0.7852738450000003,3.5052484250012406e-05,-2.355621235,9.239431870000172e-05,1.570979755,0.785997645,0.04,0.04,-9.824923650000004,-0.0008208292420002252,0.0029462606700033775,5.735841419987072e-05,-0.006680070632134593,7.718674919985549e-05
0.11,0.0001659040340000025,-0.7852630600000003,3.462631400001202e-05,-2.35562998,9.233566360000165e-05,1.57097974,0.7859973600000001,0.04,0.04,-9.824743200000004,-0.00088644749484763,0.002830224960003272,6.180010559987476e-05,-0.006774132419374888,8.215165559986002e-05
0.1125,0.0001658156675000024,-0.7852522750000003,3.420014375001163e-05,-2.355638725,9.22770085000016e-05,1.5709797250000002,0.785997075,0.04,0.04,-9.824562750000004,-0.0009520657476950347,0.0027141892500031663,6.62417969998788e-05,-0.0068681942066151835,8.711656199986454e-05
0.115,0.00016572730100000233,-0.7852414900000003,3.3773973500011245e-05,-2.35564747,9.221835340000155e-05,1.57097971,0.78599679,0.04,0.04,-9.824382300000003,-0.0010176840005424394,0.0025981535400030602,7.068348839988285e-05,-0.006962255993855479,9.208146839986906e-05
0.11750000000000001,0.00016562478350000347,-0.7852309500000003,3.3282398050016556e-05,-2.355655875,9.215015720000233e-05,1.570979705,0.7859965050000001,0.04,0.04,-9.824193900000004,-0.0010853624204153801,0.002481651385003124,7.548955919985277e-05,-0.007052821014074227,9.752101569983006e-05
0.12,0.0001654939640000038,-0.7852209000000003,3.266001220001812e-05,-2.3556635999999997,9.206287880000254e-05,1.57097972,0.78599622,0.04,0.04,-9.823989600000006,-0.0011571611743398703,0.0023642163400034184,8.10243887998389e-05,-0.007136392500249067,0.00010390984479981404
0.1225,0.00016536314450000413,-0.7852108500000003,3.203762635001967e-05,-2.355671325,9.197560040000276e-05,1.570979735,0.7859959350000001,0.04,0.04,-9.823785300000006,-0.0012289599282643607,0.0022467812950037118,8.655921839982506e-05,-0.007219963986423908,0.00011029867389979807
0.125,0.00016523232500000447,-0.7852008000000004,3.141524050002123e-05,-2.3556790499999996,9.188832200000298e-05,1.57097975,0.78599565,0.04,0.04,-9.823581000000006,-0.0013007586821888514,0.002129346250004005,9.209404799981123e-05,-0.007303535472598749,0.0001166875029997821
0.1275,0.00016510150550000477,-0.7851907500000004,3.079285465002278e-05,-2.3556867749999997,9.180104360000319e-05,1.570979765,0.785995365,0.04,0.04,-9.823376700000008,-0.0013725574361133418,0.002011911205004299,9.762887759979738e-05,-0.00738710695877359,0.00012307633209976613
0.13,0.0001649706860000051,-0.7851807000000004,3.017046880002434e-05,-2.3556945,9.171376520000341e-05,1.57097978,0.7859950800000001,0.04,0.04,-9.823172400000008,-0.0014443561900378322,0.0018944761600045927,0.00010316370719978354,-0.007470678444948431,0.00012946516119975016
0.1325,0.00016483986650000544,-0.7851706500000004,2.9548082950025896e-05,-2.3557022249999995,9.162648680000362e-05,1.570979795,0.785994795,0.04,0.04,-9.82296810000001,-0.0015161549439623228,0.0017770411150048863,0.00010869853679976971,-0.007554249931123273,0.00013585399029973419
0.135,0.00016467351400000792,-0.7851610100000004,2.8762754400037245e-05,-2.3557097599999994,9.151544160000528e-05,1.57097984,0.785994445,0.04,0.04,-9.82275180000001,-0.0015926107531378947,0.0016781433100038514,0.00011480414699972537,-0.007631225185465544,0.00014327827199965874
0.1375,0.00016448939500000807,-0.7851515750000004,2.7895954500037934e-05,-2.3557171999999995,9.139251300000537e-05,1.5709799,0.7859940625,0.04,0.04,-9.82252950000001,-0.0016713950899394522,0.0015885141250039226,0.00012119514749972029,-0.0077049023238909,0.00015122027999965243
0.14,0.0001643052760000082,-0.7851421400000005,2.7029154600038624e-05,-2.3557246399999996,9.126958440000548e-05,1.5709799599999998,0.78599368,0.04,0.04,-9.82230720000001,-0.0017501794267410094,0.001498884940003994,0.00012758614799971522,-0.007778579462316256,0.00015916228799964612
0.14250000000000002,0.00016412115700000835,-0.7851327050000004,2.6162354700039313e-05,-2.3557320799999997,9.114665580000557e-05,1.57098002,0.7859932975,0.04,0.04,-9.82208490000001,-0.0018289637635425667,0.0014092557550040652,0.00013397714849971014,-0.007852256600741613,0.0001671042959996398
0.145,0.0001639370380000085,-0.7851232700000005,2.529555480004001e-05,-2.3557395199999998,9.102372720000567e-05,1.57098008,0.785992915,0.04,0.04,-9.82186260000001,-0.0019077481003441231,0.0013196265700041374,0.000140368148999705,-0.007925933739166969,0.0001750463039996334
0.1475,0.00016375291900000866,-0.7851138350000004,2.44287549000407e-05,-2.3557469599999994,9.090079860000577e-05,1.5709801399999999,0.7859925325,0.04,0.04,-9.821640300000011,-0.0019865324371456804,0.0012299973850042087,0.00014675914949969991,-0.007999610877592326,0.0001829883119996271
0.15,0.0001635688000000088,-0.7851044000000005,2.356195500004139e-05,-2.3557543999999995,9.077787000000586e-05,1.5709802,0.78599215,0.04,0.04,-9.82141800000001,-0.002065316773947238,0.0011403682000042797,0.00015315014999969483,-0.008073288016017682,0.00019093031999962079
0.1525,0.0001633196935000121,-0.7850954855000004,2.2399047300056453e-05,-2.3557608649999997,9.060972000000815e-05,1.570980275,0.785991577,0.0399999985,0.0399999985,-9.821287200000006,-0.0021469139377546438,0.001060563220003874,0.00016083436049962697,-0.008140469249334594,0.00020058467999953134
0.155,0.0001630705870000123,-0.7850865710000005,2.1236139600057376e-05,-2.3557673299999995,9.044157000000829e-05,1.57098035,0.785991004,0.039999997,0.039999997,-9.821156400000007,-0.002228511101562184,0.0009807582400039377,0.00016851857099962086,-0.008207650482651195,0.00021023903999952366
0.1575,0.00016282148050001248,-0.7850776565000005,2.0073231900058302e-05,-2.3557737949999997,9.027342000000843e-05,1.570980425,0.785990431,0.0399999955,0.0399999955,-9.821025600000006,-0.002310108265369724,0.0009009532600040011,0.00017620278149961475,-0.008274831715967797,0.000219893399999516
0.16,0.00016257237400001267,-0.7850687420000004,1.8910324200059228e-05,-2.3557802599999995,9.010527000000856e-05,1.5709805,0.785989858,0.039999994,0.039999994,-9.820894800000007,-0.002391705429177264,0.0008211482800040645,0.00018388699199960864,-0.008342012949284399,0.00022954775999950832
0.1625,0.0001623232675000129,-0.7850598275000005,1.774741650006015e-05,-2.3557867249999997,8.99371200000087e-05,1.5709805749999999,0.7859892850000001,0.0399999925,0.0399999925,-9.820764000000008,-0.002473302592984804,0.0007413433000041279,0.00019157120249960253,-0.008409194182601,0.00023920211999950062
0.165,0.00016207416100001308,-0.7850509130000004,1.6584508800061076e-05,-2.3557931899999995,8.976897000000883e-05,1.57098065,0.7859887120000001,0.039999991,0.039999991,-9.820633200000007,-0.0025548997567923443,0.0006615383200041914,0.00019925541299959642,-0.008476375415917602,0.00024885647999949294
0.1675,0.0001617992455000174,-0.7850421315000005,1.530461721508071e-05,-2.3557995999999997,8.95837100000117e-05,1.57098073,0.7859880485,0.0399999899,0.0399999899,-9.82047560000001,-0.00263830838957335,0.0005851364655037104,0.00020746767699950585,-0.008540524262931743,0.0002590773889993947
0.17,0.00016147271200001766,-0.7850336160000004,1.3790757860081914e-05,-2.3558058999999996,8.936423000001188e-05,1.57098082,0.7859872040000001,0.0399999896,0.0399999896,-9.820264400000012,-0.002725339960302151,0.0005155408620037658,0.0002167360479994985,-0.008598608337339516,0.00027043139599938564
0.17250000000000001,0.0001611461785000179,-0.7850251005000004,1.2276898505083118e-05,-2.3558121999999995,8.914475000001205e-05,1.57098091,0.7859863595000001,0.0399999893,0.0399999893,-9.820053200000013,-0.0028123715310309516,0.0004459452585038211,0.00022600441899949114,-0.008656692411747291,0.0002817854029993766
0.17500000000000002,0.0001608196450000182,-0.7850165850000005,1.076303915008432e-05,-2.3558185,8.892527000001222e-05,1.570981,0.785985515,0.039999989,0.039999989,-9.819842000000012,-0.0028994031017597526,0.00037634965500387644,0.00023527278999948376,-0.008714776486155065,0.00029313940999936756
0.1775,0.00016049311150001844,-0.7850080695000005,9.24917979508554e-06,-2.3558247999999997,8.87057900000124e-05,1.5709810899999999,0.7859846705000001,0.0399999887,0.0399999887,-9.819630800000013,-0.0029864346724885523,0.00030675405150393253,0.0002445411609994763,-0.008772860560562838,0.0003044934169993584
0.18,0.0001601665780000187,-0.7849995540000005,7.735320440086744e-06,-2.3558310999999996,8.848631000001258e-05,1.57098118,0.785983826,0.0399999884,0.0399999884,-9.819419600000012,-0.003073466243217353,0.00023715844800398787,0.0002538095319994689,-0.008830944634970611,0.0003158474239993494
0.1825,0.00015984004450001897,-0.7849910385000005,6.221461085087947e-06,-2.3558373999999995,8.826683000001274e-05,1.5709812699999999,0.7859829815000001,0.0399999881,0.0399999881,-9.819208400000013,-0.003160497813946154,0.00016756284450404315,0.00026307790299946157,-0.008889028709378386,0.0003272014309993404
0.185,0.00015945316700002456,-0.7849827400000005,4.43526031011321e-06,-2.35584305,8.800757450001643e-05,1.57098136,0.7859821300000001,0.0399999876,0.0399999872,-9.819066100000008,-0.003247378231021108,0.00010222893700372206,0.0002736923439993353,-0.008943537157025755,0.0003399018059992124
0.1875,0.0001590361175000249,-0.7849745500000005,2.5128888251147384e-06,-2.355848375,8.772843125001665e-05,1.57098145,0.785981275,0.039999987,0.039999986,-9.818958250000007,-0.003334183071269119,3.902587750377231e-05,0.0002849798199993263,-0.008996257791292454,0.00035327536499920177
0.19,0.00015861906800002521,-0.7849663600000005,5.905173401162666e-07,-2.3558537,8.744928800001688e-05,1.57098154,0.7859804200000001,0.0399999864,0.0399999848,-9.818850400000008,-0.00342098791151713,-2.4177181996177442e-05,0.00029626729599931736,-0.009048978425559151,0.00036664892399919114
0.1925,0.00015820201850002557,-0.7849581700000006,-1.3318541448822056e-06,-2.355859025,8.71701447500171e-05,1.57098163,0.7859795650000001,0.0399999858,0.0399999836,-9.818742550000007,-0.003507792751765141,-8.738024149612721e-05,0.00030755477199930837,-0.009101699059825849,0.0003800224829991805
0.195,0.0001577849690000259,-0.7849499800000005,-3.254225629880677e-06,-2.3558643499999996,8.689100150001732e-05,1.57098172,0.7859787100000001,0.039999985200000004,0.0399999824,-9.818634700000008,-0.003594597592013152,-0.00015058330099607697,0.0003188422479992994,-0.009154419694092548,0.0003933960419991699
0.1975,0.00015736791950002622,-0.7849417900000005,-5.17659711487915e-06,-2.3558696749999997,8.661185825001755e-05,1.57098181,0.7859778550000001,0.0399999846,0.0399999812,-9.818526850000007,-0.003681402432261163,-0.0002137863604960267,0.0003301297239992904,-0.009207140328359245,0.00040676960099915926
0.2,0.00015695087000002655,-0.7849336000000006,-7.098968599877621e-06,-2.3558749999999997,8.633271500001777e-05,1.5709819,0.785977,0.039999984,0.03999998,-9.818419000000008,-0.003768207272509174,-0.0002769894199959764,0.00034141719999928146,-0.009259860962625942,0.00042014315999914863
0.2025,0.00015642965750003361,-0.7849256560000005,-9.489794809845899e-06,-2.355880145,8.598501725002241e-05,1.57098199,0.7859758600000001,0.0399999834,0.039999979549999995,-9.818225800000013,-0.003860768873704214,-0.0003348636319962697,0.0003534127959992268,-0.009304197598245842,0.00043532196149902164
0.20500000000000002,0.000155908445000034,-0.7849177120000005,-1.1880621019843998e-05,-2.35588529,8.563731950002269e-05,1.57098208,0.7859747200000001,0.0399999828,0.0399999791,-9.818032600000013,-0.00395333047489962,-0.0003927378439962237,0.0003654083919992173,-0.009348534233865207,0.00045050076299900957
0.20750000000000002,0.00015538723250003444,-0.7849097680000006,-1.4271447229842098e-05,-2.3558904349999996,8.528962175002296e-05,1.57098217,0.7859735800000001,0.0399999822,0.03999997865,-9.817839400000013,-0.004045892076095027,-0.0004506120559961777,0.0003774039879992078,-0.00939287086948457,0.00046567956449899755
0.21,0.00015486602000003486,-0.7849018240000005,-1.666227343984017e-05,-2.35589558,8.494192400002324e-05,1.57098226,0.7859724400000001,0.0399999816,0.0399999782,-9.817646200000013,-0.004138453677290432,-0.000508486267996131,0.0003893995839991981,-0.009437207505103936,0.0004808583659989853
0.2125,0.00015434480750003526,-0.7848938800000006,-1.905309964983827e-05,-2.3559007249999997,8.459422625002351e-05,1.57098235,0.7859713000000002,0.039999981,0.03999997775,-9.817453000000013,-0.004231015278485839,-0.000566360479996085,0.00040139517999918854,-0.0094815441407233,0.0004960371674989732
0.215,0.00015382359500003569,-0.7848859360000006,-2.144392585983637e-05,-2.3559058699999995,8.42465285000238e-05,1.5709824399999999,0.7859701600000001,0.039999980399999996,0.039999977299999996,-9.817259800000013,-0.004323576879681245,-0.000624234691996039,0.000413390775999179,-0.009525880776342666,0.0005112159689989611
0.2175,0.00015326295800004427,-0.7848780530000006,-2.401157749979774e-05,-2.3559107699999995,8.387302950002943e-05,1.57098254,0.7859689220000001,0.039999979649999996,0.03999997645,-9.817096700000008,-0.004415530664839988,-0.0006790401549966304,0.00042601513799903887,-0.009568572603163341,0.0005271043864988017
0.22,0.0001526234720000448,-0.7848702920000006,-2.6932879999795417e-05,-2.3559151799999998,8.344792800002977e-05,1.5709826599999999,0.7859674880000002,0.0399999786,0.0399999748,-9.816993800000008,-0.004506268817925025,-0.0007277081199965917,0.00043989703199902785,-0.00960797481238562,0.0005444120359987879
0.2225,0.0001519839860000453,-0.7848625310000006,-2.98541824997931e-05,-2.3559195899999996,8.302282650003011e-05,1.57098278,0.7859660540000001,0.039999977549999996,0.03999997315,-9.816890900000008,-0.004597006971010063,-0.000776376084996553,0.00045377892599901684,-0.0096473770216079,0.0005617196854987742
0.225,0.0001513445000000458,-0.7848547700000006,-3.277548499979077e-05,-2.3559239999999995,8.259772500003045e-05,1.5709829,0.7859646200000001,0.0399999765,0.0399999715,-9.816788000000008,-0.004687745124095101,-0.0008250440499965143,0.00046766081999900577,-0.009686779230830177,0.0005790273349987604
0.2275,0.00015070501400004632,-0.7848470090000006,-3.5696787499788454e-05,-2.3559284099999998,8.217262350003078e-05,1.57098302,0.7859631860000001,0.03999997545,0.03999996985,-9.816685100000008,-0.004778483277180139,-0.0008737120149964756,0.00048154271399899475,-0.009726181440052457,0.0005963349844987466
0.23,0.00015006552800004682,-0.7848392480000006,-3.8618089999786136e-05,-2.3559328199999996,8.174752200003112e-05,1.57098314,0.7859617520000001,0.0399999744,0.0399999682,-9.816582200000008,-0.004869221430265177,-0.000922379979996437,0.0004954246079989837,-0.009765583649274736,0.0006136426339987328
0.2325,0.00014942604200004732,-0.7848314870000006,-4.153939249978381e-05,-2.3559372299999994,8.132242050003146e-05,1.57098326,0.7859603180000001,0.03999997335,0.039999966549999995,-9.816479300000008,-0.004959959583350214,-0.0009710479449963982,0.0005093065019989727,-0.009804985858497013,0.0006309502834987191
0.23500000000000001,0.00014869801000005865,-0.7848237700000006,-4.485683749973304e-05,-2.3559414199999997,8.083940540003887e-05,1.57098338,0.7859586960000001,0.0399999723,0.0399999652,-9.816335650000012,-0.005051359767087244,-0.0010167031099966475,0.0005243994799988079,-0.009839514456686843,0.0006495412899985395
0.23750000000000002,0.00014792570500006059,-0.7848160750000006,-4.837235374972425e-05,-2.3559455,8.032743350004016e-05,1.5709834999999999,0.7859569800000001,0.03999997125,0.039999964,-9.816171625000013,-0.00514309096615038,-0.001060851874996537,0.0005400979999987687,-0.009871606249359632,0.0006687739749984913
0.24,0.00014715340000006252,-0.7848083800000006,-5.188786999971543e-05,-2.3559495799999994,7.981546160004144e-05,1.57098362,0.7859552640000002,0.0399999702,0.0399999628,-9.816007600000013,-0.005234822165213515,-0.0011050006399964262,0.0005557965199987292,-0.009903698042032422,0.0006880066599984431
0.2425,0.00014638109500006444,-0.7848006850000007,-5.540338624970664e-05,-2.3559536599999995,7.930348970004272e-05,1.57098374,0.7859535480000002,0.03999996915,0.0399999616,-9.815843575000013,-0.00532655336427665,-0.001149149404996316,0.00057149503999869,-0.009935789834705212,0.000707239344998395
0.245,0.00014560879000006637,-0.7847929900000007,-5.891890249969785e-05,-2.3559577399999996,7.879151780004401e-05,1.57098386,0.7859518320000002,0.0399999681,0.0399999604,-9.815679550000015,-0.005418284563339786,-0.0011932981699962055,0.0005871935599986507,-0.009967881627378002,0.0007264720299983469
0.2475,0.0001448364850000683,-0.7847852950000006,-6.243441874968906e-05,-2.3559618199999997,7.827954590004529e-05,1.57098398,0.7859501160000001,0.03999996705,0.039999959200000004,-9.815515525000015,-0.005510015762402922,-0.001237446934996095,0.0006028920799986115,-0.009999973420050792,0.0007457047149982989
0.25,0.00014406418000007022,-0.7847776000000006,-6.594993499968027e-05,-2.3559658999999997,7.776757400004657e-05,1.5709841,0.7859484000000001,0.039999966,0.039999958,-9.815351500000014,-0.005601746961466057,-0.0012815956999959847,0.0006185905999985722,-0.01003206521272358,0.0007649373999982507
0.2525,0.00014314416100008284,-0.7847698990000007,-7.012493674962409e-05,-2.355969665,7.715933390005477e-05,1.570984235,0.7859463960000002,0.0399999666,0.0399999583,-9.81523952500001,-0.005691261286839216,-0.0013234483849962316,0.0006359790799984344,-0.010058901412410028,0.0007862748309980787
0.255,0.000142224142000082,-0.7847621980000007,-7.42999384996279e-05,-2.3559734299999997,7.655109380005421e-05,1.57098437,0.7859443920000002,0.0399999672,0.0399999586,-9.81512755000001,-0.005780775612212172,-0.0013653010699962696,0.0006533675599984501,-0.010085737612095998,0.0008076122619980982
0.2575,0.00014130412300008115,-0.7847544970000007,-7.847494024963169e-05,-2.355977195,7.594285370005365e-05,1.570984505,0.7859423880000002,0.0399999678,0.0399999589,-9.815015575000011,-0.005870289937585128,-0.0014071537549963078,0.000670756039998466,-0.010112573811781968,0.0008289496929981176
0.26,0.00014038410400008032,-0.7847467960000006,-8.264994199963548e-05,-2.3559809599999997,7.533461360005311e-05,1.57098464,0.7859403840000002,0.0399999684,0.039999959200000004,-9.81490360000001,-0.005959804262958085,-0.0014490064399963459,0.0006881445199984818,-0.010139410011467936,0.000850287123998137
0.2625,0.0001394640850000795,-0.7847390950000006,-8.682494374963929e-05,-2.355984725,7.472637350005256e-05,1.570984775,0.7859383800000002,0.039999969,0.0399999595,-9.81479162500001,-0.006049318588331042,-0.001490859124996384,0.0007055329999984977,-0.010166246211153905,0.0008716245549981565
0.265,0.00013854406600007866,-0.7847313940000007,-9.09999454996431e-05,-2.3559884899999997,7.4118133400052e-05,1.57098491,0.7859363760000002,0.039999969600000004,0.0399999598,-9.81467965000001,-0.006138832913703998,-0.0015327118099964221,0.0007229214799985134,-0.010193082410839875,0.0008929619859981759
0.2675,0.0001375697475000916,-0.7847236570000007,-9.54169354995855e-05,-2.3559920199999995,7.347457975006041e-05,1.570985045,0.7859342480000002,0.03999997,0.0399999599,-9.814571800000008,-0.006228310172438494,-0.0015731416049968212,0.0007408405199983947,-0.010218369727952387,0.0009150567979980031
0.27,0.0001364868300000906,-0.7847158480000006,-0.00010031790199958995,-2.3559950799999996,7.276039900005976e-05,1.57098518,0.7859318720000003,0.03999997,0.0399999596,-9.814472200000008,-0.00631771329789604,-0.0016107256199968554,0.000759820679998412,-0.010240559279916803,0.0009386663719980246
0.2725,0.00013540391250008963,-0.7847080390000006,-0.00010521886849959442,-2.3559981399999996,7.20462182500591e-05,1.570985315,0.7859294960000003,0.03999997,0.0399999593,-9.814372600000008,-0.006407116423353587,-0.0016483096349968896,0.0007788008399984293,-0.010262748831881219,0.0009622759459980461
0.275,0.00013432099500008862,-0.7847002300000007,-0.00011011983499959888,-2.3560011999999997,7.133203750005845e-05,1.57098545,0.7859271200000002,0.03999997,0.039999959,-9.814273000000009,-0.006496519548811133,-0.0016858936499969238,0.0007977809999984466,-0.010284938383845635,0.0009858855199980675
0.2775,0.00013323807750008763,-0.7846924210000006,-0.00011502080149960335,-2.3560042599999997,7.06178567500578e-05,1.570985585,0.7859247440000002,0.03999997,0.039999958700000005,-9.814173400000008,-0.006585922674268679,-0.001723477664996958,0.0008167611599984637,-0.010307127935810049,0.001009495093998089
0.28,0.00013215516000008665,-0.7846846120000006,-0.0001199217679996078,-2.35600732,6.990367600005714e-05,1.57098572,0.7859223680000003,0.03999997,0.0399999584,-9.814073800000008,-0.0066753257997262255,-0.0017610616799969923,0.000835741319998481,-0.010329317487774464,0.0010331046679981106
0.28250000000000003,0.00013107224250008567,-0.7846768030000006,-0.00012482273449961227,-2.35601038,6.918949525005649e-05,1.570985855,0.7859199920000002,0.03999997,0.0399999581,-9.813974200000008,-0.006764728925183773,-0.0017986456949970265,0.0008547214799984983,-0.01035150703973888,0.001056714241998132
0.28500000000000003,0.0001298704530001015,-0.7846688860000006,-0.00013025267299954173,-2.3560133299999997,6.83980409000668e-05,1.570986,0.7859173330000002,0.0399999703,0.039999958200000005,-9.813842000000012,-0.00685268663800548,-0.0018370163699968803,0.0008749352099983236,-0.010369418840854041,0.0010816868799979353
0.28750000000000003,0.00012860922750010465,-0.7846609150000007,-0.0001359470974995275,-2.3560162249999994,6.756794975006887e-05,1.57098615,0.7859145325000003,0.03999997075,0.0399999585,-9.813693500000012,-0.006939921644509012,-0.0018757803749967835,0.0008957657249982715,-0.010385191766543816,0.0011073410499978713
0.29,0.00012734800200010782,-0.7846529440000006,-0.00014164152199951313,-2.3560191199999996,6.673785860007097e-05,1.5709863,0.7859117320000003,0.039999971200000005,0.0399999588,-9.813545000000012,-0.007027156651012541,-0.0019145443799966856,0.0009165962399982189,-0.010400964692233592,0.0011329952199978066
0.2925,0.00012608677650011098,-0.7846449730000007,-0.0001473359464994989,-2.3560220149999997,6.590776745007305e-05,1.57098645,0.7859089315000003,0.03999997165,0.0399999591,-9.813396500000014,-0.007114391657516073,-0.001953308384996589,0.0009374267549981668,-0.010416737617923368,0.0011586493899977425
0.295,0.00012482555100011415,-0.7846370020000007,-0.00015303037099948465,-2.3560249099999995,6.507767630007512e-05,1.5709866000000001,0.7859061310000003,0.0399999721,0.0399999594,-9.813248000000014,-0.007201626664019605,-0.001992072389996492,0.0009582572699981147,-0.010432510543613143,0.0011843035599976783
0.2975,0.00012356432550011728,-0.7846290310000007,-0.00015872479549947042,-2.3560278049999996,6.424758515007719e-05,1.57098675,0.7859033305000003,0.03999997255,0.039999959700000004,-9.813099500000014,-0.007288861670523137,-0.002030836394996395,0.0009790877849980627,-0.010448283469302919,0.0012099577299976142
0.3,0.00012230310000012045,-0.7846210600000008,-0.00016441921999945617,-2.3560306999999994,6.341749400007927e-05,1.5709869,0.7859005300000003,0.039999973,0.03999996,-9.812951000000014,-0.007376096677026669,-0.0020696003999962982,0.0009999182999980106,-0.010464056394992694,0.00123561189999755
0.3025,0.00012084792750014012,-0.7846128460000008,-0.00017097541399936866,-2.3560333399999998,6.246162695009205e-05,1.5709870350000001,0.7858973380000004,0.039999973,0.03999996,-9.812875850000006,-0.0074592306977056995,-0.0021053921399965536,0.001022723879997804,-0.010476133739574517,0.0012634672299973177
0.305,0.00011939275500014127,-0.7846046320000007,-0.00017753160799936345,-2.3560359799999997,6.15057599000928e-05,1.57098717,0.7858941460000003,0.039999973,0.03999996,-9.812800700000007,-0.007542364718384338,-0.002141183879996525,0.0010455294599977856,-0.010488211084155987,0.0012913225599972954
0.3075,0.00011793758250014243,-0.7845964180000008,-0.00018408780199935824,-2.3560386199999996,6.054989285009357e-05,1.570987305,0.7858909540000003,0.039999973,0.03999996,-9.812725550000007,-0.007625498739062977,-0.0021769756199964967,0.0010683350399977676,-0.010500288428737459,0.0013191778899972733
0.31,0.00011648241000014359,-0.7845882040000008,-0.00019064399599935303,-2.3560412599999996,5.9594025800094326e-05,1.57098744,0.7858877620000003,0.039999973,0.03999996,-9.812650400000008,-0.007708632759741616,-0.002212767359996468,0.0010911406199977495,-0.010512365773318929,0.0013470332199972512
0.3125,0.00011502723750014475,-0.7845799900000009,-0.00019720018999934782,-2.3560438999999995,5.8638158750095084e-05,1.570987575,0.7858845700000003,0.039999973,0.03999996,-9.812575250000007,-0.007791766780420255,-0.0022485590999964397,0.0011139461999977315,-0.0105244431179004,0.001374888549997229
0.315,0.00011357206500014591,-0.7845717760000008,-0.0002037563839993426,-2.3560465399999995,5.768229170009585e-05,1.57098771,0.7858813780000004,0.039999973,0.03999996,-9.812500100000008,-0.007874900801098894,-0.002284350839996411,0.0011367517799977132,-0.01053652046248187,0.001402743879997207
0.3175,0.00011204699750016826,-0.7845634600000009,-0.00021062279949924333,-2.3560489949999996,5.668117215011033e-05,1.570988015,0.7858780345000004,0.039999973,0.0399999599,-9.812420450000008,-0.007956224353976091,-0.002321035589996112,0.0011601029749975296,-0.010547205852343746,0.0014313818749969475
0.32,0.00011038214000016958,-0.7845549400000009,-0.00021810965799923737,-2.35605108,5.55895476001112e-05,1.5709886599999998,0.7858743880000004,0.039999973,0.0399999596,-9.81233180000001,-0.008033926971248766,-0.0023595063599960815,0.0011845453999975103,-0.010555107332765176,0.0014615851999969234
0.3225,0.0001087172825001709,-0.7845464200000009,-0.00022559651649923143,-2.3560531649999996,5.449792305011206e-05,1.570989305,0.7858707415000004,0.039999973,0.0399999593,-9.81224315000001,-0.008111629588521439,-0.0023979771299960507,0.0012089878249974908,-0.010563008813186604,0.0014917885249968994
0.325,0.00010705242500017223,-0.7845379000000009,-0.00023308337499922547,-2.35605525,5.340629850011293e-05,1.57098995,0.7858670950000004,0.039999973,0.039999959,-9.812154500000009,-0.008189332205794111,-0.0024364478999960204,0.0012334302499974713,-0.010570910293608033,0.0015219918499968755
0.3275,0.00010538756750017355,-0.7845293800000008,-0.00024057023349921953,-2.356057335,5.2314673950113796e-05,1.5709905949999998,0.7858634485000003,0.039999973,0.039999958700000005,-9.812065850000009,-0.008267034823066784,-0.0024749186699959897,0.001257872674997452,-0.01057881177402946,0.0015521951749968513
0.33,0.00010372271000017488,-0.7845208600000009,-0.00024805709199921357,-2.35605942,5.122304940011466e-05,1.57099124,0.7858598020000004,0.039999973,0.0399999584,-9.81197720000001,-0.008344737440339459,-0.0025133894399959594,0.0012823150999974324,-0.01058671325445089,0.0015823984999968274
0.3325,0.00010205785250017621,-0.7845123400000009,-0.0002555439504992076,-2.356061505,5.013142485011553e-05,1.570991885,0.7858561555000004,0.039999973,0.0399999581,-9.81188855000001,-0.008422440057612132,-0.0025518602099959286,0.0013067575249974131,-0.010594614734872318,0.0016126018249968035
0.335,0.00010024264400020158,-0.7845035700000009,-0.00026369748499909505,-2.35606337,4.894247600013196e-05,1.57099254,0.7858521800000005,0.0399999734,0.039999958200000005,-9.811770400000015,-0.008500265236935605,-0.002595683969995042,0.0013324442999971945,-0.010597524605691366,0.0016442053399965554
0.3375,9.835226000020307e-05,-0.7844946750000009,-0.0002721843574990883,-2.356065125,4.770486500013295e-05,1.5709932,0.7858480400000004,0.039999974,0.0399999585,-9.811637500000014,-0.008578151697284509,-0.002642184224995005,0.0013587532499971737,-0.01059793867170803,0.0016765089499965297
0.34,9.646187600020458e-05,-0.7844857800000009,-0.00028067122999908154,-2.35606688,4.6467254000133935e-05,1.57099386,0.7858439000000005,0.0399999746,0.0399999588,-9.811504600000015,-0.008656038157633411,-0.0026886844799949676,0.0013850621999971528,-0.010598352737724694,0.0017088125599965041
0.3425,9.457149200020608e-05,-0.7844768850000009,-0.0002891581024990748,-2.356068635,4.522964300013492e-05,1.57099452,0.7858397600000004,0.0399999752,0.0399999591,-9.811371700000015,-0.008733924617982313,-0.0027351847349949307,0.001411371149997132,-0.010598766803741359,0.0017411161699964785
0.34500000000000003,9.268110800020759e-05,-0.784467990000001,-0.00029764497499906804,-2.35607039,4.39920320001359e-05,1.57099518,0.7858356200000004,0.0399999758,0.0399999594,-9.811238800000016,-0.008811811078331218,-0.0027816849899948938,0.0014376800999971108,-0.010599180869758024,0.0017734197799964529
0.34750000000000003,9.079072400020909e-05,-0.784459095000001,-0.00030613184749906134,-2.356072145,4.275442100013689e-05,1.57099584,0.7858314800000005,0.0399999764,0.039999959700000004,-9.811105900000015,-0.00888969753868012,-0.002828185244994857,0.00146398904999709,-0.010599594935774689,0.001805723389996427
0.35000000000000003,8.89003400002106e-05,-0.784450200000001,-0.0003146187199990546,-2.3560739,4.151681000013787e-05,1.5709965,0.7858273400000004,0.039999977,0.03999996,-9.810973000000015,-0.008967583999029022,-0.00287468549999482,0.0014902979999970691,-0.010600009001791352,0.0018380269999964014
0.3525,8.676848900023923e-05,-0.784440825000001,-0.0003241752319989276,-2.356075565,4.01231195001564e-05,1.5709972049999998,0.7858226645000005,0.039999977,0.03999996,-9.81088510000001,-0.009038072731337934,-0.0029083746749962195,0.0015184454849968413,-0.010596383828670126,0.0018725700799961237
0.355,8.463663800024093e-05,-0.784431450000001,-0.00033373174399892,-2.35607723,3.872942900015751e-05,1.5709979099999998,0.7858179890000005,0.039999977,0.03999996,-9.81079720000001,-0.009108561463646024,-0.0029420638499961928,0.001546592969996819,-0.01059275865554845,0.0019071131599960962
0.3575,8.250478700024263e-05,-0.784422075000001,-0.0003432882559989124,-2.356078895,3.7335738500158616e-05,1.570998615,0.7858133135000005,0.039999977,0.03999996,-9.81070930000001,-0.009179050195954113,-0.002975753024996166,0.0015747404549967966,-0.010589133482426773,0.0019416562399960687
0.36,8.037293600024432e-05,-0.7844127000000011,-0.0003528447679989048,-2.35608056,3.5942048000159724e-05,1.5709993199999999,0.7858086380000006,0.039999977,0.03999996,-9.810621400000011,-0.009249538928262201,-0.0030094421999961388,0.0016028879399967743,-0.010585508309305096,0.0019761993199960415
0.3625,7.824108500024602e-05,-0.7844033250000011,-0.0003624012799988972,-2.356082225,3.454835750016083e-05,1.5710000249999998,0.7858039625000005,0.039999977,0.03999996,-9.81053350000001,-0.009320027660570291,-0.0030431313749961124,0.0016310354249967518,-0.010581883136183419,0.002010742399996014
0.365,7.61092340002477e-05,-0.7843939500000011,-0.0003719577919988896,-2.35608389,3.315466700016194e-05,1.57100073,0.7857992870000006,0.039999977,0.03999996,-9.81044560000001,-0.00939051639287838,-0.003076820549996085,0.0016591829099967296,-0.010578257963061742,0.0020452854799959865
0.3675,7.38915805002795e-05,-0.7843844070000012,-0.0003818940879987487,-2.356085375,3.1705617000182475e-05,1.57100143,0.7857944235000006,0.03999997715,0.03999996,-9.810370650000007,-0.009457988245405448,-0.0031128008349952546,0.001687957504996487,-0.010573733225465554,0.0020806194049956812
0.37,7.150232200028141e-05,-0.7843745280000012,-0.0003925899519987402,-2.3560865,3.014584800018371e-05,1.57100212,0.7857891840000006,0.0399999776,0.03999996,-9.810321600000005,-0.009519426338367304,-0.0031533633399952223,0.0017179863199964633,-0.010567409358919404,0.002117535019995652
0.3725,6.91130635002833e-05,-0.7843646490000012,-0.0004032858159987317,-2.356087625,2.858607900018495e-05,1.57100281,0.7857839445000007,0.039999978049999996,0.03999996,-9.810272550000006,-0.00958086443132916,-0.00319392584499519,0.0017480151349964393,-0.010561085492373255,0.0021544506349956225
0.375,6.672380500028521e-05,-0.7843547700000012,-0.00041398167999872324,-2.35608875,2.702631000018619e-05,1.5710035,0.7857787050000007,0.0399999785,0.03999996,-9.810223500000006,-0.009642302524291017,-0.003234488349995158,0.0017780439499964155,-0.010554761625827105,0.0021913662499955934
0.3775,6.43345465002871e-05,-0.7843448910000013,-0.0004246775439987147,-2.356089875,2.546654100018743e-05,1.57100419,0.7857734655000006,0.03999997895,0.03999996,-9.810174450000005,-0.009703740617252873,-0.0032750508549951258,0.0018080727649963915,-0.010548437759280955,0.0022282818649955643
0.38,6.194528800028901e-05,-0.7843350120000012,-0.00043537340799870624,-2.3560909999999997,2.3906772000188668e-05,1.5710048799999998,0.7857682260000006,0.039999979399999996,0.03999996,-9.810125400000006,-0.009765178710214728,-0.0033156133599950934,0.0018381015799963677,-0.010542113892734805,0.0022651974799955347
0.3825,5.9556029500290906e-05,-0.7843251330000013,-0.00044606927199869776,-2.356092125,2.2347003000189908e-05,1.5710055699999999,0.7857629865000006,0.03999997985,0.03999996,-9.810076350000006,-0.009826616803176586,-0.003356175864995061,0.0018681303949963438,-0.010535790026188655,0.0023021130949955055
0.385,5.6984550000326304e-05,-0.7843148560000013,-0.00045757118099854107,-2.35609302,2.066956360021278e-05,1.57100628,0.7857573590000008,0.03999998,0.03999996,-9.809980400000015,-0.009888105466954242,-0.003395760669995209,0.0018994181399960884,-0.010526177845896649,0.0023404357499952175
0.3875,5.432196000032842e-05,-0.7843043800000014,-0.00046947611249853157,-2.3560938,1.893328900021416e-05,1.5710069999999998,0.7857515375000007,0.03999998,0.03999996,-9.809861000000016,-0.009949619416139813,-0.0034348566249951776,0.0019313353499960631,-0.010514921508730813,0.002379461924995186
0.39,5.165937000033053e-05,-0.7842939040000013,-0.00048138104399852213,-2.3560945799999997,1.7197014400215542e-05,1.5710077199999999,0.7857457160000008,0.03999998,0.03999996,-9.809741600000015,-0.010011133365325385,-0.0034739525799951467,0.001963252559996038,-0.010503665171564978,0.0024184880999951553
0.3925,4.899678000033265e-05,-0.7842834280000013,-0.0004932859754985127,-2.35609536,1.546073980021692e-05,1.57100844,0.7857398945000007,0.03999998,0.03999996,-9.809622200000016,-0.010072647314510956,-0.0035130485349951154,0.0019951697699960125,-0.010492408834399142,0.0024575142749951244
0.395,4.633419000033477e-05,-0.7842729520000012,-0.0005051909069985032,-2.3560961399999996,1.3724465200218302e-05,1.5710091599999998,0.7857340730000008,0.03999998,0.03999996,-9.809502800000015,-0.010134161263696526,-0.0035521444899950846,0.002027086979995987,-0.010481152497233305,0.002496540449995093
0.3975,4.3671600000336886e-05,-0.7842624760000013,-0.0005170958384984937,-2.3560969199999997,1.1988190600219682e-05,1.5710098799999999,0.7857282515000007,0.03999998,0.03999996,-9.809383400000016,-0.010195675212882097,-0.0035912404449950537,0.002059004189995962,-0.010469896160067469,0.002535566624995062
0.4,4.1009010000339003e-05,-0.7842520000000013,-0.0005290007699984843,-2.3560977,1.0251916000221063e-05,1.5710106,0.7857224300000007,0.03999998,0.03999996,-9.809264000000017,-0.010257189162067668,-0.0036303363999950224,0.0020909213999959365,-0.010458639822901633,0.0025745927999950313
0.4025,3.805714470038321e-05,-0.7842409150000014,-0.0005421843644982886,-2.3560983149999997,8.32918525024961e-06,1.5710113199999998,0.7857160055000009,0.0399999806,0.03999996,-9.80919155000001,-0.010307718766846635,-0.003675139239994184,0.002124591014995629,-0.010444007255138775,0.0026159835299946264
0.405,3.51052794003906e-05,-0.7842298300000015,-0.0005553679589982556,-2.35609893,6.4064545002544175e-06,1.5710120399999998,0.7857095810000009,0.0399999812,0.03999996,-9.809119100000009,-0.010358248371624204,-0.0037199420799940717,0.002158260629995545,-0.010429374687375486,0.002657374259994523
0.40750000000000003,3.2153414100397976e-05,-0.7842187450000014,-0.0005685515534982226,-2.3560995449999997,4.483723750259224e-06,1.57101276,0.7857031565000009,0.0399999818,0.03999996,-9.80904665000001,-0.010408777976401773,-0.00376474491999396,0.0021919302449954605,-0.010414742119612198,0.0026987649899944195
0.41000000000000003,2.9201548800405355e-05,-0.7842076600000015,-0.0005817351479981895,-2.3561001599999996,2.5609930002640326e-06,1.57101348,0.7856967320000009,0.0399999824,0.03999996,-9.80897420000001,-0.010459307581179342,-0.0038095477599938477,0.0022255998599953765,-0.01040010955184891,0.002740155719994316
0.41250000000000003,2.6249683500412734e-05,-0.7841965750000015,-0.0005949187424981567,-2.356100775,6.382622502688385e-07,1.5710142,0.7856903075000009,0.039999983,0.03999996,-9.80890175000001,-0.01050983718595691,-0.0038543505999937356,0.002259269474995292,-0.010385476984085621,0.0027815464499942127
0.41500000000000004,2.3297818200420113e-05,-0.7841854900000016,-0.0006081023369981236,-2.3561013899999996,-1.284468499726354e-06,1.5710149199999999,0.7856838830000009,0.039999983600000004,0.03999996,-9.80882930000001,-0.01056036679073448,-0.0038991534399936234,0.002292939089995208,-0.010370844416322333,0.002822937179994109
0.4175,2.024425091296805e-05,-0.7841741650000017,-0.0006217352679979117,-2.3561019599999997,-3.2728192996953993e-06,1.57101578,0.785677240000001,0.0399999838,0.039999959700000004,-9.80875870000001,-0.010608804272481386,-0.003944138029993483,0.00232719175999491,-0.010355175007137155,0.002865022999993752
0.42,1.6987279650465086e-05,-0.7841623600000017,-0.000636266871997925,-2.35610244,-5.392410199697329e-06,1.57101692,0.785670160000001,0.0399999832,0.0399999588,-9.808691800000009,-0.010653057508164261,-0.003989486119993524,0.0023626105399949422,-0.010337431915106854,0.0029084989999937916
0.4225,1.373030838796212e-05,-0.7841505550000016,-0.0006507984759979382,-2.3561029199999997,-7.512001099699259e-06,1.5710180599999999,0.7856630800000011,0.0399999826,0.0399999579,-9.808624900000009,-0.010697310743847136,-0.004034834209993566,0.0023980293199949744,-0.010319688823076554,0.0029519749999938312
0.425,1.0473337125459155e-05,-0.7841387500000017,-0.0006653300799979514,-2.3561034,-9.631591999701188e-06,1.5710191999999998,0.785656000000001,0.039999982,0.039999957,-9.808558000000009,-0.010741563979530012,-0.004080182299993607,0.0024334480999950066,-0.010301945731046251,0.002995450999993871
0.4275,7.216365862956189e-06,-0.7841269450000017,-0.0006798616839979646,-2.3561038799999996,-1.1751182899703117e-05,1.5710203399999998,0.785648920000001,0.0399999814,0.0399999561,-9.808491100000008,-0.010785817215212887,-0.004125530389993648,0.002468866879995039,-0.01028420263901595,0.0030389269999939105
0.43,3.959394600453225e-06,-0.7841151400000016,-0.0006943932879979779,-2.35610436,-1.3870773799705046e-05,1.57102148,0.785641840000001,0.0399999808,0.0399999552,-9.808424200000008,-0.010830070450895762,-0.00417087847999369,0.0025042856599950714,-0.01026645954698565,0.0030824029999939498
0.4325,7.024233379502605e-07,-0.7841033350000016,-0.0007089248919979911,-2.35610484,-1.599036469970698e-05,1.57102262,0.785634760000001,0.0399999802,0.039999954299999994,-9.80835730000001,-0.010874323686578638,-0.004216226569993731,0.0025397044399951036,-0.01024871645495535,0.0031258789999939894
0.435,-2.7684910745086326e-06,-0.7840910000000018,-0.0007244011539978098,-2.35610499,-1.8247439899680582e-05,1.57102382,0.7856272240000011,0.039999980799999994,0.0399999546,-9.808297700000008,-0.010911030787969997,-0.004273543639991307,0.0025763094499948913,-0.010228217951956355,0.003170932939993704
0.4375,-6.346377062011889e-06,-0.7840784000000017,-0.0007403497449978242,-2.356104975,-2.05732572496827e-05,1.5710250499999998,0.785619460000001,0.039999981999999996,0.039999955499999996,-9.808241750000008,-0.010943964822213258,-0.004336845199991364,0.0026135075749949255,-0.01020634174347216,0.003216775849993746
0.44,-9.924263049515147e-06,-0.7840658000000017,-0.0007562983359978388,-2.35610496,-2.289907459968482e-05,1.5710262799999999,0.785611696000001,0.0399999832,0.0399999564,-9.808185800000008,-0.010976898856456517,-0.004400146759991422,0.0026507056999949593,-0.010184465534987966,0.0032626187599937876
0.4425,-1.3502149037018402e-05,-0.7840532000000017,-0.0007722469269978533,-2.356104945,-2.522489194968694e-05,1.5710275099999997,0.7856039320000011,0.0399999844,0.0399999573,-9.808129850000007,-0.011009832890699777,-0.0044634483199914796,0.002687903824994993,-0.01016258932650377,0.0033084616699938295
0.445,-1.708003502452166e-05,-0.7840406000000018,-0.0007881955179978678,-2.35610493,-2.7550709299689057e-05,1.5710287399999998,0.7855961680000011,0.039999985599999996,0.0399999582,-9.808073900000007,-0.011042766924943038,-0.004526749879991537,0.002725101949995027,-0.010140713118019574,0.0033543045799938713
0.4475,-2.0657921012024915e-05,-0.7840280000000017,-0.0008041441089978824,-2.356104915,-2.9876526649691173e-05,1.5710299699999999,0.7855884040000011,0.0399999868,0.0399999591,-9.808017950000007,-0.011075700959186297,-0.004590051439991595,0.002762300074995061,-0.01011883690953538,0.0034001474899939127
0.45,-2.4235806999528174e-05,-0.7840154000000017,-0.0008200926999978969,-2.3561049,-3.220234399969329e-05,1.5710311999999997,0.785580640000001,0.039999988,0.03999996,-9.807962000000007,-0.011108634993429557,-0.004653352999991652,0.002799498199995095,-0.010096960701051184,0.0034459903999939545
0.4525,-2.8150226949474008e-05,-0.7840019750000018,-0.0008375268249976573,-2.3561045700000003,-3.474535669965829e-05,1.5710324749999998,0.7855721365000011,0.0399999874,0.039999959700000004,-9.807863900000013,-0.01114030475727783,-0.004712851144992005,0.0028384609699947647,-0.010070666950199482,0.003493731589993585
0.455,-3.206464689946422e-05,-0.7839885500000019,-0.0008549609499976138,-2.35610424,-3.728836939965193e-05,1.5710337499999998,0.7855636330000012,0.0399999868,0.0399999594,-9.807765800000013,-0.011171974521125935,-0.004772349289991856,0.002877423739994667,-0.010044373199347199,0.0035414727799934656
0.4575,-3.5979066849454434e-05,-0.7839751250000019,-0.0008723950749975702,-2.3561039100000003,-3.983138209964557e-05,1.5710350249999998,0.7855551295000012,0.039999986200000004,0.0399999591,-9.807667700000014,-0.011203644284974041,-0.004831847434991708,0.0029163865099945696,-0.010018079448494914,0.0035892139699933464
0.46,-3.9893486799444646e-05,-0.7839617000000019,-0.0008898291999975265,-2.35610358,-4.237439479963921e-05,1.5710362999999998,0.7855466260000012,0.0399999856,0.0399999588,-9.807569600000015,-0.011235314048822147,-0.004891345579991559,0.0029553492799944724,-0.009991785697642629,0.003636955159993227
0.4625,-4.3807906749434864e-05,-0.7839482750000019,-0.000907263324997483,-2.3561032500000003,-4.491740749963285e-05,1.5710375749999999,0.7855381225000012,0.039999985,0.0399999585,-9.807471500000014,-0.011266983812670254,-0.00495084372499141,0.002994312049994375,-0.009965491946790346,0.0036846963499931077
0.465,-4.7722326699425076e-05,-0.783934850000002,-0.0009246974499974394,-2.35610292,-4.7460420199626494e-05,1.5710388499999999,0.7855296190000012,0.0399999844,0.039999958200000005,-9.807373400000015,-0.01129865357651836,-0.005010341869991261,0.003033274819994277,-0.00993919819593806,0.003732437539992988
0.4675,-5.175412769936511e-05,-0.783921135000002,-0.0009426494249971745,-2.3561025200000003,-5.007877289958795e-05,1.5710401299999999,0.7855208675000014,0.0399999843,0.0399999581,-9.80728685000001,-0.011325049167496532,-0.005070516084990845,0.0030728547499939266,-0.009911960130561653,0.0037810506349925067
0.47000000000000003,-5.602069079936172e-05,-0.7839068400000021,-0.0009616370999971594,-2.35610198,-5.284780559958575e-05,1.5710414199999998,0.7855116200000013,0.039999985200000004,0.0399999584,-9.80722340000001,-0.011340896412727789,-0.005132042439990795,0.003113668999993894,-0.009882833436135736,0.0038314075399924668
0.47250000000000003,-6.0287253899358326e-05,-0.7838925450000022,-0.0009806247749971444,-2.35610144,-5.561683829958355e-05,1.5710427099999997,0.7855023725000013,0.0399999861,0.039999958700000005,-9.80715995000001,-0.011356743657959047,-0.005193568794990747,0.0031544832499938616,-0.009853706741709819,0.003881764444992427
0.47500000000000003,-6.455381699935493e-05,-0.7838782500000021,-0.0009996124499971292,-2.3561009,-5.838587099958135e-05,1.5710439999999999,0.7854931250000013,0.039999987,0.039999959,-9.807096500000009,-0.011372590903190304,-0.005255095149990698,0.003195297499993829,-0.009824580047283904,0.003932121349992387
0.47750000000000004,-6.882038009935154e-05,-0.7838639550000022,-0.0010186001249971142,-2.35610036,-6.115490369957915e-05,1.5710452899999998,0.7854838775000014,0.0399999879,0.0399999593,-9.80703305000001,-0.011388438148421562,-0.005316621504990649,0.0032361117499937965,-0.009795453352857987,0.003982478254992347
0.48,-7.308694319934806e-05,-0.7838496600000022,-0.0010375877999970987,-2.35609982,-6.392393639957689e-05,1.5710465799999997,0.7854746300000014,0.0399999888,0.0399999596,-9.80696960000001,-0.011404285393652819,-0.005378147859990599,0.0032769259999937636,-0.00976632665843207,0.004032835159992305
0.4825,-7.735350629934466e-05,-0.7838353650000023,-0.0010565754749970835,-2.35609928,-6.669296909957468e-05,1.5710478699999997,0.7854653825000014,0.0399999897,0.0399999599,-9.806906150000009,-0.011420132638884077,-0.00543967421499055,0.003317740249993731,-0.009737199964006153,0.004083192064992265
0.485,-8.186505619928454e-05,-0.7838204300000023,-0.001076643809996818,-2.3560986699999997,-6.96199623995359e-05,1.5710491499999997,0.7854556140000015,0.03999999,0.0399999606,-9.806849900000007,-0.011434035189447734,-0.005504453699989748,0.003359709039993431,-0.009706458356236231,0.004134525029991999
0.4875,-8.649909949928086e-05,-0.7838051750000024,-0.0010972524749968018,-2.356098025,-7.262593599953351e-05,1.5710504249999997,0.7854455850000015,0.03999999,0.0399999615,-9.806797250000008,-0.011446965392676919,-0.0055708597499896945,0.003402255099993397,-0.009674909291793746,0.004186346024991958
0.49,-9.113314279927717e-05,-0.7837899200000024,-0.0011178611399967854,-2.35609738,-7.563190959953112e-05,1.5710516999999997,0.7854355560000015,0.03999999,0.0399999624,-9.806744600000007,-0.011459895595906103,-0.005637265799989642,0.0034448011599933635,-0.009643360227351261,0.004238167019991917
0.4925,-9.576718609927349e-05,-0.7837746650000024,-0.001138469804996769,-2.356096735,-7.863788319952873e-05,1.5710529749999997,0.7854255270000016,0.03999999,0.0399999633,-9.806691950000008,-0.011472825799135288,-0.0057036718499895896,0.0034873472199933296,-0.009611811162908776,0.004289988014991876
0.495,-0.0001004012293992698,-0.7837594100000024,-0.0011590784699967527,-2.3560960900000003,-8.164385679952634e-05,1.5710542499999998,0.7854154980000015,0.03999999,0.0399999642,-9.806639300000008,-0.011485756002364473,-0.005770077899989536,0.003529893279993296,-0.009580262098466292,0.004341809009991834
0.4975,-0.00010503527269926612,-0.7837441550000024,-0.0011796871349967362,-2.3560954450000002,-8.464983039952395e-05,1.5710555249999998,0.7854054690000015,0.03999999,0.0399999651,-9.806586650000007,-0.011498686205593658,-0.005836483949989484,0.003572439339993262,-0.009548713034023807,0.0043936300049917925
0.5,-0.00010966931599926244,-0.7837289000000024,-0.0012002957999967198,-2.3560948,-8.765580399952157e-05,1.5710567999999998,0.7853954400000015,0.03999999,0.039999966,-9.806534000000008,-0.011511616408822842,-0.00590288999998943,0.003614985399993228,-0.009517163969581322,0.004445450999991752
0.5025000000000001,-0.00011468617309919762,-0.7837126190000026,-0.001222592069996434,-2.3560936600000004,-9.090739089947996e-05,1.5710584499999998,0.7853845740000017,0.03999999,0.039999964199999995,-9.806493950000005,-0.011502124182881417,-0.005981032799987502,0.0036592509999929202,-0.009483788907533208,0.00450034685999122
0.505,-0.00011970303019919353,-0.7836963380000026,-0.0012448883399964158,-2.3560925200000002,-9.415897779947731e-05,1.5710600999999997,0.7853737080000017,0.03999999,0.0399999624,-9.806453900000006,-0.011492631956936426,-0.006059175599987438,0.0037035165999928844,-0.009450413845484805,0.004555242719991175
0.5075000000000001,-0.00012471988729918966,-0.7836800570000027,-0.0012671846099963986,-2.3560913800000005,-9.74105646994748e-05,1.5710617499999997,0.7853628420000017,0.03999999,0.039999960599999995,-9.806413850000006,-0.011483139730991432,-0.006137318399987378,0.0037477821999928503,-0.0094170387834364,0.004610138579991133
0.51,-0.00012973674439918556,-0.7836637760000026,-0.0012894808799963804,-2.3560902400000003,-0.00010066215159947213,1.5710633999999997,0.7853519760000017,0.03999999,0.0399999588,-9.806373800000006,-0.01147364750504644,-0.006215461199987314,0.003792047799992814,-0.009383663721387998,0.004665034439991088
0.5125,-0.00013475360149918145,-0.7836474950000026,-0.0013117771499963622,-2.3560891,-0.00010391373849946947,1.5710650499999999,0.7853411100000017,0.03999999,0.039999956999999996,-9.806333750000006,-0.011464155279101449,-0.00629360399998725,0.003836313399992778,-0.009350288659339595,0.004719930299991043
0.515,-0.00013977045859917757,-0.7836312140000027,-0.0013340734199963449,-2.3560879600000004,-0.00010716532539946696,1.5710666999999998,0.7853302440000017,0.03999999,0.0399999552,-9.806293700000007,-0.011454663053156455,-0.0063717467999871895,0.003880578999992744,-0.009316913597291192,0.004774826159991001
0.5175,-0.00014491992299910794,-0.7836145770000029,-0.0013569542649960378,-2.3560867250000004,-0.00011050223549942213,1.5710684149999996,0.785319095000002,0.0399999905,0.039999954299999994,-9.806237800000014,-0.011446369905025691,-0.006455128134984537,0.003925433799992417,-0.009281950676819977,0.004830243379990698
0.52,-0.00015033460199910374,-0.7835972280000029,-0.0013810042599960192,-2.3560853000000006,-0.00011400979199941943,1.5710702599999997,0.7853073800000019,0.039999992,0.0399999552,-9.806150200000015,-0.011440474912525155,-0.006548986539984465,0.003971466999992381,-0.009243812039500792,0.004886703319990655
0.5225,-0.00015574928099909932,-0.7835798790000029,-0.0014050542549959996,-2.3560838750000004,-0.00011751734849941656,1.5710721049999998,0.7852956650000019,0.0399999935,0.0399999561,-9.806062600000015,-0.011434579920024621,-0.006642844944984388,0.004017500199992343,-0.009205673402181608,0.0049431632599906085
0.525,-0.00016116395999909514,-0.783562530000003,-0.001429104249995981,-2.3560824500000006,-0.00012102490499941385,1.5710739499999997,0.785283950000002,0.039999994999999997,0.039999956999999996,-9.805975000000014,-0.011428684927524085,-0.006736703349984315,0.004063533399992308,-0.009167534764862423,0.004999623199990565
0.5275,-0.00016657863899909072,-0.7835451810000029,-0.0014531542449959614,-2.3560810250000004,-0.00012453246149941099,1.5710757949999998,0.785272235000002,0.0399999965,0.0399999579,-9.805887400000016,-0.011422789935023549,-0.006830561754984239,0.00410956659999227,-0.00912939612754324,0.005056083139990519
0.53,-0.00017199331799908654,-0.783527832000003,-0.0014772042399959426,-2.3560796000000006,-0.00012804001799940828,1.5710776399999997,0.785260520000002,0.039999998,0.0399999588,-9.805799800000015,-0.011416894942523015,-0.006924420159984166,0.004155599799992234,-0.009091257490224054,0.005112543079990475
0.5325,-0.00017740799699908212,-0.783510483000003,-0.001501254234995923,-2.3560781750000004,-0.0001315475744994054,1.5710794849999998,0.785248805000002,0.0399999995,0.039999959700000004,-9.805712200000015,-0.011410999950022479,-0.007018278564984089,0.004201632999992197,-0.00905311885290487,0.00516900301999043
0.535,-0.00018309783999900765,-0.7834924500000032,-0.0015265167399955946,-2.3560765800000003,-0.00013523194399935753,1.5710813399999997,0.7852365000000022,0.04,0.0399999606,-9.80563950000001,-0.011394491605464335,-0.007111404799984204,0.0042488151299918675,-0.009012754820294212,0.005226768899990052
0.5375,-0.00018892526499900288,-0.7834740750000032,-0.0015523854999955737,-2.3560749000000003,-0.00013900471999935446,1.5710831999999997,0.7852239000000022,0.04,0.0399999615,-9.805574250000012,-0.011372676584873332,-0.007204164949984129,0.004296571724991829,-0.008971278090036972,0.005285187749990004
0.54,-0.0001947526899989984,-0.7834557000000032,-0.0015782542599955536,-2.3560732200000003,-0.00014277749599935153,1.5710850599999997,0.7852113000000022,0.04,0.0399999624,-9.805509000000011,-0.01135086156428233,-0.007296925099984057,0.0043443283199917915,-0.008929801359779728,0.0053436065999899595
0.5425,-0.00020058011499899363,-0.7834373250000032,-0.0016041230199955324,-2.3560715400000003,-0.00014655027199934846,1.5710869199999997,0.7851987000000022,0.04,0.0399999633,-9.805443750000011,-0.011329046543691327,-0.007389685249983981,0.004392084914991753,-0.008888324629522487,0.005402025449989911
0.545,-0.00020640753999898913,-0.7834189500000033,-0.0016299917799955125,-2.3560698600000003,-0.00015032304799934552,1.5710887799999997,0.7851861000000022,0.04,0.0399999642,-9.805378500000012,-0.011307231523100324,-0.00748244539998391,0.0044398415099917155,-0.008846847899265245,0.005460444299989866
0.5475,-0.00021223496499898437,-0.7834005750000033,-0.0016558605399954913,-2.3560681800000003,-0.00015409582399934245,1.5710906399999998,0.7851735000000022,0.04,0.0399999651,-9.805313250000012,-0.011285416502509322,-0.0075752055499838334,0.004487598104991677,-0.008805371169008003,0.005518863149989819
0.55,-0.00021806238999897985,-0.7833822000000032,-0.0016817292999954715,-2.3560665000000003,-0.00015786859999933952,1.5710924999999998,0.7851609000000023,0.04,0.039999966,-9.805248000000011,-0.011263601481918318,-0.007667965699983762,0.004535354699991639,-0.008763894438750761,0.005577281999989773
0.5525,-0.00022431726399889992,-0.7833626400000034,-0.0017094811899951191,-2.3560647,-0.00016191587299928817,1.5710943599999996,0.7851473850000024,0.04,0.039999966,-9.80520000000001,-0.011227727076045003,-0.00775888074498401,0.004584750944991312,-0.008720267331235248,0.0056381581499892934
0.555,-0.00023057213799889507,-0.7833430800000035,-0.0017372330799950977,-2.3560629000000004,-0.00016596314599928505,1.5710962199999996,0.7851338700000025,0.04,0.039999966,-9.805152000000009,-0.011191852670169226,-0.00784979578998394,0.004634147189991274,-0.008676640223719357,0.0056990342999892465
0.5575,-0.00023682701199888995,-0.7833235200000035,-0.001764984969995075,-2.3560611000000002,-0.00017001041899928173,1.5710980799999996,0.7851203550000024,0.04,0.039999966,-9.805104000000009,-0.011155978264293452,-0.007940710834983865,0.004683543434991234,-0.008633013116203467,0.005759910449989197
0.56,-0.00024308188599888512,-0.7833039600000036,-0.0017927368599950535,-2.3560593,-0.0001740576919992786,1.5710999399999996,0.7851068400000024,0.04,0.039999966,-9.80505600000001,-0.011120103858417675,-0.008031625879983795,0.0047329396799911955,-0.008589386008687576,0.005820786599989149
0.5625,-0.00024933675999888003,-0.7832844000000035,-0.0018204887499950308,-2.3560575000000004,-0.0001781049649992753,1.5711017999999997,0.7850933250000024,0.04,0.039999966,-9.80500800000001,-0.011084229452541899,-0.00812254092498372,0.004782335924991155,-0.008545758901171686,0.0058816627499891
0.5650000000000001,-0.00025559163399887515,-0.7832648400000035,-0.0018482406399950094,-2.3560557,-0.0001821522379992722,1.5711036599999997,0.7850798100000024,0.04,0.039999966,-9.804960000000008,-0.011048355046666122,-0.00821345596998365,0.004831732169991117,-0.008502131793655795,0.005942538899989053
0.5675,-0.00026199380949878644,-0.7832448800000038,-0.0018766413899946183,-2.3560537650000004,-0.0001862941829992151,1.5711055899999995,0.7850659770000026,0.04,0.0399999657,-9.804918800000005,-0.01100857374259198,-0.008310305099980299,0.004881699299990739,-0.008458097139381497,0.0060040235149886375
0.5700000000000001,-0.0002686905879987698,-0.7832241200000039,-0.0019063398599945445,-2.3560515600000005,-0.00019062547199920435,1.5711076599999996,0.7850515080000027,0.04,0.039999964799999996,-9.804891200000005,-0.010960978642114764,-0.00841902239998003,0.004932808199990612,-0.00841324739158972,0.006066725059988482
0.5725,-0.00027538736649875293,-0.7832033600000039,-0.0019360383299944696,-2.3560493550000006,-0.00019495676099919344,1.5711097299999996,0.7850370390000027,0.04,0.0399999639,-9.804863600000004,-0.010913383541637548,-0.008527739699979756,0.004983917099990483,-0.008368397643797942,0.006129426604988324
0.5750000000000001,-0.00028208414499873637,-0.783182600000004,-0.0019657367999943963,-2.35604715,-0.0001992880499991827,1.5711117999999995,0.7850225700000028,0.04,0.039999963,-9.804836000000005,-0.010865788441160332,-0.008636456999979485,0.005035025999990356,-0.008323547896006162,0.0061921281499881685
0.5775,-0.00028878092349871943,-0.783161840000004,-0.001995435269994321,-2.3560449450000003,-0.0002036193389991718,1.5711138699999996,0.7850081010000027,0.04,0.0399999621,-9.804808400000004,-0.010818193340683116,-0.008745174299979211,0.005086134899990227,-0.008278698148214386,0.006254829694988011
0.58,-0.00029547770199870254,-0.783141080000004,-0.002025133739994246,-2.3560427400000004,-0.00020795062799916085,1.5711159399999997,0.7849936320000028,0.04,0.0399999612,-9.804780800000005,-0.010770598240205901,-0.008853891599978937,0.005137243799990098,-0.00823384840042261,0.006317531239987853
0.5825,-0.000302174480498686,-0.7831203200000041,-0.0020548322099941726,-2.3560405350000004,-0.00021228191699915013,1.5711180099999995,0.7849791630000028,0.04,0.0399999603,-9.804753200000006,-0.010723003139728684,-0.008962608899978668,0.005188352699989972,-0.00818899865263083,0.006380232784987698
0.585,-0.00030917540899859467,-0.7830986740000043,-0.0020858700699937704,-2.3560381200000005,-0.00021680825999909157,1.5711203099999995,0.7849640520000031,0.04,0.0399999598,-9.804691800000015,-0.010668773297231746,-0.009078671799976476,0.00524054582998964,-0.008141627721497955,0.006444462939987231
0.5875,-0.00031632841249860135,-0.7830765850000043,-0.0021175776249938,-2.3560356000000007,-0.00022143212999909588,1.5711227249999995,0.784948620000003,0.04,0.0399999595,-9.804613500000015,-0.010611226083722003,-0.009198407499976588,0.0052932810749896884,-0.008092996198693409,0.006509457399987292
0.59,-0.0003234814159986077,-0.7830544960000043,-0.0021492851799938283,-2.3560330800000004,-0.00022605599999909998,1.5711251399999995,0.784933188000003,0.04,0.039999959200000004,-9.804535200000014,-0.010553678870212262,-0.009318143199976694,0.0053460163199897355,-0.008044364675888866,0.00657445185998735
0.5925,-0.0003306344194986144,-0.7830324070000042,-0.002180992734993858,-2.3560305600000007,-0.0002306798699991043,1.5711275549999995,0.784917756000003,0.04,0.0399999589,-9.804456900000014,-0.010496131656702518,-0.009437878899976805,0.005398751564989784,-0.007995733153084321,0.00663944631998741
0.595,-0.0003377874229986207,-0.7830103180000042,-0.0022127002899938863,-2.3560280400000004,-0.0002353037399991084,1.5711299699999997,0.7849023240000029,0.04,0.0399999586,-9.804378600000014,-0.010438584443192777,-0.009557614599976913,0.0054514868099898315,-0.007947101630279778,0.006704440779987468
0.5975,-0.0003449404264986274,-0.7829882290000042,-0.002244407844993916,-2.3560255200000007,-0.0002399276099991127,1.5711323849999996,0.784886892000003,0.04,0.0399999583,-9.804300300000014,-0.010381037229683032,-0.009677350299977024,0.00550422205498988,-0.007898470107475233,0.006769435239987528
0.6,-0.00035209342999863375,-0.7829661400000042,-0.0022761153999939438,-2.3560230000000004,-0.0002445514799991168,1.5711347999999996,0.784871460000003,0.04,0.039999958,-9.804222000000014,-0.010323490016173291,-0.00979708599997713,0.005556957299989927,-0.00784983858467069,0.0068344296999875865
0.6025,-0.00035971663099855104,-0.7829428090000045,-0.00230989344999358,-2.3560202250000004,-0.00024947741099906373,1.5711372299999995,0.7848550110000031,0.04,0.0399999574,-9.804179250000008,-0.010254794312653992,-0.009934679349973847,0.005611268609989677,-0.007798424689108883,0.006901104744987327
0.605,-0.00036733983199855783,-0.7829194780000044,-0.0023436714999936097,-2.3560174500000004,-0.0002544033419990681,1.5711396599999996,0.7848385620000031,0.04,0.0399999568,-9.804136500000007,-0.010186098609132567,-0.01007227269997397,0.0056655799199897255,-0.0077470107935465465,0.006967779789987387
0.6075,-0.00037496303299856495,-0.7828961470000044,-0.0023774495499936416,-2.3560146750000004,-0.0002593292729990727,1.5711420899999995,0.784822113000003,0.04,0.0399999562,-9.804093750000007,-0.010117402905611137,-0.010209866049974098,0.005719891229989776,-0.0076955968979842086,0.007034454834987449
0.61,-0.0003825862339985717,-0.7828728160000044,-0.0024112275999936712,-2.3560119000000004,-0.0002642552039990771,1.5711445199999996,0.7848056640000031,0.04,0.0399999556,-9.804051000000008,-0.010048707202089712,-0.01034745939997422,0.0057742025399898245,-0.007644183002421873,0.007101129879987508
0.6125,-0.0003902094349985788,-0.7828494850000044,-0.002445005649993703,-2.3560091250000004,-0.0002691811349990817,1.5711469499999995,0.784789215000003,0.04,0.039999955,-9.804008250000008,-0.009980011498568283,-0.010485052749974348,0.005828513849989875,-0.007592769106859535,0.00716780492498757
0.615,-0.0003978326359985856,-0.7828261540000043,-0.0024787836999937327,-2.3560063500000004,-0.0002741070659990861,1.5711493799999996,0.784772766000003,0.04,0.039999954399999996,-9.803965500000007,-0.009911315795046857,-0.010622646099974471,0.005882825159989924,-0.007541355211297199,0.0072344799699876295
0.6175,-0.0004056171829984941,-0.7828023550000046,-0.00251327205999333,-2.3560035250000007,-0.00027913654899902737,1.5711518099999995,0.7847559730000032,0.04,0.03999995345,-9.80391875000001,-0.009836536785603766,-0.010757208149976131,0.005937698824989598,-0.007489210506911027,0.007301816434987247
0.62,-0.0004137244219984737,-0.7827776200000047,-0.0025491810399932394,-2.3560006000000007,-0.0002843731359990141,1.5711542399999996,0.7847384920000032,0.04,0.039999951799999996,-9.80386400000001,-0.00974959116430723,-0.010885707599975808,0.005993697199989457,-0.007435604184875972,0.007370475739987074
0.6225,-0.00042183166099845357,-0.7827528850000047,-0.0025850900199931503,-2.3559976750000007,-0.00028960972299900113,1.5711566699999995,0.7847210110000034,0.04,0.03999995015,-9.803809250000011,-0.00966264554301069,-0.011014207049975489,0.006049695574989319,-0.007381997862840915,0.0074391350449869035
0.625,-0.00042993889999843314,-0.7827281500000048,-0.00262099899999306,-2.3559947500000007,-0.00029484630999898793,1.5711590999999996,0.7847035300000034,0.04,0.0399999485,-9.80375450000001,-0.009575699921714155,-0.011142706499975166,0.006105693949989177,-0.00732839154080586,0.0075077943499867305
0.6275000000000001,-0.000438046138998413,-0.7827034150000048,-0.002656907979992971,-2.3559918250000007,-0.00030008289699897495,1.5711615299999995,0.7846860490000034,0.04,0.03999994685,-9.80369975000001,-0.009488754300417615,-0.011271205949974846,0.006161692324989039,-0.007274785218770803,0.00757645365498656
0.63,-0.0004461533779983926,-0.782678680000005,-0.00269281695999288,-2.3559889000000007,-0.00030531948399896175,1.5711639599999996,0.7846685680000035,0.04,0.039999945200000005,-9.803645000000012,-0.009401808679121078,-0.011399705399974524,0.006217690699988897,-0.007221178896735749,0.007645112959986387
0.6325000000000001,-0.0004542606169983725,-0.782653945000005,-0.002728725939992791,-2.3559859750000007,-0.00031055607099894877,1.5711663899999997,0.7846510870000035,0.04,0.03999994355,-9.803590250000012,-0.00931486305782454,-0.011528204849974204,0.006273689074988759,-0.007167572574700691,0.007713772264986217
0.635,-0.0004626996039982607,-0.7826283100000053,-0.0027660951699922985,-2.3559828000000005,-0.000316005512998877,1.5711690499999995,0.7846328980000038,0.04,0.0399999423,-9.803560700000004,-0.009223432559538934,-0.011669702299970086,0.006330658679988387,-0.007113601686443846,0.007783618629985762
0.6375000000000001,-0.00047130446499825407,-0.7826022250000053,-0.002804194524992269,-2.3559795000000006,-0.0003215613824988727,1.5711718249999995,0.7846143550000038,0.04,0.039999941250000004,-9.803543750000005,-0.009129759622756757,-0.011817698749969971,0.0063881138999883425,-0.007059448515075938,0.007854058524985708
0.64,-0.00047990932599824705,-0.7825761400000053,-0.002842293879992238,-2.3559762000000006,-0.00032711725199886815,1.5711745999999995,0.7845958120000038,0.04,0.0399999402,-9.803526800000004,-0.009036086685974583,-0.01196569519996985,0.006445569119988295,-0.0070052953437080324,0.007924498419985649
0.6425,-0.00048851418699824,-0.7825500550000054,-0.0028803932349922073,-2.3559729000000007,-0.0003326731214988636,1.5711773749999995,0.7845772690000038,0.04,0.039999939150000004,-9.803509850000005,-0.00894241374919241,-0.012113691649969728,0.006503024339988248,-0.006951142172340126,0.007994938314985591
0.645,-0.0004971190479982334,-0.7825239700000054,-0.0029184925899921775,-2.3559696000000008,-0.00033822899099885935,1.5711801499999996,0.7845587260000039,0.04,0.0399999381,-9.803492900000004,-0.008848740812410232,-0.012261688099969614,0.0065604795599882035,-0.006896989000972218,0.008065378209985537
0.6475,-0.0005057239089982263,-0.7824978850000054,-0.0029565919449921468,-2.355966300000001,-0.0003437848604988548,1.5711829249999996,0.7845401830000038,0.04,0.03999993705,-9.803475950000005,-0.008755067875628058,-0.012409684549969493,0.006617934779988156,-0.006842835829604313,0.00813581810498548
0.65,-0.0005143287699982197,-0.7824718000000055,-0.002994691299992117,-2.355963000000001,-0.0003493407299988505,1.5711856999999994,0.7845216400000039,0.04,0.039999936,-9.803459000000004,-0.00866139493884588,-0.012557680999969378,0.006675389999988113,-0.0067886826582364045,0.008206257999985426
0.6525,-0.0005234445444981065,-0.7824442495000058,-0.003035039334991619,-2.3559594600000007,-0.00035522451149877786,1.5711886849999994,0.7845020065000041,0.04,0.0399999354,-9.803395550000014,-0.00855079153554943,-0.012719218249966446,0.006734428439987736,-0.006730847246956828,0.008278567449984979
0.655,-0.0005325603189980995,-0.7824166990000058,-0.003075387369991588,-2.355955920000001,-0.0003611082929987733,1.5711916699999995,0.7844823730000041,0.04,0.0399999348,-9.803332100000013,-0.00844018813224947,-0.01288075549996632,0.006793466879987691,-0.006673011835676488,0.008350876899984924
0.6575,-0.000541676093498092,-0.7823891485000057,-0.0031157354049915547,-2.3559523800000006,-0.0003669920744987685,1.5711946549999993,0.7844627395000041,0.04,0.039999934200000004,-9.803268650000014,-0.008329584728949515,-0.013042292749966189,0.006852505319987642,-0.0066151764243961506,0.008423186349984865
0.66,-0.000550791867998085,-0.7823615980000058,-0.0031560834399915237,-2.355948840000001,-0.00037287585599876395,1.5711976399999994,0.7844431060000041,0.04,0.0399999336,-9.803205200000013,-0.008218981325649556,-0.013203829999966065,0.006911543759987597,-0.00655734101311581,0.00849549579998481
0.6625,-0.0005599076424980775,-0.7823340475000058,-0.0031964314749914906,-2.3559453000000006,-0.00037875963749875913,1.5712006249999995,0.7844234725000042,0.04,0.039999933,-9.803141750000014,-0.008108377922349601,-0.013365367249965933,0.0069705821999875486,-0.006499505601835472,0.008567805249984751
0.665,-0.0005690234169980705,-0.7823064970000058,-0.0032367795099914596,-2.3559417600000008,-0.0003846434189987546,1.5712036099999995,0.7844038390000042,0.04,0.0399999324,-9.803078300000013,-0.007997774519049641,-0.013526904499965808,0.007029620639987503,-0.006441670190555132,0.008640114699984694
0.6675,-0.0005783138449979517,-0.7822784565000062,-0.0032778961899909364,-2.355938100000001,-0.0003906392479986783,1.5712065999999993,0.7843838275000045,0.04,0.0399999319,-9.803022400000009,-0.00788246970626377,-0.013691279199963867,0.007089164499987133,-0.006383126089362091,0.008713019949984255
0.67,-0.0005879535799979442,-0.7822494360000062,-0.0033205501599909036,-2.355934200000001,-0.0003968591719986735,1.5712095999999995,0.7843630600000044,0.04,0.039999931600000004,-9.80298160000001,-0.007757762074497075,-0.013861328799963735,0.007149719199987086,-0.006323164608342287,0.008787116799984198
0.6725,-0.0005975933149979364,-0.7822204155000062,-0.0033632041299908686,-2.3559303000000007,-0.00040307909599866847,1.5712125999999995,0.7843422925000044,0.04,0.0399999313,-9.802940800000009,-0.0076330544427303864,-0.014031378399963596,0.007210273899987036,-0.006263203127322486,0.008861213649984137
0.675,-0.0006072330499979289,-0.7821913950000062,-0.003405858099990836,-2.355926400000001,-0.00040929901999866365,1.5712155999999995,0.7843215250000045,0.04,0.039999931,-9.802900000000008,-0.007508346810963693,-0.014201427999963465,0.00727082859998699,-0.006203241646302682,0.00893531049998408
0.6775,-0.000616872784997921,-0.7821623745000063,-0.003448512069990801,-2.3559225000000006,-0.00041551894399865857,1.5712185999999995,0.7843007575000045,0.04,0.039999930700000005,-9.80285920000001,-0.007383639179197005,-0.014371477599963326,0.00733138329998694,-0.006143280165282881,0.00900940734998402
0.68,-0.0006265125199979135,-0.7821333540000063,-0.003491166039990768,-2.3559186000000008,-0.00042173886799865375,1.5712215999999994,0.7842799900000045,0.04,0.0399999304,-9.802818400000008,-0.007258931547430311,-0.014541527199963194,0.007391937999986893,-0.0060833186842630775,0.009083504199983963
0.6825,-0.0006361522549979057,-0.7821043335000063,-0.003533820009990733,-2.355914700000001,-0.00042795879199864867,1.5712245999999994,0.7842592225000046,0.04,0.039999930100000004,-9.80277760000001,-0.007134223915663623,-0.014711576799963055,0.0074524926999868435,-0.006023357203243277,0.0091576010499839
0.685,-0.0006461498139977812,-0.7820742990000067,-0.003578048499990185,-2.355910680000001,-0.00043440831399856874,1.5712276999999992,0.7842376900000048,0.0399999995,0.039999929000000004,-9.80273360000001,-0.0069978084415507485,-0.014886521499961324,0.0075140794399864595,-0.0059622928965970936,0.009232884199983455
0.6875,-0.0006563262849977729,-0.7820437575000068,-0.0036230642499901484,-2.355906600000001,-0.0004409726349985634,1.5712308499999994,0.7842157750000048,0.03999999875,0.039999927500000004,-9.80268800000001,-0.00685553904625906,-0.015063913749961178,0.007576182199986409,-0.005900677177137184,0.009308760499983394
0.6900000000000001,-0.0006665027559977651,-0.7820132160000067,-0.0036680799999901136,-2.3559025200000008,-0.0004475369559985583,1.5712339999999994,0.7841938600000048,0.039999998,0.039999926000000005,-9.80264240000001,-0.006713269650967365,-0.015241305999961041,0.007638284959986361,-0.0058390614576772715,0.009384636799983335
0.6925,-0.0006766792269977568,-0.7819826745000068,-0.003713095749990077,-2.3558984400000007,-0.000454101276998553,1.5712371499999993,0.7841719450000049,0.03999999725,0.0399999245,-9.80259680000001,-0.006571000255675676,-0.015418698249960896,0.0077003877199863105,-0.005777445738217362,0.009460513099983274
0.6950000000000001,-0.0006868556979977489,-0.7819521330000068,-0.003758111499990042,-2.355894360000001,-0.0004606655979985479,1.5712402999999993,0.7841500300000048,0.0399999965,0.039999923,-9.80255120000001,-0.006428730860383981,-0.015596090499960759,0.007762490479986263,-0.0057158300187574495,0.009536389399983216
0.6975,-0.0006970321689977406,-0.7819215915000068,-0.003803127249990005,-2.355890280000001,-0.0004672299189985425,1.5712434499999994,0.7841281150000049,0.03999999575,0.0399999215,-9.80250560000001,-0.006286461465092292,-0.015773482749960613,0.007824593239986211,-0.00565421429929754,0.009612265699983153
0.7000000000000001,-0.0007072086399977327,-0.7818910500000068,-0.0038481429999899707,-2.355886200000001,-0.00047379423999853747,1.5712465999999994,0.7841062000000049,0.039999995,0.03999992,-9.80246000000001,-0.006144192069800597,-0.015950874999960476,0.007886695999986164,-0.005592598579837627,0.009688141999983095
0.7025,-0.0007179344589976016,-0.7818589275000072,-0.003895576104989393,-2.355881820000001,-0.0004807108629984533,1.5712501549999993,0.7840831060000052,0.039999993350000006,0.0399999185,-9.802430300000006,-0.005993368104133942,-0.0161413704999574,0.007950229849985793,-0.005529511277577912,0.009765701524982656
0.705,-0.0007286602779975928,-0.7818268050000072,-0.003943009209989354,-2.355877440000001,-0.0004876274859984477,1.5712537099999992,0.7840600120000052,0.0399999917,0.039999917,-9.802400600000007,-0.00584254413846538,-0.016331865999957246,0.008013763699985741,-0.005466423975317869,0.009843261049982593
0.7075,-0.0007393860969975845,-0.7817946825000073,-0.003990442314989318,-2.355873060000001,-0.0004945441089984423,1.5712572649999992,0.7840369180000052,0.03999999005,0.039999915500000004,-9.802370900000007,-0.0056917201727968115,-0.0165223614999571,0.008077297549985693,-0.005403336673057822,0.009920820574982532
0.71,-0.0007501119159975758,-0.7817625600000073,-0.004037875419989279,-2.355868680000001,-0.0005014607319984367,1.5712608199999991,0.7840138240000052,0.039999988400000006,0.039999914,-9.802341200000008,-0.0055408962071282495,-0.016712856999956942,0.008140831399985641,-0.005340249370797779,0.00999838009998247
0.7125,-0.0007608377349975675,-0.7817304375000073,-0.004085308524989242,-2.355864300000001,-0.0005083773549984313,1.571264374999999,0.7839907300000052,0.03999998675,0.0399999125,-9.802311500000007,-0.005390072241459681,-0.016903352499956795,0.008204365249985591,-0.005277162068537733,0.01007593962498241
0.715,-0.0007715635539975587,-0.7816983150000073,-0.004132741629989204,-2.3558599200000008,-0.0005152939779984256,1.5712679299999992,0.7839676360000052,0.0399999851,0.039999911,-9.802281800000008,-0.005239248275791119,-0.01709384799995664,0.00826789909998554,-0.00521407476627769,0.010153499149982346
0.7175,-0.0007824765549974222,-0.7816656550000077,-0.0041809981949886025,-2.355855450000001,-0.000522330689998338,1.571271494999999,0.7839441430000055,0.039999984,0.0399999098,-9.80224800000001,-0.005082483869084436,-0.017291385449951666,0.008331925949985153,-0.005150054069250938,0.010231629574981894
0.72,-0.000793763919997413,-0.7816319200000077,-0.004230901679988562,-2.355850800000001,-0.0005296075799983321,1.571275079999999,0.7839198520000056,0.039999984,0.0399999092,-9.80220600000001,-0.004913838580289334,-0.017503006799951495,0.008396938799985099,-0.005084166582688862,0.01031090179998183
0.7225,-0.0008050512849974042,-0.7815981850000078,-0.004280805164988523,-2.355846150000001,-0.0005368844699983264,1.5712786649999992,0.7838955610000056,0.039999984,0.0399999086,-9.80216400000001,-0.004745193291494225,-0.017714628149951332,0.008461951649985049,-0.005018279096126782,0.010390174024981769
0.725,-0.000816338649997395,-0.7815644500000078,-0.004330708649988482,-2.355841500000001,-0.0005441613599983205,1.5712822499999992,0.7838712700000056,0.039999984,0.039999908,-9.80212200000001,-0.004576548002699122,-0.01792624949995116,0.008526964499984996,-0.0049523916095647064,0.010469446249981704
0.7275,-0.0008276260149973863,-0.7815307150000078,-0.004380612134988444,-2.355836850000001,-0.0005514382499983149,1.5712858349999992,0.7838469790000057,0.039999984,0.0399999074,-9.80208000000001,-0.004407902713904012,-0.018137870849950995,0.008591977349984946,-0.004886504123002627,0.010548718474981643
0.73,-0.000838913379997377,-0.7814969800000079,-0.004430515619988404,-2.355832200000001,-0.0005587151399983089,1.5712894199999992,0.7838226880000057,0.039999984,0.0399999068,-9.80203800000001,-0.00423925742510891,-0.018349492199950822,0.008656990199984893,-0.004820616636440551,0.010627990699981578
0.7325,-0.0008502007449973682,-0.7814632450000079,-0.004480419104988365,-2.355827550000001,-0.0005659920299983033,1.5712930049999991,0.7837983970000058,0.039999984,0.039999906200000004,-9.80199600000001,-0.0040706121363138,-0.01856111354995066,0.008722003049984842,-0.004754729149878472,0.010707262924981517
0.735,-0.0008618704999972113,-0.7814284100000084,-0.004532004779987674,-2.3558226500000012,-0.0005735141299982026,1.5712966099999992,0.783773280000006,0.0399999844,0.039999906,-9.801960400000008,-0.003891002200587307,-0.01877408799994977,0.008787925749984394,-0.0046881421934970476,0.01078764809998097
0.7375,-0.000873731449997182,-0.7813930250000084,-0.004584431549987544,-2.355817625000001,-0.0005811588349981837,1.5713002249999992,0.7837477500000061,0.039999985,0.039999906,-9.801928000000009,-0.0037059099413893504,-0.01898773899994924,0.008854303374984229,-0.004621205502205578,0.01086858974998077
0.74,-0.0008855923999971521,-0.7813576400000085,-0.004636858319987412,-2.3558126000000015,-0.0005888035399981644,1.5713038399999992,0.7837222200000061,0.0399999856,0.039999906,-9.801895600000009,-0.003520817682191402,-0.0192013899999487,0.008920680999984061,-0.004554268810914112,0.010949531399980564
0.7425,-0.0008974533499971226,-0.7813222550000086,-0.004689285089987282,-2.3558075750000014,-0.0005964482449981454,1.5713074549999992,0.7836966900000062,0.039999986200000004,0.039999906,-9.801863200000009,-0.003335725422993446,-0.01941504099994817,0.008987058624983897,-0.0044873321196226435,0.011030473049980364
0.745,-0.0009093142999970927,-0.7812868700000086,-0.004741711859987149,-2.3558025500000013,-0.0006040929499981261,1.571311069999999,0.7836711600000063,0.0399999868,0.039999906,-9.801830800000008,-0.003150633163795498,-0.019628691999947632,0.00905343624998373,-0.004420395428331177,0.01111141469998016
0.7475,-0.0009211752499970634,-0.7812514850000087,-0.00479413862998702,-2.3557975250000016,-0.0006117376549981073,1.571314684999999,0.7836456300000063,0.0399999874,0.039999906,-9.801798400000008,-0.002965540904597542,-0.019842342999947103,0.009119813874983566,-0.004353458737039708,0.011192356349979959
0.75,-0.0009330361999970334,-0.7812161000000089,-0.004846565399986887,-2.3557925000000015,-0.000619382359998088,1.571318299999999,0.7836201000000065,0.039999988,0.039999906,-9.80176600000001,-0.0027804486453995936,-0.020055993999946564,0.009186191499983398,-0.004286522045748242,0.011273297999979755
0.7525000000000001,-0.0009454824499968987,-0.7811790350000092,-0.004901566739986295,-2.3557872500000014,-0.0006274025149980016,1.5713223499999989,0.7835933400000067,0.0399999883,0.039999906,-9.80172610000001,-0.0025764306076379168,-0.020285047899942926,0.009254038074983094,-0.00421829750995916,0.011355826424979435
0.755,-0.0009579286999969096,-0.7811419700000092,-0.004956568079986344,-2.3557820000000014,-0.0006354226699980086,1.571326399999999,0.7835665800000067,0.0399999886,0.039999906,-9.801686200000011,-0.002372412569871516,-0.02051410179994313,0.009321884649983155,-0.00415007297416976,0.011438354849979508
0.7575000000000001,-0.0009703749499969213,-0.7811049050000092,-0.005011569419986395,-2.3557767500000013,-0.0006434428249980161,1.571330449999999,0.7835398200000067,0.0399999889,0.039999906,-9.80164630000001,-0.0021683945321051053,-0.020743155699943342,0.009389731224983218,-0.004081848438380356,0.011520883274979585
0.76,-0.0009828211999969323,-0.7810678400000092,-0.005066570759986444,-2.3557715000000017,-0.0006514629799980233,1.571334499999999,0.7835130600000066,0.0399999892,0.039999906,-9.801606400000011,-0.001964376494338704,-0.020972209599943545,0.009457577799983278,-0.004013623902590955,0.011603411699979659
0.7625000000000001,-0.000995267449996944,-0.7810307750000091,-0.005121572099986495,-2.3557662500000016,-0.0006594831349980308,1.571338549999999,0.7834863000000066,0.0399999895,0.039999906,-9.80156650000001,-0.001760358456572294,-0.02120126349994376,0.00952542437498334,-0.003945399366801551,0.011685940124979737
0.765,-0.0010077136999969549,-0.7809937100000091,-0.005176573439986544,-2.3557610000000015,-0.0006675032899980379,1.571342599999999,0.7834595400000066,0.039999989799999996,0.039999906,-9.80152660000001,-0.0015563404188058928,-0.021430317399943964,0.009593270949983402,-0.003877174831012151,0.011768468549979809
0.7675000000000001,-0.001020358839996821,-0.7809560800000095,-0.005232449699985956,-2.3557556500000016,-0.0006756510169979521,1.5713466849999989,0.7834323520000068,0.0399999905,0.039999906200000004,-9.80148705000001,-0.0013496167958299474,-0.02166538434993978,0.00966153409998316,-0.0038080253987745737,0.011851514674979509
0.77,-0.0010334017599968328,-0.7809173200000095,-0.005290075799986007,-2.3557501000000016,-0.0006840538879979596,1.571350839999999,0.7834043080000068,0.039999992,0.0399999068,-9.80144820000001,-0.0011374820024289988,-0.02191247739994,0.00973063039998322,-0.003737026173638621,0.011935596199979583
0.7725,-0.0010464446799968443,-0.7808785600000094,-0.005347701899986058,-2.3557445500000016,-0.0006924567589979671,1.571354994999999,0.7833762640000068,0.0399999935,0.0399999074,-9.801409350000009,-0.0009253472090280505,-0.02215957044994022,0.009799726699983283,-0.0036660269485026676,0.012019677724979657
0.775,-0.0010594875999968565,-0.7808398000000094,-0.005405327999986112,-2.3557390000000016,-0.0007008596299979749,1.5713591499999988,0.7833482200000067,0.039999994999999997,0.039999908,-9.80137050000001,-0.0007132124156270926,-0.02240666349994045,0.009868822999983347,-0.0035950277233667114,0.012103759249979735
0.7775,-0.001072530519996868,-0.7808010400000094,-0.0054629540999861625,-2.355733450000001,-0.0007092625009979824,1.5713633049999989,0.7833201760000067,0.0399999965,0.0399999086,-9.801331650000009,-0.0005010776222261441,-0.022653756549940667,0.009937919299983408,-0.003524028498230758,0.012187840774979811
0.78,-0.0010855734399968801,-0.7807622800000094,-0.005520580199986217,-2.355727900000001,-0.0007176653719979902,1.571367459999999,0.7832921320000067,0.039999998,0.0399999092,-9.80129280000001,-0.00028894282882518615,-0.022900849599940896,0.010007015599983472,-0.003453029273094802,0.01227192229997989
0.7825,-0.0010986163599968918,-0.7807235200000092,-0.005578206299986267,-2.355722350000001,-0.0007260682429979977,1.571371614999999,0.7832640880000067,0.0399999995,0.0399999098,-9.801253950000008,-7.68080354242378e-05,-0.023147942649941116,0.010076111899983534,-0.003382030047958849,0.012356003824979964
0.785,-0.0011120645499967286,-0.7806835970000098,-0.0056376149299855495,-2.3557165900000014,-0.0007347310459978929,1.5713758099999988,0.783235166000007,0.0399999995,0.0399999092,-9.801222800000005,0.00014870371663965607,-0.023398690299939472,0.010146136899983107,-0.0033103929367088634,0.012441121799979478
0.7875,-0.0011257153749966943,-0.7806430925000098,-0.005697914824985398,-2.355710725000001,-0.0007435238149978707,1.571380024999999,0.783205805000007,0.03999999875,0.039999908,-9.801195500000006,0.0003809039480421703,-0.023651265249938835,0.01021662624998293,-0.003238436882401525,0.012526757999979262
0.79,-0.0011393661999966605,-0.7806025880000099,-0.005758214719985248,-2.3557048600000012,-0.0007523165839978489,1.5713842399999989,0.7831764440000071,0.039999998,0.0399999068,-9.801168200000006,0.0006131041794446948,-0.02390384019993821,0.010287115599982756,-0.0031664808280941832,0.01261239419997905
0.7925,-0.001153017024996626,-0.78056208350001,-0.005818514614985096,-2.3556989950000014,-0.0007611093529978268,1.571388454999999,0.7831470830000072,0.03999999725,0.039999905599999996,-9.801140900000007,0.0008453044108472092,-0.024156415149937573,0.010357604949982578,-0.003094524773786845,0.012698030399978834
0.795,-0.0011666678499965921,-0.7805215790000101,-0.005878814509984947,-2.3556931300000015,-0.0007699021219978049,1.571392669999999,0.7831177220000073,0.0399999965,0.0399999044,-9.801113600000006,0.0010775046422497336,-0.024408990099936946,0.010428094299982402,-0.003022568719479503,0.012783666599978621
0.7975,-0.0011803186749965576,-0.7804810745000103,-0.0059391144049847945,-2.3556872650000016,-0.0007786948909977827,1.571396884999999,0.7830883610000073,0.03999999575,0.0399999032,-9.801086300000007,0.001309704873652248,-0.024661565049936312,0.010498583649982225,-0.0029506126651721648,0.012869302799978406
0.8,-0.001193969499996524,-0.7804405700000103,-0.005999414299984645,-2.3556814000000013,-0.000787487659997761,1.571401099999999,0.7830590000000074,0.039999995,0.039999902,-9.801059000000008,0.0015419051050547725,-0.024914139999935685,0.01056907299998205,-0.002878656610864823,0.012954938999978193
0.8025,-0.0012082390749963547,-0.7803982535000108,-0.006062435449983901,-2.3556752500000013,-0.0007966771459976524,1.5714057349999988,0.7830283340000078,0.03999999575,0.039999902,-9.80101730000001,0.0017908669076223157,-0.02517895974993235,0.010640922099981645,-0.002805352851301506,0.013041973499977766
0.805,-0.0012225086499963436,-0.7803559370000108,-0.006125456599983852,-2.3556691000000014,-0.0008058666319976453,1.5714103699999988,0.7829976680000078,0.0399999965,0.039999902,-9.800975600000012,0.0020398287101941383,-0.025443779499932144,0.01071277119998159,-0.0027320490917378424,0.0131290079999777
0.8075,-0.0012367782249963321,-0.7803136205000109,-0.006188477749983801,-2.3556629500000015,-0.0008150561179976379,1.5714150049999989,0.7829670020000078,0.03999999725,0.039999902,-9.800933900000011,0.00228879051276595,-0.025708599249931928,0.010784620299981531,-0.0026587453321741824,0.013216042499977628
0.81,-0.001251047799996321,-0.7802713040000109,-0.006251498899983752,-2.3556568000000015,-0.0008242456039976307,1.571419639999999,0.7829363360000079,0.039999998,0.039999902,-9.80089220000001,0.0025377523153377727,-0.025973418999931722,0.010856469399981476,-0.0025854415726105193,0.013303076999977561
0.8125,-0.0012653173749963094,-0.7802289875000109,-0.006314520049983701,-2.3556506500000016,-0.0008334350899976233,1.5714242749999987,0.7829056700000079,0.03999999875,0.039999902,-9.800850500000012,0.002786714117909584,-0.026238238749931506,0.010928318499981417,-0.0025121378130468592,0.01339011149997749
0.8150000000000001,-0.0012795869499962983,-0.7801866710000109,-0.006377541199983652,-2.3556445000000017,-0.0008426245759976162,1.5714289099999987,0.782875004000008,0.0399999995,0.039999902,-9.800808800000011,0.003035675920481407,-0.0265030584999313,0.011000167599981361,-0.0024388340534831957,0.013477145999977421
0.8175,-0.001294066314996123,-0.7801437495000115,-0.00644148500998288,-2.3556382550000015,-0.0008519485999975036,1.5714335749999988,0.7828438870000083,0.04,0.039999901899999996,-9.800771400000007,0.003291344083775533,-0.026777626349923474,0.011072414399980992,-0.002364780684021346,0.013564663849976974
0.8200000000000001,-0.0013089652599961115,-0.7800996180000115,-0.006507274139982829,-2.3556318200000015,-0.0008615416999974962,1.5714382999999987,0.7828118680000083,0.04,0.0399999016,-9.800742600000008,0.0035604249685299897,-0.02707169039992325,0.011145456599980936,-0.0022892280947613593,0.013653148399976906
0.8225,-0.0013238642049960992,-0.7800554865000116,-0.006573063269982775,-2.3556253850000015,-0.0008711347999974884,1.5714430249999987,0.7827798490000084,0.04,0.039999901299999994,-9.800713800000008,0.003829505853284435,-0.027365754449923008,0.011218498799980875,-0.002213675505501376,0.013741632949976833
0.8250000000000001,-0.0013387631499960878,-0.7800113550000116,-0.006638852399982725,-2.3556189500000015,-0.0008807278999974809,1.5714477499999986,0.7827478300000084,0.04,0.039999901,-9.800685000000009,0.004098586738038892,-0.02765981849992278,0.01129154099998082,-0.0021381229162413893,0.013830117499976764
0.8275,-0.0013536620949960755,-0.7799672235000117,-0.0067046415299826705,-2.3556125150000016,-0.0008903209999974731,1.5714524749999987,0.7827158110000084,0.04,0.0399999007,-9.800656200000008,0.004367667622793336,-0.02795388254992254,0.01136458319998076,-0.002062570326981406,0.013918602049976693
0.8300000000000001,-0.001368561039996064,-0.7799230920000116,-0.00677043065998262,-2.3556060800000016,-0.0008999140999974656,1.5714571999999987,0.7826837920000085,0.04,0.039999900399999996,-9.800627400000009,0.004636748507547794,-0.028247946599922313,0.011437625399980703,-0.0019870177377214193,0.014007086599976624
0.8325,-0.0013834599849960518,-0.7798789605000117,-0.006836219789982566,-2.3555996450000016,-0.0009095071999974578,1.5714619249999986,0.7826517730000084,0.04,0.0399999001,-9.800598600000008,0.004905829392302239,-0.028542010649922074,0.011510667599980644,-0.0019114651484614363,0.014095571149976551
0.835,-0.0013987853899958696,-0.7798336010000122,-0.006903884519981764,-2.3555929900000017,-0.0009193736999973409,1.5714667599999985,0.7826188400000088,0.04,0.0399998995,-9.800571200000007,0.0051811663433169,-0.028833282199922948,0.01158456869998024,-0.0018354587606356238,0.014185018699976095
0.8375,-0.0014143240249958576,-0.7797876275000123,-0.006972487049981712,-2.355586225000002,-0.0009293768999973333,1.5714716499999986,0.7825854500000089,0.04,0.03999989875,-9.800544500000008,0.0054596313274654145,-0.02912315749992272,0.011658899249980184,-0.0017592254735266228,0.014274947749976025
0.84,-0.001429862659995845,-0.7797416540000123,-0.007041089579981655,-2.3555794600000017,-0.0009393800999973251,1.5714765399999986,0.7825520600000089,0.04,0.039999898,-9.800517800000007,0.005738096311613918,-0.029413032799922485,0.011733229799980123,-0.0016829921864176252,0.014364876799975952
