rsonawane2002/My_IMU/logs_incomplete/traj_487/imu_487.csv
time,j1,j2,j3,j4,j5,j6,j7,gripper1,gripper2,imu_ax,imu_ay,imu_az,imu_gx,imu_gy,imu_gz
2608.8333333389405,0.00016700293,-0.785875,4.0107683e-05,-2.3551247,9.29385e-05,1.570997,0.786,0.04,0.04,-9.473263,-0.018804486840963364,0.08498057,3.0645316e-07,-0.0011641273740679026,7.373473e-07
2608.8500000056074,0.00016699632,-0.78576016,4.012481e-05,-2.3552213,9.297489e-05,1.5709941,0.786,0.04,0.04,-9.834521,0.0006517100846394897,0.009065204,-2.6094338e-07,-0.0022383921314030886,6.2491733e-07
2608.8666666722743,0.00016692498,-0.78565425,4.0211708e-05,-2.35531,9.30145e-05,1.5709913,0.786,0.04,0.04,-9.832241,0.0006671998999081552,0.0076694638,-1.5030286e-06,-0.0032263658940792084,-1.4695065e-06
2608.883333338941,0.00016668429,-0.7855568,4.0483996e-05,-2.355391,9.306729e-05,1.5709884,0.786,0.04,0.04,-9.830814,0.0007213491480797529,0.006223779,-4.5808497e-06,-0.004132803529500961,-7.751071e-06
2608.900000005608,0.0001661254,-0.7854669,4.1107436e-05,-2.3554645,9.31478e-05,1.5709856,0.786,0.04,0.04,-9.829212,0.0008005050476640463,0.005022167,-1.0355791e-05,-0.0049630883149802685,-2.0007426e-05
2608.916666672275,0.00016505997,-0.7853839,4.2292813e-05,-2.3555312,9.327452e-05,1.5709827,0.786,0.04,0.04,-9.827675,0.000897391582839191,0.003918654,-2.028567e-05,-0.005717692896723747,-3.9850085e-05
2608.933333338942,0.00016326355,-0.78530735,4.4291493e-05,-2.3555918,9.346924e-05,1.5709797,0.785999,0.04,0.04,-9.82609,0.0010058321058750153,0.0029774844,-3.5052573e-05,-0.006402752827852964,-6.872987e-05
2608.9500000056087,0.00016047979,-0.78523654,4.7391124e-05,-2.355649,9.375719e-05,1.5709767,0.7859971,0.04,0.04,-9.825165,0.0011308102402836084,0.0019987882,-5.126294e-05,-0.007023712620139122,-0.000107938424
2608.9666666722756,0.00015642369,-0.7851706,5.191153e-05,-2.3556995,9.416729e-05,1.5709734,0.7859952,0.04,0.04,-9.824406,0.001268679741770029,0.0011531305,-7.0510934e-05,-0.007593400776386261,-0.00015860568
2608.9833333389424,0.00015078511,-0.7851093,5.82016e-05,-2.3557434,9.4727984e-05,1.5709667,0.7859928,0.04,0.04,-9.823161,0.0013913430739194155,0.00041561993,-9.7699274e-05,-0.008102154359221458,-0.00022179187
2609.0000000056093,0.00014323107,-0.78505194,6.663557e-05,-2.3557837,9.5480566e-05,1.5709599,0.785989,0.04,0.039999995,-9.822431,0.0015458900015801191,-0.0002953806,-0.00013201518,-0.008563999086618423,-0.0002976237
2609.016666672276,0.00013340899,-0.78499806,7.761024e-05,-2.3558185,9.6441676e-05,1.5709525,0.7859836,0.04,0.04,-9.82186,0.0016717980615794659,-0.00097483327,-0.00017020952,-0.008978605270385742,-0.00038923995
2609.033333338943,0.00012094861,-0.784947,9.154224e-05,-2.3558464,9.766416e-05,1.570942,0.7859779,0.04,0.039999995,-9.821159,0.0018140353495255113,-0.0016093015,-0.0002126239,-0.009341896511614323,-0.00049420854
2609.05000000561,0.000105464875,-0.7848985,0.00010886534,-2.3558702,9.917095e-05,1.5709306,0.7859703,0.04,0.04,-9.820261,0.0019003014313057065,-0.0021123488,-0.000265927,-0.009660815820097923,-0.00061628135
2609.066666672277,8.655934e-05,-0.78485197,0.00013002795,-2.3558893,0.000101007055,1.5709162,0.78596073,0.04,0.04,-9.820052,0.002035591285675764,-0.0026916615,-0.0003242082,-0.009939364157617092,-0.0007536035
2609.0833333389437,6.382242e-05,-0.784807,0.00015549146,-2.3559017,0.00010321447,1.570898,0.7859493,0.04,0.04,-9.819667,0.0021232834551483393,-0.0031818084,-0.00038842054,-0.010183318518102169,-0.0009074468
2609.1000000056106,3.683512e-05,-0.78476334,0.00018572803,-2.3559096,0.00010583195,1.5708779,0.78593594,0.04,0.04,-9.819122,0.0021928392816334963,-0.0036391758,-0.00045955094,-0.010388923808932304,-0.001078183
2609.1166666722775,5.1704633e-06,-0.78472036,0.00022121861,-2.3559132,0.00010889976,1.5708548,0.78592056,0.04,0.04,-9.818779,0.0022027860395610332,-0.004090451,-0.0005388738,-0.01056048646569252,-0.0012661162
2609.1333333389443,-3.1604934e-05,-0.78467786,0.00026245142,-2.3559096,0.00011247232,1.5708278,0.7859023,0.04,0.039999995,-9.818761,0.0022570567671209574,-0.004559702,-0.000626851,-0.010702150873839855,-0.0014707511
2609.150000005611,-7.392921e-05,-0.78463537,0.00030992078,-2.3559,0.00011656625,1.5707968,0.78588134,0.04,0.04,-9.818363,0.002227124525234103,-0.0049895574,-0.0007206847,-0.010808106511831284,-0.0016954226
2609.166666672278,-0.00012224486,-0.78459245,0.00036412507,-2.3558846,0.00012124667,1.5707612,0.78585744,0.04,0.04,-9.8181305,0.0021877784747630358,-0.005401005,-0.00082196505,-0.01088299136608839,-0.0019354781
2609.183333338945,-0.00017699657,-0.78454876,0.00042556602,-2.3558633,0.00012654216,1.5707206,0.78583026,0.04,0.04,-9.817872,0.0020316396839916706,-0.0057990695,-0.00093120267,-0.010932239703834057,-0.0021950577
2609.200000005612,-0.00023863124,-0.78450406,0.0004947473,-2.3558362,0.00013250348,1.5706749,0.78579974,0.04,0.04,-9.817928,0.0019474580185487866,-0.0062359064,-0.0010472784,-0.010959251783788204,-0.0024717827
2609.2166666722787,-0.0003075962,-0.78445816,0.0005721733,-2.3558016,0.00013917417,1.5706245,0.7857657,0.04,0.04,-9.817885,0.0017659591976553202,-0.0066675334,-0.0011715528,-0.010962426662445068,-0.002766497
2609.2333333389456,-0.00038433893,-0.7844105,0.00065834785,-2.35576,0.00014660668,1.5705677,0.78572774,0.04,0.04,-9.817605,0.0014813279267400503,-0.007120752,-0.0013034858,-0.010935496538877487,-0.0030784337
2609.2500000056125,-0.00046930564,-0.7843609,0.00075377524,-2.3557117,0.00015482731,1.5705056,0.78568566,0.04,0.04,-9.817659,0.001245926832780242,-0.007561159,-0.001442799,-0.01088816486299038,-0.0034098737
2609.2666666722794,-0.0005629412,-0.7843091,0.0008589565,-2.355656,0.00016390377,1.570437,0.7856393,0.04,0.04,-9.817616,0.0009156439919024706,-0.008045653,-0.0015895138,-0.010816127993166447,-0.0037568181
2609.2833333389462,-0.0006656878,-0.7842548,0.000974391,-2.3555927,0.00017384441,1.5703617,0.7855884,0.04,0.04,-9.817623,0.000491890124976635,-0.00852494,-0.0017436632,-0.01072403322905302,-0.0041246368
2609.300000005613,-0.0007779853,-0.78419757,0.0011005746,-2.355522,0.00018471027,1.5702795,0.78553283,0.04,0.04,-9.817526,-3.639981150627136e-05,-0.009043322,-0.0019052742,-0.01061184611171484,-0.004508446
2609.31666667228,-0.00090027007,-0.78413755,0.001237999,-2.355443,0.00019654394,1.5701898,0.7854722,0.039999995,0.04,-9.817712,-0.0004979344084858894,-0.009585332,-0.002074382,-0.010482419282197952,-0.004909688
2609.333333338947,-0.0010329742,-0.7840741,0.0013871522,-2.3553557,0.0002093852,1.5700927,0.78540653,0.03999999,0.039999995,-9.817695,-0.0011049886234104633,-0.010140381,-0.0022505012,-0.010332109406590462,-0.005328179
2609.3500000056138,-0.0011765256,-0.78400713,0.0015485171,-2.3552604,0.0002232781,1.5699877,0.7853355,0.03999999,0.039999995,-9.817747,-0.0017794608138501644,-0.010748379,-0.0024339573,-0.010164330713450909,-0.0057637175
2609.3666666722806,-0.0013313472,-0.7839364,0.0017225706,-2.3551557,0.00023826104,1.5698746,0.7852587,0.039999988,0.03999999,-9.81775,-0.0026208958588540554,-0.01139604,-0.002624814,-0.009981126524508,-0.006216086
2609.3833333389475,-0.0014978575,-0.7838616,0.0019097842,-2.3550415,0.00025436847,1.569753,0.7851762,0.039999984,0.03999999,-9.817865,-0.0033728117123246193,-0.012061351,-0.002822303,-0.00977854710072279,-0.006685808
2609.4000000056144,-0.0016764683,-0.78378266,0.002110623,-2.3549185,0.00027164895,1.5696226,0.7850877,0.039999984,0.03999999,-9.817868,-0.004282780457288027,-0.012769366,-0.0030267928,-0.009556933306157589,-0.007171061
2609.4166666722813,-0.0018675859,-0.7836992,0.0023255462,-2.3547862,0.00029013972,1.5694832,0.784993,0.03999998,0.039999988,-9.818,-0.005285307765007019,-0.013495924,-0.0032383415,-0.009321948513388634,-0.0076723695
2609.433333338948,-0.0020716116,-0.7836111,0.0025550062,-2.3546445,0.00030987666,1.5693341,0.78489196,0.03999998,0.03999999,-9.818035,-0.0064770858734846115,-0.014325957,-0.0034564699,-0.009074116125702858,-0.008190245
2609.450000005615,-0.0022889385,-0.78351825,0.0027994467,-2.354492,0.00033090063,1.5691756,0.7847844,0.03999998,0.039999995,-9.81828,-0.0075594522058963776,-0.015138674,-0.0036818287,-0.008813491091132164,-0.008723613
2609.466666672282,-0.0025199563,-0.78342044,0.003059306,-2.3543293,0.00035325036,1.569007,0.78466994,0.039999977,0.03999999,-9.81827,-0.008826689794659615,-0.016022852,-0.0039139697,-0.008534535765647888,-0.009271302
2609.483333338949,-0.002765044,-0.783317,0.0033350133,-2.3541567,0.00037696192,1.5688282,0.7845485,0.039999973,0.039999988,-9.818248,-0.010303620249032974,-0.016976506,-0.004152146,-0.008242129348218441,-0.00983382
2609.5000000056157,-0.003024576,-0.78320843,0.00362699,-2.3539727,0.00040207166,1.5686388,0.78441995,0.03999997,0.039999984,-9.818573,-0.011667653918266296,-0.01798097,-0.004396995,-0.007940693758428097,-0.010410832
2609.5166666722826,-0.0032989185,-0.7830944,0.0039356505,-2.3537786,0.00042861426,1.5684385,0.78428406,0.03999997,0.039999988,-9.818576,-0.013241502456367016,-0.01901066,-0.0046478044,-0.007622920908033848,-0.01100289
2609.5333333389494,-0.003588433,-0.7829748,0.0042614,-2.3535726,0.0004566257,1.5682273,0.7841407,0.039999966,0.039999984,-9.818774,-0.014906777068972588,-0.020093352,-0.00490522,-0.00729612959548831,-0.01160792
2609.5500000056163,-0.0038934685,-0.7828491,0.0046046395,-2.353356,0.0004861394,1.5680046,0.78398967,0.03999996,0.03999998,-9.8186655,-0.016804907470941544,-0.021274406,-0.005168815,-0.006953839678317308,-0.012226413
2609.566666672283,-0.0042143725,-0.7827167,0.0049657533,-2.3531263,0.0005171885,1.5677705,0.78383064,0.039999958,0.039999977,-9.819004,-0.01857757195830345,-0.022480793,-0.005438356,-0.006604735739529133,-0.012857992
2609.58333333895,-0.004551479,-0.78257835,0.0053451234,-2.352885,0.0005498058,1.5675247,0.7836636,0.039999954,0.039999973,-9.818994,-0.020578894764184952,-0.02382196,-0.005713496,-0.006240242626518011,-0.013502323
2609.600000005617,-0.00490512,-0.7824336,0.00574312,-2.352632,0.0005840228,1.5672666,0.7834884,0.03999995,0.03999997,-9.8190775,-0.022686243057250977,-0.025149476,-0.0059942706,-0.005863578524440527,-0.014159096
2609.616666672284,-0.005275617,-0.78228265,0.006160109,-2.3523657,0.0006198724,1.5669963,0.7833048,0.03999995,0.03999997,-9.8191185,-0.025043413043022156,-0.026589392,-0.0062808865,-0.005479760002344847,-0.014827689
2609.6333333389507,-0.0056632822,-0.7821246,0.0065964432,-2.3520882,0.0006573818,1.5667135,0.7831127,0.039999947,0.03999997,-9.819194,-0.027262363582849503,-0.028021548,-0.006573101,-0.005079230293631554,-0.015508799
2609.6500000056176,-0.006068422,-0.78195983,0.0070524677,-2.3517973,0.0006965825,1.5664177,0.78291196,0.039999943,0.039999966,-9.819467,-0.02971840091049671,-0.029599728,-0.0068704803,-0.004675867967307568,-0.016200364
2609.6666666722845,-0.0064913346,-0.78178805,0.007528519,-2.351493,0.0007375041,1.5661091,0.7827024,0.039999943,0.039999966,-9.819496,-0.03230287879705429,-0.031214064,-0.007173493,-0.004260784015059471,-0.016902583
2609.6833333389513,-0.00693231,-0.78160936,0.008024925,-2.3511753,0.0007801705,1.5657873,0.7824839,0.039999943,0.039999977,-9.819322,-0.035176027566194534,-0.032950602,-0.0074816286,-0.003831976791843772,-0.01761972
2609.700000005618,-0.0073916297,-0.7814233,0.008542009,-2.3508453,0.0008246141,1.5654522,0.78225625,0.03999994,0.03999998,-9.819552,-0.03784532472491264,-0.034670357,-0.0077948277,-0.0033933576196432114,-0.018344086
2609.716666672285,-0.007869569,-0.78123,0.009080069,-2.3505018,0.0008708596,1.5651037,0.7820194,0.039999936,0.03999999,-9.819758,-0.040812812745571136,-0.03653757,-0.008113115,-0.002950105117633939,-0.019078901
2609.733333338952,-0.008366392,-0.7810291,0.009639413,-2.350144,0.0009189356,1.5647411,0.78177303,0.039999936,0.039999995,-9.819671,-0.04402724280953407,-0.03849753,-0.00843608,-0.0024970804806798697,-0.01982046
2609.750000005619,-0.008882361,-0.78082067,0.01022033,-2.349772,0.00096887414,1.5643647,0.7815173,0.039999936,0.039999995,-9.8197775,-0.047091975808143616,-0.040466573,-0.008763625,-0.0020327912643551826,-0.020570865
2609.7666666722857,-0.009417721,-0.78060454,0.010823106,-2.349386,0.0010206886,1.5639738,0.78125197,0.039999936,0.039999995,-9.819825,-0.050433091819286346,-0.042556994,-0.009096142,-0.0015591145493090153,-0.021329677
2609.7833333389526,-0.009972716,-0.78038055,0.011448013,-2.3489854,0.001074411,1.563569,0.78097695,0.039999932,0.039999995,-9.819908,-0.05391712486743927,-0.044715554,-0.009433408,-0.0010794486152008176,-0.022097351
2609.8000000056195,-0.01054758,-0.7801487,0.012095312,-2.3485706,0.0011300542,1.5631495,0.7806921,0.039999932,0.039999995,-9.819711,-0.057676300406455994,-0.047031276,-0.009775367,-0.0005864952108822763,-0.02287171
2609.8166666722864,-0.01114254,-0.7799088,0.012765261,-2.3481417,0.0011876425,1.5627152,0.7803972,0.039999932,0.039999995,-9.819914,-0.061261847615242004,-0.04931488,-0.010121556,-8.739202166907489e-05,-0.02365324
2609.8333333389533,-0.011757814,-0.77966094,0.013458106,-2.3476982,0.0012472017,1.5622661,0.7800922,0.039999936,0.04,-9.820033,-0.06514059752225876,-0.051739596,-0.010471811,0.0004159671370871365,-0.024441577
2609.85000000562,-0.012393608,-0.7794047,0.014174086,-2.3472397,0.0013087488,1.561802,0.779777,0.039999936,0.04,-9.820037,-0.06915552169084549,-0.05425321,-0.010826287,0.0009284286643378437,-0.02523631
2609.866666672287,-0.01305013,-0.77914035,0.014913428,-2.346766,0.0013723178,1.5613227,0.77945155,0.039999932,0.04,-9.819894,-0.07347650825977325,-0.05691982,-0.0111846095,0.0014477031072601676,-0.026037768
2609.883333338954,-0.013727571,-0.7788677,0.015676351,-2.3462768,0.0014379162,1.5608281,0.7791158,0.039999932,0.04,-9.819988,-0.07759926468133926,-0.05955763,-0.011547372,0.0019765314646065235,-0.02684399
2609.9000000056208,-0.014426117,-0.77858657,0.016463064,-2.3457725,0.001505549,1.5603182,0.7787695,0.03999993,0.04,-9.819909,-0.08203878998756409,-0.062340043,-0.011913941,0.00251524499617517,-0.027656872
2609.9166666722876,-0.015145944,-0.7782969,0.017273773,-2.3452528,0.0015752518,1.5597929,0.77841264,0.03999992,0.039999995,-9.819962,-0.08660615980625153,-0.06523363,-0.012284205,0.0030594163108617067,-0.028473666
2609.9333333389545,-0.015887232,-0.7779986,0.018108662,-2.3447175,0.0016470207,1.5592519,0.7780454,0.039999913,0.039999995,-9.819732,-0.09149175137281418,-0.068264015,-0.01265816,0.0036119658034294844,-0.029295469
2609.9500000056214,-0.016650142,-0.7776918,0.01896793,-2.3441665,0.0017208661,1.5586952,0.77766734,0.039999906,0.039999995,-9.819866,-0.09617643803358078,-0.07129123,-0.013036931,0.00417141430079937,-0.030121071
2609.9666666722883,-0.017434813,-0.7773762,0.01985174,-2.3435996,0.0017968124,1.5581226,0.77727836,0.0399999,0.039999995,-9.819777,-0.10116744786500931,-0.07445236,-0.0134186465,0.004739224910736084,-0.030949997
2609.983333338955,-0.018241413,-0.7770516,0.020760274,-2.343017,0.0018748834,1.5575339,0.7768785,0.039999895,0.039999995,-9.8195095,-0.10648015886545181,-0.0777837,-0.013803371,0.005316027905791998,-0.03178111
2610.000000005622,-0.019070074,-0.7767185,0.02169367,-2.3424187,0.0019550668,1.5569292,0.7764677,0.03999989,0.04,-9.819686,-0.11159338802099228,-0.08110227,-0.014191325,0.005895213223993778,-0.032616444
2610.016666672289,-0.01992093,-0.7763765,0.022652086,-2.3418043,0.0020374034,1.5563083,0.77604586,0.03999989,0.04,-9.81954,-0.11700714379549026,-0.08455986,-0.014582667,0.006484204903244972,-0.033452313
2610.033333338956,-0.020794105,-0.77602553,0.023635661,-2.341173,0.002121901,1.5556709,0.77561295,0.039999884,0.04,-9.819453,-0.12258242070674896,-0.08813388,-0.014977188,0.007078671827912331,-0.034290772
2610.0500000056227,-0.02168971,-0.77566564,0.024644535,-2.3405263,0.0022085845,1.5550171,0.77516896,0.039999884,0.04,-9.819075,-0.12846381962299347,-0.091858596,-0.015374777,0.007683036383241415,-0.035128973
2610.0666666722896,-0.02260786,-0.7752967,0.025678832,-2.339863,0.0022974384,1.5543469,0.77471375,0.03999988,0.04,-9.819241,-0.13415229320526123,-0.09558951,-0.01577553,0.008289777673780918,-0.0359698
2610.0833333389564,-0.023548655,-0.77491856,0.026738664,-2.3391836,0.0023885006,1.5536603,0.7742473,0.03999988,0.04,-9.81904,-0.14014142751693726,-0.09947176,-0.016179046,0.008904678747057915,-0.036809556
2610.1000000056233,-0.024512194,-0.77453125,0.02782414,-2.3384874,0.0024817593,1.5529569,0.7737696,0.039999876,0.04,-9.818909,-0.14629733562469482,-0.10349412,-0.016585395,0.009524950757622719,-0.03765117
2610.11666667229,-0.025498573,-0.7741346,0.028935362,-2.3377745,0.0025772355,1.5522369,0.7732807,0.039999872,0.04,-9.818537,-0.15276114642620087,-0.10765326,-0.016994808,0.010152694769203663,-0.03849171
2610.133333338957,-0.026507856,-0.7737289,0.030072415,-2.3370454,0.0026749189,1.5514996,0.7727802,0.03999987,0.04,-9.818536,-0.159011572599411,-0.111840524,-0.017407058,0.010785244405269623,-0.039331574
2610.150000005624,-0.027540125,-0.77331406,0.031235391,-2.3363001,0.002774841,1.5507464,0.7722684,0.039999865,0.04,-9.8183565,-0.16558505594730377,-0.116135,-0.017821189,0.01142135914415121,-0.04017049
2610.166666672291,-0.028595448,-0.77289003,0.03242436,-2.3355374,0.002876996,1.5499759,0.77174526,0.03999986,0.04,-9.818163,-0.17230522632598877,-0.12060424,-0.018238481,0.012066018767654896,-0.041008078
2610.1833333389577,-0.029673884,-0.77245647,0.033639383,-2.334758,0.0029813664,1.5491889,0.77121055,0.039999858,0.04,-9.817687,-0.17935717105865479,-0.12521319,-0.018658254,0.012718013487756252,-0.04184529
2610.2000000056246,-0.030775473,-0.7720138,0.034880538,-2.3339622,0.0030879863,1.5483847,0.77066445,0.03999985,0.04,-9.817594,-0.18617554008960724,-0.12984288,-0.019080345,0.013377011753618717,-0.042679522
2610.2166666722915,-0.031900268,-0.7715618,0.036147863,-2.33315,0.0031968656,1.5475636,0.77010685,0.039999843,0.04,-9.817364,-0.19331663846969604,-0.13461186,-0.019505002,0.01403920166194439,-0.043510333
2610.2333333389583,-0.03304831,-0.7711004,0.037441403,-2.3323202,0.0033079872,1.5467256,0.76953757,0.039999835,0.04,-9.816974,-0.20079836249351501,-0.13958971,-0.019931966,0.014705780893564224,-0.044339094
2610.250000005625,-0.03421963,-0.7706298,0.03876119,-2.3314736,0.0034213492,1.5458703,0.76895684,0.039999828,0.04,-9.816753,-0.20804105699062347,-0.14455935,-0.02036045,0.01538121048361063,-0.045164354
2610.266666672292,-0.035414264,-0.77014977,0.040107254,-2.3306103,0.0035369762,1.5449984,0.7683646,0.039999824,0.04,-9.816408,-0.21559835970401764,-0.14968076,-0.020791478,0.01606142520904541,-0.04598507
2610.283333338959,-0.03663221,-0.76966023,0.041479625,-2.3297303,0.0036548611,1.5441093,0.76776075,0.03999982,0.04,-9.81607,-0.2233089804649353,-0.15495795,-0.02122464,0.01674840785562992,-0.046802565
2610.300000005626,-0.037873484,-0.76916146,0.04287831,-2.3288338,0.0037750048,1.5432032,0.7671453,0.039999813,0.04,-9.815633,-0.23134499788284302,-0.16042763,-0.02165962,0.01743769459426403,-0.047615647
2610.3166666722927,-0.0391381,-0.7686532,0.044303313,-2.3279192,0.0038973938,1.5422802,0.7665183,0.039999805,0.04,-9.815446,-0.2391417771577835,-0.16585068,-0.022096401,0.018130691722035408,-0.048423808
2610.3333333389596,-0.040426053,-0.76813585,0.045754634,-2.3269887,0.004022053,1.54134,0.76587975,0.0399998,0.04,-9.814866,-0.24725224077701569,-0.17150049,-0.0225354,0.01883622258901596,-0.049225938
2610.3500000056265,-0.041737325,-0.7676088,0.047232248,-2.3260415,0.004148966,1.540383,0.76522964,0.039999798,0.04,-9.814539,-0.25551122426986694,-0.177228,-0.022976113,0.01954267919063568,-0.05002341
2610.3666666722934,-0.043071907,-0.7670727,0.048736166,-2.325077,0.0042781453,1.5394086,0.764568,0.039999794,0.04,-9.814024,-0.2640893757343292,-0.18321238,-0.023418356,0.020252332091331482,-0.050814234
2610.3833333389603,-0.04442977,-0.7665271,0.05026635,-2.3240955,0.004409571,1.5384172,0.76389474,0.039999783,0.04,-9.813656,-0.27243298292160034,-0.18912712,-0.023862267,0.02096748910844326,-0.051600434
2610.400000005627,-0.045810904,-0.76597214,0.05182279,-2.3230972,0.0045432425,1.537409,0.7632099,0.03999978,0.04,-9.81312,-0.2810761034488678,-0.19527407,-0.024307696,0.02168954908847809,-0.052379202
2610.416666672294,-0.047215268,-0.76540786,0.05340541,-2.3220825,0.00467917,1.5363836,0.76251364,0.039999776,0.04,-9.812625,-0.28985655307769775,-0.20154859,-0.024754465,0.022415969520807266,-0.05315013
2610.433333338961,-0.048642814,-0.76483417,0.055014197,-2.321051,0.004817335,1.5353415,0.761806,0.03999977,0.04,-9.812012,-0.29896825551986694,-0.20801263,-0.025203023,0.023144947364926338,-0.053915523
2610.4500000056278,-0.050093498,-0.76425135,0.056649093,-2.3200018,0.0049577435,1.5342824,0.7610868,0.039999764,0.04,-9.811595,-0.3078143298625946,-0.21448402,-0.025653366,0.02387874387204647,-0.0546725
2610.4666666722947,-0.05156729,-0.7636591,0.058310036,-2.3189366,0.0051003885,1.5332066,0.76035535,0.03999976,0.04,-9.810908,-0.31698018312454224,-0.22111563,-0.02610493,0.024620717391371727,-0.05542147
2610.4833333389615,-0.053064115,-0.7630577,0.059996963,-2.3178554,0.0052452586,1.5321139,0.75961304,0.03999975,0.04,-9.810265,-0.32648006081581116,-0.2280032,-0.026553778,0.025363817811012268,-0.05616295
2610.5000000056284,-0.0545839,-0.76244706,0.061709803,-2.316757,0.005392349,1.5310044,0.7588597,0.039999742,0.04,-9.809838,-0.33569008111953735,-0.2348611,-0.027006242,0.026109037920832634,-0.056895155
2610.5166666722953,-0.05612658,-0.7618271,0.063448474,-2.3156419,0.0055416673,1.5298783,0.75809497,0.03999974,0.04,-9.80912,-0.34522587060928345,-0.24190734,-0.027461715,0.026860063895583153,-0.057617683
2610.533333338962,-0.057692077,-0.7611981,0.06521288,-2.31451,0.005693189,1.5287355,0.7573188,0.039999727,0.04,-9.808451,-0.35488730669021606,-0.24911979,-0.02791792,0.027615230530500412,-0.05833266
2610.550000005629,-0.05928032,-0.76056,0.06700295,-2.313362,0.0058469,1.527576,0.7565313,0.039999723,0.04,-9.80759,-0.3648523688316345,-0.25652787,-0.028374651,0.028375117108225822,-0.059037395
2610.566666672296,-0.060891222,-0.7599128,0.068818614,-2.3121974,0.0060028224,1.5264,0.75573266,0.03999972,0.04,-9.806962,-0.3745509684085846,-0.26390725,-0.028831765,0.029139487072825432,-0.059732266
2610.583333338963,-0.06252468,-0.7592564,0.0706597,-2.3110168,0.0061609163,1.5252074,0.7549228,0.039999712,0.04,-9.806254,-0.3845647871494293,-0.27151087,-0.029290322,0.029905691742897034,-0.06041775
2610.6000000056297,-0.064180605,-0.75859123,0.072526135,-2.3098202,0.006321196,1.5239985,0.7541018,0.039999705,0.04,-9.805475,-0.3946731388568878,-0.27927244,-0.029749481,0.030674384906888008,-0.061092246
2610.6166666722966,-0.06585887,-0.7579169,0.07441777,-2.308607,0.006483648,1.5227731,0.7532697,0.0399997,0.04,-9.804564,-0.4050908088684082,-0.28722593,-0.030209305,0.031446248292922974,-0.061755303
2610.6333333389634,-0.06755938,-0.75723374,0.076334566,-2.3073778,0.0066482406,1.5215317,0.75242645,0.03999969,0.04,-9.803851,-0.4152533710002899,-0.29517597,-0.030669637,0.03222015127539635,-0.062411644
2610.6500000056303,-0.06928203,-0.7565415,0.0782763,-2.3061323,0.006814961,1.5202742,0.7515723,0.039999686,0.04,-9.802928,-0.42570242285728455,-0.3033455,-0.031129958,0.03299962356686592,-0.0630557
2610.666666672297,-0.071026705,-0.7558404,0.080242895,-2.304871,0.0069838217,1.519,0.7507072,0.039999682,0.04,-9.802005,-0.43622782826423645,-0.31166202,-0.031591292,0.033782172948122025,-0.063686885
2610.683333338964,-0.07279327,-0.7551305,0.08223418,-2.3035944,0.007154794,1.5177103,0.7498313,0.039999682,0.04,-9.801023,-0.44706985354423523,-0.32019722,-0.032052457,0.03456423804163933,-0.064307176
2610.700000005631,-0.07458159,-0.7544118,0.08425002,-2.3023014,0.007327869,1.5164049,0.7489446,0.03999968,0.04,-9.8002,-0.45762914419174194,-0.32872418,-0.03251464,0.03534833714365959,-0.064915545
2610.716666672298,-0.076391526,-0.75368464,0.086290285,-2.300993,0.007503047,1.5150836,0.748047,0.03999967,0.04,-9.799154,-0.4684692919254303,-0.3374682,-0.032976642,0.03613721951842308,-0.065510884
2610.7333333389647,-0.07822297,-0.75294864,0.08835477,-2.2996693,0.0076802894,1.5137461,0.7471389,0.039999668,0.04,-9.798027,-0.47961515188217163,-0.34642345,-0.033438016,0.03692859783768654,-0.06609608
2610.7500000056316,-0.080075726,-0.7522042,0.090443335,-2.2983303,0.007859607,1.5123934,0.74622023,0.039999664,0.04,-9.797144,-0.4904312193393707,-0.355379,-0.03390086,0.037717055529356,-0.06666487
2610.7666666722985,-0.08194965,-0.75145125,0.09255578,-2.2969763,0.008041,1.5110253,0.74529105,0.039999656,0.04,-9.796038,-0.5015546083450317,-0.36455494,-0.03436328,0.03850887343287468,-0.06722078
2610.7833333389653,-0.083844624,-0.75068974,0.094692,-2.2956073,0.008224417,1.509642,0.74435127,0.039999645,0.04,-9.794968,-0.51277756690979,-0.37388635,-0.034825712,0.03930124640464783,-0.067765445
2610.8000000056322,-0.08576047,-0.74991983,0.09685177,-2.2942228,0.008409854,1.5082436,0.7434013,0.039999634,0.04,-9.793759,-0.5242499709129333,-0.3834715,-0.03528716,0.040094178169965744,-0.06829668
2610.816666672299,-0.087697014,-0.74914163,0.09903491,-2.292823,0.008597288,1.5068299,0.74244094,0.039999627,0.04,-9.792611,-0.5354465246200562,-0.3930008,-0.035749216,0.04089004173874855,-0.06881434
2610.833333338966,-0.08965407,-0.7483553,0.10124122,-2.291408,0.008786719,1.5054013,0.74147063,0.03999962,0.04,-9.791341,-0.5468947887420654,-0.4027558,-0.036210787,0.04168833792209625,-0.06931753
2610.850000005633,-0.091631524,-0.74756044,0.10347054,-2.2899783,0.008978106,1.5039579,0.7404901,0.03999961,0.04,-9.790001,-0.558440625667572,-0.41265526,-0.03667281,0.042490579187870026,-0.06980833
2610.8666666722997,-0.093629174,-0.7467576,0.10572265,-2.2885344,0.009171447,1.5024995,0.73949945,0.039999604,0.04,-9.788679,-0.5702208280563354,-0.42283833,-0.037133813,0.04329121112823486,-0.0702841
2610.8833333389666,-0.09564678,-0.745947,0.10799731,-2.287076,0.009366735,1.5010258,0.738499,0.039999593,0.04,-9.787481,-0.5817270874977112,-0.43293864,-0.037594065,0.044089771807193756,-0.07074511
2610.9000000056335,-0.097684205,-0.74512833,0.11029434,-2.285603,0.009563938,1.4995375,0.73748857,0.039999582,0.04,-9.786093,-0.5934801697731018,-0.44327372,-0.038053688,0.04488721489906311,-0.07119249
2610.9166666723004,-0.099741265,-0.74430174,0.11261354,-2.284116,0.009763035,1.4980363,0.7364686,0.03999958,0.04,-9.784674,-0.6052913665771484,-0.4537818,-0.038512595,0.04568450525403023,-0.07162464
2610.9333333389673,-0.10181773,-0.7434674,0.11495466,-2.282615,0.009964025,1.49652,0.73543906,0.03999957,0.04,-9.783151,-0.6173424124717712,-0.46457756,-0.038971547,0.046486739069223404,-0.07204185
2610.950000005634,-0.103913404,-0.74262536,0.11731747,-2.2811003,0.010166868,1.4949901,0.73439986,0.039999556,0.04,-9.781739,-0.6291326880455017,-0.4752576,-0.0394298,0.047286324203014374,-0.07244658
2610.966666672301,-0.10602813,-0.7417756,0.11970175,-2.2795715,0.010371553,1.4934462,0.7333512,0.03999955,0.04,-9.780281,-0.6411118507385254,-0.4862264,-0.039886717,0.048084016889333725,-0.07283391
2610.983333338968,-0.10816165,-0.74091804,0.12210729,-2.2780294,0.010578073,1.4918886,0.73229325,0.039999545,0.04,-9.778638,-0.6533275246620178,-0.4974413,-0.040342472,0.04888131096959114,-0.07320549
2611.000000005635,-0.11031377,-0.74005324,0.12453383,-2.2764733,0.010786378,1.4903172,0.73122597,0.03999953,0.04,-9.777119,-0.6652870178222656,-0.5086083,-0.040797543,0.04967670142650604,-0.07356504
2611.0166666723017,-0.11248427,-0.7391813,0.12698108,-2.274904,0.010996463,1.4887327,0.73014975,0.039999522,0.04,-9.775425,-0.6774232983589172,-0.52000016,-0.0412507,0.05047251284122467,-0.07390649
2611.0333333389685,-0.11467292,-0.73830163,0.12944886,-2.273322,0.011208319,1.4871345,0.72906446,0.03999951,0.04,-9.77374,-0.6896267533302307,-0.5315368,-0.0417039,0.05126878246665001,-0.07423339
2611.0500000056354,-0.11687949,-0.73741454,0.1319369,-2.271727,0.011421891,1.4855235,0.7279703,0.0399995,0.04,-9.772097,-0.702034592628479,-0.5433787,-0.042155154,0.05205658823251724,-0.07454578
2611.0666666723023,-0.11910379,-0.7365209,0.13444492,-2.2701187,0.011637189,1.4838996,0.726867,0.039999492,0.04,-9.770369,-0.7141493558883667,-0.55515385,-0.04260504,0.05284351855516434,-0.074840985
2611.083333338969,-0.12134555,-0.73561984,0.13697268,-2.2684977,0.011854183,1.4822628,0.7257554,0.03999949,0.04,-9.768459,-0.726473867893219,-0.56712013,-0.04305188,0.05363418906927109,-0.07512077
2611.100000005636,-0.12360453,-0.734712,0.13951991,-2.2668653,0.01207286,1.4806135,0.72463536,0.039999474,0.04,-9.766658,-0.7388235926628113,-0.5792925,-0.043498814,0.05441952124238014,-0.07538429
2611.116666672303,-0.12588051,-0.7337974,0.14208636,-2.2652197,0.012293169,1.4789516,0.7235068,0.039999463,0.04,-9.764855,-0.7513761520385742,-0.5917019,-0.043944523,0.055198412388563156,-0.075633496
2611.13333333897,-0.12817323,-0.7328758,0.14467171,-2.2635617,0.012515102,1.4772775,0.72236997,0.03999945,0.04,-9.762886,-0.7636314034461975,-0.6040348,-0.0443881,0.05597682669758797,-0.07586574
2611.1500000056367,-0.13048247,-0.7319479,0.1472757,-2.261892,0.012738634,1.4755913,0.7212248,0.039999444,0.04,-9.760862,-0.7760651111602783,-0.6166528,-0.044829864,0.05675458908081055,-0.07608116
2611.1666666723036,-0.13280797,-0.7310135,0.14989808,-2.2602105,0.012963747,1.4738934,0.7200715,0.039999437,0.04,-9.758919,-0.7885276675224304,-0.6293802,-0.045269042,0.0575266107916832,-0.07628138
2611.1833333389704,-0.13514948,-0.7300726,0.15253854,-2.2585173,0.01319039,1.4721838,0.71891034,0.039999425,0.04,-9.756796,-0.8011563420295715,-0.6423788,-0.045705914,0.058297351002693176,-0.07646596
2611.2000000056373,-0.13750675,-0.72912514,0.15519686,-2.2568128,0.013418568,1.4704627,0.7177414,0.03999942,0.04,-9.754726,-0.8134891390800476,-0.6553083,-0.046141304,0.05906431004405022,-0.07663204
2611.216666672304,-0.13987951,-0.72817165,0.15787262,-2.2550974,0.013648267,1.4687302,0.7165648,0.03999941,0.04,-9.752648,-0.8260188102722168,-0.66852736,-0.04657379,0.05982452258467674,-0.07678367
2611.233333338971,-0.14226748,-0.7272121,0.16056558,-2.2533712,0.013879435,1.4669868,0.7153807,0.0399994,0.04,-9.750463,-0.8386561274528503,-0.6819507,-0.047004797,0.060580141842365265,-0.07692013
2611.250000005638,-0.14467038,-0.7262464,0.16327542,-2.251634,0.014112035,1.4652324,0.7141892,0.039999392,0.04,-9.748299,-0.8510520458221436,-0.69533837,-0.047433484,0.06133025139570236,-0.077040054
2611.266666672305,-0.14708796,-0.72527486,0.16600187,-2.2498863,0.014346061,1.4634671,0.71299034,0.03999938,0.04,-9.745978,-0.8635604977607727,-0.7089578,-0.047859322,0.062077298760414124,-0.07714329
2611.2833333389717,-0.14952,-0.72429764,0.16874465,-2.248128,0.014581497,1.4616913,0.71178424,0.03999937,0.04,-9.743721,-0.8760860562324524,-0.7227276,-0.048282325,0.06281621009111404,-0.07722967
2611.3000000056386,-0.15196615,-0.7233146,0.17150342,-2.2463596,0.014818307,1.4599055,0.7105711,0.039999362,0.04,-9.741298,-0.8887279033660889,-0.73672855,-0.048702404,0.0635521188378334,-0.07729949
2611.3166666723055,-0.15442625,-0.722326,0.17427786,-2.2445812,0.015056466,1.4581094,0.7093512,0.039999343,0.04,-9.738967,-0.9011250138282776,-0.7507085,-0.04911922,0.06428179889917374,-0.07735482
2611.3333333389724,-0.15689993,-0.72133195,0.17706762,-2.2427926,0.015295945,1.4563034,0.7081245,0.039999332,0.04,-9.736518,-0.9136059880256653,-0.7648945,-0.049534064,0.06500468403100967,-0.07739278
2611.3500000056392,-0.15938684,-0.7203326,0.17987245,-2.240995,0.015536693,1.4544878,0.70689124,0.03999933,0.04,-9.73399,-0.9261049628257751,-0.7792244,-0.04994567,0.06572303175926208,-0.07741579
2611.366666672306,-0.16188677,-0.719328,0.18269195,-2.2391875,0.015778719,1.4526625,0.70565164,0.03999932,0.04,-9.731505,-0.9386928677558899,-0.7938098,-0.050353494,0.06643380969762802,-0.07742222
2611.383333338973,-0.16439945,-0.7183183,0.1855259,-2.2373707,0.016021963,1.4508278,0.7044056,0.03999931,0.04,-9.728885,-0.951026201248169,-0.80831087,-0.05075901,0.06713815033435822,-0.07741266
2611.40000000564,-0.16692458,-0.71730363,0.18837388,-2.235545,0.016266426,1.4489841,0.70315343,0.0399993,0.04,-9.7262535,-0.9634583592414856,-0.8230559,-0.05116069,0.06783581525087357,-0.077387
2611.4166666723067,-0.16946182,-0.71628404,0.19123565,-2.2337105,0.01651205,1.4471314,0.7018952,0.039999288,0.04,-9.7236,-0.9758647084236145,-0.83793944,-0.051559083,0.06852572411298752,-0.077346414
2611.4333333389736,-0.17201094,-0.7152598,0.19411081,-2.2318678,0.016758826,1.4452701,0.700631,0.03999928,0.04,-9.720907,-0.9883376359939575,-0.85306144,-0.051952954,0.06920680403709412,-0.077288255
2611.4500000056405,-0.17457154,-0.71423095,0.19699901,-2.2300165,0.017006746,1.4434005,0.6993612,0.03999927,0.04,-9.718173,-1.0005788803100586,-0.86811215,-0.05234369,0.06987954676151276,-0.07721468
2611.4666666723074,-0.17714347,-0.71319747,0.19989993,-2.2281568,0.01725574,1.4415227,0.69808584,0.039999265,0.04,-9.715345,-1.0129008293151855,-0.8834055,-0.052730348,0.07054608315229416,-0.07712672
2611.4833333389743,-0.1797263,-0.71215963,0.20281322,-2.226289,0.017505806,1.439637,0.696805,0.039999254,0.04,-9.712475,-1.025251865386963,-0.8989214,-0.053113613,0.071205273270607,-0.07702277
2611.500000005641,-0.18231979,-0.7111175,0.20573859,-2.2244134,0.017756885,1.4377433,0.69551885,0.039999235,0.04,-9.709525,-1.0374053716659546,-0.9143549,-0.053492256,0.07185738533735275,-0.07690451
2611.516666672308,-0.18492365,-0.71007115,0.20867562,-2.2225304,0.018008973,1.4358422,0.6942277,0.03999923,0.04,-9.706604,-1.0495678186416626,-0.93001837,-0.05386674,0.07249929010868073,-0.076767966
2611.533333338975,-0.18753752,-0.70902073,0.21162398,-2.220641,0.01826205,1.4339337,0.69293153,0.039999228,0.04,-9.7035885,-1.0617047548294067,-0.94582325,-0.054237753,0.0731339380145073,-0.07661712
2611.550000005642,-0.19016111,-0.70796645,0.21458335,-2.2187445,0.018516053,1.4320184,0.69163054,0.039999213,0.04,-9.70074,-1.0738897323608398,-0.96187174,-0.054603994,0.07375309616327286,-0.07645407
2611.5666666723087,-0.19279404,-0.7069084,0.2175534,-2.216841,0.018770972,1.4300958,0.69032496,0.039999206,0.04,-9.697622,-1.085819959640503,-0.9778238,-0.05496581,0.074364572763443,-0.07627369
2611.5833333389755,-0.19543609,-0.70584697,0.22053374,-2.2149312,0.019026782,1.4281667,0.68901485,0.039999194,0.04,-9.694455,-1.0978217124938965,-0.99397445,-0.055322547,0.07496605068445206,-0.07607834
2611.6000000056424,-0.19808693,-0.70478183,0.22352397,-2.2130146,0.01928343,1.4262315,0.6877004,0.039999183,0.04,-9.691359,-1.1097452640533447,-1.0102612,-0.055674937,0.07555608451366425,-0.07586976
2611.6166666723093,-0.2007462,-0.7037132,0.22652379,-2.2110922,0.019540908,1.4242901,0.6863816,0.039999172,0.04,-9.688064,-1.1216609477996826,-1.026778,-0.056022517,0.07614104449748993,-0.075645685
2611.633333338976,-0.20341362,-0.7026412,0.22953284,-2.209164,0.019799167,1.4223424,0.6850588,0.039999165,0.04,-9.684859,-1.13338303565979,-1.0432181,-0.05636418,0.07671190798282623,-0.07540781
2611.650000005643,-0.20608884,-0.7015662,0.23255077,-2.2072294,0.020058185,1.4203893,0.68373203,0.039999153,0.04,-9.681575,-1.145115613937378,-1.0598476,-0.05670115,0.0772705227136612,-0.07515591
2611.66666667231,-0.20877162,-0.7004882,0.23557718,-2.2052896,0.02031795,1.4184304,0.68240166,0.03999915,0.04,-9.678137,-1.1567754745483398,-1.0765914,-0.05703197,0.07782236486673355,-0.074887745
2611.683333338977,-0.2114615,-0.69940746,0.23861173,-2.2033448,0.020578414,1.4164664,0.68106765,0.03999914,0.04,-9.674807,-1.1684117317199707,-1.0935357,-0.05735822,0.07836131751537323,-0.07460773
2611.7000000056437,-0.21415825,-0.69832385,0.241654,-2.201395,0.02083953,1.4144975,0.67973036,0.039999127,0.04,-9.671362,-1.1798800230026245,-1.1104017,-0.05767842,0.07888832688331604,-0.074314475
2611.7166666723106,-0.21686153,-0.6972377,0.24470371,-2.19944,0.021101274,1.4125237,0.6783898,0.039999116,0.04,-9.667884,-1.191300392150879,-1.1274837,-0.057994,0.07940386980772018,-0.07400826
2611.7333333389774,-0.219571,-0.696149,0.24776037,-2.1974812,0.021363622,1.4105455,0.6770462,0.039999112,0.04,-9.664358,-1.202692985534668,-1.1447488,-0.05830339,0.07990965992212296,-0.07368653
2611.7500000056443,-0.22228628,-0.69505787,0.25082368,-2.1955178,0.021626541,1.4085631,0.6756998,0.039999105,0.04,-9.660808,-1.213918924331665,-1.1619433,-0.05860694,0.0804009959101677,-0.0733531
2611.766666672311,-0.2250071,-0.6939646,0.2538934,-2.1935506,0.021890014,1.406577,0.6743506,0.03999909,0.04,-9.657187,-1.225099802017212,-1.179325,-0.058904804,0.08088120073080063,-0.07300692
2611.783333338978,-0.22773314,-0.6928693,0.25696892,-2.191579,0.022153981,1.4045869,0.6729987,0.039999083,0.04,-9.653552,-1.2362154722213745,-1.196793,-0.059196513,0.08134941756725311,-0.072647505
2611.800000005645,-0.23046403,-0.691772,0.26005003,-2.1896048,0.022418426,1.4025933,0.67164445,0.039999075,0.04,-9.649872,-1.2472354173660278,-1.2144333,-0.059481144,0.08180588483810425,-0.072275706
2611.816666672312,-0.23319943,-0.69067293,0.26313615,-2.187627,0.022683311,1.4005961,0.67028797,0.03999907,0.04,-9.646148,-1.2581086158752441,-1.2320203,-0.05975957,0.08224748820066452,-0.071890436
2611.8333333389787,-0.23593906,-0.68957204,0.26622713,-2.185646,0.022948636,1.3985958,0.6689294,0.039999064,0.04,-9.64237,-1.2689131498336792,-1.2497592,-0.06003212,0.08267559856176376,-0.071493775
2611.8500000056456,-0.23868254,-0.6884697,0.2693226,-2.1836624,0.023214329,1.3965927,0.66756904,0.039999045,0.04,-9.638568,-1.2796615362167358,-1.2676008,-0.060297705,0.08308902382850647,-0.071088165
2611.8666666723125,-0.24142952,-0.687366,0.272422,-2.1816764,0.023480337,1.394587,0.6662069,0.039999034,0.04,-9.634748,-1.2902952432632446,-1.2856072,-0.060556687,0.08349065482616425,-0.07066953
2611.8833333389794,-0.24417976,-0.68626106,0.27552506,-2.179688,0.02374666,1.392579,0.664843,0.039999023,0.04,-9.63082,-1.300783395767212,-1.3035318,-0.060809005,0.08387768268585205,-0.07023948
2611.9000000056462,-0.24693279,-0.685155,0.27863136,-2.1776974,0.024013257,1.3905687,0.66347784,0.039999016,0.04,-9.626892,-1.3111969232559204,-1.3216128,-0.061053783,0.08425013720989227,-0.06979752
2611.916666672313,-0.24968837,-0.6840478,0.28174055,-2.1757052,0.024280122,1.3885568,0.6621114,0.039999012,0.04,-9.622912,-1.321488618850708,-1.3397635,-0.061291873,0.08460831642150879,-0.06934363
2611.93333333898,-0.25244612,-0.6829398,0.2848523,-2.173711,0.024547206,1.3865432,0.66074383,0.039999004,0.04,-9.618989,-1.3317009210586548,-1.358091,-0.061522648,0.08495226502418518,-0.06888125
2611.950000005647,-0.25520575,-0.6818311,0.28796613,-2.1717155,0.024814483,1.3845283,0.65937537,0.039998993,0.04,-9.6148205,-1.3417978286743164,-1.3763125,-0.061745677,0.08528369665145874,-0.06840765
2611.9666666723137,-0.2579669,-0.6807218,0.2910817,-2.1697195,0.02508189,1.3825126,0.6580062,0.03999898,0.04,-9.610728,-1.351773738861084,-1.3946925,-0.061961427,0.08560113608837128,-0.067925185
2611.9833333389806,-0.26072916,-0.6796121,0.29419866,-2.167722,0.025349412,1.3804957,0.6566365,0.039998963,0.04,-9.606746,-1.3616232872009277,-1.4132253,-0.062170006,0.08590219169855118,-0.06743323
2612.0000000056475,-0.26349223,-0.678502,0.2973165,-2.165724,0.025617002,1.3784782,0.6552663,0.039998963,0.04,-9.602437,-1.3713929653167725,-1.4316301,-0.062370434,0.08619020134210587,-0.06692978
2612.0166666723144,-0.2662558,-0.6773918,0.30043492,-2.1637259,0.02588465,1.3764606,0.65389585,0.03999896,0.04,-9.598274,-1.3810069561004639,-1.4502027,-0.06256321,0.08646173030138016,-0.066417046
2612.0333333389813,-0.26901957,-0.6762815,0.30355352,-2.1617274,0.02615232,1.3744428,0.65252537,0.03999895,0.04,-9.594057,-1.3905304670333862,-1.4688292,-0.062747985,0.08671920746564865,-0.0658965
2612.050000005648,-0.2717831,-0.6751713,0.30667207,-2.159729,0.026419966,1.3724252,0.651155,0.03999894,0.04,-9.589843,-1.399882197380066,-1.4875621,-0.06292525,0.0869612842798233,-0.06536843
2612.066666672315,-0.27454612,-0.67406136,0.30979005,-2.1577313,0.026687577,1.3704077,0.6497848,0.03999893,0.04,-9.585464,-1.409195899963379,-1.5062356,-0.06309361,0.08718913048505783,-0.06482888
2612.083333338982,-0.2773083,-0.6729519,0.31290698,-2.155734,0.026955111,1.3683912,0.6484152,0.03999892,0.04,-9.581167,-1.4183540344238281,-1.5250065,-0.0632536,0.08739849925041199,-0.064283065
2612.100000005649,-0.28006923,-0.67184293,0.31602272,-2.1537378,0.027222518,1.3663754,0.64704627,0.039998908,0.04,-9.57678,-1.4273524284362793,-1.5438175,-0.06340632,0.08759492635726929,-0.063729405
2612.1166666723157,-0.28282863,-0.67073435,0.31913662,-2.1517432,0.027489772,1.3643609,0.6456778,0.039998908,0.04,-9.57246,-1.4362260103225708,-1.5627383,-0.06355017,0.08777499943971634,-0.06316603
2612.1333333389825,-0.2855861,-0.66962653,0.32224855,-2.1497493,0.027756868,1.3623475,0.6443105,0.039998908,0.04,-9.568025,-1.4449964761734009,-1.5816267,-0.063684605,0.08793684095144272,-0.062595256
2612.1500000056494,-0.28834137,-0.6685197,0.32535806,-2.147757,0.028023753,1.3603358,0.6429443,0.039998893,0.04,-9.56351,-1.4536961317062378,-1.6005504,-0.06381023,0.08808353543281555,-0.0620204
2612.1666666723163,-0.29109406,-0.667414,0.32846472,-2.1457667,0.02829038,1.3583261,0.6415792,0.039998893,0.04,-9.559012,-1.4621992111206055,-1.6195204,-0.063927285,0.0882151797413826,-0.0614375
2612.183333338983,-0.2938439,-0.66630954,0.331568,-2.1437786,0.028556738,1.3563185,0.64021564,0.039998878,0.04,-9.554586,-1.470523476600647,-1.6385734,-0.064034656,0.08833090215921402,-0.060848262
2612.20000000565,-0.29659054,-0.66520625,0.33466768,-2.1417928,0.02882278,1.354313,0.6388537,0.039998867,0.04,-9.549948,-1.478812336921692,-1.6575508,-0.064134,0.0884314551949501,-0.060252953
2612.216666672317,-0.2993335,-0.66410446,0.3377635,-2.1398094,0.029088467,1.3523102,0.63749355,0.039998863,0.04,-9.545394,-1.4869195222854614,-1.6766117,-0.06422438,0.08851338177919388,-0.05965151
2612.233333338984,-0.30207264,-0.6630043,0.34085473,-2.1378288,0.029353796,1.3503106,0.6361353,0.039998855,0.04,-9.5408535,-1.4948465824127197,-1.6957262,-0.06430467,0.0885801613330841,-0.05904252
2612.2500000056507,-0.3048075,-0.6619058,0.34394142,-2.1358519,0.02961871,1.348314,0.6347793,0.03999885,0.04,-9.536129,-1.502746343612671,-1.7147795,-0.06437633,0.08863251656293869,-0.05842912
2612.2666666723176,-0.30753782,-0.6608093,0.34702286,-2.1338775,0.02988319,1.3463211,0.6334255,0.039998844,0.04,-9.531561,-1.510488748550415,-1.7339108,-0.06443866,0.08866564929485321,-0.057811722
2612.2833333389844,-0.3102631,-0.6597145,0.35009885,-2.131907,0.030147195,1.3443311,0.632074,0.03999884,0.04,-9.526773,-1.5180530548095703,-1.7530054,-0.06449151,0.08868753910064697,-0.057188585
2612.3000000056513,-0.3129832,-0.65862197,0.353169,-2.1299405,0.030410694,1.342345,0.63072526,0.039998833,0.04,-9.522232,-1.5254302024841309,-1.7721701,-0.06453318,0.08868744969367981,-0.056562547
2612.316666672318,-0.31569773,-0.6575318,0.3562328,-2.127978,0.030673655,1.3403635,0.6293792,0.039998822,0.04,-9.517444,-1.5328212976455688,-1.791269,-0.064566225,0.08866999298334122,-0.055932127
2612.333333338985,-0.31840628,-0.65644395,0.35928997,-2.1260195,0.030936042,1.3383863,0.6280362,0.039998814,0.04,-9.51266,-1.5399718284606934,-1.8104011,-0.064589545,0.08864008635282516,-0.055296663
2612.350000005652,-0.3211087,-0.6553586,0.36234015,-2.1240654,0.031197825,1.3364135,0.6266962,0.039998807,0.04,-9.507856,-1.5470114946365356,-1.8295318,-0.064603075,0.08859529346227646,-0.054657303
2612.366666672319,-0.32380453,-0.6542761,0.3653831,-2.122116,0.031458974,1.3344452,0.62535954,0.0399988,0.04,-9.503175,-1.5538020133972168,-1.8486658,-0.06460654,0.08853231370449066,-0.054014247
2612.3833333389857,-0.32649347,-0.6531962,0.36841825,-2.120172,0.031719483,1.3324822,0.62402624,0.039998796,0.04,-9.498296,-1.5606592893600464,-1.8677491,-0.0645997,0.08845183253288269,-0.053367045
2612.4000000056526,-0.32917514,-0.6521192,0.37144524,-2.118233,0.03197927,1.3305246,0.6226966,0.039998792,0.04,-9.49349,-1.5672849416732788,-1.8868649,-0.064582944,0.08835478872060776,-0.052718624
2612.4166666723195,-0.33184943,-0.6510454,0.37446374,-2.1162999,0.03223834,1.3285723,0.62137073,0.03999878,0.04,-9.488626,-1.5737606287002563,-1.9059594,-0.064555824,0.08824286609888077,-0.05206824
2612.4333333389864,-0.33451578,-0.6499747,0.37747347,-2.1143718,0.032496646,1.3266258,0.62004864,0.039998777,0.04,-9.483923,-1.5799652338027954,-1.9250332,-0.064519875,0.08811108022928238,-0.05141504
2612.4500000056532,-0.337174,-0.64890724,0.38047397,-2.1124494,0.032754175,1.3246853,0.61873055,0.039998777,0.04,-9.478875,-1.5862956047058105,-1.9440602,-0.064472236,0.08796674013137817,-0.05075897
2612.46666667232,-0.33982375,-0.6478433,0.3834649,-2.110534,0.033010885,1.322751,0.6174168,0.039998766,0.04,-9.473951,-1.592357873916626,-1.9630823,-0.06441392,0.08780749887228012,-0.05010178
2612.483333338987,-0.3424646,-0.646783,0.38644597,-2.108624,0.03326675,1.320823,0.6161074,0.039998747,0.04,-9.46925,-1.5981613397598267,-1.9820844,-0.06434636,0.08762743324041367,-0.04944393
2612.500000005654,-0.3450963,-0.64572644,0.38941672,-2.1067214,0.03352171,1.3189019,0.6148025,0.039998747,0.04,-9.464133,-1.6040945053100586,-2.0010202,-0.06426724,0.08743498474359512,-0.04878438
2612.5166666723208,-0.3477186,-0.6446736,0.39237684,-2.104826,0.033775765,1.3169875,0.6135023,0.039998736,0.04,-9.459316,-1.6097270250320435,-2.019967,-0.06417767,0.08722370117902756,-0.04812326
2612.5333333389876,-0.35033104,-0.6436246,0.39532605,-2.1029363,0.034028865,1.3150803,0.61220706,0.039998733,0.04,-9.454418,-1.6152303218841553,-2.038873,-0.06407796,0.08699382096529007,-0.04746195
2612.5500000056545,-0.3529334,-0.64257973,0.39826396,-2.1010542,0.034281008,1.3131807,0.61091673,0.039998736,0.04,-9.449391,-1.6204900741577148,-2.0576818,-0.063966714,0.08675398677587509,-0.04679774
2612.5666666723214,-0.3555255,-0.6415389,0.4011902,-2.0991797,0.034532156,1.3112885,0.60963154,0.039998733,0.04,-9.444421,-1.625878095626831,-2.0765166,-0.063844584,0.08649671077728271,-0.046135366
2612.5833333389883,-0.35810673,-0.6405026,0.4041044,-2.0973132,0.034782283,1.3094043,0.6083517,0.03999873,0.04,-9.439466,-1.6309658288955688,-2.095259,-0.06371177,0.08622197061777115,-0.045472383
2612.600000005655,-0.3606771,-0.6394707,0.40700623,-2.0954552,0.03503133,1.3075279,0.6070773,0.039998714,0.04,-9.434501,-1.6359707117080688,-2.113972,-0.06356784,0.0859329104423523,-0.04481116
2612.616666672322,-0.36323613,-0.6384433,0.4098952,-2.093605,0.035279274,1.3056597,0.60580856,0.039998706,0.04,-9.429697,-1.6406408548355103,-2.1326084,-0.06341373,0.08562415093183517,-0.044151098
2612.633333338989,-0.3657835,-0.63742054,0.41277117,-2.091763,0.035526093,1.3037999,0.60454553,0.039998695,0.04,-9.424598,-1.6454672813415527,-2.1512213,-0.063249126,0.08530022948980331,-0.043492522
2612.650000005656,-0.36831903,-0.6364026,0.41563377,-2.0899298,0.035771757,1.3019491,0.60328835,0.039998695,0.04,-9.419597,-1.6500333547592163,-2.1697562,-0.06307263,0.0849616527557373,-0.042832576
2612.6666666723227,-0.37084234,-0.6353897,0.41848263,-2.0881057,0.03601626,1.3001071,0.6020373,0.039998688,0.04,-9.414641,-1.6544640064239502,-2.1882434,-0.06288547,0.08460775762796402,-0.04217387
2612.6833333389895,-0.37335315,-0.6343817,0.42131746,-2.0862906,0.036259554,1.2982743,0.6007924,0.039998684,0.04,-9.409778,-1.6586226224899292,-2.2066083,-0.06268804,0.08423709124326706,-0.0415182
2612.7000000056564,-0.3758512,-0.6333789,0.42413786,-2.0844848,0.0365016,1.2964506,0.5995539,0.039998677,0.04,-9.40469,-1.6629544496536255,-2.224987,-0.062478654,0.08385108411312103,-0.040864985
2612.7166666723233,-0.37833622,-0.6323813,0.42694357,-2.082688,0.036742397,1.2946368,0.5983218,0.039998673,0.04,-9.39973,-1.6669734716415405,-2.243256,-0.062258717,0.08344899117946625,-0.040211473
2612.73333333899,-0.38080785,-0.63138926,0.42973417,-2.0809016,0.03698187,1.2928325,0.5970963,0.039998673,0.04,-9.394783,-1.6707353591918945,-2.2614048,-0.0620275,0.0830349549651146,-0.03956085
2612.750000005657,-0.3832659,-0.6304027,0.4325095,-2.0791247,0.037220057,1.2910382,0.5958776,0.039998673,0.04,-9.389781,-1.6746746301651,-2.2795527,-0.06178581,0.08260267972946167,-0.038912524
2612.766666672324,-0.38571003,-0.62942165,0.43526912,-2.0773573,0.037456904,1.2892542,0.59466594,0.03999867,0.04,-9.384777,-1.6783427000045776,-2.2975738,-0.061532658,0.08215648680925369,-0.038268004
2612.783333338991,-0.3881399,-0.6284464,0.43801287,-2.0756006,0.037692387,1.2874807,0.5934612,0.039998665,0.04,-9.379766,-1.6818653345108032,-2.3155272,-0.06126959,0.08169816434383392,-0.03762494
2612.8000000056577,-0.39055526,-0.62747693,0.44074014,-2.0738547,0.03792645,1.2857176,0.5922637,0.039998658,0.04,-9.37493,-1.6851423978805542,-2.3333375,-0.06099432,0.08122477680444717,-0.036985476
2612.8166666723246,-0.39295593,-0.6265136,0.44345093,-2.0721188,0.038159087,1.2839652,0.5910736,0.03999865,0.04,-9.369897,-1.6885803937911987,-2.3511543,-0.060708486,0.0807356983423233,-0.03635022
2612.8333333389915,-0.3953416,-0.6255563,0.44614473,-2.0703933,0.038390286,1.2822237,0.58989084,0.039998647,0.04,-9.364891,-1.6917555332183838,-2.3688028,-0.060411982,0.0802343413233757,-0.035716187
2612.8500000056583,-0.39771196,-0.624605,0.44882149,-2.0686798,0.03862,1.2804935,0.58871573,0.039998636,0.04,-9.359903,-1.6948065757751465,-2.3863697,-0.060104687,0.07972081750631332,-0.035086296
2612.866666672325,-0.40006685,-0.62366015,0.45148063,-2.0669775,0.0388482,1.2787746,0.5875482,0.039998636,0.04,-9.355161,-1.6975784301757812,-2.4038174,-0.059785824,0.07919024676084518,-0.03446103
2612.883333338992,-0.4024059,-0.6227214,0.45412192,-2.0652864,0.039074857,1.2770672,0.58638865,0.039998632,0.04,-9.350161,-1.7005424499511719,-2.4212482,-0.059456404,0.07864587754011154,-0.033838585
2612.900000005659,-0.40472883,-0.62178916,0.45674512,-2.0636072,0.03929997,1.2753718,0.585237,0.03999863,0.04,-9.345248,-1.7032397985458374,-2.438538,-0.059116192,0.07808730751276016,-0.033221606
2612.916666672326,-0.4070355,-0.6208637,0.45934993,-2.0619402,0.03952351,1.2736881,0.5840934,0.039998617,0.04,-9.340392,-1.7058311700820923,-2.4557173,-0.058765136,0.0775153785943985,-0.032609407
2612.9333333389927,-0.40932563,-0.6199447,0.46193615,-2.0602841,0.039745435,1.2720165,0.5829581,0.03999863,0.04,-9.335613,-1.7081025838851929,-2.4726844,-0.058403175,0.07693004608154297,-0.031999547
2612.9500000056596,-0.41159895,-0.6190327,0.46450335,-2.0586405,0.039965753,1.2703571,0.58183104,0.039998617,0.04,-9.330595,-1.710663080215454,-2.4897115,-0.058030844,0.07633348554372787,-0.031395443
2612.9666666723265,-0.41385522,-0.6181273,0.46705136,-2.057009,0.0401844,1.2687104,0.5807125,0.03999861,0.04,-9.325721,-1.7129178047180176,-2.5065184,-0.05764744,0.07572589814662933,-0.03079557
2612.9833333389934,-0.41609415,-0.6172292,0.4695799,-2.0553906,0.040401388,1.2670759,0.57960254,0.039998613,0.04,-9.321006,-1.7148581743240356,-2.5231743,-0.057253618,0.07510484755039215,-0.030200545
2613.0000000056602,-0.4183155,-0.6163377,0.47208863,-2.0537844,0.040616676,1.2654545,0.5785014,0.039998613,0.04,-9.316173,-1.7171082496643066,-2.5398273,-0.05684938,0.0744682028889656,-0.029610584
2613.016666672327,-0.42051923,-0.61545366,0.47457737,-2.0521915,0.040830255,1.2638462,0.577409,0.039998617,0.04,-9.311344,-1.7190295457839966,-2.5563498,-0.056434672,0.07382144778966904,-0.02902614
2613.033333338994,-0.42270482,-0.61457694,0.4770458,-2.0506113,0.041042093,1.2622509,0.57632554,0.039998606,0.04,-9.306615,-1.7208563089370728,-2.5726845,-0.056010354,0.07316157966852188,-0.028447911
2613.050000005661,-0.42487225,-0.61370736,0.47949377,-2.0490444,0.041252162,1.2606685,0.575251,0.039998602,0.04,-9.301905,-1.7224270105361938,-2.588786,-0.055574946,0.07249247282743454,-0.027874516
2613.0666666723278,-0.42702118,-0.6128451,0.48192093,-2.0474906,0.04146044,1.2591002,0.57418567,0.03999859,0.04,-9.297124,-1.7242496013641357,-2.6050017,-0.05512846,0.07180888205766678,-0.027306868
2613.0833333389946,-0.42915156,-0.6119904,0.48432708,-2.0459511,0.0416669,1.257545,0.5731294,0.03999859,0.04,-9.292429,-1.7257689237594604,-2.6209834,-0.05467226,0.07111518085002899,-0.026744945
2613.1000000056615,-0.43126303,-0.61114335,0.48671183,-2.0444245,0.041871537,1.2560042,0.57208264,0.03999859,0.04,-9.287819,-1.7272008657455444,-2.6368263,-0.054205067,0.07040610909461975,-0.02618768
2613.1166666723284,-0.43335545,-0.61030406,0.48907515,-2.0429115,0.042074334,1.2544762,0.57104534,0.039998583,0.04,-9.28318,-1.728349208831787,-2.6524057,-0.05372939,0.06969231367111206,-0.025635963
2613.1333333389953,-0.4354286,-0.60947245,0.49141678,-2.041413,0.042275272,1.2529633,0.5700176,0.039998587,0.04,-9.27843,-1.7298258543014526,-2.6680348,-0.05324339,0.06896454840898514,-0.025089888
2613.150000005662,-0.43748227,-0.60864884,0.4937364,-2.039929,0.042474344,1.2514654,0.5689997,0.03999858,0.04,-9.273915,-1.7309818267822266,-2.683507,-0.05274754,0.06822709739208221,-0.02455061
2613.166666672329,-0.43951625,-0.60783327,0.4960338,-2.0384583,0.042671494,1.2499801,0.5679915,0.03999858,0.04,-9.269327,-1.7320648431777954,-2.698794,-0.05224345,0.0674833431839943,-0.024016349
2613.183333338996,-0.44153038,-0.6070256,0.4983089,-2.0370023,0.042866703,1.2485099,0.56699306,0.039998572,0.04,-9.264853,-1.7328847646713257,-2.713749,-0.051729556,0.06672429293394089,-0.023490233
2613.200000005663,-0.4435243,-0.606226,0.5005612,-2.0355616,0.043059975,1.2470548,0.5660046,0.039998565,0.04,-9.260269,-1.734020471572876,-2.7288802,-0.051205456,0.06595676392316818,-0.022969458
2613.2166666723297,-0.4454981,-0.6054345,0.50279087,-2.0341353,0.043251287,1.2456144,0.5650263,0.03999856,0.04,-9.255859,-1.7348179817199707,-2.7437594,-0.050672196,0.06517965346574783,-0.022455404
2613.2333333389965,-0.4474514,-0.6046513,0.5049973,-2.032723,0.043440614,1.2441889,0.5640581,0.039998557,0.04,-9.25152,-1.735399842262268,-2.7583506,-0.050130304,0.06439165771007538,-0.021948818
2613.2500000056634,-0.44938415,-0.6038763,0.50718063,-2.0313256,0.043627948,1.2427785,0.5631001,0.039998554,0.04,-9.246879,-1.7362844944000244,-2.772965,-0.04957949,0.06360030919313431,-0.021447614
2613.2666666723303,-0.45129615,-0.60310966,0.50934076,-2.0299432,0.04381327,1.2413834,0.5621524,0.03999855,0.04,-9.242549,-1.736886978149414,-2.7873766,-0.049019333,0.0627988651394844,-0.020953223
2613.283333338997,-0.45318708,-0.60235137,0.51147705,-2.0285764,0.043996558,1.2400033,0.56121504,0.03999855,0.04,-9.238188,-1.7374391555786133,-2.8016124,-0.048450228,0.06198980659246445,-0.020463528
2613.300000005664,-0.45505697,-0.60160184,0.51358956,-2.0272248,0.04417782,1.2386384,0.560288,0.039998546,0.04,-9.234009,-1.737700343132019,-2.8155744,-0.04787196,0.06117000803351402,-0.019981917
2613.316666672331,-0.45690563,-0.6008606,0.5156781,-2.025889,0.044357,1.237289,0.5593717,0.039998546,0.04,-9.229662,-1.7382951974868774,-2.8296,-0.047285367,0.0603412501513958,-0.019507647
2613.333333338998,-0.4587328,-0.600128,0.5177424,-2.024568,0.044534106,1.2359552,0.5584659,0.039998546,0.04,-9.225491,-1.7386025190353394,-2.843415,-0.04669133,0.05950232595205307,-0.019041123
2613.3500000056647,-0.46053848,-0.5994041,0.51978236,-2.0232627,0.044709112,1.2346376,0.5575708,0.039998543,0.04,-9.221221,-1.738865852355957,-2.8569999,-0.04608873,0.05865898355841637,-0.018580798
2613.3666666723316,-0.4623225,-0.59868884,0.5217981,-2.021973,0.044882033,1.2333357,0.5566865,0.03999854,0.04,-9.217128,-1.7388535737991333,-2.8703156,-0.04547827,0.057810764759778976,-0.0181262
2613.3833333389985,-0.46408477,-0.5979824,0.52378887,-2.020699,0.045052826,1.2320496,0.555813,0.03999854,0.04,-9.212931,-1.7392196655273438,-2.8837473,-0.04485988,0.05695467069745064,-0.017678093
2613.4000000056653,-0.46582496,-0.59728473,0.5257552,-2.0194407,0.045221526,1.2307795,0.5549504,0.039998535,0.04,-9.208859,-1.7392555475234985,-2.8968403,-0.04423496,0.05609114468097687,-0.017237177
2613.416666672332,-0.4675431,-0.596596,0.5276964,-2.0181987,0.045388073,1.2295257,0.55409867,0.03999854,0.04,-9.204787,-1.7393336296081543,-2.9098172,-0.043600924,0.05522302910685539,-0.016802255
2613.433333338999,-0.469239,-0.59591633,0.52961266,-2.0169728,0.045552477,1.2282879,0.553258,0.039998535,0.04,-9.200957,-1.7390528917312622,-2.9224603,-0.042960647,0.05434628576040268,-0.016375665
2613.450000005666,-0.4709127,-0.5952455,0.5315038,-2.0157633,0.04571471,1.2270666,0.55242836,0.039998535,0.04,-9.196887,-1.7392154932022095,-2.9352129,-0.042312756,0.05346455052495003,-0.015954848
2613.466666672333,-0.4725639,-0.59458375,0.53336954,-2.0145698,0.045874786,1.2258618,0.5516098,0.039998535,0.04,-9.193021,-1.7390520572662354,-2.9476924,-0.041658483,0.05257605388760567,-0.015540948
2613.4833333389997,-0.47419256,-0.593931,0.5352098,-2.0133922,0.046032663,1.2246729,0.55080265,0.03999854,0.04,-9.189221,-1.738673210144043,-2.959816,-0.040997434,0.05168366804718971,-0.015134059
2613.5000000056666,-0.47579864,-0.59328735,0.53702444,-2.0122309,0.046188362,1.2235008,0.5500067,0.03999854,0.04,-9.185282,-1.7386391162872314,-2.9720569,-0.040331006,0.05078586935997009,-0.014733795
2613.5166666723335,-0.477382,-0.59265274,0.53881365,-2.0110867,0.046341855,1.2223452,0.549222,0.039998535,0.04,-9.181488,-1.738366961479187,-2.9840033,-0.039658543,0.04988498240709305,-0.014341532
2613.5333333390004,-0.47894254,-0.5920273,0.5405771,-2.0099585,0.046493124,1.2212063,0.54844856,0.03999853,0.04,-9.177861,-1.738061785697937,-2.9958076,-0.038979616,0.04897495359182358,-0.01395641
2613.5500000056672,-0.4804801,-0.59141123,0.54231477,-2.008847,0.046642184,1.2200842,0.54768646,0.039998535,0.04,-9.174201,-1.737485647201538,-3.0072367,-0.03829459,0.04806347191333771,-0.013575707
2613.566666672334,-0.48199472,-0.5908044,0.54402655,-2.007752,0.04678902,1.2189789,0.5469355,0.039998535,0.04,-9.170485,-1.7373251914978027,-3.018814,-0.03760358,0.04714885726571083,-0.013202209
2613.583333339001,-0.48348638,-0.5902067,0.5457122,-2.0066736,0.04693362,1.2178905,0.5461962,0.039998535,0.04,-9.166876,-1.7369009256362915,-3.0300481,-0.036906198,0.04623126611113548,-0.012835163
2613.600000005668,-0.48495486,-0.5896183,0.5473717,-2.0056124,0.047075983,1.216819,0.5454685,0.03999853,0.04,-9.163359,-1.7363927364349365,-3.0411365,-0.036205534,0.045309778302907944,-0.012475633
2613.6166666723348,-0.48640025,-0.58903915,0.5490048,-2.0045676,0.04721611,1.2157644,0.54475236,0.03999853,0.04,-9.159999,-1.7356871366500854,-3.051895,-0.03550053,0.04438430070877075,-0.012123035
2613.6333333390016,-0.48782238,-0.5884693,0.550612,-2.0035398,0.04735397,1.2147269,0.5440479,0.03999852,0.04,-9.156451,-1.735324501991272,-3.0627546,-0.034791633,0.04345622658729553,-0.0117780715
2613.6500000056685,-0.48922125,-0.5879089,0.5521929,-2.0025284,0.04748957,1.213706,0.54335487,0.039998528,0.04,-9.153062,-1.7347946166992188,-3.0733223,-0.03407869,0.04252644628286362,-0.011438988
2613.6666666723354,-0.49059677,-0.5873579,0.5537475,-2.0015342,0.047622908,1.2127024,0.54267323,0.039998528,0.04,-9.149701,-1.7342116832733154,-3.0836592,-0.03336122,0.04159395396709442,-0.011105579
2613.6833333390023,-0.49194884,-0.5868162,0.55527586,-2.0005567,0.047753993,1.2117155,0.5420031,0.039998528,0.04,-9.146526,-1.7333749532699585,-3.0937076,-0.032639038,0.04065924510359764,-0.010778366
2613.700000005669,-0.49327773,-0.5862839,0.5567778,-1.9995959,0.047882818,1.2107459,0.54134446,0.039998528,0.04,-9.143186,-1.73296320438385,-3.103875,-0.031912256,0.03972264379262924,-0.010457846
2613.716666672336,-0.49458316,-0.5857611,0.5582533,-1.9986522,0.04800937,1.2097934,0.5406975,0.039998528,0.04,-9.139963,-1.732280969619751,-3.113706,-0.03118255,0.03878704831004143,-0.010143151
2613.733333339003,-0.4958651,-0.58524746,0.55970263,-1.9977258,0.048133656,1.208858,0.5400621,0.03999852,0.04,-9.136954,-1.7313945293426514,-3.1232176,-0.03044982,0.03784951567649841,-0.009835736
2613.75000000567,-0.49712375,-0.5847433,0.56112534,-1.9968163,0.04825565,1.2079395,0.5394383,0.03999852,0.04,-9.133841,-1.730916976928711,-3.1328874,-0.0297129,0.03690839558839798,-0.009534399
2613.7666666723367,-0.498359,-0.5842486,0.5625214,-1.9959236,0.048375383,1.207038,0.53882605,0.039998524,0.04,-9.130778,-1.7301503419876099,-3.1421611,-0.028974447,0.03596736863255501,-0.009238574
2613.7833333390035,-0.49957082,-0.5837632,0.5638913,-1.9950477,0.048492838,1.206154,0.53822535,0.039998524,0.04,-9.127817,-1.7293812036514282,-3.1512828,-0.028234208,0.03502589091658592,-0.008950321
2613.8000000056704,-0.50075924,-0.58328724,0.5652349,-1.9941885,0.04860803,1.2052866,0.53763634,0.03999852,0.04,-9.124963,-1.7284669876098633,-3.160103,-0.027490579,0.03408622741699219,-0.008667255
2613.8166666723373,-0.5019242,-0.58282065,0.56655204,-1.9933466,0.04872096,1.2044365,0.53705895,0.039998516,0.04,-9.12198,-1.7279059886932373,-3.169002,-0.026745686,0.033146411180496216,-0.0083894655
2613.833333339004,-0.50306594,-0.5823634,0.5678427,-1.9925212,0.048831627,1.2036036,0.536493,0.039998516,0.04,-9.119198,-1.7271205186843872,-3.177618,-0.025999127,0.032207030802965164,-0.008117658
2613.850000005671,-0.50418437,-0.5819155,0.5691072,-1.9917128,0.048940036,1.2027874,0.5359386,0.039998513,0.04,-9.116401,-1.7263007164001465,-3.1860216,-0.025251167,0.031270354986190796,-0.007851626
2613.866666672338,-0.5052794,-0.581477,0.5703452,-1.990921,0.049046185,1.2019886,0.5353959,0.039998516,0.04,-9.113819,-1.7252967357635498,-3.1941152,-0.024502516,0.030332453548908234,-0.0075908545
2613.883333339005,-0.5063513,-0.5810477,0.57155704,-1.9901465,0.049150087,1.2012061,0.5348648,0.039998513,0.04,-9.111024,-1.7246993780136108,-3.2023182,-0.023753641,0.029399506747722626,-0.0073357667
2613.9000000056717,-0.5073999,-0.58062774,0.57274264,-1.9893885,0.04925173,1.2004411,0.5343451,0.039998516,0.04,-9.10851,-1.7238545417785645,-3.2102082,-0.023005018,0.028463052585721016,-0.007088432
2613.9166666723386,-0.50842535,-0.5802171,0.57390225,-1.9886476,0.049351152,1.1996931,0.5338368,0.039998516,0.04,-9.105905,-1.7230430841445923,-3.217925,-0.022255968,0.027533603832125664,-0.006845072
2613.9333333390055,-0.5094279,-0.57981575,0.57503587,-1.9879228,0.049448326,1.1989616,0.53334,0.03999852,0.04,-9.10355,-1.7220321893692017,-3.2253075,-0.021506337,0.02660467103123665,-0.0066067083
2613.9500000056723,-0.51040727,-0.57942355,0.57614356,-1.9872149,0.049543288,1.198247,0.53285456,0.039998524,0.04,-9.100977,-1.7213927507400513,-3.2328024,-0.02075825,0.025679970160126686,-0.0063738185
2613.966666672339,-0.51136386,-0.57904047,0.57722515,-1.9865234,0.049636003,1.1975487,0.53238046,0.039998524,0.04,-9.098634,-1.720583200454712,-3.2400014,-0.020009492,0.02475733309984207,-0.006146784
2613.983333339006,-0.5122976,-0.5786666,0.5782811,-1.9858487,0.049726523,1.1968673,0.53191763,0.039998524,0.04,-9.096372,-1.7195054292678833,-3.24684,-0.019263744,0.023837866261601448,-0.0059250672
2614.000000005673,-0.5132087,-0.5783019,0.5793115,-1.9851899,0.049814858,1.1962026,0.53146607,0.03999852,0.04,-9.0940485,-1.7188777923583984,-3.2538352,-0.018518483,0.02292177453637123,-0.0057078376
2614.01666667234,-0.5140973,-0.57794625,0.5803163,-1.984548,0.049900983,1.1955544,0.53102577,0.03999852,0.04,-9.091799,-1.7180464267730713,-3.2604947,-0.017775225,0.022011147812008858,-0.0054957373
2614.0333333390067,-0.5149632,-0.5775997,0.5812956,-1.9839222,0.049984936,1.1949227,0.5305967,0.03999852,0.04,-9.089669,-1.7171940803527832,-3.2669969,-0.017034842,0.02110389806330204,-0.0052890815
2614.0500000056736,-0.5158065,-0.57726216,0.58224994,-1.9833126,0.050066695,1.1943069,0.53017867,0.039998524,0.04,-9.087646,-1.716196894645691,-3.2731686,-0.01629674,0.02020237408578396,-0.005086971
2614.0666666723405,-0.51662785,-0.57693326,0.5831792,-1.9827191,0.050146315,1.1937078,0.5297717,0.03999852,0.04,-9.085498,-1.7156155109405518,-3.2794476,-0.015559854,0.019304120913147926,-0.004889333
2614.0833333390074,-0.5174269,-0.57661337,0.58408356,-1.9821413,0.050223768,1.193125,0.52937555,0.039998513,0.04,-9.083523,-1.7147544622421265,-3.2854884,-0.014826595,0.018412405624985695,-0.0046968535
2614.1000000056742,-0.518204,-0.5763023,0.58496296,-1.9815794,0.050299086,1.1925578,0.5289903,0.039998516,0.04,-9.081537,-1.7139828205108643,-3.2912798,-0.014094779,0.017528554424643517,-0.0045065535
2614.116666672341,-0.5189594,-0.57600003,0.5858174,-1.9810336,0.050372306,1.1920068,0.528616,0.039998516,0.04,-9.079737,-1.7129690647125244,-3.2967603,-0.013367933,0.01664857193827629,-0.00432118
2614.133333339008,-0.5196931,-0.5757065,0.5866475,-1.9805033,0.050443426,1.1914717,0.5282524,0.039998516,0.04,-9.077853,-1.7122936248779297,-3.302396,-0.012647142,0.015775606036186218,-0.004142777
2614.150000005675,-0.5204052,-0.57542145,0.5874531,-1.9799885,0.050512463,1.1909521,0.5278996,0.03999852,0.04,-9.076064,-1.7115237712860107,-3.307709,-0.011929738,0.014909681864082813,-0.003966899
2614.1666666723418,-0.5210962,-0.5751451,0.5882347,-1.9794892,0.050579425,1.190448,0.5275572,0.039998516,0.04,-9.0743265,-1.7107148170471191,-3.3128593,-0.011218275,0.014050663448870182,-0.003797319
2614.1833333390086,-0.52176595,-0.574877,0.5889924,-1.9790051,0.050644323,1.1899593,0.5272252,0.03999852,0.04,-9.072743,-1.709755539894104,-3.3177023,-0.010512224,0.013198686763644218,-0.0036306945
2614.2000000056755,-0.5224146,-0.57461756,0.5897266,-1.9785361,0.0507072,1.189486,0.5269038,0.039998524,0.04,-9.0710535,-1.709162950515747,-3.322691,-0.009809831,0.012353122234344482,-0.0034693205
2614.2166666723424,-0.5230426,-0.57436633,0.5904372,-1.9780821,0.050768077,1.1890279,0.5265927,0.039998524,0.04,-9.069466,-1.708443522453308,-3.3273568,-0.009113668,0.011518004350364208,-0.0033095672
2614.2333333390093,-0.52365017,-0.5741233,0.5911246,-1.977643,0.050826967,1.1885848,0.5262917,0.039998524,0.04,-9.068004,-1.707515001296997,-3.3317223,-0.008424133,0.010691680014133453,-0.0031552732
2614.250000005676,-0.52423733,-0.5738885,0.5917889,-1.9772187,0.05088388,1.1881565,0.52600074,0.039998524,0.04,-9.066515,-1.7069212198257446,-3.3362408,-0.0077413125,0.009871860966086388,-0.0030055556
2614.266666672343,-0.5248043,-0.5736617,0.5924306,-1.9768089,0.050938845,1.1877428,0.5257198,0.039998528,0.04,-9.065096,-1.706179141998291,-3.3404357,-0.0070647993,0.009061942808330059,-0.002859048
2614.28333333901,-0.5253515,-0.57344276,0.5930499,-1.9764132,0.050991885,1.1873438,0.5254488,0.039998528,0.04,-9.063741,-1.7054965496063232,-3.3444896,-0.0063952035,0.008260893635451794,-0.0027166118
2614.300000005677,-0.5258791,-0.57323176,0.59364694,-1.9760319,0.05104302,1.1869589,0.52518743,0.039998524,0.04,-9.062482,-1.7046290636062622,-3.3482692,-0.0057334546,0.007470839191228151,-0.0025778944
2614.3166666723437,-0.5263871,-0.57302856,0.59422207,-1.9756645,0.051092267,1.1865882,0.5249356,0.03999852,0.04,-9.061159,-1.7041025161743164,-3.3521395,-0.0050790133,0.006689861882477999,-0.0024427786
2614.3333333390106,-0.526876,-0.57283306,0.59477574,-1.9753113,0.051139664,1.1862315,0.52469325,0.039998524,0.04,-9.059939,-1.7034215927124023,-3.3557434,-0.004432205,0.005919875577092171,-0.002310471
2614.3500000056774,-0.52734596,-0.572645,0.5953078,-1.9749713,0.05118523,1.1858886,0.52446026,0.039998524,0.04,-9.058813,-1.702775001525879,-3.3592198,-0.0037934973,0.0051595778204500675,-0.002181984
2614.3666666723443,-0.52779764,-0.57246447,0.5958191,-1.9746449,0.051228993,1.1855592,0.52423644,0.039998524,0.04,-9.057732,-1.7019546031951904,-3.3624,-0.0031637386,0.004412427078932524,-0.0020576213
2614.383333339011,-0.5282309,-0.57229125,0.59630966,-1.974332,0.05127097,1.185243,0.52402174,0.039998524,0.04,-9.0566435,-1.7014564275741577,-3.365713,-0.0025438142,0.0036741371732205153,-0.001936733
2614.400000005678,-0.52864635,-0.5721254,0.59677994,-1.9740318,0.051311206,1.1849401,0.52381593,0.039998524,0.04,-9.055623,-1.70082688331604,-3.3687541,-0.0019333217,0.0029480603989213705,-0.0018191477
2614.416666672345,-0.52904373,-0.57196623,0.5972301,-1.9737444,0.051349726,1.1846503,0.52361906,0.039998524,0.04,-9.054649,-1.7002032995224,-3.3716464,-0.0013330211,0.002234438667073846,-0.0017040855
2614.433333339012,-0.5294238,-0.5718145,0.5976604,-1.9734697,0.051386565,1.184373,0.52343065,0.039998524,0.04,-9.053758,-1.6994823217391968,-3.3743153,-0.00074221095,0.0015356261283159256,-0.0015927791
2614.4500000056787,-0.52978677,-0.57166904,0.5980717,-1.9732074,0.051421754,1.1841081,0.5232508,0.039998524,0.04,-9.052842,-1.69901704788208,-3.3770368,-0.00016246422,0.0008484298596158624,-0.0014849642
2614.4666666723456,-0.5301332,-0.5715308,0.59846413,-1.972957,0.051455323,1.1838557,0.52307934,0.039998524,0.04,-9.052041,-1.698439359664917,-3.379587,0.00040710575,0.00017241312889382243,-0.0013811473
2614.4833333390125,-0.53046316,-0.5713988,0.598838,-1.9727187,0.05148728,1.1836151,0.52291584,0.039998524,0.04,-9.051268,-1.6977845430374146,-3.3818223,0.000964148,-0.00048712632269598544,-0.0012785738
2614.5000000056793,-0.5307772,-0.5712734,0.5991936,-1.972492,0.051517677,1.183386,0.5227605,0.039998524,0.04,-9.050502,-1.6973283290863037,-3.3842146,0.0015109499,-0.0011346463579684496,-0.0011803398
2614.516666672346,-0.53107536,-0.5711543,0.59953135,-1.9722766,0.05154657,1.1831683,0.5226128,0.039998524,0.04,-9.049791,-1.6967663764953613,-3.3863244,0.0020431378,-0.0017682969337329268,-0.0010857492
2614.533333339013,-0.53135824,-0.5710413,0.59985197,-1.9720722,0.05157399,1.1829618,0.52247274,0.039998524,0.04,-9.04911,-1.6962581872940063,-3.388329,0.002564869,-0.0023863958194851875,-0.0009932334
2614.55000000568,-0.53162616,-0.57093406,0.6001556,-1.9718788,0.051599935,1.1827662,0.52234006,0.039998524,0.04,-9.048556,-1.6956466436386108,-3.3901312,0.0030737016,-0.0029897275380790234,-0.0009040537
2614.566666672347,-0.53187954,-0.57083285,0.60044277,-1.9716958,0.051624488,1.1825815,0.52221465,0.039998524,0.04,-9.047928,-1.6952459812164307,-3.3920383,0.0035702307,-0.0035782093182206154,-0.0008184794
2614.5833333390137,-0.5321187,-0.5707373,0.60071385,-1.9715228,0.051647656,1.1824073,0.52209616,0.039998528,0.04,-9.047365,-1.694743037223816,-3.3937047,0.0040525626,-0.004148754291236401,-0.0007347946
2614.6000000056806,-0.53234404,-0.5706473,0.60096943,-1.9713597,0.051669486,1.1822429,0.5219845,0.039998528,0.04,-9.04685,-1.694280982017517,-3.3952487,0.0045218193,-0.004702424164861441,-0.0006543846
2614.6166666723475,-0.5325562,-0.5705626,0.60120994,-1.9712067,0.05169003,1.1820883,0.52187955,0.03999853,0.04,-9.046404,-1.693712592124939,-3.3965995,0.0049769506,-0.005238736048340797,-0.0005766955
2614.6333333390144,-0.5327553,-0.570483,0.60143596,-1.9710627,0.051709324,1.1819432,0.5217809,0.039998528,0.04,-9.045969,-1.693343997001648,-3.3980646,0.005417024,-0.0057597714476287365,-0.0005023813
2614.6500000056812,-0.5329419,-0.5704086,0.6016476,-1.970928,0.0517274,1.181807,0.5216885,0.03999853,0.04,-9.045546,-1.6929218769073486,-3.399321,0.0058434685,-0.006261645816266537,-0.00043005677
2614.666666672348,-0.5331166,-0.57033885,0.6018458,-1.9708017,0.05174431,1.1816797,0.52160203,0.039998528,0.04,-9.045207,-1.6924618482589722,-3.4004588,0.006253861,-0.006746962200850248,-0.00036223273
2614.683333339015,-0.5332796,-0.5702738,0.6020308,-1.9706839,0.05176008,1.1815611,0.5215213,0.039998528,0.04,-9.044882,-1.6919496059417725,-3.4014506,0.006649198,-0.007213244680315256,-0.0002964488
2614.700000005682,-0.53343153,-0.57021314,0.60220295,-1.970574,0.05177478,1.1814504,0.521446,0.039998528,0.04,-9.044548,-1.6916066408157349,-3.402506,0.0070282947,-0.007659347727894783,-0.00023304655
2614.7166666723488,-0.5335728,-0.57015693,0.6023631,-1.9704717,0.05178845,1.1813475,0.521376,0.039998528,0.04,-9.044276,-1.6911627054214478,-3.4033754,0.0073907697,-0.008087566122412682,-0.00017421316
2614.7333333390156,-0.53370404,-0.5701047,0.60251194,-1.9703766,0.051801145,1.1812518,0.5213111,0.039998528,0.04,-9.044043,-1.6906925439834595,-3.4040954,0.007736563,-0.008494297042489052,-0.00011723994
2614.7500000056825,-0.5338256,-0.5700564,0.6026501,-1.9702889,0.051812906,1.1811631,0.52125096,0.03999853,0.04,-9.043782,-1.6903841495513916,-3.4048877,0.008065228,-0.008881560526788235,-6.239205e-05
2614.7666666723494,-0.533938,-0.57001173,0.6027777,-1.9702078,0.051823776,1.1810813,0.5211955,0.03999853,0.04,-9.043652,-1.690026879310608,-3.4055557,0.00837802,-0.009250798262655735,-1.0860373e-05
2614.7833333390163,-0.5340418,-0.5699705,0.6028956,-1.9701332,0.051833812,1.1810057,0.5211441,0.039998535,0.04,-9.043479,-1.689622163772583,-3.4061387,0.008671702,-0.009597702883183956,3.7689857e-05
2614.800000005683,-0.53413767,-0.56993216,0.6030043,-1.9700642,0.051843062,1.1809361,0.5210967,0.039998535,0.04,-9.043401,-1.6891690492630005,-3.4065967,0.008947883,-0.00992495846003294,8.2559585e-05
2614.81666667235,-0.53422606,-0.5698971,0.6031045,-1.9700009,0.051851578,1.1808718,0.5210531,0.039998535,0.04,-9.043255,-1.6888189315795898,-3.4071252,0.0092057595,-0.010230621322989464,0.00012344324
2614.833333339017,-0.5343071,-0.56986475,0.60319674,-1.9699423,0.051859412,1.1808132,0.52101296,0.039998535,0.04,-9.043168,-1.6884678602218628,-3.4074929,0.009444515,-0.010515131987631321,0.00016181853
2614.850000005684,-0.5343818,-0.5698352,0.6032817,-1.9698882,0.051866625,1.1807592,0.5209762,0.039998535,0.04,-9.043054,-1.6881269216537476,-3.4078512,0.009665957,-0.01077417004853487,0.00019839096
2614.8666666723507,-0.5344505,-0.5698079,0.6033597,-1.9698385,0.05187325,1.1807095,0.52094215,0.039998535,0.04,-9.042971,-1.6877521276474,-3.408078,0.009868575,-0.01101081445813179,0.00023281516
2614.8833333390176,-0.5345137,-0.5697827,0.6034315,-1.9697927,0.05187937,1.1806636,0.520911,0.03999854,0.04,-9.0429125,-1.6874635219573975,-3.4083936,0.010055889,-0.011229382827877998,0.00026425725
2614.9000000056844,-0.5345718,-0.5697595,0.60349774,-1.9697508,0.05188499,1.1806215,0.5208822,0.03999854,0.04,-9.042858,-1.6871707439422607,-3.4086523,0.010227614,-0.011431307531893253,0.00029214902
2614.9166666723513,-0.5346253,-0.5697382,0.60355854,-1.969712,0.051890165,1.180583,0.52085567,0.03999854,0.04,-9.042823,-1.6869258880615234,-3.4089,0.010386811,-0.011617055162787437,0.00031840862
2614.933333339018,-0.5346746,-0.5697186,0.6036145,-1.9696763,0.051894918,1.1805477,0.5208313,0.03999854,0.04,-9.042767,-1.6866410970687866,-3.40908,0.010533061,-0.011786233633756638,0.00034268523
2614.950000005685,-0.53472006,-0.5697006,0.603666,-1.9696438,0.051899288,1.1805137,0.520809,0.03999854,0.04,-9.042699,-1.6864359378814697,-3.4093018,0.010667177,-0.011940895579755306,0.00036521183
2614.966666672352,-0.5347617,-0.56968415,0.6037135,-1.9696138,0.051903315,1.1804833,0.52078843,0.03999854,0.04,-9.042751,-1.6862225532531738,-3.409466,0.010789295,-0.012092017568647861,0.00038342774
2614.983333339019,-0.53479993,-0.5696688,0.6037572,-1.9695859,0.05190701,1.1804563,0.52076936,0.039998543,0.04,-9.042665,-1.6860421895980835,-3.4096215,0.010902932,-0.012225987389683723,0.00040246535
2615.0000000056857,-0.5348356,-0.5696548,0.6037974,-1.9695607,0.051910426,1.1804299,0.52075183,0.039998543,0.04,-9.042578,-1.6858923435211182,-3.4098344,0.011009053,-0.012344643473625183,0.00042096822
2615.0166666723526,-0.53486776,-0.569642,0.60383445,-1.9695371,0.051913552,1.180407,0.52073586,0.039998543,0.04,-9.042646,-1.6856753826141357,-3.4099486,0.011104115,-0.012462520971894264,0.0004349149
2615.0333333390195,-0.5348978,-0.5696302,0.60386854,-1.9695159,0.05191643,1.1803845,0.5207212,0.039998543,0.04,-9.042511,-1.6856082677841187,-3.4100904,0.011193912,-0.012562151066958904,0.0004515849
2615.0500000056863,-0.53492546,-0.56961936,0.60389996,-1.9694959,0.05191908,1.1803654,0.5207075,0.039998543,0.04,-9.042596,-1.6854051351547241,-3.4101775,0.011274291,-0.012663054279983044,0.00046375854
2615.066666672353,-0.53495103,-0.56960934,0.6039288,-1.9694781,0.05192152,1.1803466,0.5206952,0.039998543,0.04,-9.042466,-1.6852999925613403,-3.4103343,0.0113495095,-0.012746315449476242,0.00047764913
2615.08333333902,-0.53497446,-0.5696001,0.6039554,-1.9694613,0.051923763,1.1803292,0.5206835,0.039998546,0.04,-9.042555,-1.685163974761963,-3.41042,0.01141636,-0.01283182855695486,0.00048752443
2615.100000005687,-0.53499603,-0.5695916,0.6039799,-1.9694455,0.05192582,1.1803141,0.52067316,0.039998546,0.04,-9.04247,-1.6850800514221191,-3.4105122,0.011480369,-0.01290870551019907,0.0004974645
2615.116666672354,-0.5350158,-0.5695837,0.60400236,-1.9694315,0.05192772,1.1802992,0.52066326,0.039998543,0.04,-9.0423975,-1.6849724054336548,-3.4105952,0.011537613,-0.012973946519196033,0.0005081644
2615.1333333390207,-0.535034,-0.56957656,0.6040231,-1.9694184,0.051929466,1.1802853,0.52065456,0.039998546,0.04,-9.042471,-1.6848851442337036,-3.4106853,0.011591915,-0.013041089288890362,0.00051580544
2615.1500000056876,-0.53505063,-0.56956995,0.6040423,-1.9694061,0.05193107,1.1802739,0.5206463,0.039998546,0.04,-9.042418,-1.6848247051239014,-3.4107478,0.011640242,-0.013101983815431595,0.00052351214
2615.1666666723545,-0.5350662,-0.56956387,0.6040599,-1.9693952,0.051932547,1.1802627,0.5206385,0.039998546,0.04,-9.042346,-1.6847628355026245,-3.410842,0.011686928,-0.013151475228369236,0.0005328007
2615.1833333390214,-0.5350803,-0.56955826,0.604076,-1.9693854,0.051933907,1.1802516,0.5206318,0.039998546,0.04,-9.0424,-1.684643268585205,-3.4108868,0.011728958,-0.013201749883592129,0.00053943635
2615.2000000056883,-0.5350932,-0.5695532,0.60409087,-1.969376,0.051935155,1.1802415,0.52062535,0.039998546,0.04,-9.042429,-1.6846064329147339,-3.410949,0.01176648,-0.013252598233520985,0.00054448796
2615.216666672355,-0.5351052,-0.5695485,0.6041047,-1.9693671,0.05193631,1.1802338,0.5206193,0.039998546,0.04,-9.042353,-1.6845636367797852,-3.4109855,0.011802542,-0.013296697288751602,0.00055019604
2615.233333339022,-0.5351161,-0.56954414,0.6041174,-1.9693589,0.051937368,1.1802263,0.52061373,0.039998546,0.04,-9.042296,-1.6844900846481323,-3.411075,0.011836345,-0.013329493813216686,0.0005577029
2615.250000005689,-0.5351264,-0.56954,0.6041291,-1.9693516,0.051938348,1.1802189,0.5206089,0.039998546,0.04,-8.788081,-1.4748846292495728,-3.1497195,0.0,-0.0,0.0
2615.2666666723558,-0.5351264,-0.56954,0.6041291,-1.9693516,0.051938348,1.1802189,0.5206089,0.039998546,0.04,-9.04254,-1.68399977684021,-3.4106789,0.0,-0.0,0.0
2615.2833333390226,-0.5351264,-0.56954,0.6041291,-1.9693516,0.051938348,1.1802189,0.5206089,0.039998546,0.04,-9.04254,-1.68399977684021,-3.4106789,0.0,-0.0,0.0
2615.3000000056895,-0.5351264,-0.56954,0.6041291,-1.9693516,0.051938348,1.1802189,0.5206089,0.039998546,0.04,-9.04254,-1.68399977684021,-3.4106789,0.0,-0.0,0.0
2615.3166666723564,-0.5351264,-0.56954,0.6041291,-1.9693516,0.051938348,1.1802189,0.5206089,0.039998546,0.04,-9.04254,-1.68399977684021,-3.4106789,0.0,-0.0,0.0
2615.3333333390233,-0.5351264,-0.56954,0.6041291,-1.9693516,0.051938348,1.1802189,0.5206089,0.039998546,0.04,-9.04254,-1.68399977684021,-3.4106789,0.0,-0.0,0.0
2615.35000000569,-0.5351264,-0.56954,0.6041291,-1.9693516,0.051938348,1.1802189,0.5206089,0.039998546,0.04,-9.04254,-1.68399977684021,-3.4106789,0.0,-0.0,0.0
2615.366666672357,-0.5351264,-0.56954,0.6041291,-1.9693516,0.051938348,1.1802189,0.5206089,0.039998546,0.04,-9.04254,-1.68399977684021,-3.4106789,0.0,-0.0,0.0
2615.383333339024,-0.5351264,-0.56954,0.6041291,-1.9693516,0.051938348,1.1802189,0.5206089,0.039998546,0.04,-9.04254,-1.68399977684021,-3.4106789,0.0,-0.0,0.0
2615.400000005691,-0.5351264,-0.56954,0.6041291,-1.9693516,0.051938348,1.1802189,0.5206089,0.039998546,0.04,-9.04254,-1.68399977684021,-3.4106789,0.0,-0.0,0.0
2615.4166666723577,-0.5351264,-0.56954,0.6041291,-1.9693516,0.051938348,1.1802189,0.5206089,0.039998546,0.04,-9.04254,-1.68399977684021,-3.4106789,0.0,-0.0,0.0
2615.4333333390246,-0.5351264,-0.56954,0.6041291,-1.9693516,0.051938348,1.1802189,0.5206089,0.039998546,0.04,-9.04254,-1.68399977684021,-3.4106789,0.0,-0.0,0.0
2615.4500000056914,-0.5351264,-0.56954,0.6041291,-1.9693516,0.051938348,1.1802189,0.5206089,0.039998546,0.04,-9.04254,-1.68399977684021,-3.4106789,0.0,-0.0,0.0
2615.4666666723583,-0.5351264,-0.56954,0.6041291,-1.9693516,0.051938348,1.1802189,0.5206089,0.039998546,0.04,-9.04254,-1.68399977684021,-3.4106789,0.0,-0.0,0.0
2615.483333339025,-0.5351264,-0.56954,0.6041291,-1.9693516,0.051938348,1.1802189,0.5206089,0.039998546,0.04,-9.04254,-1.68399977684021,-3.4106789,0.0,-0.0,0.0
2615.500000005692,-0.5351264,-0.56954,0.6041291,-1.9693516,0.051938348,1.1802189,0.5206089,0.039998546,0.04,-9.04254,-1.68399977684021,-3.4106789,0.0,-0.0,0.0
2615.516666672359,-0.5351264,-0.56954,0.6041291,-1.9693516,0.051938348,1.1802189,0.5206089,0.039998546,0.04,-9.04254,-1.68399977684021,-3.4106789,0.0,-0.0,0.0
2615.533333339026,-0.5351264,-0.56954,0.6041291,-1.9693516,0.051938348,1.1802189,0.5206089,0.039998546,0.04,-9.04254,-1.68399977684021,-3.4106789,0.0,-0.0,0.0
2615.5500000056927,-0.5351264,-0.56954,0.6041291,-1.9693516,0.051938348,1.1802189,0.5206089,0.039998546,0.04,-9.04254,-1.68399977684021,-3.4106789,0.0,-0.0,0.0
2615.5666666723596,-0.5351264,-0.56954,0.6041291,-1.9693516,0.051938348,1.1802189,0.5206089,0.039998546,0.04,-9.04254,-1.68399977684021,-3.4106789,0.0,-0.0,0.0
2615.5833333390265,-0.5351264,-0.56954,0.6041291,-1.9693516,0.051938348,1.1802189,0.5206089,0.039998546,0.04,-9.04254,-1.68399977684021,-3.4106789,0.0,-0.0,0.0
2615.6000000056933,-0.5351264,-0.56954,0.6041291,-1.9693516,0.051938348,1.1802189,0.5206089,0.039998546,0.04,-9.04254,-1.68399977684021,-3.4106789,0.0,-0.0,0.0
2615.61666667236,-0.5351264,-0.56954,0.6041291,-1.9693516,0.051938348,1.1802189,0.5206089,0.039998546,0.04,-9.04254,-1.68399977684021,-3.4106789,0.0,-0.0,0.0
2615.633333339027,-0.5351264,-0.56954,0.6041291,-1.9693516,0.051938348,1.1802189,0.5206089,0.039998546,0.04,-9.04254,-1.68399977684021,-3.4106789,0.0,-0.0,0.0
2615.650000005694,-0.5351264,-0.56954,0.6041291,-1.9693516,0.051938348,1.1802189,0.5206089,0.039998546,0.04,-9.04254,-1.68399977684021,-3.4106789,0.0,-0.0,0.0
2615.666666672361,-0.5351264,-0.56954,0.6041291,-1.9693516,0.051938348,1.1802189,0.5206089,0.039998546,0.04,-9.04254,-1.68399977684021,-3.4106789,0.0,-0.0,0.0
2615.6833333390277,-0.5351264,-0.56954,0.6041291,-1.9693516,0.051938348,1.1802189,0.5206089,0.039998546,0.04,-9.04254,-1.68399977684021,-3.4106789,0.0,-0.0,0.0
2615.7000000056946,-0.5351264,-0.56954,0.6041291,-1.9693516,0.051938348,1.1802189,0.5206089,0.039998546,0.04,-9.04254,-1.68399977684021,-3.4106789,0.0,-0.0,0.0
2615.7166666723615,-0.5351264,-0.56954,0.6041291,-1.9693516,0.051938348,1.1802189,0.5206089,0.039998546,0.04,-9.04254,-1.68399977684021,-3.4106789,0.0,-0.0,0.0
2615.7333333390284,-0.5351264,-0.56954,0.6041291,-1.9693516,0.051938348,1.1802189,0.5206089,0.039998546,0.04,-9.04254,-1.68399977684021,-3.4106789,0.0,-0.0,0.0
2615.7500000056953,-0.5351264,-0.56954,0.6041291,-1.9693516,0.051938348,1.1802189,0.5206089,0.039998546,0.04,-9.04254,-1.68399977684021,-3.4106789,0.0,-0.0,0.0
2615.766666672362,-0.5351264,-0.56954,0.6041291,-1.9693516,0.051938348,1.1802189,0.5206089,0.039998546,0.04,-9.04254,-1.68399977684021,-3.4106789,0.0,-0.0,0.0
2615.783333339029,-0.5351264,-0.56954,0.6041291,-1.9693516,0.051938348,1.1802189,0.5206089,0.039998546,0.04,-9.04254,-1.68399977684021,-3.4106789,0.0,-0.0,0.0
2615.800000005696,-0.5351264,-0.56954,0.6041291,-1.9693516,0.051938348,1.1802189,0.5206089,0.039998546,0.04,-9.04254,-1.68399977684021,-3.4106789,0.0,-0.0,0.0
2615.8166666723628,-0.5351264,-0.56954,0.6041291,-1.9693516,0.051938348,1.1802189,0.5206089,0.039998546,0.04,-9.04254,-1.68399977684021,-3.4106789,0.0,-0.0,0.0
2615.8333333390297,-0.5351264,-0.56954,0.6041291,-1.9693516,0.051938348,1.1802189,0.5206089,0.039998546,0.04,-9.04254,-1.68399977684021,-3.4106789,0.0,-0.0,0.0
2615.8500000056965,-0.5351264,-0.56954,0.6041291,-1.9693516,0.051938348,1.1802189,0.5206089,0.039998546,0.04,-9.04254,-1.68399977684021,-3.4106789,0.0,-0.0,0.0
2615.8666666723634,-0.5351264,-0.56954,0.6041291,-1.9693516,0.051938348,1.1802189,0.5206089,0.039998546,0.04,-9.04254,-1.68399977684021,-3.4106789,0.0,-0.0,0.0
2615.8833333390303,-0.5351264,-0.56954,0.6041291,-1.9693516,0.051938348,1.1802189,0.5206089,0.039998546,0.04,-9.04254,-1.68399977684021,-3.4106789,0.0,-0.0,0.0
2615.900000005697,-0.5351264,-0.56954,0.6041291,-1.9693516,0.051938348,1.1802189,0.5206089,0.039998546,0.04,-9.04254,-1.68399977684021,-3.4106789,0.0,-0.0,0.0
2615.916666672364,-0.5351264,-0.56954,0.6041291,-1.9693516,0.051938348,1.1802189,0.5206089,0.039998546,0.04,-9.04254,-1.68399977684021,-3.4106789,0.0,-0.0,0.0
2615.933333339031,-0.5351264,-0.56954,0.6041291,-1.9693516,0.051938348,1.1802189,0.5206089,0.039998546,0.04,-9.04254,-1.68399977684021,-3.4106789,0.0,-0.0,0.0
2615.950000005698,-0.5351264,-0.56954,0.6041291,-1.9693516,0.051938348,1.1802189,0.5206089,0.039998546,0.04,-9.04254,-1.68399977684021,-3.4106789,0.0,-0.0,0.0
2615.9666666723647,-0.5351264,-0.56954,0.6041291,-1.9693516,0.051938348,1.1802189,0.5206089,0.039998546,0.04,-9.04254,-1.68399977684021,-3.4106789,0.0,-0.0,0.0
2615.9833333390316,-0.5351264,-0.56954,0.6041291,-1.9693516,0.051938348,1.1802189,0.5206089,0.039998546,0.04,-9.04254,-1.68399977684021,-3.4106789,0.0,-0.0,0.0
2616.0000000056984,-0.5351264,-0.56954,0.6041291,-1.9693516,0.051938348,1.1802189,0.5206089,0.039998546,0.04,-9.04254,-1.68399977684021,-3.4106789,0.0,-0.0,0.0
2616.0166666723653,-0.5351264,-0.56954,0.6041291,-1.9693516,0.051938348,1.1802189,0.5206089,0.039998546,0.04,-9.04254,-1.68399977684021,-3.4106789,0.0,-0.0,0.0
2616.033333339032,-0.5351264,-0.56954,0.6041291,-1.9693516,0.051938348,1.1802189,0.5206089,0.039998546,0.04,-9.04254,-1.68399977684021,-3.4106789,0.0,-0.0,0.0
2616.050000005699,-0.5351264,-0.56954,0.6041291,-1.9693516,0.051938348,1.1802189,0.5206089,0.039998546,0.04,-9.04254,-1.68399977684021,-3.4106789,0.0,-0.0,0.0
2616.066666672366,-0.5351264,-0.56954,0.6041291,-1.9693516,0.051938348,1.1802189,0.5206089,0.039998546,0.04,-9.04254,-1.68399977684021,-3.4106789,0.0,-0.0,0.0
2616.083333339033,-0.5351264,-0.56954,0.6041291,-1.9693516,0.051938348,1.1802189,0.5206089,0.039998546,0.04,-9.04254,-1.68399977684021,-3.4106789,0.0,-0.0,0.0
2616.1000000056997,-0.5351264,-0.56954,0.6041291,-1.9693516,0.051938348,1.1802189,0.5206089,0.039998546,0.04,-9.04254,-1.68399977684021,-3.4106789,0.0,-0.0,0.0
2616.1166666723666,-0.5351264,-0.56954,0.6041291,-1.9693516,0.051938348,1.1802189,0.5206089,0.039998546,0.04,-9.04254,-1.68399977684021,-3.4106789,0.0,-0.0,0.0
2616.1333333390335,-0.5351264,-0.56954,0.6041291,-1.9693516,0.051938348,1.1802189,0.5206089,0.039998546,0.04,-9.04254,-1.68399977684021,-3.4106789,0.0,-0.0,0.0
2616.1500000057003,-0.5351264,-0.56954,0.6041291,-1.9693516,0.051938348,1.1802189,0.5206089,0.039998546,0.04,-9.04254,-1.68399977684021,-3.4106789,0.0,-0.0,0.0
2616.1666666723672,-0.5351264,-0.56954,0.6041291,-1.9693516,0.051938348,1.1802189,0.5206089,0.039998546,0.04,-9.04254,-1.68399977684021,-3.4106789,0.0,-0.0,0.0
2616.183333339034,-0.5351264,-0.56954,0.6041291,-1.9693516,0.051938348,1.1802189,0.5206089,0.039998546,0.04,-9.04254,-1.68399977684021,-3.4106789,0.0,-0.0,0.0
2616.200000005701,-0.5351264,-0.56954,0.6041291,-1.9693516,0.051938348,1.1802189,0.5206089,0.039998546,0.04,-9.04254,-1.68399977684021,-3.4106789,0.0,-0.0,0.0
2616.216666672368,-0.5351264,-0.56954,0.6041291,-1.9693516,0.051938348,1.1802189,0.5206089,0.039998546,0.04,-9.04254,-1.68399977684021,-3.4106789,0.0,-0.0,0.0
2616.2333333390347,-0.5351264,-0.56954,0.6041291,-1.9693516,0.051938348,1.1802189,0.5206089,0.039998546,0.04,-9.04254,-1.68399977684021,-3.4106789,0.0,-0.0,0.0
2616.2500000057016,-0.5351264,-0.56954,0.6041291,-1.9693516,0.051938348,1.1802189,0.5206089,0.039998546,0.04,-9.04254,-1.68399977684021,-3.4106789,0.0,-0.0,0.0
2616.2666666723685,-0.5351264,-0.56954,0.6041291,-1.9693516,0.051938348,1.1802189,0.5206089,0.039998546,0.04,-9.04254,-1.68399977684021,-3.4106789,0.0,-0.0,0.0
2616.2833333390354,-0.5351264,-0.56954,0.6041291,-1.9693516,0.051938348,1.1802189,0.5206089,0.039998546,0.04,-9.04254,-1.68399977684021,-3.4106789,0.0,-0.0,0.0
2616.3000000057023,-0.5351264,-0.56954,0.6041291,-1.9693516,0.051938348,1.1802189,0.5206089,0.039998546,0.04,-9.04254,-1.68399977684021,-3.4106789,0.0,-0.0,0.0
2616.316666672369,-0.5351264,-0.56954,0.6041291,-1.9693516,0.051938348,1.1802189,0.5206089,0.039998546,0.04,-9.04254,-1.68399977684021,-3.4106789,0.0,-0.0,0.0
2616.333333339036,-0.5351264,-0.56954,0.6041291,-1.9693516,0.051938348,1.1802189,0.5206089,0.039998546,0.04,-9.04254,-1.68399977684021,-3.4106789,0.0,-0.0,0.0
2616.350000005703,-0.5351264,-0.56954,0.6041291,-1.9693516,0.051938348,1.1802189,0.5206089,0.039998546,0.04,-9.04254,-1.68399977684021,-3.4106789,0.0,-0.0,0.0
2616.36666667237,-0.5351264,-0.56954,0.6041291,-1.9693516,0.051938348,1.1802189,0.5206089,0.039998546,0.04,-9.04254,-1.68399977684021,-3.4106789,0.0,-0.0,0.0
2616.3833333390367,-0.5351264,-0.56954,0.6041291,-1.9693516,0.051938348,1.1802189,0.5206089,0.039998546,0.04,-9.04254,-1.68399977684021,-3.4106789,0.0,-0.0,0.0
2616.4000000057035,-0.5351264,-0.56954,0.6041291,-1.9693516,0.051938348,1.1802189,0.5206089,0.039998546,0.04,-9.04254,-1.68399977684021,-3.4106789,0.0,-0.0,0.0
2616.4166666723704,-0.5351264,-0.56954,0.6041291,-1.9693516,0.051938348,1.1802189,0.5206089,0.039998546,0.04,-9.04254,-1.68399977684021,-3.4106789,0.0,-0.0,0.0
2616.4333333390373,-0.5351264,-0.56954,0.6041291,-1.9693516,0.051938348,1.1802189,0.5206089,0.039998546,0.04,-9.04254,-1.68399977684021,-3.4106789,0.0,-0.0,0.0
2616.450000005704,-0.5351264,-0.56954,0.6041291,-1.9693516,0.051938348,1.1802189,0.5206089,0.039998546,0.04,-9.04254,-1.68399977684021,-3.4106789,0.0,-0.0,0.0
2616.466666672371,-0.5351264,-0.56954,0.6041291,-1.9693516,0.051938348,1.1802189,0.5206089,0.039998546,0.04,-9.04254,-1.68399977684021,-3.4106789,0.0,-0.0,0.0
2616.483333339038,-0.5351264,-0.56954,0.6041291,-1.9693516,0.051938348,1.1802189,0.5206089,0.039998546,0.04,-9.04254,-1.68399977684021,-3.4106789,0.0,-0.0,0.0
2616.500000005705,-0.5351264,-0.56954,0.6041291,-1.9693516,0.051938348,1.1802189,0.5206089,0.039998546,0.04,-9.04254,-1.68399977684021,-3.4106789,0.0,-0.0,0.0
2616.5166666723717,-0.5351264,-0.56954,0.6041291,-1.9693516,0.051938348,1.1802189,0.5206089,0.039998546,0.04,-9.04254,-1.68399977684021,-3.4106789,0.0,-0.0,0.0
2616.5333333390386,-0.5351264,-0.56954,0.6041291,-1.9693516,0.051938348,1.1802189,0.5206089,0.039998546,0.04,-9.04254,-1.68399977684021,-3.4106789,0.0,-0.0,0.0
2616.5500000057054,-0.5351264,-0.56954,0.6041291,-1.9693516,0.051938348,1.1802189,0.5206089,0.039998546,0.04,-9.04254,-1.68399977684021,-3.4106789,0.0,-0.0,0.0
2616.5666666723723,-0.5351264,-0.56954,0.6041291,-1.9693516,0.051938348,1.1802189,0.5206089,0.039998546,0.04,-9.04254,-1.68399977684021,-3.4106789,0.0,-0.0,0.0
2616.583333339039,-0.5351264,-0.56954,0.6041291,-1.9693516,0.051938348,1.1802189,0.5206089,0.039998546,0.04,-9.04254,-1.68399977684021,-3.4106789,0.0,-0.0,0.0
2616.600000005706,-0.5351264,-0.56954,0.6041291,-1.9693516,0.051938348,1.1802189,0.5206089,0.039998546,0.04,-9.04254,-1.68399977684021,-3.4106789,0.0,-0.0,0.0
2616.616666672373,-0.5351264,-0.56954,0.6041291,-1.9693516,0.051938348,1.1802189,0.5206089,0.039998546,0.04,-9.04254,-1.68399977684021,-3.4106789,0.0,-0.0,0.0
2616.63333333904,-0.5351264,-0.56954,0.6041291,-1.9693516,0.051938348,1.1802189,0.5206089,0.039998546,0.04,-9.04254,-1.68399977684021,-3.4106789,0.0,-0.0,0.0
2616.6500000057067,-0.5351264,-0.56954,0.6041291,-1.9693516,0.051938348,1.1802189,0.5206089,0.039998546,0.04,-9.04254,-1.68399977684021,-3.4106789,0.0,-0.0,0.0
2616.6666666723736,-0.5351264,-0.56954,0.6041291,-1.9693516,0.051938348,1.1802189,0.5206089,0.039998546,0.04,-9.04254,-1.68399977684021,-3.4106789,0.0,-0.0,0.0
2616.6833333390405,-0.5351264,-0.56954,0.6041291,-1.9693516,0.051938348,1.1802189,0.5206089,0.039998546,0.04,-9.04254,-1.68399977684021,-3.4106789,0.0,-0.0,0.0
2616.7000000057074,-0.5351264,-0.56954,0.6041291,-1.9693516,0.051938348,1.1802189,0.5206089,0.039998546,0.04,-9.04254,-1.68399977684021,-3.4106789,0.0,-0.0,0.0
2616.7166666723742,-0.5351264,-0.56954,0.6041291,-1.9693516,0.051938348,1.1802189,0.5206089,0.039998546,0.04,-9.04254,-1.68399977684021,-3.4106789,0.0,-0.0,0.0
2616.733333339041,-0.5351264,-0.56954,0.6041291,-1.9693516,0.051938348,1.1802189,0.5206089,0.039998546,0.04,-9.04254,-1.68399977684021,-3.4106789,0.0,-0.0,0.0
2616.750000005708,-0.5351264,-0.56954,0.6041291,-1.9693516,0.051938348,1.1802189,0.5206089,0.039998546,0.04,-9.04254,-1.68399977684021,-3.4106789,0.0,-0.0,0.0
2616.766666672375,-0.5351264,-0.56954,0.6041291,-1.9693516,0.051938348,1.1802189,0.5206089,0.039998546,0.04,-9.04254,-1.68399977684021,-3.4106789,0.0,-0.0,0.0
2616.7833333390417,-0.5351264,-0.56954,0.6041291,-1.9693516,0.051938348,1.1802189,0.5206089,0.039998546,0.04,-9.04254,-1.68399977684021,-3.4106789,0.0,-0.0,0.0
2616.8000000057086,-0.5351264,-0.56954,0.6041291,-1.9693516,0.051938348,1.1802189,0.5206089,0.039998546,0.04,-9.04254,-1.68399977684021,-3.4106789,0.0,-0.0,0.0
2616.8166666723755,-0.5351264,-0.56954,0.6041291,-1.9693516,0.051938348,1.1802189,0.5206089,0.039998546,0.04,-9.04254,-1.68399977684021,-3.4106789,0.0,-0.0,0.0
2616.8333333390424,-0.5351264,-0.56954,0.6041291,-1.9693516,0.051938348,1.1802189,0.5206089,0.039998546,0.04,-9.04254,-1.68399977684021,-3.4106789,0.0,-0.0,0.0
2616.8500000057093,-0.5351264,-0.56954,0.6041291,-1.9693516,0.051938348,1.1802189,0.5206089,0.039998546,0.04,-9.04254,-1.68399977684021,-3.4106789,0.0,-0.0,0.0
