rsonawane2002/My_IMU/logs_2/traj_372/clean_372.csv
time,j1,j2,j3,j4,j5,j6,j7,gripper1,gripper2,imu_ax,imu_ay,imu_az,imu_gx,imu_gy,imu_gz,quat_x,quat_y,quat_z,quat_w
1338.0833333324451,0.00016700293,-0.785875,4.0107683e-05,-2.3551247,9.29385e-05,1.570997,0.786,0.04,0.04,0.0,-0.0,0.0,2.875329272945135e-08,-0.0011641195053377316,4.421952117202833e-08,0.9999995971961153,0.00020320632366974898,0.0008736418299892524,3.263050917662294e-05
1338.0999999991118,0.00016699657,-0.78576016,4.010473e-05,-2.3552213,9.297456e-05,1.5709941,0.786,0.04,0.04,-0.2919984591826408,-1.3828305540680881e-05,0.02012841382310615,1.605708071787805e-06,-0.0022381834807294245,5.17971196860378e-07,0.9999996850570106,0.00020321529326842717,0.0007665025176515746,3.2608505868633485e-05
1338.1166666657784,0.00016692566,-0.78565425,4.003292e-05,-2.35531,9.302117e-05,1.5709913,0.786,0.04,0.039999995,0.023262856373618135,0.00014473822521115978,-0.0016365386340089216,1.1826358188231886e-05,-0.0032315195141101823,4.304854985692503e-06,0.9999997558498012,0.00020328050764361813,0.0006677674396785272,3.261931346193495e-05
1338.133333332445,0.00016668084,-0.7855569,3.9779643e-05,-2.355391,9.306189e-05,1.5709884,0.786,0.04,0.04,0.022460759201736735,0.00041103549083570837,-0.0015248189253247446,3.8854896190819876e-05,-0.004150102441838999,1.142707094199022e-05,0.9999998122156468,0.00020349649409668892,0.0005771385673037118,3.2694373794223224e-05
1338.1499999991117,0.00016610233,-0.78546715,3.9182985e-05,-2.355465,9.311142e-05,1.5709856,0.786,0.04,0.04,0.020528957909005108,0.0007681182320690822,-0.001149336615280383,9.059335943027641e-05,-0.005002144949718705,2.5526294795615727e-05,0.999999856696566,0.00020400044190506535,0.0004938708251796481,3.2897951138634e-05
1338.1666666657784,0.00016498537,-0.78538454,3.8036404e-05,-2.3555317,9.3186296e-05,1.5709827,0.7860019,0.04,0.04,0.02006658108917314,0.0012262603252663614,-0.0009013746609110029,0.00017390242924524162,-0.0057970584372626305,5.0232798885618516e-05,0.9999998909834896,0.0002059214687677779,0.0004177555426439405,3.331162217159715e-05
1338.183333332445,0.00016308487,-0.7853085,3.6093785e-05,-2.3555925,9.329369e-05,1.5709826,0.7860038,0.04,0.04,0.01825064839315882,0.0017825223593144989,0.0009561203245134209,0.0002866969206484146,-0.0065372335428621415,8.467120312746059e-05,0.9999999166871355,0.0002085155918123107,0.00034926956264424124,3.4025616330996575e-05
1338.1999999991117,0.00016011954,-0.7852383,3.3073386e-05,-2.3556497,9.34453e-05,1.5709829,0.78600574,0.04,0.04,0.012753901422168923,0.002418279017285188,-0.001418101073169531,0.0004437488260456424,-0.007220780928630225,0.00013122808847917795,0.9999999360760058,0.00021202317093305223,0.0002857604497018735,3.5144340145222766e-05
1338.2166666657783,0.00015577576,-0.7851738,2.8661518e-05,-2.3557003,9.3639355e-05,1.5709835,0.78600955,0.03999999,0.03999999,0.017615793248304534,0.00313660831981392,-3.362653215877032e-05,0.0006509584842433301,-0.007876281061517835,0.00019153751247516181,0.999999949526192,0.00021766556103314585,0.0002285096404913091,3.677854267889972e-05
1338.233333332445,0.00014971108,-0.7851143,2.2516164e-05,-2.3557441,9.3902025e-05,1.5709841,0.7860153,0.039999988,0.039999988,0.016946436786446917,0.003899902291069126,9.942078160740664e-05,0.0009047981685927032,-0.00849187607915438,0.000266119307582634,0.999999958071479,0.00022573499356108565,0.00017712966556519353,3.906192978663561e-05
1338.2499999991117,0.00014155767,-0.78505933,1.4270222e-05,-2.355786,9.42485e-05,1.570985,0.786022,0.039999984,0.03999998,0.008325134647058086,0.004729443008968541,-0.0015496128154657285,0.001209962333327189,-0.009075196724742303,0.0003575067136716777,0.9999999629095168,0.00023609835650158933,0.00012908730824475422,4.2130726645499764e-05
1338.2666666657783,0.00013092543,-0.7850086,3.5345593e-06,-2.3558214,9.469345e-05,1.5709858,0.78603095,0.039999977,0.039999973,0.01602307091748134,0.0056091861735801775,0.0005813050273140163,0.0015754840248262936,-0.009650715745358703,0.00046471743805106874,0.9999999640238634,0.0002496842903119555,8.649847356839316e-05,4.613069537587749e-05
1338.283333332445,0.00011740427,-0.7849617,-1.0099552e-05,-2.355851,9.525444e-05,1.5709867,0.7860424,0.03999997,0.03999996,0.013978446862217275,0.0065326666244357,0.00048312616267587316,0.0019999883097026753,-0.010201446063923859,0.0005902788065183165,0.9999999618586308,0.0002669915018205495,4.8737269563809904e-05,5.1214779244875726e-05
1338.2999999991116,0.00010056749,-0.7849183,-2.7057346e-05,-2.3558776,9.594757e-05,1.5709882,0.7860558,0.03999997,0.03999996,0.008900160152469638,0.007495146761274583,-0.00036149776632132813,0.0024862403761687687,-0.010735200812229711,0.0007331792126754961,0.9999999567354922,0.00028811565733089,1.4402970214885315e-05,5.754073321443111e-05
1338.3166666657783,7.9973164e-05,-0.78487813,-4.7779155e-05,-2.3558974,9.679064e-05,1.5709926,0.78607297,0.03999997,0.03999996,0.016250670349582386,0.008491059645334064,0.003492117298131703,0.0030403400531754214,-0.011267236301905195,0.0008948929553740464,0.9999999483792644,0.00031432761718573285,-1.3375257391961004e-05,6.527419229984553e-05
1338.333333332445,5.5167024e-05,-0.7848407,-7.2717616e-05,-2.3559122,9.780266e-05,1.5709972,0.7860933,0.039999973,0.03999996,0.011613213923911125,0.009514723919850662,0.0008652248899343462,0.003657484037013485,-0.011769622154094687,0.00107678731707033,0.9999999367681881,0.00034571666814577073,-3.716041855830525e-05,7.458356748420026e-05
1338.3499999991116,2.568403e-05,-0.78480595,-0.00010233584,-2.3559237,9.900113e-05,1.571002,0.78611743,0.039999973,0.03999996,0.00867326924141043,0.010563606216188164,6.183821834593317e-05,0.0043433765860046,-0.012268529825964434,0.0012775772240771022,0.9999999213107653,0.00038300708522911005,-5.787641930867845e-05,8.564085381423192e-05
1338.3666666657782,-8.949838e-06,-0.7847734,-0.00013710582,-2.355928,0.000100405974,1.5710092,0.7861456,0.039999973,0.039999958,0.015344977805420434,0.011632379922995479,0.0037309465265256136,0.005098614857494934,-0.012774762361041499,0.0014993423216090177,0.999999901446507,0.0004267222700490706,-7.272185202262714e-05,9.8623593049307e-05
1338.3833333324449,-4.9215658e-05,-0.78474295,-0.00017750687,-2.3559272,0.00010203623,1.5710176,0.7861787,0.03999998,0.039999966,0.011226647152717817,0.012717833337601674,0.0020350773404453903,0.005924701753135895,-0.013262833388077856,0.0017406442305357508,0.9999998759663687,0.0004776897243502774,-8.336567518042894e-05,0.0001137098876281241
1338.3999999991115,-9.5600386e-05,-0.7847144,-0.00022402359,-2.355922,0.00010391064,1.5710262,0.7862166,0.039999977,0.039999958,0.009840620643952747,0.013816404189187998,0.0010316620419947853,0.006820079152275222,-0.013753416996701032,0.0020034150943211934,0.9999998434869012,0.0005362946958403182,-9.073173127464558e-05,0.00013107984283467747
1338.4166666657782,-0.00014859525,-0.78468746,-0.00027714536,-2.3559105,0.00010605014,1.5710375,0.78625995,0.03999998,0.03999996,0.013176776808276891,0.014925998275959751,0.00390062244504108,0.0077877959070055715,-0.014252567704059768,0.002286106533619131,0.9999998023459783,0.0006032544085331739,-9.282325300453638e-05,0.0001509170850962199
1338.4333333324448,-0.00020869456,-0.78466207,-0.00033736433,-2.3558934,0.00010847425,1.5710498,0.7863091,0.03999998,0.039999958,0.011733601683272532,0.01604224092753708,0.0023832488802444374,0.00882739830848209,-0.014746711357381386,0.0025904574078457676,0.99999975018724,0.0006791989615330394,-9.080249195793331e-05,0.0001734045443949083
1338.4499999991115,-0.00027639462,-0.78463775,-0.00040517453,-2.3558707,0.000111203124,1.5710622,0.7863645,0.039999984,0.039999958,0.010536145247064255,0.017163024913125935,0.001918355167718211,0.009938778301102333,-0.015246489737118358,0.0029158231021023527,0.9999996841972261,0.0007647304307185987,-8.544424285522481e-05,0.00019872618816000977
1338.4666666657781,-0.00035219226,-0.7846146,-0.00048107115,-2.355842,0.00011425622,1.5710783,0.7864265,0.039999988,0.03999996,0.01260961868241317,0.01828989711452865,0.004722752480290637,0.011122568353795608,-0.01576226555803717,0.0032612685518717288,0.9999996012185736,0.0008604818459237006,-7.466225725135937e-05,0.0002270665849806056
1338.4833333324448,-0.00043658479,-0.7845925,-0.0005655491,-2.3558075,0.0001176529,1.5710945,0.78649545,0.039999988,0.03999996,0.011278180027285423,0.019413818682393138,0.0021496387226260794,0.012378519981310239,-0.016275757979880474,0.003626755315006385,0.999999497141778,0.0009670559806152247,-6.033396032194742e-05,0.00025860923117352556
1338.4999999991114,-0.00053006806,-0.7845711,-0.0006591024,-2.3557663,0.00012141419,1.5711144,0.7865718,0.03999999,0.039999966,0.013295292385029356,0.02054037799666072,0.005293564501540615,0.013707052712807442,-0.016805628828023188,0.004012997381767236,0.9999993673936598,0.0010850853311674582,-4.046244977726032e-05,0.00029353857379421546
1338.516666665778,-0.00063313637,-0.78455037,-0.0007622234,-2.3557184,0.00012556104,1.5711347,0.78665596,0.03999999,0.039999958,0.012170640019193435,0.021658496004239424,0.002826742872175103,0.015107184025769996,-0.01733469968545379,0.004423493828541481,0.9999992063791242,0.0012152002029531552,-1.6746276777446877e-05,0.0003320378753611999
1338.5333333324447,-0.0007462813,-0.78453016,-0.0008754017,-2.3556638,0.00013011256,1.5711585,0.78674823,0.04,0.039999958,0.01305655954593199,0.022779048239855448,0.0052774802683952515,0.016579193890749064,-0.017881521393591122,0.00485378932202536,0.9999990078357311,0.0013579700640426488,1.2364520460942636e-05,0.00037428862807004445
1338.5499999991114,-0.00086999097,-0.7845104,-0.0009991237,-2.3556023,0.00013508378,1.5711843,0.7868492,0.04,0.03999998,0.012799200307811454,0.023891727187425674,0.004190407439641497,0.018122513169373,-0.01843165187523313,0.005297457089876308,0.9999987642755058,0.0015141098736801298,4.609531160299748e-05,0.00042046875519201516
1338.566666665778,-0.0010047506,-0.7844908,-0.0011338727,-2.3555334,0.00014050177,1.5712119,0.7869592,0.04,0.03999996,0.013409416336518376,0.02499255206306823,0.004485058510983464,0.019736061587167963,-0.018995087485478276,0.005770000183527974,0.9999984673755185,0.001684183566268017,8.459543617073782e-05,0.0004707610239229301
1338.5833333324447,-0.0011510403,-0.78447145,-0.0012801263,-2.3554578,0.00014638242,1.571243,0.78707844,0.04,0.039999954,0.01261652009645342,0.026091026690590758,0.0053293692638956,0.02141958577229658,-0.019571107551682367,0.006262929158326933,0.9999981076678324,0.0018687507959095938,0.00012825271136394142,0.0005253403269431148
1338.5999999991113,-0.0013093356,-0.78445214,-0.001438359,-2.355374,0.00015274504,1.5712757,0.78720754,0.039999984,0.03999993,0.0143082231067293,0.02717910320940953,0.0045905577882976445,0.023172870068785042,-0.020157649466673408,0.006774159864751502,0.9999976743036574,0.0020684867607762528,0.0001767694963118265,0.0005843820171030466
1338.616666665778,-0.0014801059,-0.78443277,-0.0016090387,-2.3552828,0.00015960923,1.571311,0.7873468,0.039999984,0.03999992,0.013702753616184893,0.028255155241812407,0.005213701238737656,0.02499403697941372,-0.02075900851853734,0.0073040834137163176,0.9999971552702218,0.002283942656382187,0.00023038470919854032,0.000648058864452554
1338.6333333324446,-0.0016638164,-0.7844134,-0.0017926284,-2.3551834,0.00016699223,1.5713497,0.78749657,0.03999999,0.039999925,0.014840097024837462,0.029327537960996755,0.005981624043682743,0.026883189773898787,-0.02137477472260538,0.007852375773872716,0.9999965368531609,0.002515725838540083,0.0002897843327523835,0.0007165404597531023
1338.6499999991113,-0.0018609245,-0.7843938,-0.0019895846,-2.3550756,0.00017491305,1.571391,0.78765726,0.03999999,0.03999992,0.014675073450232112,0.03037985047581156,0.005475412666866575,0.028838840586666907,-0.021998685309854778,0.008419534906697447,0.9999958041390339,0.00276440733551474,0.0003544921433178349,0.0007899947661732543
1338.666666665778,-0.002071883,-0.78437394,-0.002200357,-2.35496,0.00018338993,1.5714345,0.7878292,0.039999995,0.039999917,0.013784240428682537,0.031419890428566015,0.005042637891250479,0.0308604592092335,-0.022636820720029666,0.009005980251070337,0.9999949406862461,0.0030305534800928857,0.00042415119919989014,0.000868586942059029
1338.6833333324446,-0.0022971353,-0.7843537,-0.0024253891,-2.3548355,0.00019244087,1.5714813,0.7880128,0.04,0.03999992,0.015542782233657348,0.0324556303502721,0.0063242745280689405,0.03294701747781695,-0.023296118576012482,0.00960895270203305,0.9999939278289017,0.003314725207270316,0.0004996861322564391,0.0009524788159781601
1338.6999999991112,-0.0025371197,-0.784333,-0.0026651174,-2.3547027,0.00020208306,1.5715315,0.78820837,0.04,0.039999913,0.014726758879968216,0.03347097811822103,0.006060120829753934,0.03509762385679771,-0.02396439270852728,0.01023145131784406,0.9999927454986417,0.0036174775594818662,0.0005808593635404009,0.0010418294462811244
1338.716666665778,-0.002792267,-0.7843118,-0.0029199715,-2.3545604,0.00021233459,1.5715848,0.78841627,0.04,0.03999991,0.016539496008172172,0.03447988510096728,0.00642771208159143,0.037311061228117226,-0.024649398577546174,0.01087127344102629,0.9999913713595963,0.003939360362484125,0.0006680890465692197,0.0011367951945478966
1338.7333333324445,-0.0030629996,-0.7842901,-0.0031903726,-2.3544083,0.00022321305,1.5716413,0.78863674,0.04,0.039999902,0.017042122479615784,0.03547013885935382,0.006527942029532774,0.03958626399736194,-0.02534664199304081,0.01152791227493243,0.9999897813358186,0.004280856756161098,0.000761584875957629,0.0012375289295302732
1338.7499999991112,-0.0033497333,-0.7842677,-0.0034767352,-2.3542466,0.00023473558,1.5717013,0.78887033,0.04,0.0399999,0.016507534862841844,0.0364462952710691,0.006633852441373378,0.04192274531747785,-0.02605469299628914,0.012201065962299954,0.9999879487973115,0.004642593288038642,0.0008612584351389373,0.0013441806483241632
1338.7666666657778,-0.0036528755,-0.7842447,-0.0037794649,-2.3540761,0.0002469175,1.5717648,0.78911734,0.04,0.0399999,0.01532143804507946,0.03740262358437434,0.006331257476488439,0.04431827999453859,-0.026777259051623727,0.01289010807557818,0.9999858455990324,0.005025069886025215,0.0009668129142631216,0.0014568963646700368
1338.7833333324445,-0.0039728247,-0.78422105,-0.0040989593,-2.3538952,0.00025977488,1.5718318,0.7893779,0.039999995,0.039999887,0.018112643620549207,0.03835798391385991,0.006909289081069581,0.04677198983821039,-0.02751641086884163,0.013595014650117088,0.9999834406088766,0.005428721046590405,0.001079024580882554,0.0015758178148552043
1338.7999999991112,-0.0043099723,-0.7841966,-0.0044356077,-2.3537037,0.00027332385,1.5719024,0.7896524,0.04,0.03999989,0.01800956383604113,0.03929034336571328,0.006980908230280747,0.04928344626528096,-0.02826631404465161,0.01431582150554207,0.9999807006357424,0.005854034237723337,0.001197894877822506,0.0017010840822380996
1338.8166666657778,-0.0046647005,-0.7841713,-0.0047897953,-2.3535028,0.00028757937,1.5719765,0.78994125,0.04,0.03999988,0.01624574358038977,0.04020192168774032,0.006532789257551741,0.05185157432325206,-0.029028441822379382,0.015051450358352429,0.9999775901410406,0.006301579578362245,0.00132288875221955,0.001832832748467217
1338.8333333324445,-0.0050373846,-0.7841452,-0.005161893,-2.3532908,0.00030255746,1.5720544,0.7902447,0.04,0.039999884,0.01883778698690275,0.0411136061031046,0.007093128438606655,0.0544741910419203,-0.029808751217536077,0.015802244641308846,0.9999740699282851,0.006771801605146567,0.0014548423526956043,0.001971194513646842
1338.849999999111,-0.005428389,-0.784118,-0.005552264,-2.353068,0.00031827186,1.5721359,0.790563,0.04,0.03999988,0.01809073975642672,0.041995141745539144,0.0070517514527690395,0.05715079234009713,-0.030599684201219397,0.01656683626670819,0.9999700994929203,0.007265135995664912,0.001593489267833294,0.0021162965380672185
1338.8666666657778,-0.0058380724,-0.7840902,-0.005961266,-2.3528342,0.0003347382,1.5722214,0.7908965,0.04,0.03999987,0.01949394037212837,0.0428735441910702,0.007056683039707856,0.05988001361762518,-0.03140524928750902,0.017345537830944634,0.9999656337595154,0.007782073523556662,0.0017394273474642234,0.002268264558471497
1338.8833333324444,-0.0062667825,-0.7840612,-0.006389246,-2.3525896,0.0003519697,1.5723109,0.79124546,0.04,0.039999865,0.017981324829507983,0.04372597675656731,0.0071877313207346916,0.06266075677444304,-0.032220237317618014,0.01813756949652844,0.9999606266886936,0.008323066920572681,0.001892151923418535,0.002427218673631862
1338.899999999111,-0.0067148576,-0.78403133,-0.0068365433,-2.3523335,0.00036998012,1.5724045,0.79160994,0.04,0.03999986,0.019646491045621772,0.044571505968887815,0.0071393854300438875,0.065491420591832,-0.03305125328320526,0.01894201244396464,0.9999550286853894,0.008888412338760782,0.0020522317005851167,0.002593275524372398
1338.9166666657777,-0.00718263,-0.7840004,-0.0073034884,-2.3520663,0.0003887835,1.5725021,0.7919907,0.04,0.039999846,0.018961710179810076,0.045394053630255435,0.007033964955693861,0.06837197451960315,-0.03389226796284477,0.019759262625661193,0.9999487851532814,0.009478787181426987,0.002219429871278933,0.002766549311400048
1338.9333333324444,-0.00767042,-0.78396827,-0.007790403,-2.351787,0.00040839196,1.572604,0.7923877,0.04,0.03999984,0.02006888007377583,0.046214866192639814,0.00736359340682835,0.07129913606473773,-0.03474712255404401,0.020588359632595407,0.9999418403867469,0.010094474632852063,0.002394106748538041,0.002947147558089676
1338.949999999111,-0.0081785405,-0.783935,-0.008297598,-2.3514967,0.00042881854,1.5727099,0.7928012,0.04,0.03999983,0.0189008570394833,0.046993237475164915,0.006860429907962207,0.07427290839919667,-0.03561356919657758,0.021428812390051018,0.9999341363429468,0.010735836835967658,0.0025759371315476134,0.003135176456102358
1338.9666666657777,-0.008707299,-0.78390056,-0.008825377,-2.351194,0.00045007686,1.5728203,0.7932315,0.04,0.039999828,0.020922208597018432,0.04779585066623307,0.007437459617176678,0.07729198236022014,-0.03649492071946373,0.022280683095656593,0.999925608134084,0.011403324268635212,0.002765608950809657,0.003330735720184857
1338.9833333324443,-0.009256987,-0.7838651,-0.009374035,-2.3508801,0.00047217635,1.5729349,0.7936788,0.04,0.039999835,0.018590142129881748,0.04852813703432046,0.006355743748898135,0.08035519766382258,-0.037385317540533924,0.023142057802026553,0.9999161918435628,0.01209731238383854,0.0029623799162550113,0.003533925209558961
1338.999999999111,-0.009827893,-0.7838284,-0.009943857,-2.3505533,0.00049513107,1.5730541,0.7941434,0.04,0.03999983,0.022111622441833845,0.04932050313144337,0.007613861617983275,0.08346062998393286,-0.03829287709510434,0.024014123493496173,0.9999058148454087,0.01281814913025362,0.0031674451118713456,0.0037448341321011007
1339.0166666657776,-0.010420293,-0.7837903,-0.010535121,-2.3502138,0.00051895104,1.5731777,0.7946254,0.04,0.039999828,0.021070282523139028,0.05004140326588108,0.007104973140426019,0.08660777718872699,-0.039205711855557455,0.02489585108025644,0.9998944051680448,0.01356619791681267,0.003380390333280617,0.003963552562839153
1339.0333333324443,-0.011034457,-0.7837511,-0.011148094,-2.349862,0.00054364774,1.5733057,0.79512525,0.04,0.039999817,0.020500808960433048,0.050749271145199976,0.006559147116047548,0.08979550147083049,-0.04012999330549413,0.025786740331284273,0.9998818856027311,0.014341876538355796,0.0036010992801424183,0.004190167641065336
1339.049999999111,-0.011670645,-0.7837106,-0.011783037,-2.3494976,0.0005692314,1.5734383,0.79564285,0.04,0.039999813,0.021601606808308027,0.051469417747563445,0.00682175979924704,0.09302141869533642,-0.04106713809023897,0.026686243949364963,0.9998681764718458,0.015145388692232791,0.0038299334506090655,0.004424758749457909
1339.0666666657776,-0.012329106,-0.7836687,-0.012440201,-2.3491194,0.0005957127,1.5735756,0.79617864,0.04,0.039999805,0.022674089045726653,0.052176907776131654,0.007195914450308649,0.0962857085263588,-0.04201336800783745,0.02759392205879224,0.9998531905485044,0.015977168815508827,0.00406728327623085,0.004667401136358692
1339.0833333324442,-0.013010082,-0.78362554,-0.013119826,-2.3487282,0.0006231006,1.5737178,0.7967327,0.04,0.039999805,0.022073889072204977,0.05284128166370486,0.0067420315388533325,0.09958651051049106,-0.0429646160109301,0.028509418157275555,0.9998368406594059,0.016837492877058245,0.004313063115555666,0.004918168398270874
1339.0999999991109,-0.013713806,-0.78358114,-0.013822142,-2.3483248,0.0006514054,1.5738647,0.7973052,0.04,0.039999783,0.02034531614261148,0.05346445833414662,0.0059086487834481005,0.10292244126650454,-0.043925598736142914,0.02943213957515129,0.999819038340579,0.017726626882891287,0.00456668087116321,0.005177132111105096
1339.1166666657775,-0.014440504,-0.7835353,-0.014547379,-2.347908,0.000680636,1.5740162,0.79789644,0.04,0.03999979,0.02214940818097144,0.05414609068103149,0.0062829720262502775,0.1062930539862772,-0.04489914924694001,0.030361753307529375,0.9997996848398182,0.018644928253463547,0.004828646767666171,0.005444356253642694
1339.1333333324442,-0.015190393,-0.7834881,-0.0152957495,-2.3474772,0.00071080145,1.5741726,0.7985064,0.04,0.039999794,0.02348288975613233,0.05479876367819811,0.006475142430240055,0.1096960875617396,-0.045882987153206475,0.03129719213478524,0.9997786796953597,0.019592594973388226,0.00509947193038586,0.005719898149721098
1339.1499999991108,-0.015963681,-0.7834393,-0.016067466,-2.347033,0.0007419098,1.574334,0.7991353,0.04,0.039999828,0.022007023364234435,0.05540584188903075,0.006117222397628019,0.11313179493726917,-0.04687162871121828,0.03223987248738904,0.9997559200957183,0.020569966687470097,0.005378742970868323,0.006003817793135837
1339.1666666657775,-0.016760558,-0.7833894,-0.016862713,-2.3465757,0.000773969,1.5745003,0.7997835,0.04,0.039999828,0.022126911359365842,0.055963224936010636,0.005331713138589933,0.11659781082899373,-0.047869239461677836,0.0331883526476029,0.999731297493651,0.02157733234777565,0.005666553310850594,0.006296166610728254
1339.1833333324441,-0.017581219,-0.7833379,-0.017681686,-2.346105,0.0008069863,1.5746715,0.8004511,0.04,0.03999982,0.02190306805007758,0.05657260776144868,0.005452485679358077,0.12009288262313911,-0.04887506275895022,0.03413927246923048,0.9997047013894169,0.02261493324590572,0.005962758470875226,0.006596993678778838
1339.1999999991108,-0.018425845,-0.78328484,-0.01852457,-2.3456204,0.0008409702,1.5748478,0.80113804,0.04,0.039999817,0.023232125556926775,0.05717540912577937,0.0055983574664075775,0.12361582953432237,-0.049893363835696425,0.03509553435705097,0.9996760148050862,0.023682940439399714,0.006267870108212072,0.00690634200366492
1339.2166666657774,-0.01929461,-0.7832304,-0.019391531,-2.3451216,0.0008759273,1.5750291,0.80184495,0.04,0.03999981,0.023356972188559588,0.05772262022237101,0.005087718437346567,0.12716644472778293,-0.05091582832645251,0.03605587480378818,0.9996451122153907,0.02478181020471548,0.0065819211100961545,0.007224252304352682
1339.233333332444,-0.020187672,-0.7831747,-0.020282734,-2.3446085,0.0009118639,1.5752155,0.80257094,0.04,0.0399998,0.023793225626933534,0.05826711874577159,0.00482573634772443,0.13074094604479877,-0.05194439042429183,0.03702033517303314,0.9996118813771919,0.02591124634866327,0.006905068960101887,0.007550757900105097
1339.2499999991107,-0.021105193,-0.7831173,-0.021198334,-2.3440814,0.000948787,1.5754069,0.80331767,0.04,0.039999794,0.02298854914188908,0.05879937767049384,0.0046785497296308876,0.13434329069176215,-0.05297887543351803,0.03798685315592576,0.9995761759753264,0.0270722332501793,0.007237074459746868,0.007885896439557909
1339.2666666657774,-0.02204731,-0.78305835,-0.02213849,-2.3435402,0.0009867031,1.5756032,0.804084,0.04,0.03999979,0.023002924118498136,0.05930566616184976,0.004079884604557549,0.13796503865388116,-0.054019622137307585,0.03895764902858902,0.9995378805484282,0.02826434203702037,0.007577887741905739,0.008229698374887035
1339.283333332444,-0.023014173,-0.78299797,-0.023103321,-2.3429854,0.0010256163,1.5758051,0.8048703,0.04,0.039999787,0.02247584449075468,0.05979373048849712,0.0038829084527680635,0.1416111088041166,-0.05506794576084188,0.03992862554528838,0.99949685518152,0.029487883428805144,0.007927632340657687,0.008582182625184488
1339.2999999991107,-0.024005897,-0.7829361,-0.024092969,-2.342416,0.0010655333,1.576012,0.80567676,0.04,0.039999787,0.023877194450228068,0.060299154054359316,0.0036850688816425503,0.14527890036801833,-0.056123732833191754,0.04090203674920285,0.9994529565634811,0.030743069013305216,0.008286581405871837,0.008943371442757543
1339.3166666657773,-0.02502262,-0.7828726,-0.025107557,-2.3418324,0.0011064587,1.5762239,0.8065036,0.04,0.039999776,0.023214106398161682,0.06077182948601087,0.0030872790665936733,0.14896679254459255,-0.057183866220303865,0.04187665589642133,0.9994060402387963,0.032030143396490275,0.008654441780196113,0.009313285439791708
1339.333333332444,-0.026064456,-0.7828075,-0.026147196,-2.3412344,0.0011483971,1.5764414,0.80735093,0.04,0.03999977,0.023442995049194337,0.06125323857839454,0.003303396579679152,0.1526735204162643,-0.05825117811366983,0.04285263683987881,0.9993559533854061,0.03334927944141359,0.009031635940456542,0.009691932011929182
1339.3499999991107,-0.027131502,-0.78274107,-0.027211988,-2.3406217,0.0011913518,1.5766637,0.8082187,0.04,0.039999764,0.024162224927848364,0.06166677138353116,0.002247663797083632,0.15639733826299174,-0.05932286559269442,0.04382840463393657,0.9993025467272594,0.03470054314858925,0.009418050900248024,0.010079321745378313
1339.3666666657773,-0.028223855,-0.782673,-0.028302033,-2.3399944,0.001235328,1.5768915,0.80910707,0.04,0.039999757,0.02367596587022902,0.06211335487605468,0.002389699670946044,0.1601379104893904,-0.060397823439407354,0.04480403301224777,0.9992456614842808,0.036084094834860074,0.00981381131737859,0.010475457613758427
1339.383333332444,-0.029341612,-0.7826033,-0.029417422,-2.3393528,0.0012803292,1.5771248,0.8100161,0.04,0.039999746,0.023218192768204027,0.06252366541517479,0.0018512972814743733,0.16389420822293493,-0.06147689061925921,0.04577981716411494,0.9991851368135576,0.03750008723652705,0.01021880351877162,0.010880343871867098
1339.3999999991106,-0.030484846,-0.78253204,-0.030558232,-2.3386962,0.0013263584,1.5773634,0.8109457,0.04,0.039999742,0.024310165574781273,0.06293756100727438,0.0015272323671711163,0.16766475487315685,-0.06256171347920023,0.0467548555948718,0.9991208089491074,0.03894854076103093,0.010633272672690278,0.011293972274446508
1339.4166666657773,-0.031653628,-0.7824594,-0.03172455,-2.3380249,0.001373419,1.5776072,0.81189615,0.04,0.03999974,0.02411571118798861,0.06331516615076527,0.0008218458703579401,0.17144914359352828,-0.06364744405949255,0.04772834440159822,0.9990525041113881,0.040429681008222175,0.011057223352733915,0.011716344739977244
1339.433333332444,-0.032848023,-0.7823852,-0.032916427,-2.3373387,0.0014215137,1.5778564,0.8128674,0.04,0.039999735,0.02394065711055493,0.06368169884675978,0.0006296741170475073,0.1752454465184995,-0.06473679419808376,0.04870003936326511,0.9989800511829099,0.04194354479493968,0.01149069189882603,0.01214744369453871
1339.4499999991106,-0.034068104,-0.78230935,-0.034133926,-2.336638,0.0014706466,1.578111,0.8138595,0.04,0.039999805,0.023369838509768037,0.06403828910786641,-9.887150298482084e-06,0.17905300954186631,-0.06582670216635295,0.04967240378462251,0.9989032749708676,0.043490232076955494,0.011933475781270643,0.012587260311348231
1339.4666666657772,-0.03531392,-0.7822318,-0.035377093,-2.3359222,0.0015208161,1.5783706,0.81487256,0.04,0.0399998,0.02383449583698294,0.06437978813118861,-0.0005894137578010827,0.18287054624504473,-0.06692167703197684,0.0506383196500804,0.9988219952984296,0.045069825674724145,0.012385521314503028,0.013035773221475753
1339.4833333324439,-0.036585495,-0.7821526,-0.036645975,-2.335192,0.0015720275,1.578636,0.8159065,0.04,0.039999794,0.02338421254293177,0.06471466645677076,-0.0005430362807423705,0.18669730924642744,-0.06802063538673361,0.05160240121346053,0.9987360244739019,0.04668237194279653,0.01284716247733234,0.013492960540265215
1339.4999999991105,-0.03788289,-0.78207195,-0.03794061,-2.3344467,0.0016242806,1.5789064,0.81696147,0.04,0.039999794,0.024046940024624597,0.06502574087119822,-0.0018032110758570141,0.19053185935832723,-0.06911974013376568,0.05256344283747438,0.9986451751826788,0.04832794977088683,0.013318226603630213,0.013958803510106168
1339.5166666657772,-0.039206114,-0.78198975,-0.039261024,-2.333687,0.0016775774,1.5791825,0.8180376,0.04,0.03999979,0.022905804793915685,0.06529317293049591,-0.0019457588512405977,0.19437346310666492,-0.07022145130166163,0.053520670674213476,0.9985492503956326,0.05000670471817583,0.013798718145107778,0.014433273887149455
1339.5333333324438,-0.04055519,-0.7819059,-0.040607233,-2.3329124,0.0017319184,1.5794638,0.8191346,0.04,0.03999979,0.023772319041670542,0.06560146008136591,-0.002477191887817476,0.19821975995961455,-0.07132593493341427,0.05447504965219161,0.9984480641663882,0.0517184597502133,0.014288705966434395,0.014916332165191384
1339.5499999991105,-0.041930124,-0.7818204,-0.041979264,-2.332123,0.0017873038,1.5797508,0.82025266,0.04,0.03999978,0.02348481647871381,0.06588080598012858,-0.0029077632184071334,0.20207199122461406,-0.07243069367069092,0.055422927490976694,0.9983414085163878,0.053463387454264814,0.014788283506625574,0.015407949712977001
1339.5666666657771,-0.04333092,-0.7817332,-0.043377094,-2.3313186,0.0018437351,1.5800432,0.82139164,0.04,0.039999772,0.0236530329035034,0.06610590012211676,-0.003393861521416852,0.2059274436290295,-0.07353673548517155,0.05636675064486547,0.9982290861150079,0.055241402872117304,0.015297458284656897,0.015908073822614395
1339.5833333324438,-0.044757586,-0.7816446,-0.044800766,-2.3304992,0.0019012116,1.580341,0.8225517,0.04,0.03999977,0.02387694455672218,0.06639923195309178,-0.004250371220981819,0.20978648622272664,-0.07464229219072015,0.05730585874552657,0.9981108829347357,0.05705262313208521,0.015816324609042264,0.01641668166384884
1339.5999999991104,-0.04621012,-0.78155434,-0.046250224,-2.329665,0.0019597327,1.580644,0.8237328,0.04,0.03999976,0.02315778115749012,0.0665444401594259,-0.004916059184734145,0.21364654481042705,-0.07574644224160346,0.05823874394522898,0.997986597671931,0.0588969744635577,0.01634462138419964,0.016933712470972313
1339.616666665777,-0.04768849,-0.78146255,-0.047725484,-2.328816,0.002019299,1.5809522,0.8249348,0.04,0.039999757,0.02311031296131638,0.06675497391043367,-0.0056451913519772745,0.2175075304332701,-0.07685241048562198,0.05916589643998337,0.997856019418125,0.06077442223154535,0.016882325309094094,0.017459129577225174
1339.6333333324437,-0.04919269,-0.7813692,-0.04922651,-2.327952,0.0020799078,1.581266,0.82615787,0.04,0.03999976,0.02364902498830368,0.06701409374961914,-0.005731770076566889,0.2213687970563155,-0.07795983444302645,0.060086658888264526,0.9977189187054207,0.06268505400778236,0.017429857884485846,0.017992868460973872
1339.6499999991104,-0.050722666,-0.7812741,-0.05075327,-2.327074,0.0021415618,1.5815848,0.8274018,0.04,0.039999817,0.020974526632722146,0.06698817854177697,-0.007293173227740368,0.22522824476123887,-0.07906305757054792,0.06100233412717823,0.9975751042226587,0.06462870585409192,0.017986095020606763,0.018534891439835426
1339.666666665777,-0.052278403,-0.7811776,-0.052305717,-2.3261812,0.0022042564,1.5819095,0.8286668,0.04,0.039999805,0.023780121727368098,0.06734160484460072,-0.006930387788051107,0.2290865482055329,-0.08017365409819674,0.06190924204741803,0.9974243228372808,0.06660546313596272,0.018552381325438176,0.019085115671415208
1339.6833333324437,-0.05385984,-0.78107953,-0.05388383,-2.325273,0.0022679896,1.5822393,0.82995266,0.04,0.039999805,0.02358256042644946,0.06744537740626944,-0.00807385590644305,0.2329403579344665,-0.08127763342871476,0.06280970507427239,0.9972663620890643,0.06861519777563217,0.019128277114489143,0.019643489875412472
1339.6999999991103,-0.055466935,-0.7809798,-0.055487543,-2.32435,0.0023327598,1.5825745,0.8312593,0.04,0.0399998,0.022713655214268158,0.06756150587486076,-0.00850110325254505,0.2367906945080399,-0.08237939078554263,0.0637014969423237,0.9971009960883624,0.07065784219126213,0.01971372889783647,0.02020994382507978
1339.716666665777,-0.05709963,-0.7808783,-0.057116818,-2.3234127,0.002398566,1.5829151,0.8325868,0.04,0.0399998,0.022046276980791646,0.06765648233063581,-0.009278402701951016,0.24063612577572885,-0.0834792406769341,0.06458602039631842,0.9969279951968363,0.07273338346952105,0.02030850316528961,0.020784417746908
1339.7333333324436,-0.058757853,-0.78077525,-0.058771573,-2.3224607,0.0024654057,1.5832609,0.8339351,0.04,0.03999979,0.02219130863467811,0.06770394202133823,-0.010188595488291874,0.24447469854695947,-0.08457886194140835,0.06546219680045753,0.9967471289534359,0.07484169695692336,0.02091266575284978,0.021366837173534665
1339.7499999991103,-0.06044153,-0.78067076,-0.060451746,-2.3214939,0.0025332742,1.5836121,0.83530396,0.04,0.0399998,0.02269207052263411,0.06781674470320853,-0.010773956345078162,0.24830686727079362,-0.08567637673674088,0.06632947937335971,0.996558159511553,0.07698266613572413,0.02152646110282909,0.021957124082403363
1339.766666665777,-0.062150616,-0.7805649,-0.062157243,-2.320512,0.0026021705,1.5839684,0.83669347,0.04,0.039999798,0.023001999441163434,0.06789073470713225,-0.011595799203045765,0.25213108921875255,-0.08676979470048568,0.06718790446534943,0.9963608457339923,0.07915623210941324,0.02214992409313137,0.022555196056624545
1339.7833333324436,-0.06388499,-0.78045726,-0.063888006,-2.3195157,0.0026720911,1.5843304,0.8381037,0.04,0.039999794,0.021829568827769208,0.06794064140175915,-0.011794758940530947,0.2559466308397582,-0.08785792498589573,0.06803796837061447,0.9961549435237067,0.0813623790592273,0.022782908566732495,0.023160976757103536
1339.7999999991102,-0.06564457,-0.7803477,-0.06564392,-2.3185048,0.0027430314,1.5846971,0.83953464,0.04,0.039999798,0.021232178071706187,0.06785520007661916,-0.013212983367827391,0.25975127638596907,-0.08894227892230355,0.06887873427686088,0.9959402247853913,0.08360098541919239,0.023424823947475016,0.02377438778168564
1339.816666665777,-0.06742926,-0.78023684,-0.067424916,-2.3174791,0.002814989,1.5850697,0.84098595,0.04,0.039999846,0.022642288833063517,0.06800535219660675,-0.013362141580208764,0.26354441792180605,-0.0900274997987329,0.06971109914599313,0.9957164302920346,0.08587183021296459,0.024076690154740742,0.024395331798446312
1339.8333333324435,-0.069238976,-0.78012484,-0.06923086,-2.3164394,0.0028879594,1.5854471,0.84245706,0.04,0.039999843,0.021190265679749132,0.06779604647557669,-0.015170395719632523,0.26732593078388855,-0.09110347315674495,0.07053193249867248,0.9954833560718287,0.08817450449755981,0.024737774362338944,0.0250237299413286
1339.8499999991102,-0.07107358,-0.780011,-0.07106168,-2.3153858,0.002961937,1.5858296,0.84394884,0.04,0.039999843,0.01995749327359242,0.06778300976461593,-0.015376268440703278,0.27109749333085875,-0.09217618697549847,0.07134238231481982,0.995240721896269,0.09050935596187813,0.025407711510267945,0.025659504254185363
1339.8666666657768,-0.07293296,-0.77989537,-0.07291726,-2.314318,0.0030369195,1.5862175,0.8454605,0.04,0.039999843,0.02083443281977182,0.0678436298902102,-0.015815275475628,0.27485376800533534,-0.09324805756861645,0.07214149439645834,0.994988301865383,0.09287587890569865,0.02608690267048394,0.0263025431773468
1339.8833333324435,-0.074817024,-0.7797784,-0.074797414,-2.3132362,0.0031129005,1.5866103,0.8469922,0.04,0.039999835,0.020294046254276665,0.06757646116049565,-0.017386609327663116,0.2785969304760663,-0.09431588244327559,0.07293018493768565,0.9947258411056752,0.09527404659373707,0.02677511001359334,0.026952746910503797
1339.8999999991102,-0.07672562,-0.77966017,-0.076702096,-2.3121407,0.0031898757,1.5870084,0.8485438,0.04,0.03999984,0.020318270020869278,0.06759612076016885,-0.017900376711899035,0.28232490920977066,-0.09538045796276039,0.07370807390082056,0.994453085737886,0.09770366906057237,0.02747251710552383,0.027610036624126283
1339.9166666657768,-0.07865861,-0.77954024,-0.078631125,-2.3110306,0.0032678396,1.5874115,0.8501154,0.04,0.039999835,0.021007934989603072,0.06754879008956105,-0.018263992834910425,0.2860372158850301,-0.09643974905779662,0.07447434677217601,0.9941697735455272,0.10016464750226381,0.02817924450592778,0.02827428050822149
1339.9333333324435,-0.08061587,-0.77941865,-0.0805844,-2.3099065,0.003346787,1.5878197,0.8517066,0.04,0.03999983,0.020041880774179788,0.06739594024275652,-0.019308533316819698,0.28973178394368615,-0.09749258247455324,0.07522929379241228,0.9938756710504825,0.10265667892515609,0.028895001853216834,0.02894539054691125
1339.94999999911,-0.082597256,-0.7792959,-0.08256172,-2.308768,0.0034267127,1.588233,0.85331756,0.04,0.039999843,0.021009591518117432,0.06721186398791767,-0.02025722254899165,0.2934085234182361,-0.09854023753897584,0.0759734451310392,0.9935705029951104,0.1051796597323664,0.029620235610333175,0.029623240859418264
1339.9666666657768,-0.0846026,-0.7791715,-0.08456297,-2.3076165,0.0035076092,1.5886511,0.854948,0.04,0.03999989,0.01810989088011361,0.0668976190863424,-0.02139014521687077,0.2970666797918875,-0.09957772495511727,0.07670704305936808,0.9932540516155317,0.10773332381489437,0.0303539089161006,0.030307756476502794
1339.9833333324434,-0.08663177,-0.7790455,-0.08658799,-2.3064508,0.0035894709,1.5890741,0.8565978,0.04,0.039999887,0.019807176664032866,0.06687669422897058,-0.02170988524932138,0.300705249344597,-0.10061372157843475,0.0774260852569922,0.9929260438838002,0.11031747153932046,0.03109664974150931,0.03099879393284037
1339.99999999911,-0.0886846,-0.77891815,-0.08863664,-2.305272,0.0036722925,1.5895025,0.8582668,0.04,0.039999876,0.018412349301621944,0.06660298130082287,-0.02283733235199925,0.30432362098289223,-0.10164349934158387,0.07813284990150438,0.9925862341490249,0.11293186087967005,0.03184822386573237,0.03169626496466111
1340.0166666657767,-0.09076091,-0.7787894,-0.090708725,-2.3040795,0.0037560652,1.5899354,0.8599548,0.04,0.039999887,0.01932989238713212,0.06634904093423821,-0.0238033713523933,0.3079205361877628,-0.10266560903120878,0.07882632647307888,0.992234372624624,0.11557621044171545,0.032608693383804004,0.032400038239982144
1340.0333333324434,-0.09286052,-0.77865905,-0.092804104,-2.3028736,0.0038407836,1.5903733,0.86166185,0.04,0.039999887,0.018213072694006627,0.06611639190432228,-0.024458152187345483,0.3114959529685585,-0.10368053841203886,0.07950766884536176,0.9918701999809726,0.11825039125766637,0.03337781942465101,0.03311000645680169
1340.04999999911,-0.09498329,-0.778527,-0.09492257,-2.301654,0.0039264406,1.5908161,0.8633876,0.04,0.039999887,0.01849568112266553,0.06592350247264511,-0.025064849306888348,0.31504829856876765,-0.10468889985154398,0.08017656419190469,0.991493473039654,0.12095402929396659,0.03415575750482114,0.03382602469388108
1340.0666666657767,-0.097128995,-0.7783941,-0.09706399,-2.3004217,0.0040130266,1.5912637,0.86513203,0.04,0.03999989,0.017903529671992047,0.06544032609079042,-0.026882675148542923,0.3185773507328729,-0.10568983608346871,0.08083227389888388,0.9911039338084784,0.1236869377016752,0.03494235678557456,0.034548017795681805
1340.0833333324433,-0.09929747,-0.7782595,-0.09922811,-2.2991767,0.004100539,1.5917157,0.866895,0.04,0.039999887,0.016459056141604478,0.06506742703343282,-0.02734508326773799,0.32208141019505093,-0.10668288745354525,0.08147611870101548,0.9907013531312525,0.12644883176857177,0.03573705399136036,0.03527583904441374
1340.09999999911,-0.10148851,-0.7781232,-0.10141477,-2.2979186,0.0041889665,1.5921725,0.8686763,0.04,0.039999925,0.017189524472227546,0.06490174841515817,-0.027795480856562804,0.3255609340174357,-0.10767143424611347,0.08210386273604871,0.9902854720498672,0.12923941258883467,0.036540178503671195,0.03600935205727418
1340.1166666657766,-0.10370191,-0.77798617,-0.103623785,-2.296647,0.004278302,1.5926343,0.8704758,0.04,0.039999943,0.018739537044520915,0.06458865561167482,-0.02903818842701078,0.32901427805807315,-0.10865338966612444,0.08271860458421318,0.9898560070137532,0.13205843753652793,0.03735247287623785,0.036748431588702515
1340.1333333324433,-0.10593749,-0.77784735,-0.10585491,-2.2953634,0.004368537,1.5931005,0.8722933,0.04,0.039999943,0.015123791953985943,0.06395466743806533,-0.02995874181053182,0.33244057997753296,-0.10961941206865652,0.08332078312138215,0.989412772487391,0.13490553419345583,0.03817251247878894,0.03749295632314661
1340.14999999911,-0.10819503,-0.777707,-0.10810799,-2.294067,0.0044596614,1.5935713,0.8741286,0.04,0.039999936,0.016562621429949687,0.06376492535162259,-0.03062467046035522,0.33584009185099045,-0.11058374159498617,0.08390711867616209,0.988955495307774,0.1377804501329077,0.039000831873517806,0.03824278984203624
1340.1666666657766,-0.1104743,-0.7775659,-0.11038277,-2.2927575,0.00455167,1.5940467,0.87598157,0.04,0.03999994,0.01745579290992616,0.0632602285894901,-0.031904285257677856,0.33921132520634545,-0.11153934846212887,0.08448024493413105,0.9884839119621872,0.14068286666157376,0.039837905183852496,0.03899779648102367
1340.1833333324432,-0.11277512,-0.7774231,-0.112679064,-2.291437,0.004644554,1.5945266,0.8778522,0.04,0.039999936,0.013246145342993287,0.06261744275772863,-0.03267610060850856,0.34255317313556377,-0.11247962724676344,0.08504007721329904,0.98799782267103,0.14361253904931356,0.040682332628614856,0.03975787767233203
1340.1999999991099,-0.11509723,-0.7772793,-0.114996634,-2.290103,0.0047383024,1.5950111,0.87974,0.04,0.039999936,0.01774081552223805,0.06251611695842763,-0.03332340734032435,0.34586500231572037,-0.11341862914314473,0.08558447389685905,0.9874969484568487,0.14656900142837737,0.04153557523715207,0.04052284045349077
1340.2166666657765,-0.11744044,-0.7771342,-0.11733525,-2.2887566,0.004832907,1.5954994,0.8816451,0.04,0.039999943,0.015231969563256342,0.061785766978983414,-0.03466869520423188,0.3491462174925996,-0.11434107832849696,0.08611503061268584,0.9869810703930666,0.1495520600666893,0.04239658566927053,0.041292584554059465
1340.2333333324432,-0.1198045,-0.77698743,-0.11969469,-2.2873988,0.0049283598,1.5959926,0.883567,0.04,0.039999947,0.013593370556774786,0.06129799705743011,-0.03486477092449203,0.35239576247391263,-0.11525630978679036,0.08663276340617493,0.9864499748463007,0.1525612387394145,0.043265308444480594,0.0420669543137139
1340.2499999991098,-0.122189164,-0.77683973,-0.12207472,-2.2860286,0.0050246487,1.5964898,0.8855057,0.04,0.039999995,0.015573069168617337,0.06079925949653009,-0.03640389685359846,0.35561400310131697,-0.11616387554272156,0.08713338768061903,0.9859033978968683,0.15559626747556737,0.04414212370894047,0.04284582217142887
1340.2666666657765,-0.12459419,-0.7766907,-0.12447508,-2.2846475,0.0051217647,1.5969913,0.88746095,0.04,0.04,0.01266284576555421,0.05998023002948272,-0.0372247595771924,0.35879920884934596,-0.11705743676798219,0.08762171674162522,0.9853411487714808,0.15865674363570306,0.04502625726791909,0.0436290544598034
1340.2833333324431,-0.12701935,-0.7765404,-0.12689556,-2.283254,0.0052197007,1.5974975,0.8894325,0.04,0.03999999,0.01516123022287097,0.05989777108106331,-0.03737036164199736,0.3619512353841379,-0.11794510466269699,0.08809352068064803,0.9847629578053968,0.16174231439130946,0.04591860004188479,0.044416470367450125
1340.2999999991098,-0.12946436,-0.77638894,-0.12933588,-2.2818491,0.0053184424,1.5980076,0.89142025,0.04,0.039999995,0.012921920874919834,0.058827182443071946,-0.039117923614129246,0.3650687972849098,-0.11881610676730756,0.08855077505034478,0.9841686366080733,0.16485261001452045,0.046818283607833404,0.045207963993339186
1340.3166666657764,-0.13192903,-0.7762359,-0.13179582,-2.280433,0.005417982,1.5985215,0.89342403,0.04,0.04,0.012623386112409207,0.0584171689966273,-0.03962316751464634,0.36815181212065046,-0.1196782328223682,0.08899313048207379,0.9835579598380362,0.16798732129397073,0.04772512679962924,0.04600338895859115
1340.333333332443,-0.13441303,-0.77608216,-0.1342751,-2.2790067,0.00551831,1.5990396,0.8954435,0.04,0.04,0.011266663721976045,0.057337548167291086,-0.04119011156615837,0.37119869851859055,-0.12053195028457467,0.08942100661558529,0.9829307372059092,0.17114590485350356,0.0486390687289366,0.04680262920932027
1340.3499999991097,-0.13691612,-0.77592695,-0.13677341,-2.277569,0.005619414,1.5995616,0.8974785,0.04,0.039999995,0.012589328775458597,0.05702378645982553,-0.04114108626933621,0.37421048050363953,-0.12137671127289057,0.08983163031774262,0.9822867351653839,0.17432804492109005,0.04956028038895802,0.047605475314183104
1340.3666666657764,-0.1394381,-0.7757708,-0.13929054,-2.2761216,0.005721285,1.6000874,0.8995288,0.04,0.04,0.010146809614131058,0.05604302917888715,-0.04286653421425868,0.37718521501699903,-0.12221090940864379,0.09022776280914974,0.9816257757267141,0.17753331247182647,0.0504881382442363,0.048411850701440134
1340.383333332443,-0.14197862,-0.77561337,-0.14182629,-2.2746623,0.0058239116,1.6006172,0.9015943,0.04,0.04,0.01345869751485651,0.055927356671514605,-0.04274340392829146,0.3801228408042693,-0.12303812878558582,0.09061029281694025,0.9809475838069576,0.18076141527613931,0.05142361091829644,0.04922154823634468
1340.3999999991097,-0.14453745,-0.77545494,-0.14438029,-2.273193,0.0059272833,1.6011508,0.90367454,0.04,0.04,0.010274753890904265,0.05463163232864443,-0.04424901565838191,0.38302113991246556,-0.12384797724796957,0.09097499841424478,0.9802520294132355,0.18401177925716794,0.052365807667068436,0.050034449264684186
1340.4166666657763,-0.1471143,-0.77529526,-0.14695227,-2.2717133,0.0060313893,1.601688,0.90576947,0.04,0.04,0.010257280971792682,0.05398378159378603,-0.04484660984771516,0.38588143922770035,-0.12464694801085982,0.09132499081864662,0.9795389057937578,0.18728405252327512,0.05331466085630666,0.0508503947340038
1340.433333332443,-0.1497089,-0.7751345,-0.14954199,-2.2702231,0.0061362153,1.6022291,0.9078789,0.04,0.04,0.010812547001748385,0.0533274838855069,-0.04556472489274377,0.38870220313877996,-0.12543603528127617,0.09166008342644304,0.9788079993304791,0.1905778366460609,0.05427042942911912,0.05166922793647165
1340.4499999991097,-0.152321,-0.7749728,-0.15214914,-2.2687235,0.006241751,1.6027738,0.9100024,0.04,0.04,0.009093943279614436,0.0523032572177784,-0.04679860754159826,0.39148232330324395,-0.12621254049414518,0.09197995603341963,0.9780591607243606,0.19389263444950178,0.05523257772041533,0.05249082574840727
1340.4666666657763,-0.1549502,-0.77480996,-0.15477346,-2.2672133,0.006347985,1.603322,0.91214,0.04,0.04,0.010436979503047894,0.051681122991892314,-0.04710581838256456,0.3942225480614333,-0.12697788228712437,0.09228387502104209,0.9772921741080769,0.19722806730605108,0.05620147647023758,0.05331500667160702
1340.483333332443,-0.15759626,-0.7746459,-0.15741462,-2.2656934,0.0064549074,1.603874,0.91429126,0.04,0.04,0.009070416565037931,0.05072124096143216,-0.0478700371644214,0.39692028831592785,-0.12772798945476652,0.09257167923466271,0.9765068969050082,0.2005835981479174,0.05717679747116525,0.05414161321873997
1340.4999999991096,-0.16025895,-0.77448106,-0.16007236,-2.2641644,0.0065625045,1.6044292,0.916456,0.04,0.04,0.007989593834922815,0.04971403567096133,-0.04926630565285084,0.3995768083100884,-0.12846551203616385,0.09284549682596988,0.9757031641161296,0.20395882190769846,0.058158177849123326,0.054970545286239174
1340.5166666657763,-0.16293788,-0.77431506,-0.16274631,-2.2626262,0.006670766,1.6049879,0.9186338,0.04,0.04,0.007967074681181074,0.04876461397210208,-0.049607155319741914,0.4021903458674867,-0.12919187753911238,0.09310276324825496,0.9748808362824246,0.20735316847135934,0.0591455801013135,0.0558016032802608
1340.533333332443,-0.1656328,-0.7741483,-0.16543628,-2.2610781,0.0067796763,1.6055497,0.9208248,0.04,0.04,0.009047378113491433,0.048154383734960726,-0.050546180888444425,0.4047620253819214,-0.1299074451455997,0.09334675656283828,0.9740396842825646,0.21076638201405282,0.06013934438283583,0.05663466175965985
1340.5499999991096,-0.16834338,-0.7739804,-0.16814192,-2.2595208,0.0068892264,1.606115,0.9230289,0.04,0.04,0.007805047340836424,0.04714354955659972,-0.05087031765227401,0.4072891490776427,-0.13060701034267733,0.0935742002837558,0.9731795602519181,0.2141980335524087,0.061139160218534806,0.05746954861434806
1340.5666666657762,-0.17106934,-0.7738117,-0.17086293,-2.2579553,0.0069994023,1.6066836,0.9252447,0.04,0.04,0.005994207977977339,0.04588956258014254,-0.05212780645276194,0.40977008707695384,-0.13129154656694503,0.09378453500007299,0.9723004575374968,0.21764711451959803,0.06214457577468969,0.05830613617322926
1340.5833333324429,-0.17381035,-0.7736419,-0.17359897,-2.2563813,0.0071101934,1.6072556,0.92747307,0.04,0.04,0.006318407805760984,0.04507858359132921,-0.05235608911473566,0.41220962983653775,-0.1319640818009439,0.09398141808827846,0.9714021142468776,0.22111367689789452,0.06315560842418037,0.05914425965350498
1340.5999999991095,-0.1765661,-0.7734715,-0.17634976,-2.2547991,0.0072215847,1.6078304,0.9297136,0.04,0.04,0.005822935600896528,0.04382807467126493,-0.053761195013168894,0.4146022682053387,-0.13262453484893638,0.09416277944219845,0.9704844272603151,0.22459712309372865,0.06417204566667783,0.05998380863359962
1340.6166666657762,-0.17933623,-0.7732998,-0.17911491,-2.2532089,0.007333563,1.6084081,0.9319661,0.04,0.04,0.0049765404665169655,0.0428410390851508,-0.0538343515058326,0.41694919622684573,-0.13327158532386252,0.09432616641972141,0.9695472825214961,0.2280969914363649,0.06519354721363707,0.06082459087050376
1340.6333333324428,-0.18212043,-0.7731277,-0.18189418,-2.25161,0.007446119,1.6089888,0.9342298,0.04,0.04,0.006652061037204504,0.042007426713569496,-0.05479618189756508,0.41924849549835586,-0.13390980713058495,0.09447476927233223,0.9685905730579303,0.23161251359288773,0.06622080040985856,0.06166644892948244
1340.6499999991095,-0.18491845,-0.7729545,-0.18468724,-2.2500036,0.0075592343,1.6095724,0.9365045,0.04,0.04,0.00427983494484252,0.04087848707099995,-0.055194338737862836,0.4215022190918227,-0.13452767266857413,0.09460896397827348,0.9676142055356478,0.23514329942243184,0.0672530522835872,0.06250923884427621
1340.6666666657761,-0.18772995,-0.7727805,-0.18749374,-2.248389,0.0076729003,1.6101588,0.9387904,0.04,0.04,0.005070877420765285,0.039878421098316075,-0.05584825277158423,0.42370913895448703,-0.13513452320729508,0.09472824849083168,0.9666180092546857,0.23868904531037272,0.06829045456666943,0.06335280300356803
1340.6833333324428,-0.19055453,-0.7726058,-0.19031335,-2.2467668,0.0077871014,1.6107479,0.94108677,0.04,0.04,0.004432177696056527,0.03856779840494262,-0.056584496881062485,0.4258666202429658,-0.13572688578156816,0.09483127753327578,0.965601955356825,0.24224896396307904,0.06933288813797554,0.06419699286055344
1340.6999999991094,-0.19339196,-0.7724302,-0.19314577,-2.2451377,0.007901823,1.6113397,0.9433935,0.04,0.04,0.0027732732606366994,0.037446072253677354,-0.05717601384747084,0.42797712801446186,-0.13630226026223666,0.09492005742069418,0.9645659524553817,0.24582267080176365,0.07037980747722648,0.06504168342838886
1340.716666665776,-0.19624189,-0.7722539,-0.19599065,-2.2435012,0.008017059,1.6119341,0.9457105,0.04,0.04,0.00373365047998675,0.036454555579812364,-0.05766185205533514,0.4300384938887747,-0.13686810734241617,0.09499209872768047,0.9635098810219922,0.2494096807619157,0.07143152132840085,0.06588670636733977
1340.7333333324427,-0.19910392,-0.77207696,-0.19884765,-2.2418575,0.008132787,1.6125312,0.9480372,0.04,0.04,0.0034318477303951767,0.035246852734482914,-0.05813949123374407,0.43205001978095836,-0.13741731455697864,0.0950508675834391,0.9624336856575543,0.2530093717697267,0.07248801956348895,0.06673189288539268
1340.7499999991094,-0.20197771,-0.7718991,-0.20171645,-2.2402072,0.008248996,1.6131307,0.95037353,0.04,0.04,0.0019587330921222446,0.03394910754397351,-0.05861529781028274,0.4340113785605177,-0.13794940892445234,0.0950959674417265,0.9613373242538342,0.2566212598323192,0.07354869389505381,0.067577123532179
1340.766666665776,-0.20486295,-0.7717206,-0.2045967,-2.23855,0.008365674,1.6137325,0.9527192,0.04,0.04,0.0026054781284479134,0.03283209145684696,-0.05927190215777589,0.43592338930482055,-0.13846808256494503,0.09512439479940203,0.9602207112954736,0.2602448334882235,0.07461373733893326,0.06842223646021905
1340.7833333324427,-0.20775928,-0.77154166,-0.20748803,-2.2368865,0.0084828045,1.6143366,0.9550741,0.04,0.04,0.001618079842513609,0.03142669271366527,-0.05985668668617716,0.43778412137305533,-0.1389708529469349,0.09513809196753517,0.9590837966421855,0.26387957392041356,0.07568295459331739,0.06926710525218892
1340.7999999991093,-0.21066637,-0.7713618,-0.21039017,-2.2352164,0.008600371,1.6149429,0.9574376,0.04,0.04,0.0017188934727574434,0.030551570023051866,-0.05997795229673031,0.4395933424454004,-0.1394578191627478,0.09513573246415308,0.9579265564744579,0.2675248868423026,0.07675622261787338,0.07011155119119736
1340.816666665776,-0.2135839,-0.77118146,-0.21330272,-2.2335398,0.008718364,1.6155514,0.9598095,0.04,0.04,0.0016659970035526328,0.02920349644568443,-0.06059685177499663,0.4413508121253241,-0.13993071880126498,0.09511979903867537,0.9567489465944946,0.2711802234475289,0.07783358489986886,0.07095542729705874
1340.8333333324426,-0.21651146,-0.7710007,-0.21622531,-2.231858,0.00883677,1.6161618,0.96218956,0.04,0.04,-0.0003802626249882479,0.027476142508497947,-0.061206765796884,0.4430563939025511,-0.14038518519663915,0.09509057276880514,0.9555509908926398,0.27484499471273194,0.07891443309662288,0.07179864159224218
1340.8499999991093,-0.21944879,-0.770819,-0.21915765,-2.2301712,0.008955572,1.6167743,0.9645776,0.04,0.04,-0.0014207968665580495,0.026450245376852255,-0.06123708843508435,0.4447100892057773,-0.14082544255106022,0.09504613394669428,0.9543326557630131,0.2785187902440686,0.07999839731355914,0.07264104936299437
1340.866666665776,-0.22239545,-0.77063686,-0.22209935,-2.2284782,0.00907476,1.617389,0.96697325,0.04,0.04,0.001154435893679917,0.025474661378066532,-0.06148645357382243,0.4463110333859375,-0.14125542326397733,0.09498497773651561,0.9530938881988791,0.2822009600068018,0.08108631919562859,0.07348242843351332
1340.8833333324426,-0.22535108,-0.77045417,-0.22505003,-2.22678,0.0091943145,1.6180054,0.9693763,0.04,0.04,-0.0007752890821333125,0.023804206283417617,-0.062018377541894765,0.4478580525751571,-0.14166507486292151,0.09491274574604827,0.9518347195688576,0.2858909996124003,0.08217749807999013,0.074322686800262
1340.8999999991092,-0.22831543,-0.77027106,-0.22800939,-2.2250776,0.009314223,1.6186236,0.9717863,0.04,0.04,-0.0027734193066120127,0.022298210636229054,-0.06253922441612492,0.4493513510871672,-0.1420588859937806,0.09482539404670594,0.9505552162622408,0.2895882729858362,0.08327140107172823,0.07516173726888384
1340.916666665776,-0.23128799,-0.77008754,-0.23097704,-2.2233698,0.009434471,1.6192436,0.97420305,0.04,0.04,-0.00031174251380328144,0.021382422367111076,-0.06243538974086693,0.4507919210873365,-0.14244038697239508,0.09472058629847015,0.9492553289265236,0.29329224265826964,0.08436870937137766,0.07599935381362147
1340.9333333324425,-0.23426856,-0.76990336,-0.23395269,-2.2216578,0.009555043,1.6198653,0.9766263,0.04,0.04,-0.002771676664181655,0.019950189133299823,-0.06274437305100466,0.45217816367074837,-0.14280208521439441,0.09460516962006418,0.9479351056233103,0.2970024563905018,0.08546864474807961,0.07683545529154001
1340.9499999991092,-0.2372567,-0.7697187,-0.23693585,-2.2199419,0.0096759265,1.6204884,0.9790557,0.04,0.04,-0.003507684444503667,0.018179625129688404,-0.06308427852477205,0.453509276331731,-0.14315059274398312,0.09447388700005503,0.9465946293522508,0.30071825406993147,0.08657092290698927,0.07766990831486241
1340.9666666657758,-0.24025199,-0.7695337,-0.23992626,-2.218221,0.009797105,1.6211132,0.981491,0.04,0.04,-0.0012315567477827472,0.01743130426731243,-0.06299049052380656,0.45478556250852037,-0.14348676001960323,0.0943290471040661,0.9452338620610719,0.304439107261657,0.08767628990163975,0.07850251060902126
1340.9833333324425,-0.24325413,-0.7693483,-0.24292354,-2.2164967,0.009918561,1.6217394,0.98393184,0.04,0.04,-0.004273389729281263,0.015539778151474337,-0.0634177867424146,0.45600639226371165,-0.14380204414277106,0.09417043228505335,0.9438529488629775,0.30816438937261925,0.08878379493447733,0.07933320743733395
1340.9999999991091,-0.24626279,-0.76916254,-0.24592732,-2.2147682,0.010040289,1.6223669,0.98637795,0.04,0.04,-0.0027453226488116655,0.01459775209151637,-0.06339472525529466,0.45717267757018665,-0.14410360256614765,0.0939983096766789,0.9424518810504674,0.3118936385856148,0.08989380056719898,0.08016180345929146
1341.0166666657758,-0.24927758,-0.7689763,-0.24893726,-2.213037,0.010162264,1.6229956,0.98882896,0.04,0.04,-0.005811340077555016,0.012671134169717213,-0.0635810255087188,0.45828146362599753,-0.1443881543700774,0.0938155059206951,0.9410308321318956,0.31562619635549216,0.09100538111387585,0.08098825692428996
1341.0333333324425,-0.25229806,-0.7687899,-0.2519528,-2.2113016,0.010284476,1.6236256,0.9912847,0.04,0.04,-0.0023848281241800606,0.011622380133902155,-0.06343899374436912,0.4593361626925188,-0.1446603639515313,0.09361427663091837,0.9395897840518614,0.31936151117410144,0.09211956764391953,0.08181227379231117
1341.049999999109,-0.25532395,-0.7686032,-0.2549738,-2.2095633,0.010406909,1.6242568,0.99374485,0.04,0.04,-0.005214156757959998,0.010184435403415293,-0.06364144295376573,0.460334304533078,-0.14490938588013144,0.09340173805839716,0.9381288704899463,0.32309907000364807,0.09323549893789924,0.08263386142397301
1341.0666666657758,-0.25835487,-0.76841617,-0.25800008,-2.2078223,0.010529547,1.6248891,0.99620914,0.04,0.04,-0.005800431286084873,0.008971933354851025,-0.06369901091776153,0.4612751865706251,-0.1451437678542528,0.0931769053398273,0.9366481555689007,0.32683842844165817,0.09435294729389365,0.08345295501130803
1341.0833333324424,-0.26139045,-0.76822895,-0.26103088,-2.2060783,0.010652377,1.6255221,0.99867713,0.04,0.04,-0.0048180703075217934,0.007171809158046383,-0.0636558460368919,0.4621574922111328,-0.14536192490511035,0.09293758380532292,0.9351478143333521,0.3305787964436814,0.09547204779319952,0.08426928728531251
1341.099999999109,-0.26443025,-0.76804143,-0.2640659,-2.2043324,0.010775385,1.6261562,1.0011485,0.04,0.04,-0.006892922563528359,0.005557561305957748,-0.06328019116508266,0.4629841909310385,-0.14556355665836582,0.09268650260149666,0.9336280143117287,0.3343195729612353,0.09659231341734446,0.08508277743492568
1341.1166666657757,-0.267474,-0.76785374,-0.26710486,-2.2025843,0.0108985575,1.6267912,1.0036231,0.04,0.04,-0.006411303406173019,0.004504399741001031,-0.0633718721175125,0.46375434589504955,-0.14575154433472118,0.09242373046494223,0.932088778892766,0.3380604231595745,0.09771383496704576,0.08589333508133601
1341.1333333324424,-0.27052122,-0.7676658,-0.27014744,-2.2008336,0.01102187,1.6274269,1.0061005,0.04,0.04,-0.0057928446643540354,0.0031927377254992173,-0.06326034085588628,0.4644667548565126,-0.14592052439545503,0.09214438932570634,0.9305302893139406,0.34180063184632137,0.09883663272524162,0.08670080028641686
1341.149999999109,-0.2735716,-0.7674777,-0.27319306,-2.1990807,0.011145313,1.628063,1.0085806,0.04,0.04,-0.006538105501796565,0.0014210542037096374,-0.06306745986890405,0.46512061762772805,-0.1460734239389158,0.0918572716640631,0.9289527036573225,0.345539664279293,0.09996041867696076,0.08750502542957736
1341.1666666657757,-0.27662477,-0.76728946,-0.27624148,-2.197327,0.011268871,1.6286997,1.011063,0.04,0.04,-0.008512506184343849,-0.000185849821732198,-0.06289749866679184,0.46571700190975096,-0.14620858444821447,0.0915555789108523,0.9273561937842966,0.3492770106486381,0.1010846736810055,0.08830599316613705
1341.1833333324423,-0.27968034,-0.7671012,-0.27929232,-2.1955717,0.011392528,1.6293371,1.0135474,0.04,0.04,-0.007454068097967337,-0.0013051424043508675,-0.06259840998517063,0.466255439280242,-0.14632908369232117,0.09124064022819245,0.9257408831004574,0.3530121086356355,0.10220973471068152,0.08910352767079174
1341.199999999109,-0.28273797,-0.7669129,-0.2823453,-2.193816,0.011516269,1.629975,1.0160335,0.04,0.04,-0.009360190840812521,-0.0029273873821011875,-0.06241190799911589,0.46673553128740386,-0.14643057578838264,0.09091254180935347,0.9241069961583458,0.35674440530715845,0.10333494282572774,0.08989760021515884
1341.2166666657756,-0.2857973,-0.7667244,-0.28539997,-2.1920586,0.011640082,1.6306129,1.0185208,0.04,0.04,-0.007425705920161008,-0.004039794670984698,-0.06224065712443494,0.46715669273284377,-0.14651838616994275,0.09057264743692692,0.9224547035667217,0.3604732736156308,0.10446064049152627,0.09068800066470971
1341.2333333324423,-0.28885782,-0.7665359,-0.2884558,-2.1903,0.011763945,1.6312513,1.0210093,0.04,0.04,-0.007839685712607292,-0.0056601077262130595,-0.06137580201510673,0.46751887285842136,-0.1465876049753791,0.09022199297300287,0.9207841713384388,0.36419819546740884,0.10558687665487658,0.09147456318089314
1341.249999999109,-0.29191926,-0.76634735,-0.2915126,-2.188541,0.011887849,1.6318899,1.0234982,0.04,0.04,-0.009225917116673088,-0.007156889919202047,-0.06145426649621921,0.4678229434202823,-0.14663819947996337,0.08986105783871556,0.9190957070707408,0.36791845694340913,0.10671310792023726,0.09225726465986071
1341.2666666657756,-0.29498118,-0.7661588,-0.2945699,-2.1867812,0.012011775,1.6325285,1.0259879,0.04,0.04,-0.008787415919719876,-0.008583505997272756,-0.060955429541875716,0.4680690499301734,-0.14667226214114457,0.08949033828219542,0.9173893848807217,0.3716338230542633,0.10783933543855885,0.09303599197307175
1341.2833333324422,-0.29804325,-0.76597035,-0.29762742,-2.1850214,0.012135711,1.6331673,1.0284778,0.04,0.04,-0.009877685479953158,-0.010009918684938945,-0.06053414627940068,0.4682544130480386,-0.1466890916541329,0.08910756144953506,0.9156654757411801,0.3753436541359132,0.10896529442232905,0.0938106734174393
1341.2999999991089,-0.30110517,-0.7657819,-0.30068478,-2.1832623,0.012259638,1.6338058,1.0309672,0.04,0.04,-0.011297263425147364,-0.011646441787771522,-0.060217101771953274,0.4683808730559474,-0.1466863432978809,0.08871141635724171,0.9139243251463348,0.37904724404293294,0.11009043530560185,0.09458123885579352
1341.3166666657755,-0.30416635,-0.7655934,-0.30374163,-2.1815035,0.012383545,1.6344442,1.0334562,0.04,0.04,-0.01029315963743116,-0.012849606557785442,-0.05937667729773999,0.46844873923552477,-0.14667223815703842,0.08830553617912881,0.9121660951915992,0.38274412865791513,0.11121506697266023,0.09534755182525874
1341.3333333324422,-0.3072267,-0.7654052,-0.3067974,-2.1797457,0.012507412,1.6350826,1.0359445,0.04,0.04,-0.01117570594186823,-0.014543469659566988,-0.05908535664573833,0.46845946031270685,-0.14663881136005413,0.08788585393473343,0.9103910361753066,0.38643382584811165,0.11233889055882737,0.09610948527619255
1341.3499999991088,-0.31028563,-0.76521707,-0.3098518,-2.1779885,0.012631224,1.6357205,1.0384316,0.04,0.04,-0.011017231447141285,-0.01587082544205476,-0.058511734586685904,0.4684089111195498,-0.14659082132761525,0.08745826315630964,0.908599426016412,0.3901157517262169,0.11346176609332666,0.09686697544942045
1341.3666666657755,-0.31334278,-0.765029,-0.31290454,-2.1762328,0.012754967,1.6363583,1.0409175,0.04,0.04,-0.01210533363789068,-0.017236962922795307,-0.05762459218994209,0.46830052366351427,-0.1465254630039139,0.08701842217382176,0.9067915213954953,0.39378942400652356,0.11458346863659855,0.0976199517571024
1341.3833333324421,-0.3163979,-0.7648412,-0.31595522,-2.1744776,0.012878627,1.6369956,1.0434014,0.04,0.04,-0.010294009174671714,-0.01818488329259349,-0.05740363299260309,0.46813257971638467,-0.14644338038722213,0.08656595609730527,0.9049675932576805,0.3974542005975814,0.11570438778998582,0.09836822773072308
1341.3999999991088,-0.31945053,-0.76465344,-0.31900337,-2.1727238,0.013002188,1.6376324,1.0458835,0.04,0.04,-0.012039797883067749,-0.020031116422170037,-0.0563563516885246,0.46790583309362666,-0.14634246570988438,0.08610532399343339,0.9031278870326603,0.40110977237802065,0.11682391511655942,0.0991117703585897
1341.4166666657754,-0.32250026,-0.7644659,-0.3220489,-2.170971,0.013125631,1.6382686,1.0483631,0.04,0.04,-0.01104044254338632,-0.02083020009809866,-0.05605057881810094,0.46761781780453626,-0.14622542341748412,0.08563607305431631,0.9012727265214526,0.40475542990742486,0.11794232856452794,0.09985049585164578
1341.433333332442,-0.3255467,-0.76427853,-0.32509112,-2.169221,0.013248947,1.638904,1.0508404,0.04,0.04,-0.014410803514097736,-0.023366801079260924,-0.054945369173498015,0.4672718058990294,-0.14608587570065296,0.08515644848913137,0.8994024746654724,0.40839079986969284,0.11905847177693188,0.10058440955514993
1341.4499999991087,-0.32858953,-0.76409143,-0.32812968,-2.167473,0.013372116,1.6395384,1.0533147,0.04,0.04,-0.012897817090351538,-0.024354960243055945,-0.05439540656284603,0.46686589660329425,-0.14593679456689151,0.08466496403027553,0.8975174565147017,0.41201521358396387,0.12017272933945983,0.10131334635597734
1341.4666666657754,-0.3316284,-0.7639044,-0.33116424,-2.1657271,0.013495127,1.6401724,1.0557854,0.04,0.04,-0.012438504770573289,-0.025065393663648017,-0.053240224030615124,0.46640212425784766,-0.14577294081223463,0.08416446024107545,0.8956179694140484,0.4156281325791348,0.12128533664140871,0.10203712749395842
1341.483333332442,-0.334663,-0.7637179,-0.33419454,-2.1639838,0.013617961,1.6408054,1.0582527,0.04,0.04,-0.013257201410254993,-0.026778623321987993,-0.05304492895710222,0.4658802015903948,-0.14558855808727034,0.0836550929148312,0.8937042759011147,0.41922923199694634,0.1223959105692964,0.10275582392851325
1341.4999999991087,-0.3376929,-0.7635316,-0.33722004,-2.1622431,0.013740604,1.6414372,1.060716,0.04,0.04,-0.013527894123299689,-0.0282458137767172,-0.05185637987834557,0.4652984780317415,-0.14538558245463265,0.08313549851989657,0.8917768011328746,0.42281788216688837,0.12350418031190183,0.1034692849429725
1341.5166666657753,-0.3407176,-0.76334596,-0.34024054,-2.1605048,0.013863041,1.6420683,1.0631754,0.04,0.04,-0.012397501795957666,-0.02907187217060514,-0.05107663561219056,0.46465781624317537,-0.14516823627642603,0.08260795832468995,0.8898357226991767,0.426393757413592,0.12461063548272247,0.10417744368021832
1341.533333332442,-0.34373692,-0.76316065,-0.3432557,-2.1587703,0.013985259,1.642698,1.0656307,0.04,0.04,-0.015318108745843162,-0.03092066910285185,-0.05021733400771833,0.4639577280530005,-0.14492956493694822,0.08207319426370206,0.887881482872237,0.42995642799517825,0.12571415980978637,0.10488037195559531
1341.5499999991086,-0.34675053,-0.7629758,-0.34626505,-2.1570392,0.014107241,1.6433265,1.0680808,0.04,0.04,-0.014164636339852876,-0.031935231989654866,-0.04937225798316014,0.4631975453827506,-0.14467811841729394,0.08152692798313657,0.8859145229677576,0.433505145121815,0.12681506949671692,0.10557786366595708
1341.5666666657753,-0.34975773,-0.7627913,-0.34926832,-2.1553116,0.014228972,1.6439539,1.0705259,0.04,0.04,-0.014564156819751872,-0.03320614445662118,-0.04786245567778291,0.46237928383679316,-0.14440929627539642,0.08097317639199585,0.8839351613735928,0.43703952585057865,0.12791322298481683,0.10626989563078676
1341.583333332442,-0.35275832,-0.76260704,-0.3522649,-2.1535878,0.014350435,1.6445796,1.0729659,0.04,0.04,-0.015015127267936634,-0.034836926813075486,-0.0470272530397331,0.4615037028654505,-0.1441218828868414,0.0804102689197496,0.8819437888688931,0.4405591555139809,0.12900819987092382,0.10695638426224378
1341.5999999991086,-0.35575205,-0.7624233,-0.35525465,-2.1518676,0.0144716175,1.6452041,1.0754001,0.04,0.04,-0.014131338259160131,-0.035368263340951334,-0.04623879005003495,0.46056931623224806,-0.14382187587883227,0.07983853219034259,0.8799407118750964,0.4440635761485577,0.13010038739048224,0.10763722926454934
1341.6166666657753,-0.35873854,-0.7622401,-0.35823718,-2.1501517,0.014592508,1.6458274,1.0778283,0.04,0.04,-0.014966105108804584,-0.036699123591454885,-0.04504344874129984,0.4595763857871749,-0.14350141640395292,0.0792589620980831,0.8779263435210783,0.44755228654021983,0.13118960152536013,0.10831239363963781
1341.633333332442,-0.36171737,-0.76205736,-0.36121202,-2.1484406,0.014713086,1.6464487,1.0802504,0.04,0.04,-0.016231200046812333,-0.0385593489475089,-0.04401931469023568,0.45852537856773506,-0.14316282900038355,0.07867321335678723,0.8759011463654675,0.45102488215091874,0.13227502921353723,0.10898189814353429
1341.6499999991086,-0.36468816,-0.76187533,-0.3641789,-2.1467335,0.0148333395,1.6470685,1.0826659,0.04,0.04,-0.01427494189814027,-0.03905642382306951,-0.04305335362599916,0.45741607203716195,-0.14281359727962503,0.07807859958756645,0.8738654232426538,0.45448088228592604,0.133357391680374,0.10964559171143742
1341.6666666657752,-0.36765063,-0.7616938,-0.3671374,-2.1450317,0.014953254,1.6476864,1.085075,0.04,0.04,-0.01659229597876788,-0.04069652807867641,-0.041731340603345934,0.45624910254770124,-0.14244256129561378,0.07747794817892789,0.871819587085202,0.4579200340995098,0.13443579140387518,0.11030352639197745
1341.6833333324419,-0.37060437,-0.7615127,-0.3700873,-2.143335,0.015072812,1.6483023,1.0874767,0.04,0.04,-0.01645057066248512,-0.04160602556340098,-0.040591288367131106,0.45502376822910773,-0.14205496695988554,0.07686466596179105,0.8697641691772435,0.46134164371983594,0.1355102508532149,0.11095562040292538
1341.6999999991085,-0.37354898,-0.7613323,-0.37302816,-2.1416428,0.015192005,1.6489167,1.089871,0.04,0.04,-0.014200391406760104,-0.04214179593826639,-0.03943450397855264,0.4537422499484737,-0.1416541126463818,0.07624517465667285,0.8676994102130049,0.46474541252310425,0.1365814647194825,0.11160169599882375
1341.7166666657752,-0.3764842,-0.7611525,-0.3759595,-2.1399565,0.015310814,1.6495289,1.0922577,0.04,0.04,-0.01718597937081512,-0.04433068600946388,-0.038183105035582976,0.45240255143492214,-0.1412327792795941,0.07562301836840592,0.8656259110137622,0.46813086069463977,0.1376482680440761,0.11224185383071886
1341.7333333324418,-0.37940946,-0.76097345,-0.37888116,-2.1382754,0.015429228,1.6501393,1.0946366,0.04,0.04,-0.015481703250186385,-0.04452645278145706,-0.036894630122619176,0.4510061712759123,-0.14079868440787033,0.07499252446688169,0.8635439451449896,0.47149765627864343,0.1387113037748606,0.11287599006100385
1341.7499999991085,-0.3823247,-0.760795,-0.3817927,-2.1366003,0.015547229,1.6507475,1.0970069,0.04,0.04,-0.016889066014513787,-0.045967151658854455,-0.03577509524401723,0.44955338280983337,-0.14034389801817512,0.07435474251984908,0.8614540846807333,0.4748453006578439,0.13976990028940878,0.11350407659256281
1341.7666666657751,-0.3852294,-0.7606172,-0.38469377,-2.134931,0.015664808,1.6513531,1.099369,0.04,0.04,-0.01678353214886741,-0.047149094532028535,-0.0345761384958343,0.44804333783043865,-0.1398749849547471,0.07371261385144158,0.8593566780882291,0.4781735688022421,0.14082386916695847,0.11412613984945952
1341.7833333324418,-0.38812333,-0.7604401,-0.38758406,-2.1332679,0.015781946,1.6519569,1.1017222,0.04,0.04,-0.016119451741403168,-0.0475237007055096,-0.03305286197051727,0.44647798639597136,-0.1393914687980263,0.07306113945994916,0.8572521559299153,0.48148195870968613,0.14187366240179092,0.11474200846812281
1341.7999999991084,-0.39100602,-0.76026374,-0.39046314,-2.1316113,0.01589863,1.652558,1.1040663,0.04,0.04,-0.017561019797129873,-0.04934909110114738,-0.03182604133413758,0.4448559032416678,-0.1388873077354862,0.07240438243908723,0.855141117379124,0.48476999972729373,0.14291845836351336,0.11535177064518493
1341.816666665775,-0.39387718,-0.76008797,-0.39333078,-2.1299615,0.016014837,1.653157,1.1064008,0.04,0.04,-0.0171840702219761,-0.04960035177561384,-0.03021786402611637,0.44317977132752917,-0.13836993664734182,0.07174210486927692,0.8530238962289958,0.4880374336899441,0.14395853606798947,0.11595531757016692
1341.8333333324417,-0.39673644,-0.7599131,-0.39618662,-2.1283185,0.016130567,1.6537536,1.1087258,0.04,0.04,-0.01718393686784836,-0.050831604554546495,-0.029159356481001097,0.44144802256838755,-0.13783819114189844,0.07107392464417747,0.8509009648381762,0.4912838652136234,0.14499374446943483,0.11655267428487188
1341.8499999991084,-0.39958355,-0.7597391,-0.39903027,-2.1266828,0.016245805,1.6543475,1.1110408,0.04,0.04,-0.017514644955163305,-0.051898222409185735,-0.02789438298594904,0.4396610460723424,-0.1372905158083842,0.07040182788093952,0.8487728009539149,0.4945089564859626,0.14602379186395925,0.11714382837213996
1341.866666665775,-0.4024181,-0.75956583,-0.40186134,-2.1250544,0.01636053,1.654939,1.1133459,0.04,0.04,-0.017711334112124888,-0.05260852730908372,-0.02604872532584457,0.43782034160120875,-0.13672648628270076,0.06972121213661907,0.8466398333276577,0.49771241260921123,0.14704862984429085,0.11772870261134735
1341.8833333324417,-0.40523967,-0.75939333,-0.40467966,-2.1234334,0.016474735,1.6555276,1.1156405,0.04,0.04,-0.01774575357220698,-0.053578805547838115,-0.024953777959368928,0.4359255085047051,-0.13614554128895412,0.06903486143395665,0.8445025731796402,0.500893843163855,0.14806799399212078,0.11830735788047746
1341.8999999991083,-0.40804818,-0.75922185,-0.4074848,-2.12182,0.016588407,1.6561135,1.1179241,0.04,0.04,-0.017437289660193755,-0.054164187256344754,-0.023712601981273895,0.4339765383981372,-0.13554972305167384,0.06834190001824551,0.8423615148786819,0.5040528050650471,0.14908209538985454,0.11887967358434301
1341.916666665775,-0.41084322,-0.75905114,-0.41027644,-2.1202145,0.016701525,1.6566964,1.1201972,0.04,0.03999999,-0.01804912772480627,-0.05512032470755823,-0.022073993557725213,0.4319748939378545,-0.13493954666637636,0.06764531965319254,0.840216981587467,0.5071893093813301,0.15009046993113231,0.11944571627809471
1341.9333333324416,-0.41362435,-0.7588812,-0.41305426,-2.1186166,0.016814083,1.6572766,1.1224586,0.04,0.039999995,-0.01726902498040417,-0.055638665121748865,-0.020451320532577366,0.42991818427399753,-0.134315933183813,0.06694401848641562,0.8380696541829228,0.5103026172886476,0.15109339152441797,0.12000533556355449
1341.9499999991083,-0.41639128,-0.7587124,-0.415818,-2.1170266,0.01692606,1.657854,1.1247085,0.04,0.03999999,-0.017111899024957467,-0.05641669998288634,-0.019418438594498433,0.4278100677182725,-0.13367297101868053,0.06623739705363958,0.8359198471009395,0.5133926487190884,0.15209083105295487,0.12055860223792535
1341.966666665775,-0.41914368,-0.75854427,-0.4185672,-2.1154444,0.017037459,1.6584281,1.1269468,0.04,0.039999988,-0.017501007869702434,-0.05724940762152908,-0.017484107665866055,0.4256489478781881,-0.1330172393043964,0.06552982094696352,0.8337681181276799,0.5164590786318277,0.1530823802641575,0.12110545051834337
1341.9833333324416,-0.42188126,-0.75837743,-0.42130166,-2.1138706,0.017148249,1.6589991,1.129173,0.04,0.03999999,-0.01730978230671809,-0.05804185465991818,-0.01654450255984541,0.42343574901851,-0.132341204962261,0.06481634404644261,0.8316149205699366,0.5195015722878028,0.15406819024943622,0.12164593305664767
1341.9999999991082,-0.42460376,-0.7582115,-0.4240211,-2.112306,0.017258426,1.659567,1.1313868,0.04,0.03999998,-0.019199299290795224,-0.05878319428100909,-0.014546342834265147,0.4211710379400613,-0.13165122163766316,0.06410089820699587,0.8294608586041768,0.5225198064166278,0.1550476156821988,0.12218008355381406
1342.016666665775,-0.42731073,-0.7580464,-0.426725,-2.11075,0.017367976,1.6601317,1.1335882,0.04,0.039999966,-0.017315884970292572,-0.0592384766398224,-0.0129385333506149,0.4188558449757246,-0.13095143547588273,0.06338104859838398,0.8273062863523744,0.5255136180990272,0.15602098896498712,0.12270776974870175
1342.0333333324415,-0.43000203,-0.75788254,-0.42941317,-2.1092038,0.017476883,1.660693,1.1357766,0.04,0.03999994,-0.019564186551201956,-0.06047068282191148,-0.011635965936185322,0.4164899153487005,-0.13023103510080755,0.06265706833159482,0.8251518714439117,0.5284825716301239,0.15698769204003019,0.12322915679240048
1342.0499999991082,-0.43267727,-0.7577194,-0.43208534,-2.1076665,0.017585136,1.6612513,1.1379524,0.04,0.039999936,-0.017740799681709163,-0.0600878341555422,-0.009852233874729777,0.41407644149558887,-0.12949878926351246,0.0619252534293147,0.8229978325090941,0.531426723808293,0.15794810783482316,0.1237440913301169
1342.0666666657748,-0.43533614,-0.7575574,-0.43474126,-2.1061378,0.01769273,1.6618062,1.1401145,0.04,0.03999994,-0.01671639302940342,-0.0606382436399322,-0.008901991596665937,0.41160974166062303,-0.12875374411526896,0.06119384899964129,0.8208448245403671,0.5343454705059681,0.15890249057388234,0.12425252779910262
1342.0833333324415,-0.43797845,-0.75739646,-0.43738052,-2.1046193,0.017799651,1.6623573,1.1422635,0.04,0.03999993,-0.01957521138864493,-0.06211234617217176,-0.0069920531873379765,0.4090953581787604,-0.12798749149168182,0.060460216240548384,0.8186933041611948,0.5372388675885572,0.15984973870102992,0.12475469494573155
1342.0999999991081,-0.4406037,-0.75723666,-0.44000295,-2.1031108,0.01790588,1.6629049,1.1443983,0.04,0.039999917,-0.018755691618199677,-0.06228931076934785,-0.00540768284221782,0.4065310839082378,-0.12721576047750635,0.05972271103592859,0.8165439411709119,0.5401063156402636,0.16079015024780682,0.12525049910424318
1342.1166666657748,-0.4432117,-0.7570781,-0.4426081,-2.1016114,0.01801141,1.663449,1.1465192,0.04,0.039999925,-0.0164992529906538,-0.06225001111102024,-0.004089960600595077,0.40392264381511006,-0.12642557157939033,0.058978230916603105,0.814396982787425,0.5429477884784466,0.16172433108411857,0.12573978745209105
1342.1333333324415,-0.44580227,-0.7569202,-0.44519576,-2.1001225,0.01811623,1.6639894,1.1486257,0.04,0.039999917,-0.019652756714005903,-0.06305820443048837,-0.0020305266783982034,0.4012644204233118,-0.1256197912795283,0.0582368364399653,0.8122530848173514,0.545763109610289,0.16265109751824242,0.12622271930724469
1342.149999999108,-0.44837505,-0.75676394,-0.4477658,-2.0986443,0.018220326,1.6645262,1.1507179,0.04,0.03999992,-0.018629383810786493,-0.06365797912120108,-0.001153406767495646,0.398559384929586,-0.12480655207753028,0.05749176063862284,0.8101126382622665,0.5485520381353782,0.16357090183049428,0.12669938776344328
1342.1666666657748,-0.45092958,-0.75660837,-0.45031765,-2.0971754,0.018323692,1.6650591,1.1527951,0.04,0.039999906,-0.01693541085288075,-0.06354761141602605,0.00103044710304534,0.3958080081254256,-0.12397618505228548,0.056742141525894574,0.807976239306953,0.5513142285660033,0.16448383386996163,0.12716951872011317
1342.1833333324414,-0.45346582,-0.75645435,-0.45285127,-2.0957181,0.018426312,1.6655881,1.1548575,0.04,0.039999876,-0.019870831158108615,-0.06474781648175831,0.002193206379008661,0.3930124093826096,-0.12313014385567361,0.0559920843897066,0.8058443240680692,0.5540496628778646,0.1653892105328879,0.12763348099738384
1342.199999999108,-0.45598343,-0.7563012,-0.4553662,-2.0942714,0.018528173,1.6661135,1.1569047,0.04,0.039999884,-0.01812492270909516,-0.06434188588801959,0.004194451366734686,0.3901718024485181,-0.12227435367603516,0.05523728715871962,0.8037174017932412,0.5567580695171488,0.16628735769391273,0.128091001844143
1342.2166666657747,-0.45848224,-0.7561495,-0.45786232,-2.0928357,0.018629273,1.6666348,1.1589367,0.04,0.039999872,-0.01835919168091671,-0.06493642117761933,0.005113041544857477,0.38728723198908105,-0.12140114111957376,0.054479727942189235,0.8015958421745626,0.5594394293453847,0.1671780978556473,0.12854226658780957
1342.2333333324414,-0.4609617,-0.75599885,-0.4603393,-2.0914104,0.018729592,1.6671523,1.1609536,0.04,0.039999876,-0.017372730298337302,-0.06492868631347015,0.007136423495546218,0.38435634988975736,-0.12052034026524307,0.053722266281020406,0.7994800868268948,0.5620935737469948,0.16806162887222914,0.12898718548912433
1342.249999999108,-0.46342173,-0.75584954,-0.4627968,-2.0899959,0.018829122,1.6676658,1.1629543,0.04,0.039999865,-0.017300042464984955,-0.06531891515471067,0.008470926459380745,0.38138051023913877,-0.11962481796293137,0.05296371159080704,0.7973708483040861,0.5647200124430989,0.16893793937469057,0.12942569474768814
1342.2666666657747,-0.46586207,-0.7557015,-0.4652347,-2.0885928,0.01892785,1.6681749,1.1649389,0.04,0.03999987,-0.01866805992309928,-0.06594390888547963,0.009961380532241826,0.37836349678669756,-0.11871268835034535,0.052206358940072126,0.7952685999338565,0.5673187409643847,0.16980636029316393,0.12985799980677804
1342.2833333324413,-0.4682824,-0.75555456,-0.46765265,-2.0872018,0.019025775,1.6686795,1.1669073,0.04,0.03999986,-0.019649445405178767,-0.06637070345376639,0.012020529024159288,0.3753065023667085,-0.11778700077027451,0.05144283128723219,0.7931738777242175,0.5698896096654582,0.17066655031648612,0.13028415519298658
1342.299999999108,-0.47068253,-0.7554091,-0.47005042,-2.0858216,0.019122886,1.6691803,1.1688592,0.04,0.039999854,-0.01619806682584546,-0.0655890481916499,0.012864641355492257,0.3722089397844811,-0.11685513329597152,0.0506788201243273,0.7910869208885738,0.572432502402881,0.1715196568186366,0.13070394453354647
1342.3166666657746,-0.47306237,-0.7552648,-0.47242785,-2.084454,0.01921916,1.6696769,1.1707946,0.04,0.03999984,-0.01981198755411917,-0.06637138879515003,0.014977825624162833,0.3690681442964782,-0.11591210370415866,0.04991922079776165,0.789008344484728,0.5749473918821417,0.172364441508069,0.13111761210837847
1342.3333333324413,-0.4754215,-0.75512177,-0.4747848,-2.0830972,0.019314595,1.6701689,1.1727133,0.04,0.039999824,-0.016382509874679485,-0.0658840525533888,0.015619097985075658,0.36588843722175063,-0.11495502521714249,0.04915344738877012,0.7869384545437577,0.5774341716998698,0.17320163362981886,0.1315250554895511
1342.349999999108,-0.47775963,-0.75498027,-0.47712088,-2.0817535,0.01940918,1.6706568,1.1746147,0.04,0.03999982,-0.019504776263312706,-0.06692281949904899,0.018124187889390075,0.36266792840113804,-0.11398390856640771,0.04838880877416804,0.7848780322413098,0.5798924492539259,0.174030560135429,0.131926441406721
1342.3666666657746,-0.48007658,-0.7548398,-0.47943568,-2.0804222,0.01950291,1.6711406,1.1764991,0.04,0.03999982,-0.018544068684223092,-0.06661492184787399,0.019954486961892837,0.35941086846752335,-0.11300262953595339,0.047622152813220145,0.7828273817867392,0.5823223496429814,0.17485122141319165,0.13232166036409604
1342.3833333324412,-0.48237225,-0.7547009,-0.48172912,-2.0791025,0.01959577,1.6716195,1.1783664,0.04,0.03999981,-0.01670731603424791,-0.06663535045028368,0.0201667726764998,0.35611691216693275,-0.11200559718868529,0.04685218801240037,0.7807868498532631,0.5847237918201725,0.1756639822064304,0.1327107672008437
1342.3999999991079,-0.4846464,-0.754563,-0.48400098,-2.077796,0.01968776,1.6720939,1.1802157,0.04,0.039999798,-0.019568335866093634,-0.0668612173350791,0.022763862533969892,0.35278214558372456,-0.11100767981121154,0.04608713667223674,0.7787572330195616,0.587096469349294,0.17646795785347408,0.13309382986575358
1342.4166666657745,-0.48689863,-0.75442684,-0.48625118,-2.076502,0.019778866,1.6725636,1.1820472,0.04,0.0399998,-0.01758566899341396,-0.06693651207951845,0.023428765014643638,0.34941619149719666,-0.10999253989744999,0.045314714041782264,0.7767387851322061,0.5894403532133151,0.17726374410825219,0.13347095077143603
1342.4333333324412,-0.48912877,-0.75429165,-0.48847935,-2.07522,0.019869078,1.673029,1.1838613,0.04,0.039999798,-0.016753793869428435,-0.06606171710186182,0.025474861575924823,0.34601271519692905,-0.1089762404903135,0.04454763947117913,0.774731769358845,0.5917556155465292,0.17805143426395656,0.1338419357742917
1342.4499999991078,-0.49133673,-0.7541582,-0.49068525,-2.0739512,0.019958382,1.6734896,1.185657,0.04,0.0399998,-0.017868032469214867,-0.06704387305003223,0.026479262603773535,0.34257493666664374,-0.10793672874500734,0.04377667050733406,0.7727368870448678,0.5940419002427678,0.17883066598827274,0.13420699332881142
1342.4666666657745,-0.49352217,-0.7540257,-0.4928688,-2.0726955,0.02004679,1.6739457,1.1874344,0.04,0.039999776,-0.01838982202277961,-0.06641106078524306,0.028666570945223846,0.33910257029765184,-0.1068927942175157,0.04300781301389726,0.7707545743535276,0.5962992259169216,0.17960117822325516,0.13456610295617216
1342.4833333324411,-0.49568507,-0.753895,-0.49502972,-2.0714521,0.02013427,1.6743968,1.1891934,0.04,0.039999757,-0.01612418421861328,-0.06656886620837188,0.02881862105682531,0.3355982310230618,-0.10584025354585502,0.04223863564282247,0.7687851496559578,0.5985275191544837,0.18036350548686975,0.13491926612509228
1342.4999999991078,-0.49782518,-0.7537659,-0.4971679,-2.070222,0.020220831,1.6748432,1.1909336,0.04,0.039999757,-0.017152204581849517,-0.06636582098373811,0.03070508328525401,0.3320605906492418,-0.10477606648040859,0.041472797110212505,0.7668290882280305,0.6007267199697073,0.18111740491741157,0.1352665627484741
1342.5166666657744,-0.49994212,-0.7536379,-0.49928302,-2.0690057,0.020306455,1.6752847,1.1926551,0.04,0.039999753,-0.019106209788288808,-0.06672124694420134,0.033134479692997765,0.32849051403226837,-0.10370732434566073,0.04071046875640214,0.764886986686207,0.6028967754406938,0.18186207450150063,0.13560811782234225
1342.533333332441,-0.5020361,-0.75351167,-0.5013751,-2.0678024,0.020391138,1.6757218,1.1943579,0.04,0.03999975,-0.016017144890412283,-0.06568040365204642,0.032961866627356784,0.3248949959591636,-0.10262210893458913,0.03994068164524428,0.7629588602992265,0.6050378666986321,0.18259855775225325,0.1359438268494402
1342.5499999991077,-0.50410634,-0.7533865,-0.5034438,-2.066612,0.020474883,1.6761539,1.1960416,0.04,0.039999753,-0.016582323520708542,-0.0658314916287761,0.03558248300326028,0.3212647149364336,-0.10152981782059255,0.03917646926863384,0.7610454488214017,0.6071496909321129,0.18332636126843954,0.1362737058032287
1342.5666666657744,-0.50615317,-0.75326306,-0.505489,-2.065435,0.020557662,1.676581,1.1977062,0.04,0.039999742,-0.016490347776887404,-0.06581892137833556,0.035864263545259956,0.317606432810047,-0.10043081255114793,0.03841514974698808,0.759146979038166,0.6092324011704253,0.18404555092149047,0.13659787980546928
1342.583333332441,-0.50817615,-0.75314105,-0.5075105,-2.0642722,0.020639487,1.6770033,1.1993518,0.04,0.039999742,-0.01809082851562671,-0.06598377371591635,0.0382485479361816,0.31391942467276635,-0.0993203106191443,0.03765474562647168,0.7572639949218319,0.6112859361616636,0.1847555790284531,0.13691647915370658
1342.5999999991077,-0.5101755,-0.7530203,-0.50950795,-2.0631235,0.020720342,1.6774203,1.2009777,0.04,0.039999746,-0.017713509360506308,-0.06562887863139633,0.039154502381943956,0.3102053321021455,-0.0982036497926889,0.036893468520731804,0.7553969627726099,0.6133102392891294,0.1854563771256282,0.13722941084353504
1342.6166666657743,-0.51215065,-0.7529013,-0.5114815,-2.0619879,0.02080023,1.6778326,1.2025844,0.04,0.039999727,-0.015070921772952772,-0.06484033932194766,0.03997413198583155,0.3064661576776168,-0.09708392322395852,0.036132302302614716,0.7535459506627676,0.6153054112912084,0.18614886788245505,0.1375367225928507
1342.633333332441,-0.51410156,-0.7527836,-0.5134312,-2.0608666,0.020879136,1.6782397,1.2041713,0.04,0.03999971,-0.017831532824308383,-0.06487167227717805,0.041578991151691724,0.3026997350706702,-0.09594985635461636,0.03537628298890129,0.7517115829057797,0.6172714280862721,0.18683201171903194,0.13783859978482446
1342.6499999991076,-0.5160282,-0.7526675,-0.5153565,-2.0597591,0.020957056,1.6786416,1.2057382,0.04,0.039999712,-0.016175796715689472,-0.06479072730884994,0.0425822044052615,0.29890946038853494,-0.09481073234998931,0.03461777388328342,0.7498942639594484,0.6192081598907274,0.18750623470429628,0.1381349324120214
1342.6666666657743,-0.51793045,-0.75255305,-0.5172574,-2.0586653,0.021033986,1.6790384,1.2072853,0.04,0.039999712,-0.015406780624482863,-0.06412435462102017,0.0435439108207647,0.2950962521799917,-0.09366492465301715,0.03386235799795851,0.748094155306997,0.6211157904508936,0.18817177523758566,0.13842576585306596
1342.683333332441,-0.51980805,-0.75244,-0.5191335,-2.0575855,0.02110992,1.6794301,1.2088124,0.04,0.039999697,-0.016205299268490236,-0.06420709521479662,0.04555020515223385,0.29125913628125694,-0.0925101733707348,0.03311113393105099,0.7463118229533913,0.6229942148075753,0.18882823253151554,0.13871110206217302
1342.6999999991076,-0.52166086,-0.75232863,-0.5209851,-2.0565205,0.021184856,1.6798167,1.2103192,0.04,0.039999686,-0.017027463206620297,-0.06392491855735649,0.04625667767331754,0.2874011596895555,-0.09135052326128769,0.0323621357419545,0.7445475985098633,0.6248434767634933,0.1894754588095347,0.13899119975099697
1342.7166666657743,-0.5234887,-0.75221837,-0.5228118,-2.0554695,0.021258784,1.6801981,1.2118057,0.04,0.03999969,-0.016143540116697608,-0.06337579766679813,0.04807998242479794,0.2835232796603099,-0.0901843216722786,0.03161443463103325,0.742801877501756,0.6266636028449747,0.19011342631963452,0.1392658780255635
1342.733333332441,-0.5252917,-0.75210994,-0.52461374,-2.0544333,0.021331709,1.6805745,1.2132721,0.04,0.039999694,-0.016330792206931122,-0.06291441071215598,0.04812526948210216,0.27962715644367275,-0.08901448996537076,0.03086788777099369,0.7410747192601337,0.6284548433850207,0.19074235103006945,0.13953539272509036
1342.7499999991076,-0.5270698,-0.75200325,-0.5263904,-2.0534117,0.02140361,1.6809458,1.214719,0.04,0.03999969,-0.01569109917278766,-0.06303386176260695,0.0496402306692012,0.27570960068762407,-0.08783701006332802,0.03012401929986232,0.7393663402080703,0.6302174297336589,0.19136208903863045,0.13979970352613733
1342.7666666657742,-0.5288226,-0.75189763,-0.52814204,-2.0524044,0.02147449,1.6813112,1.2161443,0.04,0.0399997,-0.016271657517386018,-0.06225049329551258,0.05090924150931153,0.2717713619044669,-0.08665446401790178,0.029380033480710208,0.737677774543155,0.6319506765394185,0.1919723539018961,0.14005876875010315
1342.7833333324409,-0.53055024,-0.75179386,-0.52986836,-2.0514116,0.021544352,1.6816721,1.2175494,0.04,0.039999686,-0.014922664342620351,-0.06175698062718116,0.051602220459534553,0.2678221297401293,-0.08546974483619277,0.028639976000102298,0.7360086669227947,0.6336552086206764,0.19257382886199212,0.1403126481820153
1342.7999999991075,-0.5322525,-0.7516918,-0.5315692,-2.0504334,0.021613188,1.6820273,1.2189342,0.04,0.039999675,-0.015255557721483015,-0.06200155796736162,0.05278270013734376,0.26385363789942196,-0.08427786137052923,0.027904262245257386,0.7343595525274533,0.6353309426181442,0.19316602737698899,0.1405614699375727
1342.8166666657742,-0.53392917,-0.751591,-0.53324485,-2.0494692,0.021680992,1.6823773,1.2202979,0.04,0.03999966,-0.014827867307998233,-0.060538115856867414,0.05354205649004129,0.25987142438807,-0.08307990175477756,0.02716955761500155,0.7327307060711243,0.6369779248366757,0.19374915323241929,0.14080518908404774
1342.8333333324408,-0.53558046,-0.75149196,-0.53489494,-2.04852,0.021747764,1.6827219,1.221641,0.04,0.03999966,-0.015649648581428366,-0.061046879138171306,0.054589859376596994,0.2558756420020772,-0.08187900134087261,0.02644100572669632,0.7311224405418308,0.6385962654470088,0.19432289131038996,0.14104396692542717
1342.8499999991075,-0.537206,-0.7513945,-0.53651935,-2.0475852,0.021813503,1.6830609,1.2229633,0.04,0.03999965,-0.01432433820198753,-0.0604232531395299,0.05567768756882252,0.25186701035347603,-0.08067516587257502,0.025712410748747017,0.7295349988656009,0.6401860186098239,0.19488750234774557,0.141277770492486
1342.8666666657741,-0.53880584,-0.75129825,-0.53811836,-2.0466654,0.021878205,1.6833949,1.2242649,0.04,0.039999653,-0.015783253152434895,-0.0593437809930597,0.056718470797323395,0.24784727404694645,-0.0794668819505554,0.024988859183244106,0.7279685892161657,0.6417474072077725,0.1954427085226903,0.14150669998993412
1342.8833333324408,-0.54038006,-0.751204,-0.53969157,-2.0457609,0.021941865,1.6837233,1.2255453,0.04,0.039999653,-0.015170306753597984,-0.06001459683193655,0.057177185281920284,0.24381614984850017,-0.07825774793524037,0.02426741385731399,0.7264236531908254,0.6432802841299169,0.19598855822925795,0.14173086176921956
1342.8999999991074,-0.54192835,-0.7511111,-0.5412393,-2.0448704,0.022004481,1.6840466,1.2268047,0.04,0.03999965,-0.0137316086645356,-0.05813910879126638,0.05788390517602604,0.23977748206224492,-0.07704385933586365,0.023548777155349122,0.72490017497346,0.6447849480947557,0.19652547227511113,0.14195015245125608
1342.916666665774,-0.54345113,-0.7510198,-0.54276115,-2.0439951,0.022066055,1.6843644,1.2280436,0.04,0.03999965,-0.015186709143444332,-0.05867387764806331,0.058901334940264505,0.23572889226580945,-0.07582670492557889,0.022834887005791348,0.7233984046266074,0.6462616283627409,0.19705289290984712,0.1421647399515007
1342.9333333324407,-0.5449479,-0.7509303,-0.54425716,-2.0431352,0.022126585,1.684677,1.2292607,0.04,0.03999966,-0.01472473045414091,-0.0582192907323531,0.05987792065815789,0.2316717132733695,-0.07460805159920934,0.022122809966304877,0.721918952654017,0.6477099254158228,0.19757110149078846,0.14237464020138232
1342.9499999991074,-0.5464187,-0.7508421,-0.5457272,-2.0422895,0.022186069,1.6849837,1.2304574,0.04,0.039999664,-0.013785136762489714,-0.0575130082534514,0.060656691811522556,0.2276129626900531,-0.07338818439966314,0.021415034770035462,0.7204616270227173,0.649130473127251,0.19807990503471504,0.1425798866138151
1342.966666665774,-0.5478636,-0.7507554,-0.5471716,-2.0414588,0.022244506,1.6852851,1.2316328,0.04,0.03999964,-0.01450970279126551,-0.05675870208412537,0.060949381308161854,0.22354637026392932,-0.0721681550035062,0.020710342059058005,0.7190267940573557,0.6505231660462801,0.1985794172151461,0.14278058314497125
1342.9833333324407,-0.54928255,-0.75067055,-0.54859,-2.040643,0.022301886,1.6855811,1.2327871,0.04,0.039999653,-0.013486795452033462,-0.05657021129734652,0.061709404948584456,0.2194776036962121,-0.07094644219574586,0.020008556475547216,0.7176146272118951,0.651888103823937,0.1990698628234482,0.14297669956960948
1342.9999999991073,-0.5506758,-0.7505871,-0.5499825,-2.0398421,0.022358224,1.6858715,1.2339203,0.04,0.03999967,-0.014290306478947912,-0.05593635102487671,0.06230657500349013,0.21540608920960896,-0.06972262768985087,0.01931185532888648,0.716225274615652,0.6532255611339991,0.19955088251384737,0.14316831901943444
1343.016666665774,-0.5520429,-0.7505052,-0.5513489,-2.0390563,0.022413509,1.686157,1.2350323,0.04,0.03999966,-0.013595314584913254,-0.055358256840554176,0.06370786074263446,0.21133315210668446,-0.06849908450926202,0.018617660644471862,0.7148590460406877,0.6545354306589994,0.20002285417088156,0.14335540490393225
1343.0333333324406,-0.5533842,-0.7504251,-0.55268943,-2.0382855,0.022467753,1.6864368,1.2361234,0.04,0.03999965,-0.013678600770061777,-0.05519952112638116,0.063320084302676,0.207261790294177,-0.06727563754320236,0.017929839810248087,0.7135159244699605,0.6558180945482723,0.20048551853736324,0.1435381804526434
1343.0499999991073,-0.5546993,-0.75034636,-0.55400413,-2.037529,0.02252095,1.6867114,1.2371932,0.04,0.039999668,-0.012553137492687938,-0.05387600579205287,0.06427549841070412,0.20319002885750578,-0.06605225997158373,0.017245384586648635,0.7121961733247902,0.6570734939638326,0.20093930760791961,0.1437164878840848
1343.066666665774,-0.5559886,-0.7502692,-0.55529314,-2.0367873,0.022573093,1.6869806,1.2382421,0.04,0.039999697,-0.01329097226276943,-0.05359596696492552,0.06422847792719732,0.19912162830792163,-0.06482733435839032,0.01656658136647072,0.7108997284327017,0.6583020605235125,0.20138392153427523,0.143890546500754
1343.0833333324406,-0.5572522,-0.75019395,-0.5565562,-2.0360606,0.022624195,1.6872444,1.2392701,0.04,0.0399997,-0.012907814707885379,-0.05349832900920504,0.06472996095919781,0.19505502946725994,-0.06360365619419099,0.015892793088385863,0.7096268116865057,0.6595038049802956,0.20181953807127734,0.14406038110755265
1343.0999999991072,-0.55848986,-0.7501201,-0.5577935,-2.035349,0.022674246,1.6875026,1.240277,0.04,0.03999971,-0.013619387552932238,-0.05286972469600304,0.0659435981144707,0.1909922930063171,-0.062379841152249996,0.015223368451324746,0.7083776920852511,0.6606788484735086,0.2022457530451392,0.1442260722300115
1343.116666665774,-0.5597016,-0.75004756,-0.55900496,-2.0346518,0.022723258,1.6877556,1.2412627,0.04,0.039999735,-0.012563966878476052,-0.051893610877629115,0.0661601317376026,0.18693736955096416,-0.061159085901766885,0.014556726425109447,0.7071524993914854,0.661827252041377,0.20266297499773442,0.14438749815964788
1343.1333333324405,-0.5608879,-0.74997693,-0.5601908,-2.0339694,0.022771228,1.6880031,1.2422276,0.04,0.039999753,-0.01242978129343264,-0.05164907357522175,0.06553592756954885,0.18289096253151527,-0.05994147777488345,0.013896232605043076,0.7059510326789287,0.6629494526064019,0.2030712597542583,0.14454489340770532
1343.1499999991072,-0.5620483,-0.7499078,-0.5613511,-2.0333018,0.022818161,1.6882449,1.2431719,0.04,0.039999783,-0.012893471762254194,-0.05106701484041132,0.06658779088050126,0.1788514689017151,-0.05872215841466751,0.013240184785920085,0.7047734466643044,0.6640456293648788,0.20347032720278832,0.14469836538921002
1343.1666666657738,-0.56318325,-0.74984,-0.5624859,-2.0326495,0.022864062,1.688482,1.2440952,0.04,0.039999794,-0.013265664546846523,-0.05013849800559189,0.0672335307204508,0.17481993670451879,-0.0575090459988806,0.01258793919470005,0.703619952847973,0.665115802828211,0.20386036410091007,0.1448477915987845
1343.1833333324405,-0.56429255,-0.7497741,-0.5635951,-2.0320115,0.022908937,1.6887136,1.2449979,0.04,0.039999817,-0.011459298252702865,-0.05008242757609249,0.06673244266595102,0.17080862845304512,-0.0562619068252677,0.011930582870473227,0.7024905149074748,0.666160171139502,0.20424162333416757,0.14499331760548242
1343.1999999991071,-0.56537634,-0.7497095,-0.5646787,-2.0313883,0.022952799,1.6889398,1.2458798,0.04,0.039999835,-0.012485705970721739,-0.04938149727868879,0.06794338526299737,0.16679357810841064,-0.055084918492789056,0.011297344165846117,0.7013853358584439,0.6671788760102874,0.20461382651468463,0.1451349029262294
1343.2166666657738,-0.5664349,-0.74964625,-0.5657372,-2.0307791,0.022995614,1.689161,1.2467408,0.04,0.039999917,-0.011336798413230653,-0.048071053219223,0.0668975724096299,0.1628103267871429,-0.053837826097044385,0.010649285580154221,0.700304228149457,0.6681722353614595,0.20497742179729658,0.1452725317511777
1343.2333333324405,-0.56746805,-0.7495848,-0.56677043,-2.0301847,0.023037426,1.6893764,1.2475816,0.04,0.03999992,-0.012247354668826205,-0.04868528889614421,0.0676927956071216,0.15883051655702385,-0.0526408221049367,0.010020299828922568,0.6992473474359915,0.6691403936165019,0.20533195730408743,0.1454065612142559
1343.249999999107,-0.56847614,-0.74952495,-0.5677784,-2.029605,0.023078233,1.689587,1.2484016,0.04,0.03999996,-0.011421087608054492,-0.047368316993212645,0.06778001199078676,0.15486919874576902,-0.051443711637865784,0.009392586745622667,0.6982147131836695,0.6700834605095339,0.20567797614589503,0.14553673204364084
1343.2666666657738,-0.56945926,-0.74946636,-0.5687614,-2.0290391,0.023118023,1.6897923,1.2492017,0.04,0.039999995,-0.011378294285568913,-0.0466752943995008,0.06762754191307341,0.15092623236123878,-0.05024993781567297,0.008773342702659866,0.6972061190305188,0.6710019315622275,0.20601521301394177,0.14566319862265156
1343.2833333324404,-0.5704174,-0.7494093,-0.56971973,-2.0284882,0.023156812,1.6899924,1.249981,0.04,0.04,-0.012240174388455927,-0.04631494645022105,0.06779810250827079,0.147000473346686,-0.049056812876010325,0.008158033155137762,0.6962218169598178,0.6718957452924997,0.2063436408944428,0.14578611356858182
1343.299999999107,-0.57135075,-0.7493538,-0.57065296,-2.0279517,0.0231946,1.6901872,1.2507404,0.04,0.04,-0.01159919228266304,-0.046274674425506035,0.06832151815364673,0.14309538440449598,-0.04787830845945394,0.007547864442179593,0.695261791823947,0.6727651476073131,0.20666324499408623,0.14590544939507624
