rsonawane2002/My_IMU/logs_2/traj_372/imu_400hz_372.csv
time,j1,j2,j3,j4,j5,j6,j7,gripper1,gripper2,imu_ax,imu_ay,imu_az,imu_gx,imu_gy,imu_gz
0.0,0.00016700293,-0.785875,4.0107683e-05,-2.3551247,9.29385e-05,1.570997,0.786,0.04,0.04,-9.577616,-0.029035847634077,0.089310974,-2.8475698e-08,-0.0011641272576525,8.937969e-07
0.0025,0.00016700197599999999,-0.785857774,4.010724005e-05,-2.35513919,9.294390900000001e-05,1.570996565,0.786,0.04,0.04,-9.616147400000036,-0.02458813465782031,0.07726965229998906,1.950055817002033e-07,-0.0013252442877274766,9.733219200000724e-07
0.005,0.000167001022,-0.785840548,4.01067971e-05,-2.3551536800000004,9.294931800000001e-05,1.57099613,0.786,0.04,0.04,-9.65467880000007,-0.020140421681563617,0.0652283305999781,4.1848686140040654e-07,-0.001486361317802453,1.0528469400001448e-06
0.0075,0.000167000068,-0.7858233219999999,4.010635415e-05,-2.3551681700000002,9.295472700000001e-05,1.570995695,0.786,0.04,0.04,-9.693210200000106,-0.01569270870530693,0.05318700889996715,6.419681411006098e-07,-0.0016474783478774297,1.1323719600002171e-06
0.01,0.000166999114,-0.785806096,4.01059112e-05,-2.35518266,9.296013600000003e-05,1.5709952600000001,0.786,0.04,0.04,-9.73174160000014,-0.011244995729050238,0.04114568719995619,8.654494208008131e-07,-0.0018085953779524062,1.2118969800002895e-06
0.0125,0.00016699816,-0.78578887,4.0105468249999996e-05,-2.3551971500000004,9.296554500000003e-05,1.570994825,0.786,0.04,0.04,-9.770273000000175,-0.006797282752793548,0.029104365499945238,1.0889307005010164e-06,-0.001969712408027383,1.2914220000003617e-06
0.015,0.00016699720600000002,-0.785771644,4.010502529999999e-05,-2.3552116400000003,9.297095400000004e-05,1.57099439,0.786,0.04,0.04,-9.80880440000021,-0.0023495697765368584,0.0170630437999343,1.3124119802012196e-06,-0.0021308294381023594,1.370947020000434e-06
0.0175,0.00016699302449999995,-0.7857548645,4.010113949999993e-05,-2.3552257350000003,9.297689050000005e-05,1.57099396,0.786,0.04,0.03999999975,-9.834390799999998,0.0006082459542083701,0.00896474298499865,1.969480025009705e-06,-0.0022879052325161186,1.6327765850039886e-06
0.02,0.00016698238799999992,-0.7857389779999999,4.009036799999992e-05,-2.3552390400000003,9.298388200000005e-05,1.5709935400000001,0.786,0.04,0.039999999,-9.834087199999997,0.0005862671940119801,0.008752483939998456,3.4937216000110903e-06,-0.0024368985556076643,2.259215240004558e-06
0.0225,0.00016697175149999992,-0.7857230914999999,4.0079596499999914e-05,-2.3552523450000002,9.299087350000006e-05,1.57099312,0.786,0.04,0.03999999825,-9.833783599999997,0.0005642884338155901,0.008540224894998262,5.017963175012476e-06,-0.0025858918786992096,2.8856538950051274e-06
0.025,0.0001669611149999999,-0.7857072049999999,4.0068824999999905e-05,-2.35526565,9.299786500000007e-05,1.5709927,0.786,0.04,0.0399999975,-9.833479999999996,0.0005423096736192001,0.00832796584999807,6.542204750013864e-06,-0.0027348852017907554,3.5120925500056972e-06
0.0275,0.0001669504784999999,-0.7856913184999998,4.005805349999989e-05,-2.355278955,9.300485650000007e-05,1.57099228,0.786,0.04,0.03999999675,-9.833176399999997,0.0005203309134228101,0.008115706804997876,8.06644632501525e-06,-0.0028838785248823007,4.138531205006267e-06
0.03,0.0001669398419999999,-0.7856754319999998,4.004728199999988e-05,-2.35529226,9.301184800000008e-05,1.57099186,0.786,0.04,0.039999996,-9.832872799999997,0.0004983521532264201,0.007903447759997684,9.590687900016634e-06,-0.003032871847973846,4.764969860006836e-06
0.0325,0.00016692920549999987,-0.7856595454999998,4.003651049999987e-05,-2.355305565,9.301883950000008e-05,1.57099144,0.786,0.04,0.03999999525,-9.832569199999996,0.00047637339303003017,0.00769118871499749,1.1114929475018022e-05,-0.0031818651710653918,5.391408515007407e-06
0.035,0.00016690117799999954,-0.7856445149999998,4.000759229999952e-05,-2.3553181,9.302524200000007e-05,1.57099101,0.786,0.04,0.0399999955,-9.832311099999998,0.00044013266160554767,0.007481789429997352,1.4320680200051529e-05,-0.003323393594475295,6.346799560014261e-06
0.0375,0.0001668644549999995,-0.7856299124999998,3.9969600749999486e-05,-2.35533025,9.303135000000009e-05,1.570990575,0.786,0.04,0.03999999625,-9.832075749999998,0.0003967609445674083,0.007273820024997163,1.8367185500055202e-05,-0.00346118956804458,7.466666800015277e-06
0.04,0.00016682773199999947,-0.7856153099999997,3.993160919999945e-05,-2.3553424,9.303745800000009e-05,1.57099014,0.786,0.04,0.039999997,-9.831840399999997,0.0003533892275292688,0.007065850619996973,2.2413690800058883e-05,-0.0035989855416138656,8.586534040016296e-06
0.0425,0.00016679100899999943,-0.7856007074999998,3.9893617649999416e-05,-2.35535455,9.304356600000009e-05,1.5709897050000001,0.786,0.04,0.03999999775,-9.831605049999997,0.00031001751049112935,0.006857881214996784,2.6460196100062567e-05,-0.0037367815151831507,9.706401280017317e-06
0.045,0.0001667542859999994,-0.7855861049999998,3.985562609999938e-05,-2.3553667000000003,9.304967400000011e-05,1.57098927,0.786,0.04,0.0399999985,-9.831369699999996,0.00026664579345299,0.0066499118099965955,3.0506701400066244e-05,-0.003874577488752436,1.0826268520018332e-05
0.0475,0.00016671756299999936,-0.7855715024999997,3.9817634549999346e-05,-2.35537885,9.305578200000011e-05,1.570988835,0.786,0.04,0.03999999925,-9.831134349999996,0.0002232740764148505,0.006441942404996406,3.455320670006993e-05,-0.004012373462321721,1.1946135760019353e-05
0.05,0.00016668083999999843,-0.7855568999999998,3.977964299999837e-05,-2.355391,9.306189000000014e-05,1.5709884,0.786,0.04,0.04,-9.830898999999995,0.0001799023593764252,0.006233972999996892,3.8599712000141063e-05,-0.004150169435890825,1.3066003000039292e-05
0.0525,0.00016659406349999717,-0.7855434374999996,3.969014429999707e-05,-2.3554021000000005,9.306931950000024e-05,1.57098798,0.786,0.04,0.04,-9.830646099999992,0.00012081824533906052,0.006063080789994405,4.6354039700253885e-05,-0.004277964192446754,1.5226013950070721e-05
0.055,0.0001665072869999959,-0.7855299749999993,3.9600645599995766e-05,-2.3554132000000005,9.307674900000036e-05,1.57098756,0.786,0.04,0.04,-9.830393199999989,6.173413130169567e-05,0.005892188579991918,5.410836740036674e-05,-0.004405758949002684,1.7386024900102155e-05
0.0575,0.00016642051049999465,-0.7855165124999992,3.951114689999446e-05,-2.3554243000000006,9.308417850000046e-05,1.57098714,0.786,0.04,0.04,-9.830140299999984,2.6500172643308443e-06,0.005721296369989431,6.186269510047957e-05,-0.004533553705558614,1.954603585013359e-05
0.06,0.0001663337339999934,-0.785503049999999,3.942164819999316e-05,-2.355435400000001,9.309160800000057e-05,1.57098672,0.786,0.04,0.04,-9.829887399999981,-5.643409677303385e-05,0.005550404159986945,6.961702280059241e-05,-0.004661348462114544,2.1706046800165016e-05
0.0625,0.00016624695749999213,-0.7854895874999988,3.933214949999186e-05,-2.355446500000001,9.309903750000067e-05,1.5709863,0.786,0.04,0.04,-9.829634499999976,-0.0001155182108103987,0.005379511949984457,7.737135050070526e-05,-0.004789143218670473,2.3866057750196452e-05
0.065,0.00016616018099999087,-0.7854761249999986,3.924265079999056e-05,-2.355457600000001,9.310646700000079e-05,1.57098588,0.786,0.04,0.04,-9.829381599999973,-0.00017460232484776354,0.005208619739981971,8.51256782008181e-05,-0.004916937975226403,2.6026068700227884e-05
0.0675,0.00016604648199998142,-0.7854630194999986,3.912565594998092e-05,-2.355468335000001,9.311516380000125e-05,1.570985455,0.786000095,0.04,0.04,-9.829153499999979,-0.00023901734094500054,0.005037604219980997,9.445882700138599e-05,-0.005041882209493026,2.8715014050415747e-05
0.07,0.00016587893799998354,-0.7854506279999988,3.8953668799983105e-05,-2.3554783400000012,9.31263952000011e-05,1.57098502,0.78600038,0.04,0.04,-9.828974999999982,-0.00031409416115645467,0.004866342079983177,0.00010694961800122694,-0.005161125399183993,3.246182820036804e-05
0.0725,0.00016571139399998569,-0.785438236499999,3.87816816499853e-05,-2.355488345000001,9.313762660000096e-05,1.570984585,0.7860006650000001,0.04,0.04,-9.828796499999985,-0.00038917098136790837,0.004695079939985359,0.00011944040900106784,-0.00528036858887496,3.620864235032032e-05
0.075,0.0001655438499999878,-0.7854258449999991,3.860969449998748e-05,-2.355498350000001,9.314885800000081e-05,1.57098415,0.78600095,0.04,0.04,-9.828617999999986,-0.0004642478015793625,0.004523817799987539,0.0001319312000009088,-0.0053996117785659265,3.995545650027261e-05
0.0775,0.00016537630599998995,-0.7854134534999992,3.8437707349989676e-05,-2.3555083550000004,9.316008940000068e-05,1.5709837150000001,0.7860012350000001,0.04,0.04,-9.82843949999999,-0.0005393246217908166,0.00435255565998972,0.00014442199100074977,-0.005518854968256893,4.3702270650224904e-05
0.08,0.00016520876199999207,-0.7854010619999995,3.826572019999186e-05,-2.3555183600000005,9.317132080000053e-05,1.57098328,0.78600152,0.04,0.04,-9.82826099999999,-0.0006144014420022707,0.0041812935199919,0.00015691278200059074,-0.00563809815794786,4.74490848001772e-05
0.0825,0.0001650412179999942,-0.7853886704999996,3.8093733049994054e-05,-2.355528365,9.318255220000038e-05,1.570982845,0.786001805,0.04,0.04,-9.828082499999994,-0.0006894782622137248,0.00401003137999408,0.0001694035730004317,-0.005757341347638827,5.119589895012949e-05
0.085,0.00016479531999999118,-0.7853769359999997,3.784214209999099e-05,-2.35553778,9.31970354000005e-05,1.5709826900000001,0.78600209,0.04,0.04,-9.827880699999993,-0.0007734138693221528,0.003859773529995678,0.00018484282500052306,-0.005871110688898334,5.591611830016102e-05
0.08750000000000001,0.00016451024499999093,-0.7853655299999996,3.755074924999072e-05,-2.3555469,9.321314450000051e-05,1.570982675,0.786002375,0.04,0.04,-9.827667249999992,-0.0008617788698784632,0.0037200178249955505,0.00020175630750053847,-0.005982143105942485,6.112304025016577e-05
0.09,0.00016422516999999067,-0.7853541239999996,3.7259356399990456e-05,-2.3555560200000003,9.322925360000052e-05,1.57098266,0.7860026600000001,0.04,0.04,-9.827453799999992,-0.0009501438704347732,0.003580262119995424,0.00021866979000055375,-0.006093175522986635,6.632996220017047e-05
0.0925,0.0001639400949999904,-0.7853427179999996,3.6967963549990197e-05,-2.3555651400000004,9.324536270000053e-05,1.570982645,0.786002945,0.04,0.04,-9.827240349999993,-0.0010385088709910836,0.003440506414995297,0.00023558327250056916,-0.0062042079400307865,7.153688415017522e-05
0.095,0.00016365501999999015,-0.7853313119999996,3.667657069998993e-05,-2.3555742600000005,9.326147180000056e-05,1.57098263,0.78600323,0.04,0.04,-9.827026899999993,-0.0011268738715473942,0.0033007507099951697,0.00025249675500058457,-0.006315240357074937,7.674380610017995e-05
0.0975,0.00016336994499998987,-0.7853199059999996,3.6385177849989664e-05,-2.3555833800000006,9.327758090000057e-05,1.570982615,0.786003515,0.04,0.04,-9.826813449999992,-0.0012152388721037044,0.0031609950049950424,0.00026941023750059995,-0.0064262727741190885,8.195072805018469e-05
0.1,0.0001630848699999838,-0.7853084999999996,3.609378499998352e-05,-2.3555925000000006,9.329369000000082e-05,1.5709826,0.7860038,0.04,0.04,-9.826599999999994,-0.0013036038726604705,0.0030212392999948525,0.00028632372000085684,-0.00653730519116293,8.715765000025553e-05
0.10250000000000001,0.0001626400704999834,-0.7852979699999996,3.564072514998311e-05,-2.3556010800000005,9.331643150000085e-05,1.570982645,0.786004091,0.04,0.04,-9.826436499999993,-0.0014044928248077675,0.002879760949994724,0.0003098751000008783,-0.006639835354875823,9.418126800026193e-05
0.105,0.000162195270999983,-0.7852874399999995,3.5187665299982694e-05,-2.3556096600000003,9.333917300000086e-05,1.57098269,0.786004382,0.04,0.04,-9.826272999999993,-0.0015053817769550637,0.0027382825999945955,0.0003334264800008996,-0.006742365518588716,0.00010120488600026827
0.1075,0.0001617504714999826,-0.7852769099999996,3.473460544998229e-05,-2.3556182400000005,9.336191450000089e-05,1.570982735,0.786004673,0.04,0.04,-9.826109499999992,-0.0016062707291023607,0.002596804249994467,0.00035697786000092103,-0.0068448956823016095,0.00010822850400027467
0.11,0.0001613056719999822,-0.7852663799999995,3.428154559998187e-05,-2.3556268200000003,9.338465600000091e-05,1.57098278,0.7860049640000001,0.04,0.04,-9.825945999999993,-0.0017071596812496576,0.002455325899994338,0.00038052924000094246,-0.006947425846014503,0.00011525212200028107
0.1125,0.0001608608724999818,-0.7852558499999995,3.382848574998146e-05,-2.3556354,9.340739750000093e-05,1.570982825,0.7860052550000001,0.04,0.04,-9.825782499999992,-0.0018080486333969543,0.0023138475499942094,0.0004040806200009639,-0.007049956009727396,0.00012227574000028745
0.115,0.0001604160729999814,-0.7852453199999995,3.3375425899981045e-05,-2.3556439800000004,9.343013900000095e-05,1.57098287,0.786005546,0.04,0.04,-9.825618999999993,-0.001908937585544251,0.0021723691999940807,0.0004276320000009854,-0.00715248617344029,0.00012929935800029383
0.11750000000000001,0.00015990235099997216,-0.7852350749999996,3.2852792599971715e-05,-2.35565223,9.345500275000126e-05,1.57098293,0.7860059305,0.0399999995,0.0399999995,-9.825486874999996,-0.0020146982278723326,0.002036968099994731,0.0004536908240013284,-0.007253613159995958,0.00013701169750038856
0.12,0.00015925078399997155,-0.7852253999999995,3.219101239997111e-05,-2.35565982,9.348411100000128e-05,1.57098302,0.786006502,0.039999998,0.039999998,-9.825417499999997,-0.0021302022505601224,0.0019137214999946197,0.0004847645360013565,-0.007351933792237713,0.0001461014800003968
0.1225,0.00015859921699997096,-0.7852157249999996,3.152923219997051e-05,-2.35566741,9.35132192500013e-05,1.57098311,0.7860070735,0.0399999965,0.0399999965,-9.825348124999996,-0.0022457062732479127,0.0017904748999945075,0.0005158382480013849,-0.007450254424479467,0.00015519126250040506
0.125,0.00015794764999997038,-0.7852060499999995,3.0867451999969904e-05,-2.355675,9.354232750000133e-05,1.5709832000000001,0.786007645,0.039999994999999997,0.039999994999999997,-9.825278749999997,-0.002361210295935703,0.0016672282999943952,0.0005469119600014131,-0.0075485750567212215,0.00016428104500041334
0.1275,0.0001572960829999698,-0.7851963749999995,3.0205671799969305e-05,-2.3556825900000002,9.357143575000135e-05,1.57098329,0.7860082165,0.0399999935,0.0399999935,-9.825209374999996,-0.0024767143186234927,0.001543981699994283,0.0005779856720014414,-0.007646895688962976,0.00017337082750042162
0.13,0.00015664451599996918,-0.7851866999999996,2.95438915999687e-05,-2.3556901800000003,9.360054400000138e-05,1.5709833800000002,0.786008788,0.039999992,0.039999992,-9.825139999999998,-0.002592218341311283,0.0014207350999941707,0.0006090593840014696,-0.00774521632120473,0.0001824606100004299
0.1325,0.0001559929489999686,-0.7851770249999995,2.8882111399968096e-05,-2.3556977700000004,9.36296522500014e-05,1.57098347,0.7860093595,0.0399999905,0.0399999905,-9.825070624999997,-0.002707722363999073,0.0012974884999940586,0.000640133096001498,-0.007843536953446485,0.00019155039250043818
0.135,0.00015516929199995533,-0.7851678499999996,2.8046982599954722e-05,-2.3557046800000006,9.366562200000192e-05,1.5709835600000002,0.786010125,0.039999989799999996,0.039999989799999996,-9.824941349999992,-0.002823964133864388,0.0011898654199950975,0.0006758679440018696,-0.007937860954557376,0.000202073136000552
0.1375,0.0001542595899999545,-0.7851589249999996,2.7125179499953884e-05,-2.35571125,9.370502250000197e-05,1.57098365,0.7860109875,0.0399999895,0.0399999895,-9.824782124999992,-0.0029405747773183838,0.0010900540999950067,0.0007139333600019043,-0.008030186640103269,0.00021331236000056225
0.14,0.00015334988799995365,-0.7851499999999996,2.6203376399953045e-05,-2.35571782,9.3744423000002e-05,1.57098374,0.78601185,0.0399999892,0.0399999892,-9.824622899999992,-0.00305718542077238,0.0009902427799949158,0.000751998776001939,-0.008122512325649162,0.00022455158400057248
0.14250000000000002,0.00015244018599995282,-0.7851410749999995,2.5281573299952207e-05,-2.3557243900000002,9.378382350000204e-05,1.57098383,0.7860127125,0.0399999889,0.0399999889,-9.824463674999992,-0.0031737960642263764,0.0008904314599948249,0.0007900641920019736,-0.008214838011195057,0.00023579080800058272
0.145,0.00015153048399995202,-0.7851321499999996,2.4359770199951378e-05,-2.3557309600000003,9.382322400000209e-05,1.57098392,0.786013575,0.0399999886,0.0399999886,-9.82430444999999,-0.003290406707680371,0.0007906201399947352,0.0008281296080020078,-0.008307163696740949,0.0002470300320005928
0.1475,0.0001506207819999512,-0.7851232249999995,2.343796709995054e-05,-2.3557375300000003,9.386262450000212e-05,1.57098401,0.7860144375,0.0399999883,0.0399999883,-9.824145224999992,-0.0034070173511343673,0.0006908088199946443,0.0008661950240020425,-0.008399489382286844,0.0002582692560006031
0.15,0.00014971107999993326,-0.7851142999999996,2.2516163999932506e-05,-2.3557441000000003,9.390202500000284e-05,1.5709841,0.7860153,0.039999988,0.039999988,-9.823985999999994,-0.00352362799458925,0.0005909974999948856,0.000904260440002497,-0.008491815067832476,0.00026950848000075145
0.1525,0.00014848806849993216,-0.7851060544999996,2.127927269993138e-05,-2.3557503850000003,9.395399625000289e-05,1.570984235,0.7860163050000001,0.0399999874,0.0399999868,-9.823880399999995,-0.003656490345027161,0.0004972710958948002,0.0009500216540025388,-0.00857932562940308,0.000283279728000764
0.155,0.00014726505699993103,-0.7850978089999996,2.0042381399930256e-05,-2.3557566700000003,9.400596750000293e-05,1.5709843700000001,0.7860173100000001,0.0399999868,0.039999985599999996,-9.823774799999994,-0.003789352695465072,0.0004035446917947149,0.0009957828680025804,-0.008666836190973684,0.00029705097600077655
0.1575,0.00014604204549992992,-0.7850895634999996,1.880549009992913e-05,-2.3557629550000003,9.405793875000298e-05,1.570984505,0.7860183150000001,0.039999986200000004,0.0399999844,-9.823669199999994,-0.0039222150459029825,0.0003098182876946296,0.001041544082002622,-0.008754346752544289,0.00031082222400078904
0.16,0.00014481903399992882,-0.7850813179999996,1.7568598799928003e-05,-2.3557692400000003,9.410991000000303e-05,1.57098464,0.7860193200000001,0.0399999856,0.0399999832,-9.823563599999995,-0.004055077396340894,0.00021609188359454428,0.0010873052960026638,-0.008841857314114894,0.0003245934720008016
0.1625,0.0001435960224999277,-0.7850730724999996,1.6331707499926876e-05,-2.3557755250000003,9.416188125000307e-05,1.570984775,0.7860203250000001,0.039999985,0.039999981999999996,-9.823457999999993,-0.0041879397467788045,0.00012236547949445893,0.0011330665100027055,-0.008929367875685499,0.00033836472000081414
0.165,0.00014237301099992658,-0.7850648269999996,1.509481619992575e-05,-2.3557818100000003,9.421385250000313e-05,1.5709849100000002,0.7860213300000001,0.0399999844,0.039999980799999994,-9.823352399999994,-0.004320802097216716,2.8639075394373695e-05,0.001178827724002747,-0.009016878437256102,0.0003521359680008267
0.1675,0.00014102605799990283,-0.7850567934999996,1.3733438864901865e-05,-2.3557877700000005,9.427074750000408e-05,1.57098504,0.7860224475,0.03999998365,0.039999979649999996,-9.823270399999998,-0.00445215264336051,-5.955864930470095e-05,0.0012276048700033402,-0.009103988995780835,0.00036670363000098483
0.17,0.00013943122199990137,-0.7850491839999996,1.2123089459900399e-05,-2.3557930800000006,9.433749000000413e-05,1.57098516,0.7860237900000001,0.039999982600000004,0.0399999786,-9.823235599999999,-0.004580479580916897,-0.0001366990152047712,0.00128241388000339,-0.009190299548214037,0.00038286412000099955
0.17250000000000001,0.00013783638599989992,-0.7850415744999996,1.0512740054898932e-05,-2.3557983900000004,9.44042325000042e-05,1.5709852800000002,0.7860251325000001,0.03999998155,0.039999977549999996,-9.823200799999999,-0.004708806518473284,-0.0002138393811048414,0.00133722289000344,-0.009276610100647242,0.0003990246100010142
0.17500000000000002,0.00013624154999989846,-0.7850339649999996,8.902390649897466e-06,-2.3558037000000005,9.447097500000426e-05,1.5709854,0.7860264750000001,0.0399999805,0.0399999765,-9.823165999999999,-0.004837133456029671,-0.00029097974700491167,0.0013920319000034899,-0.009362920653080444,0.00041518510000102893
0.1775,0.000134646713999897,-0.7850263554999994,7.2920412448960185e-06,-2.35580901,9.453771750000431e-05,1.57098552,0.7860278175000001,0.03999997945,0.03999997545,-9.823131199999999,-0.004965460393586057,-0.00036812011290498104,0.0014468409100035391,-0.009449231205513648,0.0004313455900010435
0.18,0.00013305187799989555,-0.7850187459999994,5.681691839894552e-06,-2.3558143200000004,9.460446000000437e-05,1.5709856400000002,0.7860291600000001,0.0399999784,0.0399999744,-9.823096399999999,-0.005093787331142443,-0.0004452604788050513,0.001501649920003589,-0.009535541757946851,0.0004475060800010582
0.1825,0.0001314570419998941,-0.7850111364999994,4.071342434893086e-06,-2.3558196300000005,9.467120250000444e-05,1.5709857600000001,0.7860305025000001,0.03999997735,0.03999997335,-9.823061599999997,-0.0052221142686988305,-0.0005224008447051215,0.001556458930003639,-0.009621852310380055,0.00046366657000107293
0.185,0.00012957331399986348,-0.7850039099999995,2.1711481698623604e-06,-2.35582436,9.474954900000566e-05,1.57098589,0.7860320950000002,0.0399999763,0.0399999717,-9.822994599999994,-0.005361405108133724,-0.0005973988800049754,0.001617162780004284,-0.00970569495112254,0.00048167467000127416
0.1875,0.00012754513999986165,-0.7849968749999995,1.260314748604984e-07,-2.3558288000000003,9.483369750000574e-05,1.570986025,0.7860338125000002,0.03999997525,0.03999996975,-9.822911499999995,-0.005506177898506225,-0.0006713257500050427,0.001680814050004342,-0.009788303636020035,0.0005006065750012914
0.19,0.0001255169659998598,-0.7849898399999995,-1.919085220141363e-06,-2.3558332400000004,9.491784600000582e-05,1.5709861600000001,0.7860355300000001,0.0399999742,0.0399999678,-9.822828399999993,-0.005650950688878728,-0.00074525262000511,0.0017444653200043999,-0.00987091232091753,0.0005195384800013086
0.1925,0.00012348879199985794,-0.7849828049999995,-3.964201915143225e-06,-2.35583768,9.500199450000589e-05,1.570986295,0.7860372475000001,0.03999997315,0.03999996585,-9.822745299999994,-0.005795723479251229,-0.0008191794900051775,0.0018081165900044579,-0.009953521005815025,0.0005384703850013258
0.195,0.0001214606179998561,-0.7849757699999995,-6.009318610145086e-06,-2.35584212,9.508614300000596e-05,1.57098643,0.7860389650000001,0.0399999721,0.0399999639,-9.822662199999993,-0.00594049626962373,-0.0008931063600052446,0.0018717678600045158,-0.01003612969071252,0.0005574022900013431
0.1975,0.00011943244399985426,-0.7849687349999994,-8.054435305146947e-06,-2.3558465600000003,9.517029150000604e-05,1.570986565,0.7860406825000001,0.03999997105,0.03999996195,-9.822579099999993,-0.006085269059996233,-0.0009670332300053121,0.0019354191300045736,-0.010118738375610016,0.0005763341950013604
0.2,0.00011740426999981622,-0.7849616999999995,-1.0099552000185086e-05,-2.3558510000000004,9.525444000000756e-05,1.5709867,0.7860424000000001,0.03999997,0.03999996,-9.822495999999994,-0.006230041850367921,-0.0010409601000040773,0.001999070400005305,-0.010201347060507324,0.0005952661000015686
0.2025,0.00011487875299981393,-0.7849551899999995,-1.2643221100187403e-05,-2.35585499,9.535840950000765e-05,1.570986925,0.7860444100000001,0.03999997,0.03999996,-9.822415149999994,-0.006363628502013637,-0.0010969939800041283,0.0020719766400053713,-0.010281401919206842,0.0006168215545015881
0.20500000000000002,0.00011235323599981163,-0.7849486799999995,-1.5186890200189718e-05,-2.3558589800000003,9.546237900000774e-05,1.5709871499999999,0.7860464200000001,0.03999997,0.03999996,-9.822334299999993,-0.006497215153659353,-0.0011530278600041795,0.0021448828800054377,-0.01036145677790636,0.0006383770090016077
0.20750000000000002,0.00010982771899980933,-0.7849421699999994,-1.773055930019203e-05,-2.35586297,9.556634850000785e-05,1.570987375,0.7860484300000001,0.03999997,0.03999996,-9.822253449999993,-0.0066308018053050696,-0.0012090617400042304,0.002217789120005504,-0.010441511636605878,0.0006599324635016274
0.21,0.00010730220199980706,-0.7849356599999995,-2.0274228400194322e-05,-2.35586696,9.567031800000794e-05,1.5709876,0.7860504400000001,0.03999997,0.03999996,-9.822172599999993,-0.006764388456950785,-0.0012650956200042807,0.0022906953600055693,-0.010521566495305395,0.0006814879180016467
0.2125,0.00010477668499980476,-0.7849291499999994,-2.2817897500196634e-05,-2.3558709500000004,9.577428750000803e-05,1.570987825,0.7860524500000001,0.03999997,0.03999996,-9.822091749999993,-0.006897975108596501,-0.0013211295000043317,0.002363601600005636,-0.010601621354004914,0.0007030433725016664
0.215,0.00010225116799980246,-0.7849226399999994,-2.5361566600198952e-05,-2.35587494,9.587825700000813e-05,1.57098805,0.7860544600000001,0.03999997,0.03999996,-9.822010899999993,-0.0070315617602422185,-0.0013771633800043828,0.0024365078400057022,-0.010681676212704432,0.000724598827001686
0.2175,9.953777369976961e-05,-0.7849162914999995,-2.8093436450231808e-05,-2.35587859,9.598972350000942e-05,1.57098842,0.7860566585000002,0.03999997,0.03999996,-9.821961250000001,-0.007171253906574168,-0.0014314330050037842,0.0025128035650061956,-0.010761644551536382,0.00074710363600182
0.22,9.644862479980895e-05,-0.7849102659999996,-3.120170780019223e-05,-2.3558815600000003,9.611618400000782e-05,1.57098908,0.7860592340000001,0.03999997,0.03999996,-9.821974,-0.007323157042274254,-0.0014821741200031382,0.002595878260005138,-0.010841439850633254,0.0007715071540015093
0.2225,9.335947589984828e-05,-0.7849042404999996,-3.430997915015266e-05,-2.35588453,9.624264450000621e-05,1.57098974,0.7860618095000002,0.03999997,0.03999996,-9.82198675,-0.0074750601779743405,-0.0015329152350024922,0.0026789529550040802,-0.010921235149730129,0.0007959106720011985
0.225,9.02703269998876e-05,-0.7848982149999998,-3.7418250500113084e-05,-2.3558875,9.63691050000046e-05,1.5709904000000001,0.7860643850000001,0.03999997,0.03999996,-9.8219995,-0.007626963313674426,-0.0015836563500018462,0.0027620276500030226,-0.011001030448827004,0.0008203141900008879
0.2275,8.718117809992694e-05,-0.7848921894999998,-4.0526521850073514e-05,-2.35589047,9.649556550000299e-05,1.57099106,0.7860669605,0.03999997,0.03999996,-9.82201225,-0.007778866449374512,-0.0016343974650012,0.002845102345001965,-0.011080825747923876,0.0008447177080005771
0.23,8.409202919996628e-05,-0.7848861639999999,-4.363479320003394e-05,-2.35589344,9.662202600000138e-05,1.57099172,0.786069536,0.03999997,0.03999996,-9.822025,-0.007930769585074597,-0.001685138580000554,0.0029281770400009072,-0.011160621047020751,0.0008691212260002665
0.2325,8.10028803000056e-05,-0.7848801384999999,-4.674306454999436e-05,-2.3558964099999997,9.674848649999978e-05,1.57099238,0.7860721115,0.03999997,0.03999996,-9.82203775,-0.008082672720774684,-0.001735879694999908,0.0030112517349998496,-0.011240416346117624,0.0008935247439999558
0.23500000000000001,7.749254999998644e-05,-0.7848743869999999,-5.027300110001363e-05,-2.35589888,9.689184200000056e-05,1.5709930600000002,0.786075003,0.0399999703,0.03999996,-9.821976699999999,-0.008221328910440641,-0.001782437860000162,0.003100625720000337,-0.011317264474928574,0.0009199655050001001
0.23750000000000002,7.37716289999323e-05,-0.7848687724999999,-5.401377025006807e-05,-2.3559011,9.704364500000276e-05,1.5709937500000002,0.7860780525000001,0.03999997075,0.03999996,-9.821878749999998,-0.008353361627089351,-0.001826904550000809,0.0031931493500016836,-0.011392639018596521,0.0009474248875004997
0.24,7.005070799987819e-05,-0.7848631579999997,-5.7754539400122465e-05,-2.35590332,9.719544800000498e-05,1.5709944400000002,0.786081102,0.039999971200000005,0.03999996,-9.821780799999997,-0.008485394343738063,-0.001871371240001456,0.003285672980003029,-0.011468013562264467,0.000974884270000899
0.2425,6.632978699982403e-05,-0.7848575434999997,-6.14953085501769e-05,-2.35590554,9.734725100000718e-05,1.57099513,0.7860841515000001,0.03999997165,0.03999996,-9.821682849999995,-0.008617427060386772,-0.001915837930002103,0.0033781966100043755,-0.011543388105932414,0.0010023436525012986
0.245,6.260886599976988e-05,-0.7848519289999996,-6.523607770023134e-05,-2.35590776,9.749905400000939e-05,1.57099582,0.7860872010000002,0.0399999721,0.03999996,-9.821584899999994,-0.008749459777035484,-0.00196030462000275,0.003470720240005722,-0.01161876264960036,0.001029803035001698
0.2475,5.8887944999715735e-05,-0.7848463144999995,-6.897684685028578e-05,-2.3559099800000003,9.76508570000116e-05,1.57099651,0.7860902505000003,0.03999997255,0.03999996,-9.821486949999992,-0.008881492493684195,-0.0020047713100033973,0.003563243870007069,-0.011694137193268308,0.0010572624175020978
0.25,5.516702399959778e-05,-0.7848406999999995,-7.271761600040406e-05,-2.3559122,9.780266000001635e-05,1.5709972,0.7860933000000003,0.039999973,0.03999996,-9.821389,-0.009013525210334977,-0.002049238000002504,0.003655767500009352,-0.011769511736936205,0.0010847218000027583
0.2525,5.074457489959376e-05,-0.7848354874999994,-7.71603496004081e-05,-2.3559139250000003,9.798243050001652e-05,1.5709979200000002,0.7860969195000004,0.039999973,0.03999996,-9.8213803,-0.009168301243349173,-0.0020767710400025293,0.0037585927850094457,-0.011844330001629292,0.001115050330002786
0.255,4.632212579958973e-05,-0.7848302749999995,-8.160308320041215e-05,-2.35591565,9.816220100001668e-05,1.5709986400000002,0.7861005390000003,0.039999973,0.03999996,-9.821371599999999,-0.009323077276363369,-0.002104304080002554,0.003861418070009539,-0.01191914826632238,0.0011453788600028136
0.2575,4.18996766995857e-05,-0.7848250624999995,-8.60458168004162e-05,-2.355917375,9.834197150001684e-05,1.57099936,0.7861041585000004,0.039999973,0.03999996,-9.821362899999999,-0.009477853309377565,-0.002131837120002579,0.003964243355009633,-0.01199396653101547,0.0011757073900028412
0.26,3.747722759958167e-05,-0.7848198499999994,-9.048855040042025e-05,-2.3559191000000004,9.852174200001701e-05,1.5710000800000001,0.7861077780000003,0.039999973,0.03999996,-9.8213542,-0.009632629342391761,-0.0021593701600026043,0.004067068640009727,-0.012068784795708557,0.0012060359200028689
0.2625,3.3054778499577654e-05,-0.7848146374999995,-9.493128400042428e-05,-2.355920825,9.870151250001717e-05,1.5710008000000002,0.7861113975000004,0.039999973,0.03999996,-9.8213455,-0.009787405375405957,-0.0021869032000026295,0.00416989392500982,-0.012143603060401645,0.0012363644500028965
0.265,2.8632329399573623e-05,-0.7848094249999995,-9.937401760042833e-05,-2.3559225500000003,9.888128300001733e-05,1.57100152,0.7861150170000003,0.039999973,0.03999996,-9.8213368,-0.009942181408420153,-0.0022144362400026542,0.0042727192100099134,-0.012218421325094734,0.0012666929800029241
0.2675,2.3952336599494402e-05,-0.7848043224999995,-0.00010407433900050759,-2.355923915,9.907137220002052e-05,1.57100236,0.7861188385000004,0.039999973,0.0399999599,-9.82133405,-0.010087524820131375,-0.0022368858800011953,0.004379007780011018,-0.012293612677611322,0.0012980831400032616
0.27,1.8757256399489673e-05,-0.7847994399999995,-0.00010928983600051234,-2.35592456,9.92820988000207e-05,1.5710034400000001,0.7861230640000004,0.039999973,0.0399999596,-9.821343200000001,-0.010214002989244884,-0.0022491687200012064,0.004492222920011122,-0.01236955020577458,0.0013315965600032922
0.2725,1.3562176199484943e-05,-0.7847945574999995,-0.00011450533300051708,-2.355925205,9.949282540002089e-05,1.57100452,0.7861272895000004,0.039999973,0.0399999593,-9.821352350000002,-0.010340481158358394,-0.0022614515600012175,0.004605438060011225,-0.01244548773393784,0.0013651099800033226
0.275,8.367095999480212e-06,-0.7847896749999995,-0.00011972083000052183,-2.35592585,9.970355200002108e-05,1.5710056000000001,0.7861315150000004,0.039999973,0.039999959,-9.821361500000002,-0.010466959327471905,-0.0022737344000012287,0.0047186532000113275,-0.012521425262101099,0.0013986234000033532
0.2775,3.1720157994754833e-06,-0.7847847924999994,-0.00012493632700052656,-2.355926495,9.991427860002127e-05,1.5710066800000002,0.7861357405000005,0.039999973,0.039999958700000005,-9.82137065,-0.010593437496585416,-0.00228601724000124,0.004831868340011431,-0.012597362790264358,0.0014321368200033836
0.28,-2.023064400529249e-06,-0.7847799099999995,-0.00013015182400053134,-2.35592714,0.00010012500520002147,1.57100776,0.7861399660000005,0.039999973,0.0399999584,-9.8213798,-0.010719915665698925,-0.002298300080001251,0.004945083480011534,-0.012673300318427616,0.001465650240003414
0.28250000000000003,-7.218144600533981e-06,-0.7847750274999995,-0.00013536732100053605,-2.355927785,0.00010033573180002166,1.5710088400000002,0.7861441915000005,0.039999973,0.0399999581,-9.821388950000001,-0.010846393834812436,-0.0023105829200012625,0.005058298620011637,-0.012749237846590876,0.0014991636600034447
0.28500000000000003,-1.2976420000626304e-05,-0.7847703549999995,-0.0001411459250006284,-2.35592792,0.00010056899960002536,1.5710100400000002,0.7861489100000005,0.039999973700000004,0.0399999588,-9.821362299999995,-0.010990565549598017,-0.002324219680001484,0.005178591150012841,-0.01282334448770442,0.0015346555900037828
0.28750000000000003,-1.9016293000631802e-05,-0.7847657874999995,-0.00014720608250063391,-2.3559278,0.00010081353800002558,1.5710113,0.7861538750000006,0.03999997475,0.03999996,-9.821317749999995,-0.011143584037215533,-0.002338533400001497,0.005302422375012954,-0.012896535685293531,0.0015711367750038162
0.29,-2.505616600063717e-05,-0.7847612199999995,-0.0001532662400006393,-2.35592768,0.0001010580764000258,1.5710125600000002,0.7861588400000006,0.0399999758,0.0399999612,-9.821273199999995,-0.011296602524833043,-0.00235284712000151,0.005426253600013063,-0.012969726882882641,0.0016076179600038485
0.2925,-3.109603900064267e-05,-0.7847566524999995,-0.00015932639750064484,-2.35592756,0.00010130261480002602,1.5710138200000001,0.7861638050000005,0.03999997685,0.0399999624,-9.821228649999995,-0.011449621012450558,-0.002367160840001523,0.005550084825013176,-0.013042918080471753,0.0016440991450038817
0.295,-3.713591200064817e-05,-0.7847520849999995,-0.00016538655500065034,-2.35592744,0.00010154715320002624,1.5710150800000002,0.7861687700000005,0.0399999779,0.0399999636,-9.821184099999995,-0.011602639500068072,-0.0023814745600015358,0.005673916050013289,-0.013116109278060865,0.001680580330003915
0.2975,-4.3175785000653665e-05,-0.7847475174999995,-0.00017144671250065587,-2.35592732,0.00010179169160002646,1.5710163400000001,0.7861737350000005,0.03999997895,0.039999964799999996,-9.821139549999995,-0.011755657987685585,-0.002395788280001549,0.005797747275013402,-0.013189300475649977,0.0017170615150039483
0.3,-4.921565800075933e-05,-0.7847429499999996,-0.0001775068700007615,-2.3559272,0.00010203623000003068,1.5710176000000002,0.7861787000000007,0.03999998,0.039999966,-9.821095,-0.01190867647529917,-0.0024101019999992345,0.005921578500014647,-0.01326249167323913,0.001753542700004338
0.3025,-5.617336720076566e-05,-0.7847386674999995,-0.00018448437800076784,-2.35592642,0.00010231739150003094,1.5710188900000002,0.7861843850000007,0.039999979549999995,0.039999964799999996,-9.8210941,-0.012025687843573976,-0.002403088569999228,0.006055790475014769,-0.013336071651437008,0.0017932905700043741
0.305,-6.3131076400772e-05,-0.7847343849999996,-0.00019146188600077421,-2.35592564,0.00010259855300003119,1.57102018,0.7861900700000006,0.0399999791,0.0399999636,-9.8210932,-0.012142699211848783,-0.002396075139999222,0.006190002450014892,-0.013409651629634884,0.0018330384400044105
0.3075,-7.008878560077833e-05,-0.7847301024999995,-0.00019843939400078056,-2.35592486,0.00010287971450003145,1.57102147,0.7861957550000006,0.03999997865,0.0399999624,-9.8210923,-0.01225971058012359,-0.0023890617099992153,0.0063242144250150135,-0.013483231607832762,0.0018727863100044466
0.31,-7.704649480078466e-05,-0.7847258199999996,-0.0002054169020007869,-2.35592408,0.0001031608760000317,1.5710227600000002,0.7862014400000007,0.0399999782,0.0399999612,-9.8210914,-0.012376721948398397,-0.002382048279999209,0.006458426400015136,-0.01355681158603064,0.0019125341800044827
0.3125,-8.4004204000791e-05,-0.7847215374999995,-0.00021239441000079327,-2.3559233,0.00010344203750003197,1.5710240500000001,0.7862071250000007,0.03999997775,0.03999996,-9.8210905,-0.012493733316673203,-0.002375034849999203,0.006592638375015258,-0.013630391564228515,0.0019522820500045188
0.315,-9.096191320079733e-05,-0.7847172549999996,-0.00021937191800079961,-2.35592252,0.00010372319900003223,1.57102534,0.7862128100000007,0.039999977299999996,0.0399999588,-9.8210896,-0.01261074468494801,-0.002368021419999196,0.00672685035001538,-0.013703971542426393,0.001992029920004555
0.3175,-9.82501292009182e-05,-0.7847130529999996,-0.0002266796785009204,-2.355921425,0.00010401761500003708,1.571026765,0.7862187675000007,0.03999997715,0.0399999581,-9.821098900000004,-0.01273715924473293,-0.0023569553699977854,0.006864673830016754,-0.013777983700865169,0.002032789935004942
0.32,-0.00010619935880092543,-0.7847090119999995,-0.00023464794400092766,-2.3559197,0.00010433854000003736,1.5710284600000002,0.7862252700000008,0.0399999776,0.0399999584,-9.821128600000003,-0.012882380187528327,-0.0023377840799977683,0.007009720320016886,-0.013852860219785297,0.002075574240004981
0.3225,-0.00011414858840093266,-0.7847049709999996,-0.0002426162095009349,-2.3559179749999997,0.00010465946500003765,1.571030155,0.7862317725000008,0.039999978049999996,0.039999958700000005,-9.821158300000004,-0.013027601130323724,-0.0023186127899977507,0.007154766810017018,-0.013927736738705425,0.0021183585450050197
0.325,-0.0001220978180009399,-0.7847009299999995,-0.00025058447500094216,-2.35591625,0.00010498039000003795,1.5710318500000002,0.7862382750000008,0.0399999785,0.039999959,-9.821188000000003,-0.01317282207311912,-0.0022994414999977335,0.00729981330001715,-0.014002613257625553,0.002161142850005059
0.3275,-0.00013004704760094713,-0.7846968889999996,-0.0002585527405009494,-2.3559145249999998,0.00010530131500003823,1.5710335450000001,0.7862447775000008,0.03999997895,0.0399999593,-9.821217700000004,-0.013318043015914518,-0.002280270209997716,0.0074448597900172815,-0.014077489776545682,0.002203927155005098
0.33,-0.00013799627720095437,-0.7846928479999995,-0.00026652100600095665,-2.3559127999999996,0.00010562224000003853,1.5710352400000003,0.7862512800000008,0.039999979399999996,0.0399999596,-9.821247400000004,-0.013463263958709915,-0.0022610989199976983,0.007589906280017414,-0.01415236629546581,0.0022467114600051366
0.3325,-0.0001459455068009616,-0.7846888069999995,-0.0002744892715009639,-2.3559110749999994,0.00010594316500003882,1.5710369350000002,0.7862577825000008,0.03999997985,0.0399999599,-9.821277100000003,-0.013608484901505312,-0.002241927629997681,0.007734952770017546,-0.014227242814385938,0.002289495765005176
0.335,-0.00015460518100109873,-0.7846849209999995,-0.0002831672570011009,-2.3559087899999995,0.00010629255100004432,1.5710387300000004,0.7862648650000009,0.03999998,0.0399999598,-9.821276599999997,-0.013725337386143713,-0.002221419479997419,0.00788717974001899,-0.014301609713593153,0.0023344790200056165
0.3375,-0.00016362007750110694,-0.7846811124999995,-0.0002922001025011091,-2.3559062249999996,0.00010665616750004464,1.5710405750000003,0.786272237500001,0.03999998,0.0399999595,-9.821260999999998,-0.013828005641711357,-0.0022002428999973998,0.008042996950019133,-0.01437572180294405,0.0023805617500056585
0.34,-0.00017263497400111515,-0.7846773039999996,-0.00030123294800111735,-2.3559036599999996,0.00010701978400004498,1.5710424200000002,0.7862796100000009,0.03999998,0.039999959200000004,-9.821245399999999,-0.013930673897279,-0.0021790663199973805,0.008198814160019274,-0.014449833892294948,0.0024266444800057005
0.3425,-0.00018164987050112337,-0.7846734954999995,-0.0003102657935011256,-2.3559010949999997,0.0001073834005000453,1.5710442650000003,0.786286982500001,0.03999998,0.0399999589,-9.821229799999998,-0.014033342152846644,-0.002157889739997361,0.008354631370019416,-0.014523945981645846,0.0024727272100057425
0.34500000000000003,-0.00019066476700113156,-0.7846696869999995,-0.0003192986390011338,-2.3558985299999993,0.00010774701700004564,1.5710461100000002,0.7862943550000009,0.03999998,0.0399999586,-9.821214199999998,-0.014136010408414288,-0.002136713159997342,0.008510448580019559,-0.014598058070996744,0.0025188099400057845
0.34750000000000003,-0.00019967966350113977,-0.7846658784999995,-0.000328331484501142,-2.3558959649999993,0.00010811063350004597,1.5710479550000003,0.7863017275000009,0.03999998,0.0399999583,-9.821198599999997,-0.014238678663981931,-0.0021155365799973226,0.0086662657900197,-0.014672170160347641,0.002564892670005826
0.35000000000000003,-0.00020869456000129316,-0.7846620699999995,-0.0003373643300012952,-2.3558933999999994,0.00010847425000005212,1.5710498000000002,0.7863091000000011,0.03999998,0.039999958,-9.821183000000001,-0.014341346919551072,-0.0020943599999946483,0.00882208300002121,-0.014746282249698645,0.0026109754000062766
0.3525,-0.00021884956900116364,-0.7846584219999996,-0.0003475358600011655,-2.3558899949999996,0.0001088835811000469,1.5710516600000002,0.786317410000001,0.0399999806,0.039999958,-9.8211926,-0.014455778617424878,-0.0020523349649951843,0.008988648700019086,-0.014821227919318909,0.0026602638850056477
0.355,-0.00022900457800103437,-0.7846547739999996,-0.000357707390001036,-2.3558865899999994,0.0001092929122000417,1.5710535200000002,0.7863257200000009,0.0399999812,0.039999958,-9.8212022,-0.014570210315298687,-0.0020103099299957194,0.009155214400016966,-0.014896173588939174,0.00270955237000502
0.3575,-0.00023915958700090507,-0.7846511259999996,-0.00036787892000090654,-2.3558831849999997,0.00010970224330003648,1.5710553800000002,0.7863340300000008,0.0399999818,0.039999958,-9.8212118,-0.014684642013172494,-0.0019682848949962545,0.009321780100014845,-0.01497111925855944,0.0027588408550043926
0.36,-0.0002493145960007758,-0.7846474779999997,-0.00037805045000077704,-2.3558797799999995,0.00011011157440003127,1.5710572400000002,0.7863423400000007,0.0399999824,0.039999958,-9.8212214,-0.014799073711046301,-0.0019262598599967895,0.009488345800012725,-0.015046064928179705,0.002808129340003765
0.3625,-0.0002594696050006465,-0.7846438299999998,-0.00038822198000064754,-2.355876375,0.00011052090550002605,1.5710591000000003,0.7863506500000006,0.039999983,0.039999958,-9.821231000000001,-0.01491350540892011,-0.0018842348249973246,0.009654911500010603,-0.01512101059779997,0.0028574178250031375
0.365,-0.0002696246140005172,-0.7846401819999999,-0.00039839351000051803,-2.35587297,0.00011093023660002085,1.57106096,0.7863589600000005,0.039999983600000004,0.039999958,-9.8212406,-0.015027937106793917,-0.0018422097899978597,0.009821477200008482,-0.015195956267420235,0.00290670631000251
0.3675,-0.0002801845020005894,-0.7846365924999998,-0.0004089693610005902,-2.355869265,0.00011135577880002375,1.5710630050000003,0.7863676000000005,0.039999984200000005,0.0399999581,-9.821263900000002,-0.015147265046841574,-0.0017976135849974216,0.009991657800009197,-0.015271704643968714,0.0029570196250027145
0.37,-0.00029155414800091,-0.7846331199999997,-0.00042035385400091116,-2.35586496,0.00011181374320003665,1.5710654200000003,0.7863769000000008,0.0399999848,0.0399999584,-9.821314600000004,-0.015276385471235054,-0.0017478750399960192,0.010169068200014198,-0.01534905843437331,0.003009382600004191
0.3725,-0.00030292379400123057,-0.7846296474999996,-0.00043173834700123214,-2.3558606549999994,0.00011227170760004957,1.5710678350000002,0.786386200000001,0.0399999854,0.039999958700000005,-9.821365300000005,-0.015405505895628535,-0.0016981364949946167,0.0103464786000192,-0.015426412224777907,0.003061745575005667
0.375,-0.00031429344000155114,-0.7846261749999995,-0.00044312284000155313,-2.3558563499999994,0.00011272967200006249,1.5710702500000002,0.7863955000000012,0.039999986,0.039999959,-9.821416000000006,-0.015534626320022015,-0.0016483979499932145,0.010523889000024203,-0.015503766015182503,0.0031141085500071435
0.3775,-0.0003256630860018717,-0.7846227024999994,-0.0004545073330018741,-2.3558520449999993,0.00011318763640007539,1.5710726650000004,0.7864048000000016,0.0399999866,0.0399999593,-9.821466700000009,-0.015663746744415497,-0.0015986594049918121,0.010701299400029205,-0.0155811198055871,0.00316647152500862
0.38,-0.0003370327320021923,-0.7846192299999993,-0.0004658918260021951,-2.3558477399999993,0.00011364560080008831,1.5710750800000004,0.7864141000000018,0.0399999872,0.0399999596,-9.82151740000001,-0.015792867168808976,-0.0015489208599904097,0.010878709800034208,-0.015658473595991696,0.003218834500010096
0.3825,-0.00034840237800251285,-0.7846157574999992,-0.00047727631900251614,-2.3558434349999993,0.00011410356520010121,1.5710774950000004,0.7864234000000021,0.0399999878,0.0399999599,-9.821568100000011,-0.015921987593202458,-0.0014991823149890073,0.01105612020003921,-0.01573582738639629,0.0032711974750115726
0.385,-0.00036063151300280927,-0.7846123899999993,-0.0004895189450028121,-2.3558385499999988,0.00011459588800011307,1.5710799200000005,0.7864333950000023,0.039999988,0.03999996,-9.821587700000002,-0.016015482507662816,-0.0014461557299878674,0.01124073470004177,-0.015812965109961396,0.0033256013700122995
0.3875,-0.0003732903925026481,-0.7846090749999993,-0.0005021906375026507,-2.355833374999999,0.00011510539000010658,1.5710823500000004,0.7864437375000022,0.039999988,0.03999996,-9.821591750000001,-0.016091164667175084,-0.0013914851249885636,0.011428951250039373,-0.015889994800106864,0.003381025725011594
0.39,-0.00038594927200248695,-0.7846057599999994,-0.0005148623300024895,-2.355828199999999,0.0001156148920001001,1.5710847800000005,0.786454080000002,0.039999988,0.03999996,-9.8215958,-0.01616684682668735,-0.0013368145199892597,0.011617167800036977,-0.015967024490252335,0.0034364500800108883
0.3925,-0.00039860815150232577,-0.7846024449999994,-0.0005275340225023281,-2.355823024999999,0.0001161243940000936,1.5710872100000004,0.7864644225000019,0.039999988,0.03999996,-9.821599850000002,-0.016242528986199614,-0.0012821439149899557,0.01180538435003458,-0.016044054180397803,0.0034918744350101827
0.395,-0.0004112670310021646,-0.7845991299999995,-0.0005402057150021667,-2.3558178499999993,0.00011663389600008712,1.5710896400000005,0.7864747650000018,0.039999988,0.03999996,-9.821603900000001,-0.016318211145711883,-0.0012274733099906518,0.011993600900032184,-0.01612108387054327,0.003547298790009477
0.3975,-0.0004239259105020034,-0.7845958149999995,-0.0005528774075020055,-2.3558126749999992,0.00011714339800008063,1.5710920700000004,0.7864851075000017,0.039999988,0.03999996,-9.82160795,-0.016393893305224148,-0.001172802704991348,0.012181817450029787,-0.016198113560688742,0.0036027231450087714
0.4,-0.0004365847900020407,-0.7845924999999996,-0.0005655491000020422,-2.355807499999999,0.0001176529000000821,1.5710945000000005,0.7864954500000017,0.039999988,0.03999996,-9.821612000000007,-0.016469575464741648,-0.0011181320999885432,0.012370034000028972,-0.016275143250834564,0.0036581475000085286
0.4025,-0.00045060728050205345,-0.7845892899999996,-0.000579582095002055,-2.355801319999999,0.00011821709350008262,1.5710974850000006,0.7865069025000017,0.0399999883,0.0399999609,-9.821659850000007,-0.01658121990041571,-0.0010394066249884717,0.012569116700029154,-0.016354594193410565,0.003716753475008582
0.405,-0.0004646297710020662,-0.7845860799999995,-0.0005936150900020677,-2.3557951399999992,0.00011878128700008314,1.5711004700000004,0.7865183550000017,0.0399999886,0.0399999618,-9.821707700000006,-0.016692864336089772,-0.0009606811499883999,0.012768199400029335,-0.016434045135986567,0.0037753594500086352
0.40750000000000003,-0.000478652261502079,-0.7845828699999995,-0.0006076480850020805,-2.355788959999999,0.00011934548050008364,1.5711034550000005,0.7865298075000017,0.0399999889,0.0399999627,-9.821755550000006,-0.016804508771763833,-0.0008819556749883282,0.012967282100029516,-0.01651349607856257,0.0038339654250086888
0.41000000000000003,-0.0004926747520020918,-0.7845796599999995,-0.0006216810800020933,-2.3557827799999993,0.00011990967400008416,1.5711064400000003,0.7865412600000017,0.0399999892,0.0399999636,-9.821803400000007,-0.016916153207437893,-0.0008032301999882565,0.013166364800029697,-0.01659294702113857,0.0038925714000087423
0.41250000000000003,-0.0005066972425021045,-0.7845764499999995,-0.0006357140750021061,-2.355776599999999,0.00012047386750008468,1.5711094250000004,0.7865527125000017,0.0399999895,0.0399999645,-9.821851250000007,-0.017027797643111957,-0.0007245047249881849,0.013365447500029878,-0.016672397963714575,0.003951177375008796
0.41500000000000004,-0.0005207197330021173,-0.7845732399999995,-0.0006497470700021188,-2.355770419999999,0.0001210380610000852,1.5711124100000005,0.7865641650000018,0.039999989799999996,0.0399999654,-9.821899100000007,-0.017139442078786017,-0.0006457792499881131,0.01356453020003006,-0.016751848906290577,0.004009783350008849
0.4175,-0.0005352214755023481,-0.7845700634999995,-0.0006642584500023492,-2.355763904999999,0.00012162153250009447,1.5711154150000004,0.7865760080000019,0.03999999,0.0399999656,-9.82193265,-0.017230484355248588,-0.000567994805488472,0.013767187850031865,-0.016831266973179677,0.004069622200009463
0.42,-0.0005506817220023622,-0.7845669539999995,-0.0006797266000023634,-2.355756719999999,0.00012224356000009503,1.5711184600000003,0.786588632000002,0.03999999,0.0399999644,-9.8219376,-0.017280322313316294,-0.000492092421988403,0.013976995400032057,-0.016910619288695024,0.00413192680000952
0.4225,-0.0005661419685023762,-0.7845638444999995,-0.0006951947500023775,-2.355749534999999,0.0001228655875000956,1.5711215050000005,0.786601256000002,0.03999999,0.0399999632,-9.82194255,-0.017330160271384,-0.0004161900384883338,0.014186802950032247,-0.016989971604210372,0.004194231400009576
0.425,-0.0005816022150023903,-0.7845607349999996,-0.0007106629000023915,-2.355742349999999,0.00012348761500009618,1.5711245500000004,0.786613880000002,0.03999999,0.039999962,-9.8219475,-0.017379998229451705,-0.00034028765498826473,0.014396610500032438,-0.01706932391972572,0.004256536000009633
0.4275,-0.0005970624615024044,-0.7845576254999995,-0.0007261310500024056,-2.355735164999999,0.00012410964250009673,1.5711275950000005,0.786626504000002,0.03999999,0.0399999608,-9.82195245,-0.01742983618751941,-0.00026438527148819565,0.01460641805003263,-0.017148676235241068,0.0043188406000096895
0.43,-0.0006125227080024185,-0.7845545159999996,-0.0007415992000024197,-2.355727979999999,0.0001247316700000973,1.5711306400000005,0.786639128000002,0.03999999,0.0399999596,-9.8219574,-0.017479674145587116,-0.00018848288798812657,0.014816225600032821,-0.017228028550756412,0.004381145200009746
0.4325,-0.0006279829545024325,-0.7845514064999995,-0.0007570673500024339,-2.355720794999999,0.00012535369750009789,1.5711336850000004,0.786651752000002,0.03999999,0.0399999584,-9.82196235,-0.01752951210365482,-0.00011258050448805743,0.015026033150033011,-0.01730738086627176,0.004443449800009803
0.435,-0.0006444508630026858,-0.7845483489999996,-0.0007735412300026866,-2.3557129399999988,0.00012601619200010804,1.5711370800000006,0.7866651870000022,0.039999991,0.039999958,-9.821998300000008,-0.017607815936222404,-1.78533719835198e-05,0.015243011900034905,-0.01738851424307923,0.004507783600010341
0.4375,-0.0006614226025027012,-0.7845453174999996,-0.0007905179750027021,-2.355704749999999,0.00012669892000010866,1.5711406500000005,0.7866790275000023,0.0399999925,0.039999958,-9.822049750000009,-0.017700352706029827,8.628613501657498e-05,0.015463576250035105,-0.01747053815053213,0.004573132000010401
0.44,-0.0006783943420027168,-0.7845422859999995,-0.0008074947200027176,-2.355696559999999,0.00012738164800010928,1.5711442200000005,0.7866928680000023,0.039999994,0.039999958,-9.822101200000008,-0.01779288947583725,0.0001904256420166698,0.015684140600035305,-0.01755256205798503,0.00463848040001046
0.4425,-0.0006953660815027322,-0.7845392544999995,-0.000824471465002733,-2.355688369999999,0.0001280643760001099,1.5711477900000006,0.7867067085000022,0.0399999955,0.039999958,-9.822152650000008,-0.017885426245644678,0.0002945651490167646,0.015904704950035507,-0.01763458596543793,0.00470382880001052
0.445,-0.0007123378210027476,-0.7845362229999995,-0.0008414482100027484,-2.3556801799999985,0.00012874710400011052,1.5711513600000004,0.7867205490000023,0.039999997,0.039999958,-9.822204100000008,-0.0179779630154521,0.0003987046560168594,0.01612526930003571,-0.01771660987289083,0.00476917720001058
0.4475,-0.000729309560502763,-0.7845331914999994,-0.0008584249550027638,-2.3556719899999985,0.00012942983200011116,1.5711549300000005,0.7867343895000023,0.0399999985,0.039999958,-9.822255550000008,-0.018070499785259524,0.0005028441630169542,0.016345833650035908,-0.01779863378034373,0.004834525600010639
0.45,-0.0007462813000030379,-0.7845301599999995,-0.0008754017000030382,-2.3556637999999985,0.00013011256000012208,1.5711585000000006,0.7867482300000025,0.04,0.039999958,-9.822307000000004,-0.018163036555057178,0.0006069836700167799,0.016566398000037858,-0.01788065768779671,0.004899874000011037
0.4525,-0.0007648377505030549,-0.7845271959999995,-0.0008939600000030551,-2.355654574999998,0.00013085824300012276,1.5711623700000006,0.7867633755000025,0.04,0.039999961300000005,-9.822323950000003,-0.018195893615489636,0.0007094787345168731,0.016797639800038067,-0.017963173054172235,0.004967293150011099
0.455,-0.0007833942010030717,-0.7845242319999995,-0.000912518300003072,-2.3556453499999983,0.00013160392600012344,1.5711662400000006,0.7867785210000026,0.04,0.0399999646,-9.822340900000002,-0.01822875067592209,0.0008119737990169664,0.01702888160003828,-0.018045688420547757,0.00503471230001116
0.4575,-0.0008019506515030886,-0.7845212679999995,-0.000931076600003089,-2.3556361249999984,0.00013234960900012412,1.5711701100000006,0.7867936665000026,0.04,0.0399999679,-9.822357850000003,-0.018261607736354546,0.0009144688635170598,0.01726012340003849,-0.018128203786923282,0.005102131450011222
0.46,-0.0008205071020031054,-0.7845183039999996,-0.0009496349000031058,-2.3556268999999985,0.0001330952920001248,1.5711739800000006,0.7868088120000025,0.04,0.0399999712,-9.822374800000002,-0.018294464796787,0.0010169639280171532,0.0174913652000387,-0.018210719153298808,0.005169550600011283
0.4625,-0.0008390635525031224,-0.7845153399999996,-0.0009681932000031227,-2.3556176749999986,0.00013384097500012548,1.5711778500000007,0.7868239575000026,0.04,0.0399999745,-9.822391750000003,-0.018327321857219456,0.0011194589925172466,0.01772260700003891,-0.018293234519674333,0.005236969750011345
0.465,-0.0008576200030031393,-0.7845123759999996,-0.0009867515000031397,-2.3556084499999987,0.00013458665800012616,1.5711817200000007,0.7868391030000026,0.04,0.039999977799999996,-9.822408700000002,-0.01836017891765191,0.0012219540570173398,0.01795384880003912,-0.01837574988604986,0.005304388900011406
0.4675,-0.0008767289515034381,-0.7845094199999996,-0.0010058611500034379,-2.3555988549999984,0.00013535467950013822,1.5711856800000008,0.7868547000000028,0.04,0.039999979,-9.822437950000008,-0.018402916844944793,0.0013324962250215392,0.01818859485004112,-0.01845892267303114,0.005373277685012217
0.47000000000000003,-0.0008969428960034565,-0.7845064799999996,-0.0010260735000034563,-2.355588519999998,0.00013616737800013897,1.5711898200000007,0.7868712000000029,0.04,0.039999976,-9.822491800000009,-0.018465416505943428,0.0014591326000216545,0.01843034940004134,-0.018543410301222925,0.005445105740012283
0.47250000000000003,-0.0009171568405034749,-0.7845035399999996,-0.0010462858500034746,-2.3555781849999984,0.00013698007650013973,1.5711939600000007,0.7868877000000029,0.04,0.039999973,-9.82254565000001,-0.018527916166942066,0.0015857689750217697,0.018672103950041558,-0.018627897929414713,0.0055169337950123475
0.47500000000000003,-0.0009373707850034933,-0.7845005999999995,-0.001066498200003493,-2.355567849999998,0.00013779277500014045,1.5711981000000008,0.7869042000000028,0.04,0.039999969999999996,-9.82259950000001,-0.0185904158279407,0.001712405350021885,0.01891385850004178,-0.0187123855576065,0.005588761850012413
0.47750000000000004,-0.0009575847295035117,-0.7844976599999995,-0.0010867105500035113,-2.3555575149999983,0.0001386054735001412,1.5712022400000007,0.7869207000000028,0.04,0.039999967,-9.82265335000001,-0.01865291548893934,0.0018390417250220004,0.019155613050042,-0.01879687318579829,0.005660589905012479
0.48,-0.0009777986740035296,-0.7844947199999995,-0.0011069229000035294,-2.3555471799999985,0.00013941817200014193,1.5712063800000007,0.7869372000000029,0.04,0.039999964,-9.822707200000009,-0.018715415149937974,0.0019656781000221128,0.019397367600042213,-0.018881360813990073,0.005732417960012542
0.4825,-0.000998012618503548,-0.7844917799999995,-0.0011271352500035478,-2.3555368449999983,0.00014023087050014265,1.5712105200000008,0.7869537000000029,0.04,0.039999961,-9.82276105000001,-0.01877791481093661,0.0020923144750222278,0.019639122150042435,-0.01896584844218186,0.005804246015012607
0.485,-0.001019379570003672,-0.7844888649999996,-0.001148498060003671,-2.355525839999998,0.00014108983500014762,1.5712150100000009,0.786971124000003,0.04,0.0399999594,-9.822795000000005,-0.0187962369993322,0.0022244418800225698,0.01988785840004221,-0.019051611796035896,0.005878163100012544
0.4875,-0.0010413230250033926,-0.7844859624999996,-0.0011704361000033918,-2.355514499999998,0.0001419719325001364,1.5712196750000007,0.7869890100000028,0.04,0.0399999585,-9.822819000000004,-0.018792470451443742,0.002359314800020853,0.020140085500039,-0.01913801301272056,0.005953124700011589
0.49,-0.0010632664800031132,-0.7844830599999996,-0.0011923741400031126,-2.3555031599999983,0.00014285403000012514,1.5712243400000006,0.7870068960000025,0.04,0.0399999576,-9.822843000000004,-0.018788703903555286,0.0024941877200191356,0.020392312600035784,-0.01922441422940522,0.0060280863000106355
0.4925,-0.0010852099350028338,-0.7844801574999997,-0.0012143121800028331,-2.3554918199999983,0.00014373612750011392,1.5712290050000006,0.7870247820000024,0.04,0.0399999567,-9.822867000000004,-0.018784937355666827,0.0026290606400174183,0.020644539700032574,-0.01931081544608988,0.006103047900009681
0.495,-0.0011071533900025546,-0.7844772549999997,-0.0012362502200025539,-2.355480479999999,0.0001446182250001027,1.5712336700000005,0.7870426680000021,0.04,0.0399999558,-9.822891000000002,-0.018781170807778372,0.002763933560015701,0.020896766800029363,-0.01939721666277454,0.006178009500008727
0.4975,-0.0011290968450022752,-0.7844743524999996,-0.0012581882600022746,-2.355469139999999,0.00014550032250009145,1.5712383350000005,0.7870605540000019,0.04,0.039999954899999995,-9.822915000000002,-0.018777404259889916,0.002898806480013984,0.021148993900026152,-0.019483617879459198,0.006252971100007772
0.5,-0.0011510403000021595,-0.7844714499999997,-0.0012801263000021587,-2.3554577999999986,0.0001463824200000868,1.5712430000000004,0.7870784400000018,0.04,0.039999954,-9.822939000000005,-0.01877363771200593,0.003033679400013513,0.021401221000023892,-0.019570019096144,0.0063279327000070745
0.5025000000000001,-0.0011747845950028295,-0.7844685534999997,-0.0013038612050028284,-2.3554452299999986,0.00014733681300011374,1.5712479050000006,0.7870978050000024,0.039999997600000003,0.0399999504,-9.823003500000008,-0.01881902627647463,0.0031822544450177052,0.021663889450031303,-0.01965799331666079,0.00640571704500927
0.505,-0.0011985288900034986,-0.7844656569999995,-0.001327596110003497,-2.355432659999998,0.00014829120600014063,1.5712528100000007,0.7871171700000029,0.0399999952,0.0399999468,-9.82306800000001,-0.01886441484094333,0.003330829490021891,0.021926557900038703,-0.019745967537177573,0.006483501390011461
0.5075000000000001,-0.0012222731850041685,-0.7844627604999994,-0.0013513310150041668,-2.3554200899999977,0.00014924559900016755,1.5712577150000009,0.7871365350000035,0.0399999928,0.0399999432,-9.82313250000001,-0.018909803405412026,0.0034794045350260835,0.022189226350046113,-0.01983394175769436,0.006561285735013656
0.51,-0.0012460174800048374,-0.7844598639999993,-0.0013750659200048355,-2.3554075199999973,0.00015019999200019445,1.571262620000001,0.787155900000004,0.039999990400000004,0.0399999396,-9.823197000000013,-0.018955191969880728,0.0036279795800302694,0.022451894800053513,-0.019921915978211142,0.006639070080015848
0.5125,-0.0012697617750055063,-0.7844569674999993,-0.0013988008250055042,-2.355394949999997,0.00015115438500022134,1.571267525000001,0.7871752650000046,0.039999988,0.039999936,-9.823261500000015,-0.019000580534349425,0.003776554625034455,0.022714563250060913,-0.02000989019872793,0.0067168544250180385
0.515,-0.0012935060700061765,-0.7844540709999992,-0.001422535730006174,-2.3553823799999964,0.00015210877800024826,1.5712724300000012,0.7871946300000051,0.0399999856,0.0399999324,-9.823326000000016,-0.019045969098818127,0.003925129670038647,0.022977231700068323,-0.020097864419244715,0.006794638770020234
0.5175,-0.0013178741150070353,-0.7844511714999992,-0.0014468929850070316,-2.355369439999996,0.0001530882495002828,1.5712774650000014,0.7872145030000057,0.039999984,0.0399999295,-9.823375750000006,-0.01906482055782325,0.004079545265045619,0.023243286050074932,-0.02018657652663677,0.006873386100022157
0.52,-0.0013434896600067099,-0.7844482659999992,-0.0014724949400067061,-2.355355759999996,0.0001541178780002697,1.5712827600000012,0.7872353920000055,0.039999984,0.039999928000000004,-9.823396000000004,-0.019030597805967834,0.004245641960043508,0.02351611220007146,-0.020276764407777526,0.006954059400021132
0.5225,-0.0013691052050063832,-0.7844453604999992,-0.0014980968950063795,-2.3553420799999967,0.00015514750650025657,1.5712880550000012,0.7872562810000052,0.039999984,0.039999926500000005,-9.823416250000005,-0.018996375054112422,0.004411738655041389,0.023788938350067984,-0.020366952288918275,0.007034732700020103
0.525,-0.0013947207500060576,-0.7844424549999993,-0.0015236988500060542,-2.3553283999999968,0.00015617713500024348,1.5712933500000013,0.787277170000005,0.039999984,0.039999925,-9.823436500000005,-0.018962152302257007,0.0045778353500392785,0.024061764500064517,-0.020457140170059028,0.007115406000019077
0.5275,-0.001420336295005731,-0.7844395494999994,-0.0015493008050057276,-2.355314719999997,0.00015720676350023036,1.571298645000001,0.7872980590000047,0.039999984,0.0399999235,-9.823456750000004,-0.018927929550401592,0.00474393204503716,0.024334590650061036,-0.020547328051199777,0.007196079300018048
0.53,-0.0014459518400054053,-0.7844366439999994,-0.0015749027600054023,-2.355301039999997,0.00015823639200021727,1.571303940000001,0.7873189480000045,0.039999984,0.039999922,-9.823477000000004,-0.01889370679854618,0.004910028740035049,0.02460741680005757,-0.020637515932340533,0.007276752600017023
0.5325,-0.0014715673850050786,-0.7844337384999994,-0.0016005047150050758,-2.355287359999997,0.00015926602050020416,1.5713092350000009,0.7873398370000042,0.039999984,0.0399999205,-9.823497250000004,-0.018859484046690765,0.005076125435032931,0.02488024295005409,-0.020727703813481282,0.007357425900015994
0.535,-0.0014984769500053638,-0.7844308329999995,-0.00162739767000536,-2.355272859999997,0.00016034753000021556,1.571314870000001,0.7873617770000044,0.0399999846,0.0399999205,-9.823549200000013,-0.018858782202008446,0.005251691080035094,0.025159849200055085,-0.020819329284149455,0.007439990400016254
0.5375,-0.0015260335250053883,-0.7844279274999995,-0.0016549361250053846,-2.355257949999997,0.00016145498000021656,1.571320675000001,0.7873842425000044,0.0399999855,0.03999992125,-9.823617000000013,-0.01887484081089804,0.005431991200035255,0.025442845500055336,-0.020911673549580706,0.0075235005000163285
0.54,-0.001553590100005414,-0.7844250219999994,-0.0016824745800054102,-2.355243039999997,0.00016256243000021758,1.571326480000001,0.7874067080000045,0.0399999864,0.039999922,-9.823684800000013,-0.018890899419787634,0.005612291320035423,0.025725841800055597,-0.021004017815011964,0.007607010600016406
0.5425,-0.0015811466750054383,-0.7844221164999995,-0.0017100130350054348,-2.355228129999997,0.00016366988000021858,1.571332285000001,0.7874291735000044,0.0399999873,0.03999992275,-9.823752600000013,-0.01890695802867723,0.005792591440035583,0.026008838100055852,-0.021096362080443215,0.007690520700016481
0.545,-0.001608703250005464,-0.7844192109999994,-0.0017375514900054604,-2.355213219999997,0.0001647773300002196,1.5713380900000011,0.7874516390000045,0.0399999882,0.0399999235,-9.823820400000013,-0.018923016637566823,0.005972891560035751,0.026291834400056113,-0.02118870634587447,0.0077740308000165586
0.5475,-0.0016362598250054886,-0.7844163054999994,-0.001765089945005485,-2.355198309999997,0.0001658847800002206,1.5713438950000012,0.7874741045000044,0.0399999891,0.03999992425,-9.823888200000015,-0.018939075246456417,0.006153191680035912,0.026574830700056368,-0.021281050611305724,0.007857540900016632
0.55,-0.0016638164000059164,-0.7844133999999995,-0.001792628400005912,-2.355183399999997,0.00016699223000023774,1.5713497000000014,0.7874965700000047,0.03999999,0.039999925,-9.823956000000004,-0.018955133855328984,0.006333491800037856,0.026857827000058624,-0.021373394876737225,0.007941051000017293
0.5525,-0.0016933826150059427,-0.7844104599999995,-0.0018221718300059381,-2.3551672299999966,0.0001681803530002388,1.5713558950000013,0.7875206735000048,0.03999999,0.03999992425,-9.823975950000005,-0.018886089324937235,0.006522671530038025,0.027150778950058883,-0.021466975193489495,0.00802747290001737
0.555,-0.0017229488300059702,-0.7844075199999995,-0.0018517152600059656,-2.3551510599999967,0.0001693684760002399,1.5713620900000014,0.7875447770000048,0.03999999,0.0399999235,-9.823995900000005,-0.018817044794545486,0.006711851260038201,0.027443730900059155,-0.021560555510241768,0.00811389480001745
0.5575,-0.0017525150450059964,-0.7844045799999995,-0.001881258690005992,-2.355134889999997,0.00017055659900024097,1.5713682850000013,0.7875688805000048,0.03999999,0.03999992275,-9.824015850000006,-0.01874800026415374,0.006901030990038369,0.027736682850059417,-0.021654135826994034,0.008200316700017527
0.56,-0.0017820812600060241,-0.7844016399999995,-0.0019108021200060195,-2.355118719999997,0.00017174472200024208,1.5713744800000014,0.7875929840000049,0.03999999,0.039999922,-9.824035800000004,-0.018678955733761993,0.007090210720038546,0.02802963480005969,-0.021747716143746307,0.008286738600017609
0.5625,-0.0018116474750060503,-0.7843986999999994,-0.0019403455500060457,-2.3551025499999967,0.00017293284500024313,1.5713806750000012,0.7876170875000049,0.03999999,0.03999992125,-9.824055750000005,-0.018609911203370248,0.007279390450038713,0.02832258675005995,-0.021841296460498576,0.008373160500017685
0.5650000000000001,-0.0018412136900060778,-0.7843957599999994,-0.001969888980006073,-2.355086379999997,0.00017412096800024424,1.5713868700000013,0.787641191000005,0.03999999,0.0399999205,-9.824075700000005,-0.018540866672978495,0.00746857018003889,0.02861553870006022,-0.021934876777250846,0.008459582400017766
0.5675,-0.0018714724250065331,-0.7843928069999995,-0.0020001232200065277,-2.3550698199999966,0.00017533689400026252,1.5713931750000014,0.7876658570000054,0.03999999025,0.03999991985,-9.824109200000013,-0.018489393126216128,0.007665688350043975,0.028911779000062518,-0.022029173560460216,0.00854699880001846
0.5700000000000001,-0.0019031162000065626,-0.7843898279999995,-0.002031739080006557,-2.355052479999997,0.0001766084260002637,1.5713997000000013,0.7876916480000054,0.039999991,0.0399999194,-9.824169800000012,-0.018473061546679912,0.007878683400044174,0.029214596000062803,-0.022124903276582453,0.008636404200018542
0.5725,-0.0019347599750065907,-0.7843868489999994,-0.002063354940006585,-2.3550351399999965,0.00017787995800026482,1.5714062250000014,0.7877174390000053,0.03999999175,0.039999918950000005,-9.824230400000014,-0.0184567299671437,0.008091678450044363,0.02951741300006307,-0.022220632992704686,0.008725809600018621
0.5750000000000001,-0.0019664037500066204,-0.7843838699999994,-0.0020949708000066146,-2.3550177999999966,0.000179151490000266,1.5714127500000015,0.7877432300000055,0.039999992500000005,0.0399999185,-9.824291000000013,-0.018440398387607485,0.008304673500044562,0.029820230000063352,-0.022316362708826927,0.008815215000018705
0.5775,-0.0019980475250066486,-0.7843808909999994,-0.0021265866600066424,-2.3550004599999963,0.00018042302200026714,1.5714192750000013,0.7877690210000055,0.039999993250000004,0.03999991805,-9.824351600000012,-0.01842406680807127,0.00851766855004475,0.03012304700006362,-0.02241209242494916,0.008904620400018784
0.58,-0.0020296913000066763,-0.7843779119999994,-0.0021582025200066707,-2.3549831199999964,0.00018169455400026828,1.5714258000000014,0.7877948120000055,0.039999994000000004,0.039999917600000004,-9.824412200000014,-0.018407735228535053,0.00873066360004494,0.03042586400006389,-0.022507822141071398,0.008994025800018863
0.5825,-0.002061335075006706,-0.7843749329999994,-0.0021898183800067,-2.3549657799999966,0.00018296608600026947,1.5714323250000015,0.7878206030000054,0.039999994750000004,0.03999991715,-9.824472800000013,-0.018391403648998838,0.008943658650045138,0.03072868100006417,-0.022603551857193635,0.009083431200018947
0.585,-0.0020944082300071902,-0.7843719159999994,-0.002222860210007183,-2.3549475499999963,0.0001842950240002889,1.5714391800000016,0.7878475600000059,0.0399999955,0.0399999173,-9.824526200000012,-0.018315736204363324,0.009164608500047867,0.031037971000066507,-0.0227013804018707,0.009174556550019575
0.5875,-0.002128196075007222,-0.7843688799999994,-0.0022566150250072146,-2.354928874999996,0.00018565266500029018,1.5714462000000016,0.7878751000000059,0.03999999625,0.03999991775,-9.824576000000011,-0.018210400827206485,0.009389535750048077,0.0313504975000668,-0.022800258360824183,0.00926654187501966
0.59,-0.002161983920007252,-0.7843658439999994,-0.0022903698400072448,-2.354910199999996,0.0001870103060002914,1.5714532200000015,0.7879026400000059,0.039999997,0.039999918200000005,-9.82462580000001,-0.01810506545004965,0.009614463000048276,0.031663024000067076,-0.02289913631977766,0.009358527200019742
0.5925,-0.0021957717650072837,-0.7843628079999994,-0.002324124655007276,-2.354891524999996,0.00018836794700029266,1.5714602400000015,0.7879301800000059,0.03999999775,0.03999991865,-9.824675600000011,-0.017999730072892812,0.009839390250048485,0.03197555050006737,-0.022998014278731143,0.00945051252501983
0.595,-0.0022295596100073136,-0.7843597719999994,-0.0023578794700073063,-2.354872849999996,0.00018972558800029384,1.5714672600000017,0.787957720000006,0.0399999985,0.0399999191,-9.82472540000001,-0.01789439469573598,0.010064317500048686,0.032288077000067646,-0.023096892237684623,0.00954249785001991
0.5975,-0.002263347455007345,-0.7843567359999993,-0.0023916342850073377,-2.354854174999996,0.0001910832290002951,1.5714742800000017,0.7879852600000059,0.03999999925,0.03999991955,-9.824775200000012,-0.01778905931857914,0.010289244750048896,0.03260060350006794,-0.023195770196638103,0.009634483175019996
0.6,-0.002297135300007857,-0.7843536999999994,-0.002425389100007849,-2.3548354999999956,0.00019244087000031568,1.5714813000000016,0.7880128000000064,0.04,0.03999992,-9.824825000000008,-0.017683723941425804,0.010514172000051426,0.032913130000070304,-0.023294648155591877,0.009726468500020735
0.6025,-0.002333132960007891,-0.7843505949999994,-0.0024613483450078824,-2.3548155799999955,0.00019388719850031702,1.5714888300000018,0.7880421355000063,0.04,0.03999991895,-9.824859800000008,-0.017594402749071755,0.010749781500051646,0.033235240300070606,-0.023394888453207502,0.009821469425020825
0.605,-0.0023691306200079227,-0.7843474899999994,-0.0024973075900079143,-2.3547956599999957,0.0001953335270003183,1.5714963600000018,0.7880714710000064,0.04,0.0399999179,-9.824894600000007,-0.01750508155671771,0.010985391000051855,0.033557350600070895,-0.023495128750823123,0.009916470350020908
0.6075,-0.0024051282800079564,-0.7843443849999994,-0.002533266835007948,-2.3547757399999956,0.00019677985550031965,1.5715038900000018,0.7881008065000065,0.04,0.03999991685,-9.824929400000007,-0.017415760364363663,0.011221000500052074,0.03387946090007119,-0.023595369048438744,0.010011471275020997
0.61,-0.0024411259400079883,-0.7843412799999993,-0.00256922608000798,-2.3547558199999954,0.00019822618400032094,1.5715114200000018,0.7881301420000065,0.04,0.0399999158,-9.824964200000007,-0.017326439172009617,0.011456610000052284,0.03420157120007148,-0.023695609346054365,0.010106472200021081
0.6125,-0.002477123600008022,-0.7843381749999992,-0.0026051853250080134,-2.3547358999999957,0.00019967251250032229,1.5715189500000017,0.7881594775000065,0.04,0.03999991475,-9.824999000000007,-0.017237117979655568,0.011692219500052503,0.034523681500071776,-0.023795849643669986,0.01020147312502117
0.615,-0.002513121260008054,-0.7843350699999992,-0.0026411445700080453,-2.3547159799999955,0.00020111884100032358,1.5715264800000017,0.7881888130000065,0.04,0.0399999137,-9.825033800000007,-0.017147796787301526,0.011927829000052714,0.034845791800072065,-0.023896089941285607,0.010296474050021254
0.6175,-0.002549877065008598,-0.7843319399999993,-0.0026778601050085884,-2.354695584999995,0.00020259563650034545,1.5715341650000019,0.788218765000007,0.04,0.03999991285,-9.825082500000017,-0.017066086083635593,0.012171439000058326,0.03517103340007448,-0.023997168149822175,0.010392374100021948
0.62,-0.0025881491600086323,-0.7843287599999993,-0.0027160882200086226,-2.354674239999995,0.00020413336600034684,1.571542160000002,0.7882499500000071,0.04,0.0399999124,-9.825159000000017,-0.01699959635733052,0.012431050000058556,0.03550253760007477,-0.02409992218019894,0.010490072400022036
0.6225,-0.002626421255008668,-0.7843255799999993,-0.002754316335008658,-2.354652894999995,0.00020567109550034826,1.5715501550000017,0.7882811350000071,0.04,0.03999991195,-9.825235500000018,-0.01693310663102545,0.012690661000058797,0.03583404180007508,-0.024202676210575702,0.010587770700022127
0.625,-0.0026646933500087022,-0.7843223999999992,-0.0027925444500086923,-2.3546315499999952,0.00020720882500034962,1.5715581500000018,0.7883123200000071,0.04,0.0399999115,-9.825312000000016,-0.016866616904720383,0.012950272000059028,0.03616554600007538,-0.024305430240952466,0.010685469000022214
0.6275000000000001,-0.0027029654450087376,-0.7843192199999992,-0.002830772565008728,-2.354610204999995,0.00020874655450035107,1.5715661450000018,0.7883435050000072,0.04,0.039999911049999996,-9.825388500000017,-0.01680012717841531,0.01320988300005927,0.03649705020007568,-0.02440818427132923,0.010783167300022305
0.63,-0.0027412375400087717,-0.7843160399999992,-0.0028690006800087616,-2.354588859999995,0.00021028428400035243,1.5715741400000018,0.7883746900000072,0.04,0.0399999106,-9.825465000000017,-0.01673363745211024,0.013469494000059501,0.03682855440007598,-0.024510938301705993,0.010880865600022391
0.6325000000000001,-0.0027795096350088076,-0.7843128599999992,-0.0029072287950087975,-2.354567514999995,0.00021182201350035388,1.5715821350000017,0.7884058750000073,0.04,0.03999991015,-9.825541500000018,-0.01666714772580517,0.013729105000059742,0.03716005860007629,-0.024613692332082757,0.010978563900022482
0.635,-0.002819340260009751,-0.7843096299999992,-0.002947011610009739,-2.3545451899999943,0.0002134224360003918,1.571590450000002,0.788438317000008,0.04,0.039999909199999996,-9.825583400000005,-0.016534023545642394,0.013994739600064504,0.03749771970008182,-0.024717647209788595,0.011078005000024085
0.6375000000000001,-0.0028599501500103427,-0.7843063749999992,-0.0029875717750103303,-2.354522374999994,0.0002150542050004156,1.571598925000002,0.7884713875000084,0.04,0.039999908,-9.825608000000006,-0.01636758213858531,0.01426338600006842,0.03783845925008678,-0.024822202511158353,0.011178317500025547
0.64,-0.002900560040010933,-0.7843031199999991,-0.0030281319400109197,-2.3544995599999936,0.0002166859740004393,1.5716074000000022,0.7885044580000089,0.04,0.0399999068,-9.825632600000006,-0.01620114073152823,0.014532032400072323,0.03817919880009173,-0.024926757812528108,0.011278630000027006
0.6425,-0.002941169930011523,-0.784299864999999,-0.003068692105011509,-2.3544767449999933,0.000218317743000463,1.5716158750000024,0.7885375285000094,0.04,0.039999905599999996,-9.825657200000006,-0.016034699324471154,0.014800678800076227,0.038519938350096684,-0.025031313113897863,0.011378942500028463
0.645,-0.002981779820012115,-0.7842966099999991,-0.0031092522700121,-2.354453929999993,0.0002199495120004868,1.5716243500000024,0.7885705990000098,0.04,0.039999904399999994,-9.825681800000007,-0.01586825791741407,0.015069325200080141,0.03886067790010165,-0.02513586841526762,0.011479255000029925
0.6475,-0.0030223897100127048,-0.784293354999999,-0.0031498124350126896,-2.3544311149999926,0.0002215812810005105,1.5716328250000027,0.7886036695000103,0.04,0.0399999032,-9.825706400000007,-0.01570181651035699,0.015337971600084046,0.0392014174501066,-0.025240423716637376,0.011579567500031383
0.65,-0.0030629996000140825,-0.7842900999999989,-0.0031903726000140644,-2.354408299999992,0.00022321305000056594,1.571641300000003,0.7886367400000114,0.04,0.039999902,-9.825731000000015,-0.015535375103320485,0.01560661800009674,0.03954215700011457,-0.025344979018007686,0.011679880000033687
0.6525,-0.003106009655013534,-0.784286739999999,-0.003233326990013517,-2.354384044999992,0.0002249414295005439,1.5716503000000028,0.788671778500011,0.04,0.0399999017,-9.825780950000015,-0.01543179042634083,0.015902075250092972,0.03989206395011011,-0.025451220478895906,0.011782763800032375
0.655,-0.0031490197100129875,-0.784283379999999,-0.0032762813800129706,-2.3543597899999926,0.0002266698090005219,1.5716593000000028,0.7887068170000106,0.04,0.039999901399999996,-9.825830900000014,-0.015328205749361171,0.016197532500089217,0.04024197090010566,-0.025557461939784133,0.011885647600031067
0.6575,-0.0031920297650124387,-0.7842800199999991,-0.003319235770012423,-2.354335534999993,0.00022839818850049987,1.5716683000000027,0.7887418555000101,0.04,0.0399999011,-9.825880850000015,-0.015224621072381516,0.016492989750085448,0.040591877850101196,-0.025663703400672352,0.011988531400029756
0.66,-0.003235039820011892,-0.7842766599999991,-0.0033621901600118767,-2.3543112799999935,0.0002301265680004779,1.5716773000000024,0.7887768940000096,0.04,0.039999900799999995,-9.825930800000014,-0.015121036395401858,0.016788447000081693,0.04094178480009675,-0.025769944861560576,0.012091415200028448
0.6625,-0.0032780498750113437,-0.7842732999999992,-0.003405144550011329,-2.354287024999994,0.00023185494750045587,1.5716863000000023,0.7888119325000091,0.04,0.0399999005,-9.825980750000014,-0.015017451718422205,0.017083904250077924,0.041291691750092285,-0.025876186322448796,0.012194299000027135
0.665,-0.003321059930010797,-0.7842699399999992,-0.003448098940010783,-2.354262769999994,0.00023358332700043388,1.5716953000000022,0.7888469710000088,0.04,0.0399999002,-9.826030700000013,-0.014913867041442546,0.01737936150007417,0.04164159870008784,-0.02598242778333702,0.012297182800025827
0.6675,-0.0033648904100110413,-0.7842665499999992,-0.0034918716850110268,-2.354238074999994,0.00023534467600044373,1.5717044750000022,0.788882680500009,0.04,0.0399999,-9.82607555000001,-0.01477507734666148,0.01767751840007371,0.04199444600008711,-0.026089376676853918,0.012400895850025588
0.67,-0.003410361740011084,-0.7842630999999992,-0.003537281140011069,-2.354212499999994,0.00023717196400044544,1.5717140000000023,0.788919732000009,0.04,0.0399999,-9.82611020000001,-0.014565877616354425,0.017981074600073994,0.042353174000087444,-0.026197740435626636,0.012506267400025686
0.6725,-0.0034558330700111242,-0.7842596499999992,-0.0035826905950111093,-2.354186924999994,0.00023899925200044703,1.5717235250000023,0.7889567835000091,0.04,0.0399999,-9.82614485000001,-0.01435667788604738,0.018284630800074263,0.042711902000087766,-0.026306104194399348,0.01261163895002578
0.675,-0.0035013044000111668,-0.7842561999999992,-0.003628100050011152,-2.354161349999994,0.00024082654000044874,1.5717330500000024,0.7889938350000091,0.04,0.0399999,-9.82617950000001,-0.014147478155740325,0.018588187000074547,0.0430706300000881,-0.026414467953172063,0.012717010500025877
0.6775,-0.003546775730011207,-0.7842527499999992,-0.003673509505011192,-2.354135774999994,0.00024265382800045036,1.5717425750000023,0.7890308865000091,0.04,0.0399999,-9.826214150000009,-0.013938278425433279,0.018891743200074817,0.04342935800008842,-0.026522831711944774,0.012822382050025971
0.68,-0.0035922470600112497,-0.7842492999999991,-0.0037189189600112344,-2.354110199999994,0.0002444811160004521,1.5717521000000023,0.7890679380000092,0.04,0.0399999,-9.826248800000009,-0.013729078695126223,0.0191952994000751,0.04378808600008875,-0.02663119547071749,0.012927753600026069
0.6825,-0.00363771839001129,-0.7842458499999991,-0.003764328415011275,-2.3540846249999934,0.0002463084040004537,1.5717616250000024,0.7891049895000092,0.04,0.0399999,-9.826283450000009,-0.013519878964819178,0.01949885560007537,0.044146814000089074,-0.0267395592294902,0.013033125150026163
0.685,-0.003684870420011961,-0.7842423349999992,-0.003811414340011944,-2.354058009999993,0.00024820323800048066,1.5717715000000025,0.7891433960000097,0.0399999995,0.039999898699999994,-9.82634790000002,-0.01335499379780307,0.019818314500081598,0.044511339500091576,-0.026849603466717175,0.013140154300026881
0.6875,-0.0037328628000120032,-0.7842387874999991,-0.003859338500011986,-2.354030874999993,0.00025013184500048235,1.5717815500000025,0.7891824800000098,0.03999999875,0.03999989675,-9.82642725000002,-0.013212265912407652,0.02014572475008189,0.0448787637500919,-0.026960487943170335,0.013248012250026977
0.6900000000000001,-0.003780855180012048,-0.7842352399999991,-0.003907262660012031,-2.3540037399999933,0.00025206045200048416,1.5717916000000025,0.7892215640000098,0.039999998,0.0399998948,-9.82650660000002,-0.01306953802701223,0.020473135000082195,0.04524618800009224,-0.027071372419623495,0.013355870200027077
0.6925,-0.0038288475600120908,-0.7842316924999991,-0.003955186820012073,-2.353976604999993,0.00025398905900048585,1.5718016500000025,0.7892606480000098,0.03999999725,0.039999892849999996,-9.82658595000002,-0.012926810141616812,0.020800545250082486,0.04561361225009257,-0.027182256896076656,0.013463728150027172
0.6950000000000001,-0.0038768399400121354,-0.784228144999999,-0.004003110980012118,-2.353949469999993,0.00025591766600048765,1.5718117000000025,0.7892997320000099,0.0399999965,0.039999890899999994,-9.82666530000002,-0.01278408225622139,0.02112795550008279,0.04598103650009291,-0.02729314137252982,0.013571586100027273
0.6975,-0.003924832320012178,-0.7842245974999991,-0.00405103514001216,-2.3539223349999934,0.0002578462730004894,1.5718217500000025,0.7893388160000099,0.03999999575,0.03999988895,-9.82674465000002,-0.012641354370825973,0.021455365750083083,0.04634846075009323,-0.027404025848982976,0.013679444050027368
0.7000000000000001,-0.00397282470001288,-0.7842210499999991,-0.004098959300012861,-2.353895199999993,0.0002597748800005176,1.5718318000000027,0.7893779000000104,0.039999995,0.039999887,-9.826824000000004,-0.012498626485402056,0.021782776000087063,0.046715885000095776,-0.027514910325436553,0.013787302000028102
0.7025,-0.004023396840012925,-0.7842173824999991,-0.004149456560012906,-2.3538664749999927,0.00026180722550051943,1.5718423900000027,0.7894190750000105,0.03999999575,0.03999988745,-9.826838100000003,-0.012244019471043784,0.022124620600087366,0.04709194175009611,-0.02762741725894697,0.0138976430500282
0.705,-0.00407396898001297,-0.784213714999999,-0.00419995382001295,-2.3538377499999927,0.0002638395710005212,1.5718529800000027,0.7894602500000105,0.0399999965,0.0399998879,-9.826852200000003,-0.011989412456685514,0.02246646520008767,0.04746799850009644,-0.027739924192457383,0.014007984100028298
0.7075,-0.004124541120013017,-0.784210047499999,-0.004250451080012998,-2.353809024999993,0.0002658719165005231,1.5718635700000028,0.7895014250000106,0.03999999725,0.03999988835,-9.826866300000002,-0.011734805442327231,0.02280830980008799,0.047844055250096794,-0.027852431125967803,0.0141183251500284
0.71,-0.004175113260013062,-0.7842063799999991,-0.004300948340013043,-2.353780299999993,0.0002679042620005249,1.5718741600000028,0.7895426000000106,0.039999998,0.0399998888,-9.826880400000004,-0.01148019842796896,0.023150154400088295,0.048220112000097126,-0.02796493805947822,0.0142286662000285
0.7125,-0.004225685400013109,-0.7842027124999991,-0.004351445600013089,-2.3537515749999924,0.0002699366075005268,1.5718847500000026,0.7895837750000106,0.03999999875,0.039999889250000004,-9.826894500000003,-0.011225591413610677,0.023491999000088613,0.04859616875009748,-0.02807744499298864,0.014339007250028603
0.715,-0.004276257540013154,-0.784199044999999,-0.004401942860013134,-2.3537228499999925,0.00027196895300052857,1.5718953400000026,0.7896249500000108,0.0399999995,0.039999889700000006,-9.826908600000003,-0.010970984399252405,0.023833843600088916,0.04897222550009781,-0.028189951926499056,0.0144493483000287
0.7175,-0.004327708710013889,-0.784195334999999,-0.004453317080013869,-2.3536936549999923,0.00027403662600055816,1.571906105000003,0.7896668425000113,0.04,0.039999889500000003,-9.826937400000014,-0.010740068089168971,0.024183884900095654,0.049351107000100376,-0.02830306021499637,0.01456046330002941
0.72,-0.004380917940013937,-0.784191539999999,-0.0045064452200139155,-2.353663519999992,0.00027617495400056004,1.571917220000003,0.7897101700000114,0.04,0.039999888000000004,-9.826995600000014,-0.010556533187579648,0.02455031960009598,0.04973563800010072,-0.02841737121346606,0.01467312620002951
0.7225,-0.004434127170013987,-0.784187744999999,-0.004559573360013965,-2.353633384999992,0.00027831328200056204,1.5719283350000028,0.7897534975000114,0.04,0.039999886500000005,-9.827053800000014,-0.010372998285990318,0.024916754300096322,0.05012016900010108,-0.02853168221193576,0.014785789100029615
0.725,-0.004487336400014034,-0.784183949999999,-0.004612701500014012,-2.353603249999992,0.0002804516100005639,1.571939450000003,0.7897968250000115,0.04,0.039999885,-9.827112000000016,-0.010189463384400995,0.025283189000096646,0.05050470000010142,-0.028645993210405448,0.014898452000029715
0.7275,-0.0045405456300140834,-0.784180154999999,-0.0046658296400140615,-2.353573114999992,0.0002825899380005659,1.571950565000003,0.7898401525000115,0.04,0.0399998835,-9.827170200000015,-0.010005928482811663,0.025649623700096987,0.05088923100010178,-0.028760304208875147,0.01501111490002982
0.73,-0.0045937548600141305,-0.784176359999999,-0.004718957780014109,-2.353542979999992,0.00028472826600056786,1.571961680000003,0.7898834800000115,0.04,0.039999882,-9.827228400000015,-0.00982239358122234,0.026016058400097315,0.05127376200010212,-0.028874615207344835,0.01512377780002992
0.7325,-0.00464696409001418,-0.784172564999999,-0.004772085920014158,-2.3535128449999916,0.00028686659400056986,1.571972795000003,0.7899268075000115,0.04,0.0399998805,-9.827286600000015,-0.00963885867963301,0.026382493100097656,0.051658293000102475,-0.028988926205814534,0.015236440700030024
0.735,-0.004701968910014947,-0.784168689999999,-0.004827005070014924,-2.3534815999999914,0.00028907717900060074,1.5719842900000032,0.7899715950000122,0.04,0.0399998804,-9.827335700000011,-0.00937667228273427,0.02675531330010054,0.05204824400010499,-0.02910507284107952,0.015350705100030768
0.7375,-0.004757871525015,-0.7841647749999989,-0.004882819725014976,-2.3534497999999915,0.00029132389250060284,1.5719959750000032,0.7900171125000123,0.04,0.039999881,-9.827380250000012,-0.009075160138228025,0.027131326250100892,0.052440905000105356,-0.02922213729474106,0.015465770250030875
0.74,-0.004813774140015049,-0.784160859999999,-0.004938634380015025,-2.353417999999991,0.00029357060600060484,1.5720076600000032,0.7900626300000123,0.04,0.0399998816,-9.827424800000012,-0.008773647993721791,0.027507339200101226,0.052833566000105706,-0.029339201748402596,0.015580835400030977
0.7425,-0.0048696767550151015,-0.784156944999999,-0.004994449035015077,-2.353386199999991,0.00029581731950060694,1.5720193450000033,0.7901081475000123,0.04,0.0399998822,-9.827469350000012,-0.008472135849215546,0.027883352150101577,0.053226227000106076,-0.029456266202064135,0.015695900550031085
0.745,-0.004925579370015151,-0.7841530299999989,-0.005050263690015128,-2.3533543999999913,0.00029806403300060893,1.5720310300000033,0.7901536650000124,0.04,0.0399998828,-9.827513900000012,-0.008170623704709312,0.02825936510010191,0.053618888000106425,-0.02957333065572567,0.015810965700031186
0.7475,-0.004981481985015203,-0.784149114999999,-0.00510607834501518,-2.3533225999999914,0.00030031074650061103,1.5720427150000034,0.7901991825000124,0.04,0.0399998834,-9.827558450000012,-0.007869111560203066,0.028635378050102262,0.05401154900010679,-0.02969039510938721,0.015926030850031293
0.75,-0.005037384600016003,-0.7841451999999989,-0.005161893000015977,-2.3532907999999906,0.00030255746000064316,1.5720544000000034,0.790244700000013,0.04,0.039999884,-9.827603000000014,-0.0075675994157171165,0.02901139100011026,0.05440421000010934,-0.029807459563049178,0.01604109600003199
0.7525000000000001,-0.005096035260016058,-0.7841411199999989,-0.005220448650016031,-2.3532573799999907,0.0003049146200006454,1.5720666250000035,0.790292445000013,0.04,0.0399998834,-9.827656700000015,-0.0073404269292328544,0.029415499400110637,0.05480494040010971,-0.029926122166248775,0.0161583334500321
0.755,-0.005154685920016109,-0.7841370399999988,-0.0052790043000160835,-2.353223959999991,0.0003072717800006474,1.5720788500000034,0.7903401900000131,0.04,0.0399998828,-9.827710400000015,-0.007113254442748603,0.029819607800110996,0.05520567080011007,-0.030044784769448364,0.0162755709000322
0.7575000000000001,-0.005213336580016164,-0.7841329599999989,-0.005337559950016138,-2.3531905399999906,0.00030962894000064964,1.5720910750000034,0.7903879350000131,0.04,0.0399998822,-9.827764100000016,-0.006886081956264341,0.030223716200111373,0.05560640120011044,-0.030163447372647957,0.01639280835003231
0.76,-0.005271987240016216,-0.7841288799999988,-0.00539611560001619,-2.3531571199999908,0.00031198610000065174,1.5721033000000033,0.7904356800000132,0.04,0.0399998816,-9.827817800000014,-0.006658909469780089,0.03062782460011173,0.056007131600110796,-0.03028210997584755,0.016510045800032416
0.7625000000000001,-0.005330637900016271,-0.7841247999999988,-0.005454671250016245,-2.3531236999999905,0.00031434326000065395,1.5721155250000034,0.7904834250000132,0.04,0.039999881,-9.827871500000015,-0.006431736983295827,0.031031933000112106,0.05640786200011117,-0.030400772579047143,0.016627283250032526
0.765,-0.005389288560016323,-0.7841207199999989,-0.005513226900016297,-2.3530902799999907,0.000316700420000656,1.5721277500000033,0.7905311700000133,0.04,0.0399998804,-9.827925200000015,-0.0062045644968115755,0.03143604140011247,0.056808592400111525,-0.030519435182246733,0.016744520700032628
0.7675000000000001,-0.00544887317001716,-0.7841166099999988,-0.005572714100017132,-2.35305630999999,0.0003190951770006897,1.5721401750000035,0.790579675000014,0.04,0.0399998795,-9.827969700000008,-0.005936679057679372,0.03184311190011532,0.05721194040011409,-0.03063883390280992,0.01686250125003336
0.77,-0.005510325680017214,-0.7841124399999988,-0.005634064400017186,-2.35302123999999,0.0003215651280006919,1.5721530000000035,0.790629700000014,0.04,0.039999878,-9.827995800000007,-0.005587367713353507,0.03225610660011569,0.05762052360011445,-0.03075970485809844,0.016981968000033466
0.7725,-0.005571778190017269,-0.7841082699999988,-0.0056954147000172406,-2.35298616999999,0.0003240350790006941,1.5721658250000037,0.790679725000014,0.04,0.0399998765,-9.828021900000007,-0.005238056369027641,0.032669101300116056,0.05802910680011482,-0.030880575813386955,0.017101434750033572
0.775,-0.005633230700017327,-0.7841040999999987,-0.005756765000017298,-2.35295109999999,0.0003265050300006964,1.5721786500000037,0.7907297500000141,0.04,0.039999875,-9.828048000000008,-0.004888745024701761,0.03308209600011644,0.0584376900001152,-0.03100144676867548,0.017220901500033685
0.7775,-0.005694683210017381,-0.7840999299999988,-0.0058181153000173525,-2.35291602999999,0.00032897498100069864,1.5721914750000037,0.7907797750000142,0.04,0.0399998735,-9.828074100000007,-0.004539433680375896,0.03349509070011681,0.05884627320011556,-0.031122317723964,0.01734036825003379
0.78,-0.005756135720017439,-0.7840957599999988,-0.005879465600017409,-2.35288095999999,0.0003314449320007009,1.5722043000000037,0.7908298000000142,0.04,0.039999872,-9.828100200000007,-0.004190122336050015,0.033908085400117194,0.05925485640011594,-0.03124318867925252,0.0174598350000339
0.7825,-0.005817588230017493,-0.7840915899999987,-0.005940815900017464,-2.35284588999999,0.00033391488300070314,1.5722171250000037,0.7908798250000142,0.04,0.0399998705,-9.828126300000006,-0.00384081099172415,0.034321080100117564,0.0596634396001163,-0.03136405963454104,0.017579301750034006
0.785,-0.005880943410018365,-0.7840872999999987,-0.006004064000018334,-2.35280973999999,0.0003364613500007382,1.5722303500000039,0.7909313960000149,0.04,0.0399998695,-9.828168500000015,-0.003542061895053879,0.03475702830012778,0.060077156600118885,-0.03148587681356578,0.01770017060003472
0.7875,-0.005945249925018423,-0.7840829499999987,-0.006068261000018391,-2.3527730499999895,0.0003390460750007405,1.572243775000004,0.790983740000015,0.04,0.03999986875,-9.828218750000014,-0.0032685939221790065,0.03520445325012818,0.060493440500119254,-0.03160816710445801,0.01782174050003483
0.79,-0.006009556440018483,-0.7840785999999987,-0.006132458000018451,-2.3527363599999895,0.0003416308000007429,1.572257200000004,0.791036084000015,0.04,0.039999868,-9.828269000000015,-0.0029951259493041214,0.0356518782001286,0.060909724400119644,-0.03173045739535025,0.01794331040003494
0.7925,-0.006073862955018539,-0.7840742499999988,-0.006196655000018508,-2.3526996699999896,0.00034421552500074517,1.5722706250000038,0.7910884280000151,0.04,0.03999986725,-9.828319250000014,-0.0027216579764292484,0.03609930315012899,0.061326008300120013,-0.03185274768624248,0.018064880300035047
0.795,-0.006138169470018599,-0.7840698999999988,-0.006260852000018568,-2.3526629799999896,0.0003468002500007476,1.572284050000004,0.7911407720000151,0.04,0.0399998665,-9.828369500000013,-0.0024481900035543637,0.03654672810012941,0.061742292200120404,-0.03197503797713472,0.018186450200035162
0.7975,-0.006202475985018657,-0.7840655499999988,-0.006325049000018625,-2.3526262899999892,0.0003493849750007499,1.5722974750000038,0.7911931160000152,0.04,0.03999986575,-9.828419750000014,-0.0021747220306794907,0.03699415305012981,0.06215857610012077,-0.032097328268026956,0.01830802010003527
0.8,-0.0062667825000195625,-0.7840611999999987,-0.006389246000019529,-2.352589599999989,0.00035196970000078633,1.572310900000004,0.7912454600000158,0.04,0.039999865,-9.82847000000001,-0.0019012540577680909,0.03744157800013122,0.06257486000012333,-0.03221961855891989,0.018429590000035963
0.8025,-0.006333993765019622,-0.7840567194999987,-0.006456340595019588,-2.3525511849999887,0.0003546712630007887,1.5723249400000041,0.7913001320000159,0.04,0.03999986425,-9.82850645000001,-0.0015023302285698615,0.03789239700013162,0.0629985905001237,-0.03234431222084818,0.01855314905003607
0.805,-0.006401205030019685,-0.7840522389999987,-0.00652343519001965,-2.3525127699999886,0.00035737282600079126,1.572338980000004,0.791354804000016,0.04,0.0399998635,-9.828542900000011,-0.0011034063993716145,0.03834321600013203,0.0634223210001241,-0.03246900588277648,0.018676708100036188
0.8075,-0.006468416295019744,-0.7840477584999987,-0.00659052978501971,-2.3524743549999885,0.00036007438900079365,1.572353020000004,0.791409476000016,0.04,0.039999862750000004,-9.82857935000001,-0.000704482570173385,0.03879403500013243,0.06384605150012447,-0.03259369954470477,0.018800267150036295
0.81,-0.006535627560019807,-0.7840432779999987,-0.006657624380019773,-2.352435939999989,0.00036277595200079614,1.5723670600000041,0.7914641480000161,0.04,0.039999862,-9.82861580000001,-0.00030555874097513806,0.039244854000132855,0.06426978200012487,-0.03271839320663306,0.018923826200036412
0.8125,-0.006602838825019866,-0.7840387974999987,-0.006724718975019832,-2.3523975249999887,0.00036547751500079853,1.572381100000004,0.7915188200000162,0.04,0.03999986125,-9.828652250000012,9.336508822309114e-05,0.039695673000133255,0.06469351250012526,-0.032843086868561355,0.019047385250036523
0.8150000000000001,-0.006670050090019929,-0.7840343169999987,-0.006791813570019895,-2.3523591099999885,0.0003681790780008011,1.5723951400000042,0.7915734920000161,0.04,0.0399998605,-9.828688700000011,0.0004922889174213383,0.04014649200013368,0.06511724300012564,-0.032967780530489654,0.019170944300036637
0.8175,-0.006738246220020868,-0.7840297834999986,-0.006859890555020831,-2.352320139999988,0.00037092028900083884,1.5724093800000043,0.791628978000017,0.04,0.039999859299999996,-9.828730425000016,0.0008649479598758586,0.04060882975014435,0.06554345700012824,-0.03309297896925383,0.019295177900037347
0.8200000000000001,-0.006808412080020933,-0.7840251439999987,-0.006929932320020896,-2.352280059999988,0.0003737407960008415,1.5724240200000044,0.791686092000017,0.04,0.039999857199999996,-9.828782700000016,0.0011850774289132071,0.0410942050001448,0.06597463800012864,-0.03321918696168845,0.019420760600037466
0.8225,-0.006878577940020995,-0.7840205044999986,-0.006999974085020958,-2.352239979999988,0.00037656130300084395,1.5724386600000044,0.7917432060000171,0.04,0.039999855099999995,-9.828834975000015,0.0015052068979505416,0.041579580250145236,0.06640581900012903,-0.033345394954123066,0.019546343300037575
0.8250000000000001,-0.006948743800021061,-0.7840158649999986,-0.007070015850021024,-2.352199899999988,0.0003793818100008466,1.5724533000000043,0.7918003200000171,0.04,0.039999852999999995,-9.828887250000015,0.00182533636698789,0.04206495550014569,0.06683700000012942,-0.03347160294655768,0.019671926000037695
0.8275,-0.007018909660021123,-0.7840112254999987,-0.007140057615021086,-2.352159819999988,0.00038220231700084907,1.5724679400000043,0.7918574340000172,0.04,0.039999850899999995,-9.828939525000015,0.002145465836025225,0.042550330750146116,0.06726818100012981,-0.03359781093899229,0.019797508700037807
0.8300000000000001,-0.007089075520021189,-0.7840065859999986,-0.007210099380021151,-2.352119739999988,0.0003850228240008517,1.5724825800000044,0.7919145480000173,0.04,0.0399998488,-9.828991800000015,0.0024655953050625734,0.04303570600014657,0.06769936200013021,-0.033724018931426916,0.019923091400037923
0.8325,-0.007159241380021251,-0.7840019464999987,-0.007280141145021213,-2.352079659999988,0.00038784333100085424,1.5724972200000042,0.7919716620000173,0.04,0.0399998467,-9.829044075000017,0.0027857247740999077,0.043521081250147,0.06813054300013059,-0.033850226923861526,0.020048674100038036
0.835,-0.0072314090000222256,-0.7839971869999985,-0.007352179860022185,-2.3520383699999874,0.0003907443460008934,1.5725122900000046,0.7920304000000181,0.04,0.0399998454,-9.829077250000006,0.003193521499770896,0.04401291770015038,0.06856636150013308,-0.03397781848911362,0.020175527300038725
0.8375,-0.007304577500022293,-0.7839923674999986,-0.007425217050022253,-2.3519964749999875,0.00039368561500089614,1.5725275750000045,0.7920899500000181,0.04,0.0399998445,-9.829100875000007,0.003645151853698932,0.04450798475015084,0.0690044987501335,-0.03410610184077351,0.020303015750038844
0.84,-0.007377746000022358,-0.7839875479999986,-0.007498254240022318,-2.3519545799999872,0.00039662688400089876,1.5725428600000046,0.7921495000000183,0.04,0.0399998436,-9.829124500000008,0.004096782207626948,0.04500305180015128,0.06944263600013388,-0.0342343851924334,0.020430504200038956
0.8425,-0.0074509145000224266,-0.7839827284999985,-0.007571291430022387,-2.351912684999987,0.0003995681530009015,1.5725581450000046,0.7922090500000183,0.04,0.0399998427,-9.829148125000007,0.004548412561554985,0.045498118850151745,0.0698807732501343,-0.0343626685440933,0.020557992650039075
