rsonawane2002/My_IMU/logs_2/traj_376/imu_400hz_376.csv
time,j1,j2,j3,j4,j5,j6,j7,gripper1,gripper2,imu_ax,imu_ay,imu_az,imu_gx,imu_gy,imu_gz
0.0,0.00016700293,-0.785875,4.0107683e-05,-2.3551247,9.29385e-05,1.570997,0.786,0.04,0.04,-9.507626,0.0312160458415746,0.12143174,2.7816077e-07,-0.0011641276068985,1.6199125e-07
0.0025,0.0001670048965,-0.785857774,4.0107975500000006e-05,-2.35513919,9.294485940000001e-05,1.570996565,0.786,0.04,0.04,-9.556628750000044,0.026630903521432034,0.10458651364998467,1.636129954998958e-07,-0.0013251612195746166,3.7698096250019553e-07
0.005,0.000167006863,-0.785840548,4.0108268e-05,-2.3551536800000004,9.295121880000002e-05,1.57099613,0.786,0.04,0.04,-9.605631500000088,0.022045761201289468,0.08774128729996936,4.9065220999791634e-08,-0.0014861948322507329,5.91970675000391e-07
0.0075,0.0001670088295,-0.7858233219999999,4.0108560500000006e-05,-2.3551681700000002,9.295757820000002e-05,1.570995695,0.786,0.04,0.04,-9.654634250000134,0.017460618881146903,0.07089606094995404,-6.548255350031253e-08,-0.0016472284449268494,8.069603875005867e-07
0.01,0.000167010796,-0.785806096,4.0108853e-05,-2.35518266,9.296393760000002e-05,1.5709952600000001,0.786,0.04,0.04,-9.703637000000178,0.01287547656100434,0.054050834599938716,-1.8003032800041672e-07,-0.001808262057602966,1.0219501000007822e-06
0.0125,0.0001670127625,-0.78578887,4.0109145500000006e-05,-2.3551971500000004,9.297029700000003e-05,1.570994825,0.786,0.04,0.04,-9.752639750000222,0.008290334240861771,0.0372056082499234,-2.945781025005209e-07,-0.0019692956702790825,1.2369398125009776e-06
0.015,0.000167014729,-0.785771644,4.0109438e-05,-2.3552116400000003,9.297665640000004e-05,1.57099439,0.786,0.04,0.04,-9.801642500000266,0.0037051919207192092,0.02036038189990809,-4.0912587700062504e-07,-0.0021303292829551986,1.4519295250011732e-06
0.0175,0.00016702022750000008,-0.7857548619999999,4.010799299999997e-05,-2.3552257350000003,9.298525420000008e-05,1.57099396,0.786,0.04,0.04,-9.834222849999998,0.0006500281044282104,0.00905372837499854,-6.371393070028967e-07,-0.002287105633878149,1.8247501150043837e-06
0.02,0.0001670327900000001,-0.7857389679999999,4.0103072999999965e-05,-2.3552390400000003,9.29983288000001e-05,1.5709935400000001,0.786,0.04,0.04,-9.833958399999998,0.0006548212957568549,0.00882422049999833,-1.0920840480033102e-06,-0.0024353674612949986,2.5132324600050097e-06
0.0225,0.0001670453525000001,-0.7857230739999999,4.009815299999996e-05,-2.3552523450000002,9.301140340000011e-05,1.57099312,0.786,0.04,0.04,-9.833693949999997,0.0006596144870854992,0.008594712624998122,-1.5470287890037237e-06,-0.0025836292887118487,3.2017148050056353e-06
0.025,0.0001670579150000001,-0.7857071799999998,4.0093232999999954e-05,-2.35526565,9.302447800000012e-05,1.5709927,0.786,0.04,0.04,-9.833429499999998,0.0006644076784141435,0.008365204749997912,-2.0019735300041377e-06,-0.002731891116128699,3.890197150006262e-06
0.0275,0.00016707047750000014,-0.7856912859999998,4.008831299999995e-05,-2.355278955,9.303755260000014e-05,1.57099228,0.786,0.04,0.04,-9.833165049999996,0.0006692008697427879,0.008135696874997704,-2.456918271004551e-06,-0.0028801529435455485,4.578679495006888e-06
0.03,0.00016708304000000014,-0.7856753919999998,4.008339299999994e-05,-2.35529226,9.305062720000015e-05,1.57099186,0.786,0.04,0.04,-9.832900599999997,0.0006739940610714322,0.007906188999997496,-2.911863012004965e-06,-0.003028414770962398,5.267161840007514e-06
0.0325,0.00016709560250000014,-0.7856594979999998,4.0078472999999944e-05,-2.355305565,9.306370180000015e-05,1.57099144,0.786,0.04,0.04,-9.832636149999995,0.0006787872524000767,0.007676681124997286,-3.366807753005379e-06,-0.0031766765983792483,5.955644185008141e-06
0.035,0.0001671268720000005,-0.7856444399999998,4.0064473299999766e-05,-2.3553181,9.308908500000041e-05,1.57099101,0.786,0.04,0.04,-9.832347599999995,0.0006878462911118726,0.007477410349997654,-4.294693150014827e-06,-0.003316823393108163,7.320982270021696e-06
0.0375,0.00016716749500000054,-0.7856297999999998,4.0045933749999745e-05,-2.35533025,9.312062250000043e-05,1.570990575,0.786,0.04,0.04,-9.832046999999996,0.0006990382535151276,0.007293258124997488,-5.4590488750158845e-06,-0.0034529126714933317,9.024748225023242e-06
0.04,0.00016720811800000057,-0.7856151599999998,4.002739419999973e-05,-2.3553424,9.315216000000046e-05,1.57099014,0.786,0.04,0.04,-9.831746399999995,0.0007102302159183828,0.00710910589999732,-6.623404600016945e-06,-0.0035890019498785006,1.0728514180024794e-05
0.0425,0.0001672487410000006,-0.7856005199999998,4.000885464999971e-05,-2.35535455,9.318369750000048e-05,1.5709897050000001,0.786,0.04,0.04,-9.831445799999996,0.000721422178321638,0.006924953674997153,-7.787760325018005e-06,-0.0037250912282636695,1.2432280135026344e-05
0.045,0.00016728936400000065,-0.7855858799999997,3.99903150999997e-05,-2.3553667000000003,9.321523500000052e-05,1.57098927,0.786,0.04,0.04,-9.831145199999995,0.0007326141407248932,0.006740801449996985,-8.952116050019061e-06,-0.003861180506648838,1.413604609002789e-05
0.0475,0.0001673299870000007,-0.7855712399999998,3.997177554999968e-05,-2.35537885,9.324677250000055e-05,1.570988835,0.786,0.04,0.04,-9.830844599999994,0.0007438061031281484,0.0065566492249968175,-1.0116471775020122e-05,-0.003997269785034007,1.583981204502944e-05
0.05,0.0001673706100000017,-0.7855565999999998,3.9953235999999194e-05,-2.355391,9.327831000000122e-05,1.5709884,0.786,0.04,0.04,-9.830543999999996,0.0007549980655315148,0.006372496999996845,-1.1280827500039349e-05,-0.00413335906341896,1.7543578000057445e-05
0.0525,0.00016746433000000178,-0.7855430924999998,3.990904014999916e-05,-2.3554021300000003,9.334544550000129e-05,1.57098798,0.786,0.04,0.04,-9.830300099999995,0.0007723013783109405,0.006199035799996687,-1.3443889825041312e-05,-0.004257543734277147,2.0701509700060313e-05
0.055,0.00016755805000000188,-0.7855295849999998,3.986484429999912e-05,-2.35541326,9.341258100000134e-05,1.57098756,0.786,0.04,0.04,-9.830056199999994,0.0007896046910903662,0.00602557459999653,-1.560695215004328e-05,-0.0043817284051353355,2.3859441400063188e-05
0.0575,0.00016765177000000196,-0.7855160774999997,3.9820648449999075e-05,-2.35542439,9.347971650000141e-05,1.57098714,0.786,0.04,0.04,-9.829812299999995,0.000806908003869792,0.005852113399996372,-1.777001447504525e-05,-0.004505913075993523,2.7017373100066063e-05
0.06,0.00016774549000000204,-0.7855025699999997,3.977645259999904e-05,-2.3554355200000003,9.354685200000146e-05,1.57098672,0.786,0.04,0.04,-9.829568399999994,0.0008242113166492177,0.005678652199996214,-1.9933076800047215e-05,-0.004630097746851711,3.0175304800068928e-05
0.0625,0.00016783921000000215,-0.7854890624999997,3.973225674999899e-05,-2.35544665,9.361398750000153e-05,1.5709863,0.786,0.04,0.04,-9.829324499999995,0.0008415146294286434,0.0055051909999960565,-2.2096139125049182e-05,-0.004754282417709899,3.3333236500071806e-05
0.065,0.00016793293000000222,-0.7854755549999997,3.9688060899998955e-05,-2.35545778,9.368112300000158e-05,1.57098588,0.786,0.04,0.04,-9.829080599999994,0.0008588179422080692,0.005331729799995898,-2.4259201450051152e-05,-0.004878467088568087,3.649116820007468e-05
0.0675,0.0001680549695000044,-0.7854623774999997,3.963021654999791e-05,-2.35546854,9.376770300000307e-05,1.570985455,0.786,0.04,0.03999999975,-9.828833149999994,0.0008778240327961504,0.005168809149996517,-2.6855543500085045e-05,-0.004999108961786054,4.030412220012581e-05
0.07,0.00016823364800000457,-0.7854498599999997,3.954507519999783e-05,-2.3554785600000003,9.389317200000319e-05,1.57098502,0.786,0.04,0.039999999,-9.828578599999993,0.0009002356790011708,0.005026969599996388,-3.0318445000088194e-05,-0.005112665239724352,4.5427120800130475e-05
0.0725,0.0001684123265000047,-0.7854373424999996,3.9459933849997754e-05,-2.3554885800000003,9.401864100000331e-05,1.570984585,0.786,0.04,0.03999999825,-9.828324049999994,0.0009226473252061912,0.004885130049996259,-3.378134650009133e-05,-0.00522622151766265,5.055011940013511e-05
0.075,0.00016859100500000489,-0.7854248249999997,3.937479249999768e-05,-2.3554986,9.414411000000342e-05,1.57098415,0.786,0.04,0.0399999975,-9.828069499999993,0.0009450589714112115,0.00474329049999613,-3.724424800009448e-05,-0.005339777795600948,5.567311800013978e-05
0.0775,0.00016876968350000503,-0.7854123074999997,3.92896511499976e-05,-2.35550862,9.426957900000354e-05,1.5709837150000001,0.786,0.04,0.03999999675,-9.827814949999993,0.0009674706176162319,0.004601450949996001,-4.070714950009763e-05,-0.0054533340735392465,6.079611660014444e-05
0.08,0.0001689483620000052,-0.7853997899999996,3.9204509799997525e-05,-2.3555186400000006,9.439504800000365e-05,1.57098328,0.786,0.04,0.039999996,-9.827560399999992,0.0009898822638212523,0.004459611399995872,-4.417005100010078e-05,-0.005566890351477545,6.59191152001491e-05
0.0825,0.00016912704050000538,-0.7853872724999996,3.911936844999745e-05,-2.3555286600000005,9.452051700000377e-05,1.570982845,0.786,0.04,0.03999999525,-9.827305849999991,0.0010122939100262727,0.004317771849995743,-4.763295250010393e-05,-0.005680446629415844,7.104211380015376e-05
0.085,0.00016938771000000934,-0.7853753599999996,3.899479819999554e-05,-2.3555382000000002,9.469983800000638e-05,1.57098241,0.786,0.04,0.0399999955,-9.827072499999993,0.0010364170419059726,0.004178760559995744,-5.2117869200154495e-05,-0.005786825995895428,7.747991000021942e-05
0.08750000000000001,0.0001696893750000096,-0.7853637499999996,3.885051349999541e-05,-2.3555475000000006,9.490608500000656e-05,1.570981975,0.786,0.04,0.03999999625,-9.826849749999992,0.0010613959166228953,0.0040411633999956195,-5.7113793500159046e-05,-0.005889616906646147,8.457510500022589e-05
0.09,0.00016999104000000988,-0.7853521399999996,3.870622879999528e-05,-2.3555568000000005,9.511233200000676e-05,1.57098154,0.786,0.04,0.039999997,-9.826626999999991,0.0010863747913398179,0.0039035662399954946,-6.210971780016357e-05,-0.005992407817396865,9.16703000002323e-05
0.0925,0.00017029270500001014,-0.7853405299999996,3.856194409999515e-05,-2.3555661000000003,9.531857900000694e-05,1.570981105,0.786,0.04,0.03999999775,-9.826404249999992,0.0011113536660567406,0.00376596907999537,-6.710564210016812e-05,-0.006095198728147584,9.876549500023876e-05
0.095,0.0001705943700000104,-0.7853289199999995,3.841765939999502e-05,-2.3555754,9.552482600000712e-05,1.57098067,0.786,0.04,0.0399999985,-9.826181499999992,0.0011363325407736634,0.003628371919995244,-7.210156640017266e-05,-0.006197989638898302,0.00010586069000024522
0.0975,0.0001708960350000107,-0.7853173099999996,3.827337469999488e-05,-2.3555847000000005,9.57310730000073e-05,1.570980235,0.786,0.04,0.03999999925,-9.825958749999991,0.001161311415490586,0.0034907747599951192,-7.709749070017721e-05,-0.006300780549649021,0.00011295588500025168
0.1,0.000171197700000017,-0.7853056999999996,3.812908999999184e-05,-2.3555940000000004,9.593732000001161e-05,1.5709798,0.786,0.04,0.04,-9.825735999999992,0.0011862902902077725,0.003353177599996006,-8.209341500024816e-05,-0.006403571460399414,0.00012005108000035858
0.10250000000000001,0.00017166577500001744,-0.7852948789999996,3.790479949999164e-05,-2.3556026400000003,9.62564819000119e-05,1.57097938,0.786,0.04,0.03999999925,-9.825530949999992,0.0012185161584068217,0.003243399529995906,-8.891453225025438e-05,-0.006497398414652524,0.00012990722300036756
0.105,0.00017213385000001787,-0.7852840579999996,3.768050899999143e-05,-2.35561128,9.657564380001219e-05,1.57097896,0.786,0.04,0.0399999985,-9.825325899999992,0.001250742026605871,0.0031336214599958067,-9.573564950026054e-05,-0.006591225368905634,0.0001397633660003765
0.1075,0.0001726019250000183,-0.7852732369999996,3.745621849999123e-05,-2.35561992,9.689480570001248e-05,1.57097854,0.786,0.04,0.03999999775,-9.825120849999992,0.0012829678948049204,0.0030238433899957068,-0.00010255676675026675,-0.006685052323158744,0.00014961950900038544
0.11,0.00017307000000001872,-0.7852624159999996,3.723192799999102e-05,-2.3556285600000004,9.721396760001277e-05,1.57097812,0.786,0.04,0.039999997,-9.824915799999992,0.0013151937630039696,0.002914065319995607,-0.00010937788400027297,-0.006778879277411855,0.00015947565200039442
0.1125,0.00017353807500001915,-0.7852515949999995,3.7007637499990825e-05,-2.3556372000000003,9.753312950001307e-05,1.5709777,0.786,0.04,0.03999999625,-9.824710749999992,0.001347419631203019,0.002804287249995507,-0.00011619900125027918,-0.006872706231664965,0.0001693317950004034
0.115,0.00017400615000001958,-0.7852407739999996,3.678334699999062e-05,-2.35564584,9.785229140001336e-05,1.5709772800000001,0.786,0.04,0.0399999955,-9.824505699999992,0.0013796454994020682,0.002694509179995407,-0.0001230201185002854,-0.006966533185918076,0.00017918793800041237
0.11750000000000001,0.0001745458245000323,-0.7852301919999995,3.652466849998451e-05,-2.3556541400000004,9.821879820002181e-05,1.5709769850000002,0.786,0.04,0.03999999525,-9.824319849999993,0.0014127206057325797,0.0025860334149949925,-0.00013049812450041583,-0.007057693367828009,0.00018987011300058336
0.12,0.00017522869800004224,-0.7852200879999994,3.619721399997975e-05,-2.3556617600000003,9.867999480002852e-05,1.57097694,0.786,0.04,0.039999996,-9.824172399999991,0.0014474941883256905,0.0024801622599934523,-0.00013928990800054372,-0.007143520005052608,0.0002022043520007628
0.1225,0.00017591157150005217,-0.7852099839999992,3.586975949997499e-05,-2.3556693800000006,9.914119140003523e-05,1.570976895,0.786,0.04,0.03999999675,-9.82402494999999,0.0014822677709188015,0.0023742911049919116,-0.00014808169150067166,-0.0072293466422772065,0.00021453859100094232
0.125,0.0001765944450000621,-0.7851998799999991,3.554230499997022e-05,-2.355677000000001,9.960238800004195e-05,1.5709768499999999,0.786,0.04,0.0399999975,-9.823877499999986,0.0015170413535119127,0.002268419949990371,-0.0001568734750007996,-0.007315173279501806,0.0002268728300011218
0.1275,0.00017727731850007206,-0.785189775999999,3.521485049996545e-05,-2.355684620000001,0.00010006358460004866,1.570976805,0.786,0.04,0.03999999825,-9.823730049999984,0.0015518149361050237,0.0021625487949888302,-0.00016566525850092754,-0.007400999916726405,0.0002392070690013013
0.13,0.000177960192000082,-0.7851796719999988,3.488739599996069e-05,-2.355692240000001,0.00010052478120005537,1.57097676,0.786,0.04,0.039999999,-9.823582599999982,0.0015865885186981347,0.0020566776399872895,-0.0001744570420010555,-0.007486826553951004,0.0002515413080014808
0.1325,0.00017864306550009193,-0.7851695679999987,3.455994149995592e-05,-2.3556998600000014,0.00010098597780006208,1.5709767149999998,0.786,0.04,0.03999999975,-9.82343514999998,0.0016213621012912457,0.0019508064849857489,-0.00018324882550118345,-0.007572653191175603,0.00026387554700166033
0.135,0.00017950425200012447,-0.7851598499999988,3.4146853599940285e-05,-2.355707070000001,0.0001015667920000839,1.5709766799999998,0.786,0.04,0.04,-9.82322869999997,0.00166064389050543,0.001855192709988149,-0.00019346561800143142,-0.007650823332378977,0.0002783824470020423
0.1375,0.00018045459500011236,-0.7851503249999989,3.3690948999946095e-05,-2.355714075000001,0.00010220741500007575,1.57097665,0.786,0.04,0.04,-9.822992749999973,0.001702179783028736,0.001764707624989301,-0.00020439491500129226,-0.00772516522557414,0.0002939756775018437
0.14,0.00018140493800010028,-0.7851407999999991,3.32350443999519e-05,-2.355721080000001,0.0001028480380000676,1.57097662,0.786,0.04,0.04,-9.822756799999976,0.0017437156755520423,0.0016742225399904531,-0.0002153242120011531,-0.007799507118769304,0.0003095689080016452
0.14250000000000002,0.00018235528100008817,-0.7851312749999991,3.27791397999577e-05,-2.355728085000001,0.00010348866100005944,1.57097659,0.786,0.04,0.04,-9.822520849999979,0.0017852515680753485,0.0015837374549916051,-0.00022625350900101396,-0.007873849011964468,0.0003251621385014467
0.145,0.00018330562400007606,-0.7851217499999993,3.232323519996351e-05,-2.355735090000001,0.00010412928400005128,1.5709765599999999,0.786,0.04,0.04,-9.822284899999982,0.0018267874605986541,0.0014932523699927583,-0.00023718280600087466,-0.00794819090515963,0.00034075536900124795
0.1475,0.00018425596700006396,-0.7851122249999994,3.1867330599969314e-05,-2.3557420950000005,0.00010476990700004312,1.57097653,0.786,0.04,0.04,-9.822048949999985,0.0018683233531219604,0.0014027672849939103,-0.00024811210300073553,-0.008022532798354794,0.0003563485995010494
0.15,0.00018520631000006955,-0.7851026999999996,3.1411425999966634e-05,-2.3557491000000006,0.00010541053000004686,1.5709765,0.786,0.04,0.04,-9.821812999999992,0.0019098592456455506,0.0013122821999959795,-0.0002590414000007255,-0.008096874691549549,0.00037194183000103766
0.1525,0.0001864806785000533,-0.7850936024999997,3.0799945599974415e-05,-2.3557554750000005,0.00010626918625003592,1.570976425,0.786,0.03999999925,0.03999999925,-9.821664949999994,0.0019566030590814254,0.0012386045999969177,-0.00027233740900055623,-0.008163730846720688,0.00039095788950079555
0.155,0.0001877550470000371,-0.7850845049999998,3.0188465199982204e-05,-2.3557618500000004,0.00010712784250002499,1.57097635,0.786,0.0399999985,0.0399999985,-9.821516899999995,0.0020033468725173,0.0011649269999978557,-0.00028563341800038694,-0.008230587001891826,0.00040997394900055343
0.1575,0.00018902941550002087,-0.7850754074999999,2.957698479998999e-05,-2.3557682250000003,0.00010798649875001406,1.570976275,0.786,0.03999999775,0.03999999775,-9.821368849999997,0.0020500906859531754,0.0010912493999987937,-0.00029892942700021765,-0.008297443157062965,0.0004289900085003113
0.16,0.00019030378400000463,-0.78506631,2.8965504399997774e-05,-2.3557746,0.00010884515500000313,1.5709762,0.786,0.039999997,0.039999997,-9.821220799999999,0.00209683449938905,0.001017571799999732,-0.0003122254360000484,-0.008364299312234104,0.0004480060680000692
0.1625,0.00019157815249998841,-0.7850572125000002,2.8354024000005562e-05,-2.355780975,0.0001097038112499922,1.570976125,0.786,0.03999999625,0.03999999625,-9.821072750000003,0.002143578312824925,0.0009438942000006699,-0.0003255214449998791,-0.008431155467405242,0.0004670221274998271
0.165,0.0001928525209999722,-0.7850481150000003,2.7742543600013347e-05,-2.35578735,0.00011056246749998126,1.5709760499999998,0.786,0.0399999955,0.0399999955,-9.820924700000004,0.0021903221262607997,0.000870216600001608,-0.00033881745399970983,-0.00849801162257638,0.000486038186999585
0.1675,0.00019425488849995778,-0.7850391525000002,2.706963160002026e-05,-2.355793435,0.0001115067162499716,1.57097596,0.786,0.039999994750000004,0.039999995,-9.820782450000003,0.002238737943115182,0.0007975951290017953,-0.00035294603449959787,-0.008562599262221056,0.0005061343849994333
0.17,0.00019591325399998192,-0.7850304600000001,2.6273856400008682e-05,-2.3557989399999997,0.00011262214999998783,1.57097584,0.786,0.039999994000000004,0.039999995,-9.820651800000002,0.0022904977668070352,0.0007270859160007692,-0.0003687397579998277,-0.008622649870812184,0.0005283908599997572
0.17250000000000001,0.00019757161950000605,-0.7850217675,2.54780811999971e-05,-2.355804445,0.00011373758375000406,1.5709757199999999,0.786,0.039999993250000004,0.039999995,-9.82052115,0.002342257590498889,0.0006565767029997431,-0.00038453348150005754,-0.008682700479403314,0.0005506473350000811
0.17500000000000002,0.00019922998500003018,-0.7850130749999998,2.468230599998552e-05,-2.3558099500000003,0.00011485301750002029,1.5709756,0.786,0.0399999925,0.039999995,-9.820390499999998,0.002394017414190742,0.000586067489998717,-0.0004003272050002874,-0.008742751087994442,0.000572903810000405
0.1775,0.0002008883505000543,-0.7850043824999997,2.388653079997395e-05,-2.355815455,0.00011596845125003651,1.57097548,0.786,0.03999999175,0.039999995,-9.820259849999996,0.002445777237882595,0.0005155582769976917,-0.00041612092850051705,-0.008802801696585571,0.0005951602850007287
0.18,0.00020254671600007844,-0.7849956899999996,2.3090755599962367e-05,-2.3558209600000004,0.00011708388500005275,1.5709753599999998,0.786,0.039999991,0.039999995,-9.820129199999995,0.002497537061574448,0.00044504906399666554,-0.0004319146520007469,-0.008862852305176699,0.0006174167600010525
0.1825,0.00020420508150010257,-0.7849869974999995,2.2294980399950785e-05,-2.3558264650000007,0.00011819931875006898,1.5709752399999999,0.786,0.03999999025,0.039999995,-9.819998549999992,0.002549296885266301,0.0003745398509956394,-0.0004477083755009768,-0.008922902913767829,0.0006396732350013764
0.185,0.0002061613900001417,-0.7849784899999994,2.1356216799932008e-05,-2.3558317300000007,0.00011951466900009525,1.57097515,0.786,0.039999989799999996,0.039999994500000004,-9.819839399999989,0.002604218176569793,0.00031671967379653563,-0.0004652431350012387,-0.008977839257571644,0.0006644507740017525
0.1875,0.0002082666700001436,-0.7849700749999994,2.0345958999931088e-05,-2.3558368750000005,0.00012092997750009654,1.570975075,0.786,0.0399999895,0.039999993750000004,-9.81966599999999,0.002660720201678629,0.00026524401449648874,-0.00048364841250125547,-0.009030218468982573,0.0006904888450017762
0.19,0.00021037195000014552,-0.7849616599999993,1.933570119993017e-05,-2.3558420200000003,0.0001223452860000978,1.570975,0.786,0.0399999892,0.039999993000000005,-9.819492599999988,0.0027172222267874656,0.0002137683551964419,-0.0005020536900012722,-0.0090825976803935,0.0007165269160017998
0.1925,0.00021247723000014743,-0.7849532449999994,1.832544339992925e-05,-2.3558471650000006,0.0001237605945000991,1.570974925,0.786,0.0399999889,0.03999999225,-9.819319199999988,0.002773724251896302,0.00016229269589639503,-0.000520458967501289,-0.009134976891804428,0.0007425649870018235
0.195,0.00021458251000014934,-0.7849448299999994,1.731518559992833e-05,-2.3558523100000004,0.0001251759030001004,1.57097485,0.786,0.0399999886,0.0399999915,-9.819145799999989,0.0028302262770051384,0.00011081703659634816,-0.0005388642450013057,-0.009187356103215355,0.0007686030580018472
0.1975,0.00021668779000015128,-0.7849364149999993,1.630492779992741e-05,-2.355857455,0.00012659121150010167,1.570974775,0.786,0.0399999883,0.03999999075,-9.818972399999987,0.0028867283021139748,5.9341377296301325e-05,-0.0005572695225013225,-0.009239735314626284,0.0007946411290018709
0.2,0.00021879307000019046,-0.7849279999999994,1.5294669999908597e-05,-2.3558626000000005,0.00012800652000012798,1.5709747,0.786,0.039999988,0.03999999,-9.818798999999993,0.0029432303272234135,7.86571799623559e-06,-0.0005756748000015396,-0.009292114526036786,0.0008206792000021622
0.2025,0.00022141077850019284,-0.7849197499999994,1.4038519224907452e-05,-2.3558667850000004,0.00012976547100012958,1.5709745050000001,0.786,0.039999988,0.03999999075,-9.818705399999994,0.0030080127995508227,-4.386878520381151e-05,-0.0005968324650015588,-0.009338662866506425,0.0008503943950021892
0.20500000000000002,0.00022402848700019525,-0.7849114999999993,1.278236844990631e-05,-2.3558709700000002,0.00013152442200013118,1.57097431,0.786,0.039999988,0.0399999915,-9.818611799999994,0.003072795271878232,-9.560328840385861e-05,-0.0006179901300015781,-0.009385211206976062,0.0008801095900022163
0.20750000000000002,0.00022664619550019763,-0.7849032499999994,1.1526217674905166e-05,-2.3558751550000006,0.00013328337300013278,1.570974115,0.786,0.039999988,0.03999999225,-9.818518199999993,0.0031375777442056406,-0.0001473377916039057,-0.0006391477950015973,-0.0094317595474457,0.0009098247850022433
0.21,0.00022926390400019998,-0.7848949999999993,1.0270066899904036e-05,-2.3558793400000004,0.00013504232400013438,1.57097392,0.786,0.039999988,0.039999993000000005,-9.818424599999993,0.003202360216533049,-0.00019907229480395225,-0.0006603054600016164,-0.009478307887915337,0.00093953998000227
0.2125,0.00023188161250020236,-0.7848867499999994,9.013916124902893e-06,-2.3558835250000003,0.00013680127500013598,1.570973725,0.786,0.039999988,0.039999993750000004,-9.818330999999993,0.003267142688860458,-0.0002508067980039993,-0.0006814631250016356,-0.009524856228384974,0.0009692551750022971
0.215,0.00023449932100020474,-0.7848784999999994,7.757765349901748e-06,-2.3558877100000006,0.00013856022600013758,1.57097353,0.786,0.039999988,0.039999994500000004,-9.818237399999992,0.0033319251611878668,-0.00030254130120404643,-0.0007026207900016549,-0.009571404568854611,0.000998970370002324
0.2175,0.00023731042450025303,-0.7848702849999994,6.408819549878579e-06,-2.3558918350000004,0.00014044893650017,1.57097336,0.785999905,0.0399999878,0.039999994750000004,-9.818118249999987,0.0033980284584739745,-0.0003512206265033683,-0.0007247109850018954,-0.009615544741976368,0.0010300400800026728
0.22,0.00024050831800025594,-0.7848621399999994,4.874283699877182e-06,-2.3558958400000005,0.00014259716600017195,1.57097324,0.78599962,0.0399999872,0.039999994000000004,-9.817947999999987,0.003466773405676542,-0.0003937895960034071,-0.0007486662400019173,-0.009654868580404067,0.0010638188200027033
0.2225,0.00024370621150025885,-0.7848539949999994,3.3397478498757853e-06,-2.355899845,0.0001447453955001739,1.57097312,0.785999335,0.0399999866,0.039999993250000004,-9.817777749999987,0.0035355183528791097,-0.0004363585655034458,-0.0007726214950019391,-0.009694192418831769,0.0010975975600027341
0.225,0.0002469041050002618,-0.7848458499999993,1.8052119998743888e-06,-2.3559038500000002,0.00014689362500017584,1.570973,0.78599905,0.039999986,0.0399999925,-9.817607499999987,0.0036042633000816773,-0.0004789275350034845,-0.0007965767500019609,-0.00973351625725947,0.001131376300002765
0.2275,0.0002501019985002647,-0.7848377049999993,2.7067614987299153e-07,-2.3559078550000003,0.0001490418545001778,1.57097288,0.785998765,0.0399999854,0.03999999175,-9.817437249999987,0.0036730082472842445,-0.0005214965045035234,-0.0008205320050019827,-0.00977284009568717,0.0011651550400027957
0.23,0.0002532998920002676,-0.7848295599999993,-1.263859700128404e-06,-2.3559118600000004,0.00015119008400017974,1.5709727599999999,0.78599848,0.0399999848,0.039999991,-9.817266999999987,0.003741753194486812,-0.0005640654740035621,-0.0008444872600020045,-0.009812163934114871,0.0011989337800028263
0.2325,0.0002564977855002705,-0.7848214149999992,-2.7983955501298014e-06,-2.3559158650000005,0.00015333831350018172,1.57097264,0.785998195,0.039999984200000005,0.03999999025,-9.817096749999987,0.0038104981416893797,-0.0006066344435036008,-0.0008684425150020264,-0.00985148777254257,0.0012327125200028571
0.23500000000000001,0.000260128929000329,-0.7848132599999993,-4.540783750157857e-06,-2.3559192,0.00015577716300022094,1.5709724699999998,0.78599791,0.0399999833,0.0399999894,-9.817006299999996,0.003886561607948726,-0.0006461124700032431,-0.0008934891500021881,-0.009888002928349382,0.0012691873900032337
0.23750000000000002,0.00026397669750033247,-0.7848050999999993,-6.387098125159538e-06,-2.3559222,0.0001583613225002233,1.570972275,0.785997625,0.03999998225,0.0399999885,-9.816955749999996,0.0039662843337350635,-0.0006840450250032778,-0.0009190814750022114,-0.009923113742846284,0.0013070103250032682
0.24,0.0002678244660003359,-0.7847969399999992,-8.233412500161198e-06,-2.3559252,0.00016094548200022563,1.57097208,0.78599734,0.0399999812,0.0399999876,-9.816905199999995,0.004046007059521401,-0.0007219775800033118,-0.0009446738000022344,-0.009958224557343185,0.0013448332600033022
0.2425,0.00027167223450033943,-0.7847887799999993,-1.007972687516288e-05,-2.3559282,0.00016352964150022798,1.570971885,0.7859970550000001,0.03999998015,0.039999986700000004,-9.816854649999996,0.004125729785307738,-0.0007599101350033463,-0.0009702661250022577,-0.009993335371840087,0.0013826561950033367
0.245,0.00027552000300034294,-0.7847806199999993,-1.192604125016456e-05,-2.3559312,0.00016611380100023032,1.57097169,0.78599677,0.0399999791,0.0399999858,-9.816804099999995,0.004205452511094076,-0.0007978426900033808,-0.000995858450002281,-0.010028446186336989,0.001420479130003371
0.2475,0.00027936777150034645,-0.7847724599999992,-1.377235562516624e-05,-2.3559342000000005,0.0001686979605002327,1.570971495,0.785996485,0.03999997805,0.0399999849,-9.816753549999996,0.004285175236880413,-0.0008357752450034154,-0.0010214507750023042,-0.010063557000833891,0.0014583020650034055
0.25,0.0002832155400004155,-0.7847642999999992,-1.5618670000199393e-05,-2.3559372000000005,0.00017128212000027903,1.5709713,0.7859962,0.039999977,0.039999984,-9.816702999999984,0.004364897962666909,-0.0008737078000032711,-0.0010470431000026018,-0.010098667815330123,0.0014961250000038165
0.2525,0.00028778447700041965,-0.7847560349999992,-1.7810991850201387e-05,-2.3559400200000002,0.00017435002650028182,1.57097109,0.785995915,0.0399999764,0.0399999834,-9.816534099999984,0.004446363705217774,-0.0009096746950033039,-0.0010756512050026279,-0.010126424068587539,0.0015380871850038547
0.255,0.0002923534140004238,-0.7847477699999992,-2.000331370020338e-05,-2.3559428400000004,0.00017741793300028461,1.57097088,0.7859956300000001,0.0399999758,0.0399999828,-9.816365199999984,0.004527829447768638,-0.0009456415900033367,-0.001104259310002654,-0.010154180321844954,0.0015800493700038928
0.2575,0.00029692235100042797,-0.7847395049999992,-2.219563555020538e-05,-2.35594566,0.0001804858395002874,1.57097067,0.785995345,0.0399999752,0.0399999822,-9.816196299999984,0.004609295190319502,-0.0009816084850033694,-0.00113286741500268,-0.01018193657510237,0.001622011555003931
0.26,0.0003014912880004322,-0.7847312399999992,-2.4387957400207374e-05,-2.3559484800000003,0.0001835537460002902,1.57097046,0.78599506,0.0399999746,0.0399999816,-9.816027399999983,0.004690760932870366,-0.0010175753800034022,-0.0011614755200027062,-0.010209692828359785,0.0016639737400039694
0.2625,0.0003060602250004363,-0.7847229749999992,-2.6580279250209368e-05,-2.3559513,0.000186621652500293,1.57097025,0.785994775,0.039999974,0.039999981,-9.815858499999983,0.00477222667542123,-0.001053542275003435,-0.001190083625002732,-0.010237449081617202,0.0017059359250040074
0.265,0.0003106291620004405,-0.7847147099999991,-2.8772601100211362e-05,-2.3559541200000003,0.00018968955900029578,1.57097004,0.78599449,0.0399999734,0.039999980399999996,-9.815689599999983,0.004853692417972094,-0.0010895091700034677,-0.0012186917300027582,-0.010265205334874617,0.0017478981100040457
0.2675,0.00031546270050052187,-0.7847063934999992,-3.109186640025042e-05,-2.355956625,0.00019293496100035042,1.57096982,0.7859942050000001,0.03999997285,0.03999997985,-9.815565149999996,0.004939986998224558,-0.0011237748200030038,-0.0012483088100030788,-0.010291863046588827,0.0017912663050044944
0.27,0.0003208254420005268,-0.7846979739999992,-3.3665018600252764e-05,-2.3559585000000003,0.00019653535400035368,1.5709695799999999,0.78599392,0.0399999724,0.039999979399999996,-9.815529599999996,0.005035939253876005,-0.0011546379800030319,-0.0012799438400031076,-0.010316323675217584,0.0018374465200045364
0.2725,0.00032618818350053165,-0.7846895544999991,-3.623817080025511e-05,-2.355960375,0.00020013574700035696,1.57096934,0.785993635,0.039999971950000004,0.03999997895,-9.815494049999996,0.005131891509527453,-0.00118550114000306,-0.0013115788700031365,-0.010340784303846341,0.0018836267350045785
0.275,0.00033155092500053657,-0.7846811349999991,-3.881132300025745e-05,-2.35596225,0.00020373614000036022,1.5709691,0.78599335,0.0399999715,0.0399999785,-9.815458499999997,0.0052278437651789,-0.001216364300003088,-0.001343213900003165,-0.010365244932475098,0.0019298069500046206
0.2775,0.00033691366650054143,-0.7846727154999991,-4.138447520025979e-05,-2.3559641250000003,0.0002073365330003635,1.57096886,0.785993065,0.03999997105,0.039999978049999996,-9.815422949999997,0.005323796020830347,-0.0012472274600031162,-0.001374848930003194,-0.010389705561103855,0.0019759871650046625
0.28,0.00034227640800054635,-0.7846642959999991,-4.395762740026214e-05,-2.355966,0.00021093692600036677,1.57096862,0.7859927800000001,0.039999970600000004,0.0399999776,-9.815387399999997,0.005419748276481794,-0.0012780906200031443,-0.0014064839600032228,-0.010414166189732612,0.002022167380004705
0.28250000000000003,0.0003476391495005512,-0.7846558764999991,-4.653077960026448e-05,-2.355967875,0.00021453731900037006,1.57096838,0.785992495,0.03999997015,0.03999997715,-9.815351849999997,0.005515700532133242,-0.0013089537800031724,-0.0014381189900032514,-0.01043862681836137,0.0020683475950047468
0.28500000000000003,0.00035358025400058943,-0.7846472829999992,-4.938140630028279e-05,-2.35596957,0.00021852569100039564,1.57096813,0.78599221,0.03999997,0.039999977,-9.815237699999987,0.005613010656097799,-0.0013391479600028248,-0.0014718827100032945,-0.010458474420012659,0.0021173803800047736
0.28750000000000003,0.0003598105400005101,-0.7846386024999993,-5.237077025024473e-05,-2.355971175,0.00022270805250034238,1.570967875,0.785991925,0.03999997,0.039999977,-9.815084249999988,0.005710999714218597,-0.0013690076500024444,-0.0015067107750028513,-0.010476015508176286,0.002167839450004131
0.29,0.00036604082600043064,-0.7846299219999994,-5.53601342002066e-05,-2.35597278,0.00022689041400028904,1.57096762,0.78599164,0.03999997,0.039999977,-9.81493079999999,0.005808988772339392,-0.0013988673400020636,-0.001541538840002407,-0.010493556596339913,0.0022182985200034874
0.2925,0.0003722711120003513,-0.7846212414999996,-5.834949815016854e-05,-2.355974385,0.0002310727755002358,1.570967365,0.7859913550000001,0.03999997,0.039999977,-9.814777349999993,0.00590697783046019,-0.0014287270300016835,-0.0015763669050019636,-0.01051109768450354,0.002268757590002845
0.295,0.00037850139800027195,-0.7846125609999997,-6.133886210013047e-05,-2.35597599,0.00023525513700018254,1.57096711,0.78599107,0.03999997,0.039999977,-9.814623899999994,0.006004966888580987,-0.0014585867200013034,-0.0016111949700015201,-0.010528638772667166,0.0023192166600022024
0.2975,0.00038473168400019267,-0.7846038804999997,-6.432822605009242e-05,-2.355977595,0.0002394374985001293,1.570966855,0.7859907850000001,0.03999997,0.039999977,-9.814470449999996,0.006102955946701785,-0.001488446410000923,-0.0016460230350010766,-0.010546179860830793,0.00236967573000156
0.3,0.00039096197000013046,-0.7845951999999999,-6.731759000006258e-05,-2.3559792,0.00024361986000008754,1.5709666,0.7859905,0.03999997,0.039999977,-9.814317,0.006200945004822886,-0.0015183061000004542,-0.0016808511000006904,-0.010563720948994357,0.002420134800000996
0.3025,0.0003981343820003327,-0.7845861399999996,-7.075894550015961e-05,-2.35597995,0.00024843420000022326,1.570966315,0.7859902105000001,0.039999968500000004,0.03999997595,-9.814274549999999,0.006315655121585066,-0.0015432822100011584,-0.001718821605001761,-0.01057785074226618,0.002474923605002541
0.305,0.0004053067940005349,-0.7845770799999994,-7.420030100025664e-05,-2.3559807000000004,0.000253248540000359,1.57096603,0.785989921,0.039999967000000004,0.0399999749,-9.814232099999998,0.006430365238347245,-0.0015682583200018626,-0.0017567921100028316,-0.010591980535538004,0.0025297124100040857
0.3075,0.00041247920600073713,-0.784568019999999,-7.764165650035367e-05,-2.3559814500000003,0.00025806288000049477,1.5709657449999999,0.7859896315,0.039999965500000005,0.03999997385,-9.814189649999996,0.006545075355109424,-0.0015932344300025668,-0.0017947626150039023,-0.010606110328809829,0.0025845012150056304
0.31,0.0004196516180009393,-0.7845589599999988,-8.10830120004507e-05,-2.3559822,0.0002628772200006305,1.57096546,0.7859893419999999,0.039999964,0.0399999728,-9.814147199999994,0.006659785471871603,-0.001618210540003271,-0.0018327331200049728,-0.010620240122081652,0.0026392900200071755
0.3125,0.00042682403000114156,-0.7845498999999986,-8.452436750054773e-05,-2.35598295,0.00026769156000076627,1.570965175,0.7859890525,0.0399999625,0.03999997175,-9.814104749999993,0.0067744955886337825,-0.0016431866500039752,-0.0018707036250060435,-0.010634369915353475,0.00269407882500872
0.315,0.0004339964420013438,-0.7845408399999982,-8.796572300064476e-05,-2.3559837000000003,0.000272505900000902,1.57096489,0.785988763,0.039999961,0.039999970700000005,-9.814062299999991,0.006889205705395962,-0.0016681627600046794,-0.001908674130007114,-0.010648499708625298,0.0027488676300102648
0.3175,0.0004415079975016536,-0.7845316414999981,-9.15697825007934e-05,-2.35598431,0.00027754771350110987,1.570964585,0.7859884745,0.0399999599,0.03999997,-9.813994874999976,0.007003973098494946,-0.0016956238050065482,-0.0019477285850083232,-0.010660760663451441,0.002805068875011918
0.32,0.0004496978400015493,-0.7845221659999981,-9.549925000074338e-05,-2.35598464,0.0002830444740010399,1.57096424,0.7859881879999999,0.0399999596,0.03999997,-9.813877499999977,0.007118855044267433,-0.0017280547200061351,-0.0019889509400077983,-0.010669283941389694,0.0028640950000111665
0.3225,0.00045788768250144504,-0.7845126904999983,-9.942871750069334e-05,-2.35598497,0.00028854123450096987,1.570963895,0.7859879015,0.0399999593,0.03999997,-9.813760124999979,0.007233736990039921,-0.0017604856350057223,-0.0020301732950072735,-0.010677807219327944,0.0029231211250104147
0.325,0.0004660775250013408,-0.7845032149999984,-0.00010335818500064331,-2.3559853,0.0002940379950008999,1.5709635499999999,0.7859876149999999,0.039999959,0.03999997,-9.81364274999998,0.007348618935812408,-0.0017929165500053094,-0.0020713956500067487,-0.010686330497266196,0.0029821472500096632
0.3275,0.00047426736750123653,-0.7844937394999986,-0.00010728765250059327,-2.35598563,0.00029953475550082993,1.570963205,0.7859873285,0.039999958700000005,0.03999997,-9.813525374999982,0.007463500881584895,-0.0018253474650048965,-0.002112618005006224,-0.010694853775204446,0.003041173375008912
0.33,0.00048245721000113225,-0.7844842639999987,-0.00011121712000054325,-2.35598596,0.00030503151600075996,1.5709628599999998,0.7859870419999999,0.0399999584,0.03999997,-9.813407999999983,0.007578382827357382,-0.0018577783800044836,-0.0021538403600056986,-0.010703377053142699,0.0031001995000081604
0.3325,0.000490647052501028,-0.7844747884999987,-0.00011514658750049321,-2.35598629,0.00031052827650069,1.570962515,0.7859867555,0.0399999581,0.03999997,-9.813290624999985,0.00769326477312987,-0.0018902092950040708,-0.002195062715005174,-0.01071190033108095,0.003159225625007409
0.335,0.0004995656200011315,-0.7844649719999988,-0.00011942566300054284,-2.35598613,0.00031651395200075935,1.57096218,0.7859864689999999,0.0399999569,0.0399999688,-9.813213549999993,0.007822860125468902,-0.0019166243500028529,-0.0022384370000054173,-0.01071796622127346,0.0032212653000077453
0.3375,0.0005088485500011399,-0.7844549849999988,-0.0001238795425005469,-2.355985725,0.000322744085000765,1.57096185,0.7859861825,0.039999955250000004,0.039999967000000004,-9.813156624999992,0.007959812181087192,-0.0019400314750028743,-0.0022828872500054577,-0.01072280341759377,0.003284811750007803
0.34,0.0005181314800011483,-0.7844449979999988,-0.00012833342200055096,-2.35598532,0.0003289742180007707,1.57096152,0.7859858959999999,0.0399999536,0.0399999652,-9.813099699999993,0.008096764236705481,-0.0019634386000028955,-0.0023273375000054984,-0.01072764061391408,0.003348358200007861
0.3425,0.0005274144100011568,-0.7844350109999988,-0.000132787301500555,-2.355984915,0.0003352043510007763,1.57096119,0.7859856095,0.03999995195,0.039999963400000005,-9.813042774999992,0.008233716292323771,-0.0019868457250029167,-0.0023717877500055388,-0.010732477810234387,0.0034119046500079185
0.34500000000000003,0.0005366973400011653,-0.7844250239999988,-0.00013724118100055907,-2.35598451,0.000341434484000782,1.57096086,0.7859853229999999,0.0399999503,0.0399999616,-9.812985849999993,0.00837066834794206,-0.0020102528500029384,-0.002416238000005579,-0.010737315006554697,0.0034754511000079764
0.34750000000000003,0.0005459802700011737,-0.7844150369999988,-0.00014169506050056311,-2.3559841049999997,0.00034766461700078767,1.57096053,0.7859850365,0.03999994865,0.039999959800000005,-9.812928924999992,0.00850762040356035,-0.0020336599750029596,-0.00246068825000562,-0.010742152202875006,0.0035389975500080342
0.35000000000000003,0.000555263200001331,-0.7844050499999987,-0.0001461489400006386,-2.3559837,0.0003538947500008932,1.5709602,0.78598475,0.039999947,0.039999958,-9.81287199999999,0.008644572459178473,-0.0020570671000040243,-0.002505138500006078,-0.010746989399194724,0.0036025440000086533
0.3525,0.0005657153050013403,-0.7843944734999987,-0.00015116374900064306,-2.35598277,0.00036090915050089947,1.570959795,0.785984465,0.0399999464,0.0399999574,-9.81278409999999,0.008780206879618203,-0.0020886691150040523,-0.00255286772000612,-0.010747174359858044,0.0036704980500087137
0.355,0.0005761674100013498,-0.7843838969999987,-0.00015617855800064762,-2.3559818399999997,0.00036792355100090585,1.57095939,0.7859841799999999,0.0399999458,0.0399999568,-9.812696199999989,0.008915841300057936,-0.0021202711300040812,-0.0026005969400061638,-0.010747359320521364,0.0037384521000087757
0.3575,0.0005866195150013593,-0.7843733204999986,-0.00016119336700065219,-2.3559809099999995,0.00037493795150091223,1.5709589849999999,0.785983895,0.039999945200000005,0.0399999562,-9.812608299999988,0.00905147572049767,-0.00215187314500411,-0.0026483261600062074,-0.010747544281184684,0.0038064061500088374
0.36,0.0005970716200013688,-0.7843627439999986,-0.00016620817600065675,-2.35597998,0.0003819523520009186,1.5709585799999999,0.7859836099999999,0.039999944600000004,0.0399999556,-9.81252039999999,0.009187110140937402,-0.0021834751600041387,-0.0026960553800062506,-0.010747729241848004,0.0038743602000088995
0.3625,0.0006075237250013784,-0.7843521674999986,-0.0001712229850006613,-2.3559790499999997,0.000388966752500925,1.570958175,0.785983325,0.039999944,0.039999955,-9.81243249999999,0.009322744561377137,-0.0022150771750041676,-0.002743784600006294,-0.010747914202511324,0.003942314250008961
0.365,0.0006179758300013878,-0.7843415909999987,-0.00017623779400066588,-2.3559781199999996,0.00039598115300093137,1.57095777,0.78598304,0.0399999434,0.039999954399999996,-9.812344599999989,0.00945837898181687,-0.0022466791900041965,-0.002791513820006338,-0.010748099163174644,0.004010268300009023
0.3675,0.0006288430350015638,-0.7843307999999986,-0.00018145174600075033,-2.3559769549999996,0.00040327400100104946,1.57095737,0.785982659,0.039999942850000005,0.039999953799999995,-9.812264999999991,0.009601925034097262,-0.0022766038200035523,-0.0028403516950068256,-0.010747029818593967,0.0040796929200096746
0.37,0.0006405404400015744,-0.7843195799999985,-0.00018706398400075542,-2.3559753199999998,0.0004111237440010566,1.57095698,0.785982086,0.0399999424,0.0399999532,-9.812201999999992,0.009761294350049472,-0.0023031736800035764,-0.002891406880006872,-0.010743451863526798,0.0041520586800097405
0.3725,0.0006522378450015852,-0.7843083599999985,-0.00019267622200076054,-2.3559736849999995,0.00041897348700106377,1.57095659,0.785981513,0.03999994195,0.0399999526,-9.812138999999991,0.009920663666001682,-0.0023297435400036004,-0.002942462065006919,-0.01073987390845963,0.004224424440009806
0.375,0.0006639352500015958,-0.7842971399999985,-0.00019828846000076564,-2.3559720499999997,0.0004268232300010709,1.5709562,0.78598094,0.0399999415,0.039999952,-9.812075999999992,0.010080032981953892,-0.002356313400003625,-0.0029935172500069654,-0.010736295953392462,0.004296790200009872
0.3775,0.0006756326550016065,-0.7842859199999984,-0.00020390069800077076,-2.355970415,0.000434672973001078,1.57095581,0.785980367,0.03999994105,0.0399999514,-9.812012999999991,0.010239402297906102,-0.002382883260003649,-0.003044572435007012,-0.010732717998325293,0.004369155960009938
0.38,0.0006873300600016171,-0.7842746999999984,-0.00020951293600077585,-2.3559687799999995,0.0004425227160010852,1.57095542,0.785979794,0.0399999406,0.039999950799999996,-9.81194999999999,0.010398771613858313,-0.002409453120003673,-0.0030956276200070584,-0.010729140043258124,0.004441521720010004
0.3825,0.0006990274650016278,-0.7842634799999985,-0.00021512517400078097,-2.3559671449999997,0.00045037245900109233,1.57095503,0.785979221,0.039999940149999996,0.0399999502,-9.811886999999992,0.010558140929810523,-0.002436022980003697,-0.003146682805007105,-0.010725562088190957,0.00451388748001007
0.385,0.0007116058160018234,-0.7842517709999983,-0.0002211600640008749,-2.3559651699999997,0.0004588131060012236,1.57095461,0.785978647,0.03999994,0.0399999504,-9.81181359999999,0.010717574693284906,-0.002468907400005048,-0.0031990491000074266,-0.010719049815087332,0.004589104780010735
0.3875,0.0007246246400018354,-0.7842398174999983,-0.00022740628000088057,-2.355963025,0.0004675492050012316,1.570954175,0.7859780725,0.03999994,0.039999951,-9.81173499999999,0.010877040680520356,-0.002504949100005081,-0.0032520709500074747,-0.0107110703829664,0.004665747850010805
0.39,0.0007376434640018472,-0.7842278639999983,-0.00023365249600088627,-2.3559608799999996,0.00047628530400123956,1.57095374,0.7859774979999999,0.03999994,0.0399999516,-9.81165639999999,0.011036506667755807,-0.0025409908000051137,-0.0033050928000075233,-0.010703090950845467,0.004742390920010875
0.3925,0.000750662288001859,-0.7842159104999983,-0.00023989871200089195,-2.3559587349999997,0.0004850214030012475,1.570953305,0.7859769234999999,0.03999994,0.0399999522,-9.81157779999999,0.011195972654991256,-0.0025770325000051466,-0.0033581146500075714,-0.010695111518724536,0.004819033990010944
0.395,0.0007636811120018709,-0.7842039569999983,-0.00024614492800089765,-2.35595659,0.0004937575020012554,1.57095287,0.7859763489999999,0.03999994,0.039999952799999995,-9.81149919999999,0.011355438642226707,-0.0026130742000051795,-0.00341113650000762,-0.010687132086603603,0.004895677060011015
0.3975,0.0007766999360018827,-0.7841920034999983,-0.0002523911440009033,-2.355954445,0.0005024936010012634,1.570952435,0.7859757744999999,0.03999994,0.039999953399999996,-9.81142059999999,0.011514904629462157,-0.002649115900005212,-0.003464158350007668,-0.01067915265448267,0.004972320130011084
0.4,0.000789718760002098,-0.7841800499999981,-0.0002586373600010066,-2.3559522999999998,0.0005112297000014077,1.570952,0.7859751999999999,0.03999994,0.039999954,-9.811341999999993,0.01167437061670055,-0.0026851576000049143,-0.003517180200008199,-0.010671173222361264,0.005048963200011813
0.4025,0.0008041350110021111,-0.7841672624999981,-0.0002655540055010129,-2.3559494649999997,0.0005209032510014166,1.5709515799999998,0.7859746299999999,0.03999994045,0.0399999546,-9.811291149999992,0.011854055710163179,-0.002718926410004945,-0.0035735206650082505,-0.010659931832922749,0.005130133570011887
0.405,0.0008185512620021243,-0.7841544749999981,-0.0002724706510010192,-2.3559466299999996,0.0005305768020014254,1.57095116,0.7859740599999999,0.0399999409,0.0399999552,-9.811240299999993,0.012033740803625806,-0.0027526952200049755,-0.0036298611300083017,-0.010648690443484233,0.00521130394001196
0.40750000000000003,0.0008329675130021373,-0.7841416874999981,-0.0002793872965010255,-2.355943795,0.0005402503530014342,1.57095074,0.7859734899999999,0.03999994135,0.0399999558,-9.811189449999992,0.012213425897088435,-0.0027864640300050065,-0.003686201595008353,-0.010637449054045718,0.005292474310012034
0.41000000000000003,0.0008473837640021504,-0.7841288999999981,-0.00028630394200103177,-2.35594096,0.000549923904001443,1.57095032,0.7859729199999999,0.0399999418,0.0399999564,-9.811138599999992,0.012393110990551064,-0.002820232840005037,-0.0037425420600084042,-0.010626207664607203,0.005373644680012109
0.41250000000000003,0.0008618000150021636,-0.784116112499998,-0.00029322058750103807,-2.3559381249999998,0.0005595974550014518,1.5709499,0.7859723499999999,0.039999942250000003,0.039999957,-9.811087749999992,0.012572796084013693,-0.002854001650005068,-0.0037988825250084555,-0.010614966275168688,0.005454815050012182
0.41500000000000004,0.0008762162660021766,-0.784103324999998,-0.00030013723300104436,-2.3559352899999997,0.0005692710060014606,1.57094948,0.7859717799999999,0.039999942700000006,0.039999957600000004,-9.811036899999992,0.012752481177476321,-0.0028877704600050987,-0.0038552229900085068,-0.010603724885730172,0.005535985420012256
0.4175,0.000891123545002341,-0.7840902399999979,-0.0003072894700011232,-2.3559322699999994,0.0005792739410015708,1.570949055,0.7859712099999999,0.039999943200000006,0.0399999581,-9.810983149999991,0.012938715517550232,-0.002921742990005065,-0.003912678595008793,-0.010591247258705618,0.005618615420012604
0.42,0.0009070128800021387,-0.7840765599999981,-0.0003149128900010261,-2.3559288799999996,0.0005899356440014351,1.57094862,0.7859706399999999,0.0399999438,0.0399999584,-9.810923599999992,0.01313804835083779,-0.0029561229600046277,-0.003972364480008034,-0.010576297156510667,0.005704164680011515
0.4225,0.0009229022150019364,-0.7840628799999984,-0.00032253631000092906,-2.3559254899999997,0.0006005973470012992,1.570948185,0.78597007,0.0399999444,0.039999958700000005,-9.810864049999992,0.013337381184125347,-0.00299050293000419,-0.004032050365007274,-0.010561347054315717,0.0057897139400104256
0.425,0.0009387915500017342,-0.7840491999999986,-0.000330159730000832,-2.3559221,0.0006112590500011635,1.57094775,0.7859694999999999,0.039999945,0.039999959,-9.810804499999993,0.013536714017412904,-0.003024882900003752,-0.004091736250006514,-0.010546396952120767,0.005875263200009337
0.4275,0.0009546808850015319,-0.7840355199999987,-0.00033778315000073495,-2.3559187099999996,0.0006219207530010278,1.570947315,0.7859689299999999,0.0399999456,0.0399999593,-9.810744949999995,0.013736046850700461,-0.0030592628700033143,-0.004151422135005754,-0.010531446849925819,0.005960812460008247
0.43,0.0009705702200013296,-0.7840218399999989,-0.00034540657000063787,-2.35591532,0.000632582456000892,1.57094688,0.7859683599999999,0.039999946200000004,0.0399999596,-9.810685399999995,0.013935379683988018,-0.003093642840002877,-0.004211108020004994,-0.010516496747730869,0.006046361720007158
0.4325,0.0009864595550011274,-0.7840081599999991,-0.00035302999000054084,-2.35591193,0.0006432441590007563,1.570946445,0.7859677899999999,0.0399999468,0.0399999599,-9.810625849999996,0.014134712517275575,-0.003128022810002439,-0.004270793905004234,-0.010501546645535919,0.0061319109800060684
0.435,0.0010033811600014908,-0.7839938799999988,-0.00036114867500071525,-2.3559080999999997,0.0006545983400010003,1.5709460199999998,0.78596722,0.0399999473,0.0399999606,-9.810574399999997,0.014334521535801044,-0.003172654220004254,-0.004332673830005384,-0.010484486818312011,0.006220362610007686
0.4375,0.0010208189000019826,-0.7839792999999984,-0.00036951499250095115,-2.3559040499999995,0.0006662987600013302,1.5709456,0.7859666499999999,0.03999994775,0.0399999615,-9.810526999999995,0.014534568646945393,-0.003222411350005657,-0.00439565077500716,-0.01046637212857394,0.00631026542501022
0.44,0.0010382566400024742,-0.783964719999998,-0.00037788131000118704,-2.3558999999999997,0.00067799918000166,1.5709451799999998,0.7859660799999999,0.0399999482,0.0399999624,-9.810479599999994,0.014734615758089743,-0.00327216848000706,-0.004458627720008936,-0.01044825743883587,0.006400168240012756
0.4425,0.0010556943800029658,-0.7839501399999975,-0.00038624762750142294,-2.3558959499999994,0.0006896996000019899,1.57094476,0.7859655099999999,0.03999994865,0.0399999633,-9.810432199999992,0.014934662869234094,-0.0033219256100084625,-0.004521604665010711,-0.0104301427490978,0.00649007105501529
0.445,0.0010731321200034576,-0.7839355599999971,-0.00039461394500165883,-2.355891899999999,0.0007014000200023198,1.5709443399999998,0.7859649399999998,0.0399999491,0.0399999642,-9.81038479999999,0.015134709980378443,-0.0033716827400098654,-0.004584581610012487,-0.010412028059359727,0.006579973870017825
0.4475,0.0010905698600039491,-0.7839209799999967,-0.0004029802625018947,-2.355887849999999,0.0007131004400026497,1.57094392,0.7859643699999999,0.03999994955,0.0399999651,-9.81033739999999,0.015334757091522794,-0.0034214398700112684,-0.004647558555014262,-0.010393913369621657,0.00666987668502036
0.45,0.0011080076000048542,-0.783906399999996,-0.0004113465800023289,-2.3558837999999986,0.0007248008600032569,1.5709435,0.7859637999999998,0.03999995,0.039999966,-9.810289999999986,0.01553480420267443,-0.003471197000009709,-0.00471053550001688,-0.01037579867988266,0.006759779500023963
0.4525,0.0011270686100046114,-0.7838907399999963,-0.0004204917125022125,-2.355879089999999,0.0007375900610030941,1.570943065,0.7859629374999998,0.0399999512,0.039999967649999996,-9.810231049999986,0.015763462102095952,-0.0035093215400092237,-0.004776822450016037,-0.010354038840154466,0.006853873975022765
0.455,0.0011461296200043689,-0.7838750799999964,-0.0004296368450020961,-2.355874379999999,0.0007503792620029313,1.57094263,0.7859620749999998,0.039999952400000004,0.0399999693,-9.810172099999987,0.015992120001517476,-0.003547446080008738,-0.004843109400015193,-0.010332279000426273,0.0069479684500215666
0.4575,0.001165190630004126,-0.7838594199999966,-0.0004387819775019796,-2.355869669999999,0.0007631684630027684,1.570942195,0.7859612124999998,0.0399999536,0.03999997095,-9.810113149999987,0.016220777900939003,-0.003585570620008253,-0.004909396350014349,-0.01031051916069808,0.0070420629250203684
0.46,0.0011842516400038835,-0.7838437599999968,-0.0004479271100018632,-2.355864959999999,0.0007759576640026056,1.57094176,0.7859603499999998,0.0399999548,0.039999972599999996,-9.810054199999987,0.016449435800360526,-0.003623695160007767,-0.004975683300013505,-0.010288759320969888,0.00713615740001917
0.4625,0.0012033126500036408,-0.783828099999997,-0.00045707224250174676,-2.3558602499999988,0.0007887468650024428,1.570941325,0.7859594874999998,0.039999956,0.03999997425,-9.809995249999988,0.01667809369978205,-0.003661819700007282,-0.005041970250012661,-0.010266999481241695,0.007230251875017972
0.465,0.001222373660003398,-0.7838124399999972,-0.00046621737500163033,-2.355855539999999,0.00080153606600228,1.57094089,0.7859586249999998,0.039999957200000005,0.0399999759,-9.80993629999999,0.016906751599203573,-0.0036999442400067963,-0.005108257200011818,-0.010245239641513502,0.007324346350016775
0.4675,0.0012420004900035309,-0.7837964349999972,-0.000475634018501694,-2.355850629999999,0.000814704853002369,1.5709404599999999,0.7859577624999998,0.0399999581,0.03999997715,-9.809882649999992,0.0171361641027426,-0.0037466948950108858,-0.00517520097501161,-0.010222499957303954,0.007419910600016754
0.47000000000000003,0.0012627589600035496,-0.7837797399999972,-0.0004855936840017031,-2.355845319999999,0.0008286328120023816,1.5709400399999998,0.7859568999999998,0.0399999584,0.0399999776,-9.809839599999991,0.017367085814515487,-0.0038106977800109443,-0.005243458400011672,-0.010197800584133197,0.007518414400016844
0.47250000000000003,0.0012835174300035686,-0.7837630449999972,-0.0004955533495017121,-2.355840009999999,0.0008425607710023943,1.5709396199999999,0.7859560374999999,0.039999958700000005,0.039999978049999996,-9.809796549999993,0.017598007526288373,-0.0038747006650110024,-0.005311715825011734,-0.010173101210962439,0.007616918200016934
0.47500000000000003,0.0013042759000035874,-0.7837463499999971,-0.0005055130150017212,-2.355834699999999,0.000856488730002407,1.5709392,0.7859551749999999,0.039999959,0.0399999785,-9.809753499999992,0.017828929238061255,-0.003938703550011061,-0.005379973250011796,-0.010148401837791681,0.007715422000017023
0.47750000000000004,0.0013250343700036064,-0.783729654999997,-0.0005154726805017303,-2.355829389999999,0.0008704166890024196,1.5709387799999999,0.7859543124999999,0.0399999593,0.03999997895,-9.809710449999992,0.01805985094983414,-0.004002706435011119,-0.005448230675011858,-0.010123702464620925,0.007813925800017113
0.48,0.0013457928400036248,-0.783712959999997,-0.0005254323460017391,-2.355824079999999,0.000884344648002432,1.57093836,0.7859534499999998,0.0399999596,0.039999979399999996,-9.809667399999991,0.018290772661607023,-0.004066709320011176,-0.005516488100011919,-0.010099003091450167,0.0079124296000172
0.4825,0.0013665513100036436,-0.783696264999997,-0.0005353920115017481,-2.355818769999999,0.0008982726070024447,1.5709379399999999,0.7859525874999999,0.0399999599,0.03999997985,-9.809624349999991,0.01852169437337991,-0.0041307122050112345,-0.00558474552501198,-0.01007430371827941,0.00801093340001729
0.485,0.001388490430003975,-0.7836788259999968,-0.0005459181700019071,-2.355812949999999,0.000912992574002667,1.57093751,0.7859517299999998,0.03999996,0.03999998,-9.80958099999999,0.018773376755462586,-0.004182131110007962,-0.0056552032000126255,-0.01004759473725661,0.008112265200018128
0.4875,0.0014110198750039956,-0.7836610149999969,-0.000556727575001917,-2.355806874999999,0.0009281085450026808,1.570937075,0.7859508749999999,0.03999996,0.03999998,-9.809537499999992,0.019035439472691953,-0.004227258025008003,-0.005726761000012691,-0.010019880952308585,0.008215011000018221
0.49,0.001433549320004016,-0.7836432039999968,-0.0005675369800019268,-2.355800799999999,0.0009432245160026945,1.57093664,0.7859500199999999,0.03999996,0.03999998,-9.809493999999992,0.019297502189921316,-0.004272384940008044,-0.005798318800012756,-0.009992167167360561,0.008317756800018315
0.4925,0.0014560787650040367,-0.7836253929999968,-0.0005783463850019367,-2.355794724999999,0.0009583404870027083,1.570936205,0.7859491649999999,0.03999996,0.03999998,-9.809450499999992,0.01955956490715068,-0.004317511855008086,-0.005869876600012821,-0.009964453382412536,0.008420502600018408
0.495,0.001478608210004057,-0.7836075819999968,-0.0005891557900019465,-2.355788649999999,0.0009734564580027219,1.57093577,0.7859483099999999,0.03999996,0.03999998,-9.809406999999991,0.019821627624380042,-0.004362638770008126,-0.005941434400012886,-0.00993673959746451,0.008523248400018503
0.4975,0.0015011376550040777,-0.7835897709999967,-0.0005999651950019564,-2.355782574999999,0.0009885724290027357,1.570935335,0.7859474549999999,0.03999996,0.03999998,-9.809363499999991,0.020083690341609405,-0.0044077656850081675,-0.0060129922000129515,-0.009909025812516485,0.008625994200018597
0.5,0.0015236671000044336,-0.7835719599999965,-0.0006107746000021272,-2.355776499999999,0.0010036884000029745,1.5709349,0.7859465999999999,0.03999996,0.03999998,-9.809319999999989,0.020345753058838838,-0.004452892600012655,-0.006084550000013611,-0.00988131202756779,0.00872874000001943
0.5025000000000001,0.0015480404350044564,-0.7835528859999965,-0.000622468750002138,-2.355769704999999,0.0010200412200029897,1.570934465,0.7859457449999999,0.0399999609,0.0399999812,-9.80926164999999,0.020608176756698127,-0.00452246483501272,-0.006159375910013681,-0.009849917469540375,0.008835550350019528
0.505,0.0015724137700044779,-0.7835338119999965,-0.0006341629000021484,-2.355762909999999,0.0010363940400030043,1.5709340299999999,0.7859448899999999,0.0399999618,0.0399999824,-9.80920329999999,0.0208706004545574,-0.004592037070012782,-0.006234201820013747,-0.009818522911512962,0.008942360700019624
0.5075000000000001,0.0015967871050045007,-0.7835147379999965,-0.0006458570500021593,-2.355756114999999,0.0010527468600030196,1.5709335949999998,0.7859440349999999,0.0399999627,0.0399999836,-9.809144949999988,0.021133024152416694,-0.004661609305012847,-0.006309027730013817,-0.009787128353485549,0.009049171050019723
0.51,0.0016211604400045224,-0.7834956639999965,-0.0006575512000021697,-2.355749319999999,0.0010690996800030341,1.5709331599999998,0.7859431799999999,0.0399999636,0.0399999848,-9.809086599999988,0.02139544785027597,-0.004731181540012909,-0.006383853640013884,-0.009755733795458136,0.009155981400019818
0.5125,0.0016455337750045439,-0.7834765899999965,-0.0006692453500021801,-2.355742524999999,0.0010854525000030485,1.5709327249999998,0.7859423249999999,0.0399999645,0.039999986,-9.809028249999988,0.021657871548135248,-0.00480075377501297,-0.00645867955001395,-0.009724339237430723,0.009262791750019912
0.515,0.0016699071100045666,-0.7834575159999965,-0.000680939500002191,-2.355735729999999,0.001101805320003064,1.57093229,0.7859414699999999,0.0399999654,0.0399999872,-9.808969899999989,0.021920295245994537,-0.004870326010013035,-0.00653350546001402,-0.009692944679403308,0.009369602100020013
0.5175,0.001694919055004949,-0.7834380099999962,-0.0006929400980023745,-2.355728709999999,0.0011185865150033203,1.57093186,0.7859405199999998,0.039999966,0.039999988,-9.808918649999992,0.022194881364759365,-0.004937790805011907,-0.006609395930014687,-0.00966070201247284,0.00947783570002091
0.52,0.0017212082200049736,-0.7834176399999961,-0.0007055535920023863,-2.3557212399999985,0.0011362244600033368,1.5709314399999998,0.7859393799999999,0.039999966,0.039999988,-9.808881599999992,0.02249379232531473,-0.005001040720011966,-0.00668741552001476,-0.009626763127737699,0.009588915800021015
0.5225,0.0017474973850049968,-0.7833972699999961,-0.0007181670860023975,-2.3557137699999986,0.0011538624050033525,1.57093102,0.7859382399999998,0.039999966,0.039999988,-9.808844549999993,0.02279270328587008,-0.005064290635012022,-0.00676543511001483,-0.009592824243002559,0.009699995900021113
0.525,0.0017737865500050214,-0.7833768999999962,-0.0007307805800024093,-2.3557062999999987,0.001171500350003369,1.5709305999999998,0.7859370999999998,0.039999966,0.039999988,-9.808807499999993,0.023091614246425442,-0.005127540550012081,-0.0068434547000149025,-0.009558885358267417,0.009811076000021218
0.5275,0.0018000757150050447,-0.7833565299999962,-0.0007433940740024204,-2.3556988299999984,0.0011891382950033845,1.57093018,0.7859359599999998,0.039999966,0.039999988,-9.808770449999992,0.023390525206980792,-0.005190790465012137,-0.006921474290014972,-0.009524946473532277,0.009922156100021316
0.53,0.0018263648800050693,-0.7833361599999961,-0.0007560075680024321,-2.3556913599999985,0.0012067762400034012,1.5709297599999998,0.7859348199999997,0.039999966,0.039999988,-9.808733399999992,0.023689436167536156,-0.005254040380012196,-0.006999493880015044,-0.009491007588797135,0.010033236200021419
0.5325,0.0018526540450050926,-0.7833157899999961,-0.0007686210620024434,-2.3556838899999986,0.0012244141850034167,1.5709293399999997,0.7859336799999997,0.039999966,0.039999988,-9.808696349999993,0.023988347128091506,-0.005317290295012252,-0.007077513470015113,-0.009457068704061995,0.010144316300021518
0.535,0.0018802679200055038,-0.7832945499999958,-0.0007818702040026408,-2.3556758899999983,0.0012429407200036926,1.57092891,0.7859325399999997,0.0399999652,0.0399999876,-9.808657799999992,0.024286085926054107,-0.005396861140017076,-0.007156843520015569,-0.009421276859931863,0.01025802980002239
0.5375,0.001908544150005529,-0.7832728749999958,-0.0007954371700026528,-2.3556676249999984,0.0012619115500037096,1.5709284749999999,0.7859313999999997,0.039999964,0.039999987,-9.808618499999993,0.024583238642720828,-0.0054845924500171546,-0.00723682880001564,-0.009384558536105045,0.010373060000022492
0.54,0.0019368203800055551,-0.7832511999999958,-0.0008090041360026654,-2.3556593599999984,0.0012808823800037272,1.5709280399999999,0.7859302599999998,0.0399999628,0.0399999864,-9.808579199999992,0.02488039135938756,-0.005572323760017236,-0.007316814080015715,-0.009347840212278226,0.0104880902000226
0.5425,0.0019650966100055803,-0.7832295249999958,-0.0008225711020026775,-2.3556510949999985,0.0012998532100037441,1.5709276049999998,0.7859291199999997,0.0399999616,0.0399999858,-9.808539899999992,0.02517754407605428,-0.005660055070017314,-0.007396799360015785,-0.009311121888451408,0.010603120400022701
0.545,0.0019933728400056065,-0.7832078499999957,-0.0008361380680026901,-2.3556428299999985,0.0013188240400037617,1.5709271699999998,0.7859279799999997,0.0399999604,0.039999985200000004,-9.808500599999991,0.025474696792721012,-0.0057477863800173955,-0.00747678464001586,-0.009274403564624589,0.010718150600022808
0.5475,0.002021649070005632,-0.7831861749999958,-0.0008497050340027022,-2.355634564999998,0.0013377948700037784,1.5709267349999998,0.7859268399999997,0.039999959200000004,0.0399999846,-9.808461299999992,0.025771849509387733,-0.005835517690017474,-0.007556769920015931,-0.009237685240797771,0.01083318080002291
0.55,0.0020499253000060697,-0.7831644999999954,-0.0008632720000029124,-2.355626299999998,0.0013567657000040723,1.5709263,0.7859256999999997,0.039999958,0.039999984,-9.808421999999991,0.02606900222606244,-0.005923249000014404,-0.007636755200016638,-0.009200966916970338,0.01094821100002385
0.5525,0.0020802586000060967,-0.7831414149999953,-0.0008778261700029253,-2.3556172999999982,0.0013771165600040905,1.570925865,0.7859245539999997,0.0399999574,0.0399999834,-9.80837429999999,0.02640602486214849,-0.005995227025014468,-0.007719898820016712,-0.009161179559297263,0.011067396800023955
0.555,0.002110591900006125,-0.7831183299999954,-0.0008923803400029389,-2.3556082999999983,0.0013974674200041095,1.57092543,0.7859234079999997,0.0399999568,0.0399999828,-9.80832659999999,0.026743047498234553,-0.006067205050014534,-0.007803042440016789,-0.009121392201624185,0.011186582600024066
0.5575,0.002140925200006152,-0.7830952449999954,-0.0009069345100029518,-2.355599299999998,0.0014178182800041275,1.570924995,0.7859222619999997,0.0399999562,0.0399999822,-9.80827889999999,0.027080070134320604,-0.006139183075014598,-0.007886186060016863,-0.00908160484395111,0.011305768400024173
0.56,0.0021712585000061803,-0.7830721599999954,-0.0009214886800029654,-2.355590299999998,0.0014381691400041465,1.57092456,0.7859211159999997,0.0399999556,0.0399999816,-9.808231199999991,0.027417092770406666,-0.006211161100014666,-0.007969329680016941,-0.009041817486278032,0.011424954200024283
0.5625,0.0022015918000062073,-0.7830490749999953,-0.0009360428500029784,-2.355581299999998,0.0014585200000041647,1.570924125,0.7859199699999997,0.039999955,0.039999981,-9.808183499999991,0.027754115406492717,-0.0062831391250147296,-0.008052473300017014,-0.009002030128604958,0.01154414000002439
0.5650000000000001,0.0022319251000062356,-0.7830259899999953,-0.0009505970200029918,-2.355572299999998,0.0014788708600041835,1.5709236899999999,0.7859188239999997,0.039999954399999996,0.039999980399999996,-9.80813579999999,0.028091138042578782,-0.006355117150014796,-0.008135616920017092,-0.00896224277093188,0.0116633258000245
0.5675,0.002262967195006849,-0.7830024249999948,-0.0009654913200032863,-2.355563054999998,0.001499697190004595,1.57092326,0.7859176394999997,0.039999954,0.0399999802,-9.808093249999994,0.02842773320160434,-0.006436784855021321,-0.008219799700018201,-0.008921622624611871,0.011783788650025957
0.5700000000000001,0.0022954268800073224,-0.7829778999999945,-0.0009810658800035134,-2.3555533199999976,0.0015214744600049125,1.57092284,0.7859163779999997,0.039999954,0.0399999808,-9.808060999999993,0.028763473406509737,-0.006537831920022794,-0.00830606080001946,-0.00887933690099954,0.01190680560002775
0.5725,0.002327886565007794,-0.7829533749999941,-0.0009966404400037396,-2.3555435849999977,0.001543251730005229,1.57092242,0.7859151164999997,0.039999954,0.0399999814,-9.808028749999993,0.029099213611415115,-0.006638878985024262,-0.008392321900020712,-0.008837051177387211,0.012029822550029538
0.5750000000000001,0.002360346250008267,-0.7829288499999938,-0.0010122150000039666,-2.3555338499999974,0.0015650290000055462,1.570922,0.7859138549999997,0.039999954,0.039999982,-9.807996499999991,0.029434953816320508,-0.006739926050025735,-0.00847858300002197,-0.00879476545377488,0.012152839500031331
0.5775,0.002392805935008739,-0.7829043249999934,-0.0010277895600041928,-2.3555241149999975,0.0015868062700058628,1.5709215799999998,0.7859125934999996,0.039999954,0.0399999826,-9.80796424999999,0.029770694021225886,-0.006840973115027203,-0.008564844100023223,-0.00875247973016255,0.012275856450033118
0.58,0.0024252656200092104,-0.782879799999993,-0.0010433641200044193,-2.355514379999997,0.0016085835400061791,1.57092116,0.7859113319999996,0.039999954,0.0399999832,-9.80793199999999,0.030106434226131264,-0.006942020180028671,-0.008651105200024477,-0.008710194006550221,0.012398873400034906
0.5825,0.0024577253050096833,-0.7828552749999927,-0.0010589386800046463,-2.3555046449999972,0.0016303608100064965,1.5709207399999998,0.7859100704999996,0.039999954,0.0399999838,-9.80789974999999,0.03044217443103666,-0.007043067245030144,-0.008737366300025733,-0.00866790828293789,0.012521890350036698
0.585,0.002491647980010211,-0.7828297259999923,-0.0010752153300048995,-2.355494359999997,0.0016531195400068506,1.5709202999999998,0.7859086949999996,0.039999953299999995,0.0399999833,-9.807863249999988,0.03080585505824481,-0.007135915870026151,-0.008825376200026191,-0.008623873721794947,0.012647587100037433
0.5875,0.002526302150009771,-0.7828036649999927,-0.0010918430250046883,-2.355483799999997,0.0016763690000065551,1.57091985,0.7859072624999996,0.03999995225,0.03999998225,-9.807824624999988,0.031183505896585306,-0.007224665275025023,-0.008914260500025062,-0.00857896474188789,0.012774623750035819
0.59,0.0025609563200093286,-0.782777603999993,-0.0011084707200044763,-2.355473239999997,0.0016996184600062587,1.5709194,0.7859058299999996,0.0399999512,0.0399999812,-9.80778599999999,0.03156115673492579,-0.007313414680023891,-0.009003144800023928,-0.008534055761980831,0.012901660400034197
0.5925,0.0025956104900088884,-0.7827515429999933,-0.0011250984150042648,-2.3554626799999974,0.0017228679200059632,1.5709189499999998,0.7859043974999996,0.03999995015,0.03999998015,-9.80774737499999,0.03193880757326628,-0.007402164085022763,-0.009092029100022799,-0.008489146782073772,0.013028697050032583
0.595,0.002630264660008446,-0.7827254819999936,-0.0011417261100040528,-2.355452119999997,0.0017461173800056666,1.5709184999999999,0.7859029649999997,0.0399999491,0.0399999791,-9.80770874999999,0.032316458411606755,-0.007490913490021631,-0.009180913400021664,-0.008444237802166715,0.013155733700030963
0.5975,0.002664918830008006,-0.782699420999994,-0.0011583538050038414,-2.3554415599999974,0.0017693668400053711,1.57091805,0.7859015324999996,0.03999994805,0.03999997805,-9.80767012499999,0.032694109249947256,-0.007579662895020503,-0.009269797700020534,-0.008399328822259656,0.013282770350029349
0.6,0.0026995730000080576,-0.782673359999994,-0.0011749815000038663,-2.355430999999997,0.0017926163000054058,1.5709176,0.7859000999999997,0.039999947,0.039999977,-9.807631499999992,0.033071760088287445,-0.007668412300025637,-0.0093586820000199,-0.008354419842352107,0.013409807000028534
0.6025,0.002736488720008092,-0.7826457509999939,-0.0011926945500038827,-2.355419674999997,0.0018173827100054288,1.5709171499999999,0.7858986749999997,0.039999947,0.03999997745,-9.807602024999992,0.03344811033465764,-0.007785867805025747,-0.009449853500019985,-0.008307259483252543,0.013540540400028656
0.605,0.0027734044400081247,-0.7826181419999939,-0.0012104076000038985,-2.355408349999997,0.0018421491200054508,1.5709167,0.7858972499999997,0.039999947,0.0399999779,-9.807572549999993,0.03382446058102782,-0.00790332331002585,-0.009541025000020065,-0.008260099124152981,0.013671273800028774
0.6075,0.0028103201600081593,-0.7825905329999939,-0.001228120650003915,-2.3553970249999976,0.0018669155300054738,1.57091625,0.7858958249999997,0.039999947,0.03999997835,-9.807543074999993,0.034200810827398,-0.008020778815025961,-0.009632196500020151,-0.008212938765053416,0.013802007200028894
0.61,0.0028472358800081922,-0.7825629239999939,-0.0012458337000039307,-2.3553856999999976,0.0018916819400054958,1.5709157999999999,0.7858943999999997,0.039999947,0.039999978799999995,-9.807513599999993,0.03457716107376818,-0.008138234320026064,-0.009723368000020232,-0.008165778405953854,0.013932740600029012
0.6125,0.0028841516000082264,-0.7825353149999938,-0.0012635467500039473,-2.3553743749999976,0.001916448350005519,1.57091535,0.7858929749999997,0.039999947,0.03999997925,-9.807484124999993,0.03495351132013837,-0.008255689825026174,-0.009814539500020317,-0.00811861804685429,0.014063474000029132
0.615,0.0029210673200082593,-0.7825077059999939,-0.0012812598000039631,-2.3553630499999976,0.0019412147600055408,1.5709149,0.7858915499999997,0.039999947,0.0399999797,-9.807454649999993,0.035329861566508546,-0.008373145330026279,-0.009905711000020398,-0.008071457687754729,0.01419420740002925
0.6175,0.002958758880008817,-0.7824795549999934,-0.0012993452150042305,-2.3553514599999974,0.0019665016600059148,1.5709144499999999,0.7858900984999997,0.03999994715,0.0399999802,-9.807421349999991,0.03572117798039837,-0.00848664440002372,-0.009997889700021162,-0.008023406844574855,0.014326234150030244
0.62,0.0029980021200088514,-0.7824503199999935,-0.0013181753600042473,-2.3553393399999973,0.001992829540005938,1.570914,0.7858885939999997,0.0399999476,0.0399999808,-9.80738039999999,0.03614242672929725,-0.008592230600023815,-0.010092082800021246,-0.00797357503323616,0.014460847600030363
0.6225,0.003037245360008888,-0.7824210849999934,-0.0013370055050042648,-2.3553272199999973,0.002019157420005963,1.57091355,0.7858870894999996,0.03999994805,0.0399999814,-9.80733944999999,0.03656367547819615,-0.008697816800023914,-0.010186275900021333,-0.007923743221897464,0.014595461050030487
0.625,0.003076488600008923,-0.7823918499999933,-0.0013558356500042814,-2.355315099999997,0.0020454853000059863,1.5709131,0.7858855849999996,0.0399999485,0.039999982,-9.807298499999991,0.03698492422709503,-0.008803403000024006,-0.010280469000021417,-0.00787391141055877,0.014730074500030608
0.6275000000000001,0.0031157318400089596,-0.7823626149999933,-0.0013746657950042991,-2.355302979999997,0.002071813180006011,1.57091265,0.7858840804999997,0.03999994895,0.0399999826,-9.80725754999999,0.03740617297599393,-0.008908989200024106,-0.010374662100021505,-0.007824079599220072,0.014864687950030733
0.63,0.003154975080008994,-0.7823333799999933,-0.0013934959400043157,-2.355290859999997,0.0020981410600060344,1.5709122,0.7858825759999997,0.0399999494,0.0399999832,-9.807216599999991,0.03782742172489281,-0.0090145754000242,-0.010468855200021589,-0.007774247787881379,0.014999301400030852
0.6325000000000001,0.003194218320009031,-0.7823041449999932,-0.0014123260850043332,-2.355278739999997,0.002124468940006059,1.57091175,0.7858810714999996,0.03999994985,0.0399999838,-9.80717564999999,0.038248670473791706,-0.009120161600024298,-0.010563048300021676,-0.007724415976542683,0.015133914850030978
0.635,0.0032350564600096185,-0.7822737939999929,-0.0014319216900046154,-2.355266039999997,0.002151866710006453,1.57091128,0.7858794329999996,0.03999995,0.0399999844,-9.807145999999994,0.038669024407960585,-0.009246157700031465,-0.01065906110002239,-0.007673132698970935,0.015270895200031918
0.6375000000000001,0.0032766920500096573,-0.7822428849999928,-0.0014519000250046339,-2.355253049999997,0.002179799425006479,1.5709107999999998,0.7858777274999996,0.03999995,0.039999985,-9.807121999999994,0.03908893093476495,-0.009382358750031591,-0.010755983750022482,-0.007621123688283412,0.015409059000032047
0.64,0.0033183276400096944,-0.7822119759999928,-0.0014718783600046518,-2.3552400599999967,0.002207732140006504,1.5709103199999999,0.7858760219999996,0.03999995,0.0399999856,-9.807097999999995,0.03950883746156929,-0.009518559800031712,-0.010852906400022568,-0.007569114677595891,0.01554722280003217
0.6425,0.0033599632300097314,-0.7821810669999928,-0.0014918566950046694,-2.3552270699999966,0.0022356648550065287,1.57090984,0.7858743164999996,0.03999995,0.039999986200000004,-9.807073999999995,0.03992874398837363,-0.009654760850031833,-0.010949829050022654,-0.007517105666908369,0.015685386600032294
0.645,0.00340159882000977,-0.7821501579999928,-0.0015118350300046882,-2.355214079999997,0.0022635975700065545,1.57090936,0.7858726109999996,0.03999995,0.0399999868,-9.807049999999995,0.04034865051517799,-0.00979096190003196,-0.011046751700022743,-0.007465096656220846,0.015823550400032423
0.6475,0.0034432344100098072,-0.7821192489999927,-0.0015318133650047059,-2.355201089999997,0.0022915302850065795,1.57090888,0.7858709054999996,0.03999995,0.0399999874,-9.807025999999995,0.04076855704198234,-0.00992716295003208,-0.01114367435002283,-0.007413087645533324,0.015961714200032544
0.65,0.0034848700000104267,-0.7820883399999923,-0.0015517917000050032,-2.355188099999997,0.002319463000006995,1.5709083999999998,0.7858691999999996,0.03999995,0.039999988,-9.807001999999994,0.04118846356879509,-0.010063364000031397,-0.011240597000023387,-0.007361078634845309,0.016099878000033555
0.6525,0.003528961600010466,-0.7820556939999923,-0.0015729487950050221,-2.3551742249999967,0.0023490432700070214,1.5709079199999998,0.7858674809999996,0.03999995,0.039999988,-9.806972149999993,0.04164386242638903,-0.010196135750031516,-0.011339494775023475,-0.007306990143830126,0.01624176735003368
0.655,0.003573053200010507,-0.7820230479999922,-0.0015941058900050418,-2.3551603499999967,0.002378623540007049,1.5709074399999998,0.7858657619999996,0.03999995,0.039999988,-9.806942299999994,0.04209926128398299,-0.01032890750003164,-0.011438392550023567,-0.007252901652814941,0.016383656700033812
0.6575,0.003617144800010546,-0.7819904019999923,-0.0016152629850050605,-2.3551464749999966,0.002408203810007075,1.5709069599999999,0.7858640429999996,0.03999995,0.039999988,-9.806912449999993,0.04255466014157693,-0.010461679250031757,-0.011537290325023654,-0.007198813161799758,0.016525546050033937
0.66,0.003661236400010587,-0.7819577559999922,-0.0016364200800050802,-2.3551325999999966,0.0024377840800071026,1.5709064799999999,0.7858623239999996,0.03999995,0.039999988,-9.806882599999993,0.04301005899917089,-0.010594451000031882,-0.011636188100023747,-0.007144724670784572,0.01666743540003407
0.6625,0.0037053280000106264,-0.7819251099999922,-0.001657577175005099,-2.3551187249999965,0.002467364350007129,1.5709059999999997,0.7858606049999995,0.03999995,0.039999988,-9.806852749999994,0.043465457856764825,-0.010727222750032,-0.011735085875023836,-0.0070906361797693895,0.016809324750034195
0.665,0.003749419600010668,-0.7818924639999921,-0.0016787342700051188,-2.3551048499999965,0.0024969446200071564,1.5709055199999997,0.7858588859999995,0.03999995,0.039999988,-9.806822899999993,0.04392085671435879,-0.010859994500032123,-0.011833983650023928,-0.007036547688754204,0.016951214100034327
0.6675,0.0037943507150113185,-0.7818592299999917,-0.001700294255005431,-2.3550906999999963,0.002527087975007593,1.5709050349999998,0.7858571379999996,0.03999994965,0.0399999878,-9.80678749999999,0.04438741318893378,-0.010993393900032698,-0.01193384952502472,-0.006981570692719124,0.017094234550035278
0.67,0.0038409608600113616,-0.7818248199999916,-0.001722660020005452,-2.3550759999999964,0.0025583575000076224,1.5709045399999997,0.7858553319999996,0.0399999486,0.0399999872,-9.806740999999988,0.04487628489744655,-0.011128048600032824,-0.012035651600024816,-0.0069248166866461855,0.017239517200035415
0.6725,0.003887571005011403,-0.7817904099999916,-0.0017450257850054717,-2.3550612999999965,0.0025896270250076498,1.5709040449999998,0.7858535259999996,0.03999994755,0.0399999866,-9.806694499999988,0.04536515660595929,-0.011262703300032944,-0.012137453675024905,-0.00686806268057325,0.017384799850035545
0.675,0.003934181150011446,-0.7817559999999916,-0.0017673915500054926,-2.355046599999996,0.0026208965500076793,1.5709035499999997,0.7858517199999996,0.0399999465,0.039999986,-9.806647999999988,0.04585402831447206,-0.011397358000033069,-0.012239255750025,-0.006811308674500312,0.01753008250003568
0.6775,0.0039807912950114875,-0.7817215899999915,-0.0017897573150055125,-2.355031899999996,0.0026521660750077067,1.5709030549999998,0.7858499139999995,0.039999945450000005,0.0399999854,-9.806601499999989,0.0463429000229848,-0.011532012700033187,-0.01234105782502509,-0.006754554668427377,0.01767536515003581
0.68,0.0040274014400115314,-0.7816871799999915,-0.0018121230800055334,-2.3550171999999963,0.0026834356000077363,1.5709025599999997,0.7858481079999995,0.0399999444,0.0399999848,-9.806554999999989,0.04683177173149757,-0.011666667400033314,-0.012442859900025185,-0.006697800662354439,0.017820647800035946
0.6825,0.004074011585011573,-0.7816527699999914,-0.0018344888450055532,-2.3550024999999963,0.0027147051250077637,1.5709020649999998,0.7858463019999995,0.039999943350000004,0.039999984200000005,-9.806508499999989,0.047320643440010315,-0.011801322100033432,-0.012544661975025276,-0.006641046656281503,0.017965930450036072
0.685,0.004122341090012259,-0.781617129999991,-0.0018576799700058826,-2.354987279999996,0.0027471283700082243,1.5709014999999997,0.7858443699999995,0.039999943,0.039999984,-9.806482799999996,0.04781133756053776,-0.011956881300041373,-0.012648102600025983,-0.006583119742557657,0.0181135946000371
0.6875,0.0041715302750123025,-0.781580874999991,-0.0018812837750059035,-2.354971799999996,0.0027801284750082534,1.5709008999999998,0.7858423749999995,0.039999943,0.039999984,-9.806467499999997,0.04830294288707151,-0.01212289275004152,-0.012752362500026076,-0.006524606375009015,0.01826244950003723
0.6900000000000001,0.004220719460012349,-0.7815446199999909,-0.0019048875800059255,-2.354956319999996,0.0028131285800082843,1.5709003,0.7858403799999994,0.039999943,0.039999984,-9.806452199999995,0.04879454821360527,-0.012288904200041676,-0.012856622400026173,-0.006466093007460371,0.018411304400037368
0.6925,0.004269908645012393,-0.7815083649999909,-0.0019284913850059465,-2.3549408399999963,0.002846128685008314,1.5708996999999998,0.7858383849999995,0.039999943,0.039999984,-9.806436899999996,0.04928615354013902,-0.012454915650041823,-0.012960882300026266,-0.006407579639911729,0.0185601593000375
0.6950000000000001,0.004319097830012438,-0.7814721099999908,-0.0019520951900059685,-2.354925359999996,0.0028791287900083447,1.5708990999999999,0.7858363899999995,0.039999943,0.039999984,-9.806421599999997,0.04977775886667279,-0.012620927100041979,-0.013065142200026364,-0.006349066272363084,0.01870901420003764
0.6975,0.004368287015012482,-0.7814358549999908,-0.0019756989950059896,-2.354909879999996,0.0029121288950083738,1.5708985,0.7858343949999995,0.039999943,0.039999984,-9.806406299999995,0.05026936419320653,-0.012786938550042126,-0.013169402100026456,-0.006290552904814442,0.018857869100037773
0.7000000000000001,0.0044174762000132005,-0.7813995999999903,-0.0019993028000063343,-2.354894399999996,0.0029451290000088557,1.5708978999999998,0.7858323999999994,0.039999943,0.039999984,-9.806390999999994,0.0507609695197524,-0.012952950000038946,-0.01327366200002705,-0.006232039537265471,0.019006724000038732
0.7025,0.0044693049200132465,-0.7813614774999902,-0.0020241735050063564,-2.3548778849999956,0.0029798996600088863,1.5708969699999997,0.7858303974999995,0.039999943600000004,0.0399999849,-9.806372399999995,0.05130006782724324,-0.013105866300039081,-0.013379867850027144,-0.006172244925967878,0.01915880735003887
0.705,0.0045211336400132925,-0.7813233549999902,-0.0020490442100063785,-2.3548613699999956,0.003014670320008917,1.5708960399999998,0.7858283949999995,0.039999944200000005,0.0399999858,-9.806353799999995,0.05183916613473408,-0.013258782600039216,-0.013486073700027237,-0.006112450314670285,0.019310890700039003
0.7075,0.00457296236001334,-0.7812852324999902,-0.0020739149150064014,-2.3548448549999956,0.0030494409800089495,1.5708951099999997,0.7858263924999994,0.0399999448,0.039999986700000004,-9.806335199999996,0.05237826444222494,-0.013411698900039359,-0.013592279550027337,-0.006052655703372689,0.019462974050039144
0.71,0.004624791080013387,-0.7812471099999901,-0.0020987856200064235,-2.3548283399999956,0.0030842116400089806,1.5708941799999998,0.7858243899999995,0.0399999454,0.0399999876,-9.806316599999995,0.05291736274971578,-0.013564615200039496,-0.013698485400027431,-0.005992861092075096,0.01961505740003928
0.7125,0.004676619800013435,-0.7812089874999901,-0.002123656325006447,-2.3548118249999956,0.003118982300009013,1.5708932499999997,0.7858223874999994,0.039999946,0.0399999885,-9.806297999999995,0.05345646105720664,-0.013717531500039638,-0.013804691250027529,-0.0059330664807775,0.019767140750039422
0.715,0.004728448520013481,-0.7811708649999901,-0.002148527030006469,-2.3547953099999956,0.0031537529600090437,1.5708923199999998,0.7858203849999994,0.0399999466,0.0399999894,-9.806279399999996,0.05399555936469748,-0.013870447800039773,-0.013910897100027624,-0.0058732718694799076,0.019919224100039556
0.7175,0.004781176700014234,-0.7811321124999896,-0.0021738294550068303,-2.3547784899999953,0.003189126950009549,1.5708913699999998,0.7858183374999994,0.03999994665,0.0399999899,-9.80625554999999,0.0545344779269313,-0.01403350675004786,-0.01401803285002845,-0.00581311099229649,0.02007239680004055
0.72,0.0048357038000142825,-0.7810920999999895,-0.0021999953200068536,-2.3547610599999955,0.0032257076000095815,1.5708903799999998,0.7858161999999994,0.0399999456,0.0399999896,-9.80622119999999,0.05507303699865142,-0.014216851000048023,-0.014127028400028548,-0.005752217583342291,0.02022774820004069
0.7225,0.004890230900014333,-0.7810520874999896,-0.002226161185006878,-2.3547436299999953,0.0032622882500096153,1.5708893899999996,0.7858140624999994,0.03999994455,0.0399999893,-9.80618684999999,0.05561159607037157,-0.014400195250048193,-0.01423602395002865,-0.005691324174388088,0.020383099600040835
0.725,0.004944758000014381,-0.7810120749999895,-0.002252327050006901,-2.3547261999999956,0.003298868900009648,1.5708883999999996,0.7858119249999994,0.039999943499999996,0.039999989,-9.80615249999999,0.05615015514209169,-0.014583539500048356,-0.014345019500028746,-0.0056304307654338895,0.020538451000040973
0.7275,0.0049992851000144325,-0.7809720624999894,-0.0022784929150069253,-2.3547087699999953,0.003335449550009682,1.5708874099999997,0.7858097874999994,0.03999994245,0.0399999887,-9.80611814999999,0.05668871421381184,-0.014766883750048527,-0.014454015050028848,-0.005569537356479688,0.020693802400041116
0.73,0.00505381220001448,-0.7809320499999894,-0.0023046587800069486,-2.3546913399999956,0.0033720302000097148,1.5708864199999997,0.7858076499999994,0.039999941399999996,0.0399999884,-9.80608379999999,0.05722727328553196,-0.01495022800004869,-0.014563010600028944,-0.005508643947525489,0.020849153800041254
0.7325,0.005108339300014531,-0.7808920374999894,-0.002330824645006973,-2.3546739099999954,0.0034086108500097486,1.5708854299999997,0.7858055124999994,0.03999994035,0.0399999881,-9.80604944999999,0.05776583235725211,-0.015133572250048861,-0.014672006150029046,-0.005447750538571287,0.0210045052000414
0.735,0.005164703100014796,-0.7808507099999892,-0.0023578721800071,-2.354655829999995,0.003446423900009926,1.5708844299999998,0.7858032749999994,0.0399999396,0.0399999876,-9.806017099999991,0.05834063068047578,-0.015311374600045209,-0.014782391000028691,-0.005385630112125116,0.021162070800040983
0.7375,0.005221985250014067,-0.7808087249999898,-0.0023853605500067506,-2.3546374249999955,0.0034848531500094376,1.5708834249999997,0.7858009874999994,0.039999939,0.039999987,-9.80598574999999,0.05893354862942948,-0.015486406000042984,-0.014893470500027279,-0.005322896176933694,0.021320743500038965
0.74,0.0052792674000133365,-0.7807667399999902,-0.0024128489200064,-2.354619019999996,0.0035232824000089474,1.5708824199999998,0.7857986999999994,0.0399999384,0.0399999864,-9.805954399999992,0.05952646657838317,-0.01566143740004075,-0.015004550000025861,-0.005260162241742273,0.021479416200036943
0.7425,0.005336549550012609,-0.7807247549999908,-0.0024403372900060507,-2.354600614999996,0.003561711650008459,1.5708814149999997,0.7857964124999994,0.039999937799999996,0.0399999858,-9.805923049999992,0.060119384527336873,-0.015836468800038528,-0.01511562950002445,-0.005197428306550851,0.02163808890003493
0.745,0.005393831700011878,-0.7806827699999913,-0.0024678256600057,-2.3545822099999962,0.0036001409000079687,1.5708804099999998,0.7857941249999995,0.0399999372,0.039999985200000004,-9.805891699999993,0.06071230247629056,-0.016011500200036295,-0.015226709000023033,-0.0051346943713594315,0.021796761600032903
0.7475,0.00545111385001115,-0.7806407849999919,-0.0024953140300053504,-2.3545638049999966,0.0036385701500074802,1.570879405,0.7857918374999995,0.0399999366,0.0399999846,-9.805860349999993,0.061305220425244264,-0.016186531600034068,-0.015337788500021621,-0.005071960436168008,0.02195543430003089
0.75,0.005508396000010931,-0.780598799999992,-0.0025228024000052457,-2.3545453999999966,0.003676999400007333,1.5708783999999998,0.7857895499999995,0.039999936,0.039999984,-9.805828999999994,0.06189813837419698,-0.01636156300003932,-0.015448868000020571,-0.0050092265009761714,0.022114107000029335
0.7525000000000001,0.005568489900011807,-0.7805547974999913,-0.002551640440005666,-2.3545261399999964,0.003717314540007921,1.570877395,0.7857872249999995,0.0399999354,0.0399999849,-9.805795249999992,0.062485728226717434,-0.016577722450042468,-0.01556196395002222,-0.004944201931344589,0.022275369900031684
0.755,0.00562858380001268,-0.7805107949999908,-0.002580478480006085,-2.354506879999996,0.0037576296800085067,1.5708763899999998,0.7857848999999995,0.0399999348,0.0399999858,-9.805761499999992,0.06307331807923787,-0.01679388190004561,-0.015675059900023863,-0.0048791773617130095,0.022436632800034027
0.7575000000000001,0.005688677700013555,-0.7804667924999901,-0.0026093165200065053,-2.354487619999996,0.003797944820009094,1.570875385,0.7857825749999995,0.039999934200000004,0.039999986700000004,-9.805727749999992,0.06366090793175833,-0.01701004135004876,-0.01578815585002551,-0.004814152792081427,0.02259789570003638
0.76,0.0057487716000144285,-0.7804227899999894,-0.0026381545600069243,-2.3544683599999954,0.0038382599600096804,1.5708743799999998,0.7857802499999994,0.0399999336,0.0399999876,-9.805693999999992,0.06424849778427875,-0.0172262008000519,-0.015901251800027154,-0.004749128222449847,0.02275915860003872
0.7625000000000001,0.005808865500015305,-0.7803787874999888,-0.0026669926000073446,-2.354449099999995,0.003878575100010268,1.570873375,0.7857779249999994,0.039999933,0.0399999885,-9.805660249999992,0.0648360876367992,-0.01744236025005505,-0.016014347750028805,-0.004684103652818264,0.02292042150004107
0.765,0.005868959400016178,-0.7803347849999881,-0.0026958306400077636,-2.354429839999995,0.003918890240010854,1.5708723699999998,0.7857755999999994,0.0399999324,0.0399999894,-9.805626499999992,0.06542367748931963,-0.017658519700058193,-0.016127443700030445,-0.004619079083186684,0.023081684400043413
0.7675000000000001,0.005930008600017581,-0.7802901044999871,-0.002725127325008437,-2.3544102999999947,0.003959846400011795,1.570871365,0.7857732224999993,0.039999932,0.0399999897,-9.805600899999998,0.06603218764084852,-0.017869586600056095,-0.016241356200032264,-0.004553694208134045,0.023244252500046126
0.77,0.005992968400017637,-0.780244067999987,-0.002755341300008464,-2.3543901999999948,0.004002084600011832,1.5708703599999998,0.7857707399999994,0.039999932,0.0399999888,-9.805591599999998,0.06668253839034174,-0.018070468400056272,-0.016356901800032367,-0.0044875887222402015,0.023409431000046273
0.7725,0.006055928200017693,-0.780198031499987,-0.0027855552750084907,-2.3543700999999944,0.00404432280001187,1.5708693549999997,0.7857682574999993,0.039999932,0.0399999879,-9.805582299999998,0.06733288913983497,-0.018271350200056453,-0.01647244740003247,-0.004421483236346358,0.023574609500046417
0.775,0.006118888000017752,-0.780151994999987,-0.0028157692500085187,-2.3543499999999944,0.00408656100001191,1.5708683499999998,0.7857657749999993,0.039999932,0.039999987,-9.805572999999999,0.06798323988932822,-0.01847223200005664,-0.016587993000032577,-0.0043553777504525115,0.02373978800004657
0.7775,0.006181847800017807,-0.780105958499987,-0.0028459832250085455,-2.3543298999999944,0.004128799200011947,1.5708673449999997,0.7857632924999993,0.039999932,0.0399999861,-9.805563699999999,0.06863359063882145,-0.018673113800056818,-0.01670353860003268,-0.004289272264558668,0.02390496650004672
0.78,0.006244807600017866,-0.780059921999987,-0.002876197200008574,-2.3543097999999945,0.004171037400011986,1.5708663399999998,0.7857608099999993,0.039999932,0.039999985200000004,-9.805554399999998,0.0692839413883147,-0.018873995600057005,-0.016819084200032787,-0.0042231667786648205,0.024070145000046873
0.7825,0.006307767400017922,-0.780013885499987,-0.0029064111750086007,-2.3542896999999945,0.004213275600012024,1.5708653349999997,0.7857583274999993,0.039999932,0.0399999843,-9.805545099999998,0.06993429213780793,-0.019074877400057186,-0.01693462980003289,-0.004157061292770977,0.024235323500047017
0.785,0.006372673460018814,-0.7799664609999862,-0.002937559400009029,-2.354268939999994,0.004256819170012622,1.5708643399999997,0.7857557799999992,0.0399999318,0.039999984,-9.805530199999996,0.07057880237716874,-0.01930210330006866,-0.01705142140003353,-0.004089730163085345,0.024402101100047858
0.7875,0.006438552650018873,-0.7799183424999863,-0.0029691747500090572,-2.354247849999994,0.004301015425012661,1.5708633499999998,0.7857531999999993,0.0399999315,0.039999984,-9.805512499999995,0.07122039236146706,-0.019542501250068872,-0.017168836000033636,-0.00402178621150461,0.024569678250048008
0.79,0.006504431840018934,-0.7798702239999862,-0.0030007901000090867,-2.354226759999994,0.004345211680012703,1.5708623599999998,0.7857506199999993,0.039999931200000005,0.039999984,-9.805494799999996,0.07186198234576541,-0.019782899200069096,-0.017286250600033744,-0.0039538422599238714,0.024737255400048164
0.7925,0.006570311030018993,-0.7798221054999861,-0.0030324054500091148,-2.354205669999994,0.004389407935012742,1.5708613699999998,0.7857480399999992,0.0399999309,0.039999984,-9.805477099999996,0.07250357233006373,-0.020023297150069307,-0.01740366520003385,-0.0038858983083431362,0.024904832550048314
0.795,0.006636190220019055,-0.779773986999986,-0.003064020800009144,-2.354184579999994,0.004433604190012783,1.5708603799999998,0.7857454599999992,0.039999930600000004,0.039999984,-9.805459399999995,0.07314516231436206,-0.02026369510006953,-0.01752107980003396,-0.003817954356762398,0.025072409700048467
0.7975,0.006702069410019113,-0.779725868499986,-0.0030956361500091723,-2.354163489999994,0.004477800445012822,1.5708593899999999,0.7857428799999993,0.0399999303,0.039999984,-9.805441699999996,0.07378675229866039,-0.020504093050069745,-0.017638494400034066,-0.0037500104051816628,0.025239986850048617
0.8,0.00676794860002004,-0.7796777499999853,-0.0031272515000096168,-2.3541423999999935,0.004521996700013444,1.5708583999999999,0.7857402999999992,0.03999993,0.039999984,-9.805423999999991,0.07442834228297647,-0.020744491000065136,-0.017755909000034785,-0.003682066453600435,0.025407564000049645
0.8025,0.006836799710020101,-0.7796275074999853,-0.003160293530009646,-2.354120199999994,0.004568186845013485,1.5708573799999999,0.7857375999999991,0.03999992925,0.0399999834,-9.805395349999992,0.07513087540885448,-0.020968274950065334,-0.01787542090003489,-0.003612440149279388,0.025578135450049798
0.805,0.006905650820020165,-0.7795772649999853,-0.0031933355600096774,-2.354097999999994,0.0046143769900135285,1.5708563599999998,0.7857348999999991,0.039999928500000004,0.0399999828,-9.805366699999992,0.07583340853473253,-0.021192058900065543,-0.017994932800035,-0.0035428138449583382,0.025748706900049958
0.8075,0.006974501930020226,-0.7795270224999852,-0.0032263775900097068,-2.3540757999999937,0.004660567135013569,1.5708553399999998,0.7857321999999992,0.039999927750000004,0.0399999822,-9.80533804999999,0.07653594166061053,-0.02141584285006574,-0.01811444470003511,-0.003473187540637291,0.025919278350050107
0.81,0.0070433530400202905,-0.7794767799999852,-0.0032594196200097375,-2.3540535999999936,0.004706757280013612,1.5708543199999996,0.7857294999999992,0.039999927,0.0399999816,-9.805309399999992,0.07723847478648857,-0.02163962680006595,-0.018233956600035222,-0.003403561236316241,0.026089849800050267
0.8125,0.007112204150020352,-0.7794265374999851,-0.003292461650009767,-2.3540313999999936,0.004752947425013653,1.5708532999999996,0.7857267999999992,0.03999992625,0.039999981,-9.80528074999999,0.07794100791236659,-0.021863410750066148,-0.018353468500035327,-0.0033339349319951943,0.02626042125005042
0.8150000000000001,0.007181055260020415,-0.7793762949999851,-0.0033255036800097977,-2.3540091999999935,0.004799137570013696,1.5708522799999995,0.7857240999999991,0.0399999255,0.039999980399999996,-9.805252099999992,0.07864354103824463,-0.022087194700066357,-0.01847298040003544,-0.0032643086276741445,0.026430992700050577
0.8175,0.007250913750021375,-0.7793253149999844,-0.0033590292950102588,-2.353986639999993,0.00484600351501434,1.5708512599999995,0.7857213499999991,0.03999992475,0.03999998,-9.805219199999987,0.07934508584460558,-0.022324976300079045,-0.01859312600003611,-0.0031938796629914466,0.026602435000051508
0.8200000000000001,0.007322787000021442,-0.7792728599999843,-0.003393522080010291,-2.353963359999993,0.004894221060014385,1.5708502399999995,0.7857184999999991,0.039999924,0.03999998,-9.805177799999987,0.08004465401193506,-0.02259075320007929,-0.018714539000036223,-0.0031218453775875895,0.026775619000051668
0.8225,0.007394660250021506,-0.7792204049999844,-0.0034280148650103212,-2.353940079999993,0.004942438605014428,1.5708492199999997,0.7857156499999991,0.03999992325,0.03999998,-9.805136399999988,0.0807442221792645,-0.022856530100079528,-0.01883595200003633,-0.0030498110921837354,0.02694880300005182
0.8250000000000001,0.007466533500021574,-0.7791679499999843,-0.0034625076500103534,-2.353916799999993,0.004990656150014473,1.5708481999999997,0.7857127999999991,0.0399999225,0.03999998,-9.805094999999987,0.08144379034659398,-0.023122307000079775,-0.018957365000036443,-0.0029777768067798783,0.027121987000051983
0.8275,0.007538406750021637,-0.7791154949999842,-0.003497000435010384,-2.353893519999993,0.005038873695014516,1.5708471799999997,0.7857099499999991,0.03999992175,0.03999998,-9.805053599999987,0.08214335851392343,-0.02338808390008001,-0.01907877800003655,-0.002905742521376024,0.027295171000052135
0.8300000000000001,0.0076102800000217045,-0.7790630399999842,-0.0035314932200104163,-2.353870239999993,0.0050870912400145605,1.5708461599999997,0.7857070999999991,0.039999921,0.03999998,-9.805012199999988,0.08284292668125291,-0.023653860800080258,-0.019200191000036664,-0.002833708235972167,0.0274683550000523
0.8325,0.007682153250021768,-0.7790105849999841,-0.0035659860050104466,-2.3538469599999927,0.0051353087850146036,1.5708451399999996,0.7857042499999991,0.03999992025,0.03999998,-9.804970799999987,0.08354249484858237,-0.023919637700080494,-0.019321604000036772,-0.0027616739505683134,0.02764153900005245
0.835,0.007756074200022765,-0.7789566599999834,-0.0036014618300109253,-2.3538229599999925,0.005184899970015272,1.5708441199999996,0.7857013449999991,0.03999992,0.039999980399999996,-9.804929799999988,0.08428176343464061,-0.02417479290007589,-0.0194441627000374,-0.0026882328325656684,0.027816495400053414
0.8375,0.007831019000022834,-0.7789019999999833,-0.003637429175010959,-2.3537985999999926,0.005235177975015319,1.5708430999999996,0.785698412499999,0.03999992,0.039999981,-9.804888999999987,0.08504088223003621,-0.024424637250076126,-0.019567294250037517,-0.002614088298264584,0.027992338000053577
0.84,0.0079059638000229,-0.7788473399999832,-0.0036733965200109906,-2.3537742399999924,0.005285455980015364,1.5708420799999996,0.7856954799999991,0.03999992,0.0399999816,-9.804848199999988,0.08580000102543178,-0.024674481600076348,-0.019690425800037627,-0.002539943763963503,0.028168180600053733
0.8425,0.00798090860002297,-0.7787926799999833,-0.0037093638650110244,-2.3537498799999925,0.005335733985015411,1.5708410599999996,0.7856925474999991,0.03999992,0.0399999822,-9.804807399999987,0.08655911982082738,-0.02492432595007658,-0.01981355735003774,-0.002465799229662419,0.028344023200053896
0.845,0.008055853400023037,-0.7787380199999832,-0.0037453312100110565,-2.3537255199999927,0.0053860119900154555,1.5708400399999995,0.7856896149999991,0.03999992,0.0399999828,-9.804766599999986,0.08731823861622295,-0.025174170300076803,-0.01993668890003785,-0.002391654695361338,0.028519865800054053
0.8475,0.008130798200023107,-0.7786833599999831,-0.00378129855501109,-2.3537011599999924,0.005436289995015502,1.5708390199999995,0.7856866824999991,0.03999992,0.0399999834,-9.804725799999988,0.08807735741161857,-0.025424014650077036,-0.020059820450037964,-0.0023175101610602537,0.028695708400054216
0.85,0.008205743000024138,-0.7786286999999824,-0.003817265900011585,-2.353676799999992,0.005486568000016194,1.5708379999999997,0.785683749999999,0.03999992,0.039999984,-9.804684999999992,0.08883647620701382,-0.025673859000089873,-0.020182952000038702,-0.00224336562675863,0.028871551000055163
