rsonawane2002/My_IMU/logs_2/traj_290/clean_290.csv
time,j1,j2,j3,j4,j5,j6,j7,gripper1,gripper2,imu_ax,imu_ay,imu_az,imu_gx,imu_gy,imu_gz,quat_x,quat_y,quat_z,quat_w
431.9833333332691,0.00016700293,-0.785875,4.0107683e-05,-2.3551247,9.29385e-05,1.570997,0.786,0.04,0.04,0.0,-0.0,0.0,2.875329272945135e-08,-0.0011641195053377316,4.421952117202833e-08,0.9999995971961153,0.00020320632366974898,0.0008736418299892524,3.263050917662294e-05
431.99999999993577,0.00016701498,-0.78576016,4.010886e-05,-2.3552213,9.297495e-05,1.5709941,0.786,0.04,0.04,-0.29199845950498293,-3.9351098545024974e-05,0.020128407062314224,-2.451554110403587e-07,-0.002238391302582769,3.7312753199152406e-07,0.9999996850592187,0.0002032046286234218,0.0007665025177661822,3.260725010572556e-05
432.0166666666024,0.00016709084,-0.7856542,4.0069972e-05,-2.35531,9.3015056e-05,1.5709913,0.786,0.04,0.04,0.02319697851584923,-2.60599986833573e-05,-0.0016027251430017486,-2.557135596670247e-06,-0.003226099119286005,2.3995311979607976e-06,0.9999997558896729,0.000203184815142261,0.0006677376403139339,3.2603206922822395e-05
432.03333333326907,0.000167335,-0.7855566,3.9926075e-05,-2.355391,9.3069524e-05,1.5709884,0.786,0.04,0.04,0.02226312336444103,-7.273526704613649e-05,-0.0014234420074643594,-8.525254478421583e-06,-0.004135656071808131,7.685904198120086e-06,0.9999998123802224,0.00020311762085407098,0.0005769895610036683,3.264657364208937e-05
432.0499999999357,0.00016789741,-0.7854667,3.958443e-05,-2.3554654,9.315378e-05,1.5709856,0.786,0.04,0.04,0.019784337529649143,-0.00014022852135823095,-0.0013965564580775691,-1.988125776245345e-05,-0.0049683774045578815,1.7640524836936115e-05,0.9999998571474196,0.0002029609254721214,0.0004933939981307208,3.277751975366958e-05
432.0666666666024,0.00016896841,-0.7853836,3.8926788e-05,-2.355533,9.329915e-05,1.570986,0.786,0.04,0.039999995,0.020391522898233205,-0.00023472332688742516,0.001646933047139143,-3.7937417949921884e-05,-0.005730061180982074,3.428128486677758e-05,0.999999891408834,0.00020266142987067134,0.0004183516384880732,3.305407293780033e-05
432.083333333269,0.00017077514,-0.7853068,3.7812533e-05,-2.3555982,9.350688e-05,1.5709869,0.786,0.04,0.04,0.010746602099809266,-0.00031950506093029346,-0.0023917923655636386,-6.414337933615831e-05,-0.006410416393729934,5.642755922972342e-05,0.9999999185500504,0.00020215542925902498,0.00034771993984081354,3.3524889975549765e-05
432.0999999999357,0.00017357673,-0.78523564,3.608033e-05,-2.3556573,9.3834446e-05,1.5709878,0.786,0.04,0.03999999,0.016768507837672253,-0.00045871163828605584,-0.00034480536146297425,-9.983017549171347e-05,-0.0070436155847365765,8.899329821792707e-05,0.9999999390793143,0.0002013703022630536,0.0002830485871438032,3.4276325135987403e-05
432.1166666666023,0.00017766243,-0.7851691,3.3551507e-05,-2.3557146,9.42672e-05,1.5709907,0.786,0.04,0.04,0.008987367704849092,-0.0005561302140119032,-0.0003862086048966873,-0.00014593209088811595,-0.0076161470508457054,0.00012658910175094142,0.9999999545523338,0.00020022482126285038,0.00022260902064153,3.5363471192812456e-05
432.133333333269,0.00018334645,-0.78510684,3.0030338e-05,-2.355766,9.487503e-05,1.5709953,0.786,0.04,0.039999995,0.014970527919921928,-0.0007248361774447106,0.0014737719242985392,-0.0002032900025718993,-0.008142694177455207,0.0001780764576902198,0.9999999654736104,0.00019863101463476793,0.00016804032075040415,3.689103791465704e-05
432.14999999993563,0.00019096649,-0.78504825,2.5307574e-05,-2.3558166,9.566534e-05,1.5710013,0.786,0.04,0.04,0.006122185831691773,-0.0008558222852090604,-0.0007088407822708476,-0.00027318922367961163,-0.008607562237992855,0.00023682769499706177,0.9999999731565374,0.00019649421580082588,0.00011645162221418022,3.8935426351811426e-05
432.1666666666023,0.00020088036,-0.7849928,1.9160794e-05,-2.3558662,9.668943e-05,1.5710099,0.786,0.04,0.04,0.005944533819590703,-0.0010271397943050376,0.0005743695996818232,-0.00035628350971466586,-0.0090371571573331,0.00030841893979351745,0.9999999780443879,0.00019371425227625633,6.823029886916026e-05,4.1600944695016693e-05
432.18333333326893,0.00021346341,-0.7849399,1.1356837e-05,-2.355914,9.798874e-05,1.5710222,0.786,0.04,0.04,0.006774624885275138,-0.0011979316760677057,0.0020679149211000336,-0.00045286913686464457,-0.009426081525573041,0.00039254727998005675,0.9999999806159374,0.000190185977995345,2.3942531575752853e-05,4.499081869602503e-05
432.1999999999356,0.00022910672,-0.784889,1.6528044e-06,-2.3559604,9.960054e-05,1.571038,0.7859981,0.04,0.04,0.0062089891154526455,-0.0013712923112395748,0.0022511398801050575,-0.0005642679219269508,-0.009768377538301662,0.0004880272468323618,0.999999981565563,0.00018484616764725647,-1.670972951699094e-05,4.920927582007069e-05
432.21666666660224,0.00024821452,-0.78483963,-1.0202398e-05,-2.3560057,0.00010155985,1.5710566,0.7859962,0.04,0.04,0.0042015104975146045,-0.0015477539831426049,0.001579994215461511,-0.0006815857951673039,-0.010066202359005605,0.0005953047814216177,0.9999999810867349,0.0001785352732759898,-5.473988742175348e-05,5.436203479434402e-05
432.2333333332689,0.0002712027,-0.78479123,-2.4466992e-05,-2.356052,0.00010391522,1.5710793,0.7859943,0.039999995,0.04,0.0007164154042005322,-0.00173911101613185,0.002039491380578795,-0.0008147839773596716,-0.010330784813796694,0.0007164309265850018,0.9999999794048311,0.0001711368677992746,-9.074409265017145e-05,6.0564176997384426e-05
432.24999999993554,0.00029849645,-0.7847434,-4.1405412e-05,-2.3560998,0.00010670956,1.5711066,0.7859924,0.03999999,0.039999995,-0.0007061227053073438,-0.0019293517630920528,0.002364972932489273,-0.000963898886997375,-0.01056172398199086,0.0008508026914492144,0.999999976676794,0.00016253204901777802,-0.00012496088738514984,6.79302658767771e-05
432.2666666666022,0.00033052923,-0.7846956,-6.128696e-05,-2.3561494,0.00010998749,1.571138,0.7859905,0.039999988,0.03999999,-0.0015166198692906363,-0.002124412687990005,0.0023463986225991107,-0.001129188744535649,-0.010766478734199472,0.000998724337434715,0.9999999729542128,0.00015259947414467327,-0.00015792686237661895,7.657728239345128e-05
432.28333333326884,0.00036774084,-0.78464746,-8.438508e-05,-2.3562,0.000113794,1.5711743,0.78598857,0.039999984,0.039999988,-0.000508622282890947,-0.002322171002815441,0.0033136866722571767,-0.0013114061299519197,-0.01094403514543839,0.0011603852686325345,0.9999999683853518,0.00014121615589410367,-0.00018916535953025895,8.662424402754892e-05
432.2999999999355,0.00041057664,-0.7845984,-0.00011097641,-2.356251,0.00011817389,1.5712168,0.78598666,0.039999984,0.03999999,0.00019817809193689584,-0.0025225715643902025,0.004985992012263019,-0.0015104456098936124,-0.011092917384365361,0.0013350842758995452,0.9999999632071523,0.00012825756551501617,-0.0002179315352685494,9.819132743285632e-05
432.31666666660215,0.0004594855,-0.78454787,-0.00014134019,-2.3563082,0.00012317486,1.5712653,0.78598475,0.03999998,0.039999984,-0.010297477138387912,-0.0027258706533608967,0.0024829003952842044,-0.0017266956306873458,-0.011204266382917378,0.0015255165558379538,0.9999999566989781,0.0001135983714394126,-0.0002475635056665404,0.00011139911363109095
432.3333333332688,0.00051491923,-0.7844958,-0.000175757,-2.3563664,0.00012884097,1.57132,0.78598094,0.039999977,0.039999984,-0.0013767436165101898,-0.002928549460517397,0.00505041060132605,-0.0019605174408852525,-0.011308106682845516,0.0017283380661138803,0.999999949483439,9.615853132807557e-05,-0.00027534944260711744,0.00012636985675445827
432.34999999993545,0.00057733135,-0.7844414,-0.00021450907,-2.3564284,0.00013522006,1.5713822,0.7859771,0.03999997,0.039999977,-0.006652874730916913,-0.003134740357819705,0.005054577000351834,-0.002203184248596171,-0.01137868819022387,0.0019461625479874182,0.9999999410490669,7.676528674223881e-05,-0.0003024818864208029,0.000143225912427452
432.3666666666021,0.0006471762,-0.7843848,-0.00025787868,-2.3564944,0.00014235807,1.5714517,0.7859733,0.039999966,0.039999973,-0.007059481500770737,-0.0033403103332719434,0.004944450081567631,-0.0024634945586384576,-0.011427038182024916,0.002178159407243611,0.9999999311879508,5.529177634958695e-05,-0.00032908046173037717,0.00016208936650042249
432.38333333326875,0.00072490773,-0.7843253,-0.00030614837,-2.356567,0.00015030145,1.571529,0.7859695,0.03999996,0.03999997,-0.011620362856157307,-0.0035467176852184987,0.00455946992181655,-0.0027414308858628306,-0.011453495066446632,0.0024243165584574046,0.9999999192313206,3.16114979235201e-05,-0.00035639735117539903,0.00018308193112450799
432.3999999999354,0.0008109794,-0.78426254,-0.0003596,-2.356641,0.00015909653,1.5716152,0.7859657,0.039999958,0.039999966,-0.0036801801921892974,-0.003752829092514335,0.007649645895324575,-0.0030374991234753423,-0.011468944511307744,0.0026846055213224466,0.9999999058206511,5.5982762329597015e-06,-0.0003817807121859948,0.00020632701187620533
432.41666666660205,0.00090584287,-0.78419614,-0.0004185144,-2.3567224,0.0001687895,1.5717102,0.78595996,0.039999958,0.039999966,-0.013395200166477217,-0.003960005773348107,0.005376738734241826,-0.003351650988989153,-0.011448693788251184,0.0029589493993812306,0.9999998895230459,-2.3827411121612405e-05,-0.00040815160111218806,0.00023194486633874663
432.4333333332687,0.001009947,-0.78412575,-0.00048317097,-2.3568108,0.00017942619,1.5718144,0.78595424,0.039999954,0.03999996,-0.013680268684268526,-0.0041656842188293,0.005838588270856704,-0.0036747320313076505,-0.011418198553557257,0.0032472743721633545,0.9999998697917472,-5.5836633632966976e-05,-0.00043551093210220733,0.00026005573804836854
432.44999999993536,0.001123739,-0.7840512,-0.00055384735,-2.3569036,0.00019105221,1.5719284,0.7859485,0.039999947,0.039999954,-0.008831388733510082,-0.004371162544157916,0.0076678780381200795,-0.004015694258299175,-0.011377831613648217,0.0035494830754957286,0.9999998467995252,-9.055361686628329e-05,-0.0004622204228884747,0.0002907804139862245
432.466666666602,0.0012476612,-0.78397197,-0.0006308189,-2.3570018,0.00020371267,1.5720526,0.78594226,0.039999943,0.039999954,-0.011236924378188462,-0.004575401769097245,0.007748288043774032,-0.0043746895466644795,-0.011311156997306804,0.003864584150364321,0.9999998196954077,-0.00012836911243030376,-0.0004888769925768893,0.0003242372726927034
432.48333333326866,0.0013821527,-0.78388774,-0.0007143589,-2.3571074,0.00021745311,1.5721875,0.7859346,0.039999943,0.039999954,-0.014726482932903018,-0.004780441749135424,0.007436317523756841,-0.004749381858805323,-0.011224096839614738,0.004194153411414282,0.9999997872623827,-0.00016982203280868947,-0.0005163756163142434,0.00036054387979371017
432.4999999999353,0.0015276471,-0.7837983,-0.0008047378,-2.3572206,0.00023231754,1.5723335,0.785927,0.03999994,0.03999995,-0.015324360678214966,-0.004981795011019794,0.007631123531881556,-0.005135199037881782,-0.011123712877661401,0.004537180035245173,0.999999748677756,-0.0002143466262571752,-0.0005448369145862426,0.00039981581391349073
432.51666666660196,0.0016845752,-0.78370345,-0.00090222224,-2.3573415,0.0002483498,1.5724909,0.78591913,0.03999994,0.03999995,-0.015272744086014534,-0.005185221481008185,0.008132175002995012,-0.005538853963485278,-0.011011387971821017,0.004893496402882728,0.9999997031226183,-0.00026218143009833076,-0.0005740237739788298,0.0004421677055253843
432.5333333332686,0.0018533609,-0.7836028,-0.0010070766,-2.3574703,0.00026559323,1.5726602,0.7859096,0.039999943,0.039999954,-0.016135529023508788,-0.0053849481923678175,0.00845907840574256,-0.005959030762654255,-0.01088316846067574,0.0052629255707326746,0.9999996492061041,-0.00031415830853952166,-0.0006041757619511707,0.0004877129020656144
432.54999999993527,0.002034422,-0.7834959,-0.001119562,-2.3576078,0.00028409084,1.5728415,0.78590006,0.039999943,0.039999954,-0.018082477555503296,-0.0055830954872491826,0.008393227992420371,-0.006388974247814748,-0.010741644758079014,0.00564524127727384,0.9999995856234388,-0.0003695573822354131,-0.0006358313256363884,0.0005365620348324387
432.5666666666019,0.0022281734,-0.7833823,-0.0012399341,-2.3577564,0.00030388444,1.573036,0.78589004,0.03999995,0.03999996,-0.02199028542440029,-0.005786842410306341,0.008506727835344563,-0.0068364038372701755,-0.010591173916191972,0.006040273700006351,0.9999995104241128,-0.00042873179653240797,-0.0006697968363377349,0.0005888232156147355
432.58333333326857,0.0024350197,-0.7832625,-0.0013684465,-2.357914,0.00032501595,1.5732433,0.7858786,0.03999996,0.039999973,-0.01823826621467628,-0.005978047708200883,0.008874819751492069,-0.007298896827029078,-0.010439553278606229,0.006447800408881853,0.99999942258496,-0.0004922686709740693,-0.0007049713003232875,0.00064460590138848
432.5999999999352,0.0026553622,-0.7831354,-0.0015053488,-2.3580804,0.00034752558,1.5734644,0.78586715,0.039999973,0.039999988,-0.018727752586711333,-0.0061741310104497776,0.010279567749615914,-0.007771832455277277,-0.010274377863264019,0.006866711637952408,0.9999993208654757,-0.0005595618565385983,-0.0007412977249740141,0.0007040147719649663
432.6166666666019,0.002889593,-0.7830007,-0.0016508854,-2.3582554,0.00037145452,1.5736995,0.78585464,0.039999973,0.039999988,-0.018689980666519723,-0.006366730150530911,0.010658779466843349,-0.008261835543614905,-0.010095046795160385,0.007298485529441961,0.9999992032485231,-0.0006312541443457892,-0.0007787781372712752,0.0007671539200392098
432.6333333332685,0.0031380998,-0.7828592,-0.0018052966,-2.3584414,0.00039684196,1.5739491,0.7858413,0.03999997,0.039999984,-0.021639059442701836,-0.006561715011746167,0.009529986032719151,-0.00876346500512172,-0.009902900133433663,0.007742033857308248,0.999999067484208,-0.0007073328181610805,-0.0008178920278088095,0.0008341244689697236
432.6499999999352,0.003401262,-0.78271,-0.0019688196,-2.3586385,0.00042372648,1.5742133,0.7858275,0.03999997,0.039999984,-0.023044936719496256,-0.006751608756755075,0.009898690152154721,-0.00927779812038835,-0.009699420959576037,0.00819708957021255,0.9999989111161726,-0.000787691256193741,-0.0008592086269866189,0.0009050245794320664
432.6666666666018,0.0036794522,-0.78255284,-0.0021416848,-2.358845,0.00045214588,1.5744926,0.78581244,0.03999997,0.039999988,-0.01995710441904386,-0.006940323666615933,0.011354165461030519,-0.00980678214693097,-0.009491324191942072,0.008662544466622056,0.9999987324226465,-0.0008728769101494998,-0.0009016278900607779,0.0009799521151289381
432.6833333332685,0.0039730347,-0.78238755,-0.0023241197,-2.3590636,0.0004821383,1.5747874,0.7857971,0.039999973,0.03999999,-0.02485097233635436,-0.007131161476010882,0.010355288004282315,-0.010345747300982538,-0.009267881167138529,0.00913983633249122,0.9999985282039742,-0.0009624513774407889,-0.0009464649080387826,0.0010590001933704412
432.69999999993513,0.0042823665,-0.7822136,-0.0025163484,-2.3592927,0.0005137398,1.575098,0.78578055,0.03999997,0.039999988,-0.022509819095084538,-0.007313038078462153,0.011654003165295634,-0.010899623080968878,-0.009040610463504824,0.00962785552555851,0.9999982959737278,-0.0010570154404575698,-0.0009929776489371583,0.0011422623989312153
432.7166666666018,0.004607799,-0.7820314,-0.0027185874,-2.3595338,0.0005469859,1.5754246,0.7857634,0.03999997,0.039999988,-0.02455907635796617,-0.007501503261268154,0.010768209569023135,-0.011463213679036991,-0.008801165737066878,0.01012629314756916,0.9999980326271347,-0.0011563363712966935,-0.0010417067004579836,0.0012298273076355416
432.73333333326843,0.0049496735,-0.78184026,-0.0029310503,-2.3597863,0.00058191194,1.5757678,0.78574514,0.039999966,0.039999984,-0.024227820994826565,-0.00768450788700319,0.011940618124262059,-0.012039785533336076,-0.008554819465492604,0.010634897201818535,0.9999977351172242,-0.0012607417498176844,-0.0010923280236162989,0.0013217829440319488
432.7499999999351,0.0053083235,-0.78164,-0.0031539437,-2.360051,0.0006185518,1.5761278,0.7857261,0.039999966,0.039999984,-0.025620892934230532,-0.007868157407774036,0.011764313604278875,-0.012626850582128517,-0.008300706120253534,0.011153344076247587,0.9999973998281597,-0.0013702006548651912,-0.0011452335342004344,0.001418212691074169
432.76666666660174,0.005684077,-0.7814304,-0.0033874728,-2.3603287,0.0006569391,1.5765052,0.78570604,0.03999996,0.03999998,-0.027270255120459552,-0.008051259991083935,0.011829845205824085,-0.013224909553508529,-0.008037322590299824,0.01168139107758092,0.9999970227751503,-0.0014848582104101547,-0.0012006960099026085,0.001519199138411236
432.7833333332684,0.006077251,-0.7812115,-0.003631835,-2.360618,0.00069710566,1.5769,0.78568506,0.039999958,0.03999998,-0.024923833228873704,-0.008225828746441727,0.012478305797447575,-0.013833452024902076,-0.0077703583193119066,0.01221784887989059,0.9999966009578615,-0.0016047966525897153,-0.001258034925848765,0.0016248226218857176
432.79999999993504,0.006488156,-0.78098303,-0.0038872235,-2.3609204,0.00073908444,1.5773125,0.7856632,0.039999958,0.03999998,-0.027093440233327826,-0.008407714670635204,0.012162155013095699,-0.014452139494308732,-0.007491733668775688,0.012764134573788137,0.9999961297103171,-0.0017300667052222388,-0.0013178218145003613,0.0017351597181306873
432.8166666666017,0.0069170934,-0.7807449,-0.0041538286,-2.3612366,0.0007829051,1.5777429,0.7856403,0.039999958,0.039999984,-0.028755575736161276,-0.008582744260567793,0.012006035500178314,-0.015080923698531739,-0.007205922429639643,0.013318255855968847,0.9999956041380756,-0.0018608045312797602,-0.0013804197576735835,0.0018502843873501194
432.83333333326834,0.0073643597,-0.78049666,-0.0044318293,-2.3615658,0.0008285994,1.5781918,0.78561646,0.039999958,0.03999998,-0.02797913443870481,-0.008766685450077409,0.012815674111132935,-0.01571927664481858,-0.006917856454635211,0.01388246145262342,0.9999950201035689,-0.0019970569592207546,-0.0014455366590509708,0.001970267832502639
432.849999999935,0.007830243,-0.78023833,-0.004721408,-2.3619084,0.0008761939,1.5786595,0.7855916,0.03999996,0.039999988,-0.028154662500989858,-0.008937117085332843,0.013062606271851962,-0.01636682834283651,-0.006623430492988563,0.01445303304430422,0.9999943730548333,-0.0021389251619109836,-0.0015129700588210815,0.00209518004563321
432.86666666660165,0.008315016,-0.7799697,-0.0050227353,-2.3622644,0.0009257194,1.5791466,0.7855658,0.039999958,0.039999984,-0.02833220587339369,-0.009109743829909152,0.013404295932817334,-0.01702358446057498,-0.006319970623093807,0.01503222053179933,0.9999936581352592,-0.0022864465618566516,-0.001582666956382656,0.0022250880178279007
432.8833333332683,0.008818952,-0.7796907,-0.005335982,-2.3626344,0.0009772027,1.579653,0.7855388,0.039999958,0.039999988,-0.029641023591397975,-0.009285594241944996,0.013044070024115229,-0.017688982224480104,-0.006006709824181802,0.015617970117626265,0.9999928691624294,-0.0024398089076757548,-0.0016550214055644664,0.0023600552818552703
432.89999999993495,0.009342315,-0.77940106,-0.005661309,-2.3630183,0.0010306707,1.5801786,0.78551096,0.039999958,0.039999988,-0.029565933704489566,-0.009457502610845953,0.013133427466760494,-0.018361851690634874,-0.005687338646881809,0.016211714156778485,0.9999920008544313,-0.002598897766139985,-0.0017301006586821286,0.002500141848586645
432.9166666666016,0.009885354,-0.7791006,-0.0059988764,-2.3634164,0.0010861492,1.5807236,0.78548187,0.039999954,0.039999984,-0.030596026546114707,-0.009626291781668957,0.013152503714941588,-0.019043481203958074,-0.005364030376971991,0.016812297672298863,0.9999910463735859,-0.0027639814370221684,-0.0018081502155353282,0.002645405843052743
432.93333333326825,0.010448314,-0.77878934,-0.0063488362,-2.3638294,0.0011436639,1.5812889,0.785452,0.039999947,0.039999977,-0.031109027150111324,-0.009797509083022977,0.013447408579270181,-0.01973202262341921,-0.005035046529114601,0.017419387416806174,0.9999900005507095,-0.002934878888573269,-0.0018889700381273576,0.0027959035563181927
432.9499999999349,0.011031441,-0.7784671,-0.006711336,-2.3642573,0.0012032381,1.5818744,0.78542084,0.039999943,0.039999973,-0.03178288520966355,-0.009976701828520382,0.013268810827882227,-0.020429009744908376,-0.004699685818853237,0.01803264726812406,0.9999888556499331,-0.0031119189192138773,-0.0019728359481996326,0.0029516867887554874
432.96666666660155,0.011634955,-0.7781337,-0.0070865173,-2.3647,0.0012648957,1.5824805,0.7853888,0.039999947,0.03999998,-0.03148921501290314,-0.01013578845836258,0.013877015756902367,-0.021131620078338503,-0.00436240799911378,0.018650966388775773,0.9999876062401293,-0.0032949104136561123,-0.002059459284194199,0.0031128056410520116
432.9833333332682,0.012259083,-0.77778894,-0.0074745216,-2.3651578,0.0013286584,1.5831072,0.78535557,0.03999995,0.03999999,-0.03213718609869076,-0.010305225453828733,0.013569132945856488,-0.02184235118827436,-0.004016693780449561,0.01927299256679444,0.9999862440330125,-0.0034841146122332987,-0.0021491465197220065,0.00327930775529095
432.99999999993486,0.012904033,-0.7774327,-0.007875478,-2.3656306,0.0013945501,1.583755,0.7853212,0.039999947,0.03999998,-0.03218576122041572,-0.010473878123005813,0.01402507834928901,-0.02255831017584847,-0.0036676660275991244,0.01990566104715402,0.9999847623326582,-0.0036795173538636127,-0.002241698634005014,0.003451237716262177
433.0166666666015,0.013570015,-0.77706474,-0.008289515,-2.3661187,0.0014625905,1.5844241,0.7852858,0.039999943,0.039999977,-0.03275375951901083,-0.010644201879328897,0.01409710016420096,-0.023280169946493928,-0.0033117785308146783,0.020540544830521326,0.9999831535806073,-0.0038811051386206516,-0.002337215065983796,0.0036286366064791496
433.03333333326816,0.0142572215,-0.7766853,-0.008716762,-2.3666222,0.0015327994,1.5851145,0.78524905,0.039999943,0.03999998,-0.03303658704501,-0.010793814135223994,0.013702872366794239,-0.024008080828628126,-0.0029515781107409544,0.02117917781808591,0.9999814091098075,-0.004089065023466889,-0.002435794888633935,0.003811546308017428
433.0499999999348,0.014965844,-0.7762942,-0.00915733,-2.3671415,0.0016051969,1.5858262,0.7852113,0.039999943,0.03999998,-0.033644625156670216,-0.010972389275794043,0.013676668885809207,-0.024740697685324553,-0.0025857104373810183,0.02182292838040797,0.9999795209296986,-0.004303291452311277,-0.0025375982286976965,0.003999999889608119
433.06666666660146,0.015696067,-0.7758912,-0.009611333,-2.3676767,0.0016798005,1.5865594,0.78517234,0.039999943,0.03999998,-0.03421708847481941,-0.011138140222896002,0.013734253458519419,-0.02547836279723683,-0.0022157874668007616,0.0224706911489785,0.9999774797838659,-0.004523940331368549,-0.0026427249953437674,0.004194030708690813
433.0833333332681,0.016448058,-0.7754761,-0.010078878,-2.3682282,0.0017566271,1.5873145,0.7851323,0.039999936,0.03999998,-0.034857871209692526,-0.011298225275610703,0.01381855807041088,-0.02622034220638883,-0.0018431264818072612,0.023119413115477813,0.9999752769177054,-0.004750952969159337,-0.0027513060837422187,0.004393667497293762
433.09999999993477,0.017221982,-0.77504915,-0.010560073,-2.3687956,0.001835698,1.5880915,0.78509116,0.039999947,0.039999988,-0.03419366362975573,-0.011453107197726374,0.013780815465769258,-0.026966876574020953,-0.0014685434350536555,0.023776038807361864,0.9999729040299246,-0.0049843587303660215,-0.002863055258815577,0.004598944290962107
433.1166666666014,0.018018,-0.7746099,-0.011055014,-2.369379,0.0019170236,1.5888909,0.7850487,0.039999943,0.039999995,-0.034557125522938215,-0.011620770092328654,0.01424632409481319,-0.027717611360745804,-0.0010881640163847225,0.024430224322104205,0.9999703512842052,-0.005224305920134192,-0.002977954271931546,0.004809882384268559
433.13333333326807,0.018836267,-0.77415854,-0.011563792,-2.3699784,0.0020006238,1.5897126,0.7850051,0.03999994,0.039999984,-0.03450889282989866,-0.01179038006364954,0.013973303301639817,-0.028471434535127058,-0.0007031767248797116,0.025092455332892463,0.9999676093028289,-0.0054707644999510245,-0.0030960158959843697,0.005026506395359624
433.1499999999347,0.019676918,-0.77369475,-0.012086494,-2.370594,0.0020865104,1.5905571,0.78496027,0.03999994,0.04,-0.03508151109969937,-0.011945061581280017,0.014218048564895724,-0.029228607730281932,-0.0003124340524465821,0.02575181439481844,0.9999646682190769,-0.005723752324490221,-0.0032172529666557974,0.005248833793115269
433.1666666666014,0.020540083,-0.77321863,-0.01262321,-2.3712268,0.002174698,1.5914242,0.78491426,0.03999994,0.039999995,-0.03672563645675808,-0.01209876124268136,0.013502950774713085,-0.029988444120481374,8.367142453725301e-05,0.02641763892988675,0.9999615161744796,-0.005983287212456561,-0.003342185375720628,0.005476882423742203
433.183333333268,0.021425897,-0.77272993,-0.013174014,-2.3718762,0.0022652,1.5923141,0.784867,0.039999936,0.039999995,-0.03619599100506132,-0.01227284751870103,0.013815202048950148,-0.030750863669725192,0.0004812065577195074,0.027083431159670095,0.9999581429438128,-0.006249421724521588,-0.003470647765107307,0.0057106648089981695
433.1999999999347,0.022334475,-0.77222884,-0.013738985,-2.3725417,0.002358029,1.5932268,0.7848186,0.03999994,0.04,-0.03483165806343891,-0.012406891049230977,0.013932427568041916,-0.0315153437581763,0.0008810624563911629,0.02775074387750478,0.9999545396561131,-0.006522105545795244,-0.003602207461125802,0.005950198466231896
433.2166666666013,0.023265926,-0.7717152,-0.01431819,-2.3732243,0.0024531987,1.5941623,0.78476894,0.03999994,0.04,-0.037011194977987216,-0.012579688546794816,0.013357375871181354,-0.03228222176066111,0.001287777646972632,0.028419203268320956,0.9999506927798659,-0.006801412275806644,-0.0037374745007089016,0.006195489042643527
433.233333333268,0.024220359,-0.7711888,-0.014911692,-2.373924,0.0025507128,1.5951211,0.784718,0.03999994,0.04,-0.0372901581697338,-0.012740150710758777,0.013632199886326468,-0.03305036199934835,0.0016960602294848193,0.029088450617936454,0.9999465907897273,-0.007087381626087862,-0.003876433568439694,0.0064465380226451305
433.24999999993463,0.025197867,-0.7706498,-0.015519551,-2.3746397,0.0026505913,1.5961027,0.784666,0.039999936,0.04,-0.035198787174151036,-0.012880994242174537,0.013587423807681631,-0.033819465886940334,0.0021062812315181118,0.029759112801753234,0.9999422249115397,-0.007379870761290249,-0.004018623924269252,0.006703357984007914
433.2666666666013,0.026198544,-0.770098,-0.016141828,-2.3753722,0.0027528375,1.5971079,0.7846127,0.039999936,0.04,-0.03648263668165619,-0.013041285403423385,0.013828060061604752,-0.034590364808472766,0.0025227693185494587,0.030429928267216102,0.9999375821374991,-0.007679030115131544,-0.004164119641638973,0.006965948113028762
433.28333333326793,0.027222468,-0.76953334,-0.016778572,-2.376122,0.002857461,1.5981365,0.78455806,0.03999994,0.04,-0.037796956254232406,-0.013202973045076984,0.013219958286470046,-0.03536192026528191,0.0029440434465661247,0.03110061560562527,0.999932648386215,-0.007984893010258034,-0.004313353449159166,0.007234304179925216
433.2999999999346,0.02826971,-0.76895577,-0.017429827,-2.3768892,0.0029644854,1.5991884,0.7845023,0.039999932,0.04,-0.0380656099487231,-0.013362609871978189,0.012934507060013978,-0.03613277846075367,0.0033682836163240124,0.03177084560574958,0.9999274115596399,-0.008297308213665866,-0.004466521349429113,0.007508426937841662
433.31666666660124,0.029340347,-0.7683654,-0.018095633,-2.3776736,0.003073888,1.6002637,0.7844453,0.039999932,0.04,-0.037550607728653596,-0.01350045555281211,0.012908091027652446,-0.03690475893656402,0.0037927923466171687,0.03243959771273686,0.9999218590976937,-0.008616397086696202,-0.004623400429786216,0.007788296881995743
433.3333333332679,0.030434428,-0.76776206,-0.018776031,-2.3784752,0.003185687,1.6013626,0.7843869,0.039999936,0.04,-0.03767344576779408,-0.013644349490610046,0.012971812423612228,-0.03767593617042174,0.0042192198942403725,0.03310826492934319,0.9999159781202208,-0.008942174813826366,-0.004783947576074316,0.00807391200537131
433.34999999993454,0.03155201,-0.7671458,-0.01947106,-2.379294,0.003299892,1.6024852,0.7843274,0.039999936,0.04,-0.03770038425223721,-0.01379409976474573,0.012879614018901364,-0.03844584764644236,0.004649755286230892,0.033775626645135726,0.9999097571280415,-0.009274483498657051,-0.00494812150597503,0.008365264463011302
433.3666666666012,0.032693136,-0.76651645,-0.020180734,-2.3801296,0.003416503,1.6036316,0.7842665,0.039999943,0.04,-0.03752376242067701,-0.013954345669787982,0.012996606301762803,-0.03921614770031309,0.005083178210139608,0.0344413724274501,0.9999031817237256,-0.009613494018466479,-0.005115848592217397,0.008662332521243363
433.38333333326784,0.033857852,-0.76587415,-0.020905094,-2.380983,0.0035355373,1.6048015,0.7842044,0.039999943,0.04,-0.039122686359527314,-0.014099855409170636,0.011958142412682449,-0.03998393741696726,0.005520775207937201,0.03510517748260187,0.9998962368009148,-0.009959043723332065,-0.005287714132260159,0.008965107848838832
433.3999999999345,0.03504618,-0.76521873,-0.021644147,-2.381854,0.0036569843,1.6059952,0.7841412,0.039999936,0.04,-0.038505229006680075,-0.014238090590475497,0.012274159441427734,-0.040751096998901164,0.005957944424129891,0.03576596710802011,0.9998889097861418,-0.010311144075667866,-0.005463467438370702,0.009273560162177017
433.41666666660115,0.036258142,-0.76455057,-0.02239792,-2.382742,0.0037808374,1.6072125,0.7840765,0.039999943,0.04,-0.037356732047144625,-0.01434649927004629,0.012137687109592399,-0.04151688682644555,0.006396229066987252,0.036425300789652906,0.9998811878084789,-0.010669892549987101,-0.005642708470091737,0.009587674420760382
433.4333333332678,0.03749378,-0.7638694,-0.023166418,-2.3836467,0.0039071166,1.6084538,0.78401065,0.039999943,0.04,-0.03765656447802801,-0.014535779896194048,0.01214574721117856,-0.042279517630258015,0.006840372265896066,0.037081809322165704,0.9998730576687187,-0.011035159303338352,-0.005825516498650694,0.009907429781781583
433.44999999993445,0.038753092,-0.76317525,-0.023949651,-2.384569,0.004035815,1.6097188,0.7839436,0.039999943,0.04,-0.038537590714593506,-0.01465922427876,0.011689757470012552,-0.043040532694327185,0.007288239969657717,0.03773521973575731,0.9998645039514795,-0.011406915520646717,-0.006012148597212529,0.01023279460419639
433.4666666666011,0.040036086,-0.762468,-0.024747614,-2.3855085,0.0041669356,1.6110076,0.78387517,0.039999943,0.04,-0.03877843446133955,-0.014812857118150918,0.011444930809068055,-0.04379893084754317,0.0077397218432387754,0.03838520044431214,0.9998555104833466,-0.011785229470240256,-0.006202741945347153,0.010563735834428614
433.48333333326775,0.041342746,-0.76174754,-0.025560312,-2.3864653,0.0043004695,1.6123202,0.7838055,0.039999947,0.04,-0.03847352087376077,-0.014918620290745727,0.011469839548539085,-0.044553900670498324,0.00819167182676786,0.039030949501588794,0.9998460643851873,-0.012170003232774942,-0.006397167209453107,0.01090022047760665
433.4999999999344,0.04267307,-0.761014,-0.02638774,-2.3874395,0.004436431,1.6136564,0.78373456,0.039999947,0.04,-0.038955864006195995,-0.015070122909246336,0.010910807896968855,-0.04530600687051714,0.008646954480425961,0.03967356795975883,0.9998361494952892,-0.012561211153691893,-0.006595652457880885,0.011242219773741659
433.51666666660105,0.044027038,-0.7602673,-0.027229888,-2.3884313,0.004574819,1.6150166,0.78366244,0.03999994,0.04,-0.03932331598304195,-0.01520725766277417,0.010821564406970907,-0.04605462926392606,0.009102648056396906,0.04031211557198814,0.9998257517040091,-0.01295878800943705,-0.006798157984115259,0.011589697617396182
433.5333333332677,0.045404647,-0.75950766,-0.028086744,-2.3894405,0.0047156173,1.6164005,0.78358895,0.039999943,0.04,-0.038926739881284256,-0.015337935684203025,0.010474761156453738,-0.04679970029946563,0.00955837911774833,0.040946315758738604,0.9998148551811158,-0.013362798881950683,-0.0070046429353281675,0.01194261037435199
433.54999999993436,0.046805847,-0.75873506,-0.02895829,-2.3904667,0.0048588254,1.6178081,0.78351414,0.03999994,0.04,-0.03811804360973614,-0.015433088509203552,0.010463500164714645,-0.0475402325575761,0.01001711652546372,0.04157577660021201,0.9998034472073901,-0.01377316521813866,-0.007214859239202525,0.012300921845619003
433.566666666601,0.048230633,-0.75794935,-0.029844511,-2.39151,0.0050044325,1.6192392,0.78343827,0.039999943,0.04,-0.03887251436900385,-0.015584714060365087,0.010003398807501007,-0.048276478552501056,0.010477936668720267,0.042199590878741505,0.9997915119076899,-0.01418974189850827,-0.007429156303803018,0.012664579693099177
433.58333333326766,0.04967893,-0.75715065,-0.03074537,-2.3925707,0.005152455,1.6206949,0.783361,0.039999943,0.04,-0.03888685124009417,-0.01571168034445458,0.010372545972936464,-0.049009120097554204,0.010940194868651068,0.042818949921799444,0.999779035658184,-0.014612617547669389,-0.00764707559329938,0.013033552918041176
433.5999999999343,0.05115071,-0.756339,-0.031660836,-2.3936493,0.005302884,1.622174,0.78328246,0.039999943,0.04,-0.04003203502369601,-0.015853208868695304,0.009024587854011834,-0.04973650437686534,0.011408325795003768,0.043432811502174,0.9997659977648178,-0.015041739419812237,-0.007869382766444976,0.013407781450334725
433.61666666660096,0.052645903,-0.7555146,-0.032590892,-2.394744,0.0054557063,1.6236763,0.7832029,0.039999943,0.04,-0.03675953160364731,-0.01587644095799763,0.00945720488361168,-0.050458652435875065,0.0118734875322207,0.0440411263454831,0.9997523919490445,-0.015476894624295452,-0.008095236091150301,0.013787228785394975
433.6333333332676,0.05416447,-0.75467736,-0.033535495,-2.3958561,0.0056109168,1.6252017,0.78312194,0.039999954,0.04,-0.03981063010809471,-0.01605969922161797,0.00834226029335916,-0.051176727155528755,0.012343635501363623,0.044641579173006936,0.9997381929378303,-0.015918231780135704,-0.008325547626262336,0.014171828926371324
433.64999999993427,0.05570633,-0.7538271,-0.034494597,-2.3969855,0.0057685096,1.6267508,0.7830397,0.03999997,0.04,-0.03902439408980385,-0.01616839872823246,0.008841639077483698,-0.0518886169803545,0.012811971373417205,0.04523762201188376,0.9997233896359715,-0.016365660863685315,-0.008559861331928096,0.014561529220398663
433.6666666666009,0.05727142,-0.75296426,-0.035468172,-2.398132,0.0059285,1.6283233,0.78295636,0.03999997,0.04,-0.03872855128475017,-0.016267486347460933,0.008104003756259637,-0.05259455963788215,0.013281950379060575,0.04582636304867163,0.9997079684755177,-0.016819013328724187,-0.008798170260447241,0.014956294904481594
433.68333333326757,0.05885967,-0.75208855,-0.036456157,-2.3992953,0.0060908487,1.6299186,0.7828716,0.039999977,0.04,-0.038509021490806816,-0.016360643579536177,0.007792329167122247,-0.053295424773817095,0.01375315761793626,0.046409268626194794,0.9996919094752074,-0.017278422416330944,-0.009040700494246365,0.015356040609149975
433.6999999999342,0.06047099,-0.7511997,-0.037458517,-2.4004755,0.006255555,1.6315371,0.7827858,0.03999998,0.04,-0.039115069628481436,-0.01646997054964433,0.007852364145510826,-0.05398917707052235,0.01422375666967618,0.046984470555220495,0.9996752002252126,-0.01774364311541428,-0.009287475489157777,0.015760710095429245
433.7166666666009,0.06210529,-0.75029874,-0.03847517,-2.4016726,0.0064226156,1.6331786,0.78269875,0.039999984,0.04,-0.038165365453779465,-0.016566441619021016,0.0069421551085691036,-0.05467722657587863,0.014694089252462184,0.047553453999506466,0.9996578271831672,-0.018214692649009014,-0.009538157602103216,0.01617025270948785
433.7333333332675,0.06376246,-0.749385,-0.03950607,-2.4028866,0.0065920213,1.6348432,0.78261036,0.039999984,0.04,-0.03888193421230923,-0.016659767909285583,0.007027312113216944,-0.05535884497113155,0.015165930902975924,0.0481150586976026,0.9996397715316249,-0.018691586747570314,-0.009793004105983945,0.01658459609514408
433.7499999999342,0.06544245,-0.7484586,-0.040551163,-2.4041169,0.006763762,1.6365308,0.78252083,0.03999998,0.04,-0.03766859403098177,-0.01676300410170528,0.006911598876824243,-0.05603330655954529,0.015638313945597865,0.04866901621516141,0.9996210226296618,-0.019174161003414493,-0.010051740016776153,0.017003681638969658
433.7666666666008,0.06714511,-0.7475198,-0.04161038,-2.4053636,0.0069378032,1.6382413,0.7824301,0.039999984,0.04,-0.03790314574783071,-0.016803809940875436,0.0064944742637740305,-0.056700756051139736,0.01611300215865316,0.04921438147121558,0.9996015656240544,-0.019662368707728757,-0.010314355134192087,0.01742743058818884
433.7833333332675,0.068870336,-0.7465687,-0.042683646,-2.4066274,0.007114147,1.6399745,0.782338,0.03999999,0.04,-0.03909217867095194,-0.016917717563853102,0.0054340663453000815,-0.0573615103060984,0.016590768889580262,0.049752524439977144,0.9995813787910366,-0.020156246679035324,-0.010581315454332984,0.017855773779925265
433.79999999993413,0.070617996,-0.745605,-0.04377089,-2.4079072,0.0072927834,1.64173,0.78224486,0.039999984,0.04,-0.03757801002448602,-0.016955283024844975,0.0056930512781994125,-0.05801387228974169,0.01706591995962152,0.05028156627934616,0.9995604530452686,-0.02065556575787549,-0.010852375422969122,0.018288637424322848
433.8166666666008,0.072388016,-0.74462897,-0.044872046,-2.4092038,0.007473707,1.643508,0.78215057,0.03999998,0.04,-0.03851751711041462,-0.017100003483486864,0.00504313316027627,-0.058659524502636735,0.017541418199356243,0.0508032079576099,0.9995387709762951,-0.021160311926886097,-0.01112767467365523,0.01872595446731145
433.83333333326743,0.07418022,-0.7436406,-0.045987025,-2.410516,0.0076568867,1.6453083,0.782055,0.039999984,0.04,-0.037029940809274464,-0.01708682723528185,0.005119971275746593,-0.05929716519102848,0.018016436447676976,0.05131538846049077,0.9995163210797136,-0.021670453080238794,-0.011406873987004008,0.019167644206239256
433.8499999999341,0.07599451,-0.74264014,-0.04711574,-2.4118447,0.0078423405,1.647131,0.78195834,0.039999984,0.04,-0.038001598136871984,-0.01722739838318499,0.0043716440671470735,-0.059927206760413916,0.01849310889164059,0.051820321025096566,0.9994930874395771,-0.02218587515697235,-0.011690173760116824,0.019613641718957794
433.86666666660074,0.07783071,-0.74162793,-0.04825811,-2.4131901,0.008030028,1.6489757,0.7818605,0.039999984,0.04,-0.03816614619784886,-0.01723335565860795,0.003489449031723879,-0.060548972237734734,0.018969891254795493,0.05231462289434346,0.9994690536803726,-0.022706532951648314,-0.011977712213943191,0.020063860712630305
433.8833333332674,0.07968872,-0.74060345,-0.04941405,-2.4145515,0.008219948,1.6508425,0.7817614,0.039999984,0.04,-0.03762811595968696,-0.01733843581743222,0.003835277620489741,-0.06116225130870127,0.01944564226249855,0.052800539361784075,0.9994442063659729,-0.02323235763310911,-0.012269419563055883,0.020518217853496487
433.89999999993404,0.081568345,-0.73956716,-0.050583467,-2.4159286,0.00841207,1.6527311,0.7816611,0.03999999,0.04,-0.03683930670417279,-0.017297754302737778,0.003185229521940336,-0.06176734340852898,0.019920468972409094,0.053276230324145066,0.9994185331051105,-0.023763287218202242,-0.012565135468344577,0.020976635508973933
433.9166666666007,0.0834695,-0.73851895,-0.051766265,-2.417321,0.008606409,1.6546409,0.78155977,0.03999999,0.04,-0.03632954733945315,-0.017438324106690967,0.002936466684011485,-0.06236285012831981,0.02039576280806582,0.05374412394750035,0.9993920217942834,-0.024299159418552395,-0.01286488247264065,0.021439039727830532
433.93333333326734,0.08539196,-0.7374589,-0.052962363,-2.418729,0.008802924,1.6565722,0.7814572,0.039999988,0.04,-0.03709672220228999,-0.017379809551271164,0.0023949846002402353,-0.06295059167328039,0.020871812520426344,0.05420035927637559,0.9993646551059836,-0.024839975802093746,-0.013168825065850908,0.021905336642808842
433.949999999934,0.08733558,-0.73638725,-0.054171633,-2.4201524,0.0090016,1.6585249,0.78135353,0.039999984,0.04,-0.036030101049089325,-0.01744719951413745,0.002143152089595368,-0.063528781005308,0.021346655553863572,0.054647572020725885,0.9993364254775512,-0.025385588459589645,-0.01347665620505553,0.022375440774244696
433.96666666660064,0.08930021,-0.73530406,-0.05539399,-2.421591,0.00920243,1.6604985,0.78124887,0.03999999,0.04,-0.03619124046050359,-0.017485793866801186,0.001550583610310241,-0.06409843746568332,0.0218224468491678,0.05508469071739719,0.9993073178729036,-0.025935892082096228,-0.013788574200016647,0.022849270647002613
433.9833333332673,0.091285676,-0.7342093,-0.056629326,-2.423045,0.009405381,1.6624931,0.78114295,0.03999999,0.04,-0.03624491170874933,-0.01750802990809694,0.0012236950307054073,-0.06465933181023605,0.022296775313994682,0.05551071415975169,0.9992773164132505,-0.026490924806188185,-0.014104594128673913,0.02332672778833194
433.99999999993395,0.0932918,-0.7331031,-0.057877526,-2.4245138,0.009610444,1.6645083,0.78103596,0.039999988,0.04,-0.03585735065210205,-0.017516793700151495,0.0007228405987769193,-0.06521007974129286,0.022770794328472357,0.05592618694154498,0.9992464105399652,-0.027050514150673537,-0.014424735682811229,0.023807723697585458
434.0166666666006,0.095318355,-0.73198575,-0.059138466,-2.4259977,0.009817597,1.6665444,0.7809279,0.03999999,0.04,-0.03548962305253145,-0.01750064962350098,0.00044898279314420364,-0.06575170011120322,0.023244441196275514,0.05633211598017068,0.9992145919494818,-0.027614562557190157,-0.014748747817089012,0.0242921717397516
434.03333333326725,0.097365215,-0.73085713,-0.06041204,-2.4274967,0.010026825,1.6686007,0.7808187,0.03999999,0.04,-0.03588753193897176,-0.01755464645157856,-0.00037588046555292465,-0.06628358492440338,0.023717920593624583,0.05672729788005155,0.999181840986288,-0.028183042308007153,-0.015077064383859333,0.02477996971511747
434.0499999999339,0.09943217,-0.7297175,-0.06169813,-2.4290104,0.010238119,1.6706773,0.7807086,0.039999988,0.04,-0.03517865730617853,-0.017546052973187176,-0.00047805478675666535,-0.06680556409833847,0.024187984111789157,0.05711169289147079,0.9991481542947924,-0.028755737289130244,-0.015409347629187477,0.025271037729206358
434.06666666660055,0.101519026,-0.7285669,-0.06299662,-2.4305387,0.010451423,1.6727738,0.7805973,0.039999984,0.04,-0.034889069079779844,-0.01749580512576676,-0.0010425496500099385,-0.06731874771142471,0.02465695342470263,0.057483368220373074,0.9991135151445433,-0.029332713655467135,-0.01574569895559215,0.0257652620697073
434.0833333332672,0.1036256,-0.7274055,-0.06430736,-2.4320822,0.010666733,1.6748902,0.7804851,0.039999988,0.04,-0.03597293134911528,-0.017567059218392966,-0.0020080305496383843,-0.06782119111984777,0.02512507389880521,0.057844833277934445,0.9990779098361986,-0.029913788200668086,-0.016086465182109308,0.026262539686079
434.09999999993386,0.10575164,-0.7262333,-0.06563026,-2.4336393,0.010884054,1.6770263,0.7803718,0.039999988,0.04,-0.03317192863174778,-0.01742544424871706,-0.00126149419910071,-0.06831376038644238,0.02558791114546928,0.05819721530498714,0.999041339560297,-0.030498878728183035,-0.016430826015453977,0.026762813797148045
434.1166666666005,0.10789699,-0.72505045,-0.06696518,-2.435211,0.011103329,1.6791817,0.78025746,0.039999988,0.04,-0.03483452130308429,-0.017470399392849334,-0.002627192421011948,-0.06879636737942729,0.026052255869960503,0.05853523028251896,0.9990037836616847,-0.03108791001725574,-0.01677945272732388,0.027265950314785656
434.13333333326716,0.110061385,-0.7238571,-0.068312,-2.4367974,0.011324563,1.6813561,0.78014207,0.039999984,0.04,-0.035169391384548554,-0.0173905976248806,-0.003466605269042411,-0.06926841746201275,0.02651326290714541,0.058863773640020586,0.9989652276087618,-0.03168079753377796,-0.017132567190647565,0.02777186053645608
434.1499999999338,0.112244636,-0.7226534,-0.06967052,-2.4383962,0.0115477275,1.6835494,0.78002554,0.03999998,0.04,-0.03100403351272707,-0.017367031065039507,-0.0022792881090527572,-0.0697302290414555,0.026967776763517443,0.05918092215426794,0.9989256810601485,-0.03227749727239531,-0.017488931049650807,0.028280455779385864
434.16666666660046,0.11444652,-0.7214393,-0.07104066,-2.44001,0.011772787,1.6857616,0.77990824,0.03999998,0.04,-0.035533283942035254,-0.017365527566938488,-0.00444459958937049,-0.07018072728883942,0.027426243933175,0.059485259529723444,0.998885117428206,-0.03287774151942634,-0.017849933112786768,0.0287915991374238
434.1833333332671,0.1166668,-0.72021514,-0.072422296,-2.4416358,0.011999741,1.6879926,0.77978975,0.039999973,0.04,-0.029941322701376727,-0.017170174446932973,-0.002821291665089376,-0.07062164038719174,0.027876667919182585,0.05977920239015393,0.9988435503522073,-0.033481605875276085,-0.018213883619257465,0.02930526286034927
434.19999999993377,0.11890529,-0.71898085,-0.07381524,-2.4432755,0.01222854,1.6902417,0.77967054,0.03999998,0.04,-0.03348765000779075,-0.01726335667972534,-0.004957334479316344,-0.0710517852063075,0.028333744719109016,0.06005965268702085,0.9988009552868045,-0.0340888211533203,-0.018582141209091782,0.029821267891038755
434.2166666666004,0.1211617,-0.7177367,-0.075219385,-2.4449286,0.012459185,1.6925087,0.7795502,0.03999998,0.04,-0.03282455683482066,-0.01709446769240508,-0.005425720475504825,-0.07147163949336832,0.028784781416908323,0.0603294707608861,0.9987573197550292,-0.03469946282188702,-0.018954563015723572,0.030339546082724975
434.23333333326707,0.12343585,-0.71648294,-0.07663455,-2.4465942,0.012691656,1.6947935,0.7794289,0.039999973,0.04,-0.030641231893380194,-0.0170836269794028,-0.005109722796681204,-0.07188037491573401,0.0292309779360872,0.06058722275958918,0.9987126492787246,-0.03531337876736039,-0.019330538113242507,0.030860002381020733
434.2499999999337,0.12572746,-0.71521944,-0.078060605,-2.448273,0.012925897,1.697096,0.7793068,0.039999977,0.04,-0.0319478568520104,-0.01696025670596818,-0.005905497344937949,-0.0722780802533649,0.029676981313957435,0.060831965917382054,0.998666933944109,-0.035930363368609296,-0.019710466118006958,0.03138250404736953
434.2666666666004,0.12803632,-0.7139465,-0.0794974,-2.4499643,0.013161889,1.6994158,0.7791837,0.03999998,0.04,-0.030939281312125644,-0.016884814927856096,-0.006383238414642278,-0.07266588283613351,0.030120020295673317,0.06106359302970614,0.9986201633189137,-0.036550490183112704,-0.020094204342984718,0.031906958991776584
434.283333333267,0.13036215,-0.7126642,-0.0809448,-2.4516683,0.01339962,1.7017529,0.7790597,0.039999977,0.04,-0.03095327193198827,-0.016750660584496924,-0.006712486757232128,-0.07304182141675707,0.03055987881774852,0.06128401177519391,0.9985723359046792,-0.03717351610381838,-0.02048176602153389,0.032433268829870486
434.2999999999337,0.13270473,-0.71137255,-0.08240262,-2.4533846,0.013639064,1.7041067,0.77893466,0.03999998,0.04,-0.03058732399023878,-0.016707569046883752,-0.007377403364605684,-0.07340725041228248,0.03099620056067487,0.06149310069454371,0.9985234380184851,-0.0377994975923642,-0.020873274927632163,0.03296131222061537
434.3166666666003,0.13506383,-0.710072,-0.08387071,-2.4551127,0.013880227,1.7064772,0.7788091,0.039999977,0.04,-0.028957988615418984,-0.016590999797218287,-0.007327123401412727,-0.07376067330528809,0.031428051861290274,0.06169168691553575,0.998473484057337,-0.0384280655358844,-0.021268213848383455,0.03349102108434038
434.333333333267,0.13743906,-0.7087625,-0.085348904,-2.4568524,0.014123027,1.7088637,0.77868235,0.039999977,0.04,-0.02906513428715396,-0.016307773704964112,-0.008109608578465988,-0.07410471683906976,0.03185994834673417,0.061873927558260065,0.9984224551913098,-0.03905937915959926,-0.021666845134745948,0.034022252884408036
434.34999999993363,0.13983034,-0.70744413,-0.08683705,-2.4586039,0.014367465,1.7112664,0.7785549,0.039999973,0.04,-0.02913758415705736,-0.016411359134410608,-0.008425120296817745,-0.0744368118885031,0.032288336579237215,0.0620456085050943,0.9983703509960234,-0.039693206927269256,-0.022069215658578986,0.03455490263509672
434.3666666666003,0.1422373,-0.7061172,-0.08833499,-2.460367,0.014613504,1.7136849,0.77842647,0.03999997,0.04,-0.028711840357242835,-0.016153839798317693,-0.009063166377187848,-0.07475803242985507,0.03271220007964987,0.06220400579651865,0.9983171646109894,-0.04032956223072526,-0.02247523613651873,0.03508887307908816
434.38333333326693,0.14465967,-0.7047817,-0.08984255,-2.4621418,0.014861102,1.7161188,0.77829736,0.03999997,0.04,-0.02891472442678733,-0.015981137353660024,-0.009724027669877344,-0.07506714624170932,0.03313247329758365,0.06234897544555354,0.9982628946681706,-0.04096816022465764,-0.022885184821609804,0.03562402689495196
434.3999999999336,0.14709717,-0.7034379,-0.09135957,-2.4639268,0.015110261,1.718568,0.77816737,0.039999966,0.04,-0.02616392352172703,-0.01580064684808119,-0.009185502431074966,-0.07536612530273457,0.03354679863179433,0.06248352029416128,0.9982075501518182,-0.041609013074099054,-0.023298260082971124,0.03616030873777382
434.41666666660024,0.14954953,-0.7020858,-0.09288583,-2.4657235,0.01536091,1.7210321,0.77803665,0.039999954,0.04,-0.02871693887485094,-0.01574402107086398,-0.010710305718908408,-0.0756538640450625,0.033960791537246904,0.06260136006074599,0.998151113665505,-0.04225196640259922,-0.023715329924752157,0.03669753057067766
434.4333333332669,0.15201657,-0.70072573,-0.094421215,-2.4675307,0.0156130595,1.7235111,0.7779051,0.03999995,0.04,-0.02625935363533838,-0.015597517299612007,-0.010464616993943743,-0.07593058484808633,0.03436714050097181,0.06271109934962923,0.9980935930789882,-0.04289700066387814,-0.024135715423652844,0.03723565535487139
434.44999999993354,0.15449794,-0.69935787,-0.095965534,-2.4693484,0.015866686,1.7260045,0.7777727,0.039999947,0.04,-0.026202827508958748,-0.015382950593009759,-0.011073932507588147,-0.0761956940411434,0.03477070369592716,0.06280804806182542,0.998034985157752,-0.04354399790082307,-0.02455953683858952,0.03777456549389698
434.4666666666002,0.15699333,-0.69798225,-0.09751864,-2.4711764,0.016121734,1.7285122,0.77763975,0.039999947,0.04,-0.02574805903667876,-0.015127518948836183,-0.011299304467482507,-0.07644910503737837,0.03517091133382888,0.0628904349103831,0.9979752975828737,-0.0441927146179171,-0.02498671059588809,0.03831414468145415
434.48333333326684,0.15950246,-0.696599,-0.09908031,-2.4730136,0.016378192,1.7310334,0.7775059,0.039999943,0.04,-0.024170814595225742,-0.014948730103032937,-0.011458009727216556,-0.07669258206437032,0.0355673327971473,0.06296213010086017,0.9979145271887683,-0.044843216416648755,-0.02541705305861839,0.038854289091967996
434.4999999999335,0.16202508,-0.69520825,-0.10065038,-2.4748619,0.016636036,1.7335682,0.77737147,0.03999994,0.04,-0.0268628257729997,-0.014880442476904177,-0.01315040264402434,-0.07692385629070542,0.035962315134713624,0.06302100894739684,0.9978526602777784,-0.04549525988501155,-0.025851405780418796,0.03939485402602376
434.51666666660014,0.16456087,-0.6938102,-0.10222868,-2.4767196,0.01689523,1.7361165,0.7772363,0.039999943,0.04,-0.02410188821582171,-0.01458649824306324,-0.012334086874443706,-0.07714473952684722,0.03634477214231896,0.0630671078663918,0.9977897146222489,-0.04614883109522063,-0.026288871168464657,0.03993577387861669
434.5333333332668,0.1671096,-0.6924051,-0.10381501,-2.4785864,0.017155766,1.7386777,0.7771004,0.03999994,0.04,-0.02325244604222121,-0.014447308684596705,-0.01285379632991468,-0.07735420100923102,0.036726894433324137,0.06310222308265942,0.9977256899333816,-0.046803842547913754,-0.02672948025495018,0.04047694226356529
434.54999999993345,0.16967094,-0.6909931,-0.10540919,-2.4804623,0.017417558,1.7412517,0.7769638,0.03999994,0.04,-0.023045030068624683,-0.01419011621552474,-0.013268635536700657,-0.0775522607802298,0.03710358125558991,0.0631210351358199,0.9976605897313926,-0.047460195714120273,-0.027173199977414374,0.041018224273787506
434.5666666666001,0.17224453,-0.6895743,-0.10701107,-2.482348,0.017680619,1.743838,0.77682656,0.039999936,0.04,-0.024138088556346915,-0.013892629732152606,-0.014509775051463336,-0.07773917230994674,0.037477269253094386,0.06313019453881322,0.9975944062308396,-0.04811769303159062,-0.027620536605157467,0.04155952636760186
434.58333333326675,0.17483017,-0.6881489,-0.10862044,-2.4842422,0.017944908,1.7464364,0.7766887,0.03999993,0.04,-0.02197821505809383,-0.013761112437647716,-0.013985998692978008,-0.07791497185063491,0.03784132840934795,0.06312632220293178,0.9975271543226494,-0.04877631117405205,-0.028070891322734236,0.042100747232758785
434.5999999999334,0.17742746,-0.6867172,-0.11023709,-2.4861448,0.0182104,1.7490464,0.7765501,0.039999925,0.04,-0.021311114584632307,-0.013433528712951393,-0.014499255159705626,-0.07807944768539143,0.038200712521424485,0.06311102695709736,0.9974588376677823,-0.04943595655563001,-0.028524227397411245,0.04264178478027304
434.61666666660005,0.18003614,-0.68527913,-0.111860864,-2.4880555,0.01847702,1.751668,0.776411,0.039999925,0.04,-0.02100999358030098,-0.013197443515684804,-0.014728926765639194,-0.07823305425692269,0.038555764156377015,0.06307936917525656,0.9973894637882273,-0.050096456600401455,-0.028980573491466693,0.043182507111352825
434.6333333332667,0.18265593,-0.68383497,-0.11349155,-2.4899745,0.01874482,1.7543006,0.7762712,0.039999925,0.04,-0.021103419403978307,-0.013042476832911265,-0.015534660817317913,-0.07837546239842216,0.038906926764075256,0.06304223228883371,0.997319027224581,-0.05075778966054023,-0.029440072399336995,0.04372284141857347
434.64999999993336,0.18528646,-0.6823847,-0.11512895,-2.4919016,0.019013708,1.7569441,0.776131,0.039999925,0.04,-0.020723034282976727,-0.012706004889041778,-0.015768140599226044,-0.07850669279123372,0.039251065370164706,0.06298793755879632,0.9972475395845537,-0.05141975302972748,-0.029902718169055882,0.04426263929114458
434.6666666666,0.18792745,-0.68092865,-0.11677288,-2.4938364,0.019283654,1.7595981,0.77599025,0.039999925,0.04,-0.019651453744673475,-0.012448100914302929,-0.0158720359749287,-0.07862742312374937,0.03958671975703626,0.06292206087669572,0.9971750118191912,-0.052082258996310755,-0.030368266933880648,0.044801813185068734
434.68333333326666,0.1905786,-0.679467,-0.118423164,-2.495778,0.019554676,1.7622623,0.77584875,0.03999993,0.04,-0.018166992519730307,-0.012165592923789326,-0.015962361164056915,-0.07873756034150467,0.03991826793791098,0.06284895250963823,0.9971014481993152,-0.05274535562223552,-0.03083643831344495,0.04534030801895212
434.6999999999333,0.19323957,-0.6780003,-0.12007958,-2.497727,0.01982671,1.7649364,0.7757068,0.03999993,0.04,-0.01807915348948086,-0.011902315497816507,-0.01666852030182131,-0.0788358744571103,0.04024404714633256,0.06276050336980264,0.9970268627171839,-0.05340879566351254,-0.03130726123723191,0.04587800082748381
434.71666666659996,0.19591005,-0.6765281,-0.12174192,-2.499683,0.020099709,1.7676203,0.77556443,0.03999992,0.04,-0.018413615501966518,-0.011642331764362412,-0.01690455196843299,-0.07892430849510111,0.04056599438784081,0.06265799715503989,0.9969512566345976,-0.0540725019923875,-0.03178093026228791,0.04641474867586282
434.7333333332666,0.19858974,-0.67505085,-0.12341001,-2.501646,0.02037366,1.7703133,0.7754215,0.039999917,0.04,-0.01811796107882291,-0.011359113573400359,-0.017760814435763272,-0.07900160906395289,0.040879980048093595,0.06254592748491483,0.996874627631412,-0.05473643421869352,-0.032257614132499696,0.04695046202365994
434.74999999993327,0.20127833,-0.67356884,-0.12508364,-2.5036156,0.020648494,1.7730154,0.7752781,0.039999913,0.04,-0.01646671703012803,-0.011044367222717844,-0.01735276637322425,-0.07906817759531183,0.04118522040289366,0.06241939613741819,0.9967970023847026,-0.055400467788466856,-0.03273673800527199,0.047485052284529455
434.7666666665999,0.20397544,-0.6720822,-0.12676266,-2.505592,0.020924192,1.7757261,0.7751343,0.039999917,0.04,-0.017223005487188026,-0.010661654209886962,-0.01843006420776394,-0.07912399591819472,0.04148506387638923,0.06228315657941731,0.9967183784347606,-0.056064425600061515,-0.03321876862725057,0.048018409838367436
434.78333333326657,0.20668079,-0.67059094,-0.1284468,-2.5075738,0.021200763,1.778445,0.77499,0.039999913,0.04,-0.014375220856277515,-0.010436943559999357,-0.017509510565649755,-0.0791693588326954,0.04177552955380301,0.062137676055340436,0.9966387795091824,-0.056728324060560255,-0.03370300510975386,0.04855046729228443
434.7999999999332,0.20939407,-0.66909504,-0.13013582,-2.5095613,0.021478137,1.7811718,0.77484536,0.03999991,0.04,-0.015274623681693633,-0.010209389872556374,-0.018362158509699356,-0.0792044524549506,0.04206404594760607,0.06197816797813266,0.9965582062101399,-0.05739202018786063,-0.03418988095374659,0.04908105229468048
434.8166666665999,0.21211492,-0.66759515,-0.13182962,-2.511554,0.021756275,1.7839065,0.77470016,0.039999906,0.04,-0.013626441547720525,-0.009709213091663171,-0.018257329351945017,-0.07922844495278884,0.04234130341691486,0.061808231512729066,0.9964766810180734,-0.058055459271428585,-0.034678817527519966,0.049610154715355105
434.8333333332665,0.214843,-0.66609126,-0.13352789,-2.513553,0.022035155,1.7866483,0.77455467,0.03999991,0.04,-0.01533174050056818,-0.00955190699004349,-0.019815428213476594,-0.07924210523318113,0.04261725352291543,0.0616273523633682,0.9963941922370948,-0.0587184979122867,-0.03517063456654526,0.05013759211708133
434.8499999999332,0.21757796,-0.6645836,-0.13523051,-2.515556,0.022314753,1.789397,0.77440876,0.039999913,0.04,-0.011848878578701871,-0.009012408588615628,-0.018537425297182608,-0.07924547487193753,0.04287967395926001,0.061435189532527884,0.9963107802784048,-0.05938103047448447,-0.03566436394307232,0.050663354264802646
434.8666666665998,0.22031957,-0.6630724,-0.13693725,-2.517564,0.02259504,1.7921523,0.7742625,0.039999906,0.04,-0.01244804568203417,-0.008876079576261575,-0.019430568541145554,-0.07923865372299099,0.04313876107488643,0.06123273187707078,0.9962264430117539,-0.060043018485103655,-0.03616031978447717,0.05118731726151299
434.8833333332665,0.22306731,-0.66155773,-0.1386479,-2.5195775,0.022875967,1.7949141,0.7741161,0.0399999,0.04,-0.013422852788069761,-0.008362063589911761,-0.020211432933492368,-0.07922130300516633,0.043390531488009226,0.06101929805001014,0.996141194319315,-0.06070417310502093,-0.03665878353717298,0.051709360248400324
434.89999999993313,0.22582108,-0.6600399,-0.14036225,-2.5215945,0.023157487,1.7976816,0.77396935,0.039999906,0.04,-0.010050241776404789,-0.008178732807256894,-0.019478642625858633,-0.07919517138792886,0.04363256787223155,0.060795591467751445,0.9960550531632797,-0.061364639314522136,-0.03715911228399763,0.052229421631488415
434.9166666665998,0.22858034,-0.6585189,-0.14208011,-2.523616,0.02343962,1.8004547,0.77382225,0.0399999,0.04,-0.011528414280403965,-0.007689505346614167,-0.020338428575294998,-0.07915852839408563,0.04386832751696659,0.060562337945949,0.9959680228086968,-0.06202422402420179,-0.037661700156042394,0.05274741243025194
434.93333333326643,0.23134491,-0.6569949,-0.14380127,-2.5256414,0.023722272,1.8032334,0.77367455,0.0399999,0.04,-0.010175004036727664,-0.00747455461762303,-0.02004490839393469,-0.07911224445502982,0.04409495395196683,0.06031566290801569,0.9958801159049548,-0.06268303698376604,-0.03816622530717729,0.05326322244689267
434.9499999999331,0.2341144,-0.6554683,-0.1455255,-2.5276701,0.02400543,1.8060169,0.77352685,0.0399999,0.04,-0.008874575816220087,-0.007047713538491096,-0.020265658313078916,-0.07905433129612305,0.04431315465887517,0.06006086051519898,0.9957913696234582,-0.06334069055932517,-0.0386725059487987,0.05377678296946991
434.96666666659974,0.23688838,-0.6539393,-0.14725263,-2.5297022,0.024289045,1.8088051,0.77337885,0.039999902,0.04,-0.008640667052461914,-0.0065497682456922,-0.020560795853885594,-0.07898789492942287,0.044525995866064455,0.05979478078314129,0.9957017900313558,-0.06399719873158706,-0.03918054220055227,0.054288018896752784
434.9833333332664,0.23966661,-0.65240777,-0.14898233,-2.531738,0.024573116,1.8115976,0.7732306,0.039999895,0.04,-0.00964193960393267,-0.006492292610540962,-0.021371695855032513,-0.07891215731035303,0.04473213578704133,0.059519525793824926,0.9956113712870729,-0.06465254294953755,-0.03969081608423136,0.054796762428087044
434.99999999993304,0.24244872,-0.65087414,-0.15071456,-2.533776,0.024857568,1.8143939,0.77308226,0.039999902,0.04,-0.006345672013252646,-0.005789771179537384,-0.020338598508162775,-0.07882595273967881,0.044923914711708035,0.059235704816237494,0.9955201640007104,-0.06530649557902445,-0.04020248231294556,0.05530302992660211
435.0166666665997,0.24523439,-0.6493387,-0.15244894,-2.5358167,0.025142428,1.8171937,0.7729338,0.0399999,0.04,-0.0067307250323223045,-0.005707855807901563,-0.02111501727903864,-0.07873104204233751,0.04511253655919106,0.05894343639252306,0.9954281708447549,-0.06595906516916532,-0.04071572449948131,0.05580670380122465
435.03333333326634,0.24802329,-0.64780146,-0.15418535,-2.5378602,0.025427591,1.819997,0.77278507,0.0399999,0.04,-0.007183815871969479,-0.005224926792049556,-0.02156184136676842,-0.07862744649283471,0.0452929312364177,0.05863666620140452,0.9953353952067623,-0.06661020680514039,-0.04123078309578561,0.056307671975343095
435.049999999933,0.250815,-0.6462626,-0.15592358,-2.5399055,0.025713058,1.8228031,0.7726362,0.039999887,0.04,-0.00530967811038785,-0.004775938016390868,-0.02103707551019962,-0.0785135898414988,0.04546208955166159,0.05832424779691381,0.9952418718184044,-0.06725977458870627,-0.041747218441729225,0.056805889255021204
435.06666666659964,0.25360918,-0.6447225,-0.15766336,-2.5419526,0.025998782,1.8256118,0.77248704,0.039999884,0.04,-0.004438911207604868,-0.004380848292004358,-0.02128705228168215,-0.07839097238587052,0.045624586751543156,0.05800272129786544,0.9951476165704485,-0.06790773986271738,-0.04226491529523996,0.05730128302210406
435.0833333332663,0.2564056,-0.6431812,-0.15940452,-2.544001,0.02628472,1.8284228,0.77233785,0.03999989,0.04,-0.004088028507509556,-0.004134243947484517,-0.02128524524416253,-0.07825871899303605,0.045780067195401286,0.057672082883194115,0.995052648189409,-0.06855398303997276,-0.04278388515838543,0.05779375322085966
435.09999999993295,0.25920385,-0.64163893,-0.16114686,-2.5460513,0.02657085,1.8312356,0.77218866,0.039999895,0.04,-0.004120969283416542,-0.0036790945643266904,-0.02184985603668199,-0.07811766318811782,0.04592744103146401,0.05733265432024635,0.9949569793080555,-0.06919837766629063,-0.04330425375388849,0.05828323482239247
435.1166666665996,0.2620036,-0.6400958,-0.16289014,-2.5481024,0.026857158,1.8340499,0.77203935,0.039999895,0.04,-0.00288683651303856,-0.0033291815030006555,-0.02156820825878203,-0.07796826255168539,0.04606533161963916,0.05698497698078436,0.9948606286156064,-0.06984091494946484,-0.043825840411653785,0.05876965153711808
435.13333333326625,0.26480448,-0.6385521,-0.16463417,-2.550154,0.02714357,1.8368654,0.77188987,0.039999887,0.04,-0.0015685284317390469,-0.0028354046877149264,-0.021341456572354645,-0.07781009180293832,0.04619467602934482,0.056627942678804395,0.99476362456398,-0.07048153616160084,-0.04434829163308073,0.059252960549336584
435.1499999999329,0.2676063,-0.63700783,-0.16637878,-2.5522065,0.027430056,1.8396817,0.77174044,0.03999989,0.04,-0.0025703102040752768,-0.0026149601404734657,-0.022073773522834905,-0.07764280701049177,0.046317956801005616,0.05626336653788668,0.9946659689125837,-0.07112010659803082,-0.04487209412848714,0.05973303853982242
435.16666666659955,0.27040845,-0.6354633,-0.16812365,-2.5542595,0.027716627,1.8424985,0.771591,0.039999884,0.04,-0.001257648720964788,-0.0020859863761074626,-0.02191825282611415,-0.07746645770755632,0.04642996981462302,0.055893273735613834,0.9945676923172391,-0.07175652013394511,-0.045396944234686654,0.06020983865765633
435.1833333332662,0.27321073,-0.6339187,-0.16986857,-2.5563126,0.028003184,1.8453155,0.7714416,0.039999884,0.04,-0.0002568600568242374,-0.0017519521350151113,-0.02173919346597497,-0.07728284119895018,0.046531507709946296,0.05551061840094746,0.994468816329711,-0.07239076178793652,-0.04592266647775496,0.06068327330590084
435.19999999993286,0.27601275,-0.6323744,-0.17161334,-2.5583653,0.028289722,1.8481323,0.77129215,0.039999884,0.04,0.0006084687595775407,-0.0013382831612646084,-0.021696451109320947,-0.07709022331071197,0.04662451437871387,0.05512375752322077,0.9943693661579097,-0.07302274700798114,-0.046449055015935437,0.061153310247703666
435.2166666665995,0.27881426,-0.6308302,-0.17335784,-2.5604177,0.028576206,1.8509485,0.77114266,0.03999988,0.04,0.0007472438975586471,-0.0009465841092709537,-0.021766663434474864,-0.07688956772832431,0.04671114339567364,0.05472922461883403,0.9942693482451028,-0.07365243629769459,-0.0469762904317107,0.06161988238343307
435.23333333326616,0.28161484,-0.62928665,-0.17510179,-2.5624692,0.028862616,1.8537636,0.7709932,0.039999876,0.04,0.001705378540384217,-0.0005590063465621409,-0.021905272141387044,-0.07668030847695048,0.04678729886125868,0.054328733646735114,0.9941687870021106,-0.0742797519653907,-0.04750422363628615,0.06208292950099615
435.2499999999328,0.2844141,-0.62774384,-0.176845,-2.5645201,0.029148884,1.8565778,0.7708439,0.039999884,0.04,0.0020407392278043446,-7.944761041545068e-05,-0.021758824601492144,-0.07646269740806522,0.04685481246717857,0.053919038153247535,0.994067719695021,-0.07490446760016672,-0.04803268278222245,0.06254239185240104
435.26666666659946,0.28721178,-0.62620175,-0.17858718,-2.5665703,0.029435007,1.8593903,0.77069473,0.03999988,0.04,0.0018990253837447568,0.00016332197796675718,-0.022267659244912252,-0.07623832747157361,0.04691234442227152,0.05350493359719733,0.9939661388269315,-0.07552666910283752,-0.04856201442191921,0.06299815771113351
435.2833333332661,0.29000762,-0.62466085,-0.1803282,-2.5686183,0.029720942,1.862201,0.77054566,0.039999876,0.04,0.0048756468622457305,0.0005062085294937901,-0.020888924806894416,-0.07600563903624363,0.04695991031795363,0.0530836421362798,0.9938641004242367,-0.0761462877102279,-0.04909130898582043,0.06345026507377888
435.29999999993277,0.29280102,-0.6231212,-0.18206774,-2.5706646,0.030006623,1.8650092,0.7703966,0.039999884,0.04,0.004094734455706295,0.0011434093983631044,-0.021804721776752523,-0.07576561961764078,0.047000998952484246,0.05265463267416025,0.993761603248741,-0.0767632536576053,-0.04962107943634748,0.0638985701871475
435.3166666665994,0.2955918,-0.621583,-0.18380569,-2.572709,0.030292036,1.8678149,0.7702477,0.03999988,0.04,0.0047852024342986965,0.0014285290362875402,-0.021494406513067332,-0.07551711734368709,0.04703261492108973,0.05222080652417092,0.9936586779890698,-0.07737743952299292,-0.05015110239525537,0.06434306830125693
435.33333333326607,0.29837957,-0.62004656,-0.1855418,-2.5747516,0.030577162,1.8706175,0.7700988,0.039999876,0.04,0.005175535076706872,0.0018232435703202654,-0.02188332816814853,-0.07526175566368229,0.04705491105398876,0.05178117343467128,0.9935553299385684,-0.0779888939393329,-0.05068145769022141,0.06478370643283761
435.3499999999327,0.301164,-0.6185119,-0.18727586,-2.5767913,0.030861946,1.8734168,0.7699501,0.039999876,0.04,0.006760623014012701,0.002233737029669336,-0.020962273991020908,-0.07499809552694402,0.04706743872694566,0.051335843733585705,0.9934516045677453,-0.07859745362458675,-0.05121176087046902,0.06522043555550111
435.3666666665994,0.3039449,-0.6169794,-0.18900765,-2.578828,0.031146357,1.8762125,0.7698016,0.039999872,0.04,0.007229595520841237,0.002436511913903039,-0.021073422719641854,-0.07472796624627748,0.047072783459348067,0.05088491983838644,0.9933475198035109,-0.07920311260115327,-0.051741928066149634,0.06565321572093802
435.383333333266,0.3067217,-0.61544895,-0.19073695,-2.580863,0.031430364,1.8790041,0.7696536,0.03999988,0.04,0.0055157223094903784,0.0030097292576691803,-0.022275938116300686,-0.07445008184653973,0.047070233506759124,0.05042856994474194,0.993243076191299,-0.07980562692027665,-0.0522726944598079,0.0660819107155552
435.3999999999327,0.3094941,-0.6139208,-0.19246362,-2.582894,0.03171394,1.8817915,0.76950586,0.03999988,0.04,0.009000814904802645,0.0034648662098457628,-0.020328636646227416,-0.07416598615378643,0.04705260214944765,0.04996950762157904,0.9931383311060903,-0.08040501775744825,-0.052803046626871346,0.06650659120835038
435.4166666665993,0.31226188,-0.61239547,-0.1941874,-2.5849218,0.031997066,1.884574,0.76935834,0.03999988,0.04,0.008787335206084101,0.0036946189124836826,-0.021100560058817663,-0.0738754726237169,0.047027957532142284,0.049506401221364425,0.9930332854867633,-0.08100131954082446,-0.05333319276468891,0.06692720446525731
435.433333333266,0.31502464,-0.61087286,-0.19590808,-2.5869458,0.032279655,1.8873519,0.7692111,0.039999884,0.04,0.009571385790341225,0.004106006553961095,-0.020423326427043698,-0.07357896257608235,0.04699500809222171,0.049034036374469,0.9929279770448843,-0.08159442759486284,-0.05386288809404076,0.06734367879162192
435.44999999993263,0.3177821,-0.60935324,-0.19762544,-2.5889661,0.032561716,1.8901243,0.76906395,0.03999988,0.04,0.00942549212259447,0.004409184580794756,-0.02099980534584489,-0.07327521939641982,0.046954116816230546,0.04856169224055157,0.9928223969131356,-0.08218444956694529,-0.05439239032361987,0.06775597620813592
435.4666666665993,0.3205338,-0.6078366,-0.19933924,-2.590982,0.032843184,1.892891,0.7689171,0.039999876,0.04,0.01096888900149473,0.004917819880623231,-0.020057222004066233,-0.0729639012051802,0.04690260998222717,0.04808219100216666,0.9927165967698064,-0.08277116275469262,-0.05492136830081988,0.06816404050506075
435.48333333326593,0.32327944,-0.60632336,-0.20104939,-2.5929937,0.033124056,1.8956518,0.7687706,0.039999876,0.04,0.010724084035595993,0.00536908810853387,-0.02057443676648507,-0.07264580842503465,0.04684296980047459,0.04760099491077086,0.9926105891615994,-0.08335446235547672,-0.05544994732339773,0.06856788775749434
435.4999999999326,0.32601872,-0.6048137,-0.20275554,-2.5950003,0.03340428,1.8984063,0.76862454,0.03999988,0.04,0.012874696790277085,0.005547561338653528,-0.019404673071776735,-0.0723224801907359,0.046772450179396796,0.04711515954871527,0.99250442218563,-0.08393431793516701,-0.05597758940542387,0.06896746841145314
435.51666666659924,0.3287512,-0.6033076,-0.20445755,-2.597002,0.03368381,1.9011539,0.7684788,0.039999876,0.04,0.012067832487705488,0.006116010616277756,-0.020054874384767274,-0.07199337192121044,0.04669591301457987,0.04662549247300794,0.9923980903845778,-0.08451070807282152,-0.05650472357341091,0.06936271791074926
435.5333333332659,0.33147678,-0.60180557,-0.20615518,-2.598999,0.03396263,1.9038944,0.76833344,0.039999872,0.04,0.012649774621786847,0.006183120226671557,-0.020192886933156906,-0.07165869387773952,0.04660944569046893,0.0461329027960145,0.9922916060600169,-0.08508369463456192,-0.057031268823685546,0.0697536223183103
435.54999999993254,0.33419493,-0.6003075,-0.20784827,-2.60099,0.034240678,1.9066274,0.76818836,0.03999988,0.04,0.014481121276910258,0.006823491114762992,-0.01888907107827631,-0.07131655689387857,0.04651179848747686,0.045636556310964665,0.9921850187407478,-0.08565314040092815,-0.05755679412862264,0.07014017091165523
435.5666666665992,0.3369055,-0.59881365,-0.20953654,-2.602976,0.034517966,1.909353,0.76804376,0.039999884,0.04,0.013283699252975012,0.006823695842672617,-0.019689253959431774,-0.07096887021054808,0.046406719574787286,0.045139371274835915,0.9920783295029536,-0.08621903013830153,-0.05808160290877339,0.07052229701439909
435.58333333326584,0.339608,-0.59732425,-0.21121988,-2.6049564,0.03479443,1.9120705,0.7678995,0.039999887,0.04,0.01469101339059975,0.007531379161643259,-0.01916859366335455,-0.07061516144752512,0.04629182832217116,0.04463890043117407,0.9919715681936826,-0.08678127705511156,-0.05860550540364444,0.07090001822590555
435.5999999999325,0.34230217,-0.59583944,-0.21289808,-2.6069305,0.035070084,1.9147795,0.76775587,0.039999884,0.04,0.015594741237157095,0.007781066503570466,-0.01869212859915148,-0.07025486581630042,0.04616661101585909,0.044139580768089895,0.9918647688521227,-0.0873397419760536,-0.05912835971163607,0.07127332501920283
435.61666666659914,0.34498766,-0.59435934,-0.21457088,-2.6088982,0.035344828,1.9174799,0.76761246,0.03999988,0.04,0.016136976094771605,0.008106266969801212,-0.018365729330938052,-0.06989066142232747,0.046031246974967244,0.04363268450137226,0.9917579405990216,-0.08789459185345236,-0.059650053178422875,0.07164216033533513
435.6333333332658,0.3476642,-0.59288424,-0.21623813,-2.6108592,0.03561865,1.9201714,0.7674696,0.039999876,0.04,0.016918822260780786,0.008386029634760428,-0.01794266273598133,-0.06951980842109251,0.045887522658141916,0.04312607126695641,0.9916511245907469,-0.08844564983570982,-0.06017036072959029,0.07200654006905813
435.64999999993245,0.3503314,-0.5914142,-0.21789958,-2.6128135,0.03589154,1.9228536,0.76732725,0.039999872,0.04,0.016955267300367005,0.008798606702220546,-0.018038286524668656,-0.06914376344361636,0.045736472226207636,0.04261867806907967,0.9915443332067311,-0.0889928511196743,-0.0606894489963657,0.07236641842545431
435.6666666665991,0.35298893,-0.58994967,-0.21955505,-2.6147604,0.036163438,1.9255261,0.76718545,0.039999876,0.04,0.01857938566796058,0.009138140124498317,-0.017227431171407126,-0.06876273578879478,0.045574967559237595,0.042109264106983034,0.9914376050449308,-0.0895361728885877,-0.061206902723042425,0.07272182689047921
435.68333333326575,0.3556366,-0.5884906,-0.22120433,-2.6167002,0.03643433,1.9281888,0.76704425,0.039999876,0.04,0.018213250429632843,0.009287233055299549,-0.01743955310622436,-0.06837694907917855,0.04540835988109443,0.0415988519872807,0.9913309453493784,-0.09007561332060239,-0.06172292755211401,0.0730727096255596
435.6999999999324,0.3582739,-0.5870371,-0.22284728,-2.6186326,0.036704168,1.9308408,0.7669035,0.039999876,0.04,0.01855408608173459,0.009957367679291895,-0.01737962306109786,-0.06798631584173384,0.04523093890329938,0.04108566210470183,0.9912243661677111,-0.09061108742629347,-0.06223768545084422,0.07341905243576391
435.71666666659905,0.36090073,-0.5855894,-0.22448365,-2.6205573,0.036972925,1.9334825,0.76676327,0.03999988,0.04,0.019416759859747224,0.009877638395866528,-0.016697480498861772,-0.06759076288000444,0.0450435092649914,0.04057302930272115,0.9911178977589972,-0.09114269060707372,-0.06275076482756664,0.07376085821250082
435.7333333332657,0.3635167,-0.58414793,-0.22611326,-2.6224737,0.037240587,1.9361132,0.7666238,0.039999876,0.04,0.020904362242624153,0.01033843154095715,-0.015999397671118132,-0.06718928260379345,0.044848090593580026,0.040060874083023605,0.9910115887365543,-0.0916701939893247,-0.06326190637897375,0.0740981627647265
435.74999999993236,0.3661214,-0.58271235,-0.22773592,-2.6243825,0.037507113,1.9387326,0.7664848,0.03999988,0.04,0.01938459963126693,0.01073125980417533,-0.016804685510130035,-0.06678396762360318,0.044646047321326404,0.039547815402476066,0.9909054119494692,-0.09219368907411844,-0.06377173639959921,0.07443086658596407
435.766666666599,0.36871466,-0.58128315,-0.22935142,-2.626283,0.037772477,1.9413404,0.76634645,0.039999884,0.04,0.021097657236635037,0.01090000673620306,-0.015863331874688136,-0.06637355182521018,0.04443135543981647,0.0390366892093915,0.9907994152147316,-0.09271310889794519,-0.06427976069814684,0.07475901693583752
435.78333333326566,0.37129608,-0.5798606,-0.23095961,-2.6281745,0.038036656,1.9439366,0.7662087,0.039999884,0.04,0.022228338501650846,0.011283840281400837,-0.015050799725324637,-0.06595867893358791,0.04420862078078358,0.03852428797877535,0.990693636166298,-0.09322840135549053,-0.06478562119786635,0.07508267261029455
435.7999999999323,0.3738653,-0.57844466,-0.23256026,-2.6300576,0.038299613,1.9465206,0.7660716,0.03999989,0.04,0.02165527034971859,0.011612473314237537,-0.015385916220678197,-0.06553943207675017,0.04397880390532763,0.03801389884455321,0.9905880761306269,-0.09373950909622994,-0.06528969146247561,0.07540175098070265
435.81666666659896,0.37642217,-0.57703555,-0.23415326,-2.6319313,0.038561307,1.9490921,0.76593506,0.03999989,0.04,0.02312544526672511,0.011805579102197594,-0.014406791208210201,-0.0651162292780969,0.043739468161797246,0.03750087343846727,0.9904827655102901,-0.09424649676670485,-0.06579155848003602,0.07571631202758958
435.8333333332656,0.37896636,-0.57563347,-0.23573835,-2.6337957,0.03882171,1.951651,0.7657993,0.03999989,0.04,0.023310749138172326,0.012033165437774773,-0.014358591544549881,-0.06468904435699095,0.043492399885786376,0.03698816396776806,0.9903777270658467,-0.09474925248057203,-0.06629128519310633,0.0760263269776092
435.84999999993227,0.3814976,-0.5742385,-0.23731536,-2.6356506,0.039080758,1.9541966,0.7656641,0.03999989,0.04,0.02369092374316928,0.012328155107615979,-0.014108748276076,-0.06425737024327442,0.043236460332407856,0.03647641035578629,0.990272966192791,-0.09524785399074644,-0.06678891696663491,0.07633177129028607
435.8666666665989,0.38401544,-0.5728509,-0.23888408,-2.637496,0.039338462,1.956729,0.76552963,0.03999989,0.04,0.024120594620846703,0.012669449805868815,-0.013641596023994396,-0.0638210797424925,0.042972836591748664,0.03596691816004594,0.9901685235186386,-0.09574215233561315,-0.0672842181928468,0.07663269068250869
435.88333333326557,0.38651967,-0.5714706,-0.24044442,-2.639331,0.03959477,1.959248,0.765396,0.03999989,0.04,0.02508611131784022,0.012976684599474986,-0.012806249498842348,-0.06338161339983994,0.04270031560175014,0.035456438321973836,0.9900644303605374,-0.09623204883278735,-0.06777707319959819,0.07692908982176344
435.8999999999322,0.38901013,-0.57009816,-0.24199611,-2.6411562,0.039849676,1.9617527,0.76526314,0.03999989,0.04,0.025205412086704015,0.012970252289490336,-0.013240594800967287,-0.06293880546191448,0.04242193046883741,0.03495170082187718,0.9899606755912627,-0.09671769597318751,-0.06826763360750959,0.0772209704041551
435.91666666659887,0.39148647,-0.5687335,-0.243539,-2.6429713,0.04010314,1.9642433,0.7651309,0.03999989,0.04,0.025257582410964652,0.013319531119798667,-0.012775785915386528,-0.06249170899573645,0.04213348260577135,0.03444640803737556,0.9898572790598166,-0.09719909515206719,-0.0687557975901128,0.0775083433680728
435.9333333332655,0.39394832,-0.56737673,-0.24507296,-2.6447752,0.040355116,1.9667193,0.76499957,0.03999989,0.04,0.02708067140893,0.013692697042011481,-0.01140253857654372,-0.06204078011219037,0.04183761890056997,0.0339403769228393,0.9897543016969991,-0.0976759961999614,-0.06924121773231025,0.07779123218960904
435.9499999999322,0.39639547,-0.566028,-0.24659777,-2.6465688,0.04060557,1.9691806,0.76486886,0.03999989,0.04,0.025840592930026496,0.01380185321760985,-0.012226288550576392,-0.06158742099895518,0.04153393061266275,0.0334365475975465,0.9896517137439566,-0.09814862391676349,-0.06972423561620822,0.07806961044242099
435.9666666665988,0.39882752,-0.56468755,-0.24811326,-2.6483505,0.040854476,1.9716269,0.76473904,0.03999989,0.04,0.028665643649183892,0.014170483380754328,-0.010038246799992656,-0.06112978991211633,0.041221034456551925,0.032935022000537,0.9895496032311477,-0.09861672096244416,-0.07020406005617509,0.07834357052957451
435.9833333332655,0.4012443,-0.5633556,-0.24961923,-2.650122,0.041101847,1.9740579,0.7646101,0.039999895,0.04,0.026338645774992564,0.01421552357198097,-0.011942335899983725,-0.06066943114437173,0.04090603160367559,0.03243844306369115,0.9894479223177995,-0.0990803821499949,-0.07068149636004044,0.07861305849734132
435.99999999993213,0.40364563,-0.56203204,-0.25111556,-2.6518812,0.04134764,1.9764737,0.76448196,0.0399999,0.04,0.029091854012586182,0.014346566010781103,-0.009242478820081779,-0.060206299008800056,0.04058063090541175,0.03194343711050993,0.989346743142165,-0.09953960516921578,-0.07115564989277852,0.07887814859062085
436.0166666665988,0.4060312,-0.56071746,-0.25260216,-2.65363,0.041591838,1.9788735,0.76435477,0.039999895,0.04,0.027150110335938393,0.014731807073431469,-0.011423085537476396,-0.05973980108468374,0.04025029273480432,0.031451890121245926,0.9892460251919678,-0.0999943223618231,-0.07162736935042878,0.07913884695413281
436.03333333326543,0.4084007,-0.5594116,-0.25407866,-2.6553662,0.041834403,1.981257,0.7642282,0.039999902,0.04,0.03007128542815707,0.014704563786854807,-0.008728715617900562,-0.05927041811215489,0.03991018082225961,0.030963138719297678,0.9891458238196278,-0.10044469591746949,-0.07209585540757983,0.0793951504519396
436.0499999999321,0.41075388,-0.5581147,-0.255545,-2.6570904,0.042075314,1.9836242,0.7641027,0.03999991,0.04,0.02934603115671841,0.015052801462550613,-0.009088263006762354,-0.05879711366549968,0.0395651959479959,0.030475898520685885,0.9890461655807613,-0.10089047379797547,-0.07256124753358217,0.07964709664001281
436.06666666659873,0.41309053,-0.55682695,-0.25700104,-2.658803,0.04231455,1.9859747,0.76397794,0.039999902,0.04,0.02900015726838845,0.015188629251516872,-0.009490479626572679,-0.058321803448205034,0.03921363809122311,0.029991596226598992,0.9889470233900524,-0.10133182007655203,-0.0730238690517198,0.07989469141717698
436.0833333332654,0.41541022,-0.5555484,-0.25844666,-2.6605031,0.04255205,1.9883083,0.7638541,0.039999906,0.04,0.030245998843492217,0.015582904718092205,-0.008148644311511966,-0.057842930559426464,0.03885283982627544,0.029509538939592322,0.9888484583732103,-0.10176855547615797,-0.07348327363512103,0.08013798091471609
436.09999999993204,0.41771293,-0.5542794,-0.25988168,-2.6621904,0.042787783,1.9906249,0.76373124,0.039999906,0.04,0.031218516837028254,0.01544860387244773,-0.007393082083528846,-0.05736217661720384,0.038484719564819636,0.029031054885799476,0.9887504947136233,-0.10220073033877966,-0.07393921276546594,0.0803770037847167
436.1166666665987,0.4199982,-0.5530199,-0.26130596,-2.6638656,0.04302174,1.992924,0.7636092,0.039999906,0.04,0.0300893417779724,0.015931806608271426,-0.008226006615674741,-0.05687922182574449,0.03811342575490459,0.02855527102616058,0.9886531061045625,-0.102628362593488,-0.07439220437465636,0.0806117541643884
436.13333333326534,0.4222659,-0.5517703,-0.26271924,-2.6655276,0.043253876,1.9952056,0.7634882,0.03999991,0.04,0.032087188269414035,0.015791219412136792,-0.006546319673939038,-0.05639347329539693,0.037732865649098446,0.02808343359488019,0.9885563637835687,-0.10305138144164136,-0.07484150002100916,0.08084230501775302
436.149999999932,0.42451584,-0.55053043,-0.26412147,-2.667177,0.043484207,1.9974691,0.76336795,0.03999991,0.04,0.030814339206264307,0.01600410247261652,-0.007468092997608977,-0.055905694556723694,0.037348639557141544,0.02761604196848886,0.9884602113668104,-0.10346994274923602,-0.07528785937888426,0.0810686112024603
436.16666666659864,0.4267478,-0.5493003,-0.2655125,-2.6688123,0.043712717,1.9997145,0.7632489,0.039999902,0.04,0.033186883260682976,0.01607693875632088,-0.00505051121904021,-0.05541425154018457,0.036954327701863715,0.027151773222255204,0.9883647506194684,-0.10388377244759675,-0.07573038695376944,0.08129077467218594
436.1833333332653,0.42896146,-0.5480802,-0.26689216,-2.6704342,0.043939337,2.001942,0.76313066,0.039999902,0.04,0.03236394271897147,0.016314395449429364,-0.005534985447375185,-0.05492219388104583,0.03655748698543655,0.02669114450475376,0.9882699590468254,-0.10429306709467959,-0.07616927518509288,0.08150880761824646
436.19999999993195,0.43115655,-0.5468705,-0.26826036,-2.672044,0.044164073,2.00415,0.76301354,0.0399999,0.04,0.030741862118532914,0.016663900710461865,-0.007743920634539769,-0.05442699555135644,0.03615527967133002,0.02623543265645025,0.9881757814543296,-0.10469770266898687,-0.07660561513113334,0.08172267575980433
436.2166666665986,0.43333295,-0.5456709,-0.26961684,-2.6736393,0.044386886,2.0063398,0.76289725,0.039999906,0.04,0.034213567005503265,0.016345437378856298,-0.003363904442799104,-0.053929607133824276,0.03573816462688019,0.025784368695224193,0.9880823419620449,-0.10509778679377987,-0.07703770461134989,0.08193248917288004
436.23333333326525,0.43549037,-0.54448193,-0.27096164,-2.6752207,0.044607773,2.00851,0.7627821,0.039999902,0.04,0.03343470212671118,0.01683628826514294,-0.004892390294886084,-0.053430181136428036,0.03532209266177139,0.02533632509495494,0.9879896056227189,-0.10549314710720722,-0.0774663460747035,0.08213829996241577
436.2499999999319,0.4376286,-0.54330343,-0.27229443,-2.676788,0.044826716,2.010662,0.7626678,0.039999895,0.04,0.03390356627142044,0.01661665907290999,-0.0033368222692953253,-0.052929450405704105,0.03489871537290218,0.024894058262061626,0.9878976217755356,-0.10588394131392578,-0.07789084106458598,0.0823401283720238
436.26666666659855,0.43974754,-0.5421355,-0.27361518,-2.6783404,0.045043632,2.012794,0.76255476,0.039999895,0.04,0.035037694928008456,0.01681034139499049,-0.0030073206489067417,-0.05242695307308143,0.03447262268998759,0.024453348042817784,0.9878063965266972,-0.10627000519263127,-0.07831151680466798,0.08253796285983726
436.2833333332652,0.44184688,-0.5409783,-0.2749237,-2.6798792,0.045258544,2.0149066,0.7624425,0.03999989,0.04,0.033288615097637475,0.016956369964876705,-0.0038924035422827075,-0.051923298361332186,0.034042007325534265,0.024019711458341406,0.9877159004315675,-0.10665155697164727,-0.07872856467360956,0.08273184716065772
436.29999999993186,0.44392645,-0.5398322,-0.27621996,-2.6814036,0.045471434,2.0169992,0.7623316,0.039999887,0.04,0.03447817653938756,0.01705643033856341,-0.003106428057386701,-0.0514164446714728,0.03360556932017701,0.023590899995054662,0.9876261761910838,-0.10702834677701545,-0.07914187674680187,0.08292184533252461
436.3166666665985,0.44598594,-0.53869694,-0.27750382,-2.682913,0.045682285,2.019072,0.76222163,0.03999989,0.04,0.03543638046219488,0.01722800402337299,-0.0015830099437286194,-0.050908750174187965,0.03316222847742496,0.023168203679990694,0.9875372596425535,-0.1074004436229122,-0.07955099417965804,0.08310803121423033
436.33333333326516,0.44802535,-0.5375729,-0.2787751,-2.6844077,0.045891106,2.0211241,0.7621128,0.039999887,0.04,0.03521826493735336,0.017091651128098295,-0.0022917278516887407,-0.05040033708368972,0.032717601040834404,0.022749419751989325,0.9874491195288131,-0.10776792365541885,-0.07995635921013262,0.08329040517749792
436.3499999999318,0.45004433,-0.53646016,-0.28003374,-2.685887,0.046097826,2.0231555,0.762005,0.039999887,0.04,0.03596315902176794,0.01736571031774048,-0.0012197331862529026,-0.049890340257585486,0.03226447681038895,0.022332602016794337,0.9873617904866826,-0.10813075180912356,-0.08035767538783702,0.08346903142117473
436.36666666659846,0.4520428,-0.5353587,-0.28127953,-2.6873517,0.046302456,2.0251665,0.7618982,0.03999989,0.04,0.035393349806556174,0.017216678410725272,-0.0011451254045002912,-0.049378688841084366,0.03180894362107414,0.021922443161206877,0.9872752852590313,-0.10848894944690314,-0.08075489625203229,0.08364392205013568
436.3833333332651,0.45402056,-0.5342687,-0.28251243,-2.6888013,0.046504967,2.0271568,0.7617926,0.039999895,0.04,0.03568496234647167,0.017318385937226122,-0.0008213967879866502,-0.04886586969567484,0.03134791605946709,0.02151648919981891,0.9871896092478178,-0.10884249533934633,-0.08114809706480638,0.08381511166970913
436.39999999993177,0.45597744,-0.5331902,-0.2837324,-2.6902359,0.04670535,2.0291257,0.7616881,0.03999989,0.04,0.03570656892699642,0.017562253561220764,-0.0009536589837821907,-0.04835149969709599,0.030883410419475815,0.021116421621032364,0.9871047514198948,-0.10919135916133588,-0.08153753284499539,0.08398266217689822
436.4166666665984,0.45791325,-0.5321232,-0.2849392,-2.6916547,0.046903588,2.0310738,0.76158476,0.03999989,0.04,0.03683449284366258,0.017316775209474944,0.0008724012576344364,-0.04783598346811626,0.030412017351295506,0.020721819938511195,0.9870207764602945,-0.10953556489599439,-0.0819224944242088,0.08414660876082966
436.43333333326507,0.4598278,-0.531068,-0.28613287,-2.6930583,0.04709962,2.0330002,0.76148266,0.03999989,0.04,0.03621675132412516,0.0176758712654157,-4.941496432042669e-05,-0.04732011729586845,0.029937391610580857,0.020330137085960338,0.9869376540784074,-0.10987504061040815,-0.08230354344629669,0.08430699347773477
436.4499999999317,0.4617209,-0.5300246,-0.28731316,-2.6944466,0.04729346,2.0349054,0.76138145,0.03999989,0.04,0.0362243868982981,0.017543933744007534,0.0006398724600176209,-0.04680334723195736,0.02945697560876008,0.019946178860760156,0.9868553933196215,-0.11020997571309682,-0.08268043028858912,0.08446384064549477
436.46666666659837,0.4635926,-0.528993,-0.28848,-2.695819,0.047485128,2.0367887,0.76128143,0.03999989,0.04,0.037246809826019245,0.017387439827831752,0.0013689169855668482,-0.04628446968537278,0.02897142166074261,0.0195678379115753,0.9867740109257158,-0.11054031047161543,-0.0830531058214418,0.08461721299964141
436.483333333265,0.4654424,-0.52797353,-0.2896333,-2.6971745,0.047674574,2.03865,0.7611828,0.03999989,0.04,0.03854706216102066,0.017669973369993652,0.0028206378111184094,-0.045764568976958214,0.02848283344486542,0.019193377102022773,0.9866935757070513,-0.11086582609305305,-0.08342108048607581,0.08476720824513548
436.4999999999317,0.4672703,-0.52696604,-0.2907731,-2.6985145,0.047861796,2.04049,0.7610851,0.03999989,0.04,0.037014212561770066,0.01767014233288733,0.002217403310966759,-0.04524569478556651,0.027993609872358077,0.01882606547818224,0.9866140500041789,-0.11118672849956736,-0.0837846266852831,0.0849138626557689
436.5166666665983,0.46907628,-0.5259706,-0.29189914,-2.6998382,0.048046745,2.0423076,0.7609887,0.039999887,0.04,0.03762122343133889,0.01753397466869311,0.002615558599505796,-0.04472635729258876,0.027502090586146014,0.018460090907275226,0.986535447109625,-0.11150296191979908,-0.08414382686308995,0.08505714244058797
436.533333333265,0.47086006,-0.52498734,-0.29301137,-2.7011461,0.048229396,2.0441027,0.7608935,0.0399999,0.04,0.03698329110457532,0.017695804949019456,0.0019888275790247434,-0.04420694767278025,0.027007063838720646,0.018099899759840114,0.9864577372230723,-0.11181459625276399,-0.08449904563647663,0.08519706581856093
436.54999999993163,0.47262168,-0.52401656,-0.2941098,-2.702438,0.0484098,2.0458755,0.7607994,0.039999902,0.04,0.03765464618550318,0.017518254396658994,0.003040199558301815,-0.04368596154591731,0.02650461827536847,0.01774845328890678,0.9863809507631244,-0.11212168228081902,-0.08484981424201685,0.08533379961802427
436.5666666665983,0.47436076,-0.5230581,-0.29519427,-2.7037125,0.04858793,2.0476258,0.7607066,0.039999906,0.04,0.03984468864708379,0.01765594756692468,0.0053251426298528415,-0.04316404995013444,0.026000976723521224,0.01740167019963179,0.9863051654264781,-0.11242400257407818,-0.08519558061312843,0.08546740514525518
436.58333333326493,0.47607732,-0.52211195,-0.29626465,-2.704971,0.048763767,2.0493536,0.7606149,0.039999906,0.04,0.03695536442720471,0.017566324786827403,0.0031627809645273786,-0.042643446344166516,0.025497914339706634,0.017060741453070474,0.9862303005343002,-0.11272179688220134,-0.08553717633091222,0.08559779366903308
436.5999999999316,0.47777128,-0.52117825,-0.29732093,-2.7062128,0.04893726,2.051059,0.7605243,0.03999991,0.04,0.03886023038697228,0.017457443553647867,0.005158621915835049,-0.0421219680997053,0.02498987840740552,0.01672234665033047,0.9861564172301184,-0.11301503348379789,-0.08587392264577709,0.0857250976782178
436.61666666659823,0.4794425,-0.5202571,-0.29836318,-2.7074382,0.049108483,2.0527418,0.7604351,0.039999906,0.04,0.037836186013473494,0.01763006301277459,0.00436490880759699,-0.041599723117005924,0.02448383095462482,0.01639322443698304,0.9860835065299199,-0.11330350819305146,-0.08620624685461856,0.08584938080175715
436.6333333332649,0.4810909,-0.51934856,-0.29939112,-2.7086463,0.049277358,2.0544014,0.76034695,0.039999906,0.04,0.039463437119136024,0.017385896744920304,0.0059106372832129495,-0.041079510600294196,0.02397182525180601,0.01606652162445275,0.986011575030131,-0.11358753694837992,-0.08653375291582889,0.08597066338526727
436.64999999993154,0.4827163,-0.5184525,-0.30040482,-2.7098377,0.04944383,2.0560374,0.76026005,0.03999991,0.04,0.03817232692437944,0.0177000805160199,0.004909360364835358,-0.040558381377106094,0.02346004999854094,0.015742459457300528,0.9859405989309142,-0.11386696327751838,-0.08685705782930021,0.08608891658595864
436.6666666665982,0.48431867,-0.5175694,-0.30140415,-2.7110126,0.049607996,2.0576506,0.76017463,0.039999906,0.04,0.03841062531080297,0.017345551703712436,0.005469959491155585,-0.040036405464251704,0.022944507482217602,0.01543024521910685,0.9858706199956984,-0.11414171998642507,-0.08717574065487722,0.08620428428512865
436.68333333326484,0.48589793,-0.5166988,-0.30238912,-2.7121706,0.04976976,2.0592406,0.7600901,0.03999991,0.04,0.038432022366130525,0.017470961832694032,0.006181302498053931,-0.03951674527978004,0.022426401264500448,0.015118769263653437,0.985801614137212,-0.11441206678610522,-0.0874898657806099,0.08631674185168169
436.6999999999315,0.48745397,-0.51584136,-0.30335954,-2.7133112,0.04992914,2.0608075,0.760007,0.03999991,0.04,0.039998895561121905,0.017179642190234823,0.007271191069846417,-0.03899570973727086,0.02190456052452941,0.014813193853302944,0.9857336491881988,-0.11467782657166083,-0.08779884860954323,0.08642644927194264
436.71666666659814,0.48898673,-0.51499635,-0.30431548,-2.7144349,0.050086167,2.0623507,0.7599253,0.039999906,0.04,0.03816095675757136,0.017375338377589866,0.006372818827449223,-0.0384760602376499,0.021389149998920026,0.014514677054638662,0.9856666713280574,-0.114938972392137,-0.08810354496427178,0.08653329430476667
436.7333333332648,0.49049613,-0.51416457,-0.3052569,-2.715542,0.050240792,2.063871,0.75984454,0.039999906,0.04,0.038467821657262036,0.017278309249008084,0.006547805143286567,-0.03795700734871638,0.02086606633820555,0.014221101835222998,0.98560068033996,-0.11519575709779878,-0.08840354141596486,0.08663746490513684
436.74999999993145,0.4919819,-0.5133455,-0.30618376,-2.716631,0.05039301,2.065368,0.7597652,0.03999991,0.04,0.04056529969191924,0.017318224891749168,0.009449737232714028,-0.037437112072573775,0.02034184518735352,0.013932142693468152,0.9855357891655053,-0.11544779216237731,-0.08869814765771132,0.08673900022970105
436.7666666665981,0.49344444,-0.5125392,-0.30709592,-2.7177033,0.050542835,2.0668416,0.7596872,0.039999913,0.04,0.03782639144811473,0.016817599414825635,0.006718108047465421,-0.03692138294047086,0.019824204902773965,0.01364850410384364,0.9854718777245849,-0.11569547143228279,-0.0889883758078361,0.08683780901845645
436.78333333326475,0.49488336,-0.5117461,-0.30799347,-2.718759,0.050690275,2.0682898,0.7596101,0.039999913,0.04,0.03811790415668703,0.01746227945982337,0.00586748770550205,-0.0364044730855498,0.01930329538959079,0.01337093508746202,0.9854088709118014,-0.11593885593816314,-0.08927497401028492,0.08693398545759556
436.7999999999314,0.49629867,-0.510966,-0.30887634,-2.7197962,0.05083529,2.0697145,0.75953454,0.039999917,0.04,0.04102899256281933,0.016855891936928824,0.010417246616323261,-0.03588543021197792,0.018769096208904837,0.013100519818005873,0.9853469724881362,-0.1161776266398404,-0.0895560389104965,0.08702768968242058
436.81666666659805,0.49769038,-0.51019907,-0.3097445,-2.7208166,0.05097789,2.071116,0.7594604,0.039999925,0.04,0.03839770558031752,0.01691525108037939,0.00802241545034832,-0.035370114583198456,0.01824382991295971,0.012832372666497813,0.9852861034254994,-0.11641188471792349,-0.08983242856959289,0.08711889732030628
436.8333333332647,0.49905846,-0.5094449,-0.31059796,-2.72182,0.05111809,2.0724936,0.7593871,0.039999925,0.04,0.038110057330897895,0.016900091619842517,0.008141227719971056,-0.034856581021100216,0.017717591740490424,0.012571779377431976,0.9852262113575428,-0.1166419306456199,-0.09010442475511667,0.08720759777034562
436.84999999993136,0.5004029,-0.50870365,-0.31143662,-2.7228055,0.051255856,2.073847,0.75931525,0.03999993,0.04,0.03994374149880464,0.016619610056817224,0.00990269472922467,-0.03434149353088012,0.01718690832432075,0.0123147631295198,0.9851673756785607,-0.11686750923587619,-0.09037149806512777,0.0872938687485242
436.866666666598,0.5017235,-0.50797564,-0.31226063,-2.723774,0.05139121,2.0751767,0.75924474,0.03999993,0.04,0.03853007085545812,0.0169807223848073,0.008819352667166491,-0.033828565707492445,0.01665765969399871,0.012064246698292189,0.9851095709402102,-0.1170885744233622,-0.09063397095516487,0.08737781349059888
436.88333333326466,0.50302047,-0.5072606,-0.3130699,-2.7247255,0.05152412,2.0764825,0.75917536,0.039999932,0.04,0.03819429406868302,0.016636638690170624,0.008917523346951839,-0.033318275669646485,0.016127487834434615,0.011817177477277951,0.9850527698005518,-0.11730535882205731,-0.09089194942835764,0.08745940217610804
436.8999999999313,0.5042936,-0.5065589,-0.31386417,-2.7256591,0.051654644,2.077765,0.7591073,0.03999993,0.04,0.039989141917629034,0.01619167999628024,0.010905784266457275,-0.03280811620586768,0.015595655471308742,0.01157921613489122,0.9849970521334889,-0.11751782407612538,-0.09114458051843097,0.08753875573064263
436.91666666659796,0.5055431,-0.5058702,-0.31464377,-2.7265754,0.051782746,2.0790234,0.7590406,0.03999993,0.04,0.03877687289106646,0.016457262979685527,0.009887823424636899,-0.0323001367348516,0.015069612859232598,0.011341467763072523,0.9849423652883554,-0.11772590524985413,-0.09139258757348592,0.08761588457525737
436.9333333332646,0.506769,-0.5051945,-0.31540862,-2.7274747,0.051908415,2.080258,0.75897497,0.03999993,0.04,0.0379426200178834,0.016257844902234364,0.009545000846311602,-0.03179366601885884,0.01454184052727664,0.011110208686527047,0.9848886753448832,-0.11792983244333215,-0.09163612782841989,0.08769077416639726
436.94999999993126,0.507971,-0.50453186,-0.31615874,-2.7283561,0.05203161,2.081468,0.75891083,0.039999932,0.04,0.03936963001724969,0.016483026091629327,0.010899836193623003,-0.03128813612584871,0.014012024382047156,0.010882040656778974,0.9848360481375587,-0.11812928297215412,-0.09187488833216037,0.0877635213926262
436.9666666665979,0.5091494,-0.5038822,-0.316894,-2.72922,0.052152384,2.0826547,0.75884783,0.03999994,0.04,0.03898003826638963,0.01584589713848339,0.01116225189699005,-0.030785826872889006,0.013483232247244653,0.010659965370841316,0.9847844629968961,-0.11832461477761698,-0.09210868184703452,0.08783414886048115
436.98333333326457,0.5103041,-0.50324565,-0.31761461,-2.7300663,0.05227074,2.083818,0.75878596,0.039999943,0.04,0.038658418288339824,0.016021781857122885,0.01130115369725182,-0.030284447848627227,0.012958028062743265,0.01044221095974511,0.9847339314599464,-0.11851571431794475,-0.09233749194894803,0.08790277169533933
436.9999999999312,0.51143515,-0.502622,-0.3183204,-2.7308955,0.052386716,2.0849571,0.75872564,0.039999943,0.04,0.038016941395535575,0.015854718057928263,0.010521516587180813,-0.029784640262463524,0.012436209919429224,0.010231441034467199,0.9846844273654557,-0.11870250057941122,-0.09256185476191388,0.08796930091340846
437.01666666659787,0.5125427,-0.50201136,-0.3190116,-2.731708,0.05250025,2.0860722,0.75866646,0.039999947,0.04,0.0373042514996369,0.01587384597288022,0.010051343882611086,-0.029288397799920117,0.011912556611953354,0.010022581886756962,0.9846359025035827,-0.11888520256978244,-0.09278197925524025,0.0880338141646556
437.0333333332645,0.5136268,-0.5014137,-0.31968814,-2.7325032,0.05261137,2.087164,0.7586084,0.03999995,0.04,0.03841809990234868,0.015530302734773072,0.011802823617856895,-0.028792716715795058,0.011386121683928677,0.00982091982785105,0.9845884201185602,-0.11906382340430809,-0.09299715667703454,0.08809641181553679
437.0499999999312,0.5146872,-0.5008289,-0.32035002,-2.733281,0.052720126,2.0882323,0.7585518,0.039999947,0.04,0.038227160513848446,0.015704188776988204,0.012036101027046442,-0.02829875124387817,0.010863593305568617,0.009623822412768818,0.984542009970251,-0.11923809293069901,-0.09320744877762911,0.08815712841485739
437.0666666665978,0.5157242,-0.50025725,-0.32099727,-2.7340415,0.05282647,2.089277,0.75849634,0.03999995,0.04,0.038053960306072554,0.015282510525022053,0.011635356024863874,-0.027809506026634075,0.010343922274787545,0.00942925982766289,0.9844966206949182,-0.11940835240595575,-0.09341298677806205,0.08821600261394223
437.0833333332645,0.51673794,-0.49969846,-0.32163,-2.7347846,0.0529304,2.0902987,0.7584421,0.03999995,0.04,0.03813355906086002,0.015118355227666802,0.012458179795182822,-0.027322403899326428,0.009826569314979147,0.00923797048038314,0.9844522770646371,-0.11957458835942116,-0.09361353897248305,0.0882730837910027
