rsonawane2002/My_IMU/logs_2/traj_290/imu_290.csv
time,j1,j2,j3,j4,j5,j6,j7,gripper1,gripper2,imu_ax,imu_ay,imu_az,imu_gx,imu_gy,imu_gz
431.9833333332691,0.00016700293,-0.785875,4.0107683e-05,-2.3551247,9.29385e-05,1.570997,0.786,0.04,0.04,-9.503586,-0.024512093514204025,0.11296642,-4.7667444e-07,-0.0011641269084066153,1.2209122e-06
431.99999999993577,0.00016701498,-0.78576016,4.010886e-05,-2.3552213,9.297495e-05,1.5709941,0.786,0.04,0.04,-9.83441,0.0006349898176267743,0.009103437,-3.897113e-07,-0.002238459885120392,1.2822657e-06
432.0166666666024,0.00016709084,-0.7856542,4.0069972e-05,-2.35531,9.3015056e-05,1.5709913,0.786,0.04,0.04,-9.832344,0.0006493430119007826,0.0076320707,-2.7627457e-06,-0.0032260494772344828,3.7132022e-06
432.03333333326907,0.000167335,-0.7855566,3.9926075e-05,-2.355391,9.3069524e-05,1.5709884,0.786,0.04,0.04,-9.830434,0.0006752815679647028,0.006358176,-8.783727e-06,-0.004135679919272661,9.376451e-06
432.0499999999357,0.00016789741,-0.7854667,3.958443e-05,-2.3554654,9.315378e-05,1.5709856,0.786,0.04,0.04,-9.828464,0.0007118895300664008,0.0052593444,-2.0184736e-05,-0.00496835820376873,1.9679574e-05
432.0666666666024,0.00016896841,-0.7853836,3.8926788e-05,-2.355533,9.329915e-05,1.570986,0.786,0.04,0.039999995,-9.826597,0.0007663769065402448,0.004289376,-3.8280887e-05,-0.005730021744966507,3.6641435e-05
432.083333333269,0.00017077514,-0.7853068,3.7812533e-05,-2.3555982,9.350688e-05,1.5709869,0.786,0.04,0.04,-9.824649,0.0008195796399377286,0.003384016,-6.452663e-05,-0.006410348694771528,5.9076865e-05
432.0999999999357,0.00017357673,-0.78523564,3.608033e-05,-2.3556573,9.3834446e-05,1.5709878,0.786,0.04,0.03999999,-9.823353,0.0009066362399607897,0.0026712636,-0.00010025139,-0.007043602876365185,9.190747e-05
432.1166666666023,0.00017766243,-0.7851691,3.3551507e-05,-2.3557146,9.42672e-05,1.5709907,0.786,0.04,0.04,-9.821525,0.0009659939678385854,0.0020501334,-0.00014639914,-0.007616094313561916,0.00012973427
432.133333333269,0.00018334645,-0.78510684,3.0030338e-05,-2.355766,9.487503e-05,1.5709953,0.786,0.04,0.039999995,-9.820218,0.0010876985033974051,0.0014648384,-0.00020381053,-0.008142647333443165,0.00018142293
432.14999999993563,0.00019096649,-0.78504825,2.5307574e-05,-2.3558166,9.566534e-05,1.5710013,0.786,0.04,0.04,-9.818376,0.0011816235492005944,0.0009802417,-0.00027377735,-0.00860750861465931,0.00024033403
432.1666666666023,0.00020088036,-0.7849928,1.9160794e-05,-2.3558662,9.668943e-05,1.5710099,0.786,0.04,0.04,-9.817166,0.0013181747635826468,0.000599577,-0.0003569591,-0.009037009440362453,0.00031204981
432.18333333326893,0.00021346341,-0.7849399,1.1356837e-05,-2.355914,9.798874e-05,1.5710222,0.786,0.04,0.04,-9.81587,0.0014654621481895447,0.00023796782,-0.0004536558,-0.009425904601812363,0.00039625805
432.1999999999356,0.00022910672,-0.784889,1.6528044e-06,-2.3559604,9.960054e-05,1.571038,0.7859981,0.04,0.04,-9.814453,0.0016220961697399616,-8.738562e-05,-0.00056519546,-0.009768201969563961,0.000491768
432.21666666660224,0.00024821452,-0.78483963,-1.0202398e-05,-2.3560057,0.00010155985,1.5710566,0.7859962,0.04,0.04,-9.812988,0.001794514013454318,-0.00033502324,-0.000682682,-0.01006592158228159,0.0005990056
432.2333333332689,0.0002712027,-0.78479123,-2.4466992e-05,-2.356052,0.00010391522,1.5710793,0.7859943,0.039999995,0.04,-9.811699,0.002008090727031231,-0.00050109025,-0.0008160939,-0.010330429300665855,0.00072003633
432.24999999993554,0.00029849645,-0.7847434,-4.1405412e-05,-2.3560998,0.00010670956,1.5711066,0.7859924,0.03999999,0.039999995,-9.810494,0.0022347865160554647,-0.00066349015,-0.00096546515,-0.010561325587332249,0.00085425377
432.2666666666022,0.00033052923,-0.7846956,-6.128696e-05,-2.3561494,0.00010998749,1.571138,0.7859905,0.039999988,0.03999999,-9.809464,0.0024827709421515465,-0.0007954403,-0.0011310546,-0.010766043327748775,0.0010019598
432.28333333326884,0.00036774084,-0.78464746,-8.438508e-05,-2.3562,0.000113794,1.5711743,0.78598857,0.039999984,0.039999988,-9.808314,0.0027613318525254726,-0.0008940189,-0.0013136305,-0.010943522676825523,0.0011633391
432.2999999999355,0.00041057664,-0.7845984,-0.00011097641,-2.356251,0.00011817389,1.5712168,0.78598666,0.039999984,0.03999999,-9.80712,0.0030644708313047886,-0.0009832538,-0.0015130835,-0.011092238128185272,0.0013376821
432.31666666660215,0.0004594855,-0.78454787,-0.00014134019,-2.3563082,0.00012317486,1.5712653,0.78598475,0.03999998,0.039999984,-9.805759,0.003413105383515358,-0.0010629625,-0.0017298043,-0.011203551664948463,0.0015276863
432.3333333332688,0.00051491923,-0.7844958,-0.000175757,-2.3563664,0.00012884097,1.57132,0.78598094,0.039999977,0.039999984,-9.805176,0.003770088078454137,-0.0011450732,-0.0019641703,-0.011307241395115852,0.0017299945
432.34999999993545,0.00057733135,-0.7844414,-0.00021450907,-2.3564284,0.00013522006,1.5713822,0.7859771,0.03999997,0.039999977,-9.803818,0.004189569968730211,-0.0011902237,-0.002207453,-0.011377723887562752,0.0019472128
432.3666666666021,0.0006471762,-0.7843848,-0.00025787868,-2.3564944,0.00014235807,1.5714517,0.7859733,0.039999966,0.039999973,-9.802855,0.004631216172128916,-0.0012634769,-0.002468444,-0.011426052078604698,0.0021785097
432.38333333326875,0.00072490773,-0.7843253,-0.00030614837,-2.356567,0.00015030145,1.571529,0.7859695,0.03999996,0.03999997,-9.801826,0.005116359330713749,-0.0012951512,-0.002747144,-0.011452371254563332,0.002423884
432.3999999999354,0.0008109794,-0.78426254,-0.0003596,-2.356641,0.00015909653,1.5716152,0.7859657,0.039999958,0.039999966,-9.80113,0.005640828050673008,-0.0013562362,-0.0030440614,-0.011467651464045048,0.0026832921
432.41666666660205,0.00090584287,-0.78419614,-0.0004185144,-2.3567224,0.0001687895,1.5717102,0.78595996,0.039999958,0.039999966,-9.7997675,0.0062092868611216545,-0.0014479165,-0.0033591357,-0.011447358876466751,0.0029566672
432.4333333332687,0.001009947,-0.78412575,-0.00048317097,-2.3568108,0.00017942619,1.5718144,0.78595424,0.039999954,0.03999996,-9.799063,0.006823926232755184,-0.0015110145,-0.0036832357,-0.011416696012020111,0.0032439039
432.44999999993536,0.001123739,-0.7840512,-0.00055384735,-2.3569036,0.00019105221,1.5719284,0.7859485,0.039999947,0.039999954,-9.798372,0.007491978816688061,-0.0016015004,-0.0040253154,-0.01137618999928236,0.0035449099
432.466666666602,0.0012476612,-0.78397197,-0.0006308189,-2.3570018,0.00020371267,1.5720526,0.78594226,0.039999943,0.039999954,-9.797267,0.008197931572794914,-0.0017291782,-0.00438551,-0.011309362947940826,0.0038587158
432.48333333326866,0.0013821527,-0.78388774,-0.0007143589,-2.3571074,0.00021745311,1.5721875,0.7859346,0.039999943,0.039999954,-9.796259,0.00897575356066227,-0.0018360838,-0.004761491,-0.011222224682569504,0.0041868803
432.4999999999353,0.0015276471,-0.7837983,-0.0008047378,-2.3572206,0.00023231754,1.5723335,0.785927,0.03999994,0.03999995,-9.7955,0.009800983592867851,-0.0019806297,-0.0051487065,-0.011121604591608047,0.0045283874
432.51666666660196,0.0016845752,-0.78370345,-0.00090222224,-2.3573415,0.0002483498,1.5724909,0.78591913,0.03999994,0.03999995,-9.794744,0.010683814063668251,-0.0021326598,-0.0055538523,-0.011009201407432556,0.0048830626
432.5333333332686,0.0018533609,-0.7836028,-0.0010070766,-2.3574703,0.00026559323,1.5726602,0.7859096,0.039999943,0.039999954,-9.79391,0.011632019653916359,-0.002312542,-0.0059756404,-0.010880746878683567,0.0052507333
432.54999999993527,0.002034422,-0.7834959,-0.001119562,-2.3576078,0.00028409084,1.5728415,0.78590006,0.039999943,0.039999954,-9.79314,0.012633847072720528,-0.0025324374,-0.006407291,-0.0107391607016325,0.0056311684
432.5666666666019,0.0022281734,-0.7833823,-0.0012399341,-2.3577564,0.00030388444,1.573036,0.78589004,0.03999995,0.03999996,-9.792446,0.013701205141842365,-0.0027713347,-0.006856551,-0.01058847364038229,0.0060241953
432.58333333326857,0.0024350197,-0.7832625,-0.0013684465,-2.357914,0.00032501595,1.5732433,0.7858786,0.03999996,0.039999973,-9.792081,0.014830909669399261,-0.0031132232,-0.0073210043,-0.01043668668717146,0.0064295614
432.5999999999352,0.0026553622,-0.7831354,-0.0015053488,-2.3580804,0.00034752558,1.5734644,0.78586715,0.039999973,0.039999988,-9.791277,0.016031844541430473,-0.0033967886,-0.0077960296,-0.010271299630403519,0.006846167
432.6166666666019,0.002889593,-0.7830007,-0.0016508854,-2.3582554,0.00037145452,1.5736995,0.78585464,0.039999973,0.039999988,-9.790514,0.01731216534972191,-0.003809209,-0.008288232,-0.010091741569340229,0.0072755236
432.6333333332685,0.0031380998,-0.7828592,-0.0018052966,-2.3584414,0.00039684196,1.5739491,0.7858413,0.03999997,0.039999984,-9.789739,0.018661966547369957,-0.0042433916,-0.008792165,-0.009899412281811237,0.0077165184
432.6499999999352,0.003401262,-0.78271,-0.0019688196,-2.3586385,0.00042372648,1.5742133,0.7858275,0.03999997,0.039999984,-9.789114,0.02008143626153469,-0.004649168,-0.009308939,-0.009695746004581451,0.008168879
432.6666666666018,0.0036794522,-0.78255284,-0.0021416848,-2.358845,0.00045214588,1.5744926,0.78581244,0.03999997,0.039999988,-9.788596,0.02157454937696457,-0.0051341755,-0.00984049,-0.009487555362284184,0.008631489
432.6833333332685,0.0039730347,-0.78238755,-0.0023241197,-2.3590636,0.0004821383,1.5747874,0.7857971,0.039999973,0.03999999,-9.787794,0.023156028240919113,-0.005670037,-0.010382139,-0.009263860061764717,0.009105815
432.69999999993513,0.0042823665,-0.7822136,-0.0025163484,-2.3592927,0.0005137398,1.575098,0.78578055,0.03999997,0.039999988,-9.787333,0.024812277406454086,-0.0062425435,-0.010938847,-0.009036297909915447,0.009590702
432.7166666666018,0.004607799,-0.7820314,-0.0027185874,-2.3595338,0.0005469859,1.5754246,0.7857634,0.03999997,0.039999988,-9.786688,0.026545021682977676,-0.006915164,-0.011505381,-0.008796637877821922,0.010085863
432.73333333326843,0.0049496735,-0.78184026,-0.0029310503,-2.3597863,0.00058191194,1.5757678,0.78574514,0.039999966,0.039999984,-9.786084,0.028375666588544846,-0.0075349147,-0.012085042,-0.008550023660063744,0.010591042
432.7499999999351,0.0053083235,-0.78164,-0.0031539437,-2.360051,0.0006185518,1.5761278,0.7857261,0.039999966,0.039999984,-9.785522,0.03028038702905178,-0.008275038,-0.012675333,-0.008295811712741852,0.011105906
432.76666666660174,0.005684077,-0.7814304,-0.0033874728,-2.3603287,0.0006569391,1.5765052,0.78570604,0.03999996,0.03999998,-9.7849455,0.03227691352367401,-0.009065292,-0.013276772,-0.008032206445932388,0.011630222
432.7833333332684,0.006077251,-0.7812115,-0.003631835,-2.360618,0.00069710566,1.5769,0.78568506,0.039999958,0.03999998,-9.784513,0.034359510987997055,-0.009900801,-0.013888806,-0.007764905691146851,0.012162786
432.79999999993504,0.006488156,-0.78098303,-0.0038872235,-2.3609204,0.00073908444,1.5773125,0.7856632,0.039999958,0.03999998,-9.783873,0.03653547167778015,-0.0107802125,-0.014511137,-0.007486158516258001,0.012705032
432.8166666666017,0.0069170934,-0.7807449,-0.0041538286,-2.3612366,0.0007829051,1.5777429,0.7856403,0.039999958,0.039999984,-9.783337,0.0387970432639122,-0.011713376,-0.015143703,-0.007199970073997974,0.013254953
432.83333333326834,0.0073643597,-0.78049666,-0.0044318293,-2.3615658,0.0008285994,1.5781918,0.78561646,0.039999958,0.03999998,-9.783,0.041160665452480316,-0.01271562,-0.015785998,-0.006911716889590025,0.013814795
432.849999999935,0.007830243,-0.78023833,-0.004721408,-2.3619084,0.0008761939,1.5786595,0.7855916,0.03999996,0.039999988,-9.78246,0.04361456260085106,-0.013762858,-0.01643763,-0.006616998463869095,0.014380815
432.86666666660165,0.008315016,-0.7799697,-0.0050227353,-2.3622644,0.0009257194,1.5791466,0.7855658,0.039999958,0.039999984,-9.781945,0.04617176577448845,-0.014879623,-0.0170986,-0.006313344929367304,0.014955321
432.8833333332683,0.008818952,-0.7796907,-0.005335982,-2.3626344,0.0009772027,1.579653,0.7855388,0.039999958,0.039999988,-9.781409,0.04881802201271057,-0.016059905,-0.017768338,-0.005999777931720018,0.01553625
432.89999999993495,0.009342315,-0.77940106,-0.005661309,-2.3630183,0.0010306707,1.5801786,0.78551096,0.039999958,0.039999988,-9.780962,0.05157363787293434,-0.017282296,-0.018445663,-0.005680193193256855,0.016125014
432.9166666666016,0.009885354,-0.7791006,-0.0059988764,-2.3634164,0.0010861492,1.5807236,0.78548187,0.039999954,0.039999984,-9.780531,0.05442410707473755,-0.018554904,-0.01913193,-0.005356480833142996,0.016720457
432.93333333326825,0.010448314,-0.77878934,-0.0063488362,-2.3638294,0.0011436639,1.5812889,0.785452,0.039999947,0.039999977,-9.780071,0.05737918242812157,-0.019903846,-0.019825237,-0.005027262028306723,0.017322222
432.9499999999349,0.011031441,-0.7784671,-0.006711336,-2.3642573,0.0012032381,1.5818744,0.78542084,0.039999943,0.039999973,-9.779644,0.06042660400271416,-0.021312796,-0.020527145,-0.00469170929864049,0.017930007
432.96666666660155,0.011634955,-0.7781337,-0.0070865173,-2.3647,0.0012648957,1.5824805,0.7853888,0.039999947,0.03999998,-9.779387,0.06356935948133469,-0.022813411,-0.021234836,-0.004354055039584637,0.018542666
432.9833333332682,0.012259083,-0.77778894,-0.0074745216,-2.3651578,0.0013286584,1.5831072,0.78535557,0.03999995,0.03999999,-9.778855,0.06683433055877686,-0.024342889,-0.021950757,-0.004008034709841013,0.019158887
432.99999999993486,0.012904033,-0.7774327,-0.007875478,-2.3656306,0.0013945501,1.583755,0.7853212,0.039999947,0.03999998,-9.778506,0.07023229449987411,-0.02594555,-0.022672106,-0.003658703528344631,0.019785566
433.0166666666015,0.013570015,-0.77706474,-0.008289515,-2.3661187,0.0014625905,1.5844241,0.7852858,0.039999943,0.039999977,-9.778071,0.07369346171617508,-0.027630018,-0.023399448,-0.0033024793956428766,0.020414343
433.03333333326816,0.0142572215,-0.7766853,-0.008716762,-2.3666222,0.0015327994,1.5851145,0.78524905,0.039999943,0.03999998,-9.77772,0.07727368921041489,-0.029383464,-0.02413296,-0.002941916463896632,0.0210467
433.0499999999348,0.014965844,-0.7762942,-0.00915733,-2.3671415,0.0016051969,1.5858262,0.7852113,0.039999943,0.03999998,-9.7773285,0.0809735506772995,-0.031171264,-0.02487129,-0.002575772814452648,0.021684023
433.06666666660146,0.015696067,-0.7758912,-0.009611333,-2.3676767,0.0016798005,1.5865594,0.78517234,0.039999943,0.03999998,-9.776969,0.08477663993835449,-0.03304249,-0.025614886,-0.0022054275032132864,0.022325177
433.0833333332681,0.016448058,-0.7754761,-0.010078878,-2.3682282,0.0017566271,1.5873145,0.7851323,0.039999936,0.03999998,-9.776709,0.08866070210933685,-0.035007745,-0.02636291,-0.0018324218690395355,0.02296715
433.09999999993477,0.017221982,-0.77504915,-0.010560073,-2.3687956,0.001835698,1.5880915,0.78509116,0.039999947,0.039999988,-9.7763605,0.09272348880767822,-0.036997497,-0.027115637,-0.0014575336826965213,0.023616802
433.1166666666014,0.018018,-0.7746099,-0.011055014,-2.369379,0.0019170236,1.5888909,0.7850487,0.039999943,0.039999995,-9.775982,0.09682416915893555,-0.03907542,-0.02787271,-0.0010766671039164066,0.02426388
433.13333333326807,0.018836267,-0.77415854,-0.011563792,-2.3699784,0.0020006238,1.5897126,0.7850051,0.03999994,0.039999984,-9.775659,0.10110069811344147,-0.041245297,-0.028632982,-0.0006913823308423162,0.02491889
433.1499999999347,0.019676918,-0.77369475,-0.012086494,-2.370594,0.0020865104,1.5905571,0.78496027,0.03999994,0.04,-9.77528,0.10543400049209595,-0.04346865,-0.029396681,-0.00030012099887244403,0.025570868
433.1666666666014,0.020540083,-0.77321863,-0.01262321,-2.3712268,0.002174698,1.5914242,0.78491426,0.03999994,0.039999995,-9.774943,0.10992933064699173,-0.045772843,-0.030163202,9.639681957196444e-05,0.026229182
433.183333333268,0.021425897,-0.77272993,-0.013174014,-2.3718762,0.0022652,1.5923141,0.784867,0.039999936,0.039999995,-9.774716,0.11450567841529846,-0.04813499,-0.030932417,0.0004943391541019082,0.026887331
433.1999999999347,0.022334475,-0.77222884,-0.013738985,-2.3725417,0.002358029,1.5932268,0.7848186,0.03999994,0.04,-9.77444,0.11920524388551712,-0.050578482,-0.031703815,0.0008946323650889099,0.027546832
433.2166666666013,0.023265926,-0.7717152,-0.01431819,-2.3732243,0.0024531987,1.5941623,0.78476894,0.03999994,0.04,-9.774114,0.12400806695222855,-0.053116105,-0.032477703,0.0013017993187531829,0.028207377
433.233333333268,0.024220359,-0.7711888,-0.014911692,-2.373924,0.0025507128,1.5951211,0.784718,0.03999994,0.04,-9.773786,0.1289501190185547,-0.05565348,-0.03325299,0.0017107935855165124,0.02886854
433.24999999993463,0.025197867,-0.7706498,-0.015519551,-2.3746397,0.0026505913,1.5961027,0.784666,0.039999936,0.04,-9.773565,0.13399352133274078,-0.058335595,-0.034029376,0.002121417550370097,0.029530952
433.2666666666013,0.026198544,-0.770098,-0.016141828,-2.3753722,0.0027528375,1.5971079,0.7846127,0.039999936,0.04,-9.773155,0.13915392756462097,-0.061042346,-0.034807578,0.002538492903113365,0.030193489
433.28333333326793,0.027222468,-0.76953334,-0.016778572,-2.376122,0.002857461,1.5981365,0.78455806,0.03999994,0.04,-9.772856,0.14442874491214752,-0.06386483,-0.03558654,0.0029603487346321344,0.03085577
433.2999999999346,0.02826971,-0.76895577,-0.017429827,-2.3768892,0.0029644854,1.5991884,0.7845023,0.039999932,0.04,-9.772597,0.1498149037361145,-0.0667339,-0.03636487,0.003385198535397649,0.031517502
433.31666666660124,0.029340347,-0.7683654,-0.018095633,-2.3776736,0.003073888,1.6002637,0.7844453,0.039999932,0.04,-9.772389,0.15531368553638458,-0.06969515,-0.03714448,0.0038103547412902117,0.032177523
433.3333333332679,0.030434428,-0.76776206,-0.018776031,-2.3784752,0.003185687,1.6013626,0.7843869,0.039999936,0.04,-9.772194,0.16092419624328613,-0.072744675,-0.03792337,0.004237459972500801,0.03283739
433.34999999993454,0.03155201,-0.7671458,-0.01947106,-2.379294,0.003299892,1.6024852,0.7843274,0.039999936,0.04,-9.771832,0.1666727364063263,-0.075825445,-0.038701054,0.004668741021305323,0.033495855
433.3666666666012,0.032693136,-0.76651645,-0.020180734,-2.3801296,0.003416503,1.6036316,0.7842665,0.039999943,0.04,-9.771579,0.17252309620380402,-0.079006195,-0.03947917,0.0051028612069785595,0.034152593
433.38333333326784,0.033857852,-0.76587415,-0.020905094,-2.380983,0.0035355373,1.6048015,0.7842044,0.039999943,0.04,-9.771289,0.17848199605941772,-0.08227805,-0.040254895,0.005541258025914431,0.034807384
433.3999999999345,0.03504618,-0.76521873,-0.021644147,-2.381854,0.0036569843,1.6059952,0.7841412,0.039999936,0.04,-9.771089,0.18455787003040314,-0.085589565,-0.041029975,0.005979194305837154,0.035458963
433.41666666660115,0.036258142,-0.76455057,-0.02239792,-2.382742,0.0037808374,1.6072125,0.7840765,0.039999943,0.04,-9.770874,0.19074973464012146,-0.089008406,-0.041803826,0.006418303586542606,0.036108952
433.4333333332678,0.03749378,-0.7638694,-0.023166418,-2.3836467,0.0039071166,1.6084538,0.78401065,0.039999943,0.04,-9.770515,0.19705551862716675,-0.09246974,-0.042574506,0.006863384507596493,0.036756177
433.44999999993445,0.038753092,-0.76317525,-0.023949651,-2.384569,0.004035815,1.6097188,0.7839436,0.039999943,0.04,-9.770237,0.2034739851951599,-0.096024916,-0.04334358,0.007312155794352293,0.03740024
433.4666666666011,0.040036086,-0.762468,-0.024747614,-2.3855085,0.0041669356,1.6110076,0.78387517,0.039999943,0.04,-9.770016,0.20998874306678772,-0.099684894,-0.04410997,0.0077646649442613125,0.03804088
433.48333333326775,0.041342746,-0.76174754,-0.025560312,-2.3864653,0.0043004695,1.6123202,0.7838055,0.039999947,0.04,-9.769729,0.2166447788476944,-0.10335638,-0.044872973,0.008217688649892807,0.0386772
433.4999999999344,0.04267307,-0.761014,-0.02638774,-2.3874395,0.004436431,1.6136564,0.78373456,0.039999947,0.04,-9.769441,0.22340527176856995,-0.10715404,-0.045633078,0.008674001321196556,0.039310366
433.51666666660105,0.044027038,-0.7602673,-0.027229888,-2.3884313,0.004574819,1.6150166,0.78366244,0.03999994,0.04,-9.769207,0.23026983439922333,-0.11101037,-0.046389848,0.009130788035690784,0.03993938
433.5333333332677,0.045404647,-0.75950766,-0.028086744,-2.3894405,0.0047156173,1.6164005,0.78358895,0.039999943,0.04,-9.769021,0.23724961280822754,-0.11494954,-0.04714301,0.009587779641151428,0.040563982
433.54999999993436,0.046805847,-0.75873506,-0.02895829,-2.3904667,0.0048588254,1.6178081,0.78351414,0.03999994,0.04,-9.768721,0.24433530867099762,-0.11896055,-0.04789161,0.010047730058431625,0.041183826
433.566666666601,0.048230633,-0.75794935,-0.029844511,-2.39151,0.0050044325,1.6192392,0.78343827,0.039999943,0.04,-9.768454,0.25152888894081116,-0.12304841,-0.048635878,0.010509961284697056,0.041798063
433.58333333326766,0.04967893,-0.75715065,-0.03074537,-2.3925707,0.005152455,1.6206949,0.783361,0.039999943,0.04,-9.7682495,0.2588233947753906,-0.12724434,-0.04937651,0.010973543860018253,0.042407807
433.5999999999343,0.05115071,-0.756339,-0.031660836,-2.3936493,0.005302884,1.622174,0.78328246,0.039999943,0.04,-9.767897,0.2662510275840759,-0.13147652,-0.050111733,0.011443203315138817,0.043012254
433.61666666660096,0.052645903,-0.7555146,-0.032590892,-2.394744,0.0054557063,1.6236763,0.7832029,0.039999943,0.04,-9.767734,0.2737724781036377,-0.13578235,-0.05084177,0.011909835040569305,0.043610957
433.6333333332676,0.05416447,-0.75467736,-0.033535495,-2.3958561,0.0056109168,1.6252017,0.78312194,0.039999954,0.04,-9.767325,0.2813915014266968,-0.14015184,-0.051567554,0.012381761334836483,0.044202004
433.64999999993427,0.05570633,-0.7538271,-0.034494597,-2.3969855,0.0057685096,1.6267508,0.7830397,0.03999997,0.04,-9.767109,0.28913137316703796,-0.14460854,-0.052287143,0.012851713225245476,0.04478853
433.6666666666009,0.05727142,-0.75296426,-0.035468172,-2.398132,0.0059285,1.6283233,0.78295636,0.03999997,0.04,-9.766846,0.2969616949558258,-0.14916353,-0.0530007,0.013323567807674408,0.045367837
433.68333333326757,0.05885967,-0.75208855,-0.036456157,-2.3992953,0.0060908487,1.6299186,0.7828716,0.039999977,0.04,-9.766573,0.30491238832473755,-0.15375967,-0.05370901,0.013796639628708363,0.045941345
433.6999999999342,0.06047099,-0.7511997,-0.037458517,-2.4004755,0.006255555,1.6315371,0.7827858,0.03999998,0.04,-9.766277,0.31294897198677063,-0.15845357,-0.05441031,0.014269258826971054,0.04650718
433.7166666666009,0.06210529,-0.75029874,-0.03847517,-2.4016726,0.0064226156,1.6331786,0.78269875,0.039999984,0.04,-9.766076,0.3210802376270294,-0.16327071,-0.055105723,0.014741615392267704,0.047066774
433.7333333332675,0.06376246,-0.749385,-0.03950607,-2.4028866,0.0065920213,1.6348432,0.78261036,0.039999984,0.04,-9.765716,0.3293396532535553,-0.1680582,-0.05579457,0.015215728431940079,0.04761909
433.7499999999342,0.06544245,-0.7484586,-0.040551163,-2.4041169,0.006763762,1.6365308,0.78252083,0.03999998,0.04,-9.76543,0.3376830518245697,-0.17299691,-0.05647614,0.01569046452641487,0.048163828
433.7666666666008,0.06714511,-0.7475198,-0.04161038,-2.4053636,0.0069378032,1.6382413,0.7824301,0.039999984,0.04,-9.765066,0.3461170196533203,-0.17799112,-0.057150453,0.016167528927326202,0.048700206
433.7833333332675,0.068870336,-0.7465687,-0.042683646,-2.4066274,0.007114147,1.6399745,0.782338,0.03999999,0.04,-9.764708,0.35466140508651733,-0.18306679,-0.057817746,0.016647987067699432,0.049229555
433.79999999993413,0.070617996,-0.745605,-0.04377089,-2.4079072,0.0072927834,1.64173,0.78224486,0.039999984,0.04,-9.764491,0.36329248547554016,-0.18817858,-0.058476597,0.0171256922185421,0.049749877
433.8166666666008,0.072388016,-0.74462897,-0.044872046,-2.4092038,0.007473707,1.643508,0.78215057,0.03999998,0.04,-9.764134,0.3720254898071289,-0.1933991,-0.05912856,0.01760401576757431,0.050262846
433.83333333326743,0.07418022,-0.7436406,-0.045987025,-2.410516,0.0076568867,1.6453083,0.782055,0.039999984,0.04,-9.763884,0.38082054257392883,-0.19871913,-0.05977237,0.01808195188641548,0.05076642
433.8499999999341,0.07599451,-0.74264014,-0.04711574,-2.4118447,0.0078423405,1.647131,0.78195834,0.039999984,0.04,-9.763445,0.389759361743927,-0.20406516,-0.060408276,0.018561778590083122,0.051263053
433.86666666660074,0.07783071,-0.74162793,-0.04825811,-2.4131901,0.008030028,1.6489757,0.7818605,0.039999984,0.04,-9.763122,0.3987474739551544,-0.20949677,-0.061035633,0.019041763618588448,0.05174922
433.8833333332674,0.07968872,-0.74060345,-0.04941405,-2.4145515,0.008219948,1.6508425,0.7817614,0.039999984,0.04,-9.762814,0.407839834690094,-0.21497187,-0.061654348,0.019520843401551247,0.0522271
433.89999999993404,0.081568345,-0.73956716,-0.050583467,-2.4159286,0.00841207,1.6527311,0.7816611,0.03999999,0.04,-9.762477,0.4170110523700714,-0.22056681,-0.06226458,0.019999289885163307,0.05269492
433.9166666666007,0.0834695,-0.73851895,-0.051766265,-2.417321,0.008606409,1.6546409,0.78155977,0.03999999,0.04,-9.762083,0.4262807071208954,-0.2262084,-0.06286506,0.020478134974837303,0.053155217
433.93333333326734,0.08539196,-0.7374589,-0.052962363,-2.418729,0.008802924,1.6565722,0.7814572,0.039999988,0.04,-9.7616415,0.4356144964694977,-0.23192298,-0.06345731,0.020958073437213898,0.05360405
433.949999999934,0.08733558,-0.73638725,-0.054171633,-2.4201524,0.0090016,1.6585249,0.78135353,0.039999984,0.04,-9.761291,0.4450536370277405,-0.2377252,-0.064039744,0.021436914801597595,0.054044098
433.96666666660064,0.08930021,-0.73530406,-0.05539399,-2.421591,0.00920243,1.6604985,0.78124887,0.03999999,0.04,-9.760906,0.4545433223247528,-0.2435933,-0.06461328,0.021916929632425308,0.054474346
433.9833333332673,0.091285676,-0.7342093,-0.056629326,-2.423045,0.009405381,1.6624931,0.78114295,0.03999999,0.04,-9.760453,0.4641432762145996,-0.24949515,-0.065177694,0.0223957858979702,0.05489371
433.99999999993395,0.0932918,-0.7331031,-0.057877526,-2.4245138,0.009610444,1.6645083,0.78103596,0.039999988,0.04,-9.760015,0.4738125503063202,-0.25549322,-0.06573163,0.022874386981129646,0.055302855
434.0166666666006,0.095318355,-0.73198575,-0.059138466,-2.4259977,0.009817597,1.6665444,0.7809279,0.03999999,0.04,-9.759565,0.4835585355758667,-0.26156402,-0.066276014,0.02335287258028984,0.055702697
434.03333333326725,0.097365215,-0.73085713,-0.06041204,-2.4274967,0.010026825,1.6686007,0.7808187,0.03999999,0.04,-9.759146,0.4933794140815735,-0.26768997,-0.06681029,0.023831328377127647,0.056092206
434.0499999999339,0.09943217,-0.7297175,-0.06169813,-2.4290104,0.010238119,1.6706773,0.7807086,0.039999988,0.04,-9.758728,0.503264307975769,-0.2738759,-0.067334436,0.024306539446115494,0.05647099
434.06666666660055,0.101519026,-0.7285669,-0.06299662,-2.4305387,0.010451423,1.6727738,0.7805973,0.039999984,0.04,-9.758278,0.5132166743278503,-0.28015098,-0.067849316,0.024781228974461555,0.056837346
434.0833333332672,0.1036256,-0.7274055,-0.06430736,-2.4320822,0.010666733,1.6748902,0.7804851,0.039999988,0.04,-9.757856,0.5232322216033936,-0.28648275,-0.06835287,0.025254899635910988,0.05719393
434.09999999993386,0.10575164,-0.7262333,-0.06563026,-2.4336393,0.010884054,1.6770263,0.7803718,0.039999988,0.04,-9.757414,0.5333592295646667,-0.29286343,-0.06884665,0.025723665952682495,0.05754138
434.1166666666005,0.10789699,-0.72505045,-0.06696518,-2.435211,0.011103329,1.6791817,0.78025746,0.039999988,0.04,-9.75685,0.5435027480125427,-0.29933995,-0.0693297,0.026194361969828606,0.057875037
434.13333333326716,0.110061385,-0.7238571,-0.068312,-2.4367974,0.011324563,1.6813561,0.78014207,0.039999984,0.04,-9.756387,0.5537389516830444,-0.3058741,-0.069801904,0.026661701500415802,0.05819941
434.1499999999338,0.112244636,-0.7226534,-0.06967052,-2.4383962,0.0115477275,1.6835494,0.78002554,0.03999998,0.04,-9.755985,0.5640336871147156,-0.31245086,-0.07026367,0.027122853323817253,0.05851239
434.16666666660046,0.11444652,-0.7214393,-0.07104066,-2.44001,0.011772787,1.6857616,0.77990824,0.03999998,0.04,-9.75528,0.5743706226348877,-0.31912705,-0.070713215,0.027588259428739548,0.058813423
434.1833333332671,0.1166668,-0.72021514,-0.072422296,-2.4416358,0.011999741,1.6879926,0.77978975,0.039999973,0.04,-9.75492,0.5847853422164917,-0.325852,-0.071153164,0.028045937418937683,0.059103828
434.19999999993377,0.11890529,-0.71898085,-0.07381524,-2.4432755,0.01222854,1.6902417,0.77967054,0.03999998,0.04,-9.754139,0.5952432751655579,-0.33265886,-0.07158119,0.028510363772511482,0.059381895
434.2166666666004,0.1211617,-0.7177367,-0.075219385,-2.4449286,0.012459185,1.6925087,0.7795502,0.03999998,0.04,-9.753709,0.605742871761322,-0.33950567,-0.07199877,0.02896924316883087,0.059649345
434.23333333326707,0.12343585,-0.71648294,-0.07663455,-2.4465942,0.012691656,1.6947935,0.7794289,0.039999973,0.04,-9.753129,0.6163398027420044,-0.34638882,-0.0724048,0.029423553496599197,0.059904903
434.2499999999337,0.12572746,-0.71521944,-0.078060605,-2.448273,0.012925897,1.697096,0.7793068,0.039999977,0.04,-9.752464,0.626945436000824,-0.35335982,-0.072799146,0.029877794906497,0.060148127
434.2666666666004,0.12803632,-0.7139465,-0.0794974,-2.4499643,0.013161889,1.6994158,0.7791837,0.03999998,0.04,-9.751869,0.6376121640205383,-0.36039227,-0.073182896,0.03032980114221573,0.060378503
434.283333333267,0.13036215,-0.7126642,-0.0809448,-2.4516683,0.01339962,1.7017529,0.7790597,0.039999977,0.04,-9.751267,0.6483341455459595,-0.3674738,-0.073554456,0.030778557062149048,0.06059808
434.2999999999337,0.13270473,-0.71137255,-0.08240262,-2.4533846,0.013639064,1.7041067,0.77893466,0.03999998,0.04,-9.750644,0.6591013669967651,-0.37462127,-0.07391497,0.031224170699715614,0.060806695
434.3166666666003,0.13506383,-0.710072,-0.08387071,-2.4551127,0.013880227,1.7064772,0.7788091,0.039999977,0.04,-9.750041,0.6699144840240479,-0.38182378,-0.074262954,0.031665436923503876,0.0610051
434.333333333267,0.13743906,-0.7087625,-0.085348904,-2.4568524,0.014123027,1.7088637,0.77868235,0.039999977,0.04,-9.749328,0.680713415145874,-0.38908648,-0.07460066,0.032107602804899216,0.061187815
434.34999999993363,0.13983034,-0.70744413,-0.08683705,-2.4586039,0.014367465,1.7112664,0.7785549,0.039999973,0.04,-9.7485895,0.6916310787200928,-0.39638743,-0.07492601,0.03254621848464012,0.061360423
434.3666666666003,0.1422373,-0.7061172,-0.08833499,-2.460367,0.014613504,1.7136849,0.77842647,0.03999997,0.04,-9.747908,0.7025399208068848,-0.4037691,-0.07523977,0.03298081457614899,0.061519977
434.38333333326693,0.14465967,-0.7047817,-0.08984255,-2.4621418,0.014861102,1.7161188,0.77829736,0.03999997,0.04,-9.747214,0.7134882807731628,-0.41117972,-0.07554093,0.033412255346775055,0.06166665
434.3999999999336,0.14709717,-0.7034379,-0.09135957,-2.4639268,0.015110261,1.718568,0.77816737,0.039999966,0.04,-9.746543,0.7244911193847656,-0.41865316,-0.0758315,0.03383796289563179,0.061803088
434.41666666660024,0.14954953,-0.7020858,-0.09288583,-2.4657235,0.01536091,1.7210321,0.77803665,0.039999954,0.04,-9.745693,0.7354892492294312,-0.42618793,-0.076109685,0.03426387533545494,0.061923567
434.4333333332669,0.15201657,-0.70072573,-0.094421215,-2.4675307,0.0156130595,1.7235111,0.7779051,0.03999995,0.04,-9.745033,0.7465593814849854,-0.4337683,-0.07637685,0.03468242287635803,0.062036034
434.44999999993354,0.15449794,-0.69935787,-0.095965534,-2.4693484,0.015866686,1.7260045,0.7777727,0.039999947,0.04,-9.744249,0.7576248645782471,-0.44139653,-0.076631546,0.03509856387972832,0.06213623
434.4666666666002,0.15699333,-0.69798225,-0.09751864,-2.4711764,0.016121734,1.7285122,0.77763975,0.039999947,0.04,-9.743486,0.7686946988105774,-0.44907194,-0.076873794,0.03551163524389267,0.06222254
434.48333333326684,0.15950246,-0.696599,-0.09908031,-2.4730136,0.016378192,1.7310334,0.7775059,0.039999943,0.04,-9.742632,0.7798449993133545,-0.4568095,-0.077105395,0.03592150658369064,0.06229849
434.4999999999335,0.16202508,-0.69520825,-0.10065038,-2.4748619,0.016636036,1.7335682,0.77737147,0.03999994,0.04,-9.7417,0.7909801602363586,-0.46459806,-0.07732397,0.03633005917072296,0.062362425
434.51666666660014,0.16456087,-0.6938102,-0.10222868,-2.4767196,0.01689523,1.7361165,0.7772363,0.039999943,0.04,-9.741068,0.8021414875984192,-0.47240153,-0.07753204,0.036726873368024826,0.06241309
434.5333333332668,0.1671096,-0.6924051,-0.10381501,-2.4785864,0.017155766,1.7386777,0.7771004,0.03999994,0.04,-9.740137,0.8133266568183899,-0.4803051,-0.0777279,0.03712344914674759,0.06245372
434.54999999993345,0.16967094,-0.6909931,-0.10540919,-2.4804623,0.017417558,1.7412517,0.7769638,0.03999994,0.04,-9.7392645,0.8244881629943848,-0.4882109,-0.077911414,0.0375153012573719,0.062478587
434.5666666666001,0.17224453,-0.6895743,-0.10701107,-2.482348,0.017680619,1.743838,0.77682656,0.039999936,0.04,-9.738337,0.8357058167457581,-0.49618345,-0.07808315,0.037904515862464905,0.06249428
434.58333333326675,0.17483017,-0.6881489,-0.10862044,-2.4842422,0.017944908,1.7464364,0.7766887,0.03999993,0.04,-9.737599,0.8469029068946838,-0.5041719,-0.078243345,0.03828447684645653,0.062496945
434.5999999999334,0.17742746,-0.6867172,-0.11023709,-2.4861448,0.0182104,1.7490464,0.7765501,0.039999925,0.04,-9.736625,0.8581446409225464,-0.51222783,-0.07839166,0.03866009786725044,0.06248865
434.61666666660005,0.18003614,-0.68527913,-0.111860864,-2.4880555,0.01847702,1.751668,0.776411,0.039999925,0.04,-9.735664,0.8693469166755676,-0.5203118,-0.07852801,0.03903215378522873,0.06246464
434.6333333332667,0.18265593,-0.68383497,-0.11349155,-2.4899745,0.01874482,1.7543006,0.7762712,0.039999925,0.04,-9.734673,0.8806129097938538,-0.52845854,-0.07865286,0.03940024599432945,0.062435623
434.64999999993336,0.18528646,-0.6823847,-0.11512895,-2.4919016,0.019013708,1.7569441,0.776131,0.039999925,0.04,-9.733746,0.8918190002441406,-0.5366334,-0.07876565,0.03976207971572876,0.062389646
434.6666666666,0.18792745,-0.68092865,-0.11677288,-2.4938364,0.019283654,1.7595981,0.77599025,0.039999925,0.04,-9.732825,0.9030529856681824,-0.5448482,-0.07886751,0.040116120129823685,0.06233225
434.68333333326666,0.1905786,-0.679467,-0.118423164,-2.495778,0.019554676,1.7622623,0.77584875,0.03999993,0.04,-9.731803,0.9143130779266357,-0.5531151,-0.07895829,0.040465787053108215,0.06226812
434.6999999999333,0.19323957,-0.6780003,-0.12007958,-2.497727,0.01982671,1.7649364,0.7757068,0.03999993,0.04,-9.73076,0.9255223870277405,-0.5614032,-0.07903626,0.04081061854958534,0.062189166
434.71666666659996,0.19591005,-0.6765281,-0.12174192,-2.499683,0.020099709,1.7676203,0.77556443,0.03999992,0.04,-9.729712,0.9367173910140991,-0.5697108,-0.079103395,0.041152261197566986,0.062096827
434.7333333332666,0.19858974,-0.67505085,-0.12341001,-2.501646,0.02037366,1.7703133,0.7754215,0.039999917,0.04,-9.728701,0.947953462600708,-0.57808447,-0.07915907,0.04148636385798454,0.061994992
434.74999999993327,0.20127833,-0.67356884,-0.12508364,-2.5036156,0.020648494,1.7730154,0.7752781,0.039999913,0.04,-9.727681,0.9591450095176697,-0.5864715,-0.07920324,0.0418122373521328,0.061878867
434.7666666665999,0.20397544,-0.6720822,-0.12676266,-2.505592,0.020924192,1.7757261,0.7751343,0.039999917,0.04,-9.726606,0.9703444838523865,-0.5948901,-0.07923615,0.04213311895728111,0.06175349
434.78333333326657,0.20668079,-0.67059094,-0.1284468,-2.5075738,0.021200763,1.778445,0.77499,0.039999913,0.04,-9.725601,0.981544554233551,-0.60333526,-0.07925839,0.042444925755262375,0.061618853
434.7999999999332,0.20939407,-0.66909504,-0.13013582,-2.5095613,0.021478137,1.7811718,0.77484536,0.03999991,0.04,-9.724355,0.9926887154579163,-0.6118576,-0.07926914,0.04275541752576828,0.061471093
434.8166666665999,0.21211492,-0.66759515,-0.13182962,-2.511554,0.021756275,1.7839065,0.77470016,0.039999906,0.04,-9.723328,1.0038281679153442,-0.6203789,-0.079268664,0.04305499792098999,0.061312642
434.8333333332665,0.214843,-0.66609126,-0.13352789,-2.513553,0.022035155,1.7866483,0.77455467,0.03999991,0.04,-9.722101,1.0149458646774292,-0.62892854,-0.07925657,0.043353721499443054,0.06114437
434.8499999999332,0.21757796,-0.6645836,-0.13523051,-2.515556,0.022314753,1.789397,0.77440876,0.039999913,0.04,-9.721081,1.0260560512542725,-0.63749367,-0.07923428,0.04363955184817314,0.060964156
434.8666666665998,0.22031957,-0.6630724,-0.13693725,-2.517564,0.02259504,1.7921523,0.7742625,0.039999906,0.04,-9.719794,1.0371464490890503,-0.6461162,-0.07920084,0.04392237961292267,0.06077444
434.8833333332665,0.22306731,-0.66155773,-0.1386479,-2.5195775,0.022875967,1.7949141,0.7741161,0.0399999,0.04,-9.718616,1.0481939315795898,-0.6547354,-0.07915632,0.04419829323887825,0.060574103
434.89999999993313,0.22582108,-0.6600399,-0.14036225,-2.5215945,0.023157487,1.7976816,0.77396935,0.039999906,0.04,-9.71752,1.0592347383499146,-0.6633852,-0.07910271,0.04446513205766678,0.06036327
434.9166666665998,0.22858034,-0.6585189,-0.14208011,-2.523616,0.02343962,1.8004547,0.77382225,0.0399999,0.04,-9.716223,1.0702308416366577,-0.67206717,-0.07903793,0.04472605884075165,0.060143266
434.93333333326643,0.23134491,-0.6569949,-0.14380127,-2.5256414,0.023722272,1.8032334,0.77367455,0.0399999,0.04,-9.715038,1.0811996459960938,-0.68076646,-0.07896291,0.044978827238082886,0.059909925
434.9499999999331,0.2341144,-0.6554683,-0.1455255,-2.5276701,0.02400543,1.8060169,0.77352685,0.0399999,0.04,-9.713845,1.092143177986145,-0.6894956,-0.07887588,0.04522299766540527,0.05966863
434.96666666659974,0.23688838,-0.6539393,-0.14725263,-2.5297022,0.024289045,1.8088051,0.77337885,0.039999902,0.04,-9.712541,1.1030329465866089,-0.69822866,-0.078779526,0.04546242207288742,0.059416488
434.9833333332664,0.23966661,-0.65240777,-0.14898233,-2.531738,0.024573116,1.8115976,0.7732306,0.039999895,0.04,-9.711223,1.1139252185821533,-0.7069961,-0.07867323,0.04569588601589203,0.05915551
434.99999999993304,0.24244872,-0.65087414,-0.15071456,-2.533776,0.024857568,1.8143939,0.77308226,0.039999902,0.04,-9.710117,1.124752163887024,-0.7157643,-0.07855685,0.04591504484415054,0.058885228
435.0166666665997,0.24523439,-0.6493387,-0.15244894,-2.5358167,0.025142428,1.8171937,0.7729338,0.0399999,0.04,-9.708669,1.1355592012405396,-0.724582,-0.07843075,0.04613153263926506,0.05860719
435.03333333326634,0.24802329,-0.64780146,-0.15418535,-2.5378602,0.025427591,1.819997,0.77278507,0.0399999,0.04,-9.707346,1.146274209022522,-0.73337895,-0.07829511,0.04634082689881325,0.058314923
435.049999999933,0.250815,-0.6462626,-0.15592358,-2.5399055,0.025713058,1.8228031,0.7726362,0.039999887,0.04,-9.706126,1.1570056676864624,-0.74220204,-0.07814949,0.04653891921043396,0.058016445
435.06666666659964,0.25360918,-0.6447225,-0.15766336,-2.5419526,0.025998782,1.8256118,0.77248704,0.039999884,0.04,-9.704749,1.167672038078308,-0.7510528,-0.07799446,0.04673081263899803,0.057709273
435.0833333332663,0.2564056,-0.6431812,-0.15940452,-2.544001,0.02628472,1.8284228,0.77233785,0.03999989,0.04,-9.703363,1.1782863140106201,-0.75987226,-0.07782923,0.04691603034734726,0.05739333
435.09999999993295,0.25920385,-0.64163893,-0.16114686,-2.5460513,0.02657085,1.8312356,0.77218866,0.039999895,0.04,-9.701988,1.1888587474822998,-0.7687625,-0.077654794,0.047093573957681656,0.057068575
435.1166666665996,0.2620036,-0.6400958,-0.16289014,-2.5481024,0.026857158,1.8340499,0.77203935,0.039999895,0.04,-9.700634,1.199384331703186,-0.7776298,-0.0774717,0.04726209491491318,0.05673542
435.13333333326625,0.26480448,-0.6385521,-0.16463417,-2.550154,0.02714357,1.8368654,0.77188987,0.039999887,0.04,-9.699244,1.209850549697876,-0.786518,-0.07727938,0.0474226213991642,0.056392856
435.1499999999329,0.2676063,-0.63700783,-0.16637878,-2.5522065,0.027430056,1.8396817,0.77174044,0.03999989,0.04,-9.697759,1.220281720161438,-0.79539895,-0.07707739,0.04757729917764664,0.056043305
435.16666666659955,0.27040845,-0.6354633,-0.16812365,-2.5542595,0.027716627,1.8424985,0.771591,0.039999884,0.04,-9.696428,1.2306560277938843,-0.8043017,-0.07686665,0.047720808535814285,0.05568762
435.1833333332662,0.27321073,-0.6339187,-0.16986857,-2.5563126,0.028003184,1.8453155,0.7714416,0.039999884,0.04,-9.695025,1.2409517765045166,-0.81319535,-0.076648116,0.047855038195848465,0.055319037
435.19999999993286,0.27601275,-0.6323744,-0.17161334,-2.5583653,0.028289722,1.8481323,0.77129215,0.039999884,0.04,-9.6935835,1.2512227296829224,-0.82210237,-0.07642058,0.04798051342368126,0.054946195
435.2166666665995,0.27881426,-0.6308302,-0.17335784,-2.5604177,0.028576206,1.8509485,0.77114266,0.03999988,0.04,-9.692083,1.2614107131958008,-0.83098906,-0.076184504,0.048100125044584274,0.054566067
435.23333333326616,0.28161484,-0.62928665,-0.17510179,-2.5624692,0.028862616,1.8537636,0.7709932,0.039999876,0.04,-9.690667,1.2715715169906616,-0.839926,-0.07593975,0.04820924624800682,0.054179568
435.2499999999328,0.2844141,-0.62774384,-0.176845,-2.5645201,0.029148884,1.8565778,0.7708439,0.039999884,0.04,-9.689151,1.281635046005249,-0.8488279,-0.07568626,0.048310380429029465,0.053783815
435.26666666659946,0.28721178,-0.62620175,-0.17858718,-2.5665703,0.029435007,1.8593903,0.77069473,0.03999988,0.04,-9.687722,1.2916804552078247,-0.85772496,-0.07542623,0.04840182512998581,0.05338319
435.2833333332661,0.29000762,-0.62466085,-0.1803282,-2.5686183,0.029720942,1.862201,0.77054566,0.039999876,0.04,-9.686268,1.3016263246536255,-0.86664593,-0.075157866,0.04848351702094078,0.052974977
435.29999999993277,0.29280102,-0.6231212,-0.18206774,-2.5706646,0.030006623,1.8650092,0.7703966,0.039999884,0.04,-9.684688,1.3115065097808838,-0.8755572,-0.07488146,0.04855925217270851,0.0525593
435.3166666665994,0.2955918,-0.621583,-0.18380569,-2.572709,0.030292036,1.8678149,0.7702477,0.03999988,0.04,-9.683175,1.3213448524475098,-0.8844443,-0.07459673,0.04862549901008606,0.05213865
435.33333333326607,0.29837957,-0.62004656,-0.1855418,-2.5747516,0.030577162,1.8706175,0.7700988,0.039999876,0.04,-9.681652,1.331109881401062,-0.8933198,-0.07430513,0.04868278279900551,0.051711753
435.3499999999327,0.301164,-0.6185119,-0.18727586,-2.5767913,0.030861946,1.8734168,0.7699501,0.039999876,0.04,-9.6801405,1.340807318687439,-0.9022127,-0.074005336,0.04873044788837433,0.05127889
435.3666666665994,0.3039449,-0.6169794,-0.18900765,-2.578828,0.031146357,1.8762125,0.7698016,0.039999872,0.04,-9.678539,1.3504374027252197,-0.9111064,-0.07369875,0.0487712137401104,0.050840423
435.383333333266,0.3067217,-0.61544895,-0.19073695,-2.580863,0.031430364,1.8790041,0.7696536,0.03999988,0.04,-9.676977,1.3599823713302612,-0.9199658,-0.073384106,0.048804182559251785,0.050396536
435.3999999999327,0.3094941,-0.6139208,-0.19246362,-2.582894,0.03171394,1.8817915,0.76950586,0.03999988,0.04,-9.675564,1.3694857358932495,-0.9287999,-0.07306456,0.048822250217199326,0.049948297
435.4166666665993,0.31226188,-0.61239547,-0.1941874,-2.5849218,0.031997066,1.884574,0.76935834,0.03999988,0.04,-9.673945,1.378910779953003,-0.93766415,-0.07273835,0.04883340001106262,0.04949604
435.433333333266,0.31502464,-0.61087286,-0.19590808,-2.5869458,0.032279655,1.8873519,0.7692111,0.039999884,0.04,-9.672324,1.388231635093689,-0.94650906,-0.07240563,0.04883712902665138,0.04903422
435.44999999993263,0.3177821,-0.60935324,-0.19762544,-2.5889661,0.032561716,1.8901243,0.76906395,0.03999988,0.04,-9.670738,1.3975226879119873,-0.95532537,-0.072066076,0.04883234202861786,0.04857224
435.4666666665993,0.3205338,-0.6078366,-0.19933924,-2.590982,0.032843184,1.892891,0.7689171,0.039999876,0.04,-9.669177,1.4066966772079468,-0.9641021,-0.07171901,0.04881749302148819,0.048102584
435.48333333326593,0.32327944,-0.60632336,-0.20104939,-2.5929937,0.033124056,1.8956518,0.7687706,0.039999876,0.04,-9.66758,1.4158343076705933,-0.9729248,-0.07136553,0.048794083297252655,0.04763097
435.4999999999326,0.32601872,-0.6048137,-0.20275554,-2.5950003,0.03340428,1.8984063,0.76862454,0.03999988,0.04,-9.666017,1.4248857498168945,-0.9816906,-0.07100706,0.048760175704956055,0.04715382
435.51666666659924,0.3287512,-0.6033076,-0.20445755,-2.597002,0.03368381,1.9011539,0.7684788,0.039999876,0.04,-9.664308,1.4338444471359253,-0.9904631,-0.07064264,0.048720672726631165,0.04667291
435.5333333332659,0.33147678,-0.60180557,-0.20615518,-2.598999,0.03396263,1.9038944,0.76833344,0.039999872,0.04,-9.662718,1.442748785018921,-0.9992013,-0.07027314,0.04867107421159744,0.046188373
435.54999999993254,0.33419493,-0.6003075,-0.20784827,-2.60099,0.034240678,1.9066274,0.76818836,0.03999988,0.04,-9.661157,1.4515361785888672,-1.0078795,-0.06989656,0.04861025512218475,0.04569926
435.5666666665992,0.3369055,-0.59881365,-0.20953654,-2.602976,0.034517966,1.909353,0.76804376,0.039999884,0.04,-9.659462,1.4602904319763184,-1.0165938,-0.06951482,0.04854188859462738,0.045209114
435.58333333326584,0.339608,-0.59732425,-0.21121988,-2.6049564,0.03479443,1.9120705,0.7678995,0.039999887,0.04,-9.657862,1.4689273834228516,-1.0252343,-0.06912743,0.048463620245456696,0.044714905
435.5999999999325,0.34230217,-0.59583944,-0.21289808,-2.6069305,0.035070084,1.9147795,0.76775587,0.039999884,0.04,-9.656291,1.4775161743164062,-1.0338913,-0.06873462,0.04837433248758316,0.04422103
435.61666666659914,0.34498766,-0.59435934,-0.21457088,-2.6088982,0.035344828,1.9174799,0.76761246,0.03999988,0.04,-9.654645,1.485988736152649,-1.0425195,-0.068337746,0.04827596992254257,0.04371867
435.6333333332658,0.3476642,-0.59288424,-0.21623813,-2.6108592,0.03561865,1.9201714,0.7674696,0.039999876,0.04,-9.652993,1.4944056272506714,-1.051125,-0.06793485,0.04816862940788269,0.043216303
435.64999999993245,0.3503314,-0.5914142,-0.21789958,-2.6128135,0.03589154,1.9228536,0.76732725,0.039999872,0.04,-9.651326,1.5027364492416382,-1.0596999,-0.067527026,0.04805373400449753,0.042712666
435.6666666665991,0.35298893,-0.58994967,-0.21955505,-2.6147604,0.036163438,1.9255261,0.76718545,0.039999876,0.04,-9.649714,1.5109772682189941,-1.0682281,-0.06711512,0.04792826622724533,0.042206097
435.68333333326575,0.3556366,-0.5884906,-0.22120433,-2.6167002,0.03643433,1.9281888,0.76704425,0.039999876,0.04,-9.6479645,1.5191361904144287,-1.0767562,-0.06669846,0.04779767990112305,0.041698474
435.6999999999324,0.3582739,-0.5870371,-0.22284728,-2.6186326,0.036704168,1.9308408,0.7669035,0.039999876,0.04,-9.646353,1.5271964073181152,-1.0852156,-0.06627743,0.047656361013650894,0.041187096
435.71666666659905,0.36090073,-0.5855894,-0.22448365,-2.6205573,0.036972925,1.9334825,0.76676327,0.03999988,0.04,-9.644674,1.535218596458435,-1.0936404,-0.06585261,0.04750463739037514,0.04067525
435.7333333332657,0.3635167,-0.58414793,-0.22611326,-2.6224737,0.037240587,1.9361132,0.7666238,0.039999876,0.04,-9.6430645,1.5431121587753296,-1.1020753,-0.065422535,0.04734421893954277,0.04016336
435.74999999993236,0.3661214,-0.58271235,-0.22773592,-2.6243825,0.037507113,1.9387326,0.7664848,0.03999988,0.04,-9.641335,1.5509324073791504,-1.1104593,-0.064988956,0.047177135944366455,0.039650235
435.766666666599,0.36871466,-0.58128315,-0.22935142,-2.626283,0.037772477,1.9413404,0.76634645,0.039999884,0.04,-9.639775,1.558681845664978,-1.1187997,-0.06455186,0.046996764838695526,0.03913735
435.78333333326566,0.37129608,-0.5798606,-0.23095961,-2.6281745,0.038036656,1.9439366,0.7662087,0.039999884,0.04,-9.638099,1.5663204193115234,-1.1271039,-0.064110726,0.046808239072561264,0.038622614
435.7999999999323,0.3738653,-0.57844466,-0.23256026,-2.6300576,0.038299613,1.9465206,0.7660716,0.03999989,0.04,-9.636407,1.573901891708374,-1.1353801,-0.06366605,0.04661207273602486,0.0381094
435.81666666659896,0.37642217,-0.57703555,-0.23415326,-2.6319313,0.038561307,1.9490921,0.76593506,0.03999989,0.04,-9.634762,1.5813755989074707,-1.1436197,-0.06321811,0.046406522393226624,0.03759242
435.8333333332656,0.37896636,-0.57563347,-0.23573835,-2.6337957,0.03882171,1.951651,0.7657993,0.03999989,0.04,-9.633044,1.5887830257415771,-1.1517978,-0.06276669,0.046193111687898636,0.037075143
435.84999999993227,0.3814976,-0.5742385,-0.23731536,-2.6356506,0.039080758,1.9541966,0.7656641,0.03999989,0.04,-9.631436,1.5960733890533447,-1.15997,-0.062311828,0.04597000777721405,0.036557965
435.8666666665989,0.38401544,-0.5728509,-0.23888408,-2.637496,0.039338462,1.956729,0.76552963,0.03999989,0.04,-9.62974,1.6032952070236206,-1.1680942,-0.06185328,0.04573862627148628,0.036042303
435.88333333326557,0.38651967,-0.5714706,-0.24044442,-2.639331,0.03959477,1.959248,0.765396,0.03999989,0.04,-9.628119,1.6104284524917603,-1.1761581,-0.061392363,0.04549846053123474,0.03552463
435.8999999999322,0.38901013,-0.57009816,-0.24199611,-2.6411562,0.039849676,1.9617527,0.76526314,0.03999989,0.04,-9.626398,1.6175061464309692,-1.1842109,-0.060929153,0.04525122046470642,0.035012074
435.91666666659887,0.39148647,-0.5687335,-0.243539,-2.6429713,0.04010314,1.9642433,0.7651309,0.03999989,0.04,-9.624776,1.6244417428970337,-1.1921763,-0.060462758,0.04499362036585808,0.03449787
435.9333333332655,0.39394832,-0.56737673,-0.24507296,-2.6447752,0.040355116,1.9667193,0.76499957,0.03999989,0.04,-9.623103,1.631304383277893,-1.2001213,-0.059993137,0.04472850635647774,0.0339822
435.9499999999322,0.39639547,-0.566028,-0.24659777,-2.6465688,0.04060557,1.9691806,0.76486886,0.03999989,0.04,-9.621411,1.638096570968628,-1.2080367,-0.05952202,0.044455114752054214,0.033467673
435.9666666665988,0.39882752,-0.56468755,-0.24811326,-2.6483505,0.040854476,1.9716269,0.76473904,0.03999989,0.04,-9.619783,1.6448081731796265,-1.2158465,-0.059047874,0.04417180269956589,0.032954436
435.9833333332655,0.4012443,-0.5633556,-0.24961923,-2.650122,0.041101847,1.9740579,0.7646101,0.039999895,0.04,-9.618026,1.6514252424240112,-1.2237105,-0.058571905,0.04388519003987312,0.03244621
435.99999999993213,0.40364563,-0.56203204,-0.25111556,-2.6518812,0.04134764,1.9764737,0.76448196,0.0399999,0.04,-9.616476,1.6579475402832031,-1.2314249,-0.05809436,0.04358794540166855,0.03193805
436.0166666665988,0.4060312,-0.56071746,-0.25260216,-2.65363,0.041591838,1.9788735,0.76435477,0.039999895,0.04,-9.614777,1.6643881797790527,-1.2391611,-0.05761425,0.0432848297059536,0.031432968
436.03333333326543,0.4084007,-0.5594116,-0.25407866,-2.6553662,0.041834403,1.981257,0.7642282,0.039999902,0.04,-9.613221,1.6707390546798706,-1.2467663,-0.057132907,0.04297132045030594,0.030929143
436.0499999999321,0.41075388,-0.5581147,-0.255545,-2.6570904,0.042075314,1.9836242,0.7641027,0.03999991,0.04,-9.611477,1.676987886428833,-1.2544087,-0.05664817,0.04265225678682327,0.030426627
436.06666666659873,0.41309053,-0.55682695,-0.25700104,-2.658803,0.04231455,1.9859747,0.76397794,0.039999902,0.04,-9.609841,1.683164119720459,-1.2619549,-0.056162495,0.04232599213719368,0.029926162
436.0833333332654,0.41541022,-0.5555484,-0.25844666,-2.6605031,0.04255205,1.9883083,0.7638541,0.039999906,0.04,-9.608223,1.689265489578247,-1.2693992,-0.055674613,0.041989926248788834,0.029426709
436.09999999993204,0.41771293,-0.5542794,-0.25988168,-2.6621904,0.042787783,1.9906249,0.76373124,0.039999906,0.04,-9.60664,1.6952753067016602,-1.2768656,-0.05518627,0.041645944118499756,0.028929632
436.1166666665987,0.4199982,-0.5530199,-0.26130596,-2.6638656,0.04302174,1.992924,0.7636092,0.039999906,0.04,-9.604953,1.701184868812561,-1.2842836,-0.054696202,0.041297994554042816,0.028435128
436.13333333326534,0.4222659,-0.5517703,-0.26271924,-2.6655276,0.043253876,1.9952056,0.7634882,0.03999991,0.04,-9.603386,1.7070366144180298,-1.2915816,-0.054204818,0.04093996435403824,0.027943132
436.149999999932,0.42451584,-0.55053043,-0.26412147,-2.667177,0.043484207,1.9974691,0.76336795,0.03999991,0.04,-9.601738,1.712780237197876,-1.2988552,-0.053712584,0.04057732969522476,0.027455242
436.16666666659864,0.4267478,-0.5493003,-0.2655125,-2.6688123,0.043712717,1.9997145,0.7632489,0.039999902,0.04,-9.600187,1.7184423208236694,-1.3060564,-0.05321827,0.04020370915532112,0.026968906
436.1833333332653,0.42896146,-0.5480802,-0.26689216,-2.6704342,0.043939337,2.001942,0.76313066,0.039999902,0.04,-9.5985,1.724015474319458,-1.3132616,-0.05272412,0.03982706367969513,0.026485918
436.19999999993195,0.43115655,-0.5468705,-0.26826036,-2.672044,0.044164073,2.00415,0.76301354,0.0399999,0.04,-9.596909,1.729522705078125,-1.3203567,-0.05222802,0.03944367542862892,0.026007304
436.2166666665986,0.43333295,-0.5456709,-0.26961684,-2.6736393,0.044386886,2.0063398,0.76289725,0.039999906,0.04,-9.595433,1.7349505424499512,-1.3272941,-0.05173247,0.03904486447572708,0.025530312
436.23333333326525,0.43549037,-0.54448193,-0.27096164,-2.6752207,0.044607773,2.00851,0.7627821,0.039999902,0.04,-9.593798,1.7402557134628296,-1.334372,-0.051234987,0.03864595666527748,0.025057146
436.2499999999319,0.4376286,-0.54330343,-0.27229443,-2.676788,0.044826716,2.010662,0.7626678,0.039999895,0.04,-9.592208,1.7455201148986816,-1.3412758,-0.05073794,0.038238923996686935,0.024588332
436.26666666659855,0.43974754,-0.5421355,-0.27361518,-2.6783404,0.045043632,2.012794,0.76255476,0.039999895,0.04,-9.590644,1.7506706714630127,-1.3481437,-0.05023945,0.03782866150140762,0.024121033
436.2833333332652,0.44184688,-0.5409783,-0.2749237,-2.6798792,0.045258544,2.0149066,0.7624425,0.03999989,0.04,-9.588993,1.7557486295700073,-1.3549683,-0.049741447,0.037412386387586594,0.02365997
436.29999999993186,0.44392645,-0.5398322,-0.27621996,-2.6814036,0.045471434,2.0169992,0.7623316,0.039999887,0.04,-9.587518,1.760750412940979,-1.3616817,-0.049241785,0.03698913753032684,0.023202924
436.3166666665985,0.44598594,-0.53869694,-0.27750382,-2.682913,0.045682285,2.019072,0.76222163,0.03999989,0.04,-9.58599,1.7656723260879517,-1.3683243,-0.048742954,0.03655792400240898,0.022750678
436.33333333326516,0.44802535,-0.5375729,-0.2787751,-2.6844077,0.045891106,2.0211241,0.7621128,0.039999887,0.04,-9.584323,1.770534873008728,-1.3749459,-0.048244115,0.0361245721578598,0.022302272
436.3499999999318,0.45004433,-0.53646016,-0.28003374,-2.685887,0.046097826,2.0231555,0.762005,0.039999887,0.04,-9.5828905,1.775249719619751,-1.381476,-0.04774503,0.03568248450756073,0.02185427
436.36666666659846,0.4520428,-0.5353587,-0.28127953,-2.6873517,0.046302456,2.0251665,0.7618982,0.03999989,0.04,-9.581294,1.7799409627914429,-1.3879651,-0.04724554,0.03523639589548111,0.02141268
436.3833333332651,0.45402056,-0.5342687,-0.28251243,-2.6888013,0.046504967,2.0271568,0.7617926,0.039999895,0.04,-9.57981,1.7845313549041748,-1.3943653,-0.046746228,0.03478417918086052,0.0209743
436.39999999993177,0.45597744,-0.5331902,-0.2837324,-2.6902359,0.04670535,2.0291257,0.7616881,0.03999989,0.04,-9.578336,1.789050579071045,-1.4007015,-0.04624674,0.03432698920369148,0.020541295
436.4166666665984,0.45791325,-0.5321232,-0.2849392,-2.6916547,0.046903588,2.0310738,0.76158476,0.03999989,0.04,-9.576857,1.7934976816177368,-1.4069537,-0.045747917,0.03386203944683075,0.0201124
436.43333333326507,0.4598278,-0.531068,-0.28613287,-2.6930583,0.04709962,2.0330002,0.76148266,0.03999989,0.04,-9.575353,1.7978489398956299,-1.413176,-0.045249484,0.0333932526409626,0.019685797
436.4499999999317,0.4617209,-0.5300246,-0.28731316,-2.6944466,0.04729346,2.0349054,0.76138145,0.03999989,0.04,-9.573897,1.8021575212478638,-1.4193017,-0.04475217,0.03291722759604454,0.019265626
436.46666666659837,0.4635926,-0.528993,-0.28848,-2.695819,0.047485128,2.0367887,0.76128143,0.03999989,0.04,-9.572446,1.8063771724700928,-1.4253364,-0.044254366,0.03243475779891014,0.018850341
436.483333333265,0.4654424,-0.52797353,-0.2896333,-2.6971745,0.047674574,2.03865,0.7611828,0.03999989,0.04,-9.571002,1.8104826211929321,-1.4313738,-0.04375646,0.031948477029800415,0.018438397
436.4999999999317,0.4672703,-0.52696604,-0.2907731,-2.6985145,0.047861796,2.04049,0.7610851,0.03999989,0.04,-9.569448,1.814557671546936,-1.4373345,-0.043260805,0.03146037459373474,0.018033292
436.5166666665983,0.46907628,-0.5259706,-0.29189914,-2.6998382,0.048046745,2.0423076,0.7609887,0.039999887,0.04,-9.568019,1.8185418844223022,-1.4432082,-0.042765044,0.03096967563033104,0.017629273
436.533333333265,0.47086006,-0.52498734,-0.29301137,-2.7011461,0.048229396,2.0441027,0.7608935,0.0399999,0.04,-9.566588,1.8224505186080933,-1.448996,-0.04227059,0.030474405735731125,0.017230233
436.54999999993163,0.47262168,-0.52401656,-0.2941098,-2.702438,0.0484098,2.0458755,0.7607994,0.039999902,0.04,-9.565254,1.8263039588928223,-1.4546695,-0.041777134,0.029969923198223114,0.016838236
436.5666666665983,0.47436076,-0.5230581,-0.29519427,-2.7037125,0.04858793,2.0476258,0.7607066,0.039999906,0.04,-9.563828,1.830058217048645,-1.4603273,-0.041283693,0.02946322411298752,0.016450876
436.58333333326493,0.47607732,-0.52211195,-0.29626465,-2.704971,0.048763767,2.0493536,0.7606149,0.039999906,0.04,-9.562251,1.8337846994400024,-1.465934,-0.040792245,0.028956077992916107,0.016069373
436.5999999999316,0.47777128,-0.52117825,-0.29732093,-2.7062128,0.04893726,2.051059,0.7605243,0.03999991,0.04,-9.560999,1.8373751640319824,-1.4714242,-0.040301085,0.028443431481719017,0.015689421
436.61666666659823,0.4794425,-0.5202571,-0.29836318,-2.7074382,0.049108483,2.0527418,0.7604351,0.039999906,0.04,-9.559546,1.840943694114685,-1.476887,-0.039810397,0.027930742129683495,0.01531922
436.6333333332649,0.4810909,-0.51934856,-0.29939112,-2.7086463,0.049277358,2.0544014,0.76034695,0.039999906,0.04,-9.55826,1.8444290161132812,-1.4822077,-0.03932285,0.027412183582782745,0.014949809
436.64999999993154,0.4827163,-0.5184525,-0.30040482,-2.7098377,0.04944383,2.0560374,0.76026005,0.03999991,0.04,-9.556815,1.8478211164474487,-1.4875233,-0.03883479,0.026893094182014465,0.014583388
436.6666666665982,0.48431867,-0.5175694,-0.30140415,-2.7110126,0.049607996,2.0576506,0.76017463,0.039999906,0.04,-9.555497,1.8511998653411865,-1.4927166,-0.03834853,0.026367779821157455,0.014227764
436.68333333326484,0.48589793,-0.5166988,-0.30238912,-2.7121706,0.04976976,2.0592406,0.7600901,0.03999991,0.04,-9.554181,1.854464054107666,-1.4978358,-0.037864804,0.025840306654572487,0.013872069
436.6999999999315,0.48745397,-0.51584136,-0.30335954,-2.7133112,0.04992914,2.0608075,0.760007,0.03999991,0.04,-9.5529,1.8576887845993042,-1.5028875,-0.037381303,0.02530764788389206,0.013521584
436.71666666659814,0.48898673,-0.51499635,-0.30431548,-2.7144349,0.050086167,2.0623507,0.7599253,0.039999906,0.04,-9.551365,1.8608431816101074,-1.5079081,-0.036899496,0.02478000521659851,0.01317944
436.7333333332648,0.49049613,-0.51416457,-0.3052569,-2.715542,0.050240792,2.063871,0.75984454,0.039999906,0.04,-9.550228,1.8639062643051147,-1.5128081,-0.036420155,0.024244088679552078,0.012840275
436.74999999993145,0.4919819,-0.5133455,-0.30618376,-2.716631,0.05039301,2.065368,0.7597652,0.03999991,0.04,-9.548992,1.8669288158416748,-1.5176041,-0.03594099,0.023705918341875076,0.012505587
436.7666666665981,0.49344444,-0.5125392,-0.30709592,-2.7177033,0.050542835,2.0668416,0.7596872,0.039999913,0.04,-9.54754,1.8699116706848145,-1.5224525,-0.035465676,0.023173701018095016,0.012177239
436.78333333326475,0.49488336,-0.5117461,-0.30799347,-2.718759,0.050690275,2.0682898,0.7596101,0.039999913,0.04,-9.546344,1.8727712631225586,-1.5271131,-0.03499084,0.02263682149350643,0.011854246
436.7999999999314,0.49629867,-0.510966,-0.30887634,-2.7197962,0.05083529,2.0697145,0.75953454,0.039999917,0.04,-9.545236,1.8756191730499268,-1.5316097,-0.034517262,0.022085370495915413,0.011535348
436.81666666659805,0.49769038,-0.51019907,-0.3097445,-2.7208166,0.05097789,2.071116,0.7594604,0.039999925,0.04,-9.543764,1.8783694505691528,-1.5362612,-0.03404616,0.021542606875300407,0.011220476
436.8333333332647,0.49905846,-0.5094449,-0.31059796,-2.72182,0.05111809,2.0724936,0.7593871,0.039999925,0.04,-9.542508,1.881110668182373,-1.5406889,-0.033578478,0.0209975428879261,0.010912522
436.84999999993136,0.5004029,-0.50870365,-0.31143662,-2.7228055,0.051255856,2.073847,0.75931525,0.03999993,0.04,-9.541417,1.8837350606918335,-1.5450641,-0.03311039,0.020447226241230965,0.010607329
436.866666666598,0.5017235,-0.50797564,-0.31226063,-2.723774,0.05139121,2.0751767,0.75924474,0.03999993,0.04,-9.540142,1.8863192796707153,-1.5494007,-0.03264544,0.019897326827049255,0.010308579
436.88333333326466,0.50302047,-0.5072606,-0.3130699,-2.7247255,0.05152412,2.0764825,0.75917536,0.039999932,0.04,-9.538959,1.8888672590255737,-1.5536218,-0.032183807,0.01934618130326271,0.010012642
436.8999999999313,0.5042936,-0.5065589,-0.31386417,-2.7256591,0.051654644,2.077765,0.7591073,0.03999993,0.04,-9.53782,1.8913623094558716,-1.5577693,-0.031724237,0.01879153400659561,0.00972515
436.91666666659796,0.5055431,-0.5058702,-0.31464377,-2.7265754,0.051782746,2.0790234,0.7590406,0.03999993,0.04,-9.536529,1.893739938735962,-1.5619007,-0.031265814,0.01824279874563217,0.009439227
436.9333333332646,0.506769,-0.5051945,-0.31540862,-2.7274747,0.051908415,2.080258,0.75897497,0.03999993,0.04,-9.535368,1.896108627319336,-1.5658981,-0.030810343,0.017691345885396004,0.0091590155
436.94999999993126,0.507971,-0.50453186,-0.31615874,-2.7283561,0.05203161,2.081468,0.75891083,0.039999932,0.04,-9.53426,1.8984014987945557,-1.569815,-0.030356662,0.017137346789240837,0.008881275
436.9666666665979,0.5091494,-0.5038822,-0.316894,-2.72922,0.052152384,2.0826547,0.75884783,0.03999994,0.04,-9.532989,1.9006925821304321,-1.5736853,-0.029907124,0.01658366248011589,0.008609276
436.98333333326457,0.5103041,-0.50324565,-0.31761461,-2.7300663,0.05227074,2.083818,0.75878596,0.039999943,0.04,-9.5318575,1.9028549194335938,-1.5775067,-0.029458592,0.016032645478844643,0.008342389
436.9999999999312,0.51143515,-0.502622,-0.3183204,-2.7308955,0.052386716,2.0849571,0.75872564,0.039999943,0.04,-9.530714,1.905021071434021,-1.5812213,-0.029012503,0.015483521856367588,0.008082928
437.01666666659787,0.5125427,-0.50201136,-0.3190116,-2.731708,0.05250025,2.0860722,0.75866646,0.039999947,0.04,-9.529622,1.9070855379104614,-1.5848416,-0.028570471,0.014932969585061073,0.0078244535
437.0333333332645,0.5136268,-0.5014137,-0.31968814,-2.7325032,0.05261137,2.087164,0.7586084,0.03999995,0.04,-9.528599,1.9091403484344482,-1.5883628,-0.028130816,0.014378326013684273,0.0075722164
437.0499999999312,0.5146872,-0.5008289,-0.32035002,-2.733281,0.052720126,2.0882323,0.7585518,0.039999947,0.04,-9.527451,1.9111230373382568,-1.5918728,-0.027693052,0.013826670125126839,0.007325237
437.0666666665978,0.5157242,-0.50025725,-0.32099727,-2.7340415,0.05282647,2.089277,0.75849634,0.03999995,0.04,-9.52633,1.9130748510360718,-1.5953074,-0.027259896,0.013278149999678135,0.007080756
437.0833333332645,0.51673794,-0.49969846,-0.32163,-2.7347846,0.0529304,2.0902987,0.7584421,0.03999995,0.04,-9.525174,1.9149689674377441,-1.5986279,-0.026829025,0.012731460854411125,0.006839925
437.09999999993113,0.51772827,-0.49915242,-0.32224822,-2.7355113,0.053031966,2.0912967,0.7583893,0.03999995,0.04,-9.5241,1.9167885780334473,-1.6019261,-0.026400195,0.012189534492790699,0.0066062743
437.1166666665978,0.51869553,-0.49861917,-0.32285202,-2.7362216,0.05313113,2.0922716,0.7583375,0.039999954,0.04,-9.523136,1.9185900688171387,-1.6050668,-0.025976364,0.011644965969026089,0.0063738804
437.13333333326443,0.51963973,-0.49809858,-0.32344136,-2.7369142,0.053227946,2.0932224,0.75828695,0.039999958,0.04,-9.52212,1.920344352722168,-1.6081715,-0.025554521,0.011101361364126205,0.006149133
437.1499999999311,0.52056104,-0.4975908,-0.32401636,-2.7375898,0.053322393,2.0941503,0.75823796,0.03999996,0.04,-9.521028,1.9220279455184937,-1.6112276,-0.025135249,0.010557837784290314,0.0059264954
437.16666666659773,0.5214592,-0.49709544,-0.32457715,-2.738249,0.053414516,2.095055,0.75818986,0.03999996,0.04,-9.51997,1.9236692190170288,-1.614205,-0.024720496,0.010018623434007168,0.0057093175
437.1833333332644,0.52233446,-0.49661273,-0.32512373,-2.7388916,0.053504314,2.095937,0.75814295,0.03999996,0.04,-9.519003,1.9253133535385132,-1.6170877,-0.024309075,0.009478268213570118,0.0054960614
437.19999999993104,0.5231872,-0.49614257,-0.32565627,-2.739517,0.053591784,2.0967963,0.7580976,0.039999966,0.04,-9.517951,1.926885962486267,-1.6199251,-0.023901777,0.008942186832427979,0.0052855047
437.2166666665977,0.5240174,-0.49568474,-0.32617468,-2.740126,0.053676948,2.0976331,0.758053,0.039999966,0.04,-9.516798,1.928404688835144,-1.6227144,-0.02349846,0.008412005379796028,0.005080088
437.23333333326434,0.52482533,-0.49523938,-0.3266791,-2.7407184,0.05375982,2.0984473,0.75800985,0.039999966,0.04,-9.515871,1.929869294166565,-1.6254028,-0.023096932,0.00788538996130228,0.004877929
437.249999999931,0.52561104,-0.49480632,-0.3271696,-2.741295,0.053840403,2.099239,0.7579679,0.03999997,0.04,-9.514881,1.9312893152236938,-1.628002,-0.022699783,0.007361540105193853,0.0046796994
437.26666666659764,0.5263744,-0.49438527,-0.3276464,-2.7418551,0.053918716,2.1000085,0.7579269,0.03999997,0.04,-9.513943,1.9326821565628052,-1.6305158,-0.02230566,0.006839279551059008,0.004486805
437.2833333332643,0.5271157,-0.49397638,-0.32810953,-2.742399,0.053994797,2.100756,0.7578875,0.03999997,0.04,-9.512917,1.9340723752975464,-1.6330138,-0.021916313,0.006321413442492485,0.0042974683
437.29999999993095,0.52783537,-0.49357957,-0.32855916,-2.7429268,0.05406865,2.101482,0.7578489,0.03999997,0.04,-9.5118885,1.9353888034820557,-1.6354349,-0.021533046,0.005809369031339884,0.004110803
437.3166666665976,0.5285335,-0.4931946,-0.32899526,-2.743439,0.054140285,2.1021857,0.75781167,0.039999977,0.04,-9.510929,1.9366581439971924,-1.6377667,-0.021152224,0.005303182173520327,0.003927731
437.33333333326425,0.5292104,-0.4928214,-0.32941788,-2.7439356,0.05420971,2.1028678,0.75777537,0.03999998,0.04,-9.509952,1.9378989934921265,-1.6399994,-0.020775601,0.004797226283699274,0.0037486858
437.3499999999309,0.5298659,-0.49245995,-0.3298274,-2.7444167,0.054276988,2.1035283,0.75774014,0.039999977,0.04,-9.509087,1.9390785694122314,-1.6421884,-0.020401604,0.0042938957922160625,0.0035760566
437.36666666659755,0.5305005,-0.4921101,-0.33022386,-2.7448828,0.054342106,2.1041677,0.7577065,0.039999984,0.04,-9.508121,1.9402459859848022,-1.6443192,-0.020032538,0.0037956687156111,0.0034044075
437.3833333332642,0.5311142,-0.49177167,-0.33060727,-2.7453334,0.05440508,2.1047862,0.75767344,0.039999988,0.04,-9.507236,1.9413856267929077,-1.6463687,-0.01967033,0.0033002442214637995,0.0032361287
437.39999999993086,0.53170735,-0.49144465,-0.33097792,-2.7457685,0.054465964,2.1053843,0.7576419,0.039999984,0.04,-9.506286,1.9424716234207153,-1.6483691,-0.019309606,0.002809634432196617,0.0030730583
437.4166666665975,0.53228015,-0.49112886,-0.33133584,-2.7461889,0.054524757,2.1059623,0.75761104,0.03999998,0.04,-9.505268,1.943530559539795,-1.6503514,-0.018955674,0.002329232171177864,0.0029120715
437.43333333326416,0.5328327,-0.4908241,-0.33168116,-2.7465944,0.05458149,2.1065192,0.75758153,0.039999988,0.04,-9.504337,1.9445571899414062,-1.6522167,-0.018604847,0.0018548871157690883,0.0027557127
437.4499999999308,0.53336567,-0.4905303,-0.33201414,-2.7469854,0.054636203,2.1070561,0.75755286,0.039999984,0.04,-9.503472,1.9455616474151611,-1.6539848,-0.018260568,0.0013821095926687121,0.0026030752
437.46666666659746,0.5338787,-0.49024734,-0.3323349,-2.7473617,0.05468887,2.1075735,0.75752544,0.03999999,0.04,-9.502467,1.9464901685714722,-1.6557485,-0.01791878,0.0009155987063422799,0.0024516215
437.4833333332641,0.53437245,-0.489975,-0.33264357,-2.747724,0.05473956,2.1080713,0.75749904,0.03999999,0.04,-9.501565,1.9474492073059082,-1.6574451,-0.017584562,0.0004576806677505374,0.002305707
437.49999999993076,0.53484714,-0.4897132,-0.3329404,-2.7480726,0.054788325,2.10855,0.75747365,0.03999999,0.04,-9.5007,1.9483288526535034,-1.6590443,-0.017254757,4.521937171375612e-06,0.002163318
437.5166666665974,0.53530294,-0.48946178,-0.3332255,-2.7484076,0.054835133,2.10901,0.75744945,0.04,0.04,-9.499845,1.9492003917694092,-1.6605865,-0.016931329,-0.0004430949338711798,0.0020217865
437.53333333326407,0.53574026,-0.48922056,-0.33349895,-2.7487285,0.05488006,2.1094506,0.75742596,0.04,0.04,-9.498935,1.9500517845153809,-1.6620792,-0.016613849,-0.0008845747797749937,0.0018869204
437.5499999999307,0.53615916,-0.48898944,-0.33376104,-2.7490363,0.054923132,2.109874,0.7574037,0.039999995,0.04,-9.497972,1.9508419036865234,-1.6635493,-0.01630024,-0.0013190063182264566,0.0017544092
437.56666666659737,0.53656054,-0.48876816,-0.33401194,-2.749331,0.05496434,2.1102786,0.7573821,0.04,0.04,-9.497091,1.951631784439087,-1.664926,-0.015994394,-0.0017422179225832224,0.0016230091
437.583333333264,0.5369441,-0.48855656,-0.33425188,-2.7496128,0.055003732,2.1106656,0.75736165,0.04,0.04,-9.496138,1.9523484706878662,-1.6662505,-0.01569085,-0.002160923555493355,0.0014952328
437.5999999999307,0.5373105,-0.4883545,-0.33448115,-2.749882,0.05504139,2.111035,0.757342,0.04,0.04,-9.4953375,1.9531017541885376,-1.6674968,-0.015395534,-0.002573559992015362,0.0013750542
437.6166666665973,0.53765994,-0.48816168,-0.33469978,-2.7501388,0.055077314,2.1113877,0.757323,0.039999995,0.039999995,-9.494404,1.9537941217422485,-1.6687357,-0.015105533,-0.0029772361740469933,0.0012554238
437.633333333264,0.53799284,-0.48797807,-0.334908,-2.7503834,0.055111513,2.1117234,0.75730526,0.03999999,0.04,-9.493544,1.9544529914855957,-1.669892,-0.014820892,-0.0033732568845152855,0.0011361679
437.6499999999306,0.53830934,-0.48780346,-0.33510613,-2.7506158,0.055144046,2.1120436,0.7572879,0.039999995,0.04,-9.492638,1.9550923109054565,-1.6710018,-0.014543151,-0.0037616556510329247,0.0010225268
437.6666666665973,0.53861016,-0.4876376,-0.33529437,-2.7508366,0.055174936,2.1123476,0.757272,0.04,0.04,-9.491684,1.9557366371154785,-1.6720876,-0.014270528,-0.004136618226766586,0.0009119874
437.68333333326393,0.5388952,-0.48748022,-0.33547297,-2.7510457,0.055204265,2.112636,0.7572565,0.039999995,0.039999995,-9.490801,1.9563275575637817,-1.673082,-0.014006334,-0.004503478296101093,0.0008070211
437.6999999999306,0.53916514,-0.48733118,-0.33564216,-2.7512445,0.05523202,2.1129088,0.75724244,0.04,0.04,-9.489828,1.9569240808486938,-1.6740699,-0.013748742,-0.0048585087060928345,0.0007003604
437.71666666659723,0.53942066,-0.48719034,-0.3358021,-2.7514317,0.05525827,2.1131668,0.7572286,0.04,0.04,-9.489021,1.9574997425079346,-1.6749068,-0.013500663,-0.005211311858147383,0.0006004007
437.7333333332639,0.5396614,-0.48705733,-0.3359531,-2.7516084,0.055283044,2.1134102,0.75721544,0.04,0.04,-9.488054,1.957980751991272,-1.6758177,-0.013255344,-0.005550533067435026,0.0005027993
437.74999999993054,0.5398885,-0.48693192,-0.3360954,-2.7517765,0.05530639,2.1136396,0.7572034,0.04,0.04,-9.487138,1.9585440158843994,-1.6766325,-0.013018502,-0.005879819393157959,0.0004083111
437.7666666665972,0.540102,-0.48681405,-0.33622932,-2.7519324,0.05532836,2.1138556,0.75719184,0.04,0.04,-9.486458,1.959026575088501,-1.677305,-0.01279026,-0.006208228413015604,0.00031827652
437.78333333326384,0.54030246,-0.48670328,-0.33635506,-2.7520788,0.055348992,2.1140578,0.7571815,0.04,0.04,-9.48524,1.959501028060913,-1.6781785,-0.012568473,-0.006513678934425116,0.00023027099
437.7999999999305,0.5404905,-0.48659948,-0.3364729,-2.7522173,0.05536832,2.1142476,0.7571715,0.04,0.04,-9.484343,1.9599559307098389,-1.6788511,-0.012356475,-0.006811756640672684,0.00014564054
437.81666666659714,0.5406664,-0.4865024,-0.3365832,-2.7523475,0.05538641,2.1144254,0.7571619,0.04,0.04,-9.483581,1.9603878259658813,-1.6794288,-0.012150071,-0.007104355841875076,6.463258e-05
437.8333333332638,0.54083043,-0.48641193,-0.3366861,-2.7524695,0.05540331,2.1145904,0.7571536,0.04,0.04,-9.482686,1.960830569267273,-1.6800128,-0.011950756,-0.007387383840978146,-1.2110379e-05
437.84999999993045,0.5409832,-0.4863276,-0.33678213,-2.7525837,0.055419046,2.1147451,0.75714546,0.04,0.04,-9.481889,1.9612390995025635,-1.6805217,-0.011762516,-0.0076672849245369434,-8.690422e-05
437.8666666665971,0.5411252,-0.4862492,-0.33687136,-2.75269,0.055433687,2.1148891,0.7571378,0.04,0.04,-9.480934,1.961653470993042,-1.6811056,-0.011582046,-0.007930496707558632,-0.00015951463
437.88333333326375,0.5412569,-0.4861765,-0.33695424,-2.7527885,0.055447236,2.1150224,0.75713044,0.04,0.04,-9.479974,1.9620329141616821,-1.6816239,-0.011409055,-0.008181622251868248,-0.00022866788
437.8999999999304,0.54137886,-0.48610917,-0.33703098,-2.7528796,0.055459797,2.1151462,0.7571241,0.04,0.04,-9.478977,1.9624074697494507,-1.6821135,-0.011243854,-0.008421487174928188,-0.00029406746
437.91666666659705,0.54149157,-0.48604685,-0.33710203,-2.7529633,0.055471417,2.1152606,0.75711805,0.04,0.04,-9.477986,1.9627659320831299,-1.6825813,-0.011089385,-0.008646480739116669,-0.00035424277
437.9333333332637,0.5415957,-0.48598936,-0.33716744,-2.7530396,0.055482127,2.1153657,0.75711226,0.04,0.04,-9.476934,1.9631202220916748,-1.683039,-0.010943266,-0.008856477215886116,-0.0004125994
437.94999999993036,0.54169154,-0.48593637,-0.3372278,-2.7531087,0.055492003,2.1154633,0.75710684,0.04,0.04,-9.475825,1.9634249210357666,-1.6834822,-0.010803774,-0.009050702676177025,-0.00046541227
437.966666666597,0.5417799,-0.48588774,-0.33728337,-2.7531726,0.055501103,2.1155531,0.75710243,0.04,0.04,-9.4746685,1.9637658596038818,-1.6838968,-0.010673984,-0.009224199689924717,-0.00051542645
437.98333333326366,0.54186094,-0.48584294,-0.33733448,-2.7532327,0.055509496,2.1156354,0.75709814,0.04,0.04,-9.473694,1.9640735387802124,-1.6842048,-0.010555695,-0.00938507355749607,-0.00056082493
437.9999999999303,0.5419355,-0.4858018,-0.33738142,-2.7532866,0.05551719,2.11571,0.7570942,0.04,0.04,-9.472899,1.9643975496292114,-1.684403,-0.010446954,-0.009541465900838375,-0.00060478406
438.01666666659696,0.54200405,-0.48576385,-0.33742473,-2.7533379,0.055524275,2.1157796,0.75709033,0.04,0.04,-9.471806,1.9646685123443604,-1.6847483,-0.010346321,-0.009683518670499325,-0.0006440538
438.0333333332636,0.5420671,-0.485729,-0.33746466,-2.7533836,0.055530798,2.115845,0.75708663,0.04,0.04,-9.471149,1.964958667755127,-1.6849312,-0.010253695,-0.00981777161359787,-0.00068014895
438.04999999993026,0.5421251,-0.48569697,-0.33750144,-2.7534266,0.055536807,2.1159039,0.75708336,0.04,0.04,-9.470143,1.9652007818222046,-1.6852804,-0.010167917,-0.009928686544299126,-0.0007130889
438.0666666665969,0.54217845,-0.4856675,-0.3375352,-2.7534647,0.055542335,2.1159577,0.7570808,0.04,0.04,-9.469557,1.9654278755187988,-1.6854117,-0.010090008,-0.01003999449312687,-0.0007442909
438.08333333326357,0.5422275,-0.48564035,-0.33756638,-2.7535017,0.05554742,2.1160088,0.75707835,0.04,0.04,-9.468713,1.9656152725219727,-1.6856853,-0.010019885,-0.01013754028826952,-0.00077281636
438.0999999999302,0.5422726,-0.48561543,-0.33759493,-2.7535343,0.05555209,2.1160529,0.75707597,0.04,0.04,-9.468325,1.9658246040344238,-1.6857886,-0.009955936,-0.010229317471385002,-0.0007990975
438.11666666659687,0.54231393,-0.48559248,-0.3376213,-2.7535646,0.0555564,2.1160963,0.7570738,0.04,0.039999995,-9.467647,1.9659764766693115,-1.6859735,-0.009895692,-0.01032031700015068,-0.00082228065
438.1333333332635,0.5423521,-0.48557138,-0.33764553,-2.7535937,0.05556036,2.1161344,0.75707185,0.04,0.039999995,-9.467091,1.9661660194396973,-1.686186,-0.009841945,-0.01039211731404066,-0.00084471656
438.1499999999302,0.5423871,-0.48555192,-0.3376678,-2.7536192,0.055564012,2.1161704,0.7570699,0.04,0.039999995,-9.466817,1.9662950038909912,-1.6862121,-0.009791955,-0.010472087189555168,-0.0008653601
438.1666666665968,0.54241943,-0.48553404,-0.33768842,-2.753642,0.055567365,2.1162057,0.757068,0.04,0.04,-9.466188,1.9664195775985718,-1.6864531,-0.009745187,-0.010535784997045994,-0.00088519696
438.1833333332635,0.54244906,-0.4855176,-0.33770728,-2.753664,0.055570446,2.1162343,0.75706613,0.04,0.04,-9.46567,1.9665485620498657,-1.6866452,-0.009701765,-0.010581910610198975,-0.00090246054
438.1999999999301,0.54247636,-0.4855025,-0.33772454,-2.7536845,0.05557329,2.1162624,0.75706434,0.04,0.039999995,-9.465509,1.9666656255722046,-1.6865944,-0.009661645,-0.010645905509591103,-0.0009176602
438.2166666665968,0.54250157,-0.48548856,-0.33774054,-2.753703,0.055575892,2.1162903,0.75706285,0.04,0.04,-9.465152,1.9667563438415527,-1.6867318,-0.0096237585,-0.010697691701352596,-0.00093316287
438.23333333326343,0.54252476,-0.4854758,-0.3377553,-2.7537193,0.0555783,2.1163116,0.7570615,0.04,0.04,-9.464768,1.9668586254119873,-1.6868836,-0.009589649,-0.01073535531759262,-0.0009452689
438.2499999999301,0.54254603,-0.48546407,-0.33776876,-2.753734,0.055580523,2.1163323,0.75706017,0.04,0.04,-9.46447,1.9669370651245117,-1.6869062,-0.0095582055,-0.010786009021103382,-0.0009582215
438.26666666659673,0.54256546,-0.48545325,-0.3377812,-2.7537484,0.05558256,2.1163528,0.7570591,0.04,0.04,-9.464161,1.967014193534851,-1.6870339,-0.009528879,-0.010826296173036098,-0.0009697226
438.2833333332634,0.54258317,-0.48544335,-0.33779263,-2.7537622,0.055584434,2.116373,0.7570585,0.04,0.039999995,-9.463977,1.9671086072921753,-1.6870921,-0.009503469,-0.010859989561140537,-0.0009802921
438.29999999993004,0.5425997,-0.48543417,-0.33780313,-2.7537746,0.05558615,2.116391,0.7570579,0.04,0.04,-9.4637985,1.9672002792358398,-1.6871427,-0.009482796,-0.010887112468481064,-0.0009908541
438.3166666665967,0.54261506,-0.4854257,-0.33781278,-2.753786,0.055587746,2.1164043,0.75705737,0.04,0.039999995,-9.463582,1.9672327041625977,-1.6872035,-0.009462352,-0.0109148183837533,-0.0009986908
438.33333333326334,0.5426288,-0.48541802,-0.3378217,-2.7537963,0.0555892,2.1164174,0.75705683,0.04,0.04,-9.463469,1.9672701358795166,-1.6871854,-0.009442874,-0.01095495093613863,-0.001007838
438.34999999993,0.5426418,-0.48541096,-0.33782995,-2.7538054,0.055590548,2.1164303,0.75705636,0.04,0.039999995,-9.463216,1.9673625230789185,-1.687296,-0.009426402,-0.010985941626131535,-0.001014984
438.36666666659664,0.54265356,-0.48540443,-0.3378375,-2.7538137,0.055591777,2.1164432,0.7570559,0.04,0.04,-9.462994,1.9673776626586914,-1.6873958,-0.009409944,-0.011009414680302143,-0.0010228736
438.3833333332633,0.54266465,-0.48539838,-0.3378444,-2.753821,0.055592917,2.1164558,0.7570554,0.04,0.039999995,-9.462822,1.967443585395813,-1.6874584,-0.009395401,-0.011025974527001381,-0.0010285072
438.39999999992995,0.54267454,-0.48539284,-0.33785084,-2.7538278,0.055593967,2.116468,0.757055,0.04,0.03999999,-9.212066,1.7707035541534424,-1.7441103,0.0,-0.0,0.0
438.4166666665966,0.54267454,-0.48539284,-0.33785084,-2.7538278,0.055593967,2.116468,0.757055,0.04,0.03999999,-9.461314,1.9677443504333496,-1.687488,0.0,-0.0,0.0
438.43333333326325,0.54267454,-0.48539284,-0.33785084,-2.7538278,0.055593967,2.116468,0.757055,0.04,0.03999999,-9.461314,1.9677443504333496,-1.687488,0.0,-0.0,0.0
438.4499999999299,0.54267454,-0.48539284,-0.33785084,-2.7538278,0.055593967,2.116468,0.757055,0.04,0.03999999,-9.461314,1.9677443504333496,-1.687488,0.0,-0.0,0.0
438.46666666659655,0.54267454,-0.48539284,-0.33785084,-2.7538278,0.055593967,2.116468,0.757055,0.04,0.03999999,-9.461314,1.9677443504333496,-1.687488,0.0,-0.0,0.0
438.4833333332632,0.54267454,-0.48539284,-0.33785084,-2.7538278,0.055593967,2.116468,0.757055,0.04,0.03999999,-9.461314,1.9677443504333496,-1.687488,0.0,-0.0,0.0
438.49999999992986,0.54267454,-0.48539284,-0.33785084,-2.7538278,0.055593967,2.116468,0.757055,0.04,0.03999999,-9.461314,1.9677443504333496,-1.687488,0.0,-0.0,0.0
438.5166666665965,0.54267454,-0.48539284,-0.33785084,-2.7538278,0.055593967,2.116468,0.757055,0.04,0.03999999,-9.461314,1.9677443504333496,-1.687488,0.0,-0.0,0.0
438.53333333326316,0.54267454,-0.48539284,-0.33785084,-2.7538278,0.055593967,2.116468,0.757055,0.04,0.03999999,-9.461314,1.9677443504333496,-1.687488,0.0,-0.0,0.0
438.5499999999298,0.54267454,-0.48539284,-0.33785084,-2.7538278,0.055593967,2.116468,0.757055,0.04,0.03999999,-9.461314,1.9677443504333496,-1.687488,0.0,-0.0,0.0
438.56666666659646,0.54267454,-0.48539284,-0.33785084,-2.7538278,0.055593967,2.116468,0.757055,0.04,0.03999999,-9.461314,1.9677443504333496,-1.687488,0.0,-0.0,0.0
438.5833333332631,0.54267454,-0.48539284,-0.33785084,-2.7538278,0.055593967,2.116468,0.757055,0.04,0.03999999,-9.461314,1.9677443504333496,-1.687488,0.0,-0.0,0.0
438.59999999992976,0.54267454,-0.48539284,-0.33785084,-2.7538278,0.055593967,2.116468,0.757055,0.04,0.03999999,-9.461314,1.9677443504333496,-1.687488,0.0,-0.0,0.0
438.6166666665964,0.54267454,-0.48539284,-0.33785084,-2.7538278,0.055593967,2.116468,0.757055,0.04,0.03999999,-9.461314,1.9677443504333496,-1.687488,0.0,-0.0,0.0
438.63333333326307,0.54267454,-0.48539284,-0.33785084,-2.7538278,0.055593967,2.116468,0.757055,0.04,0.03999999,-9.461314,1.9677443504333496,-1.687488,0.0,-0.0,0.0
438.6499999999297,0.54267454,-0.48539284,-0.33785084,-2.7538278,0.055593967,2.116468,0.757055,0.04,0.03999999,-9.461314,1.9677443504333496,-1.687488,0.0,-0.0,0.0
438.66666666659637,0.54267454,-0.48539284,-0.33785084,-2.7538278,0.055593967,2.116468,0.757055,0.04,0.03999999,-9.461314,1.9677443504333496,-1.687488,0.0,-0.0,0.0
438.683333333263,0.54267454,-0.48539284,-0.33785084,-2.7538278,0.055593967,2.116468,0.757055,0.04,0.03999999,-9.461314,1.9677443504333496,-1.687488,0.0,-0.0,0.0
438.6999999999297,0.54267454,-0.48539284,-0.33785084,-2.7538278,0.055593967,2.116468,0.757055,0.04,0.03999999,-9.461314,1.9677443504333496,-1.687488,0.0,-0.0,0.0
438.7166666665963,0.54267454,-0.48539284,-0.33785084,-2.7538278,0.055593967,2.116468,0.757055,0.04,0.03999999,-9.461314,1.9677443504333496,-1.687488,0.0,-0.0,0.0
438.733333333263,0.54267454,-0.48539284,-0.33785084,-2.7538278,0.055593967,2.116468,0.757055,0.04,0.03999999,-9.461314,1.9677443504333496,-1.687488,0.0,-0.0,0.0
438.7499999999296,0.54267454,-0.48539284,-0.33785084,-2.7538278,0.055593967,2.116468,0.757055,0.04,0.03999999,-9.461314,1.9677443504333496,-1.687488,0.0,-0.0,0.0
438.7666666665963,0.54267454,-0.48539284,-0.33785084,-2.7538278,0.055593967,2.116468,0.757055,0.04,0.03999999,-9.461314,1.9677443504333496,-1.687488,0.0,-0.0,0.0
438.78333333326293,0.54267454,-0.48539284,-0.33785084,-2.7538278,0.055593967,2.116468,0.757055,0.04,0.03999999,-9.461314,1.9677443504333496,-1.687488,0.0,-0.0,0.0
438.7999999999296,0.54267454,-0.48539284,-0.33785084,-2.7538278,0.055593967,2.116468,0.757055,0.04,0.03999999,-9.461314,1.9677443504333496,-1.687488,0.0,-0.0,0.0
438.81666666659623,0.54267454,-0.48539284,-0.33785084,-2.7538278,0.055593967,2.116468,0.757055,0.04,0.03999999,-9.461314,1.9677443504333496,-1.687488,0.0,-0.0,0.0
438.8333333332629,0.54267454,-0.48539284,-0.33785084,-2.7538278,0.055593967,2.116468,0.757055,0.04,0.03999999,-9.461314,1.9677443504333496,-1.687488,0.0,-0.0,0.0
438.84999999992954,0.54267454,-0.48539284,-0.33785084,-2.7538278,0.055593967,2.116468,0.757055,0.04,0.03999999,-9.461314,1.9677443504333496,-1.687488,0.0,-0.0,0.0
438.8666666665962,0.54267454,-0.48539284,-0.33785084,-2.7538278,0.055593967,2.116468,0.757055,0.04,0.03999999,-9.461314,1.9677443504333496,-1.687488,0.0,-0.0,0.0
438.88333333326284,0.54267454,-0.48539284,-0.33785084,-2.7538278,0.055593967,2.116468,0.757055,0.04,0.03999999,-9.461314,1.9677443504333496,-1.687488,0.0,-0.0,0.0
438.8999999999295,0.54267454,-0.48539284,-0.33785084,-2.7538278,0.055593967,2.116468,0.757055,0.04,0.03999999,-9.461314,1.9677443504333496,-1.687488,0.0,-0.0,0.0
438.91666666659614,0.54267454,-0.48539284,-0.33785084,-2.7538278,0.055593967,2.116468,0.757055,0.04,0.03999999,-9.461314,1.9677443504333496,-1.687488,0.0,-0.0,0.0
438.9333333332628,0.54267454,-0.48539284,-0.33785084,-2.7538278,0.055593967,2.116468,0.757055,0.04,0.03999999,-9.461314,1.9677443504333496,-1.687488,0.0,-0.0,0.0
438.94999999992945,0.54267454,-0.48539284,-0.33785084,-2.7538278,0.055593967,2.116468,0.757055,0.04,0.03999999,-9.461314,1.9677443504333496,-1.687488,0.0,-0.0,0.0
438.9666666665961,0.54267454,-0.48539284,-0.33785084,-2.7538278,0.055593967,2.116468,0.757055,0.04,0.03999999,-9.461314,1.9677443504333496,-1.687488,0.0,-0.0,0.0
438.98333333326275,0.54267454,-0.48539284,-0.33785084,-2.7538278,0.055593967,2.116468,0.757055,0.04,0.03999999,-9.461314,1.9677443504333496,-1.687488,0.0,-0.0,0.0
438.9999999999294,0.54267454,-0.48539284,-0.33785084,-2.7538278,0.055593967,2.116468,0.757055,0.04,0.03999999,-9.461314,1.9677443504333496,-1.687488,0.0,-0.0,0.0
439.01666666659605,0.54267454,-0.48539284,-0.33785084,-2.7538278,0.055593967,2.116468,0.757055,0.04,0.03999999,-9.461314,1.9677443504333496,-1.687488,0.0,-0.0,0.0
439.0333333332627,0.54267454,-0.48539284,-0.33785084,-2.7538278,0.055593967,2.116468,0.757055,0.04,0.03999999,-9.461314,1.9677443504333496,-1.687488,0.0,-0.0,0.0
439.04999999992935,0.54267454,-0.48539284,-0.33785084,-2.7538278,0.055593967,2.116468,0.757055,0.04,0.03999999,-9.461314,1.9677443504333496,-1.687488,0.0,-0.0,0.0
439.066666666596,0.54267454,-0.48539284,-0.33785084,-2.7538278,0.055593967,2.116468,0.757055,0.04,0.03999999,-9.461314,1.9677443504333496,-1.687488,0.0,-0.0,0.0
439.08333333326266,0.54267454,-0.48539284,-0.33785084,-2.7538278,0.055593967,2.116468,0.757055,0.04,0.03999999,-9.461314,1.9677443504333496,-1.687488,0.0,-0.0,0.0
439.0999999999293,0.54267454,-0.48539284,-0.33785084,-2.7538278,0.055593967,2.116468,0.757055,0.04,0.03999999,-9.461314,1.9677443504333496,-1.687488,0.0,-0.0,0.0
439.11666666659596,0.54267454,-0.48539284,-0.33785084,-2.7538278,0.055593967,2.116468,0.757055,0.04,0.03999999,-9.461314,1.9677443504333496,-1.687488,0.0,-0.0,0.0
439.1333333332626,0.54267454,-0.48539284,-0.33785084,-2.7538278,0.055593967,2.116468,0.757055,0.04,0.03999999,-9.461314,1.9677443504333496,-1.687488,0.0,-0.0,0.0
439.14999999992926,0.54267454,-0.48539284,-0.33785084,-2.7538278,0.055593967,2.116468,0.757055,0.04,0.03999999,-9.461314,1.9677443504333496,-1.687488,0.0,-0.0,0.0
439.1666666665959,0.54267454,-0.48539284,-0.33785084,-2.7538278,0.055593967,2.116468,0.757055,0.04,0.03999999,-9.461314,1.9677443504333496,-1.687488,0.0,-0.0,0.0
439.18333333326257,0.54267454,-0.48539284,-0.33785084,-2.7538278,0.055593967,2.116468,0.757055,0.04,0.03999999,-9.461314,1.9677443504333496,-1.687488,0.0,-0.0,0.0
439.1999999999292,0.54267454,-0.48539284,-0.33785084,-2.7538278,0.055593967,2.116468,0.757055,0.04,0.03999999,-9.461314,1.9677443504333496,-1.687488,0.0,-0.0,0.0
439.21666666659587,0.54267454,-0.48539284,-0.33785084,-2.7538278,0.055593967,2.116468,0.757055,0.04,0.03999999,-9.461314,1.9677443504333496,-1.687488,0.0,-0.0,0.0
439.2333333332625,0.54267454,-0.48539284,-0.33785084,-2.7538278,0.055593967,2.116468,0.757055,0.04,0.03999999,-9.461314,1.9677443504333496,-1.687488,0.0,-0.0,0.0
439.2499999999292,0.54267454,-0.48539284,-0.33785084,-2.7538278,0.055593967,2.116468,0.757055,0.04,0.03999999,-9.461314,1.9677443504333496,-1.687488,0.0,-0.0,0.0
439.2666666665958,0.54267454,-0.48539284,-0.33785084,-2.7538278,0.055593967,2.116468,0.757055,0.04,0.03999999,-9.461314,1.9677443504333496,-1.687488,0.0,-0.0,0.0
439.2833333332625,0.54267454,-0.48539284,-0.33785084,-2.7538278,0.055593967,2.116468,0.757055,0.04,0.03999999,-9.461314,1.9677443504333496,-1.687488,0.0,-0.0,0.0
439.2999999999291,0.54267454,-0.48539284,-0.33785084,-2.7538278,0.055593967,2.116468,0.757055,0.04,0.03999999,-9.461314,1.9677443504333496,-1.687488,0.0,-0.0,0.0
439.3166666665958,0.54267454,-0.48539284,-0.33785084,-2.7538278,0.055593967,2.116468,0.757055,0.04,0.03999999,-9.461314,1.9677443504333496,-1.687488,0.0,-0.0,0.0
439.33333333326243,0.54267454,-0.48539284,-0.33785084,-2.7538278,0.055593967,2.116468,0.757055,0.04,0.03999999,-9.461314,1.9677443504333496,-1.687488,0.0,-0.0,0.0
439.3499999999291,0.54267454,-0.48539284,-0.33785084,-2.7538278,0.055593967,2.116468,0.757055,0.04,0.03999999,-9.461314,1.9677443504333496,-1.687488,0.0,-0.0,0.0
439.36666666659573,0.54267454,-0.48539284,-0.33785084,-2.7538278,0.055593967,2.116468,0.757055,0.04,0.03999999,-9.461314,1.9677443504333496,-1.687488,0.0,-0.0,0.0
439.3833333332624,0.54267454,-0.48539284,-0.33785084,-2.7538278,0.055593967,2.116468,0.757055,0.04,0.03999999,-9.461314,1.9677443504333496,-1.687488,0.0,-0.0,0.0
439.39999999992904,0.54267454,-0.48539284,-0.33785084,-2.7538278,0.055593967,2.116468,0.757055,0.04,0.03999999,-9.461314,1.9677443504333496,-1.687488,0.0,-0.0,0.0
439.4166666665957,0.54267454,-0.48539284,-0.33785084,-2.7538278,0.055593967,2.116468,0.757055,0.04,0.03999999,-9.461314,1.9677443504333496,-1.687488,0.0,-0.0,0.0
439.43333333326234,0.54267454,-0.48539284,-0.33785084,-2.7538278,0.055593967,2.116468,0.757055,0.04,0.03999999,-9.461314,1.9677443504333496,-1.687488,0.0,-0.0,0.0
439.449999999929,0.54267454,-0.48539284,-0.33785084,-2.7538278,0.055593967,2.116468,0.757055,0.04,0.03999999,-9.461314,1.9677443504333496,-1.687488,0.0,-0.0,0.0
439.46666666659564,0.54267454,-0.48539284,-0.33785084,-2.7538278,0.055593967,2.116468,0.757055,0.04,0.03999999,-9.461314,1.9677443504333496,-1.687488,0.0,-0.0,0.0
439.4833333332623,0.54267454,-0.48539284,-0.33785084,-2.7538278,0.055593967,2.116468,0.757055,0.04,0.03999999,-9.461314,1.9677443504333496,-1.687488,0.0,-0.0,0.0
439.49999999992895,0.54267454,-0.48539284,-0.33785084,-2.7538278,0.055593967,2.116468,0.757055,0.04,0.03999999,-9.461314,1.9677443504333496,-1.687488,0.0,-0.0,0.0
439.5166666665956,0.54267454,-0.48539284,-0.33785084,-2.7538278,0.055593967,2.116468,0.757055,0.04,0.03999999,-9.461314,1.9677443504333496,-1.687488,0.0,-0.0,0.0
439.53333333326225,0.54267454,-0.48539284,-0.33785084,-2.7538278,0.055593967,2.116468,0.757055,0.04,0.03999999,-9.461314,1.9677443504333496,-1.687488,0.0,-0.0,0.0
439.5499999999289,0.54267454,-0.48539284,-0.33785084,-2.7538278,0.055593967,2.116468,0.757055,0.04,0.03999999,-9.461314,1.9677443504333496,-1.687488,0.0,-0.0,0.0
439.56666666659555,0.54267454,-0.48539284,-0.33785084,-2.7538278,0.055593967,2.116468,0.757055,0.04,0.03999999,-9.461314,1.9677443504333496,-1.687488,0.0,-0.0,0.0
439.5833333332622,0.54267454,-0.48539284,-0.33785084,-2.7538278,0.055593967,2.116468,0.757055,0.04,0.03999999,-9.461314,1.9677443504333496,-1.687488,0.0,-0.0,0.0
439.59999999992885,0.54267454,-0.48539284,-0.33785084,-2.7538278,0.055593967,2.116468,0.757055,0.04,0.03999999,-9.461314,1.9677443504333496,-1.687488,0.0,-0.0,0.0
439.6166666665955,0.54267454,-0.48539284,-0.33785084,-2.7538278,0.055593967,2.116468,0.757055,0.04,0.03999999,-9.461314,1.9677443504333496,-1.687488,0.0,-0.0,0.0
439.63333333326216,0.54267454,-0.48539284,-0.33785084,-2.7538278,0.055593967,2.116468,0.757055,0.04,0.03999999,-9.461314,1.9677443504333496,-1.687488,0.0,-0.0,0.0
439.6499999999288,0.54267454,-0.48539284,-0.33785084,-2.7538278,0.055593967,2.116468,0.757055,0.04,0.03999999,-9.461314,1.9677443504333496,-1.687488,0.0,-0.0,0.0
439.66666666659546,0.54267454,-0.48539284,-0.33785084,-2.7538278,0.055593967,2.116468,0.757055,0.04,0.03999999,-9.461314,1.9677443504333496,-1.687488,0.0,-0.0,0.0
439.6833333332621,0.54267454,-0.48539284,-0.33785084,-2.7538278,0.055593967,2.116468,0.757055,0.04,0.03999999,-9.461314,1.9677443504333496,-1.687488,0.0,-0.0,0.0
439.69999999992876,0.54267454,-0.48539284,-0.33785084,-2.7538278,0.055593967,2.116468,0.757055,0.04,0.03999999,-9.461314,1.9677443504333496,-1.687488,0.0,-0.0,0.0
439.7166666665954,0.54267454,-0.48539284,-0.33785084,-2.7538278,0.055593967,2.116468,0.757055,0.04,0.03999999,-9.461314,1.9677443504333496,-1.687488,0.0,-0.0,0.0
439.73333333326207,0.54267454,-0.48539284,-0.33785084,-2.7538278,0.055593967,2.116468,0.757055,0.04,0.03999999,-9.461314,1.9677443504333496,-1.687488,0.0,-0.0,0.0
439.7499999999287,0.54267454,-0.48539284,-0.33785084,-2.7538278,0.055593967,2.116468,0.757055,0.04,0.03999999,-9.461314,1.9677443504333496,-1.687488,0.0,-0.0,0.0
439.76666666659537,0.54267454,-0.48539284,-0.33785084,-2.7538278,0.055593967,2.116468,0.757055,0.04,0.03999999,-9.461314,1.9677443504333496,-1.687488,0.0,-0.0,0.0
439.783333333262,0.54267454,-0.48539284,-0.33785084,-2.7538278,0.055593967,2.116468,0.757055,0.04,0.03999999,-9.461314,1.9677443504333496,-1.687488,0.0,-0.0,0.0
439.7999999999287,0.54267454,-0.48539284,-0.33785084,-2.7538278,0.055593967,2.116468,0.757055,0.04,0.03999999,-9.461314,1.9677443504333496,-1.687488,0.0,-0.0,0.0
439.8166666665953,0.54267454,-0.48539284,-0.33785084,-2.7538278,0.055593967,2.116468,0.757055,0.04,0.03999999,-9.461314,1.9677443504333496,-1.687488,0.0,-0.0,0.0
439.833333333262,0.54267454,-0.48539284,-0.33785084,-2.7538278,0.055593967,2.116468,0.757055,0.04,0.03999999,-9.461314,1.9677443504333496,-1.687488,0.0,-0.0,0.0
439.8499999999286,0.54267454,-0.48539284,-0.33785084,-2.7538278,0.055593967,2.116468,0.757055,0.04,0.03999999,-9.461314,1.9677443504333496,-1.687488,0.0,-0.0,0.0
439.8666666665953,0.54267454,-0.48539284,-0.33785084,-2.7538278,0.055593967,2.116468,0.757055,0.04,0.03999999,-9.461314,1.9677443504333496,-1.687488,0.0,-0.0,0.0
439.88333333326193,0.54267454,-0.48539284,-0.33785084,-2.7538278,0.055593967,2.116468,0.757055,0.04,0.03999999,-9.461314,1.9677443504333496,-1.687488,0.0,-0.0,0.0
439.8999999999286,0.54267454,-0.48539284,-0.33785084,-2.7538278,0.055593967,2.116468,0.757055,0.04,0.03999999,-9.461314,1.9677443504333496,-1.687488,0.0,-0.0,0.0
439.91666666659523,0.54267454,-0.48539284,-0.33785084,-2.7538278,0.055593967,2.116468,0.757055,0.04,0.03999999,-9.461314,1.9677443504333496,-1.687488,0.0,-0.0,0.0
439.9333333332619,0.54267454,-0.48539284,-0.33785084,-2.7538278,0.055593967,2.116468,0.757055,0.04,0.03999999,-9.461314,1.9677443504333496,-1.687488,0.0,-0.0,0.0
439.94999999992854,0.54267454,-0.48539284,-0.33785084,-2.7538278,0.055593967,2.116468,0.757055,0.04,0.03999999,-9.461314,1.9677443504333496,-1.687488,0.0,-0.0,0.0
439.9666666665952,0.54267454,-0.48539284,-0.33785084,-2.7538278,0.055593967,2.116468,0.757055,0.04,0.03999999,-9.461314,1.9677443504333496,-1.687488,0.0,-0.0,0.0
439.98333333326184,0.54267454,-0.48539284,-0.33785084,-2.7538278,0.055593967,2.116468,0.757055,0.04,0.03999999,-9.461314,1.9677443504333496,-1.687488,0.0,-0.0,0.0
439.9999999999285,0.54267454,-0.48539284,-0.33785084,-2.7538278,0.055593967,2.116468,0.757055,0.04,0.03999999,-9.461314,1.9677443504333496,-1.687488,0.0,-0.0,0.0
